EmanuelSamir/lab201_ws_projsamir/sawyer_dev/data/sawyer/static/test_joint4/training_data_nonstatic.csv
,j1,j2,j3,j4,j5,j6,j7,v1,v2,v3,v4,v5,v6,v7,jd1,jd2,jd3,jd4,jd5,jd6,jd7,e1,e2,e3,e4,e5,e6,e7
0,0.0,0.0,0.0,0.0,0.0,0.0,0.0,0.0,0.0,0.0,0.0,0.0,0.0,0.0,0.0,0.0,0.0,0.0,0.0,0.0,0.0,0.0,0.0,0.0,0.0,0.0,0.0,0.0
1,0.0,0.0,0.0,-0.0036904296875,0.0,0.0,0.0,0.0,0.0,0.0,-0.001,0.0,0.0,0.0,0.0,0.0,0.0,-0.0007892578966006438,0.0,0.0,0.0,0.0,0.0,0.0,-13.88,0.0,0.0,0.0
2,0.0,0.0,0.0,-0.0036904296875,0.0,0.0,0.0,0.0,0.0,0.0,-0.001,0.0,0.0,0.0,0.0,0.0,0.0,0.08883782701370596,0.0,0.0,0.0,0.0,0.0,0.0,-13.88,0.0,0.0,0.0
3,0.0,0.0,0.0,-0.0036904296875,0.0,0.0,0.0,0.0,0.0,0.0,-0.001,0.0,0.0,0.0,0.0,0.0,0.0,0.10926029387410388,0.0,0.0,0.0,0.0,0.0,0.0,-13.88,0.0,0.0,0.0
4,0.0,0.0,0.0,-0.0036904296875,0.0,0.0,0.0,0.0,0.0,0.0,-0.001,0.0,0.0,0.0,0.0,0.0,0.0,0.11139321304424488,0.0,0.0,0.0,0.0,0.0,0.0,-13.904,0.0,0.0,0.0
5,0.0,0.0,0.0,-0.0035458984375,0.0,0.0,0.0,0.0,0.0,0.0,0.006,0.0,0.0,0.0,0.0,0.0,0.0,0.11305096490653985,0.0,0.0,0.0,0.0,0.0,0.0,-13.584,0.0,0.0,0.0
6,0.0,0.0,0.0,-0.0026796875,0.0,0.0,0.0,0.0,0.0,0.0,0.037,0.0,0.0,0.0,0.0,0.0,0.0,0.11043516583159543,0.0,0.0,0.0,0.0,0.0,0.0,-12.28,0.0,0.0,0.0
7,0.0,0.0,0.0,-0.000216796875,0.0,0.0,0.0,0.0,0.0,0.0,0.16,0.0,0.0,0.0,0.0,0.0,0.0,0.1132382638123529,0.0,0.0,0.0,0.0,0.0,0.0,-11.32,0.0,0.0,0.0
8,0.0,0.0,0.0,0.0029677734375,0.0,0.0,0.0,0.0,0.0,0.0,0.274,0.0,0.0,0.0,0.0,0.0,0.0,0.12164831555041357,0.0,0.0,0.0,0.0,0.0,0.0,-10.68,0.0,0.0,0.0
9,0.0,0.0,0.0,0.0070283203125,0.0,0.0,0.0,0.0,0.0,0.0,0.352,0.0,0.0,0.0,0.0,0.0,0.0,0.11609351136641,0.0,0.0,0.0,0.0,0.0,0.0,-10.268,0.0,0.0,0.0
10,0.0,0.0,0.0,0.0164482421875,0.0,0.0,0.0,0.0,0.0,0.0,0.47,0.0,0.0,0.0,0.0,0.0,0.0,0.13975799371217967,0.0,0.0,0.0,0.0,0.0,0.0,-9.216,0.0,0.0,0.0
11,0.0,0.0,0.0,0.0164482421875,0.0,0.0,0.0,0.0,0.0,0.0,0.47,0.0,0.0,0.0,0.0,0.0,0.0,0.11574602506605751,0.0,0.0,0.0,0.0,0.0,0.0,-9.216,0.0,0.0,0.0
12,0.0,0.0,0.0,0.0216552734375,0.0,0.0,0.0,0.0,0.0,0.0,0.492,0.0,0.0,0.0,0.0,0.0,0.0,0.13443743749870124,0.0,0.0,0.0,0.0,0.0,0.0,-8.94,0.0,0.0,0.0
13,0.0,0.0,0.0,0.028169921875,0.0,0.0,0.0,0.0,0.0,0.0,0.585,0.0,0.0,0.0,0.0,0.0,0.0,0.1408998609653207,0.0,0.0,0.0,0.0,0.0,0.0,-9.236,0.0,0.0,0.0
14,0.0,0.0,0.0,0.03484765625,0.0,0.0,0.0,0.0,0.0,0.0,0.657,0.0,0.0,0.0,0.0,0.0,0.0,0.14718735184395884,0.0,0.0,0.0,0.0,0.0,0.0,-10.608,0.0,0.0,0.0
15,0.0,0.0,0.0,0.0415068359375,0.0,0.0,0.0,0.0,0.0,0.0,0.667,0.0,0.0,0.0,0.0,0.0,0.0,0.15322628024108736,0.0,0.0,0.0,0.0,0.0,0.0,-11.16,0.0,0.0,0.0
16,0.0,0.0,0.0,0.048310546875,0.0,0.0,0.0,0.0,0.0,0.0,0.681,0.0,0.0,0.0,0.0,0.0,0.0,0.16019656781861255,0.0,0.0,0.0,0.0,0.0,0.0,-10.792,0.0,0.0,0.0
17,0.0,0.0,0.0,0.054978515625,0.0,0.0,0.0,0.0,0.0,0.0,0.677,0.0,0.0,0.0,0.0,0.0,0.0,0.1656937095662847,0.0,0.0,0.0,0.0,0.0,0.0,-10.036,0.0,0.0,0.0
18,0.0,0.0,0.0,0.06960546875,0.0,0.0,0.0,0.0,0.0,0.0,0.746,0.0,0.0,0.0,0.0,0.0,0.0,0.24462062383931021,0.0,0.0,0.0,0.0,0.0,0.0,-11.0,0.0,0.0,0.0
19,0.0,0.0,0.0,0.07641796875,0.0,0.0,0.0,0.0,0.0,0.0,0.703,0.0,0.0,0.0,0.0,0.0,0.0,0.16241584303170203,0.0,0.0,0.0,0.0,0.0,0.0,-11.732,0.0,0.0,0.0
20,0.0,0.0,0.0,0.0836640625,0.0,0.0,0.0,0.0,0.0,0.0,0.711,0.0,0.0,0.0,0.0,0.0,0.0,0.20103975843346286,0.0,0.0,0.0,0.0,0.0,0.0,-12.896,0.0,0.0,0.0
21,0.0,0.0,0.0,0.0906123046875,0.0,0.0,0.0,0.0,0.0,0.0,0.71,0.0,0.0,0.0,0.0,0.0,0.0,0.2170327148485198,0.0,0.0,0.0,0.0,0.0,0.0,-12.852,0.0,0.0,0.0
22,0.0,0.0,0.0,0.0975693359375,0.0,0.0,0.0,0.0,0.0,0.0,0.703,0.0,0.0,0.0,0.0,0.0,0.0,0.20946261729775356,0.0,0.0,0.0,0.0,0.0,0.0,-13.584,0.0,0.0,0.0
23,0.0,0.0,0.0,0.1042197265625,0.0,0.0,0.0,0.0,0.0,0.0,0.692,0.0,0.0,0.0,0.0,0.0,0.0,0.2539156188312681,0.0,0.0,0.0,0.0,0.0,0.0,-14.748,0.0,0.0,0.0
24,0.0,0.0,0.0,0.11146484375,0.0,0.0,0.0,0.0,0.0,0.0,0.689,0.0,0.0,0.0,0.0,0.0,0.0,0.18737845115955187,0.0,0.0,0.0,0.0,0.0,0.0,-14.68,0.0,0.0,0.0
25,0.0,0.0,0.0,0.118421875,0.0,0.0,0.0,0.0,0.0,0.0,0.714,0.0,0.0,0.0,0.0,0.0,0.0,0.176723724612743,0.0,0.0,0.0,0.0,0.0,0.0,-14.248,0.0,0.0,0.0
26,0.0,0.0,0.0,0.118421875,0.0,0.0,0.0,0.0,0.0,0.0,0.714,0.0,0.0,0.0,0.0,0.0,0.0,0.19145364683952593,0.0,0.0,0.0,0.0,0.0,0.0,-14.248,0.0,0.0,0.0
27,0.0,0.0,0.0,0.1255146484375,0.0,0.0,0.0,0.0,0.0,0.0,0.703,0.0,0.0,0.0,0.0,0.0,0.0,0.23117403165263933,0.0,0.0,0.0,0.0,0.0,0.0,-14.132,0.0,0.0,0.0
28,0.0,0.0,0.0,0.131884765625,0.0,0.0,0.0,0.0,0.0,0.0,0.69,0.0,0.0,0.0,0.0,0.0,0.0,0.23596761458261845,0.0,0.0,0.0,0.0,0.0,0.0,-15.276,0.0,0.0,0.0
29,0.0,0.0,0.0,0.1450771484375,0.0,0.0,0.0,0.0,0.0,0.0,0.669,0.0,0.0,0.0,0.0,0.0,0.0,0.3127142963678813,0.0,0.0,0.0,0.0,0.0,0.0,-15.16,0.0,0.0,0.0
30,0.0,0.0,0.0,0.1514482421875,0.0,0.0,0.0,0.0,0.0,0.0,0.671,0.0,0.0,0.0,0.0,0.0,0.0,0.2300010784131782,0.0,0.0,0.0,0.0,0.0,0.0,-14.956,0.0,0.0,0.0
31,0.0,0.0,0.0,0.1514482421875,0.0,0.0,0.0,0.0,0.0,0.0,0.671,0.0,0.0,0.0,0.0,0.0,0.0,0.21675505780700668,0.0,0.0,0.0,0.0,0.0,0.0,-14.956,0.0,0.0,0.0
32,0.0,0.0,0.0,0.164486328125,0.0,0.0,0.0,0.0,0.0,0.0,0.658,0.0,0.0,0.0,0.0,0.0,0.0,0.2659339852546545,0.0,0.0,0.0,0.0,0.0,0.0,-17.812,0.0,0.0,0.0
33,0.0,0.0,0.0,0.164486328125,0.0,0.0,0.0,0.0,0.0,0.0,0.658,0.0,0.0,0.0,0.0,0.0,0.0,0.2527705609822297,0.0,0.0,0.0,0.0,0.0,0.0,-17.812,0.0,0.0,0.0
34,0.0,0.0,0.0,0.177380859375,0.0,0.0,0.0,0.0,0.0,0.0,0.661,0.0,0.0,0.0,0.0,0.0,0.0,0.3229928675093211,0.0,0.0,0.0,0.0,0.0,0.0,-15.48,0.0,0.0,0.0
35,0.0,0.0,0.0,0.177380859375,0.0,0.0,0.0,0.0,0.0,0.0,0.661,0.0,0.0,0.0,0.0,0.0,0.0,0.23048931130027758,0.0,0.0,0.0,0.0,0.0,0.0,-15.48,0.0,0.0,0.0
36,0.0,0.0,0.0,0.183462890625,0.0,0.0,0.0,0.0,0.0,0.0,0.638,0.0,0.0,0.0,0.0,0.0,0.0,0.277938385136018,0.0,0.0,0.0,0.0,0.0,0.0,-14.544,0.0,0.0,0.0
37,0.0,0.0,0.0,0.189689453125,0.0,0.0,0.0,0.0,0.0,0.0,0.619,0.0,0.0,0.0,0.0,0.0,0.0,0.2858639940381378,0.0,0.0,0.0,0.0,0.0,0.0,-15.092,0.0,0.0,0.0
38,0.0,0.0,0.0,0.2011396484375,0.0,0.0,0.0,0.0,0.0,0.0,0.573,0.0,0.0,0.0,0.0,0.0,0.0,0.28995928677916105,0.0,0.0,0.0,0.0,0.0,0.0,-14.612,0.0,0.0,0.0
39,0.0,0.0,0.0,0.2011396484375,0.0,0.0,0.0,0.0,0.0,0.0,0.573,0.0,0.0,0.0,0.0,0.0,0.0,0.2954085759706574,0.0,0.0,0.0,0.0,0.0,0.0,-14.612,0.0,0.0,0.0
40,0.0,0.0,0.0,0.2067880859375,0.0,0.0,0.0,0.0,0.0,0.0,0.579,0.0,0.0,0.0,0.0,0.0,0.0,0.3119339311241933,0.0,0.0,0.0,0.0,0.0,0.0,-14.016,0.0,0.0,0.0
41,0.0,0.0,0.0,0.2178056640625,0.0,0.0,0.0,0.0,0.0,0.0,0.552,0.0,0.0,0.0,0.0,0.0,0.0,0.3260173906005971,0.0,0.0,0.0,0.0,0.0,0.0,-14.316,0.0,0.0,0.0
42,0.0,0.0,0.0,0.2178056640625,0.0,0.0,0.0,0.0,0.0,0.0,0.552,0.0,0.0,0.0,0.0,0.0,0.0,0.2783360418270654,0.0,0.0,0.0,0.0,0.0,0.0,-14.316,0.0,0.0,0.0
43,0.0,0.0,0.0,0.2233017578125,0.0,0.0,0.0,0.0,0.0,0.0,0.573,0.0,0.0,0.0,0.0,0.0,0.0,0.3127634952777871,0.0,0.0,0.0,0.0,0.0,0.0,-15.388,0.0,0.0,0.0
44,0.0,0.0,0.0,0.2285166015625,0.0,0.0,0.0,0.0,0.0,0.0,0.539,0.0,0.0,0.0,0.0,0.0,0.0,0.31662967936062425,0.0,0.0,0.0,0.0,0.0,0.0,-15.116,0.0,0.0,0.0
45,0.0,0.0,0.0,0.2343095703125,0.0,0.0,0.0,0.0,0.0,0.0,0.549,0.0,0.0,0.0,0.0,0.0,0.0,0.321408014424585,0.0,0.0,0.0,0.0,0.0,0.0,-13.652,0.0,0.0,0.0
46,0.0,0.0,0.0,0.2396787109375,0.0,0.0,0.0,0.0,0.0,0.0,0.566,0.0,0.0,0.0,0.0,0.0,0.0,0.32435811758058675,0.0,0.0,0.0,0.0,0.0,0.0,-13.148,0.0,0.0,0.0
47,0.0,0.0,0.0,0.2447412109375,0.0,0.0,0.0,0.0,0.0,0.0,0.522,0.0,0.0,0.0,0.0,0.0,0.0,0.3297372532150933,0.0,0.0,0.0,0.0,0.0,0.0,-12.624,0.0,0.0,0.0
48,0.0,0.0,0.0,0.2503896484375,0.0,0.0,0.0,0.0,0.0,0.0,0.54,0.0,0.0,0.0,0.0,0.0,0.0,0.33272288847424536,0.0,0.0,0.0,0.0,0.0,0.0,-13.08,0.0,0.0,0.0
49,0.0,0.0,0.0,0.2554697265625,0.0,0.0,0.0,0.0,0.0,0.0,0.546,0.0,0.0,0.0,0.0,0.0,0.0,0.33810556261127134,0.0,0.0,0.0,0.0,0.0,0.0,-13.08,0.0,0.0,0.0
50,0.0,0.0,0.0,0.2608203125,0.0,0.0,0.0,0.0,0.0,0.0,0.516,0.0,0.0,0.0,0.0,0.0,0.0,0.3407658513259753,0.0,0.0,0.0,0.0,0.0,0.0,-12.44,0.0,0.0,0.0
51,0.0,0.0,0.0,0.2663251953125,0.0,0.0,0.0,0.0,0.0,0.0,0.551,0.0,0.0,0.0,0.0,0.0,0.0,0.34564910796772386,0.0,0.0,0.0,0.0,0.0,0.0,-12.392,0.0,0.0,0.0
52,0.0,0.0,0.0,0.271541015625,0.0,0.0,0.0,0.0,0.0,0.0,0.54,0.0,0.0,0.0,0.0,0.0,0.0,0.34823895678384,0.0,0.0,0.0,0.0,0.0,0.0,-12.6,0.0,0.0,0.0
53,0.0,0.0,0.0,0.2770537109375,0.0,0.0,0.0,0.0,0.0,0.0,0.539,0.0,0.0,0.0,0.0,0.0,0.0,0.3532102355255531,0.0,0.0,0.0,0.0,0.0,0.0,-12.872,0.0,0.0,0.0
54,0.0,0.0,0.0,0.28255859375,0.0,0.0,0.0,0.0,0.0,0.0,0.558,0.0,0.0,0.0,0.0,0.0,0.0,0.35816356691832835,0.0,0.0,0.0,0.0,0.0,0.0,-13.468,0.0,0.0,0.0
55,0.0,0.0,0.0,0.2881982421875,0.0,0.0,0.0,0.0,0.0,0.0,0.552,0.0,0.0,0.0,0.0,0.0,0.0,0.36118956589781903,0.0,0.0,0.0,0.0,0.0,0.0,-13.652,0.0,0.0,0.0
56,0.0,0.0,0.0,0.29414453125,0.0,0.0,0.0,0.0,0.0,0.0,0.583,0.0,0.0,0.0,0.0,0.0,0.0,0.3660530822380282,0.0,0.0,0.0,0.0,0.0,0.0,-12.872,0.0,0.0,0.0
57,0.0,0.0,0.0,0.30008203125,0.0,0.0,0.0,0.0,0.0,0.0,0.596,0.0,0.0,0.0,0.0,0.0,0.0,0.3714632730659989,0.0,0.0,0.0,0.0,0.0,0.0,-12.324,0.0,0.0,0.0
58,0.0,0.0,0.0,0.305875,0.0,0.0,0.0,0.0,0.0,0.0,0.588,0.0,0.0,0.0,0.0,0.0,0.0,0.374826321767436,0.0,0.0,0.0,0.0,0.0,0.0,-12.372,0.0,0.0,0.0
59,0.0,0.0,0.0,0.3118125,0.0,0.0,0.0,0.0,0.0,0.0,0.584,0.0,0.0,0.0,0.0,0.0,0.0,0.3789423595710281,0.0,0.0,0.0,0.0,0.0,0.0,-12.44,0.0,0.0,0.0
60,0.0,0.0,0.0,0.3174697265625,0.0,0.0,0.0,0.0,0.0,0.0,0.588,0.0,0.0,0.0,0.0,0.0,0.0,0.38616834922619964,0.0,0.0,0.0,0.0,0.0,0.0,-12.256,0.0,0.0,0.0
61,0.0,0.0,0.0,0.3234072265625,0.0,0.0,0.0,0.0,0.0,0.0,0.58,0.0,0.0,0.0,0.0,0.0,0.0,0.38478862734410246,0.0,0.0,0.0,0.0,0.0,0.0,-12.12,0.0,0.0,0.0
62,0.0,0.0,0.0,0.3294892578125,0.0,0.0,0.0,0.0,0.0,0.0,0.606,0.0,0.0,0.0,0.0,0.0,0.0,0.39282526697475456,0.0,0.0,0.0,0.0,0.0,0.0,-12.28,0.0,0.0,0.0
63,0.0,0.0,0.0,0.3352822265625,0.0,0.0,0.0,0.0,0.0,0.0,0.595,0.0,0.0,0.0,0.0,0.0,0.0,0.396226860917355,0.0,0.0,0.0,0.0,0.0,0.0,-12.484,0.0,0.0,0.0
64,0.0,0.0,0.0,0.3413642578125,0.0,0.0,0.0,0.0,0.0,0.0,0.591,0.0,0.0,0.0,0.0,0.0,0.0,0.40118905583904074,0.0,0.0,0.0,0.0,0.0,0.0,-13.376,0.0,0.0,0.0
65,0.0,0.0,0.0,0.3474453125,0.0,0.0,0.0,0.0,0.0,0.0,0.613,0.0,0.0,0.0,0.0,0.0,0.0,0.40567806734966305,0.0,0.0,0.0,0.0,0.0,0.0,-13.836,0.0,0.0,0.0
66,0.0,0.0,0.0,0.3535361328125,0.0,0.0,0.0,0.0,0.0,0.0,0.606,0.0,0.0,0.0,0.0,0.0,0.0,0.41021039775092066,0.0,0.0,0.0,0.0,0.0,0.0,-13.924,0.0,0.0,0.0
67,0.0,0.0,0.0,0.3599072265625,0.0,0.0,0.0,0.0,0.0,0.0,0.628,0.0,0.0,0.0,0.0,0.0,0.0,0.41459086397370454,0.0,0.0,0.0,0.0,0.0,0.0,-13.284,0.0,0.0,0.0
68,0.0,0.0,0.0,0.36598828125,0.0,0.0,0.0,0.0,0.0,0.0,0.635,0.0,0.0,0.0,0.0,0.0,0.0,0.4193563149851052,0.0,0.0,0.0,0.0,0.0,0.0,-12.828,0.0,0.0,0.0
69,0.0,0.0,0.0,0.3720791015625,0.0,0.0,0.0,0.0,0.0,0.0,0.607,0.0,0.0,0.0,0.0,0.0,0.0,0.4234979258697571,0.0,0.0,0.0,0.0,0.0,0.0,-12.852,0.0,0.0,0.0
70,0.0,0.0,0.0,0.3781611328125,0.0,0.0,0.0,0.0,0.0,0.0,0.61,0.0,0.0,0.0,0.0,0.0,0.0,0.43364019970006046,0.0,0.0,0.0,0.0,0.0,0.0,-12.896,0.0,0.0,0.0
71,0.0,0.0,0.0,0.3840986328125,0.0,0.0,0.0,0.0,0.0,0.0,0.599,0.0,0.0,0.0,0.0,0.0,0.0,0.42691569882147196,0.0,0.0,0.0,0.0,0.0,0.0,-12.92,0.0,0.0,0.0
72,0.0,0.0,0.0,0.390044921875,0.0,0.0,0.0,0.0,0.0,0.0,0.6,0.0,0.0,0.0,0.0,0.0,0.0,0.44110316690139323,0.0,0.0,0.0,0.0,0.0,0.0,-12.552,0.0,0.0,0.0
73,0.0,0.0,0.0,0.395982421875,0.0,0.0,0.0,0.0,0.0,0.0,0.605,0.0,0.0,0.0,0.0,0.0,0.0,0.43931399164226026,0.0,0.0,0.0,0.0,0.0,0.0,-12.852,0.0,0.0,0.0
74,0.0,0.0,0.0,0.401919921875,0.0,0.0,0.0,0.0,0.0,0.0,0.595,0.0,0.0,0.0,0.0,0.0,0.0,0.44192218368424213,0.0,0.0,0.0,0.0,0.0,0.0,-13.216,0.0,0.0,0.0
75,0.0,0.0,0.0,0.4078486328125,0.0,0.0,0.0,0.0,0.0,0.0,0.598,0.0,0.0,0.0,0.0,0.0,0.0,0.4500475688046291,0.0,0.0,0.0,0.0,0.0,0.0,-13.744,0.0,0.0,0.0
76,0.0,0.0,0.0,0.413794921875,0.0,0.0,0.0,0.0,0.0,0.0,0.598,0.0,0.0,0.0,0.0,0.0,0.0,0.45282327704161174,0.0,0.0,0.0,0.0,0.0,0.0,-13.836,0.0,0.0,0.0
77,0.0,0.0,0.0,0.419876953125,0.0,0.0,0.0,0.0,0.0,0.0,0.605,0.0,0.0,0.0,0.0,0.0,0.0,0.4578883172716364,0.0,0.0,0.0,0.0,0.0,0.0,-13.192,0.0,0.0,0.0
78,0.0,0.0,0.0,0.425814453125,0.0,0.0,0.0,0.0,0.0,0.0,0.608,0.0,0.0,0.0,0.0,0.0,0.0,0.4620401287008903,0.0,0.0,0.0,0.0,0.0,0.0,-12.624,0.0,0.0,0.0
79,0.0,0.0,0.0,0.4317607421875,0.0,0.0,0.0,0.0,0.0,0.0,0.591,0.0,0.0,0.0,0.0,0.0,0.0,0.46609251714408767,0.0,0.0,0.0,0.0,0.0,0.0,-12.464,0.0,0.0,0.0
80,0.0,0.0,0.0,0.4434814453125,0.0,0.0,0.0,0.0,0.0,0.0,0.593,0.0,0.0,0.0,0.0,0.0,0.0,0.48383285496479456,0.0,0.0,0.0,0.0,0.0,0.0,-12.416,0.0,0.0,0.0
81,0.0,0.0,0.0,0.4434814453125,0.0,0.0,0.0,0.0,0.0,0.0,0.593,0.0,0.0,0.0,0.0,0.0,0.0,0.4669130781992141,0.0,0.0,0.0,0.0,0.0,0.0,-12.416,0.0,0.0,0.0
82,0.0,0.0,0.0,0.449275390625,0.0,0.0,0.0,0.0,0.0,0.0,0.582,0.0,0.0,0.0,0.0,0.0,0.0,0.4783313294133835,0.0,0.0,0.0,0.0,0.0,0.0,-12.188,0.0,0.0,0.0
83,0.0,0.0,0.0,0.454923828125,0.0,0.0,0.0,0.0,0.0,0.0,0.581,0.0,0.0,0.0,0.0,0.0,0.0,0.4823213261475535,0.0,0.0,0.0,0.0,0.0,0.0,-12.14,0.0,0.0,0.0
84,0.0,0.0,0.0,0.460716796875,0.0,0.0,0.0,0.0,0.0,0.0,0.572,0.0,0.0,0.0,0.0,0.0,0.0,0.4864790720344795,0.0,0.0,0.0,0.0,0.0,0.0,-12.508,0.0,0.0,0.0
85,0.0,0.0,0.0,0.4657783203125,0.0,0.0,0.0,0.0,0.0,0.0,0.561,0.0,0.0,0.0,0.0,0.0,0.0,0.4890654769697612,0.0,0.0,0.0,0.0,0.0,0.0,-14.384,0.0,0.0,0.0
86,0.0,0.0,0.0,0.47013671875,0.0,0.0,0.0,0.0,0.0,0.0,0.475,0.0,0.0,0.0,0.0,0.0,0.0,0.4922078175804651,0.0,0.0,0.0,0.0,0.0,0.0,-14.408,0.0,0.0,0.0
87,0.0,0.0,0.0,0.47534375,0.0,0.0,0.0,0.0,0.0,0.0,0.467,0.0,0.0,0.0,0.0,0.0,0.0,0.49546335009096737,0.0,0.0,0.0,0.0,0.0,0.0,-14.016,0.0,0.0,0.0
88,0.0,0.0,0.0,0.4805595703125,0.0,0.0,0.0,0.0,0.0,0.0,0.53,0.0,0.0,0.0,0.0,0.0,0.0,0.49877387985506,0.0,0.0,0.0,0.0,0.0,0.0,-13.148,0.0,0.0,0.0
89,0.0,0.0,0.0,0.4857744140625,0.0,0.0,0.0,0.0,0.0,0.0,0.52,0.0,0.0,0.0,0.0,0.0,0.0,0.5022942963489907,0.0,0.0,0.0,0.0,0.0,0.0,-12.416,0.0,0.0,0.0
90,0.0,0.0,0.0,0.490556640625,0.0,0.0,0.0,0.0,0.0,0.0,0.513,0.0,0.0,0.0,0.0,0.0,0.0,0.5054300100224847,0.0,0.0,0.0,0.0,0.0,0.0,-12.624,0.0,0.0,0.0
91,0.0,0.0,0.0,0.4951865234375,0.0,0.0,0.0,0.0,0.0,0.0,0.477,0.0,0.0,0.0,0.0,0.0,0.0,0.5077627424091143,0.0,0.0,0.0,0.0,0.0,0.0,-13.284,0.0,0.0,0.0
92,0.0,0.0,0.0,0.4992373046875,0.0,0.0,0.0,0.0,0.0,0.0,0.447,0.0,0.0,0.0,0.0,0.0,0.0,0.5103352191520427,0.0,0.0,0.0,0.0,0.0,0.0,-13.628,0.0,0.0,0.0
93,0.0,0.0,0.0,0.502720703125,0.0,0.0,0.0,0.0,0.0,0.0,0.384,0.0,0.0,0.0,0.0,0.0,0.0,0.5118326905780463,0.0,0.0,0.0,0.0,0.0,0.0,-13.628,0.0,0.0,0.0
94,0.0,0.0,0.0,0.5056171875,0.0,0.0,0.0,0.0,0.0,0.0,0.326,0.0,0.0,0.0,0.0,0.0,0.0,0.5130443064819468,0.0,0.0,0.0,0.0,0.0,0.0,-13.948,0.0,0.0,0.0
95,0.0,0.0,0.0,0.508224609375,0.0,0.0,0.0,0.0,0.0,0.0,0.277,0.0,0.0,0.0,0.0,0.0,0.0,0.5137234493743521,0.0,0.0,0.0,0.0,0.0,0.0,-14.156,0.0,0.0,0.0
96,0.0,0.0,0.0,0.5108330078125,0.0,0.0,0.0,0.0,0.0,0.0,0.266,0.0,0.0,0.0,0.0,0.0,0.0,0.5145423895760396,0.0,0.0,0.0,0.0,0.0,0.0,-14.292,0.0,0.0,0.0
97,0.0,0.0,0.0,0.51271875,0.0,0.0,0.0,0.0,0.0,0.0,0.235,0.0,0.0,0.0,0.0,0.0,0.0,0.5145994345758448,0.0,0.0,0.0,0.0,0.0,0.0,-14.36,0.0,0.0,0.0
98,0.0,0.0,0.0,0.514017578125,0.0,0.0,0.0,0.0,0.0,0.0,0.163,0.0,0.0,0.0,0.0,0.0,0.0,0.5140401794445839,0.0,0.0,0.0,0.0,0.0,0.0,-14.796,0.0,0.0,0.0
99,0.0,0.0,0.0,0.514595703125,0.0,0.0,0.0,0.0,0.0,0.0,0.103,0.0,0.0,0.0,0.0,0.0,0.0,0.512780657050338,0.0,0.0,0.0,0.0,0.0,0.0,-15.32,0.0,0.0,0.0
100,0.0,0.0,0.0,0.5148837890625,0.0,0.0,0.0,0.0,0.0,0.0,0.048,0.0,0.0,0.0,0.0,0.0,0.0,0.5112889507809868,0.0,0.0,0.0,0.0,0.0,0.0,-15.548,0.0,0.0,0.0
101,0.0,0.0,0.0,0.514740234375,0.0,0.0,0.0,0.0,0.0,0.0,0.008,0.0,0.0,0.0,0.0,0.0,0.0,0.5093452676653518,0.0,0.0,0.0,0.0,0.0,0.0,-15.848,0.0,0.0,0.0
102,0.0,0.0,0.0,0.514162109375,0.0,0.0,0.0,0.0,0.0,0.0,-0.039,0.0,0.0,0.0,0.0,0.0,0.0,0.5068660466965667,0.0,0.0,0.0,0.0,0.0,0.0,-14.84,0.0,0.0,0.0
103,0.0,0.0,0.0,0.5135849609375,0.0,0.0,0.0,0.0,0.0,0.0,-0.058,0.0,0.0,0.0,0.0,0.0,0.0,0.5045613425944068,0.0,0.0,0.0,0.0,0.0,0.0,-14.108,0.0,0.0,0.0
104,0.0,0.0,0.0,0.51286328125,0.0,0.0,0.0,0.0,0.0,0.0,-0.061,0.0,0.0,0.0,0.0,0.0,0.0,0.5020250150529102,0.0,0.0,0.0,0.0,0.0,0.0,-13.996,0.0,0.0,0.0
105,0.0,0.0,0.0,0.51184375,0.0,0.0,0.0,0.0,0.0,0.0,-0.081,0.0,0.0,0.0,0.0,0.0,0.0,0.49902949037664646,0.0,0.0,0.0,0.0,0.0,0.0,-14.864,0.0,0.0,0.0
106,0.0,0.0,0.0,0.5102548828125,0.0,0.0,0.0,0.0,0.0,0.0,-0.134,0.0,0.0,0.0,0.0,0.0,0.0,0.4956796894678248,0.0,0.0,0.0,0.0,0.0,0.0,-15.092,0.0,0.0,0.0
107,0.0,0.0,0.0,0.508224609375,0.0,0.0,0.0,0.0,0.0,0.0,-0.168,0.0,0.0,0.0,0.0,0.0,0.0,0.4921653221054618,0.0,0.0,0.0,0.0,0.0,0.0,-16.028,0.0,0.0,0.0
108,0.0,0.0,0.0,0.5056171875,0.0,0.0,0.0,0.0,0.0,0.0,-0.238,0.0,0.0,0.0,0.0,0.0,0.0,0.48749316271037335,0.0,0.0,0.0,0.0,0.0,0.0,-15.092,0.0,0.0,0.0
109,0.0,0.0,0.0,0.502865234375,0.0,0.0,0.0,0.0,0.0,0.0,-0.271,0.0,0.0,0.0,0.0,0.0,0.0,0.4830631733515005,0.0,0.0,0.0,0.0,0.0,0.0,-14.52,0.0,0.0,0.0
110,0.0,0.0,0.0,0.502865234375,0.0,0.0,0.0,0.0,0.0,0.0,-0.271,0.0,0.0,0.0,0.0,0.0,0.0,0.4811347616660855,0.0,0.0,0.0,0.0,0.0,0.0,-14.52,0.0,0.0,0.0
111,0.0,0.0,0.0,0.4917119140625,0.0,0.0,0.0,0.0,0.0,0.0,-0.386,0.0,0.0,0.0,0.0,0.0,0.0,0.4712385911408368,0.0,0.0,0.0,0.0,0.0,0.0,-14.956,0.0,0.0,0.0
112,0.0,0.0,0.0,0.4917119140625,0.0,0.0,0.0,0.0,0.0,0.0,-0.386,0.0,0.0,0.0,0.0,0.0,0.0,0.4678849101690475,0.0,0.0,0.0,0.0,0.0,0.0,-14.956,0.0,0.0,0.0
113,0.0,0.0,0.0,0.4869384765625,0.0,0.0,0.0,0.0,0.0,0.0,-0.452,0.0,0.0,0.0,0.0,0.0,0.0,0.45986353015467785,0.0,0.0,0.0,0.0,0.0,0.0,-15.412,0.0,0.0,0.0
114,0.0,0.0,0.0,0.482724609375,0.0,0.0,0.0,0.0,0.0,0.0,-0.466,0.0,0.0,0.0,0.0,0.0,0.0,0.45418285579045975,0.0,0.0,0.0,0.0,0.0,0.0,-14.796,0.0,0.0,0.0
115,0.0,0.0,0.0,0.478240234375,0.0,0.0,0.0,0.0,0.0,0.0,-0.429,0.0,0.0,0.0,0.0,0.0,0.0,0.44774074466480157,0.0,0.0,0.0,0.0,0.0,0.0,-15.276,0.0,0.0,0.0
116,0.0,0.0,0.0,0.4727353515625,0.0,0.0,0.0,0.0,0.0,0.0,-0.496,0.0,0.0,0.0,0.0,0.0,0.0,0.44066939726567067,0.0,0.0,0.0,0.0,0.0,0.0,-15.388,0.0,0.0,0.0
117,0.0,0.0,0.0,0.467673828125,0.0,0.0,0.0,0.0,0.0,0.0,-0.531,0.0,0.0,0.0,0.0,0.0,0.0,0.43386206494016555,0.0,0.0,0.0,0.0,0.0,0.0,-15.344,0.0,0.0,0.0
118,0.0,0.0,0.0,0.4614384765625,0.0,0.0,0.0,0.0,0.0,0.0,-0.556,0.0,0.0,0.0,0.0,0.0,0.0,0.4257070404907575,0.0,0.0,0.0,0.0,0.0,0.0,-15.228,0.0,0.0,0.0
119,0.0,0.0,0.0,0.454490234375,0.0,0.0,0.0,0.0,0.0,0.0,-0.661,0.0,0.0,0.0,0.0,0.0,0.0,0.4173967975229943,0.0,0.0,0.0,0.0,0.0,0.0,-14.84,0.0,0.0,0.0
120,0.0,0.0,0.0,0.4478310546875,0.0,0.0,0.0,0.0,0.0,0.0,-0.687,0.0,0.0,0.0,0.0,0.0,0.0,0.4085432924495936,0.0,0.0,0.0,0.0,0.0,0.0,-14.132,0.0,0.0,0.0
121,0.0,0.0,0.0,0.44131640625,0.0,0.0,0.0,0.0,0.0,0.0,-0.663,0.0,0.0,0.0,0.0,0.0,0.0,0.40060348623910047,0.0,0.0,0.0,0.0,0.0,0.0,-13.536,0.0,0.0,0.0
122,0.0,0.0,0.0,0.435234375,0.0,0.0,0.0,0.0,0.0,0.0,-0.641,0.0,0.0,0.0,0.0,0.0,0.0,0.392761460974907,0.0,0.0,0.0,0.0,0.0,0.0,-13.376,0.0,0.0,0.0
123,0.0,0.0,0.0,0.4285751953125,0.0,0.0,0.0,0.0,0.0,0.0,-0.635,0.0,0.0,0.0,0.0,0.0,0.0,0.3826810848908774,0.0,0.0,0.0,0.0,0.0,0.0,-14.544,0.0,0.0,0.0
124,0.0,0.0,0.0,0.4142275390625,0.0,0.0,0.0,0.0,0.0,0.0,-0.729,0.0,0.0,0.0,0.0,0.0,0.0,0.3480873478413492,0.0,0.0,0.0,0.0,0.0,0.0,-13.904,0.0,0.0,0.0
125,0.0,0.0,0.0,0.4077041015625,0.0,0.0,0.0,0.0,0.0,0.0,-0.664,0.0,0.0,0.0,0.0,0.0,0.0,0.38465011198284416,0.0,0.0,0.0,0.0,0.0,0.0,-12.944,0.0,0.0,0.0
126,0.0,0.0,0.0,0.4077041015625,0.0,0.0,0.0,0.0,0.0,0.0,-0.664,0.0,0.0,0.0,0.0,0.0,0.0,0.3640707541628791,0.0,0.0,0.0,0.0,0.0,0.0,-12.944,0.0,0.0,0.0
127,0.0,0.0,0.0,0.4013330078125,0.0,0.0,0.0,0.0,0.0,0.0,-0.653,0.0,0.0,0.0,0.0,0.0,0.0,0.3507665586304574,0.0,0.0,0.0,0.0,0.0,0.0,-12.44,0.0,0.0,0.0
128,0.0,0.0,0.0,0.394673828125,0.0,0.0,0.0,0.0,0.0,0.0,-0.653,0.0,0.0,0.0,0.0,0.0,0.0,0.34283235108668847,0.0,0.0,0.0,0.0,0.0,0.0,-13.516,0.0,0.0,0.0
129,0.0,0.0,0.0,0.381779296875,0.0,0.0,0.0,0.0,0.0,0.0,-0.653,0.0,0.0,0.0,0.0,0.0,0.0,0.2973507111070184,0.0,0.0,0.0,0.0,0.0,0.0,-12.784,0.0,0.0,0.0
130,0.0,0.0,0.0,0.3685966796875,0.0,0.0,0.0,0.0,0.0,0.0,-0.665,0.0,0.0,0.0,0.0,0.0,0.0,0.2730101701035694,0.0,0.0,0.0,0.0,0.0,0.0,-11.616,0.0,0.0,0.0
131,0.0,0.0,0.0,0.3685966796875,0.0,0.0,0.0,0.0,0.0,0.0,-0.665,0.0,0.0,0.0,0.0,0.0,0.0,0.31927972345850697,0.0,0.0,0.0,0.0,0.0,0.0,-11.616,0.0,0.0,0.0
132,0.0,0.0,0.0,0.356,0.0,0.0,0.0,0.0,0.0,0.0,-0.639,0.0,0.0,0.0,0.0,0.0,0.0,0.261271437222213,0.0,0.0,0.0,0.0,0.0,0.0,-13.492,0.0,0.0,0.0
133,0.0,0.0,0.0,0.3500537109375,0.0,0.0,0.0,0.0,0.0,0.0,-0.598,0.0,0.0,0.0,0.0,0.0,0.0,0.3100371209128055,0.0,0.0,0.0,0.0,0.0,0.0,-13.264,0.0,0.0,0.0
134,0.0,0.0,0.0,0.3500537109375,0.0,0.0,0.0,0.0,0.0,0.0,-0.598,0.0,0.0,0.0,0.0,0.0,0.0,0.3170796708471269,0.0,0.0,0.0,0.0,0.0,0.0,-13.264,0.0,0.0,0.0
135,0.0,0.0,0.0,0.3439716796875,0.0,0.0,0.0,0.0,0.0,0.0,-0.61,0.0,0.0,0.0,0.0,0.0,0.0,0.31823677160604114,0.0,0.0,0.0,0.0,0.0,0.0,-12.532,0.0,0.0,0.0
136,0.0,0.0,0.0,0.3439716796875,0.0,0.0,0.0,0.0,0.0,0.0,-0.61,0.0,0.0,0.0,0.0,0.0,0.0,0.2958617428674223,0.0,0.0,0.0,0.0,0.0,0.0,-12.532,0.0,0.0,0.0
137,0.0,0.0,0.0,0.3378896484375,0.0,0.0,0.0,0.0,0.0,0.0,-0.61,0.0,0.0,0.0,0.0,0.0,0.0,0.27161116670471164,0.0,0.0,0.0,0.0,0.0,0.0,-12.624,0.0,0.0,0.0
138,0.0,0.0,0.0,0.331654296875,0.0,0.0,0.0,0.0,0.0,0.0,-0.624,0.0,0.0,0.0,0.0,0.0,0.0,0.2653868371320924,0.0,0.0,0.0,0.0,0.0,0.0,-12.624,0.0,0.0,0.0
139,0.0,0.0,0.0,0.326005859375,0.0,0.0,0.0,0.0,0.0,0.0,-0.6,0.0,0.0,0.0,0.0,0.0,0.0,0.25681157967239004,0.0,0.0,0.0,0.0,0.0,0.0,-12.668,0.0,0.0,0.0
140,0.0,0.0,0.0,0.3202216796875,0.0,0.0,0.0,0.0,0.0,0.0,-0.566,0.0,0.0,0.0,0.0,0.0,0.0,0.2508361777028048,0.0,0.0,0.0,0.0,0.0,0.0,-12.324,0.0,0.0,0.0
141,0.0,0.0,0.0,0.3144287109375,0.0,0.0,0.0,0.0,0.0,0.0,-0.588,0.0,0.0,0.0,0.0,0.0,0.0,0.24291335946297254,0.0,0.0,0.0,0.0,0.0,0.0,-12.28,0.0,0.0,0.0
142,0.0,0.0,0.0,0.308626953125,0.0,0.0,0.0,0.0,0.0,0.0,-0.584,0.0,0.0,0.0,0.0,0.0,0.0,0.2351156899616228,0.0,0.0,0.0,0.0,0.0,0.0,-12.712,0.0,0.0,0.0
143,0.0,0.0,0.0,0.302544921875,0.0,0.0,0.0,0.0,0.0,0.0,-0.594,0.0,0.0,0.0,0.0,0.0,0.0,0.22574881725552526,0.0,0.0,0.0,0.0,0.0,0.0,-13.264,0.0,0.0,0.0
144,0.0,0.0,0.0,0.296751953125,0.0,0.0,0.0,0.0,0.0,0.0,-0.609,0.0,0.0,0.0,0.0,0.0,0.0,0.22626255515602023,0.0,0.0,0.0,0.0,0.0,0.0,-13.308,0.0,0.0,0.0
145,0.0,0.0,0.0,0.2913828125,0.0,0.0,0.0,0.0,0.0,0.0,-0.571,0.0,0.0,0.0,0.0,0.0,0.0,0.21463547835153984,0.0,0.0,0.0,0.0,0.0,0.0,-13.284,0.0,0.0,0.0
146,0.0,0.0,0.0,0.2858876953125,0.0,0.0,0.0,0.0,0.0,0.0,-0.536,0.0,0.0,0.0,0.0,0.0,0.0,0.20839586000191468,0.0,0.0,0.0,0.0,0.0,0.0,-14.176,0.0,0.0,0.0
147,0.0,0.0,0.0,0.280671875,0.0,0.0,0.0,0.0,0.0,0.0,-0.544,0.0,0.0,0.0,0.0,0.0,0.0,0.2010521839903806,0.0,0.0,0.0,0.0,0.0,0.0,-14.2,0.0,0.0,0.0
148,0.0,0.0,0.0,0.27516796875,0.0,0.0,0.0,0.0,0.0,0.0,-0.535,0.0,0.0,0.0,0.0,0.0,0.0,0.19598198882906376,0.0,0.0,0.0,0.0,0.0,0.0,-14.316,0.0,0.0,0.0
149,0.0,0.0,0.0,0.2692216796875,0.0,0.0,0.0,0.0,0.0,0.0,-0.567,0.0,0.0,0.0,0.0,0.0,0.0,0.18782902644161137,0.0,0.0,0.0,0.0,0.0,0.0,-14.316,0.0,0.0,0.0
150,0.0,0.0,0.0,0.2637177734375,0.0,0.0,0.0,0.0,0.0,0.0,-0.584,0.0,0.0,0.0,0.0,0.0,0.0,0.18094496846056218,0.0,0.0,0.0,0.0,0.0,0.0,-13.696,0.0,0.0,0.0
151,0.0,0.0,0.0,0.2582216796875,0.0,0.0,0.0,0.0,0.0,0.0,-0.559,0.0,0.0,0.0,0.0,0.0,0.0,0.17511676115692432,0.0,0.0,0.0,0.0,0.0,0.0,-13.764,0.0,0.0,0.0
152,0.0,0.0,0.0,0.252564453125,0.0,0.0,0.0,0.0,0.0,0.0,-0.562,0.0,0.0,0.0,0.0,0.0,0.0,0.1676119766643802,0.0,0.0,0.0,0.0,0.0,0.0,-14.108,0.0,0.0,0.0
153,0.0,0.0,0.0,0.247060546875,0.0,0.0,0.0,0.0,0.0,0.0,-0.556,0.0,0.0,0.0,0.0,0.0,0.0,0.16094899113162175,0.0,0.0,0.0,0.0,0.0,0.0,-14.292,0.0,0.0,0.0
154,0.0,0.0,0.0,0.241123046875,0.0,0.0,0.0,0.0,0.0,0.0,-0.569,0.0,0.0,0.0,0.0,0.0,0.0,0.1536335573312703,0.0,0.0,0.0,0.0,0.0,0.0,-14.496,0.0,0.0,0.0
155,0.0,0.0,0.0,0.235185546875,0.0,0.0,0.0,0.0,0.0,0.0,-0.603,0.0,0.0,0.0,0.0,0.0,0.0,0.14717383364013079,0.0,0.0,0.0,0.0,0.0,0.0,-14.268,0.0,0.0,0.0
156,0.0,0.0,0.0,0.229671875,0.0,0.0,0.0,0.0,0.0,0.0,-0.582,0.0,0.0,0.0,0.0,0.0,0.0,0.14061884915418135,0.0,0.0,0.0,0.0,0.0,0.0,-14.248,0.0,0.0,0.0
157,0.0,0.0,0.0,0.2241767578125,0.0,0.0,0.0,0.0,0.0,0.0,-0.558,0.0,0.0,0.0,0.0,0.0,0.0,0.13412087627805588,0.0,0.0,0.0,0.0,0.0,0.0,-14.612,0.0,0.0,0.0
158,0.0,0.0,0.0,0.2186728515625,0.0,0.0,0.0,0.0,0.0,0.0,-0.552,0.0,0.0,0.0,0.0,0.0,0.0,0.12799643839979352,0.0,0.0,0.0,0.0,0.0,0.0,-14.568,0.0,0.0,0.0
159,0.0,0.0,0.0,0.2130146484375,0.0,0.0,0.0,0.0,0.0,0.0,-0.554,0.0,0.0,0.0,0.0,0.0,0.0,0.120881199669789,0.0,0.0,0.0,0.0,0.0,0.0,-14.748,0.0,0.0,0.0
160,0.0,0.0,0.0,0.2067880859375,0.0,0.0,0.0,0.0,0.0,0.0,-0.596,0.0,0.0,0.0,0.0,0.0,0.0,0.11302333653515698,0.0,0.0,0.0,0.0,0.0,0.0,-14.476,0.0,0.0,0.0
161,0.0,0.0,0.0,0.2009951171875,0.0,0.0,0.0,0.0,0.0,0.0,-0.613,0.0,0.0,0.0,0.0,0.0,0.0,0.1060242971067882,0.0,0.0,0.0,0.0,0.0,0.0,-13.88,0.0,0.0,0.0
162,0.0,0.0,0.0,0.194904296875,0.0,0.0,0.0,0.0,0.0,0.0,-0.593,0.0,0.0,0.0,0.0,0.0,0.0,0.10144317575201145,0.0,0.0,0.0,0.0,0.0,0.0,-13.948,0.0,0.0,0.0
163,0.0,0.0,0.0,0.189111328125,0.0,0.0,0.0,0.0,0.0,0.0,-0.603,0.0,0.0,0.0,0.0,0.0,0.0,0.09308802021652021,0.0,0.0,0.0,0.0,0.0,0.0,-13.856,0.0,0.0,0.0
164,0.0,0.0,0.0,0.183462890625,0.0,0.0,0.0,0.0,0.0,0.0,-0.575,0.0,0.0,0.0,0.0,0.0,0.0,0.08746610958213188,0.0,0.0,0.0,0.0,0.0,0.0,-14.268,0.0,0.0,0.0
165,0.0,0.0,0.0,0.177380859375,0.0,0.0,0.0,0.0,0.0,0.0,-0.585,0.0,0.0,0.0,0.0,0.0,0.0,0.07954710928626749,0.0,0.0,0.0,0.0,0.0,0.0,-15.116,0.0,0.0,0.0
166,0.0,0.0,0.0,0.171146484375,0.0,0.0,0.0,0.0,0.0,0.0,-0.629,0.0,0.0,0.0,0.0,0.0,0.0,0.07288915732055976,0.0,0.0,0.0,0.0,0.0,0.0,-14.316,0.0,0.0,0.0
167,0.0,0.0,0.0,0.1653525390625,0.0,0.0,0.0,0.0,0.0,0.0,-0.603,0.0,0.0,0.0,0.0,0.0,0.0,0.06555178243655754,0.0,0.0,0.0,0.0,0.0,0.0,-14.496,0.0,0.0,0.0
168,0.0,0.0,0.0,0.159416015625,0.0,0.0,0.0,0.0,0.0,0.0,-0.592,0.0,0.0,0.0,0.0,0.0,0.0,0.060995769071585465,0.0,0.0,0.0,0.0,0.0,0.0,-14.224,0.0,0.0,0.0
169,0.0,0.0,0.0,0.1537666015625,0.0,0.0,0.0,0.0,0.0,0.0,-0.588,0.0,0.0,0.0,0.0,0.0,0.0,0.052347298872610915,0.0,0.0,0.0,0.0,0.0,0.0,-14.04,0.0,0.0,0.0
170,0.0,0.0,0.0,0.141603515625,0.0,0.0,0.0,0.0,0.0,0.0,-0.611,0.0,0.0,0.0,0.0,0.0,0.0,0.018412788327590468,0.0,0.0,0.0,0.0,0.0,0.0,-14.084,0.0,0.0,0.0
171,0.0,0.0,0.0,0.141603515625,0.0,0.0,0.0,0.0,0.0,0.0,-0.611,0.0,0.0,0.0,0.0,0.0,0.0,0.06246042054364104,0.0,0.0,0.0,0.0,0.0,0.0,-14.084,0.0,0.0,0.0
172,0.0,0.0,0.0,0.1295751953125,0.0,0.0,0.0,0.0,0.0,0.0,-0.606,0.0,0.0,0.0,0.0,0.0,0.0,0.0037249453846107117,0.0,0.0,0.0,0.0,0.0,0.0,-13.904,0.0,0.0,0.0
173,0.0,0.0,0.0,0.1295751953125,0.0,0.0,0.0,0.0,0.0,0.0,-0.606,0.0,0.0,0.0,0.0,0.0,0.0,0.04947652644326178,0.0,0.0,0.0,0.0,0.0,0.0,-13.904,0.0,0.0,0.0
174,0.0,0.0,0.0,0.1236376953125,0.0,0.0,0.0,0.0,0.0,0.0,-0.614,0.0,0.0,0.0,0.0,0.0,0.0,0.019261765915350434,0.0,0.0,0.0,0.0,0.0,0.0,-13.4,0.0,0.0,0.0
175,0.0,0.0,0.0,0.1179892578125,0.0,0.0,0.0,0.0,0.0,0.0,-0.58,0.0,0.0,0.0,0.0,0.0,0.0,0.013938366770430116,0.0,0.0,0.0,0.0,0.0,0.0,-14.248,0.0,0.0,0.0
176,0.0,0.0,0.0,0.11175390625,0.0,0.0,0.0,0.0,0.0,0.0,-0.599,0.0,0.0,0.0,0.0,0.0,0.0,0.005707214822148504,0.0,0.0,0.0,0.0,0.0,0.0,-14.908,0.0,0.0,0.0
177,0.0,0.0,0.0,0.1059609375,0.0,0.0,0.0,0.0,0.0,0.0,-0.607,0.0,0.0,0.0,0.0,0.0,0.0,0.002185676906082276,0.0,0.0,0.0,0.0,0.0,0.0,-14.476,0.0,0.0,0.0
178,0.0,0.0,0.0,0.1001767578125,0.0,0.0,0.0,0.0,0.0,0.0,-0.583,0.0,0.0,0.0,0.0,0.0,0.0,-0.005709828439601453,0.0,0.0,0.0,0.0,0.0,0.0,-14.568,0.0,0.0,0.0
179,0.0,0.0,0.0,0.09423046875,0.0,0.0,0.0,0.0,0.0,0.0,-0.595,0.0,0.0,0.0,0.0,0.0,0.0,-0.012538132438945929,0.0,0.0,0.0,0.0,0.0,0.0,-13.924,0.0,0.0,0.0
180,0.0,0.0,0.0,0.0887265625,0.0,0.0,0.0,0.0,0.0,0.0,-0.573,0.0,0.0,0.0,0.0,0.0,0.0,-0.017680356358463767,0.0,0.0,0.0,0.0,0.0,0.0,-14.064,0.0,0.0,0.0
181,0.0,0.0,0.0,0.0827890625,0.0,0.0,0.0,0.0,0.0,0.0,-0.572,0.0,0.0,0.0,0.0,0.0,0.0,-0.024830747482789642,0.0,0.0,0.0,0.0,0.0,0.0,-14.612,0.0,0.0,0.0
182,0.0,0.0,0.0,0.07670703125,0.0,0.0,0.0,0.0,0.0,0.0,-0.611,0.0,0.0,0.0,0.0,0.0,0.0,-0.032942633334398286,0.0,0.0,0.0,0.0,0.0,0.0,-13.836,0.0,0.0,0.0
183,0.0,0.0,0.0,0.071048828125,0.0,0.0,0.0,0.0,0.0,0.0,-0.585,0.0,0.0,0.0,0.0,0.0,0.0,-0.03483723557716546,0.0,0.0,0.0,0.0,0.0,0.0,-14.384,0.0,0.0,0.0
184,0.0,0.0,0.0,0.0648232421875,0.0,0.0,0.0,0.0,0.0,0.0,-0.604,0.0,0.0,0.0,0.0,0.0,0.0,-0.043749410049275364,0.0,0.0,0.0,0.0,0.0,0.0,-13.744,0.0,0.0,0.0
185,0.0,0.0,0.0,0.05918359375,0.0,0.0,0.0,0.0,0.0,0.0,-0.599,0.0,0.0,0.0,0.0,0.0,0.0,-0.051550812798335774,0.0,0.0,0.0,0.0,0.0,0.0,-13.788,0.0,0.0,0.0
186,0.0,0.0,0.0,0.0532373046875,0.0,0.0,0.0,0.0,0.0,0.0,-0.569,0.0,0.0,0.0,0.0,0.0,0.0,-0.053177258989767315,0.0,0.0,0.0,0.0,0.0,0.0,-14.976,0.0,0.0,0.0
187,0.0,0.0,0.0,0.0472998046875,0.0,0.0,0.0,0.0,0.0,0.0,-0.612,0.0,0.0,0.0,0.0,0.0,0.0,-0.06199419564126446,0.0,0.0,0.0,0.0,0.0,0.0,-14.588,0.0,0.0,0.0
188,0.0,0.0,0.0,0.041794921875,0.0,0.0,0.0,0.0,0.0,0.0,-0.577,0.0,0.0,0.0,0.0,0.0,0.0,-0.06704436185662321,0.0,0.0,0.0,0.0,0.0,0.0,-15.136,0.0,0.0,0.0
189,0.0,0.0,0.0,0.0357138671875,0.0,0.0,0.0,0.0,0.0,0.0,-0.573,0.0,0.0,0.0,0.0,0.0,0.0,-0.07417680080567748,0.0,0.0,0.0,0.0,0.0,0.0,-14.704,0.0,0.0,0.0
190,0.0,0.0,0.0,0.0302001953125,0.0,0.0,0.0,0.0,0.0,0.0,-0.596,0.0,0.0,0.0,0.0,0.0,0.0,-0.0795724428894858,0.0,0.0,0.0,0.0,0.0,0.0,-14.132,0.0,0.0,0.0
191,0.0,0.0,0.0,0.0246962890625,0.0,0.0,0.0,0.0,0.0,0.0,-0.547,0.0,0.0,0.0,0.0,0.0,0.0,-0.08618764716693426,0.0,0.0,0.0,0.0,0.0,0.0,-14.864,0.0,0.0,0.0
192,0.0,0.0,0.0,0.0183251953125,0.0,0.0,0.0,0.0,0.0,0.0,-0.605,0.0,0.0,0.0,0.0,0.0,0.0,-0.08971420370591719,0.0,0.0,0.0,0.0,0.0,0.0,-14.408,0.0,0.0,0.0
193,0.0,0.0,0.0,0.0128212890625,0.0,0.0,0.0,0.0,0.0,0.0,-0.605,0.0,0.0,0.0,0.0,0.0,0.0,-0.09805567594782157,0.0,0.0,0.0,0.0,0.0,0.0,-14.084,0.0,0.0,0.0
194,0.0,0.0,0.0,0.00673046875,0.0,0.0,0.0,0.0,0.0,0.0,-0.573,0.0,0.0,0.0,0.0,0.0,0.0,-0.11501977435507299,0.0,0.0,0.0,0.0,0.0,0.0,-14.292,0.0,0.0,0.0
195,0.0,0.0,0.0,0.0006484375,0.0,0.0,0.0,0.0,0.0,0.0,-0.62,0.0,0.0,0.0,0.0,0.0,0.0,-0.09739474880214538,0.0,0.0,0.0,0.0,0.0,0.0,-13.72,0.0,0.0,0.0
196,0.0,0.0,0.0,-0.004845703125,0.0,0.0,0.0,0.0,0.0,0.0,-0.575,0.0,0.0,0.0,0.0,0.0,0.0,-0.11576835650503706,0.0,0.0,0.0,0.0,0.0,0.0,-14.428,0.0,0.0,0.0
197,0.0,0.0,0.0,-0.0112255859375,0.0,0.0,0.0,0.0,0.0,0.0,-0.593,0.0,0.0,0.0,0.0,0.0,0.0,-0.12068331274545036,0.0,0.0,0.0,0.0,0.0,0.0,-15.136,0.0,0.0,0.0
198,0.0,0.0,0.0,-0.0168740234375,0.0,0.0,0.0,0.0,0.0,0.0,-0.618,0.0,0.0,0.0,0.0,0.0,0.0,-0.12747570630231722,0.0,0.0,0.0,0.0,0.0,0.0,-14.36,0.0,0.0,0.0
199,0.0,0.0,0.0,-0.0225224609375,0.0,0.0,0.0,0.0,0.0,0.0,-0.565,0.0,0.0,0.0,0.0,0.0,0.0,-0.13192406890738267,0.0,0.0,0.0,0.0,0.0,0.0,-15.276,0.0,0.0,0.0
200,0.0,0.0,0.0,-0.0286044921875,0.0,0.0,0.0,0.0,0.0,0.0,-0.596,0.0,0.0,0.0,0.0,0.0,0.0,-0.13873058634683277,0.0,0.0,0.0,0.0,0.0,0.0,-14.292,0.0,0.0,0.0
201,0.0,0.0,0.0,-0.0339736328125,0.0,0.0,0.0,0.0,0.0,0.0,-0.578,0.0,0.0,0.0,0.0,0.0,0.0,-0.14341112669076966,0.0,0.0,0.0,0.0,0.0,0.0,-14.408,0.0,0.0,0.0
202,0.0,0.0,0.0,-0.0400546875,0.0,0.0,0.0,0.0,0.0,0.0,-0.563,0.0,0.0,0.0,0.0,0.0,0.0,-0.15082908582233925,0.0,0.0,0.0,0.0,0.0,0.0,-14.816,0.0,0.0,0.0
203,0.0,0.0,0.0,-0.04613671875,0.0,0.0,0.0,0.0,0.0,0.0,-0.623,0.0,0.0,0.0,0.0,0.0,0.0,-0.15516122969702714,0.0,0.0,0.0,0.0,0.0,0.0,-13.924,0.0,0.0,0.0
204,0.0,0.0,0.0,-0.05178515625,0.0,0.0,0.0,0.0,0.0,0.0,-0.586,0.0,0.0,0.0,0.0,0.0,0.0,-0.16062343412152488,0.0,0.0,0.0,0.0,0.0,0.0,-14.268,0.0,0.0,0.0
205,0.0,0.0,0.0,-0.0580205078125,0.0,0.0,0.0,0.0,0.0,0.0,-0.595,0.0,0.0,0.0,0.0,0.0,0.0,-0.16713669314189228,0.0,0.0,0.0,0.0,0.0,0.0,-13.856,0.0,0.0,0.0
206,0.0,0.0,0.0,-0.0638046875,0.0,0.0,0.0,0.0,0.0,0.0,-0.617,0.0,0.0,0.0,0.0,0.0,0.0,-0.17230145058936586,0.0,0.0,0.0,0.0,0.0,0.0,-13.764,0.0,0.0,0.0
207,0.0,0.0,0.0,-0.06959765625,0.0,0.0,0.0,0.0,0.0,0.0,-0.566,0.0,0.0,0.0,0.0,0.0,0.0,-0.18094959985821976,0.0,0.0,0.0,0.0,0.0,0.0,-14.84,0.0,0.0,0.0
208,0.0,0.0,0.0,-0.0759775390625,0.0,0.0,0.0,0.0,0.0,0.0,-0.616,0.0,0.0,0.0,0.0,0.0,0.0,-0.18206119799013393,0.0,0.0,0.0,0.0,0.0,0.0,-14.588,0.0,0.0,0.0
209,0.0,0.0,0.0,-0.0813369140625,0.0,0.0,0.0,0.0,0.0,0.0,-0.6,0.0,0.0,0.0,0.0,0.0,0.0,-0.18870901471164747,0.0,0.0,0.0,0.0,0.0,0.0,-14.636,0.0,0.0,0.0
210,0.0,0.0,0.0,-0.0874189453125,0.0,0.0,0.0,0.0,0.0,0.0,-0.565,0.0,0.0,0.0,0.0,0.0,0.0,-0.1960250551194868,0.0,0.0,0.0,0.0,0.0,0.0,-14.636,0.0,0.0,0.0
211,0.0,0.0,0.0,-0.0930673828125,0.0,0.0,0.0,0.0,0.0,0.0,-0.604,0.0,0.0,0.0,0.0,0.0,0.0,-0.19796895872843573,0.0,0.0,0.0,0.0,0.0,0.0,-13.948,0.0,0.0,0.0
212,0.0,0.0,0.0,-0.0985810546875,0.0,0.0,0.0,0.0,0.0,0.0,-0.558,0.0,0.0,0.0,0.0,0.0,0.0,-0.20557193950002672,0.0,0.0,0.0,0.0,0.0,0.0,-14.636,0.0,0.0,0.0
213,0.0,0.0,0.0,-0.1048076171875,0.0,0.0,0.0,0.0,0.0,0.0,-0.584,0.0,0.0,0.0,0.0,0.0,0.0,-0.2110231014062468,0.0,0.0,0.0,0.0,0.0,0.0,-14.728,0.0,0.0,0.0
214,0.0,0.0,0.0,-0.1106005859375,0.0,0.0,0.0,0.0,0.0,0.0,-0.618,0.0,0.0,0.0,0.0,0.0,0.0,-0.21576536153754022,0.0,0.0,0.0,0.0,0.0,0.0,-13.676,0.0,0.0,0.0
215,0.0,0.0,0.0,-0.1165283203125,0.0,0.0,0.0,0.0,0.0,0.0,-0.572,0.0,0.0,0.0,0.0,0.0,0.0,-0.2222541117901397,0.0,0.0,0.0,0.0,0.0,0.0,-14.268,0.0,0.0,0.0
216,0.0,0.0,0.0,-0.122763671875,0.0,0.0,0.0,0.0,0.0,0.0,-0.62,0.0,0.0,0.0,0.0,0.0,0.0,-0.22727447066021517,0.0,0.0,0.0,0.0,0.0,0.0,-13.424,0.0,0.0,0.0
217,0.0,0.0,0.0,-0.1281240234375,0.0,0.0,0.0,0.0,0.0,0.0,-0.592,0.0,0.0,0.0,0.0,0.0,0.0,-0.2319772981721439,0.0,0.0,0.0,0.0,0.0,0.0,-14.108,0.0,0.0,0.0
218,0.0,0.0,0.0,-0.134349609375,0.0,0.0,0.0,0.0,0.0,0.0,-0.569,0.0,0.0,0.0,0.0,0.0,0.0,-0.23832750245222684,0.0,0.0,0.0,0.0,0.0,0.0,-15.024,0.0,0.0,0.0
219,0.0,0.0,0.0,-0.140287109375,0.0,0.0,0.0,0.0,0.0,0.0,-0.621,0.0,0.0,0.0,0.0,0.0,0.0,-0.2434691374782636,0.0,0.0,0.0,0.0,0.0,0.0,-14.316,0.0,0.0,0.0
220,0.0,0.0,0.0,-0.14580078125,0.0,0.0,0.0,0.0,0.0,0.0,-0.576,0.0,0.0,0.0,0.0,0.0,0.0,-0.24795150765503654,0.0,0.0,0.0,0.0,0.0,0.0,-15.0,0.0,0.0,0.0
221,0.0,0.0,0.0,-0.1518828125,0.0,0.0,0.0,0.0,0.0,0.0,-0.577,0.0,0.0,0.0,0.0,0.0,0.0,-0.25332138017684147,0.0,0.0,0.0,0.0,0.0,0.0,-14.384,0.0,0.0,0.0
222,0.0,0.0,0.0,-0.1573779296875,0.0,0.0,0.0,0.0,0.0,0.0,-0.594,0.0,0.0,0.0,0.0,0.0,0.0,-0.2583431998356993,0.0,0.0,0.0,0.0,0.0,0.0,-14.064,0.0,0.0,0.0
223,0.0,0.0,0.0,-0.1630263671875,0.0,0.0,0.0,0.0,0.0,0.0,-0.547,0.0,0.0,0.0,0.0,0.0,0.0,-0.2634283246889325,0.0,0.0,0.0,0.0,0.0,0.0,-14.932,0.0,0.0,0.0
224,0.0,0.0,0.0,-0.16940625,0.0,0.0,0.0,0.0,0.0,0.0,-0.608,0.0,0.0,0.0,0.0,0.0,0.0,-0.2789738736697014,0.0,0.0,0.0,0.0,0.0,0.0,-14.268,0.0,0.0,0.0
225,0.0,0.0,0.0,-0.17491015625,0.0,0.0,0.0,0.0,0.0,0.0,-0.609,0.0,0.0,0.0,0.0,0.0,0.0,-0.2639102249695234,0.0,0.0,0.0,0.0,0.0,0.0,-13.56,0.0,0.0,0.0
226,0.0,0.0,0.0,-0.1809921875,0.0,0.0,0.0,0.0,0.0,0.0,-0.575,0.0,0.0,0.0,0.0,0.0,0.0,-0.2826990412863297,0.0,0.0,0.0,0.0,0.0,0.0,-14.2,0.0,0.0,0.0
227,0.0,0.0,0.0,-0.1870732421875,0.0,0.0,0.0,0.0,0.0,0.0,-0.62,0.0,0.0,0.0,0.0,0.0,0.0,-0.28092530141430083,0.0,0.0,0.0,0.0,0.0,0.0,-13.4,0.0,0.0,0.0
228,0.0,0.0,0.0,-0.1925869140625,0.0,0.0,0.0,0.0,0.0,0.0,-0.578,0.0,0.0,0.0,0.0,0.0,0.0,-0.2891816107187168,0.0,0.0,0.0,0.0,0.0,0.0,-14.316,0.0,0.0,0.0
229,0.0,0.0,0.0,-0.1988134765625,0.0,0.0,0.0,0.0,0.0,0.0,-0.586,0.0,0.0,0.0,0.0,0.0,0.0,-0.2983079854501227,0.0,0.0,0.0,0.0,0.0,0.0,-15.16,0.0,0.0,0.0
230,0.0,0.0,0.0,-0.20459765625,0.0,0.0,0.0,0.0,0.0,0.0,-0.621,0.0,0.0,0.0,0.0,0.0,0.0,-0.2958327259676017,0.0,0.0,0.0,0.0,0.0,0.0,-14.04,0.0,0.0,0.0
231,0.0,0.0,0.0,-0.21024609375,0.0,0.0,0.0,0.0,0.0,0.0,-0.567,0.0,0.0,0.0,0.0,0.0,0.0,-0.30434971994648985,0.0,0.0,0.0,0.0,0.0,0.0,-14.748,0.0,0.0,0.0
232,0.0,0.0,0.0,-0.2163369140625,0.0,0.0,0.0,0.0,0.0,0.0,-0.584,0.0,0.0,0.0,0.0,0.0,0.0,-0.30888854793621556,0.0,0.0,0.0,0.0,0.0,0.0,-13.948,0.0,0.0,0.0
233,0.0,0.0,0.0,-0.2218408203125,0.0,0.0,0.0,0.0,0.0,0.0,-0.591,0.0,0.0,0.0,0.0,0.0,0.0,-0.3141270020184028,0.0,0.0,0.0,0.0,0.0,0.0,-13.904,0.0,0.0,0.0
234,0.0,0.0,0.0,-0.2276337890625,0.0,0.0,0.0,0.0,0.0,0.0,-0.564,0.0,0.0,0.0,0.0,0.0,0.0,-0.3200968562115849,0.0,0.0,0.0,0.0,0.0,0.0,-14.772,0.0,0.0,0.0
235,0.0,0.0,0.0,-0.2338515625,0.0,0.0,0.0,0.0,0.0,0.0,-0.606,0.0,0.0,0.0,0.0,0.0,0.0,-0.32279724248133684,0.0,0.0,0.0,0.0,0.0,0.0,-13.856,0.0,0.0,0.0
236,0.0,0.0,0.0,-0.2395087890625,0.0,0.0,0.0,0.0,0.0,0.0,-0.601,0.0,0.0,0.0,0.0,0.0,0.0,-0.32966679364588053,0.0,0.0,0.0,0.0,0.0,0.0,-13.424,0.0,0.0,0.0
237,0.0,0.0,0.0,-0.2515283203125,0.0,0.0,0.0,0.0,0.0,0.0,-0.611,0.0,0.0,0.0,0.0,0.0,0.0,-0.3448347769312766,0.0,0.0,0.0,0.0,0.0,0.0,-13.356,0.0,0.0,0.0
238,0.0,0.0,0.0,-0.2515283203125,0.0,0.0,0.0,0.0,0.0,0.0,-0.611,0.0,0.0,0.0,0.0,0.0,0.0,-0.3263252636864728,0.0,0.0,0.0,0.0,0.0,0.0,-13.356,0.0,0.0,0.0
239,0.0,0.0,0.0,-0.2571767578125,0.0,0.0,0.0,0.0,0.0,0.0,-0.581,0.0,0.0,0.0,0.0,0.0,0.0,-0.34350185979068454,0.0,0.0,0.0,0.0,0.0,0.0,-14.316,0.0,0.0,0.0
240,0.0,0.0,0.0,-0.263267578125,0.0,0.0,0.0,0.0,0.0,0.0,-0.589,0.0,0.0,0.0,0.0,0.0,0.0,-0.3486902184363536,0.0,0.0,0.0,0.0,0.0,0.0,-14.772,0.0,0.0,0.0
241,0.0,0.0,0.0,-0.2690517578125,0.0,0.0,0.0,0.0,0.0,0.0,-0.609,0.0,0.0,0.0,0.0,0.0,0.0,-0.35283880165428716,0.0,0.0,0.0,0.0,0.0,0.0,-13.948,0.0,0.0,0.0
242,0.0,0.0,0.0,-0.2747001953125,0.0,0.0,0.0,0.0,0.0,0.0,-0.57,0.0,0.0,0.0,0.0,0.0,0.0,-0.3576180055477124,0.0,0.0,0.0,0.0,0.0,0.0,-14.224,0.0,0.0,0.0
243,0.0,0.0,0.0,-0.2806376953125,0.0,0.0,0.0,0.0,0.0,0.0,-0.58,0.0,0.0,0.0,0.0,0.0,0.0,-0.36269733306875057,0.0,0.0,0.0,0.0,0.0,0.0,-14.016,0.0,0.0,0.0
244,0.0,0.0,0.0,-0.2862861328125,0.0,0.0,0.0,0.0,0.0,0.0,-0.585,0.0,0.0,0.0,0.0,0.0,0.0,-0.3662054291006072,0.0,0.0,0.0,0.0,0.0,0.0,-13.676,0.0,0.0,0.0
245,0.0,0.0,0.0,-0.2920791015625,0.0,0.0,0.0,0.0,0.0,0.0,-0.573,0.0,0.0,0.0,0.0,0.0,0.0,-0.3719747251438204,0.0,0.0,0.0,0.0,0.0,0.0,-14.336,0.0,0.0,0.0
246,0.0,0.0,0.0,-0.2981611328125,0.0,0.0,0.0,0.0,0.0,0.0,-0.599,0.0,0.0,0.0,0.0,0.0,0.0,-0.37638503263120615,0.0,0.0,0.0,0.0,0.0,0.0,-13.424,0.0,0.0,0.0
247,0.0,0.0,0.0,-0.3039541015625,0.0,0.0,0.0,0.0,0.0,0.0,-0.602,0.0,0.0,0.0,0.0,0.0,0.0,-0.3806841014110971,0.0,0.0,0.0,0.0,0.0,0.0,-13.332,0.0,0.0,0.0
248,0.0,0.0,0.0,-0.3098916015625,0.0,0.0,0.0,0.0,0.0,0.0,-0.593,0.0,0.0,0.0,0.0,0.0,0.0,-0.3855101044146754,0.0,0.0,0.0,0.0,0.0,0.0,-13.56,0.0,0.0,0.0
249,0.0,0.0,0.0,-0.3158291015625,0.0,0.0,0.0,0.0,0.0,0.0,-0.592,0.0,0.0,0.0,0.0,0.0,0.0,-0.3913644725261708,0.0,0.0,0.0,0.0,0.0,0.0,-13.536,0.0,0.0,0.0
250,0.0,0.0,0.0,-0.3217666015625,0.0,0.0,0.0,0.0,0.0,0.0,-0.603,0.0,0.0,0.0,0.0,0.0,0.0,-0.3940894775757457,0.0,0.0,0.0,0.0,0.0,0.0,-14.2,0.0,0.0,0.0
251,0.0,0.0,0.0,-0.3277041015625,0.0,0.0,0.0,0.0,0.0,0.0,-0.598,0.0,0.0,0.0,0.0,0.0,0.0,-0.39935529366308536,0.0,0.0,0.0,0.0,0.0,0.0,-14.292,0.0,0.0,0.0
252,0.0,0.0,0.0,-0.3333525390625,0.0,0.0,0.0,0.0,0.0,0.0,-0.586,0.0,0.0,0.0,0.0,0.0,0.0,-0.4045594785420094,0.0,0.0,0.0,0.0,0.0,0.0,-13.948,0.0,0.0,0.0
253,0.0,0.0,0.0,-0.3392802734375,0.0,0.0,0.0,0.0,0.0,0.0,-0.583,0.0,0.0,0.0,0.0,0.0,0.0,-0.40805246502154646,0.0,0.0,0.0,0.0,0.0,0.0,-13.788,0.0,0.0,0.0
254,0.0,0.0,0.0,-0.3450830078125,0.0,0.0,0.0,0.0,0.0,0.0,-0.59,0.0,0.0,0.0,0.0,0.0,0.0,-0.4132827058079578,0.0,0.0,0.0,0.0,0.0,0.0,-13.788,0.0,0.0,0.0
255,0.0,0.0,0.0,-0.3508759765625,0.0,0.0,0.0,0.0,0.0,0.0,-0.584,0.0,0.0,0.0,0.0,0.0,0.0,-0.42094192307752687,0.0,0.0,0.0,0.0,0.0,0.0,-13.788,0.0,0.0,0.0
256,0.0,0.0,0.0,-0.3568134765625,0.0,0.0,0.0,0.0,0.0,0.0,-0.587,0.0,0.0,0.0,0.0,0.0,0.0,-0.4187653819399429,0.0,0.0,0.0,0.0,0.0,0.0,-13.604,0.0,0.0,0.0
257,0.0,0.0,0.0,-0.36259765625,0.0,0.0,0.0,0.0,0.0,0.0,-0.594,0.0,0.0,0.0,0.0,0.0,0.0,-0.4272204784007954,0.0,0.0,0.0,0.0,0.0,0.0,-12.964,0.0,0.0,0.0
258,0.0,0.0,0.0,-0.3685439453125,0.0,0.0,0.0,0.0,0.0,0.0,-0.59,0.0,0.0,0.0,0.0,0.0,0.0,-0.4306047576572726,0.0,0.0,0.0,0.0,0.0,0.0,-13.264,0.0,0.0,0.0
259,0.0,0.0,0.0,-0.3744814453125,0.0,0.0,0.0,0.0,0.0,0.0,-0.604,0.0,0.0,0.0,0.0,0.0,0.0,-0.43557298410048334,0.0,0.0,0.0,0.0,0.0,0.0,-13.284,0.0,0.0,0.0
260,0.0,0.0,0.0,-0.3804189453125,0.0,0.0,0.0,0.0,0.0,0.0,-0.59,0.0,0.0,0.0,0.0,0.0,0.0,-0.4400176153466946,0.0,0.0,0.0,0.0,0.0,0.0,-13.584,0.0,0.0,0.0
261,0.0,0.0,0.0,-0.3864912109375,0.0,0.0,0.0,0.0,0.0,0.0,-0.603,0.0,0.0,0.0,0.0,0.0,0.0,-0.44470465870422,0.0,0.0,0.0,0.0,0.0,0.0,-13.972,0.0,0.0,0.0
262,0.0,0.0,0.0,-0.3921396484375,0.0,0.0,0.0,0.0,0.0,0.0,-0.602,0.0,0.0,0.0,0.0,0.0,0.0,-0.4538858068969956,0.0,0.0,0.0,0.0,0.0,0.0,-13.604,0.0,0.0,0.0
263,0.0,0.0,0.0,-0.3979423828125,0.0,0.0,0.0,0.0,0.0,0.0,-0.573,0.0,0.0,0.0,0.0,0.0,0.0,-0.4486519735501085,0.0,0.0,0.0,0.0,0.0,0.0,-13.516,0.0,0.0,0.0
264,0.0,0.0,0.0,-0.40358203125,0.0,0.0,0.0,0.0,0.0,0.0,-0.58,0.0,0.0,0.0,0.0,0.0,0.0,-0.457490118972454,0.0,0.0,0.0,0.0,0.0,0.0,-13.536,0.0,0.0,0.0
265,0.0,0.0,0.0,-0.409375,0.0,0.0,0.0,0.0,0.0,0.0,-0.573,0.0,0.0,0.0,0.0,0.0,0.0,-0.46188238383242214,0.0,0.0,0.0,0.0,0.0,0.0,-13.536,0.0,0.0,0.0
266,0.0,0.0,0.0,-0.41516796875,0.0,0.0,0.0,0.0,0.0,0.0,-0.583,0.0,0.0,0.0,0.0,0.0,0.0,-0.46591927895156576,0.0,0.0,0.0,0.0,0.0,0.0,-13.696,0.0,0.0,0.0
267,0.0,0.0,0.0,-0.421095703125,0.0,0.0,0.0,0.0,0.0,0.0,-0.594,0.0,0.0,0.0,0.0,0.0,0.0,-0.4702411036385781,0.0,0.0,0.0,0.0,0.0,0.0,-13.032,0.0,0.0,0.0
268,0.0,0.0,0.0,-0.42704296875,0.0,0.0,0.0,0.0,0.0,0.0,-0.597,0.0,0.0,0.0,0.0,0.0,0.0,-0.47469880752108345,0.0,0.0,0.0,0.0,0.0,0.0,-12.6,0.0,0.0,0.0
269,0.0,0.0,0.0,-0.4331240234375,0.0,0.0,0.0,0.0,0.0,0.0,-0.601,0.0,0.0,0.0,0.0,0.0,0.0,-0.47980627954677835,0.0,0.0,0.0,0.0,0.0,0.0,-12.872,0.0,0.0,0.0
270,0.0,0.0,0.0,-0.444845703125,0.0,0.0,0.0,0.0,0.0,0.0,-0.589,0.0,0.0,0.0,0.0,0.0,0.0,-0.48365881161597635,0.0,0.0,0.0,0.0,0.0,0.0,-13.376,0.0,0.0,0.0
271,0.0,0.0,0.0,-0.444845703125,0.0,0.0,0.0,0.0,0.0,0.0,-0.589,0.0,0.0,0.0,0.0,0.0,0.0,-0.4876996299602175,0.0,0.0,0.0,0.0,0.0,0.0,-13.376,0.0,0.0,0.0
272,0.0,0.0,0.0,-0.450783203125,0.0,0.0,0.0,0.0,0.0,0.0,-0.599,0.0,0.0,0.0,0.0,0.0,0.0,-0.4928040856672401,0.0,0.0,0.0,0.0,0.0,0.0,-13.604,0.0,0.0,0.0
273,0.0,0.0,0.0,-0.456576171875,0.0,0.0,0.0,0.0,0.0,0.0,-0.593,0.0,0.0,0.0,0.0,0.0,0.0,-0.4962728948590177,0.0,0.0,0.0,0.0,0.0,0.0,-13.24,0.0,0.0,0.0
274,0.0,0.0,0.0,-0.462369140625,0.0,0.0,0.0,0.0,0.0,0.0,-0.583,0.0,0.0,0.0,0.0,0.0,0.0,-0.5021719411770006,0.0,0.0,0.0,0.0,0.0,0.0,-13.264,0.0,0.0,0.0
275,0.0,0.0,0.0,-0.4680087890625,0.0,0.0,0.0,0.0,0.0,0.0,-0.582,0.0,0.0,0.0,0.0,0.0,0.0,-0.5037605965760035,0.0,0.0,0.0,0.0,0.0,0.0,-13.148,0.0,0.0,0.0
276,0.0,0.0,0.0,-0.4738017578125,0.0,0.0,0.0,0.0,0.0,0.0,-0.572,0.0,0.0,0.0,0.0,0.0,0.0,-0.5089164278533318,0.0,0.0,0.0,0.0,0.0,0.0,-13.032,0.0,0.0,0.0
277,0.0,0.0,0.0,-0.4797392578125,0.0,0.0,0.0,0.0,0.0,0.0,-0.587,0.0,0.0,0.0,0.0,0.0,0.0,-0.513818079251114,0.0,0.0,0.0,0.0,0.0,0.0,-13.24,0.0,0.0,0.0
278,0.0,0.0,0.0,-0.4855234375,0.0,0.0,0.0,0.0,0.0,0.0,-0.594,0.0,0.0,0.0,0.0,0.0,0.0,-0.5169563782798643,0.0,0.0,0.0,0.0,0.0,0.0,-12.508,0.0,0.0,0.0
279,0.0,0.0,0.0,-0.4914697265625,0.0,0.0,0.0,0.0,0.0,0.0,-0.592,0.0,0.0,0.0,0.0,0.0,0.0,-0.5222346559638581,0.0,0.0,0.0,0.0,0.0,0.0,-12.552,0.0,0.0,0.0
280,0.0,0.0,0.0,-0.4975517578125,0.0,0.0,0.0,0.0,0.0,0.0,-0.601,0.0,0.0,0.0,0.0,0.0,0.0,-0.525925053873642,0.0,0.0,0.0,0.0,0.0,0.0,-12.532,0.0,0.0,0.0
281,0.0,0.0,0.0,-0.5033359375,0.0,0.0,0.0,0.0,0.0,0.0,-0.597,0.0,0.0,0.0,0.0,0.0,0.0,-0.5303453498521645,0.0,0.0,0.0,0.0,0.0,0.0,-12.712,0.0,0.0,0.0
282,0.0,0.0,0.0,-0.5092734375,0.0,0.0,0.0,0.0,0.0,0.0,-0.595,0.0,0.0,0.0,0.0,0.0,0.0,-0.5350558944019362,0.0,0.0,0.0,0.0,0.0,0.0,-13.172,0.0,0.0,0.0
283,0.0,0.0,0.0,-0.515201171875,0.0,0.0,0.0,0.0,0.0,0.0,-0.597,0.0,0.0,0.0,0.0,0.0,0.0,-0.5387005745617499,0.0,0.0,0.0,0.0,0.0,0.0,-12.988,0.0,0.0,0.0
284,0.0,0.0,0.0,-0.5210029296875,0.0,0.0,0.0,0.0,0.0,0.0,-0.588,0.0,0.0,0.0,0.0,0.0,0.0,-0.5430733515403053,0.0,0.0,0.0,0.0,0.0,0.0,-12.896,0.0,0.0,0.0
285,0.0,0.0,0.0,-0.526787109375,0.0,0.0,0.0,0.0,0.0,0.0,-0.584,0.0,0.0,0.0,0.0,0.0,0.0,-0.5472563191185392,0.0,0.0,0.0,0.0,0.0,0.0,-12.692,0.0,0.0,0.0
286,0.0,0.0,0.0,-0.532580078125,0.0,0.0,0.0,0.0,0.0,0.0,-0.583,0.0,0.0,0.0,0.0,0.0,0.0,-0.5534097825964598,0.0,0.0,0.0,0.0,0.0,0.0,-12.736,0.0,0.0,0.0
287,0.0,0.0,0.0,-0.5383642578125,0.0,0.0,0.0,0.0,0.0,0.0,-0.583,0.0,0.0,0.0,0.0,0.0,0.0,-0.5531728348426316,0.0,0.0,0.0,0.0,0.0,0.0,-12.668,0.0,0.0,0.0
288,0.0,0.0,0.0,-0.5441572265625,0.0,0.0,0.0,0.0,0.0,0.0,-0.591,0.0,0.0,0.0,0.0,0.0,0.0,-0.5595033061492968,0.0,0.0,0.0,0.0,0.0,0.0,-12.372,0.0,0.0,0.0
289,0.0,0.0,0.0,-0.549796875,0.0,0.0,0.0,0.0,0.0,0.0,-0.578,0.0,0.0,0.0,0.0,0.0,0.0,-0.5635325904588766,0.0,0.0,0.0,0.0,0.0,0.0,-11.364,0.0,0.0,0.0
290,0.0,0.0,0.0,-0.555310546875,0.0,0.0,0.0,0.0,0.0,0.0,-0.562,0.0,0.0,0.0,0.0,0.0,0.0,-0.5670984062498255,0.0,0.0,0.0,0.0,0.0,0.0,-11.548,0.0,0.0,0.0
291,0.0,0.0,0.0,-0.560373046875,0.0,0.0,0.0,0.0,0.0,0.0,-0.54,0.0,0.0,0.0,0.0,0.0,0.0,-0.5706776852316063,0.0,0.0,0.0,0.0,0.0,0.0,-10.472,0.0,0.0,0.0
292,0.0,0.0,0.0,-0.564279296875,0.0,0.0,0.0,0.0,0.0,0.0,-0.457,0.0,0.0,0.0,0.0,0.0,0.0,-0.5727936758989766,0.0,0.0,0.0,0.0,0.0,0.0,-10.38,0.0,0.0,0.0
293,0.0,0.0,0.0,-0.569052734375,0.0,0.0,0.0,0.0,0.0,0.0,-0.425,0.0,0.0,0.0,0.0,0.0,0.0,-0.5763065402743388,0.0,0.0,0.0,0.0,0.0,0.0,-11.98,0.0,0.0,0.0
294,0.0,0.0,0.0,-0.5742685546875,0.0,0.0,0.0,0.0,0.0,0.0,-0.509,0.0,0.0,0.0,0.0,0.0,0.0,-0.5788582459794928,0.0,0.0,0.0,0.0,0.0,0.0,-12.14,0.0,0.0,0.0
295,0.0,0.0,0.0,-0.57846484375,0.0,0.0,0.0,0.0,0.0,0.0,-0.478,0.0,0.0,0.0,0.0,0.0,0.0,-0.581887260568851,0.0,0.0,0.0,0.0,0.0,0.0,-11.088,0.0,0.0,0.0
296,0.0,0.0,0.0,-0.5817939453125,0.0,0.0,0.0,0.0,0.0,0.0,-0.39,0.0,0.0,0.0,0.0,0.0,0.0,-0.5834821970884739,0.0,0.0,0.0,0.0,0.0,0.0,-9.26,0.0,0.0,0.0
297,0.0,0.0,0.0,-0.584826171875,0.0,0.0,0.0,0.0,0.0,0.0,-0.315,0.0,0.0,0.0,0.0,0.0,0.0,-0.5847964281869559,0.0,0.0,0.0,0.0,0.0,0.0,-10.288,0.0,0.0,0.0
298,0.0,0.0,0.0,-0.5882998046875,0.0,0.0,0.0,0.0,0.0,0.0,-0.326,0.0,0.0,0.0,0.0,0.0,0.0,-0.5865560438379128,0.0,0.0,0.0,0.0,0.0,0.0,-11.068,0.0,0.0,0.0
299,0.0,0.0,0.0,-0.590908203125,0.0,0.0,0.0,0.0,0.0,0.0,-0.321,0.0,0.0,0.0,0.0,0.0,0.0,-0.5874318522216829,0.0,0.0,0.0,0.0,0.0,0.0,-10.68,0.0,0.0,0.0
300,0.0,0.0,0.0,-0.5925048828125,0.0,0.0,0.0,0.0,0.0,0.0,-0.219,0.0,0.0,0.0,0.0,0.0,0.0,-0.5873324775712346,0.0,0.0,0.0,0.0,0.0,0.0,-9.628,0.0,0.0,0.0
301,0.0,0.0,0.0,-0.5935244140625,0.0,0.0,0.0,0.0,0.0,0.0,-0.134,0.0,0.0,0.0,0.0,0.0,0.0,-0.5866944958416471,0.0,0.0,0.0,0.0,0.0,0.0,-9.216,0.0,0.0,0.0
302,0.0,0.0,0.0,-0.59496875,0.0,0.0,0.0,0.0,0.0,0.0,-0.129,0.0,0.0,0.0,0.0,0.0,0.0,-0.5864104614747032,0.0,0.0,0.0,0.0,0.0,0.0,-8.916,0.0,0.0,0.0
303,0.0,0.0,0.0,-0.59482421875,0.0,0.0,0.0,0.0,0.0,0.0,-0.098,0.0,0.0,0.0,0.0,0.0,0.0,-0.5844636368695136,0.0,0.0,0.0,0.0,0.0,0.0,-7.224,0.0,0.0,0.0
304,0.0,0.0,0.0,-0.593236328125,0.0,0.0,0.0,0.0,0.0,0.0,0.09,0.0,0.0,0.0,0.0,0.0,0.0,-0.581268814717287,0.0,0.0,0.0,0.0,0.0,0.0,-8.208,0.0,0.0,0.0
305,0.0,0.0,0.0,-0.591783203125,0.0,0.0,0.0,0.0,0.0,0.0,0.155,0.0,0.0,0.0,0.0,0.0,0.0,-0.5780585597621927,0.0,0.0,0.0,0.0,0.0,0.0,-8.46,0.0,0.0,0.0
306,0.0,0.0,0.0,-0.5900419921875,0.0,0.0,0.0,0.0,0.0,0.0,0.163,0.0,0.0,0.0,0.0,0.0,0.0,-0.5745567675603485,0.0,0.0,0.0,0.0,0.0,0.0,-9.648,0.0,0.0,0.0
307,0.0,0.0,0.0,-0.58903125,0.0,0.0,0.0,0.0,0.0,0.0,0.144,0.0,0.0,0.0,0.0,0.0,0.0,-0.5718851176701655,0.0,0.0,0.0,0.0,0.0,0.0,-9.948,0.0,0.0,0.0
308,0.0,0.0,0.0,-0.5882998046875,0.0,0.0,0.0,0.0,0.0,0.0,0.085,0.0,0.0,0.0,0.0,0.0,0.0,-0.5695804467898987,0.0,0.0,0.0,0.0,0.0,0.0,-10.908,0.0,0.0,0.0
309,0.0,0.0,0.0,-0.5871455078125,0.0,0.0,0.0,0.0,0.0,0.0,0.095,0.0,0.0,0.0,0.0,0.0,0.0,-0.5665194957436109,0.0,0.0,0.0,0.0,0.0,0.0,-10.54,0.0,0.0,0.0
310,0.0,0.0,0.0,-0.5823720703125,0.0,0.0,0.0,0.0,0.0,0.0,0.236,0.0,0.0,0.0,0.0,0.0,0.0,-0.5626663934068802,0.0,0.0,0.0,0.0,0.0,0.0,-8.896,0.0,0.0,0.0
311,0.0,0.0,0.0,-0.5823720703125,0.0,0.0,0.0,0.0,0.0,0.0,0.236,0.0,0.0,0.0,0.0,0.0,0.0,-0.5590384633841311,0.0,0.0,0.0,0.0,0.0,0.0,-8.896,0.0,0.0,0.0
312,0.0,0.0,0.0,-0.5791865234375,0.0,0.0,0.0,0.0,0.0,0.0,0.297,0.0,0.0,0.0,0.0,0.0,0.0,-0.5533750275957012,0.0,0.0,0.0,0.0,0.0,0.0,-10.22,0.0,0.0,0.0
313,0.0,0.0,0.0,-0.5760009765625,0.0,0.0,0.0,0.0,0.0,0.0,0.325,0.0,0.0,0.0,0.0,0.0,0.0,-0.5488308509793909,0.0,0.0,0.0,0.0,0.0,0.0,-11.752,0.0,0.0,0.0
314,0.0,0.0,0.0,-0.5728154296875,0.0,0.0,0.0,0.0,0.0,0.0,0.316,0.0,0.0,0.0,0.0,0.0,0.0,-0.5440767393174059,0.0,0.0,0.0,0.0,0.0,0.0,-11.18,0.0,0.0,0.0
315,0.0,0.0,0.0,-0.5689091796875,0.0,0.0,0.0,0.0,0.0,0.0,0.342,0.0,0.0,0.0,0.0,0.0,0.0,-0.5381937103931048,0.0,0.0,0.0,0.0,0.0,0.0,-9.488,0.0,0.0,0.0
316,0.0,0.0,0.0,-0.564423828125,0.0,0.0,0.0,0.0,0.0,0.0,0.425,0.0,0.0,0.0,0.0,0.0,0.0,-0.5319808814984197,0.0,0.0,0.0,0.0,0.0,0.0,-9.216,0.0,0.0,0.0
317,0.0,0.0,0.0,-0.559939453125,0.0,0.0,0.0,0.0,0.0,0.0,0.44,0.0,0.0,0.0,0.0,0.0,0.0,-0.5263454643305673,0.0,0.0,0.0,0.0,0.0,0.0,-9.376,0.0,0.0,0.0
318,0.0,0.0,0.0,-0.5545888671875,0.0,0.0,0.0,0.0,0.0,0.0,0.486,0.0,0.0,0.0,0.0,0.0,0.0,-0.5191849497152289,0.0,0.0,0.0,0.0,0.0,0.0,-9.948,0.0,0.0,0.0
319,0.0,0.0,0.0,-0.5487861328125,0.0,0.0,0.0,0.0,0.0,0.0,0.563,0.0,0.0,0.0,0.0,0.0,0.0,-0.5058821389883074,0.0,0.0,0.0,0.0,0.0,0.0,-10.38,0.0,0.0,0.0
320,0.0,0.0,0.0,-0.5430029296875,0.0,0.0,0.0,0.0,0.0,0.0,0.581,0.0,0.0,0.0,0.0,0.0,0.0,-0.5096535698515582,0.0,0.0,0.0,0.0,0.0,0.0,-10.152,0.0,0.0,0.0
321,0.0,0.0,0.0,-0.5369208984375,0.0,0.0,0.0,0.0,0.0,0.0,0.595,0.0,0.0,0.0,0.0,0.0,0.0,-0.49664576523785464,0.0,0.0,0.0,0.0,0.0,0.0,-10.084,0.0,0.0,0.0
322,0.0,0.0,0.0,-0.53040625,0.0,0.0,0.0,0.0,0.0,0.0,0.628,0.0,0.0,0.0,0.0,0.0,0.0,-0.48817639109259625,0.0,0.0,0.0,0.0,0.0,0.0,-10.108,0.0,0.0,0.0
323,0.0,0.0,0.0,-0.523900390625,0.0,0.0,0.0,0.0,0.0,0.0,0.658,0.0,0.0,0.0,0.0,0.0,0.0,-0.48041578160949683,0.0,0.0,0.0,0.0,0.0,0.0,-11.912,0.0,0.0,0.0
324,0.0,0.0,0.0,-0.511005859375,0.0,0.0,0.0,0.0,0.0,0.0,0.642,0.0,0.0,0.0,0.0,0.0,0.0,-0.44911596547720434,0.0,0.0,0.0,0.0,0.0,0.0,-12.12,0.0,0.0,0.0
325,0.0,0.0,0.0,-0.511005859375,0.0,0.0,0.0,0.0,0.0,0.0,0.642,0.0,0.0,0.0,0.0,0.0,0.0,-0.4803149068546442,0.0,0.0,0.0,0.0,0.0,0.0,-12.12,0.0,0.0,0.0
326,0.0,0.0,0.0,-0.504345703125,0.0,0.0,0.0,0.0,0.0,0.0,0.665,0.0,0.0,0.0,0.0,0.0,0.0,-0.45679464290449645,0.0,0.0,0.0,0.0,0.0,0.0,-10.976,0.0,0.0,0.0
327,0.0,0.0,0.0,-0.4973984375,0.0,0.0,0.0,0.0,0.0,0.0,0.686,0.0,0.0,0.0,0.0,0.0,0.0,-0.44723185321694614,0.0,0.0,0.0,0.0,0.0,0.0,-11.296,0.0,0.0,0.0
328,0.0,0.0,0.0,-0.490892578125,0.0,0.0,0.0,0.0,0.0,0.0,0.686,0.0,0.0,0.0,0.0,0.0,0.0,-0.43974196663853427,0.0,0.0,0.0,0.0,0.0,0.0,-12.508,0.0,0.0,0.0
329,0.0,0.0,0.0,-0.4843681640625,0.0,0.0,0.0,0.0,0.0,0.0,0.651,0.0,0.0,0.0,0.0,0.0,0.0,-0.4287116639224365,0.0,0.0,0.0,0.0,0.0,0.0,-12.532,0.0,0.0,0.0
330,0.0,0.0,0.0,-0.4710498046875,0.0,0.0,0.0,0.0,0.0,0.0,0.672,0.0,0.0,0.0,0.0,0.0,0.0,-0.3975040738745519,0.0,0.0,0.0,0.0,0.0,0.0,-12.736,0.0,0.0,0.0
331,0.0,0.0,0.0,-0.4648330078125,0.0,0.0,0.0,0.0,0.0,0.0,0.635,0.0,0.0,0.0,0.0,0.0,0.0,-0.41889463239434344,0.0,0.0,0.0,0.0,0.0,0.0,-13.264,0.0,0.0,0.0
332,0.0,0.0,0.0,-0.4584619140625,0.0,0.0,0.0,0.0,0.0,0.0,0.63,0.0,0.0,0.0,0.0,0.0,0.0,-0.37012559337025747,0.0,0.0,0.0,0.0,0.0,0.0,-14.04,0.0,0.0,0.0
333,0.0,0.0,0.0,-0.4517939453125,0.0,0.0,0.0,0.0,0.0,0.0,0.646,0.0,0.0,0.0,0.0,0.0,0.0,-0.39695752389001565,0.0,0.0,0.0,0.0,0.0,0.0,-14.132,0.0,0.0,0.0
334,0.0,0.0,0.0,-0.445279296875,0.0,0.0,0.0,0.0,0.0,0.0,0.668,0.0,0.0,0.0,0.0,0.0,0.0,-0.4108453929593262,0.0,0.0,0.0,0.0,0.0,0.0,-13.904,0.0,0.0,0.0
335,0.0,0.0,0.0,-0.445279296875,0.0,0.0,0.0,0.0,0.0,0.0,0.668,0.0,0.0,0.0,0.0,0.0,0.0,-0.40104006106992396,0.0,0.0,0.0,0.0,0.0,0.0,-13.904,0.0,0.0,0.0
336,0.0,0.0,0.0,-0.439052734375,0.0,0.0,0.0,0.0,0.0,0.0,0.643,0.0,0.0,0.0,0.0,0.0,0.0,-0.3765265822830555,0.0,0.0,0.0,0.0,0.0,0.0,-13.172,0.0,0.0,0.0
337,0.0,0.0,0.0,-0.4329794921875,0.0,0.0,0.0,0.0,0.0,0.0,0.629,0.0,0.0,0.0,0.0,0.0,0.0,-0.3678247178107322,0.0,0.0,0.0,0.0,0.0,0.0,-14.316,0.0,0.0,0.0
338,0.0,0.0,0.0,-0.4273310546875,0.0,0.0,0.0,0.0,0.0,0.0,0.587,0.0,0.0,0.0,0.0,0.0,0.0,-0.36114950521013744,0.0,0.0,0.0,0.0,0.0,0.0,-14.132,0.0,0.0,0.0
339,0.0,0.0,0.0,-0.421095703125,0.0,0.0,0.0,0.0,0.0,0.0,0.592,0.0,0.0,0.0,0.0,0.0,0.0,-0.3532440583874832,0.0,0.0,0.0,0.0,0.0,0.0,-13.284,0.0,0.0,0.0
340,0.0,0.0,0.0,-0.41516796875,0.0,0.0,0.0,0.0,0.0,0.0,0.616,0.0,0.0,0.0,0.0,0.0,0.0,-0.34656578321168524,0.0,0.0,0.0,0.0,0.0,0.0,-13.652,0.0,0.0,0.0
341,0.0,0.0,0.0,-0.409375,0.0,0.0,0.0,0.0,0.0,0.0,0.587,0.0,0.0,0.0,0.0,0.0,0.0,-0.33869731712630297,0.0,0.0,0.0,0.0,0.0,0.0,-13.72,0.0,0.0,0.0
342,0.0,0.0,0.0,-0.40358203125,0.0,0.0,0.0,0.0,0.0,0.0,0.593,0.0,0.0,0.0,0.0,0.0,0.0,-0.32277560350421103,0.0,0.0,0.0,0.0,0.0,0.0,-14.384,0.0,0.0,0.0
343,0.0,0.0,0.0,-0.3979423828125,0.0,0.0,0.0,0.0,0.0,0.0,0.567,0.0,0.0,0.0,0.0,0.0,0.0,-0.33431422432200325,0.0,0.0,0.0,0.0,0.0,0.0,-14.816,0.0,0.0,0.0
344,0.0,0.0,0.0,-0.3921396484375,0.0,0.0,0.0,0.0,0.0,0.0,0.572,0.0,0.0,0.0,0.0,0.0,0.0,-0.3114783766163201,0.0,0.0,0.0,0.0,0.0,0.0,-14.268,0.0,0.0,0.0
345,0.0,0.0,0.0,-0.38070703125,0.0,0.0,0.0,0.0,0.0,0.0,0.568,0.0,0.0,0.0,0.0,0.0,0.0,-0.2912154398589876,0.0,0.0,0.0,0.0,0.0,0.0,-13.172,0.0,0.0,0.0
346,0.0,0.0,0.0,-0.38070703125,0.0,0.0,0.0,0.0,0.0,0.0,0.568,0.0,0.0,0.0,0.0,0.0,0.0,-0.3232917938453505,0.0,0.0,0.0,0.0,0.0,0.0,-13.172,0.0,0.0,0.0
347,0.0,0.0,0.0,-0.37505859375,0.0,0.0,0.0,0.0,0.0,0.0,0.585,0.0,0.0,0.0,0.0,0.0,0.0,-0.29231501803860077,0.0,0.0,0.0,0.0,0.0,0.0,-13.308,0.0,0.0,0.0
348,0.0,0.0,0.0,-0.3695546875,0.0,0.0,0.0,0.0,0.0,0.0,0.561,0.0,0.0,0.0,0.0,0.0,0.0,-0.2952718561371652,0.0,0.0,0.0,0.0,0.0,0.0,-13.676,0.0,0.0,0.0
349,0.0,0.0,0.0,-0.3640498046875,0.0,0.0,0.0,0.0,0.0,0.0,0.55,0.0,0.0,0.0,0.0,0.0,0.0,-0.2830721399413602,0.0,0.0,0.0,0.0,0.0,0.0,-13.332,0.0,0.0,0.0
350,0.0,0.0,0.0,-0.3585458984375,0.0,0.0,0.0,0.0,0.0,0.0,0.551,0.0,0.0,0.0,0.0,0.0,0.0,-0.2757766446167162,0.0,0.0,0.0,0.0,0.0,0.0,-12.416,0.0,0.0,0.0
351,0.0,0.0,0.0,-0.3533388671875,0.0,0.0,0.0,0.0,0.0,0.0,0.544,0.0,0.0,0.0,0.0,0.0,0.0,-0.27074568753282474,0.0,0.0,0.0,0.0,0.0,0.0,-12.324,0.0,0.0,0.0
352,0.0,0.0,0.0,-0.3478349609375,0.0,0.0,0.0,0.0,0.0,0.0,0.536,0.0,0.0,0.0,0.0,0.0,0.0,-0.2640640931208731,0.0,0.0,0.0,0.0,0.0,0.0,-13.012,0.0,0.0,0.0
353,0.0,0.0,0.0,-0.3421865234375,0.0,0.0,0.0,0.0,0.0,0.0,0.567,0.0,0.0,0.0,0.0,0.0,0.0,-0.25678132751665717,0.0,0.0,0.0,0.0,0.0,0.0,-13.652,0.0,0.0,0.0
354,0.0,0.0,0.0,-0.336681640625,0.0,0.0,0.0,0.0,0.0,0.0,0.56,0.0,0.0,0.0,0.0,0.0,0.0,-0.2500287558119088,0.0,0.0,0.0,0.0,0.0,0.0,-13.652,0.0,0.0,0.0
355,0.0,0.0,0.0,-0.331033203125,0.0,0.0,0.0,0.0,0.0,0.0,0.553,0.0,0.0,0.0,0.0,0.0,0.0,-0.24326016562998637,0.0,0.0,0.0,0.0,0.0,0.0,-13.24,0.0,0.0,0.0
356,0.0,0.0,0.0,-0.325384765625,0.0,0.0,0.0,0.0,0.0,0.0,0.576,0.0,0.0,0.0,0.0,0.0,0.0,-0.23282849730272975,0.0,0.0,0.0,0.0,0.0,0.0,-12.692,0.0,0.0,0.0
357,0.0,0.0,0.0,-0.3139521484375,0.0,0.0,0.0,0.0,0.0,0.0,0.571,0.0,0.0,0.0,0.0,0.0,0.0,-0.20863589530004484,0.0,0.0,0.0,0.0,0.0,0.0,-12.784,0.0,0.0,0.0
358,0.0,0.0,0.0,-0.3139521484375,0.0,0.0,0.0,0.0,0.0,0.0,0.571,0.0,0.0,0.0,0.0,0.0,0.0,-0.24282917641631124,0.0,0.0,0.0,0.0,0.0,0.0,-12.784,0.0,0.0,0.0
359,0.0,0.0,0.0,-0.308150390625,0.0,0.0,0.0,0.0,0.0,0.0,0.585,0.0,0.0,0.0,0.0,0.0,0.0,-0.2161160210032957,0.0,0.0,0.0,0.0,0.0,0.0,-13.012,0.0,0.0,0.0
360,0.0,0.0,0.0,-0.302654296875,0.0,0.0,0.0,0.0,0.0,0.0,0.569,0.0,0.0,0.0,0.0,0.0,0.0,-0.2102869029170974,0.0,0.0,0.0,0.0,0.0,0.0,-12.668,0.0,0.0,0.0
361,0.0,0.0,0.0,-0.296861328125,0.0,0.0,0.0,0.0,0.0,0.0,0.567,0.0,0.0,0.0,0.0,0.0,0.0,-0.20305788397239877,0.0,0.0,0.0,0.0,0.0,0.0,-12.072,0.0,0.0,0.0
362,0.0,0.0,0.0,-0.291212890625,0.0,0.0,0.0,0.0,0.0,0.0,0.582,0.0,0.0,0.0,0.0,0.0,0.0,-0.19659915680532491,0.0,0.0,0.0,0.0,0.0,0.0,-12.6,0.0,0.0,0.0
363,0.0,0.0,0.0,-0.2854111328125,0.0,0.0,0.0,0.0,0.0,0.0,0.572,0.0,0.0,0.0,0.0,0.0,0.0,-0.18984917917889815,0.0,0.0,0.0,0.0,0.0,0.0,-13.332,0.0,0.0,0.0
364,0.0,0.0,0.0,-0.2794736328125,0.0,0.0,0.0,0.0,0.0,0.0,0.581,0.0,0.0,0.0,0.0,0.0,0.0,-0.1824053440619337,0.0,0.0,0.0,0.0,0.0,0.0,-13.764,0.0,0.0,0.0
365,0.0,0.0,0.0,-0.273689453125,0.0,0.0,0.0,0.0,0.0,0.0,0.593,0.0,0.0,0.0,0.0,0.0,0.0,-0.1762494130304006,0.0,0.0,0.0,0.0,0.0,0.0,-14.064,0.0,0.0,0.0
366,0.0,0.0,0.0,-0.267607421875,0.0,0.0,0.0,0.0,0.0,0.0,0.59,0.0,0.0,0.0,0.0,0.0,0.0,-0.1695436537148407,0.0,0.0,0.0,0.0,0.0,0.0,-13.72,0.0,0.0,0.0
367,0.0,0.0,0.0,-0.2615166015625,0.0,0.0,0.0,0.0,0.0,0.0,0.613,0.0,0.0,0.0,0.0,0.0,0.0,-0.16201379832442642,0.0,0.0,0.0,0.0,0.0,0.0,-13.124,0.0,0.0,0.0
368,0.0,0.0,0.0,-0.2557236328125,0.0,0.0,0.0,0.0,0.0,0.0,0.603,0.0,0.0,0.0,0.0,0.0,0.0,-0.1557771455087057,0.0,0.0,0.0,0.0,0.0,0.0,-13.284,0.0,0.0,0.0
369,0.0,0.0,0.0,-0.2497861328125,0.0,0.0,0.0,0.0,0.0,0.0,0.586,0.0,0.0,0.0,0.0,0.0,0.0,-0.14637115815141982,0.0,0.0,0.0,0.0,0.0,0.0,-13.356,0.0,0.0,0.0
370,0.0,0.0,0.0,-0.2438583984375,0.0,0.0,0.0,0.0,0.0,0.0,0.599,0.0,0.0,0.0,0.0,0.0,0.0,-0.145288434153523,0.0,0.0,0.0,0.0,0.0,0.0,-13.284,0.0,0.0,0.0
371,0.0,0.0,0.0,-0.2379208984375,0.0,0.0,0.0,0.0,0.0,0.0,0.598,0.0,0.0,0.0,0.0,0.0,0.0,-0.13552443588989962,0.0,0.0,0.0,0.0,0.0,0.0,-13.172,0.0,0.0,0.0
372,0.0,0.0,0.0,-0.231974609375,0.0,0.0,0.0,0.0,0.0,0.0,0.594,0.0,0.0,0.0,0.0,0.0,0.0,-0.12842057504745172,0.0,0.0,0.0,0.0,0.0,0.0,-12.896,0.0,0.0,0.0
373,0.0,0.0,0.0,-0.2263251953125,0.0,0.0,0.0,0.0,0.0,0.0,0.592,0.0,0.0,0.0,0.0,0.0,0.0,-0.12121373269183783,0.0,0.0,0.0,0.0,0.0,0.0,-13.604,0.0,0.0,0.0
374,0.0,0.0,0.0,-0.2203876953125,0.0,0.0,0.0,0.0,0.0,0.0,0.575,0.0,0.0,0.0,0.0,0.0,0.0,-0.11733918869282686,0.0,0.0,0.0,0.0,0.0,0.0,-13.972,0.0,0.0,0.0
375,0.0,0.0,0.0,-0.214451171875,0.0,0.0,0.0,0.0,0.0,0.0,0.602,0.0,0.0,0.0,0.0,0.0,0.0,-0.10955053506385465,0.0,0.0,0.0,0.0,0.0,0.0,-14.612,0.0,0.0,0.0
376,0.0,0.0,0.0,-0.208369140625,0.0,0.0,0.0,0.0,0.0,0.0,0.599,0.0,0.0,0.0,0.0,0.0,0.0,-0.10263772629095336,0.0,0.0,0.0,0.0,0.0,0.0,-14.568,0.0,0.0,0.0
377,0.0,0.0,0.0,-0.202287109375,0.0,0.0,0.0,0.0,0.0,0.0,0.612,0.0,0.0,0.0,0.0,0.0,0.0,-0.09213844594384452,0.0,0.0,0.0,0.0,0.0,0.0,-13.948,0.0,0.0,0.0
378,0.0,0.0,0.0,-0.196349609375,0.0,0.0,0.0,0.0,0.0,0.0,0.612,0.0,0.0,0.0,0.0,0.0,0.0,-0.0948579703158724,0.0,0.0,0.0,0.0,0.0,0.0,-13.972,0.0,0.0,0.0
379,0.0,0.0,0.0,-0.190412109375,0.0,0.0,0.0,0.0,0.0,0.0,0.593,0.0,0.0,0.0,0.0,0.0,0.0,-0.08217503993132216,0.0,0.0,0.0,0.0,0.0,0.0,-13.652,0.0,0.0,0.0
380,0.0,0.0,0.0,-0.1844658203125,0.0,0.0,0.0,0.0,0.0,0.0,0.601,0.0,0.0,0.0,0.0,0.0,0.0,-0.0770649152802245,0.0,0.0,0.0,0.0,0.0,0.0,-13.72,0.0,0.0,0.0
381,0.0,0.0,0.0,-0.1786728515625,0.0,0.0,0.0,0.0,0.0,0.0,0.588,0.0,0.0,0.0,0.0,0.0,0.0,-0.07015957748519086,0.0,0.0,0.0,0.0,0.0,0.0,-13.264,0.0,0.0,0.0
382,0.0,0.0,0.0,-0.1727353515625,0.0,0.0,0.0,0.0,0.0,0.0,0.587,0.0,0.0,0.0,0.0,0.0,0.0,-0.06415166048960722,0.0,0.0,0.0,0.0,0.0,0.0,-13.216,0.0,0.0,0.0
383,0.0,0.0,0.0,-0.167095703125,0.0,0.0,0.0,0.0,0.0,0.0,0.592,0.0,0.0,0.0,0.0,0.0,0.0,-0.05843684800448057,0.0,0.0,0.0,0.0,0.0,0.0,-13.56,0.0,0.0,0.0
384,0.0,0.0,0.0,-0.1612939453125,0.0,0.0,0.0,0.0,0.0,0.0,0.572,0.0,0.0,0.0,0.0,0.0,0.0,-0.05152136502564367,0.0,0.0,0.0,0.0,0.0,0.0,-13.788,0.0,0.0,0.0
385,0.0,0.0,0.0,-0.1553564453125,0.0,0.0,0.0,0.0,0.0,0.0,0.583,0.0,0.0,0.0,0.0,0.0,0.0,-0.04375051218652845,0.0,0.0,0.0,0.0,0.0,0.0,-14.132,0.0,0.0,0.0
386,0.0,0.0,0.0,-0.1497080078125,0.0,0.0,0.0,0.0,0.0,0.0,0.586,0.0,0.0,0.0,0.0,0.0,0.0,-0.04158276525236443,0.0,0.0,0.0,0.0,0.0,0.0,-14.544,0.0,0.0,0.0
387,0.0,0.0,0.0,-0.1437705078125,0.0,0.0,0.0,0.0,0.0,0.0,0.576,0.0,0.0,0.0,0.0,0.0,0.0,-0.03339509622863335,0.0,0.0,0.0,0.0,0.0,0.0,-14.568,0.0,0.0,0.0
388,0.0,0.0,0.0,-0.1376796875,0.0,0.0,0.0,0.0,0.0,0.0,0.611,0.0,0.0,0.0,0.0,0.0,0.0,-0.02693332971413262,0.0,0.0,0.0,0.0,0.0,0.0,-14.224,0.0,0.0,0.0
389,0.0,0.0,0.0,-0.13203125,0.0,0.0,0.0,0.0,0.0,0.0,0.591,0.0,0.0,0.0,0.0,0.0,0.0,-0.020959849840223532,0.0,0.0,0.0,0.0,0.0,0.0,-13.696,0.0,0.0,0.0
390,0.0,0.0,0.0,-0.12594921875,0.0,0.0,0.0,0.0,0.0,0.0,0.581,0.0,0.0,0.0,0.0,0.0,0.0,-0.013672280913528373,0.0,0.0,0.0,0.0,0.0,0.0,-13.492,0.0,0.0,0.0
391,0.0,0.0,0.0,-0.1203095703125,0.0,0.0,0.0,0.0,0.0,0.0,0.6,0.0,0.0,0.0,0.0,0.0,0.0,-0.002729872807469391,0.0,0.0,0.0,0.0,0.0,0.0,-13.628,0.0,0.0,0.0
392,0.0,0.0,0.0,-0.1146513671875,0.0,0.0,0.0,0.0,0.0,0.0,0.566,0.0,0.0,0.0,0.0,0.0,0.0,-0.009797395788066751,0.0,0.0,0.0,0.0,0.0,0.0,-13.264,0.0,0.0,0.0
393,0.0,0.0,0.0,-0.1085703125,0.0,0.0,0.0,0.0,0.0,0.0,0.586,0.0,0.0,0.0,0.0,0.0,0.0,0.0029299676706174144,0.0,0.0,0.0,0.0,0.0,0.0,-13.332,0.0,0.0,0.0
394,0.0,0.0,0.0,-0.1030654296875,0.0,0.0,0.0,0.0,0.0,0.0,0.583,0.0,0.0,0.0,0.0,0.0,0.0,0.009042749304588385,0.0,0.0,0.0,0.0,0.0,0.0,-13.652,0.0,0.0,0.0
395,0.0,0.0,0.0,-0.0972724609375,0.0,0.0,0.0,0.0,0.0,0.0,0.555,0.0,0.0,0.0,0.0,0.0,0.0,0.01488737380763458,0.0,0.0,0.0,0.0,0.0,0.0,-13.676,0.0,0.0,0.0
396,0.0,0.0,0.0,-0.091326171875,0.0,0.0,0.0,0.0,0.0,0.0,0.596,0.0,0.0,0.0,0.0,0.0,0.0,0.02043163971891708,0.0,0.0,0.0,0.0,0.0,0.0,-14.544,0.0,0.0,0.0
397,0.0,0.0,0.0,-0.0856865234375,0.0,0.0,0.0,0.0,0.0,0.0,0.582,0.0,0.0,0.0,0.0,0.0,0.0,0.027868912532809806,0.0,0.0,0.0,0.0,0.0,0.0,-14.496,0.0,0.0,0.0
398,0.0,0.0,0.0,-0.0794599609375,0.0,0.0,0.0,0.0,0.0,0.0,0.593,0.0,0.0,0.0,0.0,0.0,0.0,0.030768540489234428,0.0,0.0,0.0,0.0,0.0,0.0,-14.636,0.0,0.0,0.0
399,0.0,0.0,0.0,-0.073513671875,0.0,0.0,0.0,0.0,0.0,0.0,0.619,0.0,0.0,0.0,0.0,0.0,0.0,0.04536998611187122,0.0,0.0,0.0,0.0,0.0,0.0,-14.156,0.0,0.0,0.0
400,0.0,0.0,0.0,-0.067865234375,0.0,0.0,0.0,0.0,0.0,0.0,0.583,0.0,0.0,0.0,0.0,0.0,0.0,0.03820965337055929,0.0,0.0,0.0,0.0,0.0,0.0,-13.376,0.0,0.0,0.0
401,0.0,0.0,0.0,-0.061783203125,0.0,0.0,0.0,0.0,0.0,0.0,0.59,0.0,0.0,0.0,0.0,0.0,0.0,0.04981955341099594,0.0,0.0,0.0,0.0,0.0,0.0,-13.72,0.0,0.0,0.0
402,0.0,0.0,0.0,-0.056134765625,0.0,0.0,0.0,0.0,0.0,0.0,0.594,0.0,0.0,0.0,0.0,0.0,0.0,0.05585652313039077,0.0,0.0,0.0,0.0,0.0,0.0,-13.536,0.0,0.0,0.0
403,0.0,0.0,0.0,-0.0503330078125,0.0,0.0,0.0,0.0,0.0,0.0,0.565,0.0,0.0,0.0,0.0,0.0,0.0,0.061164827146766354,0.0,0.0,0.0,0.0,0.0,0.0,-13.424,0.0,0.0,0.0
404,0.0,0.0,0.0,-0.0443955078125,0.0,0.0,0.0,0.0,0.0,0.0,0.6,0.0,0.0,0.0,0.0,0.0,0.0,0.06705420804261387,0.0,0.0,0.0,0.0,0.0,0.0,-13.744,0.0,0.0,0.0
405,0.0,0.0,0.0,-0.0328095703125,0.0,0.0,0.0,0.0,0.0,0.0,0.578,0.0,0.0,0.0,0.0,0.0,0.0,0.09118232843033607,0.0,0.0,0.0,0.0,0.0,0.0,-14.268,0.0,0.0,0.0
406,0.0,0.0,0.0,-0.0328095703125,0.0,0.0,0.0,0.0,0.0,0.0,0.578,0.0,0.0,0.0,0.0,0.0,0.0,0.05912386509368182,0.0,0.0,0.0,0.0,0.0,0.0,-14.268,0.0,0.0,0.0
407,0.0,0.0,0.0,-0.0271611328125,0.0,0.0,0.0,0.0,0.0,0.0,0.599,0.0,0.0,0.0,0.0,0.0,0.0,0.08413661605397303,0.0,0.0,0.0,0.0,0.0,0.0,-14.84,0.0,0.0,0.0
408,0.0,0.0,0.0,-0.0212236328125,0.0,0.0,0.0,0.0,0.0,0.0,0.572,0.0,0.0,0.0,0.0,0.0,0.0,0.08970604827852785,0.0,0.0,0.0,0.0,0.0,0.0,-14.476,0.0,0.0,0.0
409,0.0,0.0,0.0,-0.0149970703125,0.0,0.0,0.0,0.0,0.0,0.0,0.613,0.0,0.0,0.0,0.0,0.0,0.0,0.09451053278904117,0.0,0.0,0.0,0.0,0.0,0.0,-14.428,0.0,0.0,0.0
410,0.0,0.0,0.0,-0.0093486328125,0.0,0.0,0.0,0.0,0.0,0.0,0.608,0.0,0.0,0.0,0.0,0.0,0.0,0.10066079769142075,0.0,0.0,0.0,0.0,0.0,0.0,-13.812,0.0,0.0,0.0
411,0.0,0.0,0.0,-0.00311328125,0.0,0.0,0.0,0.0,0.0,0.0,0.586,0.0,0.0,0.0,0.0,0.0,0.0,0.10632403714664417,0.0,0.0,0.0,0.0,0.0,0.0,-13.676,0.0,0.0,0.0
412,0.0,0.0,0.0,0.0026787109375,0.0,0.0,0.0,0.0,0.0,0.0,0.618,0.0,0.0,0.0,0.0,0.0,0.0,0.11194024754894288,0.0,0.0,0.0,0.0,0.0,0.0,-13.904,0.0,0.0,0.0
413,0.0,0.0,0.0,0.0083271484375,0.0,0.0,0.0,0.0,0.0,0.0,0.572,0.0,0.0,0.0,0.0,0.0,0.0,0.11631938004553595,0.0,0.0,0.0,0.0,0.0,0.0,-13.216,0.0,0.0,0.0
414,0.0,0.0,0.0,0.0083271484375,0.0,0.0,0.0,0.0,0.0,0.0,0.572,0.0,0.0,0.0,0.0,0.0,0.0,0.1358074628042873,0.0,0.0,0.0,0.0,0.0,0.0,-13.216,0.0,0.0,0.0
415,0.0,0.0,0.0,0.0258603515625,0.0,0.0,0.0,0.0,0.0,0.0,0.565,0.0,0.0,0.0,0.0,0.0,0.0,0.14303350931281034,0.0,0.0,0.0,0.0,0.0,0.0,-13.492,0.0,0.0,0.0
416,0.0,0.0,0.0,0.0258603515625,0.0,0.0,0.0,0.0,0.0,0.0,0.565,0.0,0.0,0.0,0.0,0.0,0.0,0.1119425263802396,0.0,0.0,0.0,0.0,0.0,0.0,-13.492,0.0,0.0,0.0
417,0.0,0.0,0.0,0.0374462890625,0.0,0.0,0.0,0.0,0.0,0.0,0.586,0.0,0.0,0.0,0.0,0.0,0.0,0.1308799755453601,0.0,0.0,0.0,0.0,0.0,0.0,-14.772,0.0,0.0,0.0
418,0.0,0.0,0.0,0.04352734375,0.0,0.0,0.0,0.0,0.0,0.0,0.581,0.0,0.0,0.0,0.0,0.0,0.0,0.15849339116925584,0.0,0.0,0.0,0.0,0.0,0.0,-14.772,0.0,0.0,0.0
419,0.0,0.0,0.0,0.049609375,0.0,0.0,0.0,0.0,0.0,0.0,0.622,0.0,0.0,0.0,0.0,0.0,0.0,0.16307209882328555,0.0,0.0,0.0,0.0,0.0,0.0,-14.084,0.0,0.0,0.0
420,0.0,0.0,0.0,0.055267578125,0.0,0.0,0.0,0.0,0.0,0.0,0.586,0.0,0.0,0.0,0.0,0.0,0.0,0.1712441528929574,0.0,0.0,0.0,0.0,0.0,0.0,-13.468,0.0,0.0,0.0
421,0.0,0.0,0.0,0.0614931640625,0.0,0.0,0.0,0.0,0.0,0.0,0.591,0.0,0.0,0.0,0.0,0.0,0.0,0.1370991547199098,0.0,0.0,0.0,0.0,0.0,0.0,-13.744,0.0,0.0,0.0
422,0.0,0.0,0.0,0.067142578125,0.0,0.0,0.0,0.0,0.0,0.0,0.601,0.0,0.0,0.0,0.0,0.0,0.0,0.17519934434157458,0.0,0.0,0.0,0.0,0.0,0.0,-13.652,0.0,0.0,0.0
423,0.0,0.0,0.0,0.067142578125,0.0,0.0,0.0,0.0,0.0,0.0,0.601,0.0,0.0,0.0,0.0,0.0,0.0,0.1503159293310673,0.0,0.0,0.0,0.0,0.0,0.0,-13.652,0.0,0.0,0.0
424,0.0,0.0,0.0,0.072935546875,0.0,0.0,0.0,0.0,0.0,0.0,0.564,0.0,0.0,0.0,0.0,0.0,0.0,0.17791024931325458,0.0,0.0,0.0,0.0,0.0,0.0,-13.332,0.0,0.0,0.0
425,0.0,0.0,0.0,0.0788818359375,0.0,0.0,0.0,0.0,0.0,0.0,0.598,0.0,0.0,0.0,0.0,0.0,0.0,0.16845953998768373,0.0,0.0,0.0,0.0,0.0,0.0,-13.332,0.0,0.0,0.0
426,0.0,0.0,0.0,0.0845302734375,0.0,0.0,0.0,0.0,0.0,0.0,0.588,0.0,0.0,0.0,0.0,0.0,0.0,0.18473914697045027,0.0,0.0,0.0,0.0,0.0,0.0,-13.652,0.0,0.0,0.0
427,0.0,0.0,0.0,0.0903232421875,0.0,0.0,0.0,0.0,0.0,0.0,0.569,0.0,0.0,0.0,0.0,0.0,0.0,0.19030603872553176,0.0,0.0,0.0,0.0,0.0,0.0,-13.996,0.0,0.0,0.0
428,0.0,0.0,0.0,0.09626953125,0.0,0.0,0.0,0.0,0.0,0.0,0.597,0.0,0.0,0.0,0.0,0.0,0.0,0.19464106239876472,0.0,0.0,0.0,0.0,0.0,0.0,-14.748,0.0,0.0,0.0
429,0.0,0.0,0.0,0.1019091796875,0.0,0.0,0.0,0.0,0.0,0.0,0.578,0.0,0.0,0.0,0.0,0.0,0.0,0.19955728295849173,0.0,0.0,0.0,0.0,0.0,0.0,-14.588,0.0,0.0,0.0
430,0.0,0.0,0.0,0.1081357421875,0.0,0.0,0.0,0.0,0.0,0.0,0.593,0.0,0.0,0.0,0.0,0.0,0.0,0.20846271530593108,0.0,0.0,0.0,0.0,0.0,0.0,-14.336,0.0,0.0,0.0
431,0.0,0.0,0.0,0.1140732421875,0.0,0.0,0.0,0.0,0.0,0.0,0.619,0.0,0.0,0.0,0.0,0.0,0.0,0.20690168449486532,0.0,0.0,0.0,0.0,0.0,0.0,-13.676,0.0,0.0,0.0
432,0.0,0.0,0.0,0.1198662109375,0.0,0.0,0.0,0.0,0.0,0.0,0.588,0.0,0.0,0.0,0.0,0.0,0.0,0.21533925336941945,0.0,0.0,0.0,0.0,0.0,0.0,-13.284,0.0,0.0,0.0
433,0.0,0.0,0.0,0.125947265625,0.0,0.0,0.0,0.0,0.0,0.0,0.599,0.0,0.0,0.0,0.0,0.0,0.0,0.22019712932485433,0.0,0.0,0.0,0.0,0.0,0.0,-13.836,0.0,0.0,0.0
434,0.0,0.0,0.0,0.1315966796875,0.0,0.0,0.0,0.0,0.0,0.0,0.587,0.0,0.0,0.0,0.0,0.0,0.0,0.22400256449676703,0.0,0.0,0.0,0.0,0.0,0.0,-13.376,0.0,0.0,0.0
435,0.0,0.0,0.0,0.1373984375,0.0,0.0,0.0,0.0,0.0,0.0,0.573,0.0,0.0,0.0,0.0,0.0,0.0,0.2298990332048004,0.0,0.0,0.0,0.0,0.0,0.0,-13.284,0.0,0.0,0.0
436,0.0,0.0,0.0,0.1433359375,0.0,0.0,0.0,0.0,0.0,0.0,0.598,0.0,0.0,0.0,0.0,0.0,0.0,0.23445928324508197,0.0,0.0,0.0,0.0,0.0,0.0,-13.148,0.0,0.0,0.0
437,0.0,0.0,0.0,0.148984375,0.0,0.0,0.0,0.0,0.0,0.0,0.576,0.0,0.0,0.0,0.0,0.0,0.0,0.23811351884295867,0.0,0.0,0.0,0.0,0.0,0.0,-13.516,0.0,0.0,0.0
438,0.0,0.0,0.0,0.15506640625,0.0,0.0,0.0,0.0,0.0,0.0,0.584,0.0,0.0,0.0,0.0,0.0,0.0,0.25318339226673503,0.0,0.0,0.0,0.0,0.0,0.0,-14.268,0.0,0.0,0.0
439,0.0,0.0,0.0,0.1607236328125,0.0,0.0,0.0,0.0,0.0,0.0,0.597,0.0,0.0,0.0,0.0,0.0,0.0,0.24052602655421115,0.0,0.0,0.0,0.0,0.0,0.0,-14.52,0.0,0.0,0.0
440,0.0,0.0,0.0,0.1666611328125,0.0,0.0,0.0,0.0,0.0,0.0,0.578,0.0,0.0,0.0,0.0,0.0,0.0,0.2522497213600072,0.0,0.0,0.0,0.0,0.0,0.0,-14.588,0.0,0.0,0.0
441,0.0,0.0,0.0,0.1728876953125,0.0,0.0,0.0,0.0,0.0,0.0,0.608,0.0,0.0,0.0,0.0,0.0,0.0,0.2580191096306004,0.0,0.0,0.0,0.0,0.0,0.0,-13.972,0.0,0.0,0.0
442,0.0,0.0,0.0,0.178689453125,0.0,0.0,0.0,0.0,0.0,0.0,0.609,0.0,0.0,0.0,0.0,0.0,0.0,0.2630184292738677,0.0,0.0,0.0,0.0,0.0,0.0,-13.516,0.0,0.0,0.0
443,0.0,0.0,0.0,0.184482421875,0.0,0.0,0.0,0.0,0.0,0.0,0.585,0.0,0.0,0.0,0.0,0.0,0.0,0.26726009710057863,0.0,0.0,0.0,0.0,0.0,0.0,-13.492,0.0,0.0,0.0
444,0.0,0.0,0.0,0.190275390625,0.0,0.0,0.0,0.0,0.0,0.0,0.585,0.0,0.0,0.0,0.0,0.0,0.0,0.2720945733193675,0.0,0.0,0.0,0.0,0.0,0.0,-13.604,0.0,0.0,0.0
445,0.0,0.0,0.0,0.196068359375,0.0,0.0,0.0,0.0,0.0,0.0,0.581,0.0,0.0,0.0,0.0,0.0,0.0,0.276613572088762,0.0,0.0,0.0,0.0,0.0,0.0,-13.216,0.0,0.0,0.0
446,0.0,0.0,0.0,0.202005859375,0.0,0.0,0.0,0.0,0.0,0.0,0.592,0.0,0.0,0.0,0.0,0.0,0.0,0.2813726359177948,0.0,0.0,0.0,0.0,0.0,0.0,-13.032,0.0,0.0,0.0
447,0.0,0.0,0.0,0.207798828125,0.0,0.0,0.0,0.0,0.0,0.0,0.59,0.0,0.0,0.0,0.0,0.0,0.0,0.28512601349575734,0.0,0.0,0.0,0.0,0.0,0.0,-13.356,0.0,0.0,0.0
448,0.0,0.0,0.0,0.213591796875,0.0,0.0,0.0,0.0,0.0,0.0,0.576,0.0,0.0,0.0,0.0,0.0,0.0,0.2908505246894838,0.0,0.0,0.0,0.0,0.0,0.0,-13.536,0.0,0.0,0.0
449,0.0,0.0,0.0,0.2195390625,0.0,0.0,0.0,0.0,0.0,0.0,0.593,0.0,0.0,0.0,0.0,0.0,0.0,0.29935438045218987,0.0,0.0,0.0,0.0,0.0,0.0,-14.268,0.0,0.0,0.0
450,0.0,0.0,0.0,0.2251875,0.0,0.0,0.0,0.0,0.0,0.0,0.587,0.0,0.0,0.0,0.0,0.0,0.0,0.29359566216892075,0.0,0.0,0.0,0.0,0.0,0.0,-14.428,0.0,0.0,0.0
451,0.0,0.0,0.0,0.23126953125,0.0,0.0,0.0,0.0,0.0,0.0,0.584,0.0,0.0,0.0,0.0,0.0,0.0,0.3033252537143308,0.0,0.0,0.0,0.0,0.0,0.0,-13.996,0.0,0.0,0.0
452,0.0,0.0,0.0,0.23750390625,0.0,0.0,0.0,0.0,0.0,0.0,0.621,0.0,0.0,0.0,0.0,0.0,0.0,0.3085895424788652,0.0,0.0,0.0,0.0,0.0,0.0,-13.4,0.0,0.0,0.0
453,0.0,0.0,0.0,0.243296875,0.0,0.0,0.0,0.0,0.0,0.0,0.598,0.0,0.0,0.0,0.0,0.0,0.0,0.3128674144568504,0.0,0.0,0.0,0.0,0.0,0.0,-13.172,0.0,0.0,0.0
454,0.0,0.0,0.0,0.2490908203125,0.0,0.0,0.0,0.0,0.0,0.0,0.586,0.0,0.0,0.0,0.0,0.0,0.0,0.31876886740804933,0.0,0.0,0.0,0.0,0.0,0.0,-13.332,0.0,0.0,0.0
455,0.0,0.0,0.0,0.254892578125,0.0,0.0,0.0,0.0,0.0,0.0,0.583,0.0,0.0,0.0,0.0,0.0,0.0,0.32031693305726416,0.0,0.0,0.0,0.0,0.0,0.0,-13.124,0.0,0.0,0.0
456,0.0,0.0,0.0,0.2608203125,0.0,0.0,0.0,0.0,0.0,0.0,0.58,0.0,0.0,0.0,0.0,0.0,0.0,0.3255373041015331,0.0,0.0,0.0,0.0,0.0,0.0,-12.852,0.0,0.0,0.0
457,0.0,0.0,0.0,0.2666142578125,0.0,0.0,0.0,0.0,0.0,0.0,0.593,0.0,0.0,0.0,0.0,0.0,0.0,0.33013371417924825,0.0,0.0,0.0,0.0,0.0,0.0,-12.76,0.0,0.0,0.0
458,0.0,0.0,0.0,0.2724072265625,0.0,0.0,0.0,0.0,0.0,0.0,0.584,0.0,0.0,0.0,0.0,0.0,0.0,0.3338206291329658,0.0,0.0,0.0,0.0,0.0,0.0,-13.104,0.0,0.0,0.0
459,0.0,0.0,0.0,0.278208984375,0.0,0.0,0.0,0.0,0.0,0.0,0.583,0.0,0.0,0.0,0.0,0.0,0.0,0.3393869616250274,0.0,0.0,0.0,0.0,0.0,0.0,-13.652,0.0,0.0,0.0
460,0.0,0.0,0.0,0.284001953125,0.0,0.0,0.0,0.0,0.0,0.0,0.583,0.0,0.0,0.0,0.0,0.0,0.0,0.3436871857506387,0.0,0.0,0.0,0.0,0.0,0.0,-14.2,0.0,0.0,0.0
461,0.0,0.0,0.0,0.289939453125,0.0,0.0,0.0,0.0,0.0,0.0,0.589,0.0,0.0,0.0,0.0,0.0,0.0,0.3466362275666056,0.0,0.0,0.0,0.0,0.0,0.0,-14.224,0.0,0.0,0.0
462,0.0,0.0,0.0,0.2961748046875,0.0,0.0,0.0,0.0,0.0,0.0,0.608,0.0,0.0,0.0,0.0,0.0,0.0,0.35165615609012735,0.0,0.0,0.0,0.0,0.0,0.0,-13.584,0.0,0.0,0.0
463,0.0,0.0,0.0,0.3021123046875,0.0,0.0,0.0,0.0,0.0,0.0,0.616,0.0,0.0,0.0,0.0,0.0,0.0,0.355805952115056,0.0,0.0,0.0,0.0,0.0,0.0,-13.264,0.0,0.0,0.0
464,0.0,0.0,0.0,0.3080498046875,0.0,0.0,0.0,0.0,0.0,0.0,0.591,0.0,0.0,0.0,0.0,0.0,0.0,0.3604662118474138,0.0,0.0,0.0,0.0,0.0,0.0,-13.012,0.0,0.0,0.0
465,0.0,0.0,0.0,0.3138515625,0.0,0.0,0.0,0.0,0.0,0.0,0.593,0.0,0.0,0.0,0.0,0.0,0.0,0.3671159269824358,0.0,0.0,0.0,0.0,0.0,0.0,-13.124,0.0,0.0,0.0
466,0.0,0.0,0.0,0.3196357421875,0.0,0.0,0.0,0.0,0.0,0.0,0.585,0.0,0.0,0.0,0.0,0.0,0.0,0.3676733808066317,0.0,0.0,0.0,0.0,0.0,0.0,-12.964,0.0,0.0,0.0
467,0.0,0.0,0.0,0.3255732421875,0.0,0.0,0.0,0.0,0.0,0.0,0.586,0.0,0.0,0.0,0.0,0.0,0.0,0.3720876012470236,0.0,0.0,0.0,0.0,0.0,0.0,-12.784,0.0,0.0,0.0
468,0.0,0.0,0.0,0.3313662109375,0.0,0.0,0.0,0.0,0.0,0.0,0.593,0.0,0.0,0.0,0.0,0.0,0.0,0.3770018693113549,0.0,0.0,0.0,0.0,0.0,0.0,-12.76,0.0,0.0,0.0
469,0.0,0.0,0.0,0.33716796875,0.0,0.0,0.0,0.0,0.0,0.0,0.583,0.0,0.0,0.0,0.0,0.0,0.0,0.3812922693002896,0.0,0.0,0.0,0.0,0.0,0.0,-13.172,0.0,0.0,0.0
470,0.0,0.0,0.0,0.3429609375,0.0,0.0,0.0,0.0,0.0,0.0,0.583,0.0,0.0,0.0,0.0,0.0,0.0,0.3854193296565178,0.0,0.0,0.0,0.0,0.0,0.0,-13.764,0.0,0.0,0.0
471,0.0,0.0,0.0,0.3488984375,0.0,0.0,0.0,0.0,0.0,0.0,0.593,0.0,0.0,0.0,0.0,0.0,0.0,0.3893830484925154,0.0,0.0,0.0,0.0,0.0,0.0,-13.948,0.0,0.0,0.0
472,0.0,0.0,0.0,0.3548447265625,0.0,0.0,0.0,0.0,0.0,0.0,0.591,0.0,0.0,0.0,0.0,0.0,0.0,0.393883540249207,0.0,0.0,0.0,0.0,0.0,0.0,-13.764,0.0,0.0,0.0
473,0.0,0.0,0.0,0.3610712890625,0.0,0.0,0.0,0.0,0.0,0.0,0.609,0.0,0.0,0.0,0.0,0.0,0.0,0.3983698988091637,0.0,0.0,0.0,0.0,0.0,0.0,-12.988,0.0,0.0,0.0
474,0.0,0.0,0.0,0.36685546875,0.0,0.0,0.0,0.0,0.0,0.0,0.607,0.0,0.0,0.0,0.0,0.0,0.0,0.4026231171290286,0.0,0.0,0.0,0.0,0.0,0.0,-12.712,0.0,0.0,0.0
475,0.0,0.0,0.0,0.3728017578125,0.0,0.0,0.0,0.0,0.0,0.0,0.593,0.0,0.0,0.0,0.0,0.0,0.0,0.4064186064505384,0.0,0.0,0.0,0.0,0.0,0.0,-12.828,0.0,0.0,0.0
476,0.0,0.0,0.0,0.3785947265625,0.0,0.0,0.0,0.0,0.0,0.0,0.589,0.0,0.0,0.0,0.0,0.0,0.0,0.4101096987199688,0.0,0.0,0.0,0.0,0.0,0.0,-12.484,0.0,0.0,0.0
477,0.0,0.0,0.0,0.3843876953125,0.0,0.0,0.0,0.0,0.0,0.0,0.582,0.0,0.0,0.0,0.0,0.0,0.0,0.41459337824067316,0.0,0.0,0.0,0.0,0.0,0.0,-12.712,0.0,0.0,0.0
478,0.0,0.0,0.0,0.390333984375,0.0,0.0,0.0,0.0,0.0,0.0,0.582,0.0,0.0,0.0,0.0,0.0,0.0,0.41847223017928203,0.0,0.0,0.0,0.0,0.0,0.0,-12.416,0.0,0.0,0.0
479,0.0,0.0,0.0,0.396126953125,0.0,0.0,0.0,0.0,0.0,0.0,0.593,0.0,0.0,0.0,0.0,0.0,0.0,0.4225822018302372,0.0,0.0,0.0,0.0,0.0,0.0,-12.532,0.0,0.0,0.0
480,0.0,0.0,0.0,0.401919921875,0.0,0.0,0.0,0.0,0.0,0.0,0.585,0.0,0.0,0.0,0.0,0.0,0.0,0.4282414622148158,0.0,0.0,0.0,0.0,0.0,0.0,-12.964,0.0,0.0,0.0
481,0.0,0.0,0.0,0.4077041015625,0.0,0.0,0.0,0.0,0.0,0.0,0.582,0.0,0.0,0.0,0.0,0.0,0.0,0.4304919245996514,0.0,0.0,0.0,0.0,0.0,0.0,-13.536,0.0,0.0,0.0
482,0.0,0.0,0.0,0.413505859375,0.0,0.0,0.0,0.0,0.0,0.0,0.583,0.0,0.0,0.0,0.0,0.0,0.0,0.4328881921649345,0.0,0.0,0.0,0.0,0.0,0.0,-13.924,0.0,0.0,0.0
483,0.0,0.0,0.0,0.419443359375,0.0,0.0,0.0,0.0,0.0,0.0,0.593,0.0,0.0,0.0,0.0,0.0,0.0,0.4384667395031163,0.0,0.0,0.0,0.0,0.0,0.0,-13.356,0.0,0.0,0.0
484,0.0,0.0,0.0,0.425236328125,0.0,0.0,0.0,0.0,0.0,0.0,0.586,0.0,0.0,0.0,0.0,0.0,0.0,0.4425906460529516,0.0,0.0,0.0,0.0,0.0,0.0,-12.76,0.0,0.0,0.0
485,0.0,0.0,0.0,0.4301630859375,0.0,0.0,0.0,0.0,0.0,0.0,0.555,0.0,0.0,0.0,0.0,0.0,0.0,0.44573655368601267,0.0,0.0,0.0,0.0,0.0,0.0,-13.836,0.0,0.0,0.0
486,0.0,0.0,0.0,0.4340791015625,0.0,0.0,0.0,0.0,0.0,0.0,0.452,0.0,0.0,0.0,0.0,0.0,0.0,0.44766865227466973,0.0,0.0,0.0,0.0,0.0,0.0,-14.084,0.0,0.0,0.0
487,0.0,0.0,0.0,0.438419921875,0.0,0.0,0.0,0.0,0.0,0.0,0.406,0.0,0.0,0.0,0.0,0.0,0.0,0.4501292220610722,0.0,0.0,0.0,0.0,0.0,0.0,-13.4,0.0,0.0,0.0
488,0.0,0.0,0.0,0.442615234375,0.0,0.0,0.0,0.0,0.0,0.0,0.436,0.0,0.0,0.0,0.0,0.0,0.0,0.4525286056046844,0.0,0.0,0.0,0.0,0.0,0.0,-13.56,0.0,0.0,0.0
489,0.0,0.0,0.0,0.44580078125,0.0,0.0,0.0,0.0,0.0,0.0,0.383,0.0,0.0,0.0,0.0,0.0,0.0,0.4538687337912899,0.0,0.0,0.0,0.0,0.0,0.0,-14.496,0.0,0.0,0.0
490,0.0,0.0,0.0,0.448986328125,0.0,0.0,0.0,0.0,0.0,0.0,0.307,0.0,0.0,0.0,0.0,0.0,0.0,0.45521247868373244,0.0,0.0,0.0,0.0,0.0,0.0,-14.748,0.0,0.0,0.0
491,0.0,0.0,0.0,0.4518828125,0.0,0.0,0.0,0.0,0.0,0.0,0.312,0.0,0.0,0.0,0.0,0.0,0.0,0.4561602906592909,0.0,0.0,0.0,0.0,0.0,0.0,-15.48,0.0,0.0,0.0
492,0.0,0.0,0.0,0.4539130859375,0.0,0.0,0.0,0.0,0.0,0.0,0.254,0.0,0.0,0.0,0.0,0.0,0.0,0.4563364544296802,0.0,0.0,0.0,0.0,0.0,0.0,-15.184,0.0,0.0,0.0
493,0.0,0.0,0.0,0.4552119140625,0.0,0.0,0.0,0.0,0.0,0.0,0.178,0.0,0.0,0.0,0.0,0.0,0.0,0.45577133210106996,0.0,0.0,0.0,0.0,0.0,0.0,-15.688,0.0,0.0,0.0
494,0.0,0.0,0.0,0.4557900390625,0.0,0.0,0.0,0.0,0.0,0.0,0.093,0.0,0.0,0.0,0.0,0.0,0.0,0.4544751072895756,0.0,0.0,0.0,0.0,0.0,0.0,-14.888,0.0,0.0,0.0
495,0.0,0.0,0.0,0.4568095703125,0.0,0.0,0.0,0.0,0.0,0.0,0.08,0.0,0.0,0.0,0.0,0.0,0.0,0.4536183603131575,0.0,0.0,0.0,0.0,0.0,0.0,-15.136,0.0,0.0,0.0
496,0.0,0.0,0.0,0.4568095703125,0.0,0.0,0.0,0.0,0.0,0.0,0.069,0.0,0.0,0.0,0.0,0.0,0.0,0.4517584183752791,0.0,0.0,0.0,0.0,0.0,0.0,-16.028,0.0,0.0,0.0
497,0.0,0.0,0.0,0.45622265625,0.0,0.0,0.0,0.0,0.0,0.0,-0.035,0.0,0.0,0.0,0.0,0.0,0.0,0.44929691149323725,0.0,0.0,0.0,0.0,0.0,0.0,-15.136,0.0,0.0,0.0
498,0.0,0.0,0.0,0.4557900390625,0.0,0.0,0.0,0.0,0.0,0.0,-0.048,0.0,0.0,0.0,0.0,0.0,0.0,0.44698933553446246,0.0,0.0,0.0,0.0,0.0,0.0,-15.208,0.0,0.0,0.0
499,0.0,0.0,0.0,0.455068359375,0.0,0.0,0.0,0.0,0.0,0.0,-0.049,0.0,0.0,0.0,0.0,0.0,0.0,0.4443046070087553,0.0,0.0,0.0,0.0,0.0,0.0,-15.136,0.0,0.0,0.0
500,0.0,0.0,0.0,0.4539130859375,0.0,0.0,0.0,0.0,0.0,0.0,-0.091,0.0,0.0,0.0,0.0,0.0,0.0,0.44146395951778605,0.0,0.0,0.0,0.0,0.0,0.0,-15.548,0.0,0.0,0.0
501,0.0,0.0,0.0,0.4523154296875,0.0,0.0,0.0,0.0,0.0,0.0,-0.139,0.0,0.0,0.0,0.0,0.0,0.0,0.4373692787662901,0.0,0.0,0.0,0.0,0.0,0.0,-15.64,0.0,0.0,0.0
502,0.0,0.0,0.0,0.4504384765625,0.0,0.0,0.0,0.0,0.0,0.0,-0.172,0.0,0.0,0.0,0.0,0.0,0.0,0.4347434548511748,0.0,0.0,0.0,0.0,0.0,0.0,-16.168,0.0,0.0,0.0
503,0.0,0.0,0.0,0.4478310546875,0.0,0.0,0.0,0.0,0.0,0.0,-0.222,0.0,0.0,0.0,0.0,0.0,0.0,0.4297048392990351,0.0,0.0,0.0,0.0,0.0,0.0,-15.46,0.0,0.0,0.0
504,0.0,0.0,0.0,0.4447900390625,0.0,0.0,0.0,0.0,0.0,0.0,-0.274,0.0,0.0,0.0,0.0,0.0,0.0,0.4248721954430879,0.0,0.0,0.0,0.0,0.0,0.0,-15.548,0.0,0.0,0.0
505,0.0,0.0,0.0,0.437841796875,0.0,0.0,0.0,0.0,0.0,0.0,-0.363,0.0,0.0,0.0,0.0,0.0,0.0,0.4103754114200623,0.0,0.0,0.0,0.0,0.0,0.0,-14.68,0.0,0.0,0.0
506,0.0,0.0,0.0,0.437841796875,0.0,0.0,0.0,0.0,0.0,0.0,-0.363,0.0,0.0,0.0,0.0,0.0,0.0,0.41993570686670945,0.0,0.0,0.0,0.0,0.0,0.0,-14.68,0.0,0.0,0.0
507,0.0,0.0,0.0,0.4336376953125,0.0,0.0,0.0,0.0,0.0,0.0,-0.357,0.0,0.0,0.0,0.0,0.0,0.0,0.4080839663825903,0.0,0.0,0.0,0.0,0.0,0.0,-15.228,0.0,0.0,0.0
508,0.0,0.0,0.0,0.4288642578125,0.0,0.0,0.0,0.0,0.0,0.0,-0.458,0.0,0.0,0.0,0.0,0.0,0.0,0.40154510239557767,0.0,0.0,0.0,0.0,0.0,0.0,-14.84,0.0,0.0,0.0
509,0.0,0.0,0.0,0.424216796875,0.0,0.0,0.0,0.0,0.0,0.0,-0.47,0.0,0.0,0.0,0.0,0.0,0.0,0.39499812690201874,0.0,0.0,0.0,0.0,0.0,0.0,-15.756,0.0,0.0,0.0
510,0.0,0.0,0.0,0.419443359375,0.0,0.0,0.0,0.0,0.0,0.0,-0.473,0.0,0.0,0.0,0.0,0.0,0.0,0.3885595528569492,0.0,0.0,0.0,0.0,0.0,0.0,-14.428,0.0,0.0,0.0
511,0.0,0.0,0.0,0.4094541015625,0.0,0.0,0.0,0.0,0.0,0.0,-0.493,0.0,0.0,0.0,0.0,0.0,0.0,0.3653040585879089,0.0,0.0,0.0,0.0,0.0,0.0,-15.184,0.0,0.0,0.0
512,0.0,0.0,0.0,0.4040859375,0.0,0.0,0.0,0.0,0.0,0.0,-0.545,0.0,0.0,0.0,0.0,0.0,0.0,0.386497582952023,0.0,0.0,0.0,0.0,0.0,0.0,-15.32,0.0,0.0,0.0
513,0.0,0.0,0.0,0.4040859375,0.0,0.0,0.0,0.0,0.0,0.0,-0.545,0.0,0.0,0.0,0.0,0.0,0.0,0.3676556119546376,0.0,0.0,0.0,0.0,0.0,0.0,-15.32,0.0,0.0,0.0
514,0.0,0.0,0.0,0.39771484375,0.0,0.0,0.0,0.0,0.0,0.0,-0.577,0.0,0.0,0.0,0.0,0.0,0.0,0.3553050968719249,0.0,0.0,0.0,0.0,0.0,0.0,-15.708,0.0,0.0,0.0
515,0.0,0.0,0.0,0.3907666015625,0.0,0.0,0.0,0.0,0.0,0.0,-0.674,0.0,0.0,0.0,0.0,0.0,0.0,0.35512090820449815,0.0,0.0,0.0,0.0,0.0,0.0,-14.84,0.0,0.0,0.0
516,0.0,0.0,0.0,0.38467578125,0.0,0.0,0.0,0.0,0.0,0.0,-0.671,0.0,0.0,0.0,0.0,0.0,0.0,0.34291904063478074,0.0,0.0,0.0,0.0,0.0,0.0,-12.944,0.0,0.0,0.0
517,0.0,0.0,0.0,0.37902734375,0.0,0.0,0.0,0.0,0.0,0.0,-0.59,0.0,0.0,0.0,0.0,0.0,0.0,0.3293288352059307,0.0,0.0,0.0,0.0,0.0,0.0,-12.804,0.0,0.0,0.0
518,0.0,0.0,0.0,0.3729453125,0.0,0.0,0.0,0.0,0.0,0.0,-0.584,0.0,0.0,0.0,0.0,0.0,0.0,0.3343080133107262,0.0,0.0,0.0,0.0,0.0,0.0,-13.516,0.0,0.0,0.0
519,0.0,0.0,0.0,0.36627734375,0.0,0.0,0.0,0.0,0.0,0.0,-0.64,0.0,0.0,0.0,0.0,0.0,0.0,0.3188765698125351,0.0,0.0,0.0,0.0,0.0,0.0,-14.316,0.0,0.0,0.0
520,0.0,0.0,0.0,0.3593291015625,0.0,0.0,0.0,0.0,0.0,0.0,-0.68,0.0,0.0,0.0,0.0,0.0,0.0,0.31102912846597564,0.0,0.0,0.0,0.0,0.0,0.0,-15.276,0.0,0.0,0.0
521,0.0,0.0,0.0,0.352814453125,0.0,0.0,0.0,0.0,0.0,0.0,-0.684,0.0,0.0,0.0,0.0,0.0,0.0,0.3027280391502501,0.0,0.0,0.0,0.0,0.0,0.0,-13.836,0.0,0.0,0.0
522,0.0,0.0,0.0,0.3464345703125,0.0,0.0,0.0,0.0,0.0,0.0,-0.649,0.0,0.0,0.0,0.0,0.0,0.0,0.2945870916447124,0.0,0.0,0.0,0.0,0.0,0.0,-13.08,0.0,0.0,0.0
523,0.0,0.0,0.0,0.333982421875,0.0,0.0,0.0,0.0,0.0,0.0,-0.633,0.0,0.0,0.0,0.0,0.0,0.0,0.2658821870871945,0.0,0.0,0.0,0.0,0.0,0.0,-14.2,0.0,0.0,0.0
524,0.0,0.0,0.0,0.333982421875,0.0,0.0,0.0,0.0,0.0,0.0,-0.633,0.0,0.0,0.0,0.0,0.0,0.0,0.2854736673946258,0.0,0.0,0.0,0.0,0.0,0.0,-14.2,0.0,0.0,0.0
525,0.0,0.0,0.0,0.327458984375,0.0,0.0,0.0,0.0,0.0,0.0,-0.636,0.0,0.0,0.0,0.0,0.0,0.0,0.27810792379212645,0.0,0.0,0.0,0.0,0.0,0.0,-13.676,0.0,0.0,0.0
526,0.0,0.0,0.0,0.321087890625,0.0,0.0,0.0,0.0,0.0,0.0,-0.651,0.0,0.0,0.0,0.0,0.0,0.0,0.2625539210583271,0.0,0.0,0.0,0.0,0.0,0.0,-12.576,0.0,0.0,0.0
527,0.0,0.0,0.0,0.3145732421875,0.0,0.0,0.0,0.0,0.0,0.0,-0.641,0.0,0.0,0.0,0.0,0.0,0.0,0.25489558219191405,0.0,0.0,0.0,0.0,0.0,0.0,-12.072,0.0,0.0,0.0
528,0.0,0.0,0.0,0.308337890625,0.0,0.0,0.0,0.0,0.0,0.0,-0.65,0.0,0.0,0.0,0.0,0.0,0.0,0.24644105524499577,0.0,0.0,0.0,0.0,0.0,0.0,-12.256,0.0,0.0,0.0
529,0.0,0.0,0.0,0.3019677734375,0.0,0.0,0.0,0.0,0.0,0.0,-0.632,0.0,0.0,0.0,0.0,0.0,0.0,0.2342027887099299,0.0,0.0,0.0,0.0,0.0,0.0,-13.424,0.0,0.0,0.0
530,0.0,0.0,0.0,0.2960302734375,0.0,0.0,0.0,0.0,0.0,0.0,-0.624,0.0,0.0,0.0,0.0,0.0,0.0,0.23416476202853764,0.0,0.0,0.0,0.0,0.0,0.0,-13.72,0.0,0.0,0.0
531,0.0,0.0,0.0,0.290083984375,0.0,0.0,0.0,0.0,0.0,0.0,-0.598,0.0,0.0,0.0,0.0,0.0,0.0,0.22060402375784588,0.0,0.0,0.0,0.0,0.0,0.0,-13.604,0.0,0.0,0.0
532,0.0,0.0,0.0,0.290083984375,0.0,0.0,0.0,0.0,0.0,0.0,-0.598,0.0,0.0,0.0,0.0,0.0,0.0,0.22693893290403605,0.0,0.0,0.0,0.0,0.0,0.0,-13.604,0.0,0.0,0.0
533,0.0,0.0,0.0,0.277919921875,0.0,0.0,0.0,0.0,0.0,0.0,-0.616,0.0,0.0,0.0,0.0,0.0,0.0,0.20721520152774603,0.0,0.0,0.0,0.0,0.0,0.0,-12.944,0.0,0.0,0.0
534,0.0,0.0,0.0,0.2721181640625,0.0,0.0,0.0,0.0,0.0,0.0,-0.573,0.0,0.0,0.0,0.0,0.0,0.0,0.20210210432297393,0.0,0.0,0.0,0.0,0.0,0.0,-13.332,0.0,0.0,0.0
535,0.0,0.0,0.0,0.2664697265625,0.0,0.0,0.0,0.0,0.0,0.0,-0.586,0.0,0.0,0.0,0.0,0.0,0.0,0.1943984741066782,0.0,0.0,0.0,0.0,0.0,0.0,-13.308,0.0,0.0,0.0
536,0.0,0.0,0.0,0.260974609375,0.0,0.0,0.0,0.0,0.0,0.0,-0.558,0.0,0.0,0.0,0.0,0.0,0.0,0.18485231992435364,0.0,0.0,0.0,0.0,0.0,0.0,-13.264,0.0,0.0,0.0
537,0.0,0.0,0.0,0.254892578125,0.0,0.0,0.0,0.0,0.0,0.0,-0.582,0.0,0.0,0.0,0.0,0.0,0.0,0.1818012451281399,0.0,0.0,0.0,0.0,0.0,0.0,-13.056,0.0,0.0,0.0
538,0.0,0.0,0.0,0.2431533203125,0.0,0.0,0.0,0.0,0.0,0.0,-0.591,0.0,0.0,0.0,0.0,0.0,0.0,0.14610850247543136,0.0,0.0,0.0,0.0,0.0,0.0,-13.104,0.0,0.0,0.0
539,0.0,0.0,0.0,0.2431533203125,0.0,0.0,0.0,0.0,0.0,0.0,-0.591,0.0,0.0,0.0,0.0,0.0,0.0,0.18608707399401989,0.0,0.0,0.0,0.0,0.0,0.0,-13.104,0.0,0.0,0.0
540,0.0,0.0,0.0,0.2373603515625,0.0,0.0,0.0,0.0,0.0,0.0,-0.589,0.0,0.0,0.0,0.0,0.0,0.0,0.15771120864387475,0.0,0.0,0.0,0.0,0.0,0.0,-13.88,0.0,0.0,0.0
541,0.0,0.0,0.0,0.2318466796875,0.0,0.0,0.0,0.0,0.0,0.0,-0.57,0.0,0.0,0.0,0.0,0.0,0.0,0.14765540668313898,0.0,0.0,0.0,0.0,0.0,0.0,-14.132,0.0,0.0,0.0
542,0.0,0.0,0.0,0.226486328125,0.0,0.0,0.0,0.0,0.0,0.0,-0.544,0.0,0.0,0.0,0.0,0.0,0.0,0.1482251123692264,0.0,0.0,0.0,0.0,0.0,0.0,-14.864,0.0,0.0,0.0
543,0.0,0.0,0.0,0.220837890625,0.0,0.0,0.0,0.0,0.0,0.0,-0.55,0.0,0.0,0.0,0.0,0.0,0.0,0.1369695958312188,0.0,0.0,0.0,0.0,0.0,0.0,-14.816,0.0,0.0,0.0
544,0.0,0.0,0.0,0.2153427734375,0.0,0.0,0.0,0.0,0.0,0.0,-0.567,0.0,0.0,0.0,0.0,0.0,0.0,0.13090894969369463,0.0,0.0,0.0,0.0,0.0,0.0,-14.04,0.0,0.0,0.0
545,0.0,0.0,0.0,0.209396484375,0.0,0.0,0.0,0.0,0.0,0.0,-0.576,0.0,0.0,0.0,0.0,0.0,0.0,0.12184831325065157,0.0,0.0,0.0,0.0,0.0,0.0,-14.064,0.0,0.0,0.0
546,0.0,0.0,0.0,0.203603515625,0.0,0.0,0.0,0.0,0.0,0.0,-0.591,0.0,0.0,0.0,0.0,0.0,0.0,0.10351870071831315,0.0,0.0,0.0,0.0,0.0,0.0,-13.584,0.0,0.0,0.0
547,0.0,0.0,0.0,0.1982431640625,0.0,0.0,0.0,0.0,0.0,0.0,-0.564,0.0,0.0,0.0,0.0,0.0,0.0,0.11385196398959588,0.0,0.0,0.0,0.0,0.0,0.0,-13.88,0.0,0.0,0.0
548,0.0,0.0,0.0,0.19244140625,0.0,0.0,0.0,0.0,0.0,0.0,-0.56,0.0,0.0,0.0,0.0,0.0,0.0,0.11416902502879506,0.0,0.0,0.0,0.0,0.0,0.0,-14.408,0.0,0.0,0.0
549,0.0,0.0,0.0,0.18679296875,0.0,0.0,0.0,0.0,0.0,0.0,-0.578,0.0,0.0,0.0,0.0,0.0,0.0,0.0955510615979433,0.0,0.0,0.0,0.0,0.0,0.0,-14.248,0.0,0.0,0.0
550,0.0,0.0,0.0,0.1810087890625,0.0,0.0,0.0,0.0,0.0,0.0,-0.565,0.0,0.0,0.0,0.0,0.0,0.0,0.08947008989979283,0.0,0.0,0.0,0.0,0.0,0.0,-14.476,0.0,0.0,0.0
551,0.0,0.0,0.0,0.17491796875,0.0,0.0,0.0,0.0,0.0,0.0,-0.603,0.0,0.0,0.0,0.0,0.0,0.0,0.08201159271658656,0.0,0.0,0.0,0.0,0.0,0.0,-14.496,0.0,0.0,0.0
552,0.0,0.0,0.0,0.16926953125,0.0,0.0,0.0,0.0,0.0,0.0,-0.596,0.0,0.0,0.0,0.0,0.0,0.0,0.07543264283667706,0.0,0.0,0.0,0.0,0.0,0.0,-14.408,0.0,0.0,0.0
553,0.0,0.0,0.0,0.1637646484375,0.0,0.0,0.0,0.0,0.0,0.0,-0.56,0.0,0.0,0.0,0.0,0.0,0.0,0.06882304566550018,0.0,0.0,0.0,0.0,0.0,0.0,-14.888,0.0,0.0,0.0
554,0.0,0.0,0.0,0.1579716796875,0.0,0.0,0.0,0.0,0.0,0.0,-0.574,0.0,0.0,0.0,0.0,0.0,0.0,0.061153474263300284,0.0,0.0,0.0,0.0,0.0,0.0,-14.612,0.0,0.0,0.0
555,0.0,0.0,0.0,0.152314453125,0.0,0.0,0.0,0.0,0.0,0.0,-0.569,0.0,0.0,0.0,0.0,0.0,0.0,0.05624635846055012,0.0,0.0,0.0,0.0,0.0,0.0,-14.384,0.0,0.0,0.0
556,0.0,0.0,0.0,0.146376953125,0.0,0.0,0.0,0.0,0.0,0.0,-0.581,0.0,0.0,0.0,0.0,0.0,0.0,0.04765975630102226,0.0,0.0,0.0,0.0,0.0,0.0,-14.384,0.0,0.0,0.0
557,0.0,0.0,0.0,0.140294921875,0.0,0.0,0.0,0.0,0.0,0.0,-0.611,0.0,0.0,0.0,0.0,0.0,0.0,0.036720698815647185,0.0,0.0,0.0,0.0,0.0,0.0,-13.744,0.0,0.0,0.0
558,0.0,0.0,0.0,0.1344931640625,0.0,0.0,0.0,0.0,0.0,0.0,-0.595,0.0,0.0,0.0,0.0,0.0,0.0,0.040086661546056224,0.0,0.0,0.0,0.0,0.0,0.0,-13.996,0.0,0.0,0.0
559,0.0,0.0,0.0,0.1284111328125,0.0,0.0,0.0,0.0,0.0,0.0,-0.597,0.0,0.0,0.0,0.0,0.0,0.0,0.027523895614806337,0.0,0.0,0.0,0.0,0.0,0.0,-14.084,0.0,0.0,0.0
560,0.0,0.0,0.0,0.1227626953125,0.0,0.0,0.0,0.0,0.0,0.0,-0.599,0.0,0.0,0.0,0.0,0.0,0.0,0.01629380234889738,0.0,0.0,0.0,0.0,0.0,0.0,-13.924,0.0,0.0,0.0
561,0.0,0.0,0.0,0.1166806640625,0.0,0.0,0.0,0.0,0.0,0.0,-0.584,0.0,0.0,0.0,0.0,0.0,0.0,0.019346069429792445,0.0,0.0,0.0,0.0,0.0,0.0,-14.496,0.0,0.0,0.0
562,0.0,0.0,0.0,0.1104453125,0.0,0.0,0.0,0.0,0.0,0.0,-0.616,0.0,0.0,0.0,0.0,0.0,0.0,0.007210530712137064,0.0,0.0,0.0,0.0,0.0,0.0,-14.428,0.0,0.0,0.0
563,0.0,0.0,0.0,0.1048056640625,0.0,0.0,0.0,0.0,0.0,0.0,-0.602,0.0,0.0,0.0,0.0,0.0,0.0,0.0005390716426779407,0.0,0.0,0.0,0.0,0.0,0.0,-14.68,0.0,0.0,0.0
564,0.0,0.0,0.0,0.0988779296875,0.0,0.0,0.0,0.0,0.0,0.0,-0.578,0.0,0.0,0.0,0.0,0.0,0.0,-0.006437529279076787,0.0,0.0,0.0,0.0,0.0,0.0,-14.84,0.0,0.0,0.0
565,0.0,0.0,0.0,0.0932197265625,0.0,0.0,0.0,0.0,0.0,0.0,-0.589,0.0,0.0,0.0,0.0,0.0,0.0,-0.011779190487700819,0.0,0.0,0.0,0.0,0.0,0.0,-14.36,0.0,0.0,0.0
566,0.0,0.0,0.0,0.0875712890625,0.0,0.0,0.0,0.0,0.0,0.0,-0.564,0.0,0.0,0.0,0.0,0.0,0.0,-0.03323604228019206,0.0,0.0,0.0,0.0,0.0,0.0,-14.544,0.0,0.0,0.0
567,0.0,0.0,0.0,0.0754072265625,0.0,0.0,0.0,0.0,0.0,0.0,-0.618,0.0,0.0,0.0,0.0,0.0,0.0,-0.017116531688443654,0.0,0.0,0.0,0.0,0.0,0.0,-13.812,0.0,0.0,0.0
568,0.0,0.0,0.0,0.0754072265625,0.0,0.0,0.0,0.0,0.0,0.0,-0.618,0.0,0.0,0.0,0.0,0.0,0.0,-0.030758397516737465,0.0,0.0,0.0,0.0,0.0,0.0,-13.812,0.0,0.0,0.0
569,0.0,0.0,0.0,0.0694609375,0.0,0.0,0.0,0.0,0.0,0.0,-0.595,0.0,0.0,0.0,0.0,0.0,0.0,-0.03416562987714282,0.0,0.0,0.0,0.0,0.0,0.0,-14.108,0.0,0.0,0.0
570,0.0,0.0,0.0,0.0635234375,0.0,0.0,0.0,0.0,0.0,0.0,-0.604,0.0,0.0,0.0,0.0,0.0,0.0,-0.04494568387521736,0.0,0.0,0.0,0.0,0.0,0.0,-13.744,0.0,0.0,0.0
571,0.0,0.0,0.0,0.057875,0.0,0.0,0.0,0.0,0.0,0.0,-0.581,0.0,0.0,0.0,0.0,0.0,0.0,-0.050900146281455456,0.0,0.0,0.0,0.0,0.0,0.0,-14.156,0.0,0.0,0.0
572,0.0,0.0,0.0,0.0517841796875,0.0,0.0,0.0,0.0,0.0,0.0,-0.586,0.0,0.0,0.0,0.0,0.0,0.0,-0.05818724929215251,0.0,0.0,0.0,0.0,0.0,0.0,-14.908,0.0,0.0,0.0
573,0.0,0.0,0.0,0.0458466796875,0.0,0.0,0.0,0.0,0.0,0.0,-0.621,0.0,0.0,0.0,0.0,0.0,0.0,-0.06389929797652283,0.0,0.0,0.0,0.0,0.0,0.0,-14.496,0.0,0.0,0.0
574,0.0,0.0,0.0,0.0400537109375,0.0,0.0,0.0,0.0,0.0,0.0,-0.585,0.0,0.0,0.0,0.0,0.0,0.0,-0.07098819328789184,0.0,0.0,0.0,0.0,0.0,0.0,-14.956,0.0,0.0,0.0
575,0.0,0.0,0.0,0.0341162109375,0.0,0.0,0.0,0.0,0.0,0.0,-0.59,0.0,0.0,0.0,0.0,0.0,0.0,-0.07696725434891877,0.0,0.0,0.0,0.0,0.0,0.0,-14.408,0.0,0.0,0.0
576,0.0,0.0,0.0,0.0286123046875,0.0,0.0,0.0,0.0,0.0,0.0,-0.582,0.0,0.0,0.0,0.0,0.0,0.0,-0.08309617513252385,0.0,0.0,0.0,0.0,0.0,0.0,-14.156,0.0,0.0,0.0
577,0.0,0.0,0.0,0.0228193359375,0.0,0.0,0.0,0.0,0.0,0.0,-0.557,0.0,0.0,0.0,0.0,0.0,0.0,-0.08884226402009317,0.0,0.0,0.0,0.0,0.0,0.0,-14.772,0.0,0.0,0.0
578,0.0,0.0,0.0,0.0165927734375,0.0,0.0,0.0,0.0,0.0,0.0,-0.614,0.0,0.0,0.0,0.0,0.0,0.0,-0.09538447732858811,0.0,0.0,0.0,0.0,0.0,0.0,-14.156,0.0,0.0,0.0
579,0.0,0.0,0.0,0.010935546875,0.0,0.0,0.0,0.0,0.0,0.0,-0.594,0.0,0.0,0.0,0.0,0.0,0.0,-0.10196640088818362,0.0,0.0,0.0,0.0,0.0,0.0,-14.224,0.0,0.0,0.0
580,0.0,0.0,0.0,0.004708984375,0.0,0.0,0.0,0.0,0.0,0.0,-0.591,0.0,0.0,0.0,0.0,0.0,0.0,-0.10796626104627272,0.0,0.0,0.0,0.0,0.0,0.0,-13.972,0.0,0.0,0.0
581,0.0,0.0,0.0,-0.0009384765625,0.0,0.0,0.0,0.0,0.0,0.0,-0.612,0.0,0.0,0.0,0.0,0.0,0.0,-0.11460512791422371,0.0,0.0,0.0,0.0,0.0,0.0,-13.676,0.0,0.0,0.0
582,0.0,0.0,0.0,-0.0067314453125,0.0,0.0,0.0,0.0,0.0,0.0,-0.567,0.0,0.0,0.0,0.0,0.0,0.0,-0.11900879413321117,0.0,0.0,0.0,0.0,0.0,0.0,-14.544,0.0,0.0,0.0
583,0.0,0.0,0.0,-0.012966796875,0.0,0.0,0.0,0.0,0.0,0.0,-0.606,0.0,0.0,0.0,0.0,0.0,0.0,-0.12647221448865995,0.0,0.0,0.0,0.0,0.0,0.0,-14.816,0.0,0.0,0.0
584,0.0,0.0,0.0,-0.018470703125,0.0,0.0,0.0,0.0,0.0,0.0,-0.598,0.0,0.0,0.0,0.0,0.0,0.0,-0.1324736337500485,0.0,0.0,0.0,0.0,0.0,0.0,-14.932,0.0,0.0,0.0
585,0.0,0.0,0.0,-0.024408203125,0.0,0.0,0.0,0.0,0.0,0.0,-0.565,0.0,0.0,0.0,0.0,0.0,0.0,-0.1390472734684118,0.0,0.0,0.0,0.0,0.0,0.0,-14.956,0.0,0.0,0.0
586,0.0,0.0,0.0,-0.030201171875,0.0,0.0,0.0,0.0,0.0,0.0,-0.598,0.0,0.0,0.0,0.0,0.0,0.0,-0.1626792508512671,0.0,0.0,0.0,0.0,0.0,0.0,-14.224,0.0,0.0,0.0
587,0.0,0.0,0.0,-0.0355615234375,0.0,0.0,0.0,0.0,0.0,0.0,-0.559,0.0,0.0,0.0,0.0,0.0,0.0,-0.12869063413244786,0.0,0.0,0.0,0.0,0.0,0.0,-14.476,0.0,0.0,0.0
588,0.0,0.0,0.0,-0.0417880859375,0.0,0.0,0.0,0.0,0.0,0.0,-0.575,0.0,0.0,0.0,0.0,0.0,0.0,-0.15624567454421862,0.0,0.0,0.0,0.0,0.0,0.0,-14.544,0.0,0.0,0.0
589,0.0,0.0,0.0,-0.0475810546875,0.0,0.0,0.0,0.0,0.0,0.0,-0.612,0.0,0.0,0.0,0.0,0.0,0.0,-0.16189258470895773,0.0,0.0,0.0,0.0,0.0,0.0,-14.04,0.0,0.0,0.0
590,0.0,0.0,0.0,-0.0533828125,0.0,0.0,0.0,0.0,0.0,0.0,-0.575,0.0,0.0,0.0,0.0,0.0,0.0,-0.1675772932429983,0.0,0.0,0.0,0.0,0.0,0.0,-14.316,0.0,0.0,0.0
591,0.0,0.0,0.0,-0.05946484375,0.0,0.0,0.0,0.0,0.0,0.0,-0.607,0.0,0.0,0.0,0.0,0.0,0.0,-0.17352256955751874,0.0,0.0,0.0,0.0,0.0,0.0,-13.676,0.0,0.0,0.0
592,0.0,0.0,0.0,-0.06511328125,0.0,0.0,0.0,0.0,0.0,0.0,-0.599,0.0,0.0,0.0,0.0,0.0,0.0,-0.17851315845764298,0.0,0.0,0.0,0.0,0.0,0.0,-14.176,0.0,0.0,0.0
593,0.0,0.0,0.0,-0.0711953125,0.0,0.0,0.0,0.0,0.0,0.0,-0.581,0.0,0.0,0.0,0.0,0.0,0.0,-0.18516801109578462,0.0,0.0,0.0,0.0,0.0,0.0,-14.772,0.0,0.0,0.0
594,0.0,0.0,0.0,-0.0772861328125,0.0,0.0,0.0,0.0,0.0,0.0,-0.62,0.0,0.0,0.0,0.0,0.0,0.0,-0.19120382555421783,0.0,0.0,0.0,0.0,0.0,0.0,-14.476,0.0,0.0,0.0
595,0.0,0.0,0.0,-0.0827900390625,0.0,0.0,0.0,0.0,0.0,0.0,-0.581,0.0,0.0,0.0,0.0,0.0,0.0,-0.20007946568848883,0.0,0.0,0.0,0.0,0.0,0.0,-15.0,0.0,0.0,0.0
596,0.0,0.0,0.0,-0.0888720703125,0.0,0.0,0.0,0.0,0.0,0.0,-0.582,0.0,0.0,0.0,0.0,0.0,0.0,-0.19721381935086724,0.0,0.0,0.0,0.0,0.0,0.0,-14.476,0.0,0.0,0.0
597,0.0,0.0,0.0,-0.0943671875,0.0,0.0,0.0,0.0,0.0,0.0,-0.593,0.0,0.0,0.0,0.0,0.0,0.0,-0.20911831445316115,0.0,0.0,0.0,0.0,0.0,0.0,-14.132,0.0,0.0,0.0
598,0.0,0.0,0.0,-0.1000244140625,0.0,0.0,0.0,0.0,0.0,0.0,-0.554,0.0,0.0,0.0,0.0,0.0,0.0,-0.21135224308682338,0.0,0.0,0.0,0.0,0.0,0.0,-14.728,0.0,0.0,0.0
599,0.0,0.0,0.0,-0.1062509765625,0.0,0.0,0.0,0.0,0.0,0.0,-0.604,0.0,0.0,0.0,0.0,0.0,0.0,-0.21865024933062666,0.0,0.0,0.0,0.0,0.0,0.0,-14.384,0.0,0.0,0.0
600,0.0,0.0,0.0,-0.1118994140625,0.0,0.0,0.0,0.0,0.0,0.0,-0.602,0.0,0.0,0.0,0.0,0.0,0.0,-0.2246199222924083,0.0,0.0,0.0,0.0,0.0,0.0,-13.904,0.0,0.0,0.0
601,0.0,0.0,0.0,-0.1181259765625,0.0,0.0,0.0,0.0,0.0,0.0,-0.585,0.0,0.0,0.0,0.0,0.0,0.0,-0.22837939099379967,0.0,0.0,0.0,0.0,0.0,0.0,-14.176,0.0,0.0,0.0
602,0.0,0.0,0.0,-0.124072265625,0.0,0.0,0.0,0.0,0.0,0.0,-0.621,0.0,0.0,0.0,0.0,0.0,0.0,-0.23515477495641474,0.0,0.0,0.0,0.0,0.0,0.0,-13.536,0.0,0.0,0.0
603,0.0,0.0,0.0,-0.129720703125,0.0,0.0,0.0,0.0,0.0,0.0,-0.583,0.0,0.0,0.0,0.0,0.0,0.0,-0.24064346338231685,0.0,0.0,0.0,0.0,0.0,0.0,-14.384,0.0,0.0,0.0
604,0.0,0.0,0.0,-0.135947265625,0.0,0.0,0.0,0.0,0.0,0.0,-0.592,0.0,0.0,0.0,0.0,0.0,0.0,-0.246092515147164,0.0,0.0,0.0,0.0,0.0,0.0,-14.888,0.0,0.0,0.0
605,0.0,0.0,0.0,-0.1417490234375,0.0,0.0,0.0,0.0,0.0,0.0,-0.612,0.0,0.0,0.0,0.0,0.0,0.0,-0.2524985021105845,0.0,0.0,0.0,0.0,0.0,0.0,-14.408,0.0,0.0,0.0
606,0.0,0.0,0.0,-0.147388671875,0.0,0.0,0.0,0.0,0.0,0.0,-0.575,0.0,0.0,0.0,0.0,0.0,0.0,-0.25692408202864364,0.0,0.0,0.0,0.0,0.0,0.0,-14.84,0.0,0.0,0.0
607,0.0,0.0,0.0,-0.153326171875,0.0,0.0,0.0,0.0,0.0,0.0,-0.589,0.0,0.0,0.0,0.0,0.0,0.0,-0.2615821803703965,0.0,0.0,0.0,0.0,0.0,0.0,-14.132,0.0,0.0,0.0
608,0.0,0.0,0.0,-0.158830078125,0.0,0.0,0.0,0.0,0.0,0.0,-0.577,0.0,0.0,0.0,0.0,0.0,0.0,-0.26765166709270066,0.0,0.0,0.0,0.0,0.0,0.0,-14.2,0.0,0.0,0.0
609,0.0,0.0,0.0,-0.164767578125,0.0,0.0,0.0,0.0,0.0,0.0,-0.56,0.0,0.0,0.0,0.0,0.0,0.0,-0.2722978391011772,0.0,0.0,0.0,0.0,0.0,0.0,-14.656,0.0,0.0,0.0
610,0.0,0.0,0.0,-0.1708583984375,0.0,0.0,0.0,0.0,0.0,0.0,-0.616,0.0,0.0,0.0,0.0,0.0,0.0,-0.27826480765532374,0.0,0.0,0.0,0.0,0.0,0.0,-13.924,0.0,0.0,0.0
611,0.0,0.0,0.0,-0.1765068359375,0.0,0.0,0.0,0.0,0.0,0.0,-0.591,0.0,0.0,0.0,0.0,0.0,0.0,-0.28248006921011465,0.0,0.0,0.0,0.0,0.0,0.0,-13.812,0.0,0.0,0.0
612,0.0,0.0,0.0,-0.182580078125,0.0,0.0,0.0,0.0,0.0,0.0,-0.59,0.0,0.0,0.0,0.0,0.0,0.0,-0.2882108596629309,0.0,0.0,0.0,0.0,0.0,0.0,-13.788,0.0,0.0,0.0
613,0.0,0.0,0.0,-0.1885263671875,0.0,0.0,0.0,0.0,0.0,0.0,-0.612,0.0,0.0,0.0,0.0,0.0,0.0,-0.29348146726272,0.0,0.0,0.0,0.0,0.0,0.0,-13.604,0.0,0.0,0.0
614,0.0,0.0,0.0,-0.1941748046875,0.0,0.0,0.0,0.0,0.0,0.0,-0.577,0.0,0.0,0.0,0.0,0.0,0.0,-0.298654700718763,0.0,0.0,0.0,0.0,0.0,0.0,-14.408,0.0,0.0,0.0
615,0.0,0.0,0.0,-0.2004013671875,0.0,0.0,0.0,0.0,0.0,0.0,-0.601,0.0,0.0,0.0,0.0,0.0,0.0,-0.3046590314979094,0.0,0.0,0.0,0.0,0.0,0.0,-14.588,0.0,0.0,0.0
616,0.0,0.0,0.0,-0.2060498046875,0.0,0.0,0.0,0.0,0.0,0.0,-0.605,0.0,0.0,0.0,0.0,0.0,0.0,-0.31146427869668936,0.0,0.0,0.0,0.0,0.0,0.0,-14.292,0.0,0.0,0.0
617,0.0,0.0,0.0,-0.2118427734375,0.0,0.0,0.0,0.0,0.0,0.0,-0.573,0.0,0.0,0.0,0.0,0.0,0.0,-0.3106683869891803,0.0,0.0,0.0,0.0,0.0,0.0,-14.544,0.0,0.0,0.0
618,0.0,0.0,0.0,-0.2176357421875,0.0,0.0,0.0,0.0,0.0,0.0,-0.591,0.0,0.0,0.0,0.0,0.0,0.0,-0.319252905779004,0.0,0.0,0.0,0.0,0.0,0.0,-13.996,0.0,0.0,0.0
619,0.0,0.0,0.0,-0.22328515625,0.0,0.0,0.0,0.0,0.0,0.0,-0.577,0.0,0.0,0.0,0.0,0.0,0.0,-0.32319914070927047,0.0,0.0,0.0,0.0,0.0,0.0,-14.176,0.0,0.0,0.0
620,0.0,0.0,0.0,-0.2292216796875,0.0,0.0,0.0,0.0,0.0,0.0,-0.578,0.0,0.0,0.0,0.0,0.0,0.0,-0.33728863231080203,0.0,0.0,0.0,0.0,0.0,0.0,-14.568,0.0,0.0,0.0
621,0.0,0.0,0.0,-0.2353037109375,0.0,0.0,0.0,0.0,0.0,0.0,-0.61,0.0,0.0,0.0,0.0,0.0,0.0,-0.3258627882005145,0.0,0.0,0.0,0.0,0.0,0.0,-13.516,0.0,0.0,0.0
622,0.0,0.0,0.0,-0.2353037109375,0.0,0.0,0.0,0.0,0.0,0.0,-0.61,0.0,0.0,0.0,0.0,0.0,0.0,-0.3441740198286629,0.0,0.0,0.0,0.0,0.0,0.0,-13.516,0.0,0.0,0.0
623,0.0,0.0,0.0,-0.2471875,0.0,0.0,0.0,0.0,0.0,0.0,-0.607,0.0,0.0,0.0,0.0,0.0,0.0,-0.3339965004688034,0.0,0.0,0.0,0.0,0.0,0.0,-13.584,0.0,0.0,0.0
624,0.0,0.0,0.0,-0.2589091796875,0.0,0.0,0.0,0.0,0.0,0.0,-0.583,0.0,0.0,0.0,0.0,0.0,0.0,-0.40585055029703593,0.0,0.0,0.0,0.0,0.0,0.0,-14.336,0.0,0.0,0.0
625,0.0,0.0,0.0,-0.26485546875,0.0,0.0,0.0,0.0,0.0,0.0,-0.602,0.0,0.0,0.0,0.0,0.0,0.0,-0.3677090228073552,0.0,0.0,0.0,0.0,0.0,0.0,-14.268,0.0,0.0,0.0
626,0.0,0.0,0.0,-0.2706484375,0.0,0.0,0.0,0.0,0.0,0.0,-0.594,0.0,0.0,0.0,0.0,0.0,0.0,-0.34107631024057183,0.0,0.0,0.0,0.0,0.0,0.0,-14.108,0.0,0.0,0.0
627,0.0,0.0,0.0,-0.2706484375,0.0,0.0,0.0,0.0,0.0,0.0,-0.594,0.0,0.0,0.0,0.0,0.0,0.0,-0.3505669398755422,0.0,0.0,0.0,0.0,0.0,0.0,-14.108,0.0,0.0,0.0
628,0.0,0.0,0.0,-0.276296875,0.0,0.0,0.0,0.0,0.0,0.0,-0.58,0.0,0.0,0.0,0.0,0.0,0.0,-0.3404186290614255,0.0,0.0,0.0,0.0,0.0,0.0,-14.176,0.0,0.0,0.0
629,0.0,0.0,0.0,-0.2820810546875,0.0,0.0,0.0,0.0,0.0,0.0,-0.575,0.0,0.0,0.0,0.0,0.0,0.0,-0.3614588527629431,0.0,0.0,0.0,0.0,0.0,0.0,-13.836,0.0,0.0,0.0
630,0.0,0.0,0.0,-0.2877392578125,0.0,0.0,0.0,0.0,0.0,0.0,-0.577,0.0,0.0,0.0,0.0,0.0,0.0,-0.37742332927309485,0.0,0.0,0.0,0.0,0.0,0.0,-14.064,0.0,0.0,0.0
631,0.0,0.0,0.0,-0.2938203125,0.0,0.0,0.0,0.0,0.0,0.0,-0.585,0.0,0.0,0.0,0.0,0.0,0.0,-0.38707447188155414,0.0,0.0,0.0,0.0,0.0,0.0,-14.016,0.0,0.0,0.0
632,0.0,0.0,0.0,-0.2997578125,0.0,0.0,0.0,0.0,0.0,0.0,-0.602,0.0,0.0,0.0,0.0,0.0,0.0,-0.38165139636480094,0.0,0.0,0.0,0.0,0.0,0.0,-13.124,0.0,0.0,0.0
633,0.0,0.0,0.0,-0.3055419921875,0.0,0.0,0.0,0.0,0.0,0.0,-0.595,0.0,0.0,0.0,0.0,0.0,0.0,-0.3909893734641283,0.0,0.0,0.0,0.0,0.0,0.0,-13.468,0.0,0.0,0.0
634,0.0,0.0,0.0,-0.3114794921875,0.0,0.0,0.0,0.0,0.0,0.0,-0.591,0.0,0.0,0.0,0.0,0.0,0.0,-0.3967362924535421,0.0,0.0,0.0,0.0,0.0,0.0,-13.444,0.0,0.0,0.0
635,0.0,0.0,0.0,-0.31742578125,0.0,0.0,0.0,0.0,0.0,0.0,-0.596,0.0,0.0,0.0,0.0,0.0,0.0,-0.3997880922231599,0.0,0.0,0.0,0.0,0.0,0.0,-13.72,0.0,0.0,0.0
636,0.0,0.0,0.0,-0.32336328125,0.0,0.0,0.0,0.0,0.0,0.0,-0.599,0.0,0.0,0.0,0.0,0.0,0.0,-0.4052789136583306,0.0,0.0,0.0,0.0,0.0,0.0,-14.268,0.0,0.0,0.0
637,0.0,0.0,0.0,-0.3291474609375,0.0,0.0,0.0,0.0,0.0,0.0,-0.593,0.0,0.0,0.0,0.0,0.0,0.0,-0.4095019989382993,0.0,0.0,0.0,0.0,0.0,0.0,-13.996,0.0,0.0,0.0
638,0.0,0.0,0.0,-0.3349404296875,0.0,0.0,0.0,0.0,0.0,0.0,-0.583,0.0,0.0,0.0,0.0,0.0,0.0,-0.4152570778467896,0.0,0.0,0.0,0.0,0.0,0.0,-13.904,0.0,0.0,0.0
639,0.0,0.0,0.0,-0.3407421875,0.0,0.0,0.0,0.0,0.0,0.0,-0.583,0.0,0.0,0.0,0.0,0.0,0.0,-0.4186212889005451,0.0,0.0,0.0,0.0,0.0,0.0,-13.88,0.0,0.0,0.0
640,0.0,0.0,0.0,-0.3463916015625,0.0,0.0,0.0,0.0,0.0,0.0,-0.578,0.0,0.0,0.0,0.0,0.0,0.0,-0.4240930265183041,0.0,0.0,0.0,0.0,0.0,0.0,-13.604,0.0,0.0,0.0
641,0.0,0.0,0.0,-0.3523193359375,0.0,0.0,0.0,0.0,0.0,0.0,-0.582,0.0,0.0,0.0,0.0,0.0,0.0,-0.4264769294161187,0.0,0.0,0.0,0.0,0.0,0.0,-13.904,0.0,0.0,0.0
642,0.0,0.0,0.0,-0.3582568359375,0.0,0.0,0.0,0.0,0.0,0.0,-0.594,0.0,0.0,0.0,0.0,0.0,0.0,-0.43255491630343057,0.0,0.0,0.0,0.0,0.0,0.0,-13.468,0.0,0.0,0.0
643,0.0,0.0,0.0,-0.3640498046875,0.0,0.0,0.0,0.0,0.0,0.0,-0.594,0.0,0.0,0.0,0.0,0.0,0.0,-0.44726926049349797,0.0,0.0,0.0,0.0,0.0,0.0,-13.056,0.0,0.0,0.0
644,0.0,0.0,0.0,-0.36999609375,0.0,0.0,0.0,0.0,0.0,0.0,-0.591,0.0,0.0,0.0,0.0,0.0,0.0,-0.4311249888705795,0.0,0.0,0.0,0.0,0.0,0.0,-13.08,0.0,0.0,0.0
645,0.0,0.0,0.0,-0.3759248046875,0.0,0.0,0.0,0.0,0.0,0.0,-0.603,0.0,0.0,0.0,0.0,0.0,0.0,-0.4453135254640771,0.0,0.0,0.0,0.0,0.0,0.0,-13.148,0.0,0.0,0.0
646,0.0,0.0,0.0,-0.3818623046875,0.0,0.0,0.0,0.0,0.0,0.0,-0.588,0.0,0.0,0.0,0.0,0.0,0.0,-0.450639961687008,0.0,0.0,0.0,0.0,0.0,0.0,-13.676,0.0,0.0,0.0
647,0.0,0.0,0.0,-0.3877998046875,0.0,0.0,0.0,0.0,0.0,0.0,-0.601,0.0,0.0,0.0,0.0,0.0,0.0,-0.45432863683564323,0.0,0.0,0.0,0.0,0.0,0.0,-13.836,0.0,0.0,0.0
648,0.0,0.0,0.0,-0.393583984375,0.0,0.0,0.0,0.0,0.0,0.0,-0.592,0.0,0.0,0.0,0.0,0.0,0.0,-0.45924068793306394,0.0,0.0,0.0,0.0,0.0,0.0,-13.696,0.0,0.0,0.0
649,0.0,0.0,0.0,-0.3993857421875,0.0,0.0,0.0,0.0,0.0,0.0,-0.584,0.0,0.0,0.0,0.0,0.0,0.0,-0.4633924665191258,0.0,0.0,0.0,0.0,0.0,0.0,-13.604,0.0,0.0,0.0
650,0.0,0.0,0.0,-0.4050341796875,0.0,0.0,0.0,0.0,0.0,0.0,-0.584,0.0,0.0,0.0,0.0,0.0,0.0,-0.4673688676852147,0.0,0.0,0.0,0.0,0.0,0.0,-13.468,0.0,0.0,0.0
651,0.0,0.0,0.0,-0.410818359375,0.0,0.0,0.0,0.0,0.0,0.0,-0.573,0.0,0.0,0.0,0.0,0.0,0.0,-0.4718085956994297,0.0,0.0,0.0,0.0,0.0,0.0,-13.332,0.0,0.0,0.0
652,0.0,0.0,0.0,-0.416755859375,0.0,0.0,0.0,0.0,0.0,0.0,-0.59,0.0,0.0,0.0,0.0,0.0,0.0,-0.4762807952980996,0.0,0.0,0.0,0.0,0.0,0.0,-13.584,0.0,0.0,0.0
653,0.0,0.0,0.0,-0.422693359375,0.0,0.0,0.0,0.0,0.0,0.0,-0.591,0.0,0.0,0.0,0.0,0.0,0.0,-0.48067220787534587,0.0,0.0,0.0,0.0,0.0,0.0,-12.896,0.0,0.0,0.0
654,0.0,0.0,0.0,-0.428630859375,0.0,0.0,0.0,0.0,0.0,0.0,-0.594,0.0,0.0,0.0,0.0,0.0,0.0,-0.48490385609285125,0.0,0.0,0.0,0.0,0.0,0.0,-12.896,0.0,0.0,0.0
655,0.0,0.0,0.0,-0.434568359375,0.0,0.0,0.0,0.0,0.0,0.0,-0.596,0.0,0.0,0.0,0.0,0.0,0.0,-0.4891714926436363,0.0,0.0,0.0,0.0,0.0,0.0,-12.944,0.0,0.0,0.0
656,0.0,0.0,0.0,-0.440361328125,0.0,0.0,0.0,0.0,0.0,0.0,-0.596,0.0,0.0,0.0,0.0,0.0,0.0,-0.49381606025427754,0.0,0.0,0.0,0.0,0.0,0.0,-12.944,0.0,0.0,0.0
657,0.0,0.0,0.0,-0.4462890625,0.0,0.0,0.0,0.0,0.0,0.0,-0.592,0.0,0.0,0.0,0.0,0.0,0.0,-0.49731321016574537,0.0,0.0,0.0,0.0,0.0,0.0,-13.584,0.0,0.0,0.0
658,0.0,0.0,0.0,-0.4522265625,0.0,0.0,0.0,0.0,0.0,0.0,-0.6,0.0,0.0,0.0,0.0,0.0,0.0,-0.503161572064962,0.0,0.0,0.0,0.0,0.0,0.0,-13.444,0.0,0.0,0.0
659,0.0,0.0,0.0,-0.457884765625,0.0,0.0,0.0,0.0,0.0,0.0,-0.588,0.0,0.0,0.0,0.0,0.0,0.0,-0.5052084319545254,0.0,0.0,0.0,0.0,0.0,0.0,-13.264,0.0,0.0,0.0
660,0.0,0.0,0.0,-0.4638125,0.0,0.0,0.0,0.0,0.0,0.0,-0.581,0.0,0.0,0.0,0.0,0.0,0.0,-0.5106347635552226,0.0,0.0,0.0,0.0,0.0,0.0,-13.308,0.0,0.0,0.0
661,0.0,0.0,0.0,-0.4696064453125,0.0,0.0,0.0,0.0,0.0,0.0,-0.592,0.0,0.0,0.0,0.0,0.0,0.0,-0.5148149302497322,0.0,0.0,0.0,0.0,0.0,0.0,-13.148,0.0,0.0,0.0
662,0.0,0.0,0.0,-0.47524609375,0.0,0.0,0.0,0.0,0.0,0.0,-0.573,0.0,0.0,0.0,0.0,0.0,0.0,-0.5185249088869677,0.0,0.0,0.0,0.0,0.0,0.0,-13.104,0.0,0.0,0.0
663,0.0,0.0,0.0,-0.4811826171875,0.0,0.0,0.0,0.0,0.0,0.0,-0.589,0.0,0.0,0.0,0.0,0.0,0.0,-0.5229176462445724,0.0,0.0,0.0,0.0,0.0,0.0,-12.944,0.0,0.0,0.0
664,0.0,0.0,0.0,-0.4869765625,0.0,0.0,0.0,0.0,0.0,0.0,-0.589,0.0,0.0,0.0,0.0,0.0,0.0,-0.5270655347246012,0.0,0.0,0.0,0.0,0.0,0.0,-12.392,0.0,0.0,0.0
665,0.0,0.0,0.0,-0.4930576171875,0.0,0.0,0.0,0.0,0.0,0.0,-0.593,0.0,0.0,0.0,0.0,0.0,0.0,-0.5316081444350051,0.0,0.0,0.0,0.0,0.0,0.0,-12.644,0.0,0.0,0.0
666,0.0,0.0,0.0,-0.4988505859375,0.0,0.0,0.0,0.0,0.0,0.0,-0.6,0.0,0.0,0.0,0.0,0.0,0.0,-0.5367193597602778,0.0,0.0,0.0,0.0,0.0,0.0,-12.532,0.0,0.0,0.0
