EmanuelSamir/lab201_ws_projsamir/sawyer_dev/data/sawyer/static/test_joint4/training_data_1.csv
,j1,j2,j3,j4,j5,j6,j7,v1,v2,v3,v4,v5,v6,v7,jd1,jd2,jd3,jd4,jd5,jd6,jd7,e1,e2,e3,e4,e5,e6,e7
0,0.0,0.0,0.0,0.0,0.0,0.0,0.0,0.0,0.0,0.0,0.0,0.0,0.0,0.0,0.0,0.0,0.0,0.0,0.0,0.0,0.0,0.0,0.0,0.0,0.0,0.0,0.0,0.0
1,0.0,0.0,0.0,-0.0039794921875,0.0,0.0,0.0,0.0,0.0,0.0,-0.001,0.0,0.0,0.0,0.0,0.0,0.0,2.9468536365105752e-05,0.0,0.0,0.0,0.0,0.0,0.0,-14.084,0.0,0.0,0.0
2,0.0,0.0,0.0,-0.0039794921875,0.0,0.0,0.0,0.0,0.0,0.0,-0.001,0.0,0.0,0.0,0.0,0.0,0.0,0.00536692137935695,0.0,0.0,0.0,0.0,0.0,0.0,-14.176,0.0,0.0,0.0
3,0.0,0.0,0.0,-0.0039794921875,0.0,0.0,0.0,0.0,0.0,0.0,-0.001,0.0,0.0,0.0,0.0,0.0,0.0,0.011367594511427073,0.0,0.0,0.0,0.0,0.0,0.0,-14.156,0.0,0.0,0.0
4,0.0,0.0,0.0,-0.0039794921875,0.0,0.0,0.0,0.0,0.0,0.0,-0.001,0.0,0.0,0.0,0.0,0.0,0.0,0.01741975110577826,0.0,0.0,0.0,0.0,0.0,0.0,-14.064,0.0,0.0,0.0
5,0.0,0.0,0.0,-0.0036904296875,0.0,0.0,0.0,0.0,0.0,0.0,0.007,0.0,0.0,0.0,0.0,0.0,0.0,0.023472564295672935,0.0,0.0,0.0,0.0,0.0,0.0,-13.08,0.0,0.0,0.0
6,0.0,0.0,0.0,-0.00194921875,0.0,0.0,0.0,0.0,0.0,0.0,0.085,0.0,0.0,0.0,0.0,0.0,0.0,0.029359532568826355,0.0,0.0,0.0,0.0,0.0,0.0,-11.708,0.0,0.0,0.0
7,0.0,0.0,0.0,0.0006484375,0.0,0.0,0.0,0.0,0.0,0.0,0.209,0.0,0.0,0.0,0.0,0.0,0.0,0.0353663369991682,0.0,0.0,0.0,0.0,0.0,0.0,-11.136,0.0,0.0,0.0
8,0.0,0.0,0.0,0.0041318359375,0.0,0.0,0.0,0.0,0.0,0.0,0.299,0.0,0.0,0.0,0.0,0.0,0.0,0.04140069730545111,0.0,0.0,0.0,0.0,0.0,0.0,-10.22,0.0,0.0,0.0
9,0.0,0.0,0.0,0.0084716796875,0.0,0.0,0.0,0.0,0.0,0.0,0.387,0.0,0.0,0.0,0.0,0.0,0.0,0.047317196954712586,0.0,0.0,0.0,0.0,0.0,0.0,-10.52,0.0,0.0,0.0
10,0.0,0.0,0.0,0.0128212890625,0.0,0.0,0.0,0.0,0.0,0.0,0.435,0.0,0.0,0.0,0.0,0.0,0.0,0.05328706238101234,0.0,0.0,0.0,0.0,0.0,0.0,-10.472,0.0,0.0,0.0
11,0.0,0.0,0.0,0.0171708984375,0.0,0.0,0.0,0.0,0.0,0.0,0.439,0.0,0.0,0.0,0.0,0.0,0.0,0.05934841367384473,0.0,0.0,0.0,0.0,0.0,0.0,-9.536,0.0,0.0,0.0
12,0.0,0.0,0.0,0.0226748046875,0.0,0.0,0.0,0.0,0.0,0.0,0.475,0.0,0.0,0.0,0.0,0.0,0.0,0.06524609583775685,0.0,0.0,0.0,0.0,0.0,0.0,-9.076,0.0,0.0,0.0
13,0.0,0.0,0.0,0.029044921875,0.0,0.0,0.0,0.0,0.0,0.0,0.588,0.0,0.0,0.0,0.0,0.0,0.0,0.0712293057464884,0.0,0.0,0.0,0.0,0.0,0.0,-9.764,0.0,0.0,0.0
14,0.0,0.0,0.0,0.0355693359375,0.0,0.0,0.0,0.0,0.0,0.0,0.645,0.0,0.0,0.0,0.0,0.0,0.0,0.07725640972409704,0.0,0.0,0.0,0.0,0.0,0.0,-10.884,0.0,0.0,0.0
15,0.0,0.0,0.0,0.042228515625,0.0,0.0,0.0,0.0,0.0,0.0,0.664,0.0,0.0,0.0,0.0,0.0,0.0,0.0830907179174043,0.0,0.0,0.0,0.0,0.0,0.0,-11.776,0.0,0.0,0.0
16,0.0,0.0,0.0,0.0488876953125,0.0,0.0,0.0,0.0,0.0,0.0,0.674,0.0,0.0,0.0,0.0,0.0,0.0,0.08906005198775861,0.0,0.0,0.0,0.0,0.0,0.0,-11.16,0.0,0.0,0.0
17,0.0,0.0,0.0,0.055267578125,0.0,0.0,0.0,0.0,0.0,0.0,0.653,0.0,0.0,0.0,0.0,0.0,0.0,0.09502278679842326,0.0,0.0,0.0,0.0,0.0,0.0,-10.084,0.0,0.0,0.0
18,0.0,0.0,0.0,0.0626572265625,0.0,0.0,0.0,0.0,0.0,0.0,0.69,0.0,0.0,0.0,0.0,0.0,0.0,0.10112382800603027,0.0,0.0,0.0,0.0,0.0,0.0,-10.268,0.0,0.0,0.0
19,0.0,0.0,0.0,0.06975,0.0,0.0,0.0,0.0,0.0,0.0,0.738,0.0,0.0,0.0,0.0,0.0,0.0,0.10730617474927599,0.0,0.0,0.0,0.0,0.0,0.0,-11.388,0.0,0.0,0.0
20,0.0,0.0,0.0,0.07670703125,0.0,0.0,0.0,0.0,0.0,0.0,0.7,0.0,0.0,0.0,0.0,0.0,0.0,0.11359757564455787,0.0,0.0,0.0,0.0,0.0,0.0,-12.052,0.0,0.0,0.0
21,0.0,0.0,0.0,0.083953125,0.0,0.0,0.0,0.0,0.0,0.0,0.719,0.0,0.0,0.0,0.0,0.0,0.0,0.11866994081152724,0.0,0.0,0.0,0.0,0.0,0.0,-13.24,0.0,0.0,0.0
22,0.0,0.0,0.0,0.0906123046875,0.0,0.0,0.0,0.0,0.0,0.0,0.697,0.0,0.0,0.0,0.0,0.0,0.0,0.12448436594737441,0.0,0.0,0.0,0.0,0.0,0.0,-12.852,0.0,0.0,0.0
23,0.0,0.0,0.0,0.097857421875,0.0,0.0,0.0,0.0,0.0,0.0,0.698,0.0,0.0,0.0,0.0,0.0,0.0,0.13039090765572894,0.0,0.0,0.0,0.0,0.0,0.0,-13.924,0.0,0.0,0.0
24,0.0,0.0,0.0,0.1045078125,0.0,0.0,0.0,0.0,0.0,0.0,0.704,0.0,0.0,0.0,0.0,0.0,0.0,0.13633785090544684,0.0,0.0,0.0,0.0,0.0,0.0,-14.932,0.0,0.0,0.0
25,0.0,0.0,0.0,0.11175390625,0.0,0.0,0.0,0.0,0.0,0.0,0.693,0.0,0.0,0.0,0.0,0.0,0.0,0.14206029223775257,0.0,0.0,0.0,0.0,0.0,0.0,-14.612,0.0,0.0,0.0
26,0.0,0.0,0.0,0.1187109375,0.0,0.0,0.0,0.0,0.0,0.0,0.721,0.0,0.0,0.0,0.0,0.0,0.0,0.14789468523643587,0.0,0.0,0.0,0.0,0.0,0.0,-14.612,0.0,0.0,0.0
27,0.0,0.0,0.0,0.1256591796875,0.0,0.0,0.0,0.0,0.0,0.0,0.696,0.0,0.0,0.0,0.0,0.0,0.0,0.153721832017175,0.0,0.0,0.0,0.0,0.0,0.0,-14.36,0.0,0.0,0.0
28,0.0,0.0,0.0,0.132029296875,0.0,0.0,0.0,0.0,0.0,0.0,0.68,0.0,0.0,0.0,0.0,0.0,0.0,0.15946523926328326,0.0,0.0,0.0,0.0,0.0,0.0,-15.0,0.0,0.0,0.0
29,0.0,0.0,0.0,0.1385625,0.0,0.0,0.0,0.0,0.0,0.0,0.637,0.0,0.0,0.0,0.0,0.0,0.0,0.16526722747618372,0.0,0.0,0.0,0.0,0.0,0.0,-14.908,0.0,0.0,0.0
30,0.0,0.0,0.0,0.1453662109375,0.0,0.0,0.0,0.0,0.0,0.0,0.673,0.0,0.0,0.0,0.0,0.0,0.0,0.1709538155220914,0.0,0.0,0.0,0.0,0.0,0.0,-15.412,0.0,0.0,0.0
31,0.0,0.0,0.0,0.151880859375,0.0,0.0,0.0,0.0,0.0,0.0,0.665,0.0,0.0,0.0,0.0,0.0,0.0,0.17862426893858704,0.0,0.0,0.0,0.0,0.0,0.0,-15.3,0.0,0.0,0.0
32,0.0,0.0,0.0,0.1585498046875,0.0,0.0,0.0,0.0,0.0,0.0,0.668,0.0,0.0,0.0,0.0,0.0,0.0,0.1824962686864574,0.0,0.0,0.0,0.0,0.0,0.0,-16.9,0.0,0.0,0.0
33,0.0,0.0,0.0,0.164630859375,0.0,0.0,0.0,0.0,0.0,0.0,0.651,0.0,0.0,0.0,0.0,0.0,0.0,0.18814531043975022,0.0,0.0,0.0,0.0,0.0,0.0,-17.472,0.0,0.0,0.0
34,0.0,0.0,0.0,0.171001953125,0.0,0.0,0.0,0.0,0.0,0.0,0.617,0.0,0.0,0.0,0.0,0.0,0.0,0.19387853440904793,0.0,0.0,0.0,0.0,0.0,0.0,-16.512,0.0,0.0,0.0
35,0.0,0.0,0.0,0.177525390625,0.0,0.0,0.0,0.0,0.0,0.0,0.656,0.0,0.0,0.0,0.0,0.0,0.0,0.19956211076387342,0.0,0.0,0.0,0.0,0.0,0.0,-15.62,0.0,0.0,0.0
36,0.0,0.0,0.0,0.183607421875,0.0,0.0,0.0,0.0,0.0,0.0,0.631,0.0,0.0,0.0,0.0,0.0,0.0,0.20520989587679725,0.0,0.0,0.0,0.0,0.0,0.0,-14.888,0.0,0.0,0.0
37,0.0,0.0,0.0,0.189833984375,0.0,0.0,0.0,0.0,0.0,0.0,0.624,0.0,0.0,0.0,0.0,0.0,0.0,0.21082926232913246,0.0,0.0,0.0,0.0,0.0,0.0,-15.596,0.0,0.0,0.0
38,0.0,0.0,0.0,0.1953466796875,0.0,0.0,0.0,0.0,0.0,0.0,0.596,0.0,0.0,0.0,0.0,0.0,0.0,0.21643214564746524,0.0,0.0,0.0,0.0,0.0,0.0,-15.596,0.0,0.0,0.0
39,0.0,0.0,0.0,0.2009951171875,0.0,0.0,0.0,0.0,0.0,0.0,0.562,0.0,0.0,0.0,0.0,0.0,0.0,0.22202511084700913,0.0,0.0,0.0,0.0,0.0,0.0,-15.16,0.0,0.0,0.0
40,0.0,0.0,0.0,0.20606640625,0.0,0.0,0.0,0.0,0.0,0.0,0.54,0.0,0.0,0.0,0.0,0.0,0.0,0.22755517614987555,0.0,0.0,0.0,0.0,0.0,0.0,-14.384,0.0,0.0,0.0
41,0.0,0.0,0.0,0.2112734375,0.0,0.0,0.0,0.0,0.0,0.0,0.51,0.0,0.0,0.0,0.0,0.0,0.0,0.2331065173240634,0.0,0.0,0.0,0.0,0.0,0.0,-14.132,0.0,0.0,0.0
42,0.0,0.0,0.0,0.2167861328125,0.0,0.0,0.0,0.0,0.0,0.0,0.54,0.0,0.0,0.0,0.0,0.0,0.0,0.2386251358291312,0.0,0.0,0.0,0.0,0.0,0.0,-14.452,0.0,0.0,0.0
43,0.0,0.0,0.0,0.222146484375,0.0,0.0,0.0,0.0,0.0,0.0,0.552,0.0,0.0,0.0,0.0,0.0,0.0,0.24409138969169317,0.0,0.0,0.0,0.0,0.0,0.0,-15.276,0.0,0.0,0.0
44,0.0,0.0,0.0,0.2273623046875,0.0,0.0,0.0,0.0,0.0,0.0,0.534,0.0,0.0,0.0,0.0,0.0,0.0,0.24957158929389017,0.0,0.0,0.0,0.0,0.0,0.0,-15.412,0.0,0.0,0.0
45,0.0,0.0,0.0,0.232857421875,0.0,0.0,0.0,0.0,0.0,0.0,0.53,0.0,0.0,0.0,0.0,0.0,0.0,0.25503760392941704,0.0,0.0,0.0,0.0,0.0,0.0,-14.248,0.0,0.0,0.0
46,0.0,0.0,0.0,0.2382265625,0.0,0.0,0.0,0.0,0.0,0.0,0.551,0.0,0.0,0.0,0.0,0.0,0.0,0.2604340896052114,0.0,0.0,0.0,0.0,0.0,0.0,-13.332,0.0,0.0,0.0
47,0.0,0.0,0.0,0.243296875,0.0,0.0,0.0,0.0,0.0,0.0,0.522,0.0,0.0,0.0,0.0,0.0,0.0,0.2658456506545579,0.0,0.0,0.0,0.0,0.0,0.0,-12.576,0.0,0.0,0.0
48,0.0,0.0,0.0,0.2489462890625,0.0,0.0,0.0,0.0,0.0,0.0,0.537,0.0,0.0,0.0,0.0,0.0,0.0,0.27124753398485235,0.0,0.0,0.0,0.0,0.0,0.0,-13.104,0.0,0.0,0.0
49,0.0,0.0,0.0,0.25415234375,0.0,0.0,0.0,0.0,0.0,0.0,0.547,0.0,0.0,0.0,0.0,0.0,0.0,0.2765255703063275,0.0,0.0,0.0,0.0,0.0,0.0,-13.216,0.0,0.0,0.0
50,0.0,0.0,0.0,0.259376953125,0.0,0.0,0.0,0.0,0.0,0.0,0.524,0.0,0.0,0.0,0.0,0.0,0.0,0.2818496978171509,0.0,0.0,0.0,0.0,0.0,0.0,-12.872,0.0,0.0,0.0
51,0.0,0.0,0.0,0.2645927734375,0.0,0.0,0.0,0.0,0.0,0.0,0.531,0.0,0.0,0.0,0.0,0.0,0.0,0.287127537600215,0.0,0.0,0.0,0.0,0.0,0.0,-13.012,0.0,0.0,0.0
52,0.0,0.0,0.0,0.2692216796875,0.0,0.0,0.0,0.0,0.0,0.0,0.498,0.0,0.0,0.0,0.0,0.0,0.0,0.29238308770467414,0.0,0.0,0.0,0.0,0.0,0.0,-13.24,0.0,0.0,0.0
53,0.0,0.0,0.0,0.2740126953125,0.0,0.0,0.0,0.0,0.0,0.0,0.462,0.0,0.0,0.0,0.0,0.0,0.0,0.29760627633613834,0.0,0.0,0.0,0.0,0.0,0.0,-13.012,0.0,0.0,0.0
54,0.0,0.0,0.0,0.2793642578125,0.0,0.0,0.0,0.0,0.0,0.0,0.508,0.0,0.0,0.0,0.0,0.0,0.0,0.302842080519941,0.0,0.0,0.0,0.0,0.0,0.0,-13.376,0.0,0.0,0.0
55,0.0,0.0,0.0,0.284435546875,0.0,0.0,0.0,0.0,0.0,0.0,0.533,0.0,0.0,0.0,0.0,0.0,0.0,0.30798537133122483,0.0,0.0,0.0,0.0,0.0,0.0,-13.948,0.0,0.0,0.0
56,0.0,0.0,0.0,0.289794921875,0.0,0.0,0.0,0.0,0.0,0.0,0.517,0.0,0.0,0.0,0.0,0.0,0.0,0.3131232537348032,0.0,0.0,0.0,0.0,0.0,0.0,-13.948,0.0,0.0,0.0
57,0.0,0.0,0.0,0.295453125,0.0,0.0,0.0,0.0,0.0,0.0,0.553,0.0,0.0,0.0,0.0,0.0,0.0,0.3181930268664688,0.0,0.0,0.0,0.0,0.0,0.0,-13.836,0.0,0.0,0.0
58,0.0,0.0,0.0,0.3006591796875,0.0,0.0,0.0,0.0,0.0,0.0,0.549,0.0,0.0,0.0,0.0,0.0,0.0,0.32326838616911685,0.0,0.0,0.0,0.0,0.0,0.0,-13.104,0.0,0.0,0.0
59,0.0,0.0,0.0,0.3055859375,0.0,0.0,0.0,0.0,0.0,0.0,0.51,0.0,0.0,0.0,0.0,0.0,0.0,0.32828274306300576,0.0,0.0,0.0,0.0,0.0,0.0,-12.828,0.0,0.0,0.0
60,0.0,0.0,0.0,0.310359375,0.0,0.0,0.0,0.0,0.0,0.0,0.497,0.0,0.0,0.0,0.0,0.0,0.0,0.3333687832407798,0.0,0.0,0.0,0.0,0.0,0.0,-13.308,0.0,0.0,0.0
61,0.0,0.0,0.0,0.315150390625,0.0,0.0,0.0,0.0,0.0,0.0,0.476,0.0,0.0,0.0,0.0,0.0,0.0,0.33838626642531,0.0,0.0,0.0,0.0,0.0,0.0,-13.192,0.0,0.0,0.0
62,0.0,0.0,0.0,0.3200771484375,0.0,0.0,0.0,0.0,0.0,0.0,0.485,0.0,0.0,0.0,0.0,0.0,0.0,0.34320245100002095,0.0,0.0,0.0,0.0,0.0,0.0,-13.652,0.0,0.0,0.0
63,0.0,0.0,0.0,0.32470703125,0.0,0.0,0.0,0.0,0.0,0.0,0.473,0.0,0.0,0.0,0.0,0.0,0.0,0.3481331570599047,0.0,0.0,0.0,0.0,0.0,0.0,-13.08,0.0,0.0,0.0
64,0.0,0.0,0.0,0.32977734375,0.0,0.0,0.0,0.0,0.0,0.0,0.487,0.0,0.0,0.0,0.0,0.0,0.0,0.35298494806938957,0.0,0.0,0.0,0.0,0.0,0.0,-13.376,0.0,0.0,0.0
65,0.0,0.0,0.0,0.334271484375,0.0,0.0,0.0,0.0,0.0,0.0,0.483,0.0,0.0,0.0,0.0,0.0,0.0,0.3578030726254404,0.0,0.0,0.0,0.0,0.0,0.0,-13.356,0.0,0.0,0.0
66,0.0,0.0,0.0,0.3394873046875,0.0,0.0,0.0,0.0,0.0,0.0,0.484,0.0,0.0,0.0,0.0,0.0,0.0,0.36266417854208527,0.0,0.0,0.0,0.0,0.0,0.0,-13.284,0.0,0.0,0.0
67,0.0,0.0,0.0,0.3449912109375,0.0,0.0,0.0,0.0,0.0,0.0,0.544,0.0,0.0,0.0,0.0,0.0,0.0,0.36739261416813385,0.0,0.0,0.0,0.0,0.0,0.0,-13.972,0.0,0.0,0.0
68,0.0,0.0,0.0,0.3501982421875,0.0,0.0,0.0,0.0,0.0,0.0,0.534,0.0,0.0,0.0,0.0,0.0,0.0,0.3721220807495334,0.0,0.0,0.0,0.0,0.0,0.0,-14.156,0.0,0.0,0.0
69,0.0,0.0,0.0,0.355421875,0.0,0.0,0.0,0.0,0.0,0.0,0.528,0.0,0.0,0.0,0.0,0.0,0.0,0.3768413185548319,0.0,0.0,0.0,0.0,0.0,0.0,-13.972,0.0,0.0,0.0
70,0.0,0.0,0.0,0.36062890625,0.0,0.0,0.0,0.0,0.0,0.0,0.523,0.0,0.0,0.0,0.0,0.0,0.0,0.38147610387198455,0.0,0.0,0.0,0.0,0.0,0.0,-13.124,0.0,0.0,0.0
71,0.0,0.0,0.0,0.3654111328125,0.0,0.0,0.0,0.0,0.0,0.0,0.509,0.0,0.0,0.0,0.0,0.0,0.0,0.38608164327354116,0.0,0.0,0.0,0.0,0.0,0.0,-12.872,0.0,0.0,0.0
72,0.0,0.0,0.0,0.369751953125,0.0,0.0,0.0,0.0,0.0,0.0,0.461,0.0,0.0,0.0,0.0,0.0,0.0,0.39067061554357296,0.0,0.0,0.0,0.0,0.0,0.0,-12.896,0.0,0.0,0.0
73,0.0,0.0,0.0,0.3743984375,0.0,0.0,0.0,0.0,0.0,0.0,0.449,0.0,0.0,0.0,0.0,0.0,0.0,0.39519625171997774,0.0,0.0,0.0,0.0,0.0,0.0,-13.056,0.0,0.0,0.0
74,0.0,0.0,0.0,0.37902734375,0.0,0.0,0.0,0.0,0.0,0.0,0.463,0.0,0.0,0.0,0.0,0.0,0.0,0.39968433304024314,0.0,0.0,0.0,0.0,0.0,0.0,-13.192,0.0,0.0,0.0
75,0.0,0.0,0.0,0.3838095703125,0.0,0.0,0.0,0.0,0.0,0.0,0.468,0.0,0.0,0.0,0.0,0.0,0.0,0.4041175517809838,0.0,0.0,0.0,0.0,0.0,0.0,-13.012,0.0,0.0,0.0
76,0.0,0.0,0.0,0.3887275390625,0.0,0.0,0.0,0.0,0.0,0.0,0.49,0.0,0.0,0.0,0.0,0.0,0.0,0.40859592663710825,0.0,0.0,0.0,0.0,0.0,0.0,-13.124,0.0,0.0,0.0
77,0.0,0.0,0.0,0.39294140625,0.0,0.0,0.0,0.0,0.0,0.0,0.469,0.0,0.0,0.0,0.0,0.0,0.0,0.4129134271761789,0.0,0.0,0.0,0.0,0.0,0.0,-13.924,0.0,0.0,0.0
78,0.0,0.0,0.0,0.3971376953125,0.0,0.0,0.0,0.0,0.0,0.0,0.409,0.0,0.0,0.0,0.0,0.0,0.0,0.417260079480473,0.0,0.0,0.0,0.0,0.0,0.0,-13.376,0.0,0.0,0.0
79,0.0,0.0,0.0,0.401919921875,0.0,0.0,0.0,0.0,0.0,0.0,0.452,0.0,0.0,0.0,0.0,0.0,0.0,0.421545186691311,0.0,0.0,0.0,0.0,0.0,0.0,-13.104,0.0,0.0,0.0
80,0.0,0.0,0.0,0.4062607421875,0.0,0.0,0.0,0.0,0.0,0.0,0.475,0.0,0.0,0.0,0.0,0.0,0.0,0.42575942200630773,0.0,0.0,0.0,0.0,0.0,0.0,-13.72,0.0,0.0,0.0
81,0.0,0.0,0.0,0.4101767578125,0.0,0.0,0.0,0.0,0.0,0.0,0.419,0.0,0.0,0.0,0.0,0.0,0.0,0.4300276493028249,0.0,0.0,0.0,0.0,0.0,0.0,-14.656,0.0,0.0,0.0
82,0.0,0.0,0.0,0.4143720703125,0.0,0.0,0.0,0.0,0.0,0.0,0.398,0.0,0.0,0.0,0.0,0.0,0.0,0.4341878172246396,0.0,0.0,0.0,0.0,0.0,0.0,-14.384,0.0,0.0,0.0
83,0.0,0.0,0.0,0.419443359375,0.0,0.0,0.0,0.0,0.0,0.0,0.457,0.0,0.0,0.0,0.0,0.0,0.0,0.43836234914864636,0.0,0.0,0.0,0.0,0.0,0.0,-13.356,0.0,0.0,0.0
84,0.0,0.0,0.0,0.4236396484375,0.0,0.0,0.0,0.0,0.0,0.0,0.476,0.0,0.0,0.0,0.0,0.0,0.0,0.4423540609405358,0.0,0.0,0.0,0.0,0.0,0.0,-12.644,0.0,0.0,0.0
85,0.0,0.0,0.0,0.427853515625,0.0,0.0,0.0,0.0,0.0,0.0,0.418,0.0,0.0,0.0,0.0,0.0,0.0,0.4464549379398055,0.0,0.0,0.0,0.0,0.0,0.0,-11.868,0.0,0.0,0.0
86,0.0,0.0,0.0,0.432193359375,0.0,0.0,0.0,0.0,0.0,0.0,0.431,0.0,0.0,0.0,0.0,0.0,0.0,0.4503934739066283,0.0,0.0,0.0,0.0,0.0,0.0,-12.692,0.0,0.0,0.0
87,0.0,0.0,0.0,0.4363896484375,0.0,0.0,0.0,0.0,0.0,0.0,0.433,0.0,0.0,0.0,0.0,0.0,0.0,0.45430056647855177,0.0,0.0,0.0,0.0,0.0,0.0,-13.124,0.0,0.0,0.0
88,0.0,0.0,0.0,0.4400078125,0.0,0.0,0.0,0.0,0.0,0.0,0.401,0.0,0.0,0.0,0.0,0.0,0.0,0.45819590585238634,0.0,0.0,0.0,0.0,0.0,0.0,-13.516,0.0,0.0,0.0
89,0.0,0.0,0.0,0.4434814453125,0.0,0.0,0.0,0.0,0.0,0.0,0.342,0.0,0.0,0.0,0.0,0.0,0.0,0.46206005573958353,0.0,0.0,0.0,0.0,0.0,0.0,-12.072,0.0,0.0,0.0
90,0.0,0.0,0.0,0.4479755859375,0.0,0.0,0.0,0.0,0.0,0.0,0.396,0.0,0.0,0.0,0.0,0.0,0.0,0.46585955585989286,0.0,0.0,0.0,0.0,0.0,0.0,-12.188,0.0,0.0,0.0
91,0.0,0.0,0.0,0.45173828125,0.0,0.0,0.0,0.0,0.0,0.0,0.423,0.0,0.0,0.0,0.0,0.0,0.0,0.4696569275604909,0.0,0.0,0.0,0.0,0.0,0.0,-12.508,0.0,0.0,0.0
92,0.0,0.0,0.0,0.4555009765625,0.0,0.0,0.0,0.0,0.0,0.0,0.379,0.0,0.0,0.0,0.0,0.0,0.0,0.47335623409933747,0.0,0.0,0.0,0.0,0.0,0.0,-12.692,0.0,0.0,0.0
93,0.0,0.0,0.0,0.458974609375,0.0,0.0,0.0,0.0,0.0,0.0,0.377,0.0,0.0,0.0,0.0,0.0,0.0,0.47702124488159875,0.0,0.0,0.0,0.0,0.0,0.0,-13.856,0.0,0.0,0.0
94,0.0,0.0,0.0,0.4628818359375,0.0,0.0,0.0,0.0,0.0,0.0,0.353,0.0,0.0,0.0,0.0,0.0,0.0,0.4812319308796104,0.0,0.0,0.0,0.0,0.0,0.0,-13.012,0.0,0.0,0.0
95,0.0,0.0,0.0,0.4668076171875,0.0,0.0,0.0,0.0,0.0,0.0,0.399,0.0,0.0,0.0,0.0,0.0,0.0,0.48415138862222884,0.0,0.0,0.0,0.0,0.0,0.0,-13.4,0.0,0.0,0.0
96,0.0,0.0,0.0,0.4697041015625,0.0,0.0,0.0,0.0,0.0,0.0,0.348,0.0,0.0,0.0,0.0,0.0,0.0,0.48769409145318215,0.0,0.0,0.0,0.0,0.0,0.0,-13.72,0.0,0.0,0.0
97,0.0,0.0,0.0,0.473466796875,0.0,0.0,0.0,0.0,0.0,0.0,0.321,0.0,0.0,0.0,0.0,0.0,0.0,0.49121227285350655,0.0,0.0,0.0,0.0,0.0,0.0,-13.924,0.0,0.0,0.0
98,0.0,0.0,0.0,0.477662109375,0.0,0.0,0.0,0.0,0.0,0.0,0.398,0.0,0.0,0.0,0.0,0.0,0.0,0.49463754417134764,0.0,0.0,0.0,0.0,0.0,0.0,-13.652,0.0,0.0,0.0
99,0.0,0.0,0.0,0.48128125,0.0,0.0,0.0,0.0,0.0,0.0,0.407,0.0,0.0,0.0,0.0,0.0,0.0,0.4979438794488691,0.0,0.0,0.0,0.0,0.0,0.0,-13.376,0.0,0.0,0.0
100,0.0,0.0,0.0,0.484322265625,0.0,0.0,0.0,0.0,0.0,0.0,0.341,0.0,0.0,0.0,0.0,0.0,0.0,0.5013366114471647,0.0,0.0,0.0,0.0,0.0,0.0,-13.056,0.0,0.0,0.0
101,0.0,0.0,0.0,0.48766015625,0.0,0.0,0.0,0.0,0.0,0.0,0.306,0.0,0.0,0.0,0.0,0.0,0.0,0.5045516780057605,0.0,0.0,0.0,0.0,0.0,0.0,-12.14,0.0,0.0,0.0
102,0.0,0.0,0.0,0.491134765625,0.0,0.0,0.0,0.0,0.0,0.0,0.35,0.0,0.0,0.0,0.0,0.0,0.0,0.5077896627852329,0.0,0.0,0.0,0.0,0.0,0.0,-11.96,0.0,0.0,0.0
103,0.0,0.0,0.0,0.4943193359375,0.0,0.0,0.0,0.0,0.0,0.0,0.342,0.0,0.0,0.0,0.0,0.0,0.0,0.5109647273985469,0.0,0.0,0.0,0.0,0.0,0.0,-12.232,0.0,0.0,0.0
104,0.0,0.0,0.0,0.4976494140625,0.0,0.0,0.0,0.0,0.0,0.0,0.321,0.0,0.0,0.0,0.0,0.0,0.0,0.5140637669422314,0.0,0.0,0.0,0.0,0.0,0.0,-11.892,0.0,0.0,0.0
105,0.0,0.0,0.0,0.5009794921875,0.0,0.0,0.0,0.0,0.0,0.0,0.338,0.0,0.0,0.0,0.0,0.0,0.0,0.5171324626107519,0.0,0.0,0.0,0.0,0.0,0.0,-12.052,0.0,0.0,0.0
106,0.0,0.0,0.0,0.50401953125,0.0,0.0,0.0,0.0,0.0,0.0,0.317,0.0,0.0,0.0,0.0,0.0,0.0,0.5201716099751919,0.0,0.0,0.0,0.0,0.0,0.0,-12.532,0.0,0.0,0.0
107,0.0,0.0,0.0,0.50692578125,0.0,0.0,0.0,0.0,0.0,0.0,0.302,0.0,0.0,0.0,0.0,0.0,0.0,0.5231317586003201,0.0,0.0,0.0,0.0,0.0,0.0,-12.624,0.0,0.0,0.0
108,0.0,0.0,0.0,0.5101103515625,0.0,0.0,0.0,0.0,0.0,0.0,0.305,0.0,0.0,0.0,0.0,0.0,0.0,0.5260331362944536,0.0,0.0,0.0,0.0,0.0,0.0,-11.868,0.0,0.0,0.0
109,0.0,0.0,0.0,0.5131513671875,0.0,0.0,0.0,0.0,0.0,0.0,0.319,0.0,0.0,0.0,0.0,0.0,0.0,0.528907765129463,0.0,0.0,0.0,0.0,0.0,0.0,-12.372,0.0,0.0,0.0
110,0.0,0.0,0.0,0.5161923828125,0.0,0.0,0.0,0.0,0.0,0.0,0.296,0.0,0.0,0.0,0.0,0.0,0.0,0.5317392804208113,0.0,0.0,0.0,0.0,0.0,0.0,-12.348,0.0,0.0,0.0
111,0.0,0.0,0.0,0.5193779296875,0.0,0.0,0.0,0.0,0.0,0.0,0.316,0.0,0.0,0.0,0.0,0.0,0.0,0.5344478888064864,0.0,0.0,0.0,0.0,0.0,0.0,-12.348,0.0,0.0,0.0
112,0.0,0.0,0.0,0.522265625,0.0,0.0,0.0,0.0,0.0,0.0,0.307,0.0,0.0,0.0,0.0,0.0,0.0,0.5371561525629053,0.0,0.0,0.0,0.0,0.0,0.0,-12.372,0.0,0.0,0.0
113,0.0,0.0,0.0,0.5251708984375,0.0,0.0,0.0,0.0,0.0,0.0,0.291,0.0,0.0,0.0,0.0,0.0,0.0,0.5398093164265393,0.0,0.0,0.0,0.0,0.0,0.0,-12.508,0.0,0.0,0.0
114,0.0,0.0,0.0,0.5277783203125,0.0,0.0,0.0,0.0,0.0,0.0,0.281,0.0,0.0,0.0,0.0,0.0,0.0,0.5424113378424849,0.0,0.0,0.0,0.0,0.0,0.0,-12.6,0.0,0.0,0.0
115,0.0,0.0,0.0,0.5308193359375,0.0,0.0,0.0,0.0,0.0,0.0,0.276,0.0,0.0,0.0,0.0,0.0,0.0,0.5449239846476929,0.0,0.0,0.0,0.0,0.0,0.0,-12.552,0.0,0.0,0.0
116,0.0,0.0,0.0,0.5338603515625,0.0,0.0,0.0,0.0,0.0,0.0,0.311,0.0,0.0,0.0,0.0,0.0,0.0,0.5474272695382615,0.0,0.0,0.0,0.0,0.0,0.0,-13.584,0.0,0.0,0.0
117,0.0,0.0,0.0,0.5364677734375,0.0,0.0,0.0,0.0,0.0,0.0,0.282,0.0,0.0,0.0,0.0,0.0,0.0,0.5498345236177079,0.0,0.0,0.0,0.0,0.0,0.0,-13.536,0.0,0.0,0.0
118,0.0,0.0,0.0,0.5393642578125,0.0,0.0,0.0,0.0,0.0,0.0,0.279,0.0,0.0,0.0,0.0,0.0,0.0,0.5522451126323871,0.0,0.0,0.0,0.0,0.0,0.0,-13.584,0.0,0.0,0.0
119,0.0,0.0,0.0,0.5419638671875,0.0,0.0,0.0,0.0,0.0,0.0,0.272,0.0,0.0,0.0,0.0,0.0,0.0,0.5545373197754091,0.0,0.0,0.0,0.0,0.0,0.0,-12.644,0.0,0.0,0.0
120,0.0,0.0,0.0,0.544724609375,0.0,0.0,0.0,0.0,0.0,0.0,0.277,0.0,0.0,0.0,0.0,0.0,0.0,0.5567942973278613,0.0,0.0,0.0,0.0,0.0,0.0,-12.668,0.0,0.0,0.0
121,0.0,0.0,0.0,0.5468994140625,0.0,0.0,0.0,0.0,0.0,0.0,0.249,0.0,0.0,0.0,0.0,0.0,0.0,0.559008381953827,0.0,0.0,0.0,0.0,0.0,0.0,-12.44,0.0,0.0,0.0
122,0.0,0.0,0.0,0.5495068359375,0.0,0.0,0.0,0.0,0.0,0.0,0.227,0.0,0.0,0.0,0.0,0.0,0.0,0.5611821363134818,0.0,0.0,0.0,0.0,0.0,0.0,-11.572,0.0,0.0,0.0
123,0.0,0.0,0.0,0.5519609375,0.0,0.0,0.0,0.0,0.0,0.0,0.27,0.0,0.0,0.0,0.0,0.0,0.0,0.5632630728388902,0.0,0.0,0.0,0.0,0.0,0.0,-12.28,0.0,0.0,0.0
124,0.0,0.0,0.0,0.55384765625,0.0,0.0,0.0,0.0,0.0,0.0,0.215,0.0,0.0,0.0,0.0,0.0,0.0,0.5652977003493772,0.0,0.0,0.0,0.0,0.0,0.0,-12.188,0.0,0.0,0.0
125,0.0,0.0,0.0,0.5558681640625,0.0,0.0,0.0,0.0,0.0,0.0,0.193,0.0,0.0,0.0,0.0,0.0,0.0,0.5672983161578621,0.0,0.0,0.0,0.0,0.0,0.0,-12.096,0.0,0.0,0.0
126,0.0,0.0,0.0,0.5578984375,0.0,0.0,0.0,0.0,0.0,0.0,0.204,0.0,0.0,0.0,0.0,0.0,0.0,0.569204157527374,0.0,0.0,0.0,0.0,0.0,0.0,-12.12,0.0,0.0,0.0
127,0.0,0.0,0.0,0.55978515625,0.0,0.0,0.0,0.0,0.0,0.0,0.197,0.0,0.0,0.0,0.0,0.0,0.0,0.5710774178843938,0.0,0.0,0.0,0.0,0.0,0.0,-12.552,0.0,0.0,0.0
128,0.0,0.0,0.0,0.561517578125,0.0,0.0,0.0,0.0,0.0,0.0,0.183,0.0,0.0,0.0,0.0,0.0,0.0,0.572920255190034,0.0,0.0,0.0,0.0,0.0,0.0,-11.892,0.0,0.0,0.0
129,0.0,0.0,0.0,0.563556640625,0.0,0.0,0.0,0.0,0.0,0.0,0.197,0.0,0.0,0.0,0.0,0.0,0.0,0.5746463421735132,0.0,0.0,0.0,0.0,0.0,0.0,-12.004,0.0,0.0,0.0
130,0.0,0.0,0.0,0.56514453125,0.0,0.0,0.0,0.0,0.0,0.0,0.179,0.0,0.0,0.0,0.0,0.0,0.0,0.5763455012749045,0.0,0.0,0.0,0.0,0.0,0.0,-11.732,0.0,0.0,0.0
131,0.0,0.0,0.0,0.5673193359375,0.0,0.0,0.0,0.0,0.0,0.0,0.192,0.0,0.0,0.0,0.0,0.0,0.0,0.5780079479303536,0.0,0.0,0.0,0.0,0.0,0.0,-12.164,0.0,0.0,0.0
132,0.0,0.0,0.0,0.5689072265625,0.0,0.0,0.0,0.0,0.0,0.0,0.194,0.0,0.0,0.0,0.0,0.0,0.0,0.5795716686756835,0.0,0.0,0.0,0.0,0.0,0.0,-12.372,0.0,0.0,0.0
133,0.0,0.0,0.0,0.5723818359375,0.0,0.0,0.0,0.0,0.0,0.0,0.185,0.0,0.0,0.0,0.0,0.0,0.0,0.5823209598455488,0.0,0.0,0.0,0.0,0.0,0.0,-12.188,0.0,0.0,0.0
134,0.0,0.0,0.0,0.5752783203125,0.0,0.0,0.0,0.0,0.0,0.0,0.156,0.0,0.0,0.0,0.0,0.0,0.0,0.5848487196758558,0.0,0.0,0.0,0.0,0.0,0.0,-11.98,0.0,0.0,0.0
135,0.0,0.0,0.0,0.5752783203125,0.0,0.0,0.0,0.0,0.0,0.0,0.156,0.0,0.0,0.0,0.0,0.0,0.0,0.5857344378423176,0.0,0.0,0.0,0.0,0.0,0.0,-11.98,0.0,0.0,0.0
136,0.0,0.0,0.0,0.57673046875,0.0,0.0,0.0,0.0,0.0,0.0,0.136,0.0,0.0,0.0,0.0,0.0,0.0,0.5877764800654889,0.0,0.0,0.0,0.0,0.0,0.0,-11.252,0.0,0.0,0.0
137,0.0,0.0,0.0,0.5796181640625,0.0,0.0,0.0,0.0,0.0,0.0,0.14,0.0,0.0,0.0,0.0,0.0,0.0,0.5886780526354473,0.0,0.0,0.0,0.0,0.0,0.0,-11.204,0.0,0.0,0.0
138,0.0,0.0,0.0,0.5812158203125,0.0,0.0,0.0,0.0,0.0,0.0,0.149,0.0,0.0,0.0,0.0,0.0,0.0,0.589682101505175,0.0,0.0,0.0,0.0,0.0,0.0,-11.936,0.0,0.0,0.0
139,0.0,0.0,0.0,0.5812158203125,0.0,0.0,0.0,0.0,0.0,0.0,0.149,0.0,0.0,0.0,0.0,0.0,0.0,0.5904632475921459,0.0,0.0,0.0,0.0,0.0,0.0,-11.936,0.0,0.0,0.0
140,0.0,0.0,0.0,0.58237890625,0.0,0.0,0.0,0.0,0.0,0.0,0.132,0.0,0.0,0.0,0.0,0.0,0.0,0.5913598696520088,0.0,0.0,0.0,0.0,0.0,0.0,-11.34,0.0,0.0,0.0
141,0.0,0.0,0.0,0.5839765625,0.0,0.0,0.0,0.0,0.0,0.0,0.142,0.0,0.0,0.0,0.0,0.0,0.0,0.592111713023396,0.0,0.0,0.0,0.0,0.0,0.0,-11.892,0.0,0.0,0.0
142,0.0,0.0,0.0,0.5849873046875,0.0,0.0,0.0,0.0,0.0,0.0,0.141,0.0,0.0,0.0,0.0,0.0,0.0,0.5929818116752186,0.0,0.0,0.0,0.0,0.0,0.0,-11.844,0.0,0.0,0.0
143,0.0,0.0,0.0,0.5849873046875,0.0,0.0,0.0,0.0,0.0,0.0,0.141,0.0,0.0,0.0,0.0,0.0,0.0,0.5935915338688801,0.0,0.0,0.0,0.0,0.0,0.0,-11.844,0.0,0.0,0.0
144,0.0,0.0,0.0,0.5849873046875,0.0,0.0,0.0,0.0,0.0,0.0,0.141,0.0,0.0,0.0,0.0,0.0,0.0,0.5941226138884566,0.0,0.0,0.0,0.0,0.0,0.0,-11.844,0.0,0.0,0.0
145,0.0,0.0,0.0,0.5877392578125,0.0,0.0,0.0,0.0,0.0,0.0,0.144,0.0,0.0,0.0,0.0,0.0,0.0,0.5949808103823531,0.0,0.0,0.0,0.0,0.0,0.0,-12.14,0.0,0.0,0.0
146,0.0,0.0,0.0,0.5890390625,0.0,0.0,0.0,0.0,0.0,0.0,0.127,0.0,0.0,0.0,0.0,0.0,0.0,0.5955594262694666,0.0,0.0,0.0,0.0,0.0,0.0,-12.14,0.0,0.0,0.0
147,0.0,0.0,0.0,0.590193359375,0.0,0.0,0.0,0.0,0.0,0.0,0.121,0.0,0.0,0.0,0.0,0.0,0.0,0.5962636839375023,0.0,0.0,0.0,0.0,0.0,0.0,-12.76,0.0,0.0,0.0
148,0.0,0.0,0.0,0.5909248046875,0.0,0.0,0.0,0.0,0.0,0.0,0.101,0.0,0.0,0.0,0.0,0.0,0.0,0.5968949741594771,0.0,0.0,0.0,0.0,0.0,0.0,-12.624,0.0,0.0,0.0
149,0.0,0.0,0.0,0.591935546875,0.0,0.0,0.0,0.0,0.0,0.0,0.089,0.0,0.0,0.0,0.0,0.0,0.0,0.5974763402282488,0.0,0.0,0.0,0.0,0.0,0.0,-12.896,0.0,0.0,0.0
150,0.0,0.0,0.0,0.5926572265625,0.0,0.0,0.0,0.0,0.0,0.0,0.088,0.0,0.0,0.0,0.0,0.0,0.0,0.5979986853661612,0.0,0.0,0.0,0.0,0.0,0.0,-12.668,0.0,0.0,0.0
151,0.0,0.0,0.0,0.5935234375,0.0,0.0,0.0,0.0,0.0,0.0,0.077,0.0,0.0,0.0,0.0,0.0,0.0,0.5985701419591327,0.0,0.0,0.0,0.0,0.0,0.0,-12.944,0.0,0.0,0.0
152,0.0,0.0,0.0,0.594109375,0.0,0.0,0.0,0.0,0.0,0.0,0.069,0.0,0.0,0.0,0.0,0.0,0.0,0.598880775428927,0.0,0.0,0.0,0.0,0.0,0.0,-13.056,0.0,0.0,0.0
153,0.0,0.0,0.0,0.5946875,0.0,0.0,0.0,0.0,0.0,0.0,0.061,0.0,0.0,0.0,0.0,0.0,0.0,0.5992332598296488,0.0,0.0,0.0,0.0,0.0,0.0,-13.192,0.0,0.0,0.0
154,0.0,0.0,0.0,0.5951201171875,0.0,0.0,0.0,0.0,0.0,0.0,0.057,0.0,0.0,0.0,0.0,0.0,0.0,0.5994797028209793,0.0,0.0,0.0,0.0,0.0,0.0,-13.264,0.0,0.0,0.0
155,0.0,0.0,0.0,0.5954091796875,0.0,0.0,0.0,0.0,0.0,0.0,0.036,0.0,0.0,0.0,0.0,0.0,0.0,0.5996970289094463,0.0,0.0,0.0,0.0,0.0,0.0,-13.124,0.0,0.0,0.0
156,0.0,0.0,0.0,0.5954091796875,0.0,0.0,0.0,0.0,0.0,0.0,0.036,0.0,0.0,0.0,0.0,0.0,0.0,0.5998608631684403,0.0,0.0,0.0,0.0,0.0,0.0,-13.124,0.0,0.0,0.0
157,0.0,0.0,0.0,0.595986328125,0.0,0.0,0.0,0.0,0.0,0.0,0.029,0.0,0.0,0.0,0.0,0.0,0.0,0.5999583743163813,0.0,0.0,0.0,0.0,0.0,0.0,-12.944,0.0,0.0,0.0
158,0.0,0.0,0.0,0.596275390625,0.0,0.0,0.0,0.0,0.0,0.0,0.028,0.0,0.0,0.0,0.0,0.0,0.0,0.5999990190785262,0.0,0.0,0.0,0.0,0.0,0.0,-12.828,0.0,0.0,0.0
159,0.0,0.0,0.0,0.596419921875,0.0,0.0,0.0,0.0,0.0,0.0,0.024,0.0,0.0,0.0,0.0,0.0,0.0,0.5999795427855243,0.0,0.0,0.0,0.0,0.0,0.0,-12.964,0.0,0.0,0.0
160,0.0,0.0,0.0,0.596564453125,0.0,0.0,0.0,0.0,0.0,0.0,0.015,0.0,0.0,0.0,0.0,0.0,0.0,0.5998992531037163,0.0,0.0,0.0,0.0,0.0,0.0,-13.012,0.0,0.0,0.0
161,0.0,0.0,0.0,0.596419921875,0.0,0.0,0.0,0.0,0.0,0.0,0.003,0.0,0.0,0.0,0.0,0.0,0.0,0.5997591581777675,0.0,0.0,0.0,0.0,0.0,0.0,-12.92,0.0,0.0,0.0
162,0.0,0.0,0.0,0.596419921875,0.0,0.0,0.0,0.0,0.0,0.0,-0.011,0.0,0.0,0.0,0.0,0.0,0.0,0.5995610277796878,0.0,0.0,0.0,0.0,0.0,0.0,-12.712,0.0,0.0,0.0
163,0.0,0.0,0.0,0.596419921875,0.0,0.0,0.0,0.0,0.0,0.0,-0.002,0.0,0.0,0.0,0.0,0.0,0.0,0.5992314559419155,0.0,0.0,0.0,0.0,0.0,0.0,-12.692,0.0,0.0,0.0
164,0.0,0.0,0.0,0.596419921875,0.0,0.0,0.0,0.0,0.0,0.0,-0.001,0.0,0.0,0.0,0.0,0.0,0.0,0.5989820319320408,0.0,0.0,0.0,0.0,0.0,0.0,-12.6,0.0,0.0,0.0
165,0.0,0.0,0.0,0.596275390625,0.0,0.0,0.0,0.0,0.0,0.0,-0.011,0.0,0.0,0.0,0.0,0.0,0.0,0.598601948431094,0.0,0.0,0.0,0.0,0.0,0.0,-12.508,0.0,0.0,0.0
166,0.0,0.0,0.0,0.596275390625,0.0,0.0,0.0,0.0,0.0,0.0,-0.005,0.0,0.0,0.0,0.0,0.0,0.0,0.5981633764863116,0.0,0.0,0.0,0.0,0.0,0.0,-12.484,0.0,0.0,0.0
167,0.0,0.0,0.0,0.596275390625,0.0,0.0,0.0,0.0,0.0,0.0,-0.001,0.0,0.0,0.0,0.0,0.0,0.0,0.5976039535822327,0.0,0.0,0.0,0.0,0.0,0.0,-12.484,0.0,0.0,0.0
168,0.0,0.0,0.0,0.596275390625,0.0,0.0,0.0,0.0,0.0,0.0,-0.001,0.0,0.0,0.0,0.0,0.0,0.0,0.5971091272212152,0.0,0.0,0.0,0.0,0.0,0.0,-12.348,0.0,0.0,0.0
169,0.0,0.0,0.0,0.596275390625,0.0,0.0,0.0,0.0,0.0,0.0,-0.001,0.0,0.0,0.0,0.0,0.0,0.0,0.5964734347584777,0.0,0.0,0.0,0.0,0.0,0.0,-12.372,0.0,0.0,0.0
170,0.0,0.0,0.0,0.596275390625,0.0,0.0,0.0,0.0,0.0,0.0,-0.001,0.0,0.0,0.0,0.0,0.0,0.0,0.5958082922207543,0.0,0.0,0.0,0.0,0.0,0.0,-12.508,0.0,0.0,0.0
171,0.0,0.0,0.0,0.596275390625,0.0,0.0,0.0,0.0,0.0,0.0,-0.001,0.0,0.0,0.0,0.0,0.0,0.0,0.5944699378192964,0.0,0.0,0.0,0.0,0.0,0.0,-12.532,0.0,0.0,0.0
172,0.0,0.0,0.0,0.596275390625,0.0,0.0,0.0,0.0,0.0,0.0,-0.001,0.0,0.0,0.0,0.0,0.0,0.0,0.5937721333435059,0.0,0.0,0.0,0.0,0.0,0.0,-12.6,0.0,0.0,0.0
173,0.0,0.0,0.0,0.596275390625,0.0,0.0,0.0,0.0,0.0,0.0,-0.001,0.0,0.0,0.0,0.0,0.0,0.0,0.5931055841063576,0.0,0.0,0.0,0.0,0.0,0.0,-12.6,0.0,0.0,0.0
174,0.0,0.0,0.0,0.596275390625,0.0,0.0,0.0,0.0,0.0,0.0,-0.001,0.0,0.0,0.0,0.0,0.0,0.0,0.5920648636646175,0.0,0.0,0.0,0.0,0.0,0.0,-12.736,0.0,0.0,0.0
175,0.0,0.0,0.0,0.5958427734375,0.0,0.0,0.0,0.0,0.0,0.0,-0.016,0.0,0.0,0.0,0.0,0.0,0.0,0.5912386650016406,0.0,0.0,0.0,0.0,0.0,0.0,-13.812,0.0,0.0,0.0
176,0.0,0.0,0.0,0.59483203125,0.0,0.0,0.0,0.0,0.0,0.0,-0.073,0.0,0.0,0.0,0.0,0.0,0.0,0.5905034357765028,0.0,0.0,0.0,0.0,0.0,0.0,-13.856,0.0,0.0,0.0
177,0.0,0.0,0.0,0.594109375,0.0,0.0,0.0,0.0,0.0,0.0,-0.092,0.0,0.0,0.0,0.0,0.0,0.0,0.5893940246665655,0.0,0.0,0.0,0.0,0.0,0.0,-13.676,0.0,0.0,0.0
178,0.0,0.0,0.0,0.59308984375,0.0,0.0,0.0,0.0,0.0,0.0,-0.083,0.0,0.0,0.0,0.0,0.0,0.0,0.5882275826395978,0.0,0.0,0.0,0.0,0.0,0.0,-13.836,0.0,0.0,0.0
179,0.0,0.0,0.0,0.591935546875,0.0,0.0,0.0,0.0,0.0,0.0,-0.116,0.0,0.0,0.0,0.0,0.0,0.0,0.5865687815659365,0.0,0.0,0.0,0.0,0.0,0.0,-13.492,0.0,0.0,0.0
180,0.0,0.0,0.0,0.590048828125,0.0,0.0,0.0,0.0,0.0,0.0,-0.087,0.0,0.0,0.0,0.0,0.0,0.0,0.5849927575669914,0.0,0.0,0.0,0.0,0.0,0.0,-13.696,0.0,0.0,0.0
181,0.0,0.0,0.0,0.590048828125,0.0,0.0,0.0,0.0,0.0,0.0,-0.087,0.0,0.0,0.0,0.0,0.0,0.0,0.5841733198343045,0.0,0.0,0.0,0.0,0.0,0.0,-13.696,0.0,0.0,0.0
182,0.0,0.0,0.0,0.58875,0.0,0.0,0.0,0.0,0.0,0.0,-0.122,0.0,0.0,0.0,0.0,0.0,0.0,0.5830544929300491,0.0,0.0,0.0,0.0,0.0,0.0,-13.788,0.0,0.0,0.0
183,0.0,0.0,0.0,0.587306640625,0.0,0.0,0.0,0.0,0.0,0.0,-0.136,0.0,0.0,0.0,0.0,0.0,0.0,0.5816159763985408,0.0,0.0,0.0,0.0,0.0,0.0,-13.972,0.0,0.0,0.0
184,0.0,0.0,0.0,0.585419921875,0.0,0.0,0.0,0.0,0.0,0.0,-0.161,0.0,0.0,0.0,0.0,0.0,0.0,0.5801039951773325,0.0,0.0,0.0,0.0,0.0,0.0,-13.376,0.0,0.0,0.0
185,0.0,0.0,0.0,0.5839765625,0.0,0.0,0.0,0.0,0.0,0.0,-0.173,0.0,0.0,0.0,0.0,0.0,0.0,0.5785508326752682,0.0,0.0,0.0,0.0,0.0,0.0,-12.804,0.0,0.0,0.0
186,0.0,0.0,0.0,0.5825234375,0.0,0.0,0.0,0.0,0.0,0.0,-0.143,0.0,0.0,0.0,0.0,0.0,0.0,0.5769146707794209,0.0,0.0,0.0,0.0,0.0,0.0,-12.624,0.0,0.0,0.0
187,0.0,0.0,0.0,0.5806376953125,0.0,0.0,0.0,0.0,0.0,0.0,-0.157,0.0,0.0,0.0,0.0,0.0,0.0,0.5752474612873919,0.0,0.0,0.0,0.0,0.0,0.0,-13.148,0.0,0.0,0.0
188,0.0,0.0,0.0,0.578607421875,0.0,0.0,0.0,0.0,0.0,0.0,-0.206,0.0,0.0,0.0,0.0,0.0,0.0,0.573530412842568,0.0,0.0,0.0,0.0,0.0,0.0,-12.92,0.0,0.0,0.0
189,0.0,0.0,0.0,0.576875,0.0,0.0,0.0,0.0,0.0,0.0,-0.193,0.0,0.0,0.0,0.0,0.0,0.0,0.5717207295524672,0.0,0.0,0.0,0.0,0.0,0.0,-12.872,0.0,0.0,0.0
190,0.0,0.0,0.0,0.576875,0.0,0.0,0.0,0.0,0.0,0.0,-0.193,0.0,0.0,0.0,0.0,0.0,0.0,0.5698709225412693,0.0,0.0,0.0,0.0,0.0,0.0,-12.872,0.0,0.0,0.0
191,0.0,0.0,0.0,0.572958984375,0.0,0.0,0.0,0.0,0.0,0.0,-0.199,0.0,0.0,0.0,0.0,0.0,0.0,0.5679845452960512,0.0,0.0,0.0,0.0,0.0,0.0,-12.052,0.0,0.0,0.0
192,0.0,0.0,0.0,0.5709375,0.0,0.0,0.0,0.0,0.0,0.0,-0.19,0.0,0.0,0.0,0.0,0.0,0.0,0.566011096212641,0.0,0.0,0.0,0.0,0.0,0.0,-12.256,0.0,0.0,0.0
193,0.0,0.0,0.0,0.5690517578125,0.0,0.0,0.0,0.0,0.0,0.0,-0.2,0.0,0.0,0.0,0.0,0.0,0.0,0.5639779587700351,0.0,0.0,0.0,0.0,0.0,0.0,-12.256,0.0,0.0,0.0
194,0.0,0.0,0.0,0.5670302734375,0.0,0.0,0.0,0.0,0.0,0.0,-0.197,0.0,0.0,0.0,0.0,0.0,0.0,0.5618981293472431,0.0,0.0,0.0,0.0,0.0,0.0,-12.416,0.0,0.0,0.0
195,0.0,0.0,0.0,0.5647119140625,0.0,0.0,0.0,0.0,0.0,0.0,-0.211,0.0,0.0,0.0,0.0,0.0,0.0,0.5597912998922415,0.0,0.0,0.0,0.0,0.0,0.0,-12.232,0.0,0.0,0.0
196,0.0,0.0,0.0,0.562537109375,0.0,0.0,0.0,0.0,0.0,0.0,-0.229,0.0,0.0,0.0,0.0,0.0,0.0,0.5575843728603103,0.0,0.0,0.0,0.0,0.0,0.0,-11.82,0.0,0.0,0.0
197,0.0,0.0,0.0,0.5602177734375,0.0,0.0,0.0,0.0,0.0,0.0,-0.228,0.0,0.0,0.0,0.0,0.0,0.0,0.5553576921074354,0.0,0.0,0.0,0.0,0.0,0.0,-11.98,0.0,0.0,0.0
198,0.0,0.0,0.0,0.55804296875,0.0,0.0,0.0,0.0,0.0,0.0,-0.227,0.0,0.0,0.0,0.0,0.0,0.0,0.5530551727173181,0.0,0.0,0.0,0.0,0.0,0.0,-12.188,0.0,0.0,0.0
199,0.0,0.0,0.0,0.5558681640625,0.0,0.0,0.0,0.0,0.0,0.0,-0.215,0.0,0.0,0.0,0.0,0.0,0.0,0.5506721817997777,0.0,0.0,0.0,0.0,0.0,0.0,-12.324,0.0,0.0,0.0
200,0.0,0.0,0.0,0.55355859375,0.0,0.0,0.0,0.0,0.0,0.0,-0.229,0.0,0.0,0.0,0.0,0.0,0.0,0.5482495243795134,0.0,0.0,0.0,0.0,0.0,0.0,-12.6,0.0,0.0,0.0
201,0.0,0.0,0.0,0.5510947265625,0.0,0.0,0.0,0.0,0.0,0.0,-0.247,0.0,0.0,0.0,0.0,0.0,0.0,0.5458116359018652,0.0,0.0,0.0,0.0,0.0,0.0,-12.508,0.0,0.0,0.0
202,0.0,0.0,0.0,0.5484873046875,0.0,0.0,0.0,0.0,0.0,0.0,-0.254,0.0,0.0,0.0,0.0,0.0,0.0,0.5433033545093544,0.0,0.0,0.0,0.0,0.0,0.0,-12.76,0.0,0.0,0.0
203,0.0,0.0,0.0,0.5458798828125,0.0,0.0,0.0,0.0,0.0,0.0,-0.261,0.0,0.0,0.0,0.0,0.0,0.0,0.5407104509082918,0.0,0.0,0.0,0.0,0.0,0.0,-12.508,0.0,0.0,0.0
204,0.0,0.0,0.0,0.5440029296875,0.0,0.0,0.0,0.0,0.0,0.0,-0.224,0.0,0.0,0.0,0.0,0.0,0.0,0.53811758356587,0.0,0.0,0.0,0.0,0.0,0.0,-12.484,0.0,0.0,0.0
205,0.0,0.0,0.0,0.5418193359375,0.0,0.0,0.0,0.0,0.0,0.0,-0.203,0.0,0.0,0.0,0.0,0.0,0.0,0.5354333837879226,0.0,0.0,0.0,0.0,0.0,0.0,-13.468,0.0,0.0,0.0
206,0.0,0.0,0.0,0.5395087890625,0.0,0.0,0.0,0.0,0.0,0.0,-0.238,0.0,0.0,0.0,0.0,0.0,0.0,0.5326799667240578,0.0,0.0,0.0,0.0,0.0,0.0,-13.332,0.0,0.0,0.0
207,0.0,0.0,0.0,0.5371904296875,0.0,0.0,0.0,0.0,0.0,0.0,-0.226,0.0,0.0,0.0,0.0,0.0,0.0,0.5298945541201897,0.0,0.0,0.0,0.0,0.0,0.0,-13.924,0.0,0.0,0.0
208,0.0,0.0,0.0,0.53458203125,0.0,0.0,0.0,0.0,0.0,0.0,-0.246,0.0,0.0,0.0,0.0,0.0,0.0,0.5270567954594592,0.0,0.0,0.0,0.0,0.0,0.0,-13.104,0.0,0.0,0.0
209,0.0,0.0,0.0,0.532263671875,0.0,0.0,0.0,0.0,0.0,0.0,-0.247,0.0,0.0,0.0,0.0,0.0,0.0,0.5241524545226673,0.0,0.0,0.0,0.0,0.0,0.0,-13.332,0.0,0.0,0.0
210,0.0,0.0,0.0,0.5295205078125,0.0,0.0,0.0,0.0,0.0,0.0,-0.256,0.0,0.0,0.0,0.0,0.0,0.0,0.5212362681445575,0.0,0.0,0.0,0.0,0.0,0.0,-12.964,0.0,0.0,0.0
211,0.0,0.0,0.0,0.527056640625,0.0,0.0,0.0,0.0,0.0,0.0,-0.264,0.0,0.0,0.0,0.0,0.0,0.0,0.5182382244298313,0.0,0.0,0.0,0.0,0.0,0.0,-13.264,0.0,0.0,0.0
212,0.0,0.0,0.0,0.5243046875,0.0,0.0,0.0,0.0,0.0,0.0,-0.258,0.0,0.0,0.0,0.0,0.0,0.0,0.5151376008072016,0.0,0.0,0.0,0.0,0.0,0.0,-13.24,0.0,0.0,0.0
213,0.0,0.0,0.0,0.5215439453125,0.0,0.0,0.0,0.0,0.0,0.0,-0.276,0.0,0.0,0.0,0.0,0.0,0.0,0.5120803821740396,0.0,0.0,0.0,0.0,0.0,0.0,-13.216,0.0,0.0,0.0
214,0.0,0.0,0.0,0.518646484375,0.0,0.0,0.0,0.0,0.0,0.0,-0.286,0.0,0.0,0.0,0.0,0.0,0.0,0.508923181738096,0.0,0.0,0.0,0.0,0.0,0.0,-13.24,0.0,0.0,0.0
215,0.0,0.0,0.0,0.5156064453125,0.0,0.0,0.0,0.0,0.0,0.0,-0.297,0.0,0.0,0.0,0.0,0.0,0.0,0.5056923028740573,0.0,0.0,0.0,0.0,0.0,0.0,-13.584,0.0,0.0,0.0
216,0.0,0.0,0.0,0.5122763671875,0.0,0.0,0.0,0.0,0.0,0.0,-0.316,0.0,0.0,0.0,0.0,0.0,0.0,0.5024080357619024,0.0,0.0,0.0,0.0,0.0,0.0,-13.856,0.0,0.0,0.0
217,0.0,0.0,0.0,0.5090908203125,0.0,0.0,0.0,0.0,0.0,0.0,-0.333,0.0,0.0,0.0,0.0,0.0,0.0,0.49896506622562564,0.0,0.0,0.0,0.0,0.0,0.0,-13.444,0.0,0.0,0.0
218,0.0,0.0,0.0,0.5064921875,0.0,0.0,0.0,0.0,0.0,0.0,-0.302,0.0,0.0,0.0,0.0,0.0,0.0,0.495738829315556,0.0,0.0,0.0,0.0,0.0,0.0,-12.532,0.0,0.0,0.0
219,0.0,0.0,0.0,0.5034423828125,0.0,0.0,0.0,0.0,0.0,0.0,-0.276,0.0,0.0,0.0,0.0,0.0,0.0,0.49238177986458054,0.0,0.0,0.0,0.0,0.0,0.0,-13.332,0.0,0.0,0.0
220,0.0,0.0,0.0,0.49996875,0.0,0.0,0.0,0.0,0.0,0.0,-0.332,0.0,0.0,0.0,0.0,0.0,0.0,0.4887086070572508,0.0,0.0,0.0,0.0,0.0,0.0,-12.508,0.0,0.0,0.0
221,0.0,0.0,0.0,0.497072265625,0.0,0.0,0.0,0.0,0.0,0.0,-0.318,0.0,0.0,0.0,0.0,0.0,0.0,0.48544225083750897,0.0,0.0,0.0,0.0,0.0,0.0,-13.264,0.0,0.0,0.0
222,0.0,0.0,0.0,0.4930205078125,0.0,0.0,0.0,0.0,0.0,0.0,-0.34,0.0,0.0,0.0,0.0,0.0,0.0,0.4818917708239511,0.0,0.0,0.0,0.0,0.0,0.0,-13.444,0.0,0.0,0.0
223,0.0,0.0,0.0,0.489546875,0.0,0.0,0.0,0.0,0.0,0.0,-0.388,0.0,0.0,0.0,0.0,0.0,0.0,0.47830027079573645,0.0,0.0,0.0,0.0,0.0,0.0,-12.944,0.0,0.0,0.0
224,0.0,0.0,0.0,0.4857744140625,0.0,0.0,0.0,0.0,0.0,0.0,-0.352,0.0,0.0,0.0,0.0,0.0,0.0,0.4746179009817711,0.0,0.0,0.0,0.0,0.0,0.0,-13.72,0.0,0.0,0.0
225,0.0,0.0,0.0,0.4815693359375,0.0,0.0,0.0,0.0,0.0,0.0,-0.416,0.0,0.0,0.0,0.0,0.0,0.0,0.4709748891791335,0.0,0.0,0.0,0.0,0.0,0.0,-13.4,0.0,0.0,0.0
226,0.0,0.0,0.0,0.478529296875,0.0,0.0,0.0,0.0,0.0,0.0,-0.369,0.0,0.0,0.0,0.0,0.0,0.0,0.46721041966152926,0.0,0.0,0.0,0.0,0.0,0.0,-12.804,0.0,0.0,0.0
227,0.0,0.0,0.0,0.47534375,0.0,0.0,0.0,0.0,0.0,0.0,-0.294,0.0,0.0,0.0,0.0,0.0,0.0,0.4634009113083031,0.0,0.0,0.0,0.0,0.0,0.0,-14.156,0.0,0.0,0.0
228,0.0,0.0,0.0,0.4711474609375,0.0,0.0,0.0,0.0,0.0,0.0,-0.381,0.0,0.0,0.0,0.0,0.0,0.0,0.45962205923773947,0.0,0.0,0.0,0.0,0.0,0.0,-13.924,0.0,0.0,0.0
229,0.0,0.0,0.0,0.467673828125,0.0,0.0,0.0,0.0,0.0,0.0,-0.393,0.0,0.0,0.0,0.0,0.0,0.0,0.45572710620231827,0.0,0.0,0.0,0.0,0.0,0.0,-14.176,0.0,0.0,0.0
230,0.0,0.0,0.0,0.4637578125,0.0,0.0,0.0,0.0,0.0,0.0,-0.36,0.0,0.0,0.0,0.0,0.0,0.0,0.45178584731044813,0.0,0.0,0.0,0.0,0.0,0.0,-13.536,0.0,0.0,0.0
231,0.0,0.0,0.0,0.459697265625,0.0,0.0,0.0,0.0,0.0,0.0,-0.399,0.0,0.0,0.0,0.0,0.0,0.0,0.4478437940843814,0.0,0.0,0.0,0.0,0.0,0.0,-13.332,0.0,0.0,0.0
232,0.0,0.0,0.0,0.4557900390625,0.0,0.0,0.0,0.0,0.0,0.0,-0.41,0.0,0.0,0.0,0.0,0.0,0.0,0.44377769957628777,0.0,0.0,0.0,0.0,0.0,0.0,-13.24,0.0,0.0,0.0
233,0.0,0.0,0.0,0.45202734375,0.0,0.0,0.0,0.0,0.0,0.0,-0.39,0.0,0.0,0.0,0.0,0.0,0.0,0.439550833143753,0.0,0.0,0.0,0.0,0.0,0.0,-12.872,0.0,0.0,0.0
234,0.0,0.0,0.0,0.443923828125,0.0,0.0,0.0,0.0,0.0,0.0,-0.415,0.0,0.0,0.0,0.0,0.0,0.0,0.4332904960309979,0.0,0.0,0.0,0.0,0.0,0.0,-13.492,0.0,0.0,0.0
235,0.0,0.0,0.0,0.44015234375,0.0,0.0,0.0,0.0,0.0,0.0,-0.402,0.0,0.0,0.0,0.0,0.0,0.0,0.4283007271984076,0.0,0.0,0.0,0.0,0.0,0.0,-12.028,0.0,0.0,0.0
236,0.0,0.0,0.0,0.4376982421875,0.0,0.0,0.0,0.0,0.0,0.0,-0.325,0.0,0.0,0.0,0.0,0.0,0.0,0.42258639024412,0.0,0.0,0.0,0.0,0.0,0.0,-10.928,0.0,0.0,0.0
237,0.0,0.0,0.0,0.4345126953125,0.0,0.0,0.0,0.0,0.0,0.0,-0.257,0.0,0.0,0.0,0.0,0.0,0.0,0.419953291626652,0.0,0.0,0.0,0.0,0.0,0.0,-13.492,0.0,0.0,0.0
238,0.0,0.0,0.0,0.4345126953125,0.0,0.0,0.0,0.0,0.0,0.0,-0.257,0.0,0.0,0.0,0.0,0.0,0.0,0.417644329913982,0.0,0.0,0.0,0.0,0.0,0.0,-13.492,0.0,0.0,0.0
239,0.0,0.0,0.0,0.42944140625,0.0,0.0,0.0,0.0,0.0,0.0,-0.416,0.0,0.0,0.0,0.0,0.0,0.0,0.41446249856465506,0.0,0.0,0.0,0.0,0.0,0.0,-14.176,0.0,0.0,0.0
240,0.0,0.0,0.0,0.4249482421875,0.0,0.0,0.0,0.0,0.0,0.0,-0.477,0.0,0.0,0.0,0.0,0.0,0.0,0.4100938028574272,0.0,0.0,0.0,0.0,0.0,0.0,-15.64,0.0,0.0,0.0
241,0.0,0.0,0.0,0.419587890625,0.0,0.0,0.0,0.0,0.0,0.0,-0.483,0.0,0.0,0.0,0.0,0.0,0.0,0.40573208177653547,0.0,0.0,0.0,0.0,0.0,0.0,-15.184,0.0,0.0,0.0
242,0.0,0.0,0.0,0.4145166015625,0.0,0.0,0.0,0.0,0.0,0.0,-0.542,0.0,0.0,0.0,0.0,0.0,0.0,0.4012675340227859,0.0,0.0,0.0,0.0,0.0,0.0,-13.696,0.0,0.0,0.0
243,0.0,0.0,0.0,0.4062607421875,0.0,0.0,0.0,0.0,0.0,0.0,-0.421,0.0,0.0,0.0,0.0,0.0,0.0,0.3933326722402166,0.0,0.0,0.0,0.0,0.0,0.0,-14.292,0.0,0.0,0.0
244,0.0,0.0,0.0,0.401919921875,0.0,0.0,0.0,0.0,0.0,0.0,-0.386,0.0,0.0,0.0,0.0,0.0,0.0,0.38859159838945456,0.0,0.0,0.0,0.0,0.0,0.0,-15.708,0.0,0.0,0.0
245,0.0,0.0,0.0,0.39771484375,0.0,0.0,0.0,0.0,0.0,0.0,-0.446,0.0,0.0,0.0,0.0,0.0,0.0,0.3850709563803346,0.0,0.0,0.0,0.0,0.0,0.0,-13.308,0.0,0.0,0.0
246,0.0,0.0,0.0,0.39771484375,0.0,0.0,0.0,0.0,0.0,0.0,-0.446,0.0,0.0,0.0,0.0,0.0,0.0,0.38208180641054307,0.0,0.0,0.0,0.0,0.0,0.0,-13.308,0.0,0.0,0.0
247,0.0,0.0,0.0,0.395251953125,0.0,0.0,0.0,0.0,0.0,0.0,-0.347,0.0,0.0,0.0,0.0,0.0,0.0,0.3761586176226132,0.0,0.0,0.0,0.0,0.0,0.0,-11.572,0.0,0.0,0.0
248,0.0,0.0,0.0,0.3913447265625,0.0,0.0,0.0,0.0,0.0,0.0,-0.29,0.0,0.0,0.0,0.0,0.0,0.0,0.37385189312870243,0.0,0.0,0.0,0.0,0.0,0.0,-12.828,0.0,0.0,0.0
249,0.0,0.0,0.0,0.3865625,0.0,0.0,0.0,0.0,0.0,0.0,-0.446,0.0,0.0,0.0,0.0,0.0,0.0,0.3690958185434597,0.0,0.0,0.0,0.0,0.0,0.0,-13.444,0.0,0.0,0.0
250,0.0,0.0,0.0,0.382212890625,0.0,0.0,0.0,0.0,0.0,0.0,-0.465,0.0,0.0,0.0,0.0,0.0,0.0,0.3643518056663639,0.0,0.0,0.0,0.0,0.0,0.0,-14.656,0.0,0.0,0.0
251,0.0,0.0,0.0,0.377005859375,0.0,0.0,0.0,0.0,0.0,0.0,-0.468,0.0,0.0,0.0,0.0,0.0,0.0,0.3555564928090575,0.0,0.0,0.0,0.0,0.0,0.0,-14.864,0.0,0.0,0.0
252,0.0,0.0,0.0,0.371212890625,0.0,0.0,0.0,0.0,0.0,0.0,-0.546,0.0,0.0,0.0,0.0,0.0,0.0,0.3520641812194015,0.0,0.0,0.0,0.0,0.0,0.0,-13.424,0.0,0.0,0.0
253,0.0,0.0,0.0,0.3655556640625,0.0,0.0,0.0,0.0,0.0,0.0,-0.591,0.0,0.0,0.0,0.0,0.0,0.0,0.34943549570410093,0.0,0.0,0.0,0.0,0.0,0.0,-13.032,0.0,0.0,0.0
254,0.0,0.0,0.0,0.3610712890625,0.0,0.0,0.0,0.0,0.0,0.0,-0.531,0.0,0.0,0.0,0.0,0.0,0.0,0.3449849727422886,0.0,0.0,0.0,0.0,0.0,0.0,-13.264,0.0,0.0,0.0
255,0.0,0.0,0.0,0.3580302734375,0.0,0.0,0.0,0.0,0.0,0.0,-0.383,0.0,0.0,0.0,0.0,0.0,0.0,0.34006326265822084,0.0,0.0,0.0,0.0,0.0,0.0,-13.56,0.0,0.0,0.0
256,0.0,0.0,0.0,0.3535361328125,0.0,0.0,0.0,0.0,0.0,0.0,-0.351,0.0,0.0,0.0,0.0,0.0,0.0,0.3350996578996084,0.0,0.0,0.0,0.0,0.0,0.0,-15.64,0.0,0.0,0.0
257,0.0,0.0,0.0,0.34846484375,0.0,0.0,0.0,0.0,0.0,0.0,-0.486,0.0,0.0,0.0,0.0,0.0,0.0,0.33011647329056804,0.0,0.0,0.0,0.0,0.0,0.0,-15.136,0.0,0.0,0.0
258,0.0,0.0,0.0,0.3439716796875,0.0,0.0,0.0,0.0,0.0,0.0,-0.482,0.0,0.0,0.0,0.0,0.0,0.0,0.3250448663984977,0.0,0.0,0.0,0.0,0.0,0.0,-15.252,0.0,0.0,0.0
259,0.0,0.0,0.0,0.3380341796875,0.0,0.0,0.0,0.0,0.0,0.0,-0.512,0.0,0.0,0.0,0.0,0.0,0.0,0.32002911546251517,0.0,0.0,0.0,0.0,0.0,0.0,-13.812,0.0,0.0,0.0
260,0.0,0.0,0.0,0.3322412109375,0.0,0.0,0.0,0.0,0.0,0.0,-0.593,0.0,0.0,0.0,0.0,0.0,0.0,0.31494258304008416,0.0,0.0,0.0,0.0,0.0,0.0,-12.944,0.0,0.0,0.0
261,0.0,0.0,0.0,0.327025390625,0.0,0.0,0.0,0.0,0.0,0.0,-0.556,0.0,0.0,0.0,0.0,0.0,0.0,0.30982767630912716,0.0,0.0,0.0,0.0,0.0,0.0,-14.268,0.0,0.0,0.0
262,0.0,0.0,0.0,0.321376953125,0.0,0.0,0.0,0.0,0.0,0.0,-0.545,0.0,0.0,0.0,0.0,0.0,0.0,0.30466573623366316,0.0,0.0,0.0,0.0,0.0,0.0,-14.976,0.0,0.0,0.0
263,0.0,0.0,0.0,0.3164501953125,0.0,0.0,0.0,0.0,0.0,0.0,-0.547,0.0,0.0,0.0,0.0,0.0,0.0,0.29943753031892006,0.0,0.0,0.0,0.0,0.0,0.0,-13.88,0.0,0.0,0.0
264,0.0,0.0,0.0,0.31166796875,0.0,0.0,0.0,0.0,0.0,0.0,-0.474,0.0,0.0,0.0,0.0,0.0,0.0,0.29423322804701657,0.0,0.0,0.0,0.0,0.0,0.0,-14.248,0.0,0.0,0.0
265,0.0,0.0,0.0,0.30573046875,0.0,0.0,0.0,0.0,0.0,0.0,-0.535,0.0,0.0,0.0,0.0,0.0,0.0,0.28902318294619805,0.0,0.0,0.0,0.0,0.0,0.0,-14.084,0.0,0.0,0.0
266,0.0,0.0,0.0,0.3006591796875,0.0,0.0,0.0,0.0,0.0,0.0,-0.577,0.0,0.0,0.0,0.0,0.0,0.0,0.28375233748338974,0.0,0.0,0.0,0.0,0.0,0.0,-14.108,0.0,0.0,0.0
267,0.0,0.0,0.0,0.2957412109375,0.0,0.0,0.0,0.0,0.0,0.0,-0.494,0.0,0.0,0.0,0.0,0.0,0.0,0.2784213278232066,0.0,0.0,0.0,0.0,0.0,0.0,-14.976,0.0,0.0,0.0
268,0.0,0.0,0.0,0.290083984375,0.0,0.0,0.0,0.0,0.0,0.0,-0.533,0.0,0.0,0.0,0.0,0.0,0.0,0.2731273737453576,0.0,0.0,0.0,0.0,0.0,0.0,-14.452,0.0,0.0,0.0
269,0.0,0.0,0.0,0.2845791015625,0.0,0.0,0.0,0.0,0.0,0.0,-0.561,0.0,0.0,0.0,0.0,0.0,0.0,0.2677891799771428,0.0,0.0,0.0,0.0,0.0,0.0,-14.248,0.0,0.0,0.0
270,0.0,0.0,0.0,0.2792197265625,0.0,0.0,0.0,0.0,0.0,0.0,-0.538,0.0,0.0,0.0,0.0,0.0,0.0,0.26236945156809943,0.0,0.0,0.0,0.0,0.0,0.0,-13.812,0.0,0.0,0.0
271,0.0,0.0,0.0,0.273869140625,0.0,0.0,0.0,0.0,0.0,0.0,-0.544,0.0,0.0,0.0,0.0,0.0,0.0,0.2569761242536343,0.0,0.0,0.0,0.0,0.0,0.0,-13.356,0.0,0.0,0.0
272,0.0,0.0,0.0,0.2682109375,0.0,0.0,0.0,0.0,0.0,0.0,-0.552,0.0,0.0,0.0,0.0,0.0,0.0,0.2515764684175911,0.0,0.0,0.0,0.0,0.0,0.0,-14.108,0.0,0.0,0.0
273,0.0,0.0,0.0,0.2625625,0.0,0.0,0.0,0.0,0.0,0.0,-0.573,0.0,0.0,0.0,0.0,0.0,0.0,0.2460545203794991,0.0,0.0,0.0,0.0,0.0,0.0,-14.064,0.0,0.0,0.0
274,0.0,0.0,0.0,0.2570576171875,0.0,0.0,0.0,0.0,0.0,0.0,-0.562,0.0,0.0,0.0,0.0,0.0,0.0,0.24060516685949143,0.0,0.0,0.0,0.0,0.0,0.0,-14.496,0.0,0.0,0.0
275,0.0,0.0,0.0,0.251255859375,0.0,0.0,0.0,0.0,0.0,0.0,-0.567,0.0,0.0,0.0,0.0,0.0,0.0,0.2350598042120282,0.0,0.0,0.0,0.0,0.0,0.0,-13.948,0.0,0.0,0.0
276,0.0,0.0,0.0,0.2456162109375,0.0,0.0,0.0,0.0,0.0,0.0,-0.576,0.0,0.0,0.0,0.0,0.0,0.0,0.2295471890155016,0.0,0.0,0.0,0.0,0.0,0.0,-13.788,0.0,0.0,0.0
277,0.0,0.0,0.0,0.239390625,0.0,0.0,0.0,0.0,0.0,0.0,-0.591,0.0,0.0,0.0,0.0,0.0,0.0,0.2239978456434245,0.0,0.0,0.0,0.0,0.0,0.0,-14.612,0.0,0.0,0.0
278,0.0,0.0,0.0,0.233587890625,0.0,0.0,0.0,0.0,0.0,0.0,-0.608,0.0,0.0,0.0,0.0,0.0,0.0,0.21837018765259802,0.0,0.0,0.0,0.0,0.0,0.0,-14.496,0.0,0.0,0.0
279,0.0,0.0,0.0,0.2285166015625,0.0,0.0,0.0,0.0,0.0,0.0,-0.56,0.0,0.0,0.0,0.0,0.0,0.0,0.2127803540723999,0.0,0.0,0.0,0.0,0.0,0.0,-14.084,0.0,0.0,0.0
280,0.0,0.0,0.0,0.2234453125,0.0,0.0,0.0,0.0,0.0,0.0,-0.505,0.0,0.0,0.0,0.0,0.0,0.0,0.20722516302317764,0.0,0.0,0.0,0.0,0.0,0.0,-14.544,0.0,0.0,0.0
281,0.0,0.0,0.0,0.2180947265625,0.0,0.0,0.0,0.0,0.0,0.0,-0.52,0.0,0.0,0.0,0.0,0.0,0.0,0.20158572994385124,0.0,0.0,0.0,0.0,0.0,0.0,-14.476,0.0,0.0,0.0
282,0.0,0.0,0.0,0.2127255859375,0.0,0.0,0.0,0.0,0.0,0.0,-0.539,0.0,0.0,0.0,0.0,0.0,0.0,0.1958696315328575,0.0,0.0,0.0,0.0,0.0,0.0,-14.728,0.0,0.0,0.0
283,0.0,0.0,0.0,0.2065,0.0,0.0,0.0,0.0,0.0,0.0,-0.577,0.0,0.0,0.0,0.0,0.0,0.0,0.1901697911507277,0.0,0.0,0.0,0.0,0.0,0.0,-14.976,0.0,0.0,0.0
284,0.0,0.0,0.0,0.20041796875,0.0,0.0,0.0,0.0,0.0,0.0,-0.625,0.0,0.0,0.0,0.0,0.0,0.0,0.1845633785572261,0.0,0.0,0.0,0.0,0.0,0.0,-13.536,0.0,0.0,0.0
285,0.0,0.0,0.0,0.1946162109375,0.0,0.0,0.0,0.0,0.0,0.0,-0.601,0.0,0.0,0.0,0.0,0.0,0.0,0.1788016079943006,0.0,0.0,0.0,0.0,0.0,0.0,-13.584,0.0,0.0,0.0
286,0.0,0.0,0.0,0.189544921875,0.0,0.0,0.0,0.0,0.0,0.0,-0.561,0.0,0.0,0.0,0.0,0.0,0.0,0.17306428295473258,0.0,0.0,0.0,0.0,0.0,0.0,-12.828,0.0,0.0,0.0
287,0.0,0.0,0.0,0.1852041015625,0.0,0.0,0.0,0.0,0.0,0.0,-0.475,0.0,0.0,0.0,0.0,0.0,0.0,0.1672726903043708,0.0,0.0,0.0,0.0,0.0,0.0,-13.996,0.0,0.0,0.0
288,0.0,0.0,0.0,0.1794111328125,0.0,0.0,0.0,0.0,0.0,0.0,-0.491,0.0,0.0,0.0,0.0,0.0,0.0,0.16153289699093185,0.0,0.0,0.0,0.0,0.0,0.0,-15.16,0.0,0.0,0.0
289,0.0,0.0,0.0,0.17375390625,0.0,0.0,0.0,0.0,0.0,0.0,-0.586,0.0,0.0,0.0,0.0,0.0,0.0,0.15578002215106257,0.0,0.0,0.0,0.0,0.0,0.0,-15.228,0.0,0.0,0.0
290,0.0,0.0,0.0,0.16825,0.0,0.0,0.0,0.0,0.0,0.0,-0.56,0.0,0.0,0.0,0.0,0.0,0.0,0.14998917253713034,0.0,0.0,0.0,0.0,0.0,0.0,-14.704,0.0,0.0,0.0
291,0.0,0.0,0.0,0.1624560546875,0.0,0.0,0.0,0.0,0.0,0.0,-0.567,0.0,0.0,0.0,0.0,0.0,0.0,0.14406340377573867,0.0,0.0,0.0,0.0,0.0,0.0,-13.904,0.0,0.0,0.0
292,0.0,0.0,0.0,0.15710546875,0.0,0.0,0.0,0.0,0.0,0.0,-0.568,0.0,0.0,0.0,0.0,0.0,0.0,0.138268572075304,0.0,0.0,0.0,0.0,0.0,0.0,-13.924,0.0,0.0,0.0
293,0.0,0.0,0.0,0.152025390625,0.0,0.0,0.0,0.0,0.0,0.0,-0.522,0.0,0.0,0.0,0.0,0.0,0.0,0.13246120334033207,0.0,0.0,0.0,0.0,0.0,0.0,-14.816,0.0,0.0,0.0
294,0.0,0.0,0.0,0.146232421875,0.0,0.0,0.0,0.0,0.0,0.0,-0.545,0.0,0.0,0.0,0.0,0.0,0.0,0.12659978983087708,0.0,0.0,0.0,0.0,0.0,0.0,-15.388,0.0,0.0,0.0
295,0.0,0.0,0.0,0.140294921875,0.0,0.0,0.0,0.0,0.0,0.0,-0.594,0.0,0.0,0.0,0.0,0.0,0.0,0.12071813700505146,0.0,0.0,0.0,0.0,0.0,0.0,-14.52,0.0,0.0,0.0
296,0.0,0.0,0.0,0.1343486328125,0.0,0.0,0.0,0.0,0.0,0.0,-0.589,0.0,0.0,0.0,0.0,0.0,0.0,0.11485904964892255,0.0,0.0,0.0,0.0,0.0,0.0,-14.496,0.0,0.0,0.0
297,0.0,0.0,0.0,0.1282666015625,0.0,0.0,0.0,0.0,0.0,0.0,-0.612,0.0,0.0,0.0,0.0,0.0,0.0,0.10893961652458001,0.0,0.0,0.0,0.0,0.0,0.0,-13.856,0.0,0.0,0.0
298,0.0,0.0,0.0,0.1227626953125,0.0,0.0,0.0,0.0,0.0,0.0,-0.589,0.0,0.0,0.0,0.0,0.0,0.0,0.10301976745652978,0.0,0.0,0.0,0.0,0.0,0.0,-14.316,0.0,0.0,0.0
299,0.0,0.0,0.0,0.1168251953125,0.0,0.0,0.0,0.0,0.0,0.0,-0.565,0.0,0.0,0.0,0.0,0.0,0.0,0.09715294976275311,0.0,0.0,0.0,0.0,0.0,0.0,-15.708,0.0,0.0,0.0
300,0.0,0.0,0.0,0.1108876953125,0.0,0.0,0.0,0.0,0.0,0.0,-0.61,0.0,0.0,0.0,0.0,0.0,0.0,0.09120305591507252,0.0,0.0,0.0,0.0,0.0,0.0,-15.412,0.0,0.0,0.0
301,0.0,0.0,0.0,0.1050947265625,0.0,0.0,0.0,0.0,0.0,0.0,-0.588,0.0,0.0,0.0,0.0,0.0,0.0,0.08522853246705814,0.0,0.0,0.0,0.0,0.0,0.0,-15.46,0.0,0.0,0.0
302,0.0,0.0,0.0,0.099021484375,0.0,0.0,0.0,0.0,0.0,0.0,-0.596,0.0,0.0,0.0,0.0,0.0,0.0,0.0793708611108557,0.0,0.0,0.0,0.0,0.0,0.0,-14.748,0.0,0.0,0.0
303,0.0,0.0,0.0,0.0933642578125,0.0,0.0,0.0,0.0,0.0,0.0,-0.602,0.0,0.0,0.0,0.0,0.0,0.0,0.0733893438950164,0.0,0.0,0.0,0.0,0.0,0.0,-14.384,0.0,0.0,0.0
304,0.0,0.0,0.0,0.0877158203125,0.0,0.0,0.0,0.0,0.0,0.0,-0.556,0.0,0.0,0.0,0.0,0.0,0.0,0.06736516048864004,0.0,0.0,0.0,0.0,0.0,0.0,-15.184,0.0,0.0,0.0
305,0.0,0.0,0.0,0.0816337890625,0.0,0.0,0.0,0.0,0.0,0.0,-0.589,0.0,0.0,0.0,0.0,0.0,0.0,0.06143925146995115,0.0,0.0,0.0,0.0,0.0,0.0,-14.956,0.0,0.0,0.0
306,0.0,0.0,0.0,0.0758408203125,0.0,0.0,0.0,0.0,0.0,0.0,-0.602,0.0,0.0,0.0,0.0,0.0,0.0,0.05548278014323675,0.0,0.0,0.0,0.0,0.0,0.0,-14.292,0.0,0.0,0.0
307,0.0,0.0,0.0,0.06960546875,0.0,0.0,0.0,0.0,0.0,0.0,-0.595,0.0,0.0,0.0,0.0,0.0,0.0,0.049464618265251885,0.0,0.0,0.0,0.0,0.0,0.0,-14.292,0.0,0.0,0.0
308,0.0,0.0,0.0,0.06337890625,0.0,0.0,0.0,0.0,0.0,0.0,-0.637,0.0,0.0,0.0,0.0,0.0,0.0,0.04353346689622863,0.0,0.0,0.0,0.0,0.0,0.0,-13.536,0.0,0.0,0.0
309,0.0,0.0,0.0,0.05773046875,0.0,0.0,0.0,0.0,0.0,0.0,-0.601,0.0,0.0,0.0,0.0,0.0,0.0,0.037531076439617166,0.0,0.0,0.0,0.0,0.0,0.0,-14.268,0.0,0.0,0.0
310,0.0,0.0,0.0,0.0514951171875,0.0,0.0,0.0,0.0,0.0,0.0,-0.594,0.0,0.0,0.0,0.0,0.0,0.0,0.03147748518466427,0.0,0.0,0.0,0.0,0.0,0.0,-14.956,0.0,0.0,0.0
311,0.0,0.0,0.0,0.0457021484375,0.0,0.0,0.0,0.0,0.0,0.0,-0.615,0.0,0.0,0.0,0.0,0.0,0.0,0.025541305310088375,0.0,0.0,0.0,0.0,0.0,0.0,-14.728,0.0,0.0,0.0
312,0.0,0.0,0.0,0.0400537109375,0.0,0.0,0.0,0.0,0.0,0.0,-0.568,0.0,0.0,0.0,0.0,0.0,0.0,0.019560442084712026,0.0,0.0,0.0,0.0,0.0,0.0,-15.368,0.0,0.0,0.0
313,0.0,0.0,0.0,0.033828125,0.0,0.0,0.0,0.0,0.0,0.0,-0.604,0.0,0.0,0.0,0.0,0.0,0.0,0.01349439794484345,0.0,0.0,0.0,0.0,0.0,0.0,-14.268,0.0,0.0,0.0
314,0.0,0.0,0.0,0.028169921875,0.0,0.0,0.0,0.0,0.0,0.0,-0.599,0.0,0.0,0.0,0.0,0.0,0.0,0.00753496866759497,0.0,0.0,0.0,0.0,0.0,0.0,-14.268,0.0,0.0,0.0
315,0.0,0.0,0.0,0.022087890625,0.0,0.0,0.0,0.0,0.0,0.0,-0.58,0.0,0.0,0.0,0.0,0.0,0.0,0.0015357429885881132,0.0,0.0,0.0,0.0,0.0,0.0,-14.476,0.0,0.0,0.0
316,0.0,0.0,0.0,0.01616015625,0.0,0.0,0.0,0.0,0.0,0.0,-0.621,0.0,0.0,0.0,0.0,0.0,0.0,-0.004493533090771282,0.0,0.0,0.0,0.0,0.0,0.0,-13.904,0.0,0.0,0.0
317,0.0,0.0,0.0,0.010501953125,0.0,0.0,0.0,0.0,0.0,0.0,-0.575,0.0,0.0,0.0,0.0,0.0,0.0,-0.010455274682356968,0.0,0.0,0.0,0.0,0.0,0.0,-14.52,0.0,0.0,0.0
318,0.0,0.0,0.0,0.004419921875,0.0,0.0,0.0,0.0,0.0,0.0,-0.59,0.0,0.0,0.0,0.0,0.0,0.0,-0.016420845794867148,0.0,0.0,0.0,0.0,0.0,0.0,-14.316,0.0,0.0,0.0
319,0.0,0.0,0.0,-0.0013720703125,0.0,0.0,0.0,0.0,0.0,0.0,-0.605,0.0,0.0,0.0,0.0,0.0,0.0,-0.02245655432037173,0.0,0.0,0.0,0.0,0.0,0.0,-14.316,0.0,0.0,0.0
320,0.0,0.0,0.0,-0.007453125,0.0,0.0,0.0,0.0,0.0,0.0,-0.584,0.0,0.0,0.0,0.0,0.0,0.0,-0.02842182937939388,0.0,0.0,0.0,0.0,0.0,0.0,-14.908,0.0,0.0,0.0
321,0.0,0.0,0.0,-0.0135439453125,0.0,0.0,0.0,0.0,0.0,0.0,-0.622,0.0,0.0,0.0,0.0,0.0,0.0,-0.0343890029277996,0.0,0.0,0.0,0.0,0.0,0.0,-14.656,0.0,0.0,0.0
322,0.0,0.0,0.0,-0.019048828125,0.0,0.0,0.0,0.0,0.0,0.0,-0.593,0.0,0.0,0.0,0.0,0.0,0.0,-0.04045153246986877,0.0,0.0,0.0,0.0,0.0,0.0,-14.888,0.0,0.0,0.0
323,0.0,0.0,0.0,-0.024986328125,0.0,0.0,0.0,0.0,0.0,0.0,-0.567,0.0,0.0,0.0,0.0,0.0,0.0,-0.046374710352658395,0.0,0.0,0.0,0.0,0.0,0.0,-15.092,0.0,0.0,0.0
324,0.0,0.0,0.0,-0.0306435546875,0.0,0.0,0.0,0.0,0.0,0.0,-0.589,0.0,0.0,0.0,0.0,0.0,0.0,-0.05237827849443659,0.0,0.0,0.0,0.0,0.0,0.0,-14.612,0.0,0.0,0.0
325,0.0,0.0,0.0,-0.0361484375,0.0,0.0,0.0,0.0,0.0,0.0,-0.555,0.0,0.0,0.0,0.0,0.0,0.0,-0.05839977348669771,0.0,0.0,0.0,0.0,0.0,0.0,-15.092,0.0,0.0,0.0
326,0.0,0.0,0.0,-0.0425185546875,0.0,0.0,0.0,0.0,0.0,0.0,-0.595,0.0,0.0,0.0,0.0,0.0,0.0,-0.06432957407113683,0.0,0.0,0.0,0.0,0.0,0.0,-14.772,0.0,0.0,0.0
327,0.0,0.0,0.0,-0.048158203125,0.0,0.0,0.0,0.0,0.0,0.0,-0.617,0.0,0.0,0.0,0.0,0.0,0.0,-0.07027191982561416,0.0,0.0,0.0,0.0,0.0,0.0,-13.924,0.0,0.0,0.0
328,0.0,0.0,0.0,-0.0541044921875,0.0,0.0,0.0,0.0,0.0,0.0,-0.576,0.0,0.0,0.0,0.0,0.0,0.0,-0.07625084578241453,0.0,0.0,0.0,0.0,0.0,0.0,-14.384,0.0,0.0,0.0
329,0.0,0.0,0.0,-0.0601865234375,0.0,0.0,0.0,0.0,0.0,0.0,-0.608,0.0,0.0,0.0,0.0,0.0,0.0,-0.08219303660245032,0.0,0.0,0.0,0.0,0.0,0.0,-13.856,0.0,0.0,0.0
330,0.0,0.0,0.0,-0.0656904296875,0.0,0.0,0.0,0.0,0.0,0.0,-0.583,0.0,0.0,0.0,0.0,0.0,0.0,-0.08876895512994398,0.0,0.0,0.0,0.0,0.0,0.0,-14.52,0.0,0.0,0.0
331,0.0,0.0,0.0,-0.0719169921875,0.0,0.0,0.0,0.0,0.0,0.0,-0.584,0.0,0.0,0.0,0.0,0.0,0.0,-0.09403412749119994,0.0,0.0,0.0,0.0,0.0,0.0,-15.184,0.0,0.0,0.0
332,0.0,0.0,0.0,-0.07786328125,0.0,0.0,0.0,0.0,0.0,0.0,-0.622,0.0,0.0,0.0,0.0,0.0,0.0,-0.10008592937717516,0.0,0.0,0.0,0.0,0.0,0.0,-14.408,0.0,0.0,0.0
333,0.0,0.0,0.0,-0.0826455078125,0.0,0.0,0.0,0.0,0.0,0.0,-0.548,0.0,0.0,0.0,0.0,0.0,0.0,-0.10595718998933397,0.0,0.0,0.0,0.0,0.0,0.0,-13.764,0.0,0.0,0.0
334,0.0,0.0,0.0,-0.0874189453125,0.0,0.0,0.0,0.0,0.0,0.0,-0.476,0.0,0.0,0.0,0.0,0.0,0.0,-0.1117755516006022,0.0,0.0,0.0,0.0,0.0,0.0,-13.696,0.0,0.0,0.0
335,0.0,0.0,0.0,-0.092345703125,0.0,0.0,0.0,0.0,0.0,0.0,-0.49,0.0,0.0,0.0,0.0,0.0,0.0,-0.11767197881538992,0.0,0.0,0.0,0.0,0.0,0.0,-14.588,0.0,0.0,0.0
336,0.0,0.0,0.0,-0.0975615234375,0.0,0.0,0.0,0.0,0.0,0.0,-0.511,0.0,0.0,0.0,0.0,0.0,0.0,-0.12356346958415229,0.0,0.0,0.0,0.0,0.0,0.0,-14.84,0.0,0.0,0.0
337,0.0,0.0,0.0,-0.1032099609375,0.0,0.0,0.0,0.0,0.0,0.0,-0.538,0.0,0.0,0.0,0.0,0.0,0.0,-0.12945260226388197,0.0,0.0,0.0,0.0,0.0,0.0,-14.728,0.0,0.0,0.0
338,0.0,0.0,0.0,-0.1091474609375,0.0,0.0,0.0,0.0,0.0,0.0,-0.589,0.0,0.0,0.0,0.0,0.0,0.0,-0.13527725721228104,0.0,0.0,0.0,0.0,0.0,0.0,-13.332,0.0,0.0,0.0
339,0.0,0.0,0.0,-0.1146513671875,0.0,0.0,0.0,0.0,0.0,0.0,-0.573,0.0,0.0,0.0,0.0,0.0,0.0,-0.14111882186650082,0.0,0.0,0.0,0.0,0.0,0.0,-13.652,0.0,0.0,0.0
340,0.0,0.0,0.0,-0.1203095703125,0.0,0.0,0.0,0.0,0.0,0.0,-0.557,0.0,0.0,0.0,0.0,0.0,0.0,-0.14698883950522593,0.0,0.0,0.0,0.0,0.0,0.0,-14.36,0.0,0.0,0.0
341,0.0,0.0,0.0,-0.125515625,0.0,0.0,0.0,0.0,0.0,0.0,-0.56,0.0,0.0,0.0,0.0,0.0,0.0,-0.15275096666699015,0.0,0.0,0.0,0.0,0.0,0.0,-14.956,0.0,0.0,0.0
342,0.0,0.0,0.0,-0.13130859375,0.0,0.0,0.0,0.0,0.0,0.0,-0.542,0.0,0.0,0.0,0.0,0.0,0.0,-0.15851365893275912,0.0,0.0,0.0,0.0,0.0,0.0,-15.8,0.0,0.0,0.0
343,0.0,0.0,0.0,-0.13753515625,0.0,0.0,0.0,0.0,0.0,0.0,-0.607,0.0,0.0,0.0,0.0,0.0,0.0,-0.1643213486288778,0.0,0.0,0.0,0.0,0.0,0.0,-15.048,0.0,0.0,0.0
344,0.0,0.0,0.0,-0.1431923828125,0.0,0.0,0.0,0.0,0.0,0.0,-0.6,0.0,0.0,0.0,0.0,0.0,0.0,-0.17008020355548484,0.0,0.0,0.0,0.0,0.0,0.0,-14.816,0.0,0.0,0.0
345,0.0,0.0,0.0,-0.148986328125,0.0,0.0,0.0,0.0,0.0,0.0,-0.57,0.0,0.0,0.0,0.0,0.0,0.0,-0.17583232872922408,0.0,0.0,0.0,0.0,0.0,0.0,-15.412,0.0,0.0,0.0
346,0.0,0.0,0.0,-0.154490234375,0.0,0.0,0.0,0.0,0.0,0.0,-0.582,0.0,0.0,0.0,0.0,0.0,0.0,-0.18164181657347425,0.0,0.0,0.0,0.0,0.0,0.0,-15.0,0.0,0.0,0.0
347,0.0,0.0,0.0,-0.1598408203125,0.0,0.0,0.0,0.0,0.0,0.0,-0.538,0.0,0.0,0.0,0.0,0.0,0.0,-0.18732933595329873,0.0,0.0,0.0,0.0,0.0,0.0,-15.46,0.0,0.0,0.0
348,0.0,0.0,0.0,-0.166076171875,0.0,0.0,0.0,0.0,0.0,0.0,-0.573,0.0,0.0,0.0,0.0,0.0,0.0,-0.19294557492322245,0.0,0.0,0.0,0.0,0.0,0.0,-14.888,0.0,0.0,0.0
349,0.0,0.0,0.0,-0.172013671875,0.0,0.0,0.0,0.0,0.0,0.0,-0.624,0.0,0.0,0.0,0.0,0.0,0.0,-0.19867152880306596,0.0,0.0,0.0,0.0,0.0,0.0,-13.904,0.0,0.0,0.0
350,0.0,0.0,0.0,-0.177951171875,0.0,0.0,0.0,0.0,0.0,0.0,-0.591,0.0,0.0,0.0,0.0,0.0,0.0,-0.2043246431529326,0.0,0.0,0.0,0.0,0.0,0.0,-14.384,0.0,0.0,0.0
351,0.0,0.0,0.0,-0.184033203125,0.0,0.0,0.0,0.0,0.0,0.0,-0.614,0.0,0.0,0.0,0.0,0.0,0.0,-0.20987757732406992,0.0,0.0,0.0,0.0,0.0,0.0,-13.856,0.0,0.0,0.0
352,0.0,0.0,0.0,-0.1896904296875,0.0,0.0,0.0,0.0,0.0,0.0,-0.592,0.0,0.0,0.0,0.0,0.0,0.0,-0.21548914152960044,0.0,0.0,0.0,0.0,0.0,0.0,-14.36,0.0,0.0,0.0
353,0.0,0.0,0.0,-0.1957724609375,0.0,0.0,0.0,0.0,0.0,0.0,-0.579,0.0,0.0,0.0,0.0,0.0,0.0,-0.2210868609765213,0.0,0.0,0.0,0.0,0.0,0.0,-15.228,0.0,0.0,0.0
354,0.0,0.0,0.0,-0.2018447265625,0.0,0.0,0.0,0.0,0.0,0.0,-0.623,0.0,0.0,0.0,0.0,0.0,0.0,-0.22666465293971563,0.0,0.0,0.0,0.0,0.0,0.0,-14.568,0.0,0.0,0.0
355,0.0,0.0,0.0,-0.2076376953125,0.0,0.0,0.0,0.0,0.0,0.0,-0.597,0.0,0.0,0.0,0.0,0.0,0.0,-0.2321904050909585,0.0,0.0,0.0,0.0,0.0,0.0,-14.976,0.0,0.0,0.0
356,0.0,0.0,0.0,-0.213728515625,0.0,0.0,0.0,0.0,0.0,0.0,-0.597,0.0,0.0,0.0,0.0,0.0,0.0,-0.23781694539056378,0.0,0.0,0.0,0.0,0.0,0.0,-14.748,0.0,0.0,0.0
357,0.0,0.0,0.0,-0.219521484375,0.0,0.0,0.0,0.0,0.0,0.0,-0.609,0.0,0.0,0.0,0.0,0.0,0.0,-0.2432137499685013,0.0,0.0,0.0,0.0,0.0,0.0,-13.948,0.0,0.0,0.0
358,0.0,0.0,0.0,-0.2251708984375,0.0,0.0,0.0,0.0,0.0,0.0,-0.568,0.0,0.0,0.0,0.0,0.0,0.0,-0.24867928535603048,0.0,0.0,0.0,0.0,0.0,0.0,-14.52,0.0,0.0,0.0
359,0.0,0.0,0.0,-0.231396484375,0.0,0.0,0.0,0.0,0.0,0.0,-0.593,0.0,0.0,0.0,0.0,0.0,0.0,-0.25417612816767865,0.0,0.0,0.0,0.0,0.0,0.0,-14.292,0.0,0.0,0.0
360,0.0,0.0,0.0,-0.237189453125,0.0,0.0,0.0,0.0,0.0,0.0,-0.61,0.0,0.0,0.0,0.0,0.0,0.0,-0.2595658438510504,0.0,0.0,0.0,0.0,0.0,0.0,-13.584,0.0,0.0,0.0
361,0.0,0.0,0.0,-0.243416015625,0.0,0.0,0.0,0.0,0.0,0.0,-0.596,0.0,0.0,0.0,0.0,0.0,0.0,-0.2650408035945511,0.0,0.0,0.0,0.0,0.0,0.0,-14.2,0.0,0.0,0.0
362,0.0,0.0,0.0,-0.249642578125,0.0,0.0,0.0,0.0,0.0,0.0,-0.631,0.0,0.0,0.0,0.0,0.0,0.0,-0.27041199137437844,0.0,0.0,0.0,0.0,0.0,0.0,-13.284,0.0,0.0,0.0
363,0.0,0.0,0.0,-0.255291015625,0.0,0.0,0.0,0.0,0.0,0.0,-0.601,0.0,0.0,0.0,0.0,0.0,0.0,-0.275712924266428,0.0,0.0,0.0,0.0,0.0,0.0,-13.856,0.0,0.0,0.0
364,0.0,0.0,0.0,-0.2613720703125,0.0,0.0,0.0,0.0,0.0,0.0,-0.591,0.0,0.0,0.0,0.0,0.0,0.0,-0.2809649742330121,0.0,0.0,0.0,0.0,0.0,0.0,-14.636,0.0,0.0,0.0
365,0.0,0.0,0.0,-0.2673193359375,0.0,0.0,0.0,0.0,0.0,0.0,-0.609,0.0,0.0,0.0,0.0,0.0,0.0,-0.28631870812108473,0.0,0.0,0.0,0.0,0.0,0.0,-14.084,0.0,0.0,0.0
366,0.0,0.0,0.0,-0.272958984375,0.0,0.0,0.0,0.0,0.0,0.0,-0.577,0.0,0.0,0.0,0.0,0.0,0.0,-0.29155144452284604,0.0,0.0,0.0,0.0,0.0,0.0,-14.728,0.0,0.0,0.0
367,0.0,0.0,0.0,-0.278896484375,0.0,0.0,0.0,0.0,0.0,0.0,-0.588,0.0,0.0,0.0,0.0,0.0,0.0,-0.2967437476706737,0.0,0.0,0.0,0.0,0.0,0.0,-14.292,0.0,0.0,0.0
368,0.0,0.0,0.0,-0.284689453125,0.0,0.0,0.0,0.0,0.0,0.0,-0.588,0.0,0.0,0.0,0.0,0.0,0.0,-0.3020395574024402,0.0,0.0,0.0,0.0,0.0,0.0,-13.788,0.0,0.0,0.0
369,0.0,0.0,0.0,-0.2904912109375,0.0,0.0,0.0,0.0,0.0,0.0,-0.584,0.0,0.0,0.0,0.0,0.0,0.0,-0.3072437071835062,0.0,0.0,0.0,0.0,0.0,0.0,-14.156,0.0,0.0,0.0
370,0.0,0.0,0.0,-0.2964287109375,0.0,0.0,0.0,0.0,0.0,0.0,-0.592,0.0,0.0,0.0,0.0,0.0,0.0,-0.3122959197671704,0.0,0.0,0.0,0.0,0.0,0.0,-13.676,0.0,0.0,0.0
371,0.0,0.0,0.0,-0.302212890625,0.0,0.0,0.0,0.0,0.0,0.0,-0.591,0.0,0.0,0.0,0.0,0.0,0.0,-0.3173835005893404,0.0,0.0,0.0,0.0,0.0,0.0,-13.584,0.0,0.0,0.0
372,0.0,0.0,0.0,-0.307716796875,0.0,0.0,0.0,0.0,0.0,0.0,-0.577,0.0,0.0,0.0,0.0,0.0,0.0,-0.32245225809157896,0.0,0.0,0.0,0.0,0.0,0.0,-13.012,0.0,0.0,0.0
373,0.0,0.0,0.0,-0.3127880859375,0.0,0.0,0.0,0.0,0.0,0.0,-0.533,0.0,0.0,0.0,0.0,0.0,0.0,-0.3275588583977899,0.0,0.0,0.0,0.0,0.0,0.0,-13.148,0.0,0.0,0.0
374,0.0,0.0,0.0,-0.3185810546875,0.0,0.0,0.0,0.0,0.0,0.0,-0.538,0.0,0.0,0.0,0.0,0.0,0.0,-0.33262580616395876,0.0,0.0,0.0,0.0,0.0,0.0,-13.764,0.0,0.0,0.0
375,0.0,0.0,0.0,-0.3240849609375,0.0,0.0,0.0,0.0,0.0,0.0,-0.569,0.0,0.0,0.0,0.0,0.0,0.0,-0.33793396623683275,0.0,0.0,0.0,0.0,0.0,0.0,-13.904,0.0,0.0,0.0
376,0.0,0.0,0.0,-0.32930078125,0.0,0.0,0.0,0.0,0.0,0.0,-0.536,0.0,0.0,0.0,0.0,0.0,0.0,-0.34241765520231787,0.0,0.0,0.0,0.0,0.0,0.0,-14.132,0.0,0.0,0.0
377,0.0,0.0,0.0,-0.3349404296875,0.0,0.0,0.0,0.0,0.0,0.0,-0.545,0.0,0.0,0.0,0.0,0.0,0.0,-0.3473470120297526,0.0,0.0,0.0,0.0,0.0,0.0,-13.836,0.0,0.0,0.0
378,0.0,0.0,0.0,-0.34001171875,0.0,0.0,0.0,0.0,0.0,0.0,-0.553,0.0,0.0,0.0,0.0,0.0,0.0,-0.35232241443134565,0.0,0.0,0.0,0.0,0.0,0.0,-13.104,0.0,0.0,0.0
379,0.0,0.0,0.0,-0.3450830078125,0.0,0.0,0.0,0.0,0.0,0.0,-0.508,0.0,0.0,0.0,0.0,0.0,0.0,-0.35705294415754757,0.0,0.0,0.0,0.0,0.0,0.0,-13.4,0.0,0.0,0.0
380,0.0,0.0,0.0,-0.349720703125,0.0,0.0,0.0,0.0,0.0,0.0,-0.498,0.0,0.0,0.0,0.0,0.0,0.0,-0.36186792316173816,0.0,0.0,0.0,0.0,0.0,0.0,-12.692,0.0,0.0,0.0
381,0.0,0.0,0.0,-0.354349609375,0.0,0.0,0.0,0.0,0.0,0.0,-0.455,0.0,0.0,0.0,0.0,0.0,0.0,-0.3666380572165729,0.0,0.0,0.0,0.0,0.0,0.0,-13.584,0.0,0.0,0.0
382,0.0,0.0,0.0,-0.3597099609375,0.0,0.0,0.0,0.0,0.0,0.0,-0.498,0.0,0.0,0.0,0.0,0.0,0.0,-0.37141396034451396,0.0,0.0,0.0,0.0,0.0,0.0,-13.308,0.0,0.0,0.0
383,0.0,0.0,0.0,-0.3646279296875,0.0,0.0,0.0,0.0,0.0,0.0,-0.526,0.0,0.0,0.0,0.0,0.0,0.0,-0.37606596761416405,0.0,0.0,0.0,0.0,0.0,0.0,-13.192,0.0,0.0,0.0
384,0.0,0.0,0.0,-0.3695546875,0.0,0.0,0.0,0.0,0.0,0.0,-0.493,0.0,0.0,0.0,0.0,0.0,0.0,-0.38073664914135374,0.0,0.0,0.0,0.0,0.0,0.0,-13.216,0.0,0.0,0.0
385,0.0,0.0,0.0,-0.374625,0.0,0.0,0.0,0.0,0.0,0.0,-0.511,0.0,0.0,0.0,0.0,0.0,0.0,-0.3853124416830109,0.0,0.0,0.0,0.0,0.0,0.0,-12.712,0.0,0.0,0.0
386,0.0,0.0,0.0,-0.3788212890625,0.0,0.0,0.0,0.0,0.0,0.0,-0.475,0.0,0.0,0.0,0.0,0.0,0.0,-0.3899224990221878,0.0,0.0,0.0,0.0,0.0,0.0,-12.12,0.0,0.0,0.0
387,0.0,0.0,0.0,-0.383017578125,0.0,0.0,0.0,0.0,0.0,0.0,-0.411,0.0,0.0,0.0,0.0,0.0,0.0,-0.39450026927101334,0.0,0.0,0.0,0.0,0.0,0.0,-13.696,0.0,0.0,0.0
388,0.0,0.0,0.0,-0.3879443359375,0.0,0.0,0.0,0.0,0.0,0.0,-0.457,0.0,0.0,0.0,0.0,0.0,0.0,-0.39894467001163747,0.0,0.0,0.0,0.0,0.0,0.0,-14.408,0.0,0.0,0.0
389,0.0,0.0,0.0,-0.3924287109375,0.0,0.0,0.0,0.0,0.0,0.0,-0.485,0.0,0.0,0.0,0.0,0.0,0.0,-0.4034515164651224,0.0,0.0,0.0,0.0,0.0,0.0,-13.856,0.0,0.0,0.0
390,0.0,0.0,0.0,-0.396921875,0.0,0.0,0.0,0.0,0.0,0.0,-0.441,0.0,0.0,0.0,0.0,0.0,0.0,-0.408038655209291,0.0,0.0,0.0,0.0,0.0,0.0,-13.856,0.0,0.0,0.0
391,0.0,0.0,0.0,-0.401126953125,0.0,0.0,0.0,0.0,0.0,0.0,-0.447,0.0,0.0,0.0,0.0,0.0,0.0,-0.41222525037055385,0.0,0.0,0.0,0.0,0.0,0.0,-12.324,0.0,0.0,0.0
392,0.0,0.0,0.0,-0.4050341796875,0.0,0.0,0.0,0.0,0.0,0.0,-0.405,0.0,0.0,0.0,0.0,0.0,0.0,-0.41654048490958584,0.0,0.0,0.0,0.0,0.0,0.0,-13.536,0.0,0.0,0.0
393,0.0,0.0,0.0,-0.4096630859375,0.0,0.0,0.0,0.0,0.0,0.0,-0.432,0.0,0.0,0.0,0.0,0.0,0.0,-0.4209013916289222,0.0,0.0,0.0,0.0,0.0,0.0,-13.788,0.0,0.0,0.0
394,0.0,0.0,0.0,-0.41371484375,0.0,0.0,0.0,0.0,0.0,0.0,-0.445,0.0,0.0,0.0,0.0,0.0,0.0,-0.4251245783316942,0.0,0.0,0.0,0.0,0.0,0.0,-13.812,0.0,0.0,0.0
395,0.0,0.0,0.0,-0.4177666015625,0.0,0.0,0.0,0.0,0.0,0.0,-0.402,0.0,0.0,0.0,0.0,0.0,0.0,-0.4293053874640973,0.0,0.0,0.0,0.0,0.0,0.0,-13.012,0.0,0.0,0.0
396,0.0,0.0,0.0,-0.421818359375,0.0,0.0,0.0,0.0,0.0,0.0,-0.415,0.0,0.0,0.0,0.0,0.0,0.0,-0.4335078112145894,0.0,0.0,0.0,0.0,0.0,0.0,-12.052,0.0,0.0,0.0
397,0.0,0.0,0.0,-0.4263203125,0.0,0.0,0.0,0.0,0.0,0.0,-0.418,0.0,0.0,0.0,0.0,0.0,0.0,-0.43761287256637377,0.0,0.0,0.0,0.0,0.0,0.0,-13.192,0.0,0.0,0.0
398,0.0,0.0,0.0,-0.4306611328125,0.0,0.0,0.0,0.0,0.0,0.0,-0.453,0.0,0.0,0.0,0.0,0.0,0.0,-0.4416998000870611,0.0,0.0,0.0,0.0,0.0,0.0,-13.628,0.0,0.0,0.0
399,0.0,0.0,0.0,-0.434279296875,0.0,0.0,0.0,0.0,0.0,0.0,-0.411,0.0,0.0,0.0,0.0,0.0,0.0,-0.445766599821586,0.0,0.0,0.0,0.0,0.0,0.0,-13.216,0.0,0.0,0.0
400,0.0,0.0,0.0,-0.438619140625,0.0,0.0,0.0,0.0,0.0,0.0,-0.385,0.0,0.0,0.0,0.0,0.0,0.0,-0.4497225791822735,0.0,0.0,0.0,0.0,0.0,0.0,-13.72,0.0,0.0,0.0
401,0.0,0.0,0.0,-0.4435458984375,0.0,0.0,0.0,0.0,0.0,0.0,-0.474,0.0,0.0,0.0,0.0,0.0,0.0,-0.4536977247522579,0.0,0.0,0.0,0.0,0.0,0.0,-13.104,0.0,0.0,0.0
402,0.0,0.0,0.0,-0.44759765625,0.0,0.0,0.0,0.0,0.0,0.0,-0.461,0.0,0.0,0.0,0.0,0.0,0.0,-0.4576132995431031,0.0,0.0,0.0,0.0,0.0,0.0,-13.376,0.0,0.0,0.0
403,0.0,0.0,0.0,-0.4515048828125,0.0,0.0,0.0,0.0,0.0,0.0,-0.396,0.0,0.0,0.0,0.0,0.0,0.0,-0.4614756069877859,0.0,0.0,0.0,0.0,0.0,0.0,-13.628,0.0,0.0,0.0
404,0.0,0.0,0.0,-0.455267578125,0.0,0.0,0.0,0.0,0.0,0.0,-0.386,0.0,0.0,0.0,0.0,0.0,0.0,-0.46525706153480284,0.0,0.0,0.0,0.0,0.0,0.0,-12.944,0.0,0.0,0.0
405,0.0,0.0,0.0,-0.4588955078125,0.0,0.0,0.0,0.0,0.0,0.0,-0.369,0.0,0.0,0.0,0.0,0.0,0.0,-0.4690212743593097,0.0,0.0,0.0,0.0,0.0,0.0,-13.468,0.0,0.0,0.0
406,0.0,0.0,0.0,-0.4629462890625,0.0,0.0,0.0,0.0,0.0,0.0,-0.382,0.0,0.0,0.0,0.0,0.0,0.0,-0.47274407400861895,0.0,0.0,0.0,0.0,0.0,0.0,-14.016,0.0,0.0,0.0
407,0.0,0.0,0.0,-0.466998046875,0.0,0.0,0.0,0.0,0.0,0.0,-0.415,0.0,0.0,0.0,0.0,0.0,0.0,-0.4764151390614205,0.0,0.0,0.0,0.0,0.0,0.0,-13.376,0.0,0.0,0.0
408,0.0,0.0,0.0,-0.4707607421875,0.0,0.0,0.0,0.0,0.0,0.0,-0.392,0.0,0.0,0.0,0.0,0.0,0.0,-0.48004251070702364,0.0,0.0,0.0,0.0,0.0,0.0,-12.692,0.0,0.0,0.0
409,0.0,0.0,0.0,-0.4748125,0.0,0.0,0.0,0.0,0.0,0.0,-0.398,0.0,0.0,0.0,0.0,0.0,0.0,-0.4836055166471587,0.0,0.0,0.0,0.0,0.0,0.0,-12.464,0.0,0.0,0.0
410,0.0,0.0,0.0,-0.4787197265625,0.0,0.0,0.0,0.0,0.0,0.0,-0.405,0.0,0.0,0.0,0.0,0.0,0.0,-0.4871508977816827,0.0,0.0,0.0,0.0,0.0,0.0,-12.464,0.0,0.0,0.0
411,0.0,0.0,0.0,-0.482337890625,0.0,0.0,0.0,0.0,0.0,0.0,-0.371,0.0,0.0,0.0,0.0,0.0,0.0,-0.4906394814584147,0.0,0.0,0.0,0.0,0.0,0.0,-12.852,0.0,0.0,0.0
412,0.0,0.0,0.0,-0.4858125,0.0,0.0,0.0,0.0,0.0,0.0,-0.368,0.0,0.0,0.0,0.0,0.0,0.0,-0.49403065328075446,0.0,0.0,0.0,0.0,0.0,0.0,-12.6,0.0,0.0,0.0
413,0.0,0.0,0.0,-0.489294921875,0.0,0.0,0.0,0.0,0.0,0.0,-0.353,0.0,0.0,0.0,0.0,0.0,0.0,-0.49743831343401795,0.0,0.0,0.0,0.0,0.0,0.0,-12.804,0.0,0.0,0.0
414,0.0,0.0,0.0,-0.49276953125,0.0,0.0,0.0,0.0,0.0,0.0,-0.35,0.0,0.0,0.0,0.0,0.0,0.0,-0.5007775253991759,0.0,0.0,0.0,0.0,0.0,0.0,-12.028,0.0,0.0,0.0
415,0.0,0.0,0.0,-0.4960986328125,0.0,0.0,0.0,0.0,0.0,0.0,-0.34,0.0,0.0,0.0,0.0,0.0,0.0,-0.5040391434132455,0.0,0.0,0.0,0.0,0.0,0.0,-12.624,0.0,0.0,0.0
416,0.0,0.0,0.0,-0.499861328125,0.0,0.0,0.0,0.0,0.0,0.0,-0.361,0.0,0.0,0.0,0.0,0.0,0.0,-0.5073008047315791,0.0,0.0,0.0,0.0,0.0,0.0,-12.484,0.0,0.0,0.0
417,0.0,0.0,0.0,-0.5027578125,0.0,0.0,0.0,0.0,0.0,0.0,-0.347,0.0,0.0,0.0,0.0,0.0,0.0,-0.5104562192308983,0.0,0.0,0.0,0.0,0.0,0.0,-11.892,0.0,0.0,0.0
418,0.0,0.0,0.0,-0.506232421875,0.0,0.0,0.0,0.0,0.0,0.0,-0.3,0.0,0.0,0.0,0.0,0.0,0.0,-0.5135864785757294,0.0,0.0,0.0,0.0,0.0,0.0,-13.284,0.0,0.0,0.0
419,0.0,0.0,0.0,-0.5101396484375,0.0,0.0,0.0,0.0,0.0,0.0,-0.376,0.0,0.0,0.0,0.0,0.0,0.0,-0.516638675295167,0.0,0.0,0.0,0.0,0.0,0.0,-12.828,0.0,0.0,0.0
420,0.0,0.0,0.0,-0.5126025390625,0.0,0.0,0.0,0.0,0.0,0.0,-0.341,0.0,0.0,0.0,0.0,0.0,0.0,-0.519714740715912,0.0,0.0,0.0,0.0,0.0,0.0,-12.004,0.0,0.0,0.0
421,0.0,0.0,0.0,-0.515779296875,0.0,0.0,0.0,0.0,0.0,0.0,-0.265,0.0,0.0,0.0,0.0,0.0,0.0,-0.5226607761247047,0.0,0.0,0.0,0.0,0.0,0.0,-13.284,0.0,0.0,0.0
422,0.0,0.0,0.0,-0.5191083984375,0.0,0.0,0.0,0.0,0.0,0.0,-0.336,0.0,0.0,0.0,0.0,0.0,0.0,-0.525567893561659,0.0,0.0,0.0,0.0,0.0,0.0,-12.828,0.0,0.0,0.0
423,0.0,0.0,0.0,-0.5217255859375,0.0,0.0,0.0,0.0,0.0,0.0,-0.302,0.0,0.0,0.0,0.0,0.0,0.0,-0.5284385886873517,0.0,0.0,0.0,0.0,0.0,0.0,-13.148,0.0,0.0,0.0
424,0.0,0.0,0.0,-0.5244775390625,0.0,0.0,0.0,0.0,0.0,0.0,-0.269,0.0,0.0,0.0,0.0,0.0,0.0,-0.5312680459507683,0.0,0.0,0.0,0.0,0.0,0.0,-12.692,0.0,0.0,0.0
425,0.0,0.0,0.0,-0.526931640625,0.0,0.0,0.0,0.0,0.0,0.0,-0.269,0.0,0.0,0.0,0.0,0.0,0.0,-0.5340156619469612,0.0,0.0,0.0,0.0,0.0,0.0,-12.668,0.0,0.0,0.0
426,0.0,0.0,0.0,-0.5293955078125,0.0,0.0,0.0,0.0,0.0,0.0,-0.25,0.0,0.0,0.0,0.0,0.0,0.0,-0.5367393961720637,0.0,0.0,0.0,0.0,0.0,0.0,-11.936,0.0,0.0,0.0
427,0.0,0.0,0.0,-0.5317138671875,0.0,0.0,0.0,0.0,0.0,0.0,-0.23,0.0,0.0,0.0,0.0,0.0,0.0,-0.5393857358911258,0.0,0.0,0.0,0.0,0.0,0.0,-12.304,0.0,0.0,0.0
428,0.0,0.0,0.0,-0.5348994140625,0.0,0.0,0.0,0.0,0.0,0.0,-0.274,0.0,0.0,0.0,0.0,0.0,0.0,-0.5419681709069886,0.0,0.0,0.0,0.0,0.0,0.0,-13.356,0.0,0.0,0.0
429,0.0,0.0,0.0,-0.537642578125,0.0,0.0,0.0,0.0,0.0,0.0,-0.313,0.0,0.0,0.0,0.0,0.0,0.0,-0.544525366282239,0.0,0.0,0.0,0.0,0.0,0.0,-12.464,0.0,0.0,0.0
430,0.0,0.0,0.0,-0.5401064453125,0.0,0.0,0.0,0.0,0.0,0.0,-0.249,0.0,0.0,0.0,0.0,0.0,0.0,-0.5470225621485025,0.0,0.0,0.0,0.0,0.0,0.0,-12.324,0.0,0.0,0.0
431,0.0,0.0,0.0,-0.5430029296875,0.0,0.0,0.0,0.0,0.0,0.0,-0.273,0.0,0.0,0.0,0.0,0.0,0.0,-0.5494597906274158,0.0,0.0,0.0,0.0,0.0,0.0,-11.96,0.0,0.0,0.0
432,0.0,0.0,0.0,-0.5456015625,0.0,0.0,0.0,0.0,0.0,0.0,-0.274,0.0,0.0,0.0,0.0,0.0,0.0,-0.551856693280108,0.0,0.0,0.0,0.0,0.0,0.0,-12.988,0.0,0.0,0.0
433,0.0,0.0,0.0,-0.548353515625,0.0,0.0,0.0,0.0,0.0,0.0,-0.276,0.0,0.0,0.0,0.0,0.0,0.0,-0.5541825050839745,0.0,0.0,0.0,0.0,0.0,0.0,-12.508,0.0,0.0,0.0
434,0.0,0.0,0.0,-0.5506728515625,0.0,0.0,0.0,0.0,0.0,0.0,-0.253,0.0,0.0,0.0,0.0,0.0,0.0,-0.5564426946058884,0.0,0.0,0.0,0.0,0.0,0.0,-13.032,0.0,0.0,0.0
435,0.0,0.0,0.0,-0.5534150390625,0.0,0.0,0.0,0.0,0.0,0.0,-0.249,0.0,0.0,0.0,0.0,0.0,0.0,-0.5586528793609827,0.0,0.0,0.0,0.0,0.0,0.0,-12.964,0.0,0.0,0.0
436,0.0,0.0,0.0,-0.5557431640625,0.0,0.0,0.0,0.0,0.0,0.0,-0.266,0.0,0.0,0.0,0.0,0.0,0.0,-0.560839705189306,0.0,0.0,0.0,0.0,0.0,0.0,-11.684,0.0,0.0,0.0
437,0.0,0.0,0.0,-0.55791796875,0.0,0.0,0.0,0.0,0.0,0.0,-0.224,0.0,0.0,0.0,0.0,0.0,0.0,-0.5629217055675325,0.0,0.0,0.0,0.0,0.0,0.0,-12.212,0.0,0.0,0.0
438,0.0,0.0,0.0,-0.560083984375,0.0,0.0,0.0,0.0,0.0,0.0,-0.228,0.0,0.0,0.0,0.0,0.0,0.0,-0.5649607422353621,0.0,0.0,0.0,0.0,0.0,0.0,-11.96,0.0,0.0,0.0
439,0.0,0.0,0.0,-0.5621142578125,0.0,0.0,0.0,0.0,0.0,0.0,-0.198,0.0,0.0,0.0,0.0,0.0,0.0,-0.5669673517758492,0.0,0.0,0.0,0.0,0.0,0.0,-12.76,0.0,0.0,0.0
440,0.0,0.0,0.0,-0.564568359375,0.0,0.0,0.0,0.0,0.0,0.0,-0.233,0.0,0.0,0.0,0.0,0.0,0.0,-0.5689004703924454,0.0,0.0,0.0,0.0,0.0,0.0,-11.98,0.0,0.0,0.0
441,0.0,0.0,0.0,-0.5667431640625,0.0,0.0,0.0,0.0,0.0,0.0,-0.232,0.0,0.0,0.0,0.0,0.0,0.0,-0.5707797212553578,0.0,0.0,0.0,0.0,0.0,0.0,-12.212,0.0,0.0,0.0
442,0.0,0.0,0.0,-0.5689091796875,0.0,0.0,0.0,0.0,0.0,0.0,-0.219,0.0,0.0,0.0,0.0,0.0,0.0,-0.5725953734250796,0.0,0.0,0.0,0.0,0.0,0.0,-11.572,0.0,0.0,0.0
443,0.0,0.0,0.0,-0.570794921875,0.0,0.0,0.0,0.0,0.0,0.0,-0.209,0.0,0.0,0.0,0.0,0.0,0.0,-0.5743593232618583,0.0,0.0,0.0,0.0,0.0,0.0,-11.548,0.0,0.0,0.0
444,0.0,0.0,0.0,-0.57252734375,0.0,0.0,0.0,0.0,0.0,0.0,-0.176,0.0,0.0,0.0,0.0,0.0,0.0,-0.5767194131905279,0.0,0.0,0.0,0.0,0.0,0.0,-12.484,0.0,0.0,0.0
445,0.0,0.0,0.0,-0.5745576171875,0.0,0.0,0.0,0.0,0.0,0.0,-0.2,0.0,0.0,0.0,0.0,0.0,0.0,-0.5777094156850426,0.0,0.0,0.0,0.0,0.0,0.0,-12.576,0.0,0.0,0.0
446,0.0,0.0,0.0,-0.5760009765625,0.0,0.0,0.0,0.0,0.0,0.0,-0.185,0.0,0.0,0.0,0.0,0.0,0.0,-0.5793033883296288,0.0,0.0,0.0,0.0,0.0,0.0,-12.12,0.0,0.0,0.0
447,0.0,0.0,0.0,-0.5774541015625,0.0,0.0,0.0,0.0,0.0,0.0,-0.139,0.0,0.0,0.0,0.0,0.0,0.0,-0.5808383383647967,0.0,0.0,0.0,0.0,0.0,0.0,-12.028,0.0,0.0,0.0
448,0.0,0.0,0.0,-0.5793310546875,0.0,0.0,0.0,0.0,0.0,0.0,-0.159,0.0,0.0,0.0,0.0,0.0,0.0,-0.5823195592009958,0.0,0.0,0.0,0.0,0.0,0.0,-12.464,0.0,0.0,0.0
449,0.0,0.0,0.0,-0.5809189453125,0.0,0.0,0.0,0.0,0.0,0.0,-0.181,0.0,0.0,0.0,0.0,0.0,0.0,-0.583740537468358,0.0,0.0,0.0,0.0,0.0,0.0,-12.232,0.0,0.0,0.0
450,0.0,0.0,0.0,-0.5822275390625,0.0,0.0,0.0,0.0,0.0,0.0,-0.151,0.0,0.0,0.0,0.0,0.0,0.0,-0.5850964117314944,0.0,0.0,0.0,0.0,0.0,0.0,-12.372,0.0,0.0,0.0
451,0.0,0.0,0.0,-0.5833818359375,0.0,0.0,0.0,0.0,0.0,0.0,-0.127,0.0,0.0,0.0,0.0,0.0,0.0,-0.5863984273528199,0.0,0.0,0.0,0.0,0.0,0.0,-12.392,0.0,0.0,0.0
452,0.0,0.0,0.0,-0.584681640625,0.0,0.0,0.0,0.0,0.0,0.0,-0.121,0.0,0.0,0.0,0.0,0.0,0.0,-0.587628242854604,0.0,0.0,0.0,0.0,0.0,0.0,-12.552,0.0,0.0,0.0
453,0.0,0.0,0.0,-0.585990234375,0.0,0.0,0.0,0.0,0.0,0.0,-0.126,0.0,0.0,0.0,0.0,0.0,0.0,-0.588819291931182,0.0,0.0,0.0,0.0,0.0,0.0,-12.6,0.0,0.0,0.0
454,0.0,0.0,0.0,-0.5871455078125,0.0,0.0,0.0,0.0,0.0,0.0,-0.138,0.0,0.0,0.0,0.0,0.0,0.0,-0.5899396816017884,0.0,0.0,0.0,0.0,0.0,0.0,-12.44,0.0,0.0,0.0
455,0.0,0.0,0.0,-0.58801171875,0.0,0.0,0.0,0.0,0.0,0.0,-0.103,0.0,0.0,0.0,0.0,0.0,0.0,-0.59101028997911,0.0,0.0,0.0,0.0,0.0,0.0,-12.484,0.0,0.0,0.0
456,0.0,0.0,0.0,-0.58888671875,0.0,0.0,0.0,0.0,0.0,0.0,-0.088,0.0,0.0,0.0,0.0,0.0,0.0,-0.5920038491807514,0.0,0.0,0.0,0.0,0.0,0.0,-12.12,0.0,0.0,0.0
457,0.0,0.0,0.0,-0.5897529296875,0.0,0.0,0.0,0.0,0.0,0.0,-0.087,0.0,0.0,0.0,0.0,0.0,0.0,-0.5929466745728286,0.0,0.0,0.0,0.0,0.0,0.0,-12.324,0.0,0.0,0.0
458,0.0,0.0,0.0,-0.590763671875,0.0,0.0,0.0,0.0,0.0,0.0,-0.089,0.0,0.0,0.0,0.0,0.0,0.0,-0.5938409901438447,0.0,0.0,0.0,0.0,0.0,0.0,-12.852,0.0,0.0,0.0
459,0.0,0.0,0.0,-0.591927734375,0.0,0.0,0.0,0.0,0.0,0.0,-0.111,0.0,0.0,0.0,0.0,0.0,0.0,-0.5946655754903868,0.0,0.0,0.0,0.0,0.0,0.0,-12.736,0.0,0.0,0.0
460,0.0,0.0,0.0,-0.592947265625,0.0,0.0,0.0,0.0,0.0,0.0,-0.107,0.0,0.0,0.0,0.0,0.0,0.0,-0.5954347992976667,0.0,0.0,0.0,0.0,0.0,0.0,-12.644,0.0,0.0,0.0
461,0.0,0.0,0.0,-0.5939580078125,0.0,0.0,0.0,0.0,0.0,0.0,-0.11,0.0,0.0,0.0,0.0,0.0,0.0,-0.5961488559626649,0.0,0.0,0.0,0.0,0.0,0.0,-12.052,0.0,0.0,0.0
462,0.0,0.0,0.0,-0.59482421875,0.0,0.0,0.0,0.0,0.0,0.0,-0.1,0.0,0.0,0.0,0.0,0.0,0.0,-0.5967927907622295,0.0,0.0,0.0,0.0,0.0,0.0,-11.96,0.0,0.0,0.0
463,0.0,0.0,0.0,-0.5955458984375,0.0,0.0,0.0,0.0,0.0,0.0,-0.079,0.0,0.0,0.0,0.0,0.0,0.0,-0.5973821522020832,0.0,0.0,0.0,0.0,0.0,0.0,-12.14,0.0,0.0,0.0
464,0.0,0.0,0.0,-0.596267578125,0.0,0.0,0.0,0.0,0.0,0.0,-0.071,0.0,0.0,0.0,0.0,0.0,0.0,-0.5979156493586103,0.0,0.0,0.0,0.0,0.0,0.0,-12.372,0.0,0.0,0.0
465,0.0,0.0,0.0,-0.5968544921875,0.0,0.0,0.0,0.0,0.0,0.0,-0.062,0.0,0.0,0.0,0.0,0.0,0.0,-0.598387938114387,0.0,0.0,0.0,0.0,0.0,0.0,-12.072,0.0,0.0,0.0
466,0.0,0.0,0.0,-0.597431640625,0.0,0.0,0.0,0.0,0.0,0.0,-0.059,0.0,0.0,0.0,0.0,0.0,0.0,-0.5987938190626579,0.0,0.0,0.0,0.0,0.0,0.0,-11.8,0.0,0.0,0.0
467,0.0,0.0,0.0,-0.597865234375,0.0,0.0,0.0,0.0,0.0,0.0,-0.054,0.0,0.0,0.0,0.0,0.0,0.0,-0.599146718405146,0.0,0.0,0.0,0.0,0.0,0.0,-11.524,0.0,0.0,0.0
468,0.0,0.0,0.0,-0.5982978515625,0.0,0.0,0.0,0.0,0.0,0.0,-0.043,0.0,0.0,0.0,0.0,0.0,0.0,-0.5994377782270118,0.0,0.0,0.0,0.0,0.0,0.0,-11.64,0.0,0.0,0.0
469,0.0,0.0,0.0,-0.5987314453125,0.0,0.0,0.0,0.0,0.0,0.0,-0.045,0.0,0.0,0.0,0.0,0.0,0.0,-0.5996647647779219,0.0,0.0,0.0,0.0,0.0,0.0,-11.892,0.0,0.0,0.0
470,0.0,0.0,0.0,-0.5991640625,0.0,0.0,0.0,0.0,0.0,0.0,-0.046,0.0,0.0,0.0,0.0,0.0,0.0,-0.5998378672142142,0.0,0.0,0.0,0.0,0.0,0.0,-11.708,0.0,0.0,0.0
471,0.0,0.0,0.0,-0.59930859375,0.0,0.0,0.0,0.0,0.0,0.0,-0.032,0.0,0.0,0.0,0.0,0.0,0.0,-0.5999455132866383,0.0,0.0,0.0,0.0,0.0,0.0,-11.66,0.0,0.0,0.0
472,0.0,0.0,0.0,-0.599453125,0.0,0.0,0.0,0.0,0.0,0.0,-0.02,0.0,0.0,0.0,0.0,0.0,0.0,-0.599996394325058,0.0,0.0,0.0,0.0,0.0,0.0,-11.412,0.0,0.0,0.0
473,0.0,0.0,0.0,-0.599453125,0.0,0.0,0.0,0.0,0.0,0.0,-0.007,0.0,0.0,0.0,0.0,0.0,0.0,-0.5999863549504799,0.0,0.0,0.0,0.0,0.0,0.0,-11.684,0.0,0.0,0.0
474,0.0,0.0,0.0,-0.599453125,0.0,0.0,0.0,0.0,0.0,0.0,-0.001,0.0,0.0,0.0,0.0,0.0,0.0,-0.5999180291120134,0.0,0.0,0.0,0.0,0.0,0.0,-11.868,0.0,0.0,0.0
475,0.0,0.0,0.0,-0.59959765625,0.0,0.0,0.0,0.0,0.0,0.0,-0.005,0.0,0.0,0.0,0.0,0.0,0.0,-0.5997878222631633,0.0,0.0,0.0,0.0,0.0,0.0,-12.324,0.0,0.0,0.0
476,0.0,0.0,0.0,-0.59959765625,0.0,0.0,0.0,0.0,0.0,0.0,-0.011,0.0,0.0,0.0,0.0,0.0,0.0,-0.5995974304720348,0.0,0.0,0.0,0.0,0.0,0.0,-12.12,0.0,0.0,0.0
477,0.0,0.0,0.0,-0.5997421875,0.0,0.0,0.0,0.0,0.0,0.0,-0.001,0.0,0.0,0.0,0.0,0.0,0.0,-0.5993484533964087,0.0,0.0,0.0,0.0,0.0,0.0,-12.072,0.0,0.0,0.0
478,0.0,0.0,0.0,-0.5997421875,0.0,0.0,0.0,0.0,0.0,0.0,-0.011,0.0,0.0,0.0,0.0,0.0,0.0,-0.5990392173218849,0.0,0.0,0.0,0.0,0.0,0.0,-11.912,0.0,0.0,0.0
479,0.0,0.0,0.0,-0.59959765625,0.0,0.0,0.0,0.0,0.0,0.0,-0.001,0.0,0.0,0.0,0.0,0.0,0.0,-0.5986698199395978,0.0,0.0,0.0,0.0,0.0,0.0,-12.028,0.0,0.0,0.0
480,0.0,0.0,0.0,-0.59959765625,0.0,0.0,0.0,0.0,0.0,0.0,0.01,0.0,0.0,0.0,0.0,0.0,0.0,-0.5982399426244466,0.0,0.0,0.0,0.0,0.0,0.0,-12.188,0.0,0.0,0.0
481,0.0,0.0,0.0,-0.599453125,0.0,0.0,0.0,0.0,0.0,0.0,0.004,0.0,0.0,0.0,0.0,0.0,0.0,-0.5977501353905058,0.0,0.0,0.0,0.0,0.0,0.0,-12.348,0.0,0.0,0.0
482,0.0,0.0,0.0,-0.599453125,0.0,0.0,0.0,0.0,0.0,0.0,0.01,0.0,0.0,0.0,0.0,0.0,0.0,-0.5972028837217616,0.0,0.0,0.0,0.0,0.0,0.0,-12.484,0.0,0.0,0.0
483,0.0,0.0,0.0,-0.599453125,0.0,0.0,0.0,0.0,0.0,0.0,-0.001,0.0,0.0,0.0,0.0,0.0,0.0,-0.5965950532762273,0.0,0.0,0.0,0.0,0.0,0.0,-12.304,0.0,0.0,0.0
484,0.0,0.0,0.0,-0.59959765625,0.0,0.0,0.0,0.0,0.0,0.0,-0.008,0.0,0.0,0.0,0.0,0.0,0.0,-0.595924765831584,0.0,0.0,0.0,0.0,0.0,0.0,-12.232,0.0,0.0,0.0
485,0.0,0.0,0.0,-0.59959765625,0.0,0.0,0.0,0.0,0.0,0.0,-0.009,0.0,0.0,0.0,0.0,0.0,0.0,-0.5951890582447396,0.0,0.0,0.0,0.0,0.0,0.0,-12.348,0.0,0.0,0.0
486,0.0,0.0,0.0,-0.59959765625,0.0,0.0,0.0,0.0,0.0,0.0,-0.001,0.0,0.0,0.0,0.0,0.0,0.0,-0.5944060940028341,0.0,0.0,0.0,0.0,0.0,0.0,-12.164,0.0,0.0,0.0
487,0.0,0.0,0.0,-0.599453125,0.0,0.0,0.0,0.0,0.0,0.0,-0.001,0.0,0.0,0.0,0.0,0.0,0.0,-0.5935649467757832,0.0,0.0,0.0,0.0,0.0,0.0,-11.868,0.0,0.0,0.0
488,0.0,0.0,0.0,-0.59930859375,0.0,0.0,0.0,0.0,0.0,0.0,0.014,0.0,0.0,0.0,0.0,0.0,0.0,-0.592648312647018,0.0,0.0,0.0,0.0,0.0,0.0,-11.572,0.0,0.0,0.0
489,0.0,0.0,0.0,-0.59901953125,0.0,0.0,0.0,0.0,0.0,0.0,0.026,0.0,0.0,0.0,0.0,0.0,0.0,-0.5916987400247596,0.0,0.0,0.0,0.0,0.0,0.0,-11.364,0.0,0.0,0.0
490,0.0,0.0,0.0,-0.5985869140625,0.0,0.0,0.0,0.0,0.0,0.0,0.034,0.0,0.0,0.0,0.0,0.0,0.0,-0.5906602066575732,0.0,0.0,0.0,0.0,0.0,0.0,-11.272,0.0,0.0,0.0
491,0.0,0.0,0.0,-0.5980087890625,0.0,0.0,0.0,0.0,0.0,0.0,0.051,0.0,0.0,0.0,0.0,0.0,0.0,-0.5895720382392615,0.0,0.0,0.0,0.0,0.0,0.0,-11.18,0.0,0.0,0.0
492,0.0,0.0,0.0,-0.597287109375,0.0,0.0,0.0,0.0,0.0,0.0,0.061,0.0,0.0,0.0,0.0,0.0,0.0,-0.5884339824312836,0.0,0.0,0.0,0.0,0.0,0.0,-11.204,0.0,0.0,0.0
493,0.0,0.0,0.0,-0.596412109375,0.0,0.0,0.0,0.0,0.0,0.0,0.071,0.0,0.0,0.0,0.0,0.0,0.0,-0.5872301757066999,0.0,0.0,0.0,0.0,0.0,0.0,-11.088,0.0,0.0,0.0
494,0.0,0.0,0.0,-0.5955458984375,0.0,0.0,0.0,0.0,0.0,0.0,0.087,0.0,0.0,0.0,0.0,0.0,0.0,-0.5859774195420665,0.0,0.0,0.0,0.0,0.0,0.0,-11.088,0.0,0.0,0.0
495,0.0,0.0,0.0,-0.59453515625,0.0,0.0,0.0,0.0,0.0,0.0,0.095,0.0,0.0,0.0,0.0,0.0,0.0,-0.5846518337820458,0.0,0.0,0.0,0.0,0.0,0.0,-10.816,0.0,0.0,0.0
496,0.0,0.0,0.0,-0.593236328125,0.0,0.0,0.0,0.0,0.0,0.0,0.12,0.0,0.0,0.0,0.0,0.0,0.0,-0.5832699837026776,0.0,0.0,0.0,0.0,0.0,0.0,-11.296,0.0,0.0,0.0
497,0.0,0.0,0.0,-0.591927734375,0.0,0.0,0.0,0.0,0.0,0.0,0.126,0.0,0.0,0.0,0.0,0.0,0.0,-0.5818394123300848,0.0,0.0,0.0,0.0,0.0,0.0,-11.34,0.0,0.0,0.0
498,0.0,0.0,0.0,-0.590330078125,0.0,0.0,0.0,0.0,0.0,0.0,0.144,0.0,0.0,0.0,0.0,0.0,0.0,-0.580329161220567,0.0,0.0,0.0,0.0,0.0,0.0,-11.548,0.0,0.0,0.0
499,0.0,0.0,0.0,-0.58903125,0.0,0.0,0.0,0.0,0.0,0.0,0.146,0.0,0.0,0.0,0.0,0.0,0.0,-0.5787976126439386,0.0,0.0,0.0,0.0,0.0,0.0,-12.096,0.0,0.0,0.0
500,0.0,0.0,0.0,-0.58743359375,0.0,0.0,0.0,0.0,0.0,0.0,0.138,0.0,0.0,0.0,0.0,0.0,0.0,-0.5771705791160179,0.0,0.0,0.0,0.0,0.0,0.0,-12.004,0.0,0.0,0.0
501,0.0,0.0,0.0,-0.585845703125,0.0,0.0,0.0,0.0,0.0,0.0,0.161,0.0,0.0,0.0,0.0,0.0,0.0,-0.5755183551431525,0.0,0.0,0.0,0.0,0.0,0.0,-12.028,0.0,0.0,0.0
502,0.0,0.0,0.0,-0.5841044921875,0.0,0.0,0.0,0.0,0.0,0.0,0.166,0.0,0.0,0.0,0.0,0.0,0.0,-0.5737918031351161,0.0,0.0,0.0,0.0,0.0,0.0,-12.004,0.0,0.0,0.0
503,0.0,0.0,0.0,-0.5823720703125,0.0,0.0,0.0,0.0,0.0,0.0,0.179,0.0,0.0,0.0,0.0,0.0,0.0,-0.5720095527319834,0.0,0.0,0.0,0.0,0.0,0.0,-12.256,0.0,0.0,0.0
504,0.0,0.0,0.0,-0.5804853515625,0.0,0.0,0.0,0.0,0.0,0.0,0.178,0.0,0.0,0.0,0.0,0.0,0.0,-0.5701705246730304,0.0,0.0,0.0,0.0,0.0,0.0,-12.12,0.0,0.0,0.0
505,0.0,0.0,0.0,-0.578609375,0.0,0.0,0.0,0.0,0.0,0.0,0.189,0.0,0.0,0.0,0.0,0.0,0.0,-0.5682586887893067,0.0,0.0,0.0,0.0,0.0,0.0,-12.464,0.0,0.0,0.0
506,0.0,0.0,0.0,-0.57672265625,0.0,0.0,0.0,0.0,0.0,0.0,0.191,0.0,0.0,0.0,0.0,0.0,0.0,-0.5663268502947632,0.0,0.0,0.0,0.0,0.0,0.0,-12.44,0.0,0.0,0.0
507,0.0,0.0,0.0,-0.574990234375,0.0,0.0,0.0,0.0,0.0,0.0,0.177,0.0,0.0,0.0,0.0,0.0,0.0,-0.5643025645952063,0.0,0.0,0.0,0.0,0.0,0.0,-12.44,0.0,0.0,0.0
508,0.0,0.0,0.0,-0.5731044921875,0.0,0.0,0.0,0.0,0.0,0.0,0.181,0.0,0.0,0.0,0.0,0.0,0.0,-0.5622509774776475,0.0,0.0,0.0,0.0,0.0,0.0,-12.164,0.0,0.0,0.0
509,0.0,0.0,0.0,-0.5712275390625,0.0,0.0,0.0,0.0,0.0,0.0,0.193,0.0,0.0,0.0,0.0,0.0,0.0,-0.56012567866156,0.0,0.0,0.0,0.0,0.0,0.0,-12.392,0.0,0.0,0.0
510,0.0,0.0,0.0,-0.569197265625,0.0,0.0,0.0,0.0,0.0,0.0,0.197,0.0,0.0,0.0,0.0,0.0,0.0,-0.5579286039648812,0.0,0.0,0.0,0.0,0.0,0.0,-11.96,0.0,0.0,0.0
511,0.0,0.0,0.0,-0.5670322265625,0.0,0.0,0.0,0.0,0.0,0.0,0.21,0.0,0.0,0.0,0.0,0.0,0.0,-0.5557223350696977,0.0,0.0,0.0,0.0,0.0,0.0,-12.004,0.0,0.0,0.0
512,0.0,0.0,0.0,-0.565001953125,0.0,0.0,0.0,0.0,0.0,0.0,0.211,0.0,0.0,0.0,0.0,0.0,0.0,-0.5534310696258353,0.0,0.0,0.0,0.0,0.0,0.0,-11.96,0.0,0.0,0.0
513,0.0,0.0,0.0,-0.56298046875,0.0,0.0,0.0,0.0,0.0,0.0,0.201,0.0,0.0,0.0,0.0,0.0,0.0,-0.5510618201034276,0.0,0.0,0.0,0.0,0.0,0.0,-12.096,0.0,0.0,0.0
514,0.0,0.0,0.0,-0.5610947265625,0.0,0.0,0.0,0.0,0.0,0.0,0.199,0.0,0.0,0.0,0.0,0.0,0.0,-0.5486893205190403,0.0,0.0,0.0,0.0,0.0,0.0,-11.912,0.0,0.0,0.0
515,0.0,0.0,0.0,-0.5589287109375,0.0,0.0,0.0,0.0,0.0,0.0,0.198,0.0,0.0,0.0,0.0,0.0,0.0,-0.5462247019411237,0.0,0.0,0.0,0.0,0.0,0.0,-11.844,0.0,0.0,0.0
516,0.0,0.0,0.0,-0.5568984375,0.0,0.0,0.0,0.0,0.0,0.0,0.208,0.0,0.0,0.0,0.0,0.0,0.0,-0.5436890717164466,0.0,0.0,0.0,0.0,0.0,0.0,-11.98,0.0,0.0,0.0
517,0.0,0.0,0.0,-0.554876953125,0.0,0.0,0.0,0.0,0.0,0.0,0.207,0.0,0.0,0.0,0.0,0.0,0.0,-0.5411547598217301,0.0,0.0,0.0,0.0,0.0,0.0,-12.072,0.0,0.0,0.0
518,0.0,0.0,0.0,-0.5524052734375,0.0,0.0,0.0,0.0,0.0,0.0,0.223,0.0,0.0,0.0,0.0,0.0,0.0,-0.538546729937262,0.0,0.0,0.0,0.0,0.0,0.0,-12.164,0.0,0.0,0.0
519,0.0,0.0,0.0,-0.5500947265625,0.0,0.0,0.0,0.0,0.0,0.0,0.235,0.0,0.0,0.0,0.0,0.0,0.0,-0.5358563741751224,0.0,0.0,0.0,0.0,0.0,0.0,-11.892,0.0,0.0,0.0
520,0.0,0.0,0.0,-0.5477763671875,0.0,0.0,0.0,0.0,0.0,0.0,0.237,0.0,0.0,0.0,0.0,0.0,0.0,-0.5331438613416106,0.0,0.0,0.0,0.0,0.0,0.0,-11.616,0.0,0.0,0.0
521,0.0,0.0,0.0,-0.5453125,0.0,0.0,0.0,0.0,0.0,0.0,0.24,0.0,0.0,0.0,0.0,0.0,0.0,-0.5303558790642157,0.0,0.0,0.0,0.0,0.0,0.0,-11.8,0.0,0.0,0.0
522,0.0,0.0,0.0,-0.5430029296875,0.0,0.0,0.0,0.0,0.0,0.0,0.234,0.0,0.0,0.0,0.0,0.0,0.0,-0.5275096147647417,0.0,0.0,0.0,0.0,0.0,0.0,-11.64,0.0,0.0,0.0
523,0.0,0.0,0.0,-0.5405390625,0.0,0.0,0.0,0.0,0.0,0.0,0.245,0.0,0.0,0.0,0.0,0.0,0.0,-0.5246517979100263,0.0,0.0,0.0,0.0,0.0,0.0,-11.98,0.0,0.0,0.0
524,0.0,0.0,0.0,-0.537931640625,0.0,0.0,0.0,0.0,0.0,0.0,0.254,0.0,0.0,0.0,0.0,0.0,0.0,-0.5216955885403921,0.0,0.0,0.0,0.0,0.0,0.0,-11.572,0.0,0.0,0.0
525,0.0,0.0,0.0,-0.5351884765625,0.0,0.0,0.0,0.0,0.0,0.0,0.271,0.0,0.0,0.0,0.0,0.0,0.0,-0.5187046586469852,0.0,0.0,0.0,0.0,0.0,0.0,-11.592,0.0,0.0,0.0
526,0.0,0.0,0.0,-0.5324365234375,0.0,0.0,0.0,0.0,0.0,0.0,0.28,0.0,0.0,0.0,0.0,0.0,0.0,-0.5156440443701251,0.0,0.0,0.0,0.0,0.0,0.0,-11.8,0.0,0.0,0.0
527,0.0,0.0,0.0,-0.52968359375,0.0,0.0,0.0,0.0,0.0,0.0,0.278,0.0,0.0,0.0,0.0,0.0,0.0,-0.5125910868114242,0.0,0.0,0.0,0.0,0.0,0.0,-12.14,0.0,0.0,0.0
528,0.0,0.0,0.0,-0.526642578125,0.0,0.0,0.0,0.0,0.0,0.0,0.283,0.0,0.0,0.0,0.0,0.0,0.0,-0.5094318231939183,0.0,0.0,0.0,0.0,0.0,0.0,-12.212,0.0,0.0,0.0
529,0.0,0.0,0.0,-0.523611328125,0.0,0.0,0.0,0.0,0.0,0.0,0.304,0.0,0.0,0.0,0.0,0.0,0.0,-0.5062053078183819,0.0,0.0,0.0,0.0,0.0,0.0,-12.532,0.0,0.0,0.0
530,0.0,0.0,0.0,-0.5205703125,0.0,0.0,0.0,0.0,0.0,0.0,0.302,0.0,0.0,0.0,0.0,0.0,0.0,-0.5030210911989076,0.0,0.0,0.0,0.0,0.0,0.0,-12.644,0.0,0.0,0.0
531,0.0,0.0,0.0,-0.5173759765625,0.0,0.0,0.0,0.0,0.0,0.0,0.314,0.0,0.0,0.0,0.0,0.0,0.0,-0.4997170611815045,0.0,0.0,0.0,0.0,0.0,0.0,-12.484,0.0,0.0,0.0
532,0.0,0.0,0.0,-0.51390234375,0.0,0.0,0.0,0.0,0.0,0.0,0.333,0.0,0.0,0.0,0.0,0.0,0.0,-0.49635742484425716,0.0,0.0,0.0,0.0,0.0,0.0,-12.324,0.0,0.0,0.0
533,0.0,0.0,0.0,-0.510427734375,0.0,0.0,0.0,0.0,0.0,0.0,0.347,0.0,0.0,0.0,0.0,0.0,0.0,-0.4929806087670681,0.0,0.0,0.0,0.0,0.0,0.0,-12.416,0.0,0.0,0.0
534,0.0,0.0,0.0,-0.5070986328125,0.0,0.0,0.0,0.0,0.0,0.0,0.345,0.0,0.0,0.0,0.0,0.0,0.0,-0.4895251779221,0.0,0.0,0.0,0.0,0.0,0.0,-12.392,0.0,0.0,0.0
535,0.0,0.0,0.0,-0.5036240234375,0.0,0.0,0.0,0.0,0.0,0.0,0.339,0.0,0.0,0.0,0.0,0.0,0.0,-0.4860229237320308,0.0,0.0,0.0,0.0,0.0,0.0,-11.844,0.0,0.0,0.0
536,0.0,0.0,0.0,-0.500294921875,0.0,0.0,0.0,0.0,0.0,0.0,0.352,0.0,0.0,0.0,0.0,0.0,0.0,-0.4825004050353302,0.0,0.0,0.0,0.0,0.0,0.0,-12.416,0.0,0.0,0.0
537,0.0,0.0,0.0,-0.497109375,0.0,0.0,0.0,0.0,0.0,0.0,0.325,0.0,0.0,0.0,0.0,0.0,0.0,-0.4789005319452052,0.0,0.0,0.0,0.0,0.0,0.0,-12.304,0.0,0.0,0.0
538,0.0,0.0,0.0,-0.4934912109375,0.0,0.0,0.0,0.0,0.0,0.0,0.333,0.0,0.0,0.0,0.0,0.0,0.0,-0.47523086399776665,0.0,0.0,0.0,0.0,0.0,0.0,-12.464,0.0,0.0,0.0
539,0.0,0.0,0.0,-0.490169921875,0.0,0.0,0.0,0.0,0.0,0.0,0.346,0.0,0.0,0.0,0.0,0.0,0.0,-0.47157858269576025,0.0,0.0,0.0,0.0,0.0,0.0,-12.668,0.0,0.0,0.0
540,0.0,0.0,0.0,-0.4866875,0.0,0.0,0.0,0.0,0.0,0.0,0.344,0.0,0.0,0.0,0.0,0.0,0.0,-0.46784203465340246,0.0,0.0,0.0,0.0,0.0,0.0,-12.464,0.0,0.0,0.0
541,0.0,0.0,0.0,-0.4829248046875,0.0,0.0,0.0,0.0,0.0,0.0,0.363,0.0,0.0,0.0,0.0,0.0,0.0,-0.4640164502685564,0.0,0.0,0.0,0.0,0.0,0.0,-12.188,0.0,0.0,0.0
542,0.0,0.0,0.0,-0.479162109375,0.0,0.0,0.0,0.0,0.0,0.0,0.377,0.0,0.0,0.0,0.0,0.0,0.0,-0.4602230215713646,0.0,0.0,0.0,0.0,0.0,0.0,-12.624,0.0,0.0,0.0
543,0.0,0.0,0.0,-0.47554296875,0.0,0.0,0.0,0.0,0.0,0.0,0.373,0.0,0.0,0.0,0.0,0.0,0.0,-0.45634694185135394,0.0,0.0,0.0,0.0,0.0,0.0,-12.6,0.0,0.0,0.0
544,0.0,0.0,0.0,-0.4719248046875,0.0,0.0,0.0,0.0,0.0,0.0,0.374,0.0,0.0,0.0,0.0,0.0,0.0,-0.4524010906387516,0.0,0.0,0.0,0.0,0.0,0.0,-12.804,0.0,0.0,0.0
545,0.0,0.0,0.0,-0.468306640625,0.0,0.0,0.0,0.0,0.0,0.0,0.356,0.0,0.0,0.0,0.0,0.0,0.0,-0.448478361278347,0.0,0.0,0.0,0.0,0.0,0.0,-12.736,0.0,0.0,0.0
546,0.0,0.0,0.0,-0.4646884765625,0.0,0.0,0.0,0.0,0.0,0.0,0.359,0.0,0.0,0.0,0.0,0.0,0.0,-0.444473460652965,0.0,0.0,0.0,0.0,0.0,0.0,-12.92,0.0,0.0,0.0
547,0.0,0.0,0.0,-0.4607724609375,0.0,0.0,0.0,0.0,0.0,0.0,0.378,0.0,0.0,0.0,0.0,0.0,0.0,-0.44038950213538863,0.0,0.0,0.0,0.0,0.0,0.0,-12.692,0.0,0.0,0.0
548,0.0,0.0,0.0,-0.456431640625,0.0,0.0,0.0,0.0,0.0,0.0,0.412,0.0,0.0,0.0,0.0,0.0,0.0,-0.4363361431849933,0.0,0.0,0.0,0.0,0.0,0.0,-12.552,0.0,0.0,0.0
549,0.0,0.0,0.0,-0.45208203125,0.0,0.0,0.0,0.0,0.0,0.0,0.437,0.0,0.0,0.0,0.0,0.0,0.0,-0.4322022674961861,0.0,0.0,0.0,0.0,0.0,0.0,-12.852,0.0,0.0,0.0
550,0.0,0.0,0.0,-0.44788671875,0.0,0.0,0.0,0.0,0.0,0.0,0.431,0.0,0.0,0.0,0.0,0.0,0.0,-0.4279748741058094,0.0,0.0,0.0,0.0,0.0,0.0,-12.76,0.0,0.0,0.0
551,0.0,0.0,0.0,-0.4436904296875,0.0,0.0,0.0,0.0,0.0,0.0,0.421,0.0,0.0,0.0,0.0,0.0,0.0,-0.4237785234386291,0.0,0.0,0.0,0.0,0.0,0.0,-12.668,0.0,0.0,0.0
552,0.0,0.0,0.0,-0.439783203125,0.0,0.0,0.0,0.0,0.0,0.0,0.407,0.0,0.0,0.0,0.0,0.0,0.0,-0.4195056234798549,0.0,0.0,0.0,0.0,0.0,0.0,-12.212,0.0,0.0,0.0
553,0.0,0.0,0.0,-0.43572265625,0.0,0.0,0.0,0.0,0.0,0.0,0.4,0.0,0.0,0.0,0.0,0.0,0.0,-0.41515950059762013,0.0,0.0,0.0,0.0,0.0,0.0,-11.844,0.0,0.0,0.0
554,0.0,0.0,0.0,-0.4313828125,0.0,0.0,0.0,0.0,0.0,0.0,0.42,0.0,0.0,0.0,0.0,0.0,0.0,-0.41085156379126797,0.0,0.0,0.0,0.0,0.0,0.0,-12.12,0.0,0.0,0.0
555,0.0,0.0,0.0,-0.42704296875,0.0,0.0,0.0,0.0,0.0,0.0,0.436,0.0,0.0,0.0,0.0,0.0,0.0,-0.40643424219289087,0.0,0.0,0.0,0.0,0.0,0.0,-12.872,0.0,0.0,0.0
556,0.0,0.0,0.0,-0.422693359375,0.0,0.0,0.0,0.0,0.0,0.0,0.437,0.0,0.0,0.0,0.0,0.0,0.0,-0.40197699883298516,0.0,0.0,0.0,0.0,0.0,0.0,-12.6,0.0,0.0,0.0
557,0.0,0.0,0.0,-0.4184970703125,0.0,0.0,0.0,0.0,0.0,0.0,0.435,0.0,0.0,0.0,0.0,0.0,0.0,-0.3975228561365306,0.0,0.0,0.0,0.0,0.0,0.0,-13.264,0.0,0.0,0.0
558,0.0,0.0,0.0,-0.4144365234375,0.0,0.0,0.0,0.0,0.0,0.0,0.41,0.0,0.0,0.0,0.0,0.0,0.0,-0.3930184020512486,0.0,0.0,0.0,0.0,0.0,0.0,-13.08,0.0,0.0,0.0
559,0.0,0.0,0.0,-0.4099521484375,0.0,0.0,0.0,0.0,0.0,0.0,0.417,0.0,0.0,0.0,0.0,0.0,0.0,-0.3884181181755592,0.0,0.0,0.0,0.0,0.0,0.0,-12.256,0.0,0.0,0.0
560,0.0,0.0,0.0,-0.4054677734375,0.0,0.0,0.0,0.0,0.0,0.0,0.462,0.0,0.0,0.0,0.0,0.0,0.0,-0.38386856918435364,0.0,0.0,0.0,0.0,0.0,0.0,-13.08,0.0,0.0,0.0
561,0.0,0.0,0.0,-0.401271484375,0.0,0.0,0.0,0.0,0.0,0.0,0.438,0.0,0.0,0.0,0.0,0.0,0.0,-0.37924975276445877,0.0,0.0,0.0,0.0,0.0,0.0,-13.492,0.0,0.0,0.0
562,0.0,0.0,0.0,-0.3963447265625,0.0,0.0,0.0,0.0,0.0,0.0,0.452,0.0,0.0,0.0,0.0,0.0,0.0,-0.37453598422107853,0.0,0.0,0.0,0.0,0.0,0.0,-13.744,0.0,0.0,0.0
563,0.0,0.0,0.0,-0.39141796875,0.0,0.0,0.0,0.0,0.0,0.0,0.498,0.0,0.0,0.0,0.0,0.0,0.0,-0.36987245872828145,0.0,0.0,0.0,0.0,0.0,0.0,-13.536,0.0,0.0,0.0
564,0.0,0.0,0.0,-0.3867802734375,0.0,0.0,0.0,0.0,0.0,0.0,0.479,0.0,0.0,0.0,0.0,0.0,0.0,-0.36512062232414655,0.0,0.0,0.0,0.0,0.0,0.0,-13.032,0.0,0.0,0.0
565,0.0,0.0,0.0,-0.382583984375,0.0,0.0,0.0,0.0,0.0,0.0,0.45,0.0,0.0,0.0,0.0,0.0,0.0,-0.3602903842125597,0.0,0.0,0.0,0.0,0.0,0.0,-13.72,0.0,0.0,0.0
566,0.0,0.0,0.0,-0.378244140625,0.0,0.0,0.0,0.0,0.0,0.0,0.416,0.0,0.0,0.0,0.0,0.0,0.0,-0.3555307542384704,0.0,0.0,0.0,0.0,0.0,0.0,-12.644,0.0,0.0,0.0
567,0.0,0.0,0.0,-0.3731728515625,0.0,0.0,0.0,0.0,0.0,0.0,0.475,0.0,0.0,0.0,0.0,0.0,0.0,-0.35071050946767585,0.0,0.0,0.0,0.0,0.0,0.0,-12.576,0.0,0.0,0.0
568,0.0,0.0,0.0,-0.3689765625,0.0,0.0,0.0,0.0,0.0,0.0,0.482,0.0,0.0,0.0,0.0,0.0,0.0,-0.34578303904411445,0.0,0.0,0.0,0.0,0.0,0.0,-13.104,0.0,0.0,0.0
569,0.0,0.0,0.0,-0.3646279296875,0.0,0.0,0.0,0.0,0.0,0.0,0.414,0.0,0.0,0.0,0.0,0.0,0.0,-0.34089409587120395,0.0,0.0,0.0,0.0,0.0,0.0,-12.624,0.0,0.0,0.0
570,0.0,0.0,0.0,-0.359123046875,0.0,0.0,0.0,0.0,0.0,0.0,0.494,0.0,0.0,0.0,0.0,0.0,0.0,-0.33592859348812915,0.0,0.0,0.0,0.0,0.0,0.0,-12.464,0.0,0.0,0.0
571,0.0,0.0,0.0,-0.354205078125,0.0,0.0,0.0,0.0,0.0,0.0,0.532,0.0,0.0,0.0,0.0,0.0,0.0,-0.33092899148155425,0.0,0.0,0.0,0.0,0.0,0.0,-12.668,0.0,0.0,0.0
572,0.0,0.0,0.0,-0.3494228515625,0.0,0.0,0.0,0.0,0.0,0.0,0.479,0.0,0.0,0.0,0.0,0.0,0.0,-0.32591728431222367,0.0,0.0,0.0,0.0,0.0,0.0,-12.552,0.0,0.0,0.0
573,0.0,0.0,0.0,-0.344072265625,0.0,0.0,0.0,0.0,0.0,0.0,0.508,0.0,0.0,0.0,0.0,0.0,0.0,-0.32087661535742634,0.0,0.0,0.0,0.0,0.0,0.0,-13.08,0.0,0.0,0.0
574,0.0,0.0,0.0,-0.3389921875,0.0,0.0,0.0,0.0,0.0,0.0,0.535,0.0,0.0,0.0,0.0,0.0,0.0,-0.31575658751018854,0.0,0.0,0.0,0.0,0.0,0.0,-13.948,0.0,0.0,0.0
575,0.0,0.0,0.0,-0.33407421875,0.0,0.0,0.0,0.0,0.0,0.0,0.494,0.0,0.0,0.0,0.0,0.0,0.0,-0.31063173028394125,0.0,0.0,0.0,0.0,0.0,0.0,-13.812,0.0,0.0,0.0
576,0.0,0.0,0.0,-0.3287138671875,0.0,0.0,0.0,0.0,0.0,0.0,0.509,0.0,0.0,0.0,0.0,0.0,0.0,-0.3055030556209716,0.0,0.0,0.0,0.0,0.0,0.0,-12.944,0.0,0.0,0.0
577,0.0,0.0,0.0,-0.32336328125,0.0,0.0,0.0,0.0,0.0,0.0,0.547,0.0,0.0,0.0,0.0,0.0,0.0,-0.30030778252817697,0.0,0.0,0.0,0.0,0.0,0.0,-12.624,0.0,0.0,0.0
578,0.0,0.0,0.0,-0.3181474609375,0.0,0.0,0.0,0.0,0.0,0.0,0.527,0.0,0.0,0.0,0.0,0.0,0.0,-0.29503682864829167,0.0,0.0,0.0,0.0,0.0,0.0,-12.804,0.0,0.0,0.0
579,0.0,0.0,0.0,-0.3127880859375,0.0,0.0,0.0,0.0,0.0,0.0,0.533,0.0,0.0,0.0,0.0,0.0,0.0,-0.28986706687530217,0.0,0.0,0.0,0.0,0.0,0.0,-13.192,0.0,0.0,0.0
580,0.0,0.0,0.0,-0.308005859375,0.0,0.0,0.0,0.0,0.0,0.0,0.526,0.0,0.0,0.0,0.0,0.0,0.0,-0.28456707436784545,0.0,0.0,0.0,0.0,0.0,0.0,-14.108,0.0,0.0,0.0
581,0.0,0.0,0.0,-0.303376953125,0.0,0.0,0.0,0.0,0.0,0.0,0.461,0.0,0.0,0.0,0.0,0.0,0.0,-0.2792796792270087,0.0,0.0,0.0,0.0,0.0,0.0,-13.172,0.0,0.0,0.0
582,0.0,0.0,0.0,-0.2981611328125,0.0,0.0,0.0,0.0,0.0,0.0,0.486,0.0,0.0,0.0,0.0,0.0,0.0,-0.2739960128762839,0.0,0.0,0.0,0.0,0.0,0.0,-12.828,0.0,0.0,0.0
583,0.0,0.0,0.0,-0.2930986328125,0.0,0.0,0.0,0.0,0.0,0.0,0.525,0.0,0.0,0.0,0.0,0.0,0.0,-0.26865312953894055,0.0,0.0,0.0,0.0,0.0,0.0,-12.896,0.0,0.0,0.0
584,0.0,0.0,0.0,-0.2877392578125,0.0,0.0,0.0,0.0,0.0,0.0,0.517,0.0,0.0,0.0,0.0,0.0,0.0,-0.2632424608885042,0.0,0.0,0.0,0.0,0.0,0.0,-13.104,0.0,0.0,0.0
585,0.0,0.0,0.0,-0.28179296875,0.0,0.0,0.0,0.0,0.0,0.0,0.567,0.0,0.0,0.0,0.0,0.0,0.0,-0.25784261049968643,0.0,0.0,0.0,0.0,0.0,0.0,-14.016,0.0,0.0,0.0
586,0.0,0.0,0.0,-0.27701953125,0.0,0.0,0.0,0.0,0.0,0.0,0.557,0.0,0.0,0.0,0.0,0.0,0.0,-0.25243986321976875,0.0,0.0,0.0,0.0,0.0,0.0,-15.868,0.0,0.0,0.0
587,0.0,0.0,0.0,-0.272669921875,0.0,0.0,0.0,0.0,0.0,0.0,0.445,0.0,0.0,0.0,0.0,0.0,0.0,-0.2469366448005124,0.0,0.0,0.0,0.0,0.0,0.0,-14.568,0.0,0.0,0.0
588,0.0,0.0,0.0,-0.2668857421875,0.0,0.0,0.0,0.0,0.0,0.0,0.494,0.0,0.0,0.0,0.0,0.0,0.0,-0.24147312558120143,0.0,0.0,0.0,0.0,0.0,0.0,-13.516,0.0,0.0,0.0
589,0.0,0.0,0.0,-0.2618056640625,0.0,0.0,0.0,0.0,0.0,0.0,0.57,0.0,0.0,0.0,0.0,0.0,0.0,-0.23601322809602537,0.0,0.0,0.0,0.0,0.0,0.0,-13.516,0.0,0.0,0.0
590,0.0,0.0,0.0,-0.2568876953125,0.0,0.0,0.0,0.0,0.0,0.0,0.485,0.0,0.0,0.0,0.0,0.0,0.0,-0.2303820508375849,0.0,0.0,0.0,0.0,0.0,0.0,-12.76,0.0,0.0,0.0
591,0.0,0.0,0.0,-0.250662109375,0.0,0.0,0.0,0.0,0.0,0.0,0.556,0.0,0.0,0.0,0.0,0.0,0.0,-0.224906815428178,0.0,0.0,0.0,0.0,0.0,0.0,-13.904,0.0,0.0,0.0
592,0.0,0.0,0.0,-0.2453017578125,0.0,0.0,0.0,0.0,0.0,0.0,0.606,0.0,0.0,0.0,0.0,0.0,0.0,-0.21933926740184503,0.0,0.0,0.0,0.0,0.0,0.0,-14.2,0.0,0.0,0.0
593,0.0,0.0,0.0,-0.2399423828125,0.0,0.0,0.0,0.0,0.0,0.0,0.519,0.0,0.0,0.0,0.0,0.0,0.0,-0.2136764494714753,0.0,0.0,0.0,0.0,0.0,0.0,-12.416,0.0,0.0,0.0
594,0.0,0.0,0.0,-0.2340048828125,0.0,0.0,0.0,0.0,0.0,0.0,0.569,0.0,0.0,0.0,0.0,0.0,0.0,-0.20814645143163374,0.0,0.0,0.0,0.0,0.0,0.0,-12.532,0.0,0.0,0.0
595,0.0,0.0,0.0,-0.229078125,0.0,0.0,0.0,0.0,0.0,0.0,0.565,0.0,0.0,0.0,0.0,0.0,0.0,-0.20248222686083245,0.0,0.0,0.0,0.0,0.0,0.0,-13.308,0.0,0.0,0.0
596,0.0,0.0,0.0,-0.2238623046875,0.0,0.0,0.0,0.0,0.0,0.0,0.491,0.0,0.0,0.0,0.0,0.0,0.0,-0.19679405004875958,0.0,0.0,0.0,0.0,0.0,0.0,-12.92,0.0,0.0,0.0
597,0.0,0.0,0.0,-0.2174912109375,0.0,0.0,0.0,0.0,0.0,0.0,0.582,0.0,0.0,0.0,0.0,0.0,0.0,-0.1911726320482314,0.0,0.0,0.0,0.0,0.0,0.0,-14.084,0.0,0.0,0.0
598,0.0,0.0,0.0,-0.2122763671875,0.0,0.0,0.0,0.0,0.0,0.0,0.59,0.0,0.0,0.0,0.0,0.0,0.0,-0.1854615959098393,0.0,0.0,0.0,0.0,0.0,0.0,-14.084,0.0,0.0,0.0
599,0.0,0.0,0.0,-0.2063388671875,0.0,0.0,0.0,0.0,0.0,0.0,0.545,0.0,0.0,0.0,0.0,0.0,0.0,-0.1796729595749268,0.0,0.0,0.0,0.0,0.0,0.0,-13.424,0.0,0.0,0.0
600,0.0,0.0,0.0,-0.1999677734375,0.0,0.0,0.0,0.0,0.0,0.0,0.632,0.0,0.0,0.0,0.0,0.0,0.0,-0.17400649801172902,0.0,0.0,0.0,0.0,0.0,0.0,-14.016,0.0,0.0,0.0
601,0.0,0.0,0.0,-0.1948974609375,0.0,0.0,0.0,0.0,0.0,0.0,0.581,0.0,0.0,0.0,0.0,0.0,0.0,-0.16828404469726627,0.0,0.0,0.0,0.0,0.0,0.0,-13.468,0.0,0.0,0.0
602,0.0,0.0,0.0,-0.1889599609375,0.0,0.0,0.0,0.0,0.0,0.0,0.542,0.0,0.0,0.0,0.0,0.0,0.0,-0.16247442352441466,0.0,0.0,0.0,0.0,0.0,0.0,-13.012,0.0,0.0,0.0
603,0.0,0.0,0.0,-0.1828779296875,0.0,0.0,0.0,0.0,0.0,0.0,0.613,0.0,0.0,0.0,0.0,0.0,0.0,-0.15669858120882266,0.0,0.0,0.0,0.0,0.0,0.0,-13.56,0.0,0.0,0.0
604,0.0,0.0,0.0,-0.177517578125,0.0,0.0,0.0,0.0,0.0,0.0,0.571,0.0,0.0,0.0,0.0,0.0,0.0,-0.15089797460827362,0.0,0.0,0.0,0.0,0.0,0.0,-12.692,0.0,0.0,0.0
605,0.0,0.0,0.0,-0.1712919921875,0.0,0.0,0.0,0.0,0.0,0.0,0.579,0.0,0.0,0.0,0.0,0.0,0.0,-0.14500065317911667,0.0,0.0,0.0,0.0,0.0,0.0,-13.308,0.0,0.0,0.0
606,0.0,0.0,0.0,-0.165787109375,0.0,0.0,0.0,0.0,0.0,0.0,0.604,0.0,0.0,0.0,0.0,0.0,0.0,-0.13921866193065036,0.0,0.0,0.0,0.0,0.0,0.0,-14.52,0.0,0.0,0.0
607,0.0,0.0,0.0,-0.1601298828125,0.0,0.0,0.0,0.0,0.0,0.0,0.543,0.0,0.0,0.0,0.0,0.0,0.0,-0.13333580387290458,0.0,0.0,0.0,0.0,0.0,0.0,-13.652,0.0,0.0,0.0
608,0.0,0.0,0.0,-0.1539033203125,0.0,0.0,0.0,0.0,0.0,0.0,0.593,0.0,0.0,0.0,0.0,0.0,0.0,-0.12750792539184,0.0,0.0,0.0,0.0,0.0,0.0,-14.588,0.0,0.0,0.0
609,0.0,0.0,0.0,-0.148408203125,0.0,0.0,0.0,0.0,0.0,0.0,0.595,0.0,0.0,0.0,0.0,0.0,0.0,-0.12164052525087841,0.0,0.0,0.0,0.0,0.0,0.0,-14.588,0.0,0.0,0.0
610,0.0,0.0,0.0,-0.1421826171875,0.0,0.0,0.0,0.0,0.0,0.0,0.581,0.0,0.0,0.0,0.0,0.0,0.0,-0.11577093450853315,0.0,0.0,0.0,0.0,0.0,0.0,-14.316,0.0,0.0,0.0
611,0.0,0.0,0.0,-0.135802734375,0.0,0.0,0.0,0.0,0.0,0.0,0.651,0.0,0.0,0.0,0.0,0.0,0.0,-0.10987378109024967,0.0,0.0,0.0,0.0,0.0,0.0,-14.932,0.0,0.0,0.0
612,0.0,0.0,0.0,-0.1304423828125,0.0,0.0,0.0,0.0,0.0,0.0,0.585,0.0,0.0,0.0,0.0,0.0,0.0,-0.1039828128846383,0.0,0.0,0.0,0.0,0.0,0.0,-13.948,0.0,0.0,0.0
613,0.0,0.0,0.0,-0.124361328125,0.0,0.0,0.0,0.0,0.0,0.0,0.568,0.0,0.0,0.0,0.0,0.0,0.0,-0.09810237878787297,0.0,0.0,0.0,0.0,0.0,0.0,-13.764,0.0,0.0,0.0
614,0.0,0.0,0.0,-0.11884765625,0.0,0.0,0.0,0.0,0.0,0.0,0.595,0.0,0.0,0.0,0.0,0.0,0.0,-0.09209350927528377,0.0,0.0,0.0,0.0,0.0,0.0,-13.948,0.0,0.0,0.0
615,0.0,0.0,0.0,-0.1134873046875,0.0,0.0,0.0,0.0,0.0,0.0,0.533,0.0,0.0,0.0,0.0,0.0,0.0,-0.08590470954846435,0.0,0.0,0.0,0.0,0.0,0.0,-13.148,0.0,0.0,0.0
616,0.0,0.0,0.0,-0.10726171875,0.0,0.0,0.0,0.0,0.0,0.0,0.587,0.0,0.0,0.0,0.0,0.0,0.0,-0.08033036702948936,0.0,0.0,0.0,0.0,0.0,0.0,-13.836,0.0,0.0,0.0
617,0.0,0.0,0.0,-0.10219921875,0.0,0.0,0.0,0.0,0.0,0.0,0.584,0.0,0.0,0.0,0.0,0.0,0.0,-0.07429601359039255,0.0,0.0,0.0,0.0,0.0,0.0,-14.816,0.0,0.0,0.0
618,0.0,0.0,0.0,-0.096984375,0.0,0.0,0.0,0.0,0.0,0.0,0.5,0.0,0.0,0.0,0.0,0.0,0.0,-0.06834454962071967,0.0,0.0,0.0,0.0,0.0,0.0,-14.428,0.0,0.0,0.0
619,0.0,0.0,0.0,-0.091326171875,0.0,0.0,0.0,0.0,0.0,0.0,0.556,0.0,0.0,0.0,0.0,0.0,0.0,-0.06244104085345753,0.0,0.0,0.0,0.0,0.0,0.0,-15.344,0.0,0.0,0.0
620,0.0,0.0,0.0,-0.0861201171875,0.0,0.0,0.0,0.0,0.0,0.0,0.544,0.0,0.0,0.0,0.0,0.0,0.0,-0.05643542623903859,0.0,0.0,0.0,0.0,0.0,0.0,-14.84,0.0,0.0,0.0
621,0.0,0.0,0.0,-0.0800380859375,0.0,0.0,0.0,0.0,0.0,0.0,0.55,0.0,0.0,0.0,0.0,0.0,0.0,-0.05046102055717524,0.0,0.0,0.0,0.0,0.0,0.0,-14.612,0.0,0.0,0.0
622,0.0,0.0,0.0,-0.074091796875,0.0,0.0,0.0,0.0,0.0,0.0,0.621,0.0,0.0,0.0,0.0,0.0,0.0,-0.044510388473512914,0.0,0.0,0.0,0.0,0.0,0.0,-14.728,0.0,0.0,0.0
623,0.0,0.0,0.0,-0.0685869140625,0.0,0.0,0.0,0.0,0.0,0.0,0.572,0.0,0.0,0.0,0.0,0.0,0.0,-0.0385045296036409,0.0,0.0,0.0,0.0,0.0,0.0,-13.676,0.0,0.0,0.0
624,0.0,0.0,0.0,-0.062505859375,0.0,0.0,0.0,0.0,0.0,0.0,0.574,0.0,0.0,0.0,0.0,0.0,0.0,-0.032500079328045106,0.0,0.0,0.0,0.0,0.0,0.0,-13.812,0.0,0.0,0.0
625,0.0,0.0,0.0,-0.0571455078125,0.0,0.0,0.0,0.0,0.0,0.0,0.589,0.0,0.0,0.0,0.0,0.0,0.0,-0.026536093675470083,0.0,0.0,0.0,0.0,0.0,0.0,-13.652,0.0,0.0,0.0
626,0.0,0.0,0.0,-0.0516416015625,0.0,0.0,0.0,0.0,0.0,0.0,0.534,0.0,0.0,0.0,0.0,0.0,0.0,-0.02053230833763964,0.0,0.0,0.0,0.0,0.0,0.0,-12.624,0.0,0.0,0.0
627,0.0,0.0,0.0,-0.0454150390625,0.0,0.0,0.0,0.0,0.0,0.0,0.597,0.0,0.0,0.0,0.0,0.0,0.0,-0.014528323129341441,0.0,0.0,0.0,0.0,0.0,0.0,-13.72,0.0,0.0,0.0
628,0.0,0.0,0.0,-0.04019921875,0.0,0.0,0.0,0.0,0.0,0.0,0.577,0.0,0.0,0.0,0.0,0.0,0.0,-0.008552204431493316,0.0,0.0,0.0,0.0,0.0,0.0,-13.424,0.0,0.0,0.0
629,0.0,0.0,0.0,-0.0341181640625,0.0,0.0,0.0,0.0,0.0,0.0,0.562,0.0,0.0,0.0,0.0,0.0,0.0,-0.0025207349978771665,0.0,0.0,0.0,0.0,0.0,0.0,-13.72,0.0,0.0,0.0
630,0.0,0.0,0.0,-0.0283154296875,0.0,0.0,0.0,0.0,0.0,0.0,0.612,0.0,0.0,0.0,0.0,0.0,0.0,0.0035601979224109113,0.0,0.0,0.0,0.0,0.0,0.0,-14.612,0.0,0.0,0.0
631,0.0,0.0,0.0,-0.0228115234375,0.0,0.0,0.0,0.0,0.0,0.0,0.559,0.0,0.0,0.0,0.0,0.0,0.0,1.0156631469241503e-05,0.0,0.0,0.0,0.0,0.0,0.0,-14.2,0.0,0.0,0.0
632,0.0,0.0,0.0,-0.0164404296875,0.0,0.0,0.0,0.0,0.0,0.0,0.588,0.0,0.0,0.0,0.0,0.0,0.0,0.006000466454717379,0.0,0.0,0.0,0.0,0.0,0.0,-14.384,0.0,0.0,0.0
633,0.0,0.0,0.0,-0.0106474609375,0.0,0.0,0.0,0.0,0.0,0.0,0.616,0.0,0.0,0.0,0.0,0.0,0.0,0.012025504709678286,0.0,0.0,0.0,0.0,0.0,0.0,-13.764,0.0,0.0,0.0
634,0.0,0.0,0.0,-0.004990234375,0.0,0.0,0.0,0.0,0.0,0.0,0.574,0.0,0.0,0.0,0.0,0.0,0.0,0.017948667399011794,0.0,0.0,0.0,0.0,0.0,0.0,-13.764,0.0,0.0,0.0
635,0.0,0.0,0.0,0.0002158203125,0.0,0.0,0.0,0.0,0.0,0.0,0.564,0.0,0.0,0.0,0.0,0.0,0.0,0.02397613935187114,0.0,0.0,0.0,0.0,0.0,0.0,-15.16,0.0,0.0,0.0
636,0.0,0.0,0.0,0.004419921875,0.0,0.0,0.0,0.0,0.0,0.0,0.474,0.0,0.0,0.0,0.0,0.0,0.0,0.030025191234481306,0.0,0.0,0.0,0.0,0.0,0.0,-14.68,0.0,0.0,0.0
637,0.0,0.0,0.0,0.009337890625,0.0,0.0,0.0,0.0,0.0,0.0,0.452,0.0,0.0,0.0,0.0,0.0,0.0,0.03592867727426356,0.0,0.0,0.0,0.0,0.0,0.0,-14.52,0.0,0.0,0.0
638,0.0,0.0,0.0,0.01441796875,0.0,0.0,0.0,0.0,0.0,0.0,0.504,0.0,0.0,0.0,0.0,0.0,0.0,0.04190345066393443,0.0,0.0,0.0,0.0,0.0,0.0,-14.132,0.0,0.0,0.0
639,0.0,0.0,0.0,0.0197783203125,0.0,0.0,0.0,0.0,0.0,0.0,0.521,0.0,0.0,0.0,0.0,0.0,0.0,0.04796844864635357,0.0,0.0,0.0,0.0,0.0,0.0,-13.744,0.0,0.0,0.0
640,0.0,0.0,0.0,0.0255712890625,0.0,0.0,0.0,0.0,0.0,0.0,0.555,0.0,0.0,0.0,0.0,0.0,0.0,0.05387208373813485,0.0,0.0,0.0,0.0,0.0,0.0,-14.612,0.0,0.0,0.0
641,0.0,0.0,0.0,0.03106640625,0.0,0.0,0.0,0.0,0.0,0.0,0.574,0.0,0.0,0.0,0.0,0.0,0.0,0.059840923117484394,0.0,0.0,0.0,0.0,0.0,0.0,-15.024,0.0,0.0,0.0
642,0.0,0.0,0.0,0.036724609375,0.0,0.0,0.0,0.0,0.0,0.0,0.558,0.0,0.0,0.0,0.0,0.0,0.0,0.06591341274576379,0.0,0.0,0.0,0.0,0.0,0.0,-15.068,0.0,0.0,0.0
643,0.0,0.0,0.0,0.042228515625,0.0,0.0,0.0,0.0,0.0,0.0,0.556,0.0,0.0,0.0,0.0,0.0,0.0,0.0717908983301949,0.0,0.0,0.0,0.0,0.0,0.0,-14.496,0.0,0.0,0.0
644,0.0,0.0,0.0,0.048021484375,0.0,0.0,0.0,0.0,0.0,0.0,0.568,0.0,0.0,0.0,0.0,0.0,0.0,0.07773218457395206,0.0,0.0,0.0,0.0,0.0,0.0,-13.308,0.0,0.0,0.0
645,0.0,0.0,0.0,0.0539677734375,0.0,0.0,0.0,0.0,0.0,0.0,0.593,0.0,0.0,0.0,0.0,0.0,0.0,0.08374661218621829,0.0,0.0,0.0,0.0,0.0,0.0,-13.24,0.0,0.0,0.0
646,0.0,0.0,0.0,0.0597607421875,0.0,0.0,0.0,0.0,0.0,0.0,0.586,0.0,0.0,0.0,0.0,0.0,0.0,0.0896414363882652,0.0,0.0,0.0,0.0,0.0,0.0,-13.356,0.0,0.0,0.0
647,0.0,0.0,0.0,0.0656982421875,0.0,0.0,0.0,0.0,0.0,0.0,0.593,0.0,0.0,0.0,0.0,0.0,0.0,0.09558617319025804,0.0,0.0,0.0,0.0,0.0,0.0,-13.332,0.0,0.0,0.0
648,0.0,0.0,0.0,0.0714912109375,0.0,0.0,0.0,0.0,0.0,0.0,0.587,0.0,0.0,0.0,0.0,0.0,0.0,0.1015590823377102,0.0,0.0,0.0,0.0,0.0,0.0,-13.264,0.0,0.0,0.0
649,0.0,0.0,0.0,0.0771396484375,0.0,0.0,0.0,0.0,0.0,0.0,0.572,0.0,0.0,0.0,0.0,0.0,0.0,0.10742059826081375,0.0,0.0,0.0,0.0,0.0,0.0,-12.964,0.0,0.0,0.0
650,0.0,0.0,0.0,0.0830771484375,0.0,0.0,0.0,0.0,0.0,0.0,0.589,0.0,0.0,0.0,0.0,0.0,0.0,0.1132858704237923,0.0,0.0,0.0,0.0,0.0,0.0,-13.192,0.0,0.0,0.0
651,0.0,0.0,0.0,0.0887265625,0.0,0.0,0.0,0.0,0.0,0.0,0.578,0.0,0.0,0.0,0.0,0.0,0.0,0.11923036730225237,0.0,0.0,0.0,0.0,0.0,0.0,-13.376,0.0,0.0,0.0
652,0.0,0.0,0.0,0.0948076171875,0.0,0.0,0.0,0.0,0.0,0.0,0.596,0.0,0.0,0.0,0.0,0.0,0.0,0.1250365078292854,0.0,0.0,0.0,0.0,0.0,0.0,-14.04,0.0,0.0,0.0
653,0.0,0.0,0.0,0.10075390625,0.0,0.0,0.0,0.0,0.0,0.0,0.605,0.0,0.0,0.0,0.0,0.0,0.0,0.13089618850225132,0.0,0.0,0.0,0.0,0.0,0.0,-14.636,0.0,0.0,0.0
654,0.0,0.0,0.0,0.1066826171875,0.0,0.0,0.0,0.0,0.0,0.0,0.59,0.0,0.0,0.0,0.0,0.0,0.0,0.13678360029614317,0.0,0.0,0.0,0.0,0.0,0.0,-14.544,0.0,0.0,0.0
655,0.0,0.0,0.0,0.1127646484375,0.0,0.0,0.0,0.0,0.0,0.0,0.61,0.0,0.0,0.0,0.0,0.0,0.0,0.14256794571997575,0.0,0.0,0.0,0.0,0.0,0.0,-13.764,0.0,0.0,0.0
656,0.0,0.0,0.0,0.1187109375,0.0,0.0,0.0,0.0,0.0,0.0,0.6,0.0,0.0,0.0,0.0,0.0,0.0,0.14838360668404632,0.0,0.0,0.0,0.0,0.0,0.0,-13.444,0.0,0.0,0.0
657,0.0,0.0,0.0,0.12479296875,0.0,0.0,0.0,0.0,0.0,0.0,0.603,0.0,0.0,0.0,0.0,0.0,0.0,0.15422330344354193,0.0,0.0,0.0,0.0,0.0,0.0,-13.628,0.0,0.0,0.0
658,0.0,0.0,0.0,0.130875,0.0,0.0,0.0,0.0,0.0,0.0,0.613,0.0,0.0,0.0,0.0,0.0,0.0,0.16000989839123395,0.0,0.0,0.0,0.0,0.0,0.0,-13.696,0.0,0.0,0.0
659,0.0,0.0,0.0,0.1366767578125,0.0,0.0,0.0,0.0,0.0,0.0,0.6,0.0,0.0,0.0,0.0,0.0,0.0,0.16581790947850975,0.0,0.0,0.0,0.0,0.0,0.0,-13.652,0.0,0.0,0.0
660,0.0,0.0,0.0,0.1427587890625,0.0,0.0,0.0,0.0,0.0,0.0,0.598,0.0,0.0,0.0,0.0,0.0,0.0,0.1715781670126234,0.0,0.0,0.0,0.0,0.0,0.0,-13.536,0.0,0.0,0.0
661,0.0,0.0,0.0,0.1485517578125,0.0,0.0,0.0,0.0,0.0,0.0,0.596,0.0,0.0,0.0,0.0,0.0,0.0,0.1772724642655469,0.0,0.0,0.0,0.0,0.0,0.0,-13.996,0.0,0.0,0.0
662,0.0,0.0,0.0,0.1544892578125,0.0,0.0,0.0,0.0,0.0,0.0,0.586,0.0,0.0,0.0,0.0,0.0,0.0,0.1830260215753021,0.0,0.0,0.0,0.0,0.0,0.0,-14.04,0.0,0.0,0.0
663,0.0,0.0,0.0,0.160580078125,0.0,0.0,0.0,0.0,0.0,0.0,0.606,0.0,0.0,0.0,0.0,0.0,0.0,0.18879109012167355,0.0,0.0,0.0,0.0,0.0,0.0,-14.816,0.0,0.0,0.0
664,0.0,0.0,0.0,0.1665166015625,0.0,0.0,0.0,0.0,0.0,0.0,0.604,0.0,0.0,0.0,0.0,0.0,0.0,0.19441332309870651,0.0,0.0,0.0,0.0,0.0,0.0,-15.068,0.0,0.0,0.0
665,0.0,0.0,0.0,0.1725986328125,0.0,0.0,0.0,0.0,0.0,0.0,0.607,0.0,0.0,0.0,0.0,0.0,0.0,0.200075753468302,0.0,0.0,0.0,0.0,0.0,0.0,-14.176,0.0,0.0,0.0
666,0.0,0.0,0.0,0.178544921875,0.0,0.0,0.0,0.0,0.0,0.0,0.61,0.0,0.0,0.0,0.0,0.0,0.0,0.20573634628830673,0.0,0.0,0.0,0.0,0.0,0.0,-13.88,0.0,0.0,0.0
667,0.0,0.0,0.0,0.184337890625,0.0,0.0,0.0,0.0,0.0,0.0,0.586,0.0,0.0,0.0,0.0,0.0,0.0,0.2113751915085003,0.0,0.0,0.0,0.0,0.0,0.0,-13.516,0.0,0.0,0.0
668,0.0,0.0,0.0,0.190419921875,0.0,0.0,0.0,0.0,0.0,0.0,0.593,0.0,0.0,0.0,0.0,0.0,0.0,0.21691664622593873,0.0,0.0,0.0,0.0,0.0,0.0,-13.604,0.0,0.0,0.0
