EmanuelSamir/lab201_ws_projsamir/sawyer_dev/data/sawyer/static/test_joint4/validation_data_2.csv
,j1,j2,j3,j4,j5,j6,j7,v1,v2,v3,v4,v5,v6,v7,jd1,jd2,jd3,jd4,jd5,jd6,jd7,e1,e2,e3,e4,e5,e6,e7
0,0.0,0.0,0.0,0.0,0.0,0.0,0.0,0.0,0.0,0.0,0.0,0.0,0.0,0.0,0.0,0.0,0.0,0.0,0.0,0.0,0.0,0.0,0.0,0.0,0.0,0.0,0.0,0.0
1,0.0,0.0,0.0,-0.000361328125,0.0,0.0,0.0,0.0,0.0,0.0,-0.001,0.0,0.0,0.0,0.0,0.0,0.0,4.062652584786242e-05,0.0,0.0,0.0,0.0,0.0,0.0,-13.948,0.0,0.0,0.0
2,0.0,0.0,0.0,-0.000361328125,0.0,0.0,0.0,0.0,0.0,0.0,-0.001,0.0,0.0,0.0,0.0,0.0,0.0,0.0064340311948443635,0.0,0.0,0.0,0.0,0.0,0.0,-13.924,0.0,0.0,0.0
3,0.0,0.0,0.0,-0.000361328125,0.0,0.0,0.0,0.0,0.0,0.0,-0.001,0.0,0.0,0.0,0.0,0.0,0.0,0.01855964197169083,0.0,0.0,0.0,0.0,0.0,0.0,-13.996,0.0,0.0,0.0
4,0.0,0.0,0.0,-0.000361328125,0.0,0.0,0.0,0.0,0.0,0.0,-0.001,0.0,0.0,0.0,0.0,0.0,0.0,0.03051594615857456,0.0,0.0,0.0,0.0,0.0,0.0,-13.856,0.0,0.0,0.0
5,0.0,0.0,0.0,-0.000216796875,0.0,0.0,0.0,0.0,0.0,0.0,0.003,0.0,0.0,0.0,0.0,0.0,0.0,0.042496926981951136,0.0,0.0,0.0,0.0,0.0,0.0,-13.332,0.0,0.0,0.0
6,0.0,0.0,0.0,0.00079296875,0.0,0.0,0.0,0.0,0.0,0.0,0.047,0.0,0.0,0.0,0.0,0.0,0.0,0.05444209507468765,0.0,0.0,0.0,0.0,0.0,0.0,-12.532,0.0,0.0,0.0
7,0.0,0.0,0.0,0.0031123046875,0.0,0.0,0.0,0.0,0.0,0.0,0.147,0.0,0.0,0.0,0.0,0.0,0.0,0.06631521351711768,0.0,0.0,0.0,0.0,0.0,0.0,-11.16,0.0,0.0,0.0
8,0.0,0.0,0.0,0.0065859375,0.0,0.0,0.0,0.0,0.0,0.0,0.283,0.0,0.0,0.0,0.0,0.0,0.0,0.07836349532635722,0.0,0.0,0.0,0.0,0.0,0.0,-11.088,0.0,0.0,0.0
9,0.0,0.0,0.0,0.010357421875,0.0,0.0,0.0,0.0,0.0,0.0,0.361,0.0,0.0,0.0,0.0,0.0,0.0,0.09015881027198024,0.0,0.0,0.0,0.0,0.0,0.0,-10.268,0.0,0.0,0.0
10,0.0,0.0,0.0,0.0152841796875,0.0,0.0,0.0,0.0,0.0,0.0,0.424,0.0,0.0,0.0,0.0,0.0,0.0,0.10195748851277532,0.0,0.0,0.0,0.0,0.0,0.0,-10.06,0.0,0.0,0.0
11,0.0,0.0,0.0,0.0200673828125,0.0,0.0,0.0,0.0,0.0,0.0,0.497,0.0,0.0,0.0,0.0,0.0,0.0,0.11383003450758422,0.0,0.0,0.0,0.0,0.0,0.0,-10.176,0.0,0.0,0.0
12,0.0,0.0,0.0,0.0254267578125,0.0,0.0,0.0,0.0,0.0,0.0,0.496,0.0,0.0,0.0,0.0,0.0,0.0,0.1256028070024188,0.0,0.0,0.0,0.0,0.0,0.0,-8.916,0.0,0.0,0.0
13,0.0,0.0,0.0,0.0320859375,0.0,0.0,0.0,0.0,0.0,0.0,0.599,0.0,0.0,0.0,0.0,0.0,0.0,0.13728650499662998,0.0,0.0,0.0,0.0,0.0,0.0,-9.968,0.0,0.0,0.0
14,0.0,0.0,0.0,0.0383212890625,0.0,0.0,0.0,0.0,0.0,0.0,0.652,0.0,0.0,0.0,0.0,0.0,0.0,0.14896429843670125,0.0,0.0,0.0,0.0,0.0,0.0,-10.7,0.0,0.0,0.0
15,0.0,0.0,0.0,0.045125,0.0,0.0,0.0,0.0,0.0,0.0,0.643,0.0,0.0,0.0,0.0,0.0,0.0,0.1605475238723387,0.0,0.0,0.0,0.0,0.0,0.0,-10.7,0.0,0.0,0.0
16,0.0,0.0,0.0,0.0519287109375,0.0,0.0,0.0,0.0,0.0,0.0,0.702,0.0,0.0,0.0,0.0,0.0,0.0,0.172027728374505,0.0,0.0,0.0,0.0,0.0,0.0,-11.412,0.0,0.0,0.0
17,0.0,0.0,0.0,0.0585966796875,0.0,0.0,0.0,0.0,0.0,0.0,0.665,0.0,0.0,0.0,0.0,0.0,0.0,0.18447780995885574,0.0,0.0,0.0,0.0,0.0,0.0,-9.968,0.0,0.0,0.0
18,0.0,0.0,0.0,0.0661318359375,0.0,0.0,0.0,0.0,0.0,0.0,0.708,0.0,0.0,0.0,0.0,0.0,0.0,0.19500110728799533,0.0,0.0,0.0,0.0,0.0,0.0,-10.588,0.0,0.0,0.0
19,0.0,0.0,0.0,0.0730791015625,0.0,0.0,0.0,0.0,0.0,0.0,0.747,0.0,0.0,0.0,0.0,0.0,0.0,0.2062333324654195,0.0,0.0,0.0,0.0,0.0,0.0,-11.776,0.0,0.0,0.0
20,0.0,0.0,0.0,0.0800361328125,0.0,0.0,0.0,0.0,0.0,0.0,0.684,0.0,0.0,0.0,0.0,0.0,0.0,0.21740978393833008,0.0,0.0,0.0,0.0,0.0,0.0,-11.98,0.0,0.0,0.0
21,0.0,0.0,0.0,0.0871376953125,0.0,0.0,0.0,0.0,0.0,0.0,0.711,0.0,0.0,0.0,0.0,0.0,0.0,0.22866882413108236,0.0,0.0,0.0,0.0,0.0,0.0,-13.124,0.0,0.0,0.0
22,0.0,0.0,0.0,0.0940859375,0.0,0.0,0.0,0.0,0.0,0.0,0.705,0.0,0.0,0.0,0.0,0.0,0.0,0.2395957598905593,0.0,0.0,0.0,0.0,0.0,0.0,-12.92,0.0,0.0,0.0
23,0.0,0.0,0.0,0.1011875,0.0,0.0,0.0,0.0,0.0,0.0,0.703,0.0,0.0,0.0,0.0,0.0,0.0,0.25057922051483394,0.0,0.0,0.0,0.0,0.0,0.0,-13.88,0.0,0.0,0.0
24,0.0,0.0,0.0,0.1081357421875,0.0,0.0,0.0,0.0,0.0,0.0,0.705,0.0,0.0,0.0,0.0,0.0,0.0,0.2615280708216335,0.0,0.0,0.0,0.0,0.0,0.0,-15.048,0.0,0.0,0.0
25,0.0,0.0,0.0,0.115083984375,0.0,0.0,0.0,0.0,0.0,0.0,0.703,0.0,0.0,0.0,0.0,0.0,0.0,0.27214786684017606,0.0,0.0,0.0,0.0,0.0,0.0,-15.184,0.0,0.0,0.0
26,0.0,0.0,0.0,0.122041015625,0.0,0.0,0.0,0.0,0.0,0.0,0.694,0.0,0.0,0.0,0.0,0.0,0.0,0.28277241643000584,0.0,0.0,0.0,0.0,0.0,0.0,-14.268,0.0,0.0,0.0
27,0.0,0.0,0.0,0.1291416015625,0.0,0.0,0.0,0.0,0.0,0.0,0.712,0.0,0.0,0.0,0.0,0.0,0.0,0.2934014805136239,0.0,0.0,0.0,0.0,0.0,0.0,-14.864,0.0,0.0,0.0
28,0.0,0.0,0.0,0.1353681640625,0.0,0.0,0.0,0.0,0.0,0.0,0.675,0.0,0.0,0.0,0.0,0.0,0.0,0.3037359594098391,0.0,0.0,0.0,0.0,0.0,0.0,-15.276,0.0,0.0,0.0
29,0.0,0.0,0.0,0.1421806640625,0.0,0.0,0.0,0.0,0.0,0.0,0.647,0.0,0.0,0.0,0.0,0.0,0.0,0.31399674721962617,0.0,0.0,0.0,0.0,0.0,0.0,-15.388,0.0,0.0,0.0
30,0.0,0.0,0.0,0.14883984375,0.0,0.0,0.0,0.0,0.0,0.0,0.681,0.0,0.0,0.0,0.0,0.0,0.0,0.3242438167137163,0.0,0.0,0.0,0.0,0.0,0.0,-15.48,0.0,0.0,0.0
31,0.0,0.0,0.0,0.1554990234375,0.0,0.0,0.0,0.0,0.0,0.0,0.663,0.0,0.0,0.0,0.0,0.0,0.0,0.33423213286748094,0.0,0.0,0.0,0.0,0.0,0.0,-15.208,0.0,0.0,0.0
32,0.0,0.0,0.0,0.16216796875,0.0,0.0,0.0,0.0,0.0,0.0,0.685,0.0,0.0,0.0,0.0,0.0,0.0,0.3440881465627527,0.0,0.0,0.0,0.0,0.0,0.0,-16.968,0.0,0.0,0.0
33,0.0,0.0,0.0,0.16825,0.0,0.0,0.0,0.0,0.0,0.0,0.638,0.0,0.0,0.0,0.0,0.0,0.0,0.35392785247665104,0.0,0.0,0.0,0.0,0.0,0.0,-17.128,0.0,0.0,0.0
34,0.0,0.0,0.0,0.17491796875,0.0,0.0,0.0,0.0,0.0,0.0,0.626,0.0,0.0,0.0,0.0,0.0,0.0,0.36349190771482276,0.0,0.0,0.0,0.0,0.0,0.0,-16.6,0.0,0.0,0.0
35,0.0,0.0,0.0,0.1811533203125,0.0,0.0,0.0,0.0,0.0,0.0,0.664,0.0,0.0,0.0,0.0,0.0,0.0,0.3729572722947064,0.0,0.0,0.0,0.0,0.0,0.0,-15.64,0.0,0.0,0.0
36,0.0,0.0,0.0,0.18737890625,0.0,0.0,0.0,0.0,0.0,0.0,0.625,0.0,0.0,0.0,0.0,0.0,0.0,0.38233304528548356,0.0,0.0,0.0,0.0,0.0,0.0,-14.728,0.0,0.0,0.0
37,0.0,0.0,0.0,0.1934609375,0.0,0.0,0.0,0.0,0.0,0.0,0.625,0.0,0.0,0.0,0.0,0.0,0.0,0.39148395906203765,0.0,0.0,0.0,0.0,0.0,0.0,-15.78,0.0,0.0,0.0
38,0.0,0.0,0.0,0.199109375,0.0,0.0,0.0,0.0,0.0,0.0,0.587,0.0,0.0,0.0,0.0,0.0,0.0,0.4004845174860205,0.0,0.0,0.0,0.0,0.0,0.0,-15.62,0.0,0.0,0.0
39,0.0,0.0,0.0,0.20490234375,0.0,0.0,0.0,0.0,0.0,0.0,0.577,0.0,0.0,0.0,0.0,0.0,0.0,0.4093797842450117,0.0,0.0,0.0,0.0,0.0,0.0,-15.16,0.0,0.0,0.0
40,0.0,0.0,0.0,0.2104072265625,0.0,0.0,0.0,0.0,0.0,0.0,0.567,0.0,0.0,0.0,0.0,0.0,0.0,0.4180229874493594,0.0,0.0,0.0,0.0,0.0,0.0,-14.084,0.0,0.0,0.0
41,0.0,0.0,0.0,0.216064453125,0.0,0.0,0.0,0.0,0.0,0.0,0.567,0.0,0.0,0.0,0.0,0.0,0.0,0.4265563525452478,0.0,0.0,0.0,0.0,0.0,0.0,-14.292,0.0,0.0,0.0
42,0.0,0.0,0.0,0.2212802734375,0.0,0.0,0.0,0.0,0.0,0.0,0.555,0.0,0.0,0.0,0.0,0.0,0.0,0.43493863261154814,0.0,0.0,0.0,0.0,0.0,0.0,-14.796,0.0,0.0,0.0
43,0.0,0.0,0.0,0.226630859375,0.0,0.0,0.0,0.0,0.0,0.0,0.525,0.0,0.0,0.0,0.0,0.0,0.0,0.44310521446508283,0.0,0.0,0.0,0.0,0.0,0.0,-15.388,0.0,0.0,0.0
44,0.0,0.0,0.0,0.2319912109375,0.0,0.0,0.0,0.0,0.0,0.0,0.533,0.0,0.0,0.0,0.0,0.0,0.0,0.4510809438181115,0.0,0.0,0.0,0.0,0.0,0.0,-14.452,0.0,0.0,0.0
45,0.0,0.0,0.0,0.2373603515625,0.0,0.0,0.0,0.0,0.0,0.0,0.538,0.0,0.0,0.0,0.0,0.0,0.0,0.4589638707562637,0.0,0.0,0.0,0.0,0.0,0.0,-13.032,0.0,0.0,0.0
46,0.0,0.0,0.0,0.2427197265625,0.0,0.0,0.0,0.0,0.0,0.0,0.544,0.0,0.0,0.0,0.0,0.0,0.0,0.4665705612615501,0.0,0.0,0.0,0.0,0.0,0.0,-12.712,0.0,0.0,0.0
47,0.0,0.0,0.0,0.24821484375,0.0,0.0,0.0,0.0,0.0,0.0,0.54,0.0,0.0,0.0,0.0,0.0,0.0,0.4740017698011457,0.0,0.0,0.0,0.0,0.0,0.0,-13.376,0.0,0.0,0.0
48,0.0,0.0,0.0,0.2534306640625,0.0,0.0,0.0,0.0,0.0,0.0,0.547,0.0,0.0,0.0,0.0,0.0,0.0,0.4813182089688952,0.0,0.0,0.0,0.0,0.0,0.0,-13.744,0.0,0.0,0.0
49,0.0,0.0,0.0,0.2585107421875,0.0,0.0,0.0,0.0,0.0,0.0,0.52,0.0,0.0,0.0,0.0,0.0,0.0,0.4883457883631664,0.0,0.0,0.0,0.0,0.0,0.0,-13.148,0.0,0.0,0.0
50,0.0,0.0,0.0,0.263861328125,0.0,0.0,0.0,0.0,0.0,0.0,0.523,0.0,0.0,0.0,0.0,0.0,0.0,0.4952127643554436,0.0,0.0,0.0,0.0,0.0,0.0,-12.416,0.0,0.0,0.0
51,0.0,0.0,0.0,0.2692216796875,0.0,0.0,0.0,0.0,0.0,0.0,0.541,0.0,0.0,0.0,0.0,0.0,0.0,0.5019378678785021,0.0,0.0,0.0,0.0,0.0,0.0,-12.188,0.0,0.0,0.0
52,0.0,0.0,0.0,0.2747353515625,0.0,0.0,0.0,0.0,0.0,0.0,0.544,0.0,0.0,0.0,0.0,0.0,0.0,0.5083484255344153,0.0,0.0,0.0,0.0,0.0,0.0,-12.804,0.0,0.0,0.0
53,0.0,0.0,0.0,0.2802392578125,0.0,0.0,0.0,0.0,0.0,0.0,0.557,0.0,0.0,0.0,0.0,0.0,0.0,0.5146182101281436,0.0,0.0,0.0,0.0,0.0,0.0,-13.604,0.0,0.0,0.0
54,0.0,0.0,0.0,0.2857431640625,0.0,0.0,0.0,0.0,0.0,0.0,0.549,0.0,0.0,0.0,0.0,0.0,0.0,0.5207349149005913,0.0,0.0,0.0,0.0,0.0,0.0,-13.696,0.0,0.0,0.0
55,0.0,0.0,0.0,0.2913828125,0.0,0.0,0.0,0.0,0.0,0.0,0.561,0.0,0.0,0.0,0.0,0.0,0.0,0.5265447831611793,0.0,0.0,0.0,0.0,0.0,0.0,-13.584,0.0,0.0,0.0
56,0.0,0.0,0.0,0.2973291015625,0.0,0.0,0.0,0.0,0.0,0.0,0.579,0.0,0.0,0.0,0.0,0.0,0.0,0.5321824600258686,0.0,0.0,0.0,0.0,0.0,0.0,-12.188,0.0,0.0,0.0
57,0.0,0.0,0.0,0.3032666015625,0.0,0.0,0.0,0.0,0.0,0.0,0.602,0.0,0.0,0.0,0.0,0.0,0.0,0.5376654402759947,0.0,0.0,0.0,0.0,0.0,0.0,-12.416,0.0,0.0,0.0
58,0.0,0.0,0.0,0.308916015625,0.0,0.0,0.0,0.0,0.0,0.0,0.577,0.0,0.0,0.0,0.0,0.0,0.0,0.5428693028911726,0.0,0.0,0.0,0.0,0.0,0.0,-12.508,0.0,0.0,0.0
59,0.0,0.0,0.0,0.3147177734375,0.0,0.0,0.0,0.0,0.0,0.0,0.579,0.0,0.0,0.0,0.0,0.0,0.0,0.5478649342274078,0.0,0.0,0.0,0.0,0.0,0.0,-12.784,0.0,0.0,0.0
60,0.0,0.0,0.0,0.3205107421875,0.0,0.0,0.0,0.0,0.0,0.0,0.583,0.0,0.0,0.0,0.0,0.0,0.0,0.5526803879729136,0.0,0.0,0.0,0.0,0.0,0.0,-12.576,0.0,0.0,0.0
61,0.0,0.0,0.0,0.3264482421875,0.0,0.0,0.0,0.0,0.0,0.0,0.582,0.0,0.0,0.0,0.0,0.0,0.0,0.5572165126063439,0.0,0.0,0.0,0.0,0.0,0.0,-12.072,0.0,0.0,0.0
62,0.0,0.0,0.0,0.3323857421875,0.0,0.0,0.0,0.0,0.0,0.0,0.598,0.0,0.0,0.0,0.0,0.0,0.0,0.5615439458220528,0.0,0.0,0.0,0.0,0.0,0.0,-12.324,0.0,0.0,0.0
63,0.0,0.0,0.0,0.3383232421875,0.0,0.0,0.0,0.0,0.0,0.0,0.596,0.0,0.0,0.0,0.0,0.0,0.0,0.5656747426091281,0.0,0.0,0.0,0.0,0.0,0.0,-13.104,0.0,0.0,0.0
64,0.0,0.0,0.0,0.344404296875,0.0,0.0,0.0,0.0,0.0,0.0,0.604,0.0,0.0,0.0,0.0,0.0,0.0,0.5695535777402229,0.0,0.0,0.0,0.0,0.0,0.0,-13.924,0.0,0.0,0.0
65,0.0,0.0,0.0,0.350486328125,0.0,0.0,0.0,0.0,0.0,0.0,0.61,0.0,0.0,0.0,0.0,0.0,0.0,0.5732092438148039,0.0,0.0,0.0,0.0,0.0,0.0,-14.132,0.0,0.0,0.0
66,0.0,0.0,0.0,0.3567216796875,0.0,0.0,0.0,0.0,0.0,0.0,0.615,0.0,0.0,0.0,0.0,0.0,0.0,0.5766464574052569,0.0,0.0,0.0,0.0,0.0,0.0,-13.376,0.0,0.0,0.0
67,0.0,0.0,0.0,0.3629482421875,0.0,0.0,0.0,0.0,0.0,0.0,0.63,0.0,0.0,0.0,0.0,0.0,0.0,0.5798508900305794,0.0,0.0,0.0,0.0,0.0,0.0,-12.532,0.0,0.0,0.0
68,0.0,0.0,0.0,0.369029296875,0.0,0.0,0.0,0.0,0.0,0.0,0.621,0.0,0.0,0.0,0.0,0.0,0.0,0.5828072609760017,0.0,0.0,0.0,0.0,0.0,0.0,-12.852,0.0,0.0,0.0
69,0.0,0.0,0.0,0.3751201171875,0.0,0.0,0.0,0.0,0.0,0.0,0.61,0.0,0.0,0.0,0.0,0.0,0.0,0.585560362810118,0.0,0.0,0.0,0.0,0.0,0.0,-13.192,0.0,0.0,0.0
70,0.0,0.0,0.0,0.3810576171875,0.0,0.0,0.0,0.0,0.0,0.0,0.607,0.0,0.0,0.0,0.0,0.0,0.0,0.588050842795747,0.0,0.0,0.0,0.0,0.0,0.0,-13.104,0.0,0.0,0.0
71,0.0,0.0,0.0,0.3871396484375,0.0,0.0,0.0,0.0,0.0,0.0,0.606,0.0,0.0,0.0,0.0,0.0,0.0,0.5903147523960839,0.0,0.0,0.0,0.0,0.0,0.0,-12.76,0.0,0.0,0.0
72,0.0,0.0,0.0,0.3930859375,0.0,0.0,0.0,0.0,0.0,0.0,0.602,0.0,0.0,0.0,0.0,0.0,0.0,0.5923428257976684,0.0,0.0,0.0,0.0,0.0,0.0,-12.624,0.0,0.0,0.0
73,0.0,0.0,0.0,0.39887890625,0.0,0.0,0.0,0.0,0.0,0.0,0.593,0.0,0.0,0.0,0.0,0.0,0.0,0.5941387614911017,0.0,0.0,0.0,0.0,0.0,0.0,-13.08,0.0,0.0,0.0
74,0.0,0.0,0.0,0.4048076171875,0.0,0.0,0.0,0.0,0.0,0.0,0.592,0.0,0.0,0.0,0.0,0.0,0.0,0.5956891735067553,0.0,0.0,0.0,0.0,0.0,0.0,-13.584,0.0,0.0,0.0
75,0.0,0.0,0.0,0.4108984375,0.0,0.0,0.0,0.0,0.0,0.0,0.601,0.0,0.0,0.0,0.0,0.0,0.0,0.5970131304944483,0.0,0.0,0.0,0.0,0.0,0.0,-13.88,0.0,0.0,0.0
76,0.0,0.0,0.0,0.41698046875,0.0,0.0,0.0,0.0,0.0,0.0,0.607,0.0,0.0,0.0,0.0,0.0,0.0,0.5980855139265386,0.0,0.0,0.0,0.0,0.0,0.0,-13.836,0.0,0.0,0.0
77,0.0,0.0,0.0,0.4230615234375,0.0,0.0,0.0,0.0,0.0,0.0,0.611,0.0,0.0,0.0,0.0,0.0,0.0,0.5989193709443948,0.0,0.0,0.0,0.0,0.0,0.0,-12.964,0.0,0.0,0.0
78,0.0,0.0,0.0,0.4288642578125,0.0,0.0,0.0,0.0,0.0,0.0,0.601,0.0,0.0,0.0,0.0,0.0,0.0,0.5995206750015456,0.0,0.0,0.0,0.0,0.0,0.0,-12.692,0.0,0.0,0.0
79,0.0,0.0,0.0,0.4348017578125,0.0,0.0,0.0,0.0,0.0,0.0,0.592,0.0,0.0,0.0,0.0,0.0,0.0,0.599881693805703,0.0,0.0,0.0,0.0,0.0,0.0,-12.804,0.0,0.0,0.0
80,0.0,0.0,0.0,0.4405947265625,0.0,0.0,0.0,0.0,0.0,0.0,0.588,0.0,0.0,0.0,0.0,0.0,0.0,0.5999999923749543,0.0,0.0,0.0,0.0,0.0,0.0,-12.392,0.0,0.0,0.0
81,0.0,0.0,0.0,0.4465224609375,0.0,0.0,0.0,0.0,0.0,0.0,0.592,0.0,0.0,0.0,0.0,0.0,0.0,0.5998759229391867,0.0,0.0,0.0,0.0,0.0,0.0,-12.532,0.0,0.0,0.0
82,0.0,0.0,0.0,0.4523154296875,0.0,0.0,0.0,0.0,0.0,0.0,0.589,0.0,0.0,0.0,0.0,0.0,0.0,0.5995080538159748,0.0,0.0,0.0,0.0,0.0,0.0,-12.324,0.0,0.0,0.0
83,0.0,0.0,0.0,0.45796484375,0.0,0.0,0.0,0.0,0.0,0.0,0.575,0.0,0.0,0.0,0.0,0.0,0.0,0.5989153736200306,0.0,0.0,0.0,0.0,0.0,0.0,-12.44,0.0,0.0,0.0
84,0.0,0.0,0.0,0.46390234375,0.0,0.0,0.0,0.0,0.0,0.0,0.577,0.0,0.0,0.0,0.0,0.0,0.0,0.5980800820977382,0.0,0.0,0.0,0.0,0.0,0.0,-12.872,0.0,0.0,0.0
85,0.0,0.0,0.0,0.46955078125,0.0,0.0,0.0,0.0,0.0,0.0,0.59,0.0,0.0,0.0,0.0,0.0,0.0,0.5969821241505445,0.0,0.0,0.0,0.0,0.0,0.0,-13.308,0.0,0.0,0.0
86,0.0,0.0,0.0,0.47548828125,0.0,0.0,0.0,0.0,0.0,0.0,0.58,0.0,0.0,0.0,0.0,0.0,0.0,0.5956629212879091,0.0,0.0,0.0,0.0,0.0,0.0,-13.376,0.0,0.0,0.0
87,0.0,0.0,0.0,0.48142578125,0.0,0.0,0.0,0.0,0.0,0.0,0.601,0.0,0.0,0.0,0.0,0.0,0.0,0.5941182515113816,0.0,0.0,0.0,0.0,0.0,0.0,-12.804,0.0,0.0,0.0
88,0.0,0.0,0.0,0.4873720703125,0.0,0.0,0.0,0.0,0.0,0.0,0.598,0.0,0.0,0.0,0.0,0.0,0.0,0.5923270676484926,0.0,0.0,0.0,0.0,0.0,0.0,-12.12,0.0,0.0,0.0
89,0.0,0.0,0.0,0.4930205078125,0.0,0.0,0.0,0.0,0.0,0.0,0.581,0.0,0.0,0.0,0.0,0.0,0.0,0.5902970459438023,0.0,0.0,0.0,0.0,0.0,0.0,-11.936,0.0,0.0,0.0
90,0.0,0.0,0.0,0.4988046875,0.0,0.0,0.0,0.0,0.0,0.0,0.572,0.0,0.0,0.0,0.0,0.0,0.0,0.5880314225545172,0.0,0.0,0.0,0.0,0.0,0.0,-11.936,0.0,0.0,0.0
91,0.0,0.0,0.0,0.5046064453125,0.0,0.0,0.0,0.0,0.0,0.0,0.582,0.0,0.0,0.0,0.0,0.0,0.0,0.5855123658660234,0.0,0.0,0.0,0.0,0.0,0.0,-11.708,0.0,0.0,0.0
92,0.0,0.0,0.0,0.5105439453125,0.0,0.0,0.0,0.0,0.0,0.0,0.591,0.0,0.0,0.0,0.0,0.0,0.0,0.5828042904461013,0.0,0.0,0.0,0.0,0.0,0.0,-11.96,0.0,0.0,0.0
93,0.0,0.0,0.0,0.5163369140625,0.0,0.0,0.0,0.0,0.0,0.0,0.59,0.0,0.0,0.0,0.0,0.0,0.0,0.5798417956955935,0.0,0.0,0.0,0.0,0.0,0.0,-12.004,0.0,0.0,0.0
94,0.0,0.0,0.0,0.52212109375,0.0,0.0,0.0,0.0,0.0,0.0,0.582,0.0,0.0,0.0,0.0,0.0,0.0,0.5765480501775632,0.0,0.0,0.0,0.0,0.0,0.0,-12.212,0.0,0.0,0.0
95,0.0,0.0,0.0,0.5279228515625,0.0,0.0,0.0,0.0,0.0,0.0,0.583,0.0,0.0,0.0,0.0,0.0,0.0,0.5732030144426236,0.0,0.0,0.0,0.0,0.0,0.0,-12.508,0.0,0.0,0.0
96,0.0,0.0,0.0,0.5338603515625,0.0,0.0,0.0,0.0,0.0,0.0,0.593,0.0,0.0,0.0,0.0,0.0,0.0,0.5695477572317067,0.0,0.0,0.0,0.0,0.0,0.0,-12.828,0.0,0.0,0.0
97,0.0,0.0,0.0,0.5399423828125,0.0,0.0,0.0,0.0,0.0,0.0,0.596,0.0,0.0,0.0,0.0,0.0,0.0,0.5656312653414588,0.0,0.0,0.0,0.0,0.0,0.0,-13.056,0.0,0.0,0.0
98,0.0,0.0,0.0,0.5458798828125,0.0,0.0,0.0,0.0,0.0,0.0,0.604,0.0,0.0,0.0,0.0,0.0,0.0,0.5615230129382359,0.0,0.0,0.0,0.0,0.0,0.0,-12.212,0.0,0.0,0.0
99,0.0,0.0,0.0,0.5519609375,0.0,0.0,0.0,0.0,0.0,0.0,0.608,0.0,0.0,0.0,0.0,0.0,0.0,0.5571908662974757,0.0,0.0,0.0,0.0,0.0,0.0,-11.66,0.0,0.0,0.0
100,0.0,0.0,0.0,0.5577548828125,0.0,0.0,0.0,0.0,0.0,0.0,0.597,0.0,0.0,0.0,0.0,0.0,0.0,0.5525114509633469,0.0,0.0,0.0,0.0,0.0,0.0,-11.8,0.0,0.0,0.0
101,0.0,0.0,0.0,0.5628251953125,0.0,0.0,0.0,0.0,0.0,0.0,0.563,0.0,0.0,0.0,0.0,0.0,0.0,0.5478241364533756,0.0,0.0,0.0,0.0,0.0,0.0,-13.444,0.0,0.0,0.0
102,0.0,0.0,0.0,0.56543359375,0.0,0.0,0.0,0.0,0.0,0.0,0.415,0.0,0.0,0.0,0.0,0.0,0.0,0.5428414360358096,0.0,0.0,0.0,0.0,0.0,0.0,-17.06,0.0,0.0,0.0
103,0.0,0.0,0.0,0.565578125,0.0,0.0,0.0,0.0,0.0,0.0,0.158,0.0,0.0,0.0,0.0,0.0,0.0,0.5375921916025843,0.0,0.0,0.0,0.0,0.0,0.0,-19.048,0.0,0.0,0.0
104,0.0,0.0,0.0,0.5647119140625,0.0,0.0,0.0,0.0,0.0,0.0,-0.029,0.0,0.0,0.0,0.0,0.0,0.0,0.53217047759717,0.0,0.0,0.0,0.0,0.0,0.0,-19.848,0.0,0.0,0.0
105,0.0,0.0,0.0,0.562248046875,0.0,0.0,0.0,0.0,0.0,0.0,-0.154,0.0,0.0,0.0,0.0,0.0,0.0,0.526541122994419,0.0,0.0,0.0,0.0,0.0,0.0,-19.208,0.0,0.0,0.0
106,0.0,0.0,0.0,0.5589091796875,0.0,0.0,0.0,0.0,0.0,0.0,-0.29,0.0,0.0,0.0,0.0,0.0,0.0,0.5206714193845738,0.0,0.0,0.0,0.0,0.0,0.0,-19.024,0.0,0.0,0.0
107,0.0,0.0,0.0,0.555001953125,0.0,0.0,0.0,0.0,0.0,0.0,-0.358,0.0,0.0,0.0,0.0,0.0,0.0,0.5145847146361134,0.0,0.0,0.0,0.0,0.0,0.0,-19.736,0.0,0.0,0.0
108,0.0,0.0,0.0,0.550662109375,0.0,0.0,0.0,0.0,0.0,0.0,-0.404,0.0,0.0,0.0,0.0,0.0,0.0,0.5083436103338084,0.0,0.0,0.0,0.0,0.0,0.0,-21.496,0.0,0.0,0.0
109,0.0,0.0,0.0,0.5454462890625,0.0,0.0,0.0,0.0,0.0,0.0,-0.471,0.0,0.0,0.0,0.0,0.0,0.0,0.501821893495684,0.0,0.0,0.0,0.0,0.0,0.0,-22.388,0.0,0.0,0.0
110,0.0,0.0,0.0,0.5396533203125,0.0,0.0,0.0,0.0,0.0,0.0,-0.55,0.0,0.0,0.0,0.0,0.0,0.0,0.49517921326640113,0.0,0.0,0.0,0.0,0.0,0.0,-21.772,0.0,0.0,0.0
111,0.0,0.0,0.0,0.532849609375,0.0,0.0,0.0,0.0,0.0,0.0,-0.629,0.0,0.0,0.0,0.0,0.0,0.0,0.4883398569011122,0.0,0.0,0.0,0.0,0.0,0.0,-20.468,0.0,0.0,0.0
112,0.0,0.0,0.0,0.5253154296875,0.0,0.0,0.0,0.0,0.0,0.0,-0.718,0.0,0.0,0.0,0.0,0.0,0.0,0.4812654744456112,0.0,0.0,0.0,0.0,0.0,0.0,-19.324,0.0,0.0,0.0
113,0.0,0.0,0.0,0.5180693359375,0.0,0.0,0.0,0.0,0.0,0.0,-0.745,0.0,0.0,0.0,0.0,0.0,0.0,0.47393375809524635,0.0,0.0,0.0,0.0,0.0,0.0,-18.364,0.0,0.0,0.0
114,0.0,0.0,0.0,0.5103994140625,0.0,0.0,0.0,0.0,0.0,0.0,-0.712,0.0,0.0,0.0,0.0,0.0,0.0,0.4665249244655121,0.0,0.0,0.0,0.0,0.0,0.0,-16.648,0.0,0.0,0.0
115,0.0,0.0,0.0,0.502576171875,0.0,0.0,0.0,0.0,0.0,0.0,-0.734,0.0,0.0,0.0,0.0,0.0,0.0,0.4588878129963817,0.0,0.0,0.0,0.0,0.0,0.0,-17.08,0.0,0.0,0.0
116,0.0,0.0,0.0,0.4944638671875,0.0,0.0,0.0,0.0,0.0,0.0,-0.837,0.0,0.0,0.0,0.0,0.0,0.0,0.4509840224749593,0.0,0.0,0.0,0.0,0.0,0.0,-16.464,0.0,0.0,0.0
117,0.0,0.0,0.0,0.4860634765625,0.0,0.0,0.0,0.0,0.0,0.0,-0.885,0.0,0.0,0.0,0.0,0.0,0.0,0.4430223180701132,0.0,0.0,0.0,0.0,0.0,0.0,-14.816,0.0,0.0,0.0
118,0.0,0.0,0.0,0.478240234375,0.0,0.0,0.0,0.0,0.0,0.0,-0.775,0.0,0.0,0.0,0.0,0.0,0.0,0.4348498003510331,0.0,0.0,0.0,0.0,0.0,0.0,-13.444,0.0,0.0,0.0
119,0.0,0.0,0.0,0.4710029296875,0.0,0.0,0.0,0.0,0.0,0.0,-0.738,0.0,0.0,0.0,0.0,0.0,0.0,0.42651214862351045,0.0,0.0,0.0,0.0,0.0,0.0,-14.796,0.0,0.0,0.0
120,0.0,0.0,0.0,0.4623046875,0.0,0.0,0.0,0.0,0.0,0.0,-0.848,0.0,0.0,0.0,0.0,0.0,0.0,0.4179898026897014,0.0,0.0,0.0,0.0,0.0,0.0,-13.696,0.0,0.0,0.0
121,0.0,0.0,0.0,0.454923828125,0.0,0.0,0.0,0.0,0.0,0.0,-0.817,0.0,0.0,0.0,0.0,0.0,0.0,0.40934094482372685,0.0,0.0,0.0,0.0,0.0,0.0,-12.484,0.0,0.0,0.0
122,0.0,0.0,0.0,0.4478310546875,0.0,0.0,0.0,0.0,0.0,0.0,-0.73,0.0,0.0,0.0,0.0,0.0,0.0,0.40042066850216707,0.0,0.0,0.0,0.0,0.0,0.0,-11.136,0.0,0.0,0.0
123,0.0,0.0,0.0,0.4394306640625,0.0,0.0,0.0,0.0,0.0,0.0,-0.755,0.0,0.0,0.0,0.0,0.0,0.0,0.39145909378944976,0.0,0.0,0.0,0.0,0.0,0.0,-11.592,0.0,0.0,0.0
124,0.0,0.0,0.0,0.4310390625,0.0,0.0,0.0,0.0,0.0,0.0,-0.86,0.0,0.0,0.0,0.0,0.0,0.0,0.38227512232727345,0.0,0.0,0.0,0.0,0.0,0.0,-10.176,0.0,0.0,0.0
125,0.0,0.0,0.0,0.4245146484375,0.0,0.0,0.0,0.0,0.0,0.0,-0.77,0.0,0.0,0.0,0.0,0.0,0.0,0.3728656731789782,0.0,0.0,0.0,0.0,0.0,0.0,-10.06,0.0,0.0,0.0
126,0.0,0.0,0.0,0.4178466796875,0.0,0.0,0.0,0.0,0.0,0.0,-0.653,0.0,0.0,0.0,0.0,0.0,0.0,0.36348765493309826,0.0,0.0,0.0,0.0,0.0,0.0,-11.16,0.0,0.0,0.0
127,0.0,0.0,0.0,0.41046484375,0.0,0.0,0.0,0.0,0.0,0.0,-0.704,0.0,0.0,0.0,0.0,0.0,0.0,0.35388772605970964,0.0,0.0,0.0,0.0,0.0,0.0,-12.052,0.0,0.0,0.0
128,0.0,0.0,0.0,0.4030751953125,0.0,0.0,0.0,0.0,0.0,0.0,-0.75,0.0,0.0,0.0,0.0,0.0,0.0,0.3440483749626039,0.0,0.0,0.0,0.0,0.0,0.0,-11.364,0.0,0.0,0.0
129,0.0,0.0,0.0,0.3969931640625,0.0,0.0,0.0,0.0,0.0,0.0,-0.688,0.0,0.0,0.0,0.0,0.0,0.0,0.33422080316001646,0.0,0.0,0.0,0.0,0.0,0.0,-10.2,0.0,0.0,0.0
130,0.0,0.0,0.0,0.390478515625,0.0,0.0,0.0,0.0,0.0,0.0,-0.619,0.0,0.0,0.0,0.0,0.0,0.0,0.3241565039531584,0.0,0.0,0.0,0.0,0.0,0.0,-10.22,0.0,0.0,0.0
131,0.0,0.0,0.0,0.383666015625,0.0,0.0,0.0,0.0,0.0,0.0,-0.68,0.0,0.0,0.0,0.0,0.0,0.0,0.31395123318531076,0.0,0.0,0.0,0.0,0.0,0.0,-9.648,0.0,0.0,0.0
132,0.0,0.0,0.0,0.377294921875,0.0,0.0,0.0,0.0,0.0,0.0,-0.673,0.0,0.0,0.0,0.0,0.0,0.0,0.30368471522102697,0.0,0.0,0.0,0.0,0.0,0.0,-10.86,0.0,0.0,0.0
133,0.0,0.0,0.0,0.371212890625,0.0,0.0,0.0,0.0,0.0,0.0,-0.625,0.0,0.0,0.0,0.0,0.0,0.0,0.29331096414825647,0.0,0.0,0.0,0.0,0.0,0.0,-10.952,0.0,0.0,0.0
134,0.0,0.0,0.0,0.3654111328125,0.0,0.0,0.0,0.0,0.0,0.0,-0.599,0.0,0.0,0.0,0.0,0.0,0.0,0.282752813900272,0.0,0.0,0.0,0.0,0.0,0.0,-10.36,0.0,0.0,0.0
135,0.0,0.0,0.0,0.3593291015625,0.0,0.0,0.0,0.0,0.0,0.0,-0.589,0.0,0.0,0.0,0.0,0.0,0.0,0.27210562024356166,0.0,0.0,0.0,0.0,0.0,0.0,-11.296,0.0,0.0,0.0
136,0.0,0.0,0.0,0.3533916015625,0.0,0.0,0.0,0.0,0.0,0.0,-0.613,0.0,0.0,0.0,0.0,0.0,0.0,0.26139347517968825,0.0,0.0,0.0,0.0,0.0,0.0,-12.12,0.0,0.0,0.0
137,0.0,0.0,0.0,0.347734375,0.0,0.0,0.0,0.0,0.0,0.0,-0.59,0.0,0.0,0.0,0.0,0.0,0.0,0.2504807749722566,0.0,0.0,0.0,0.0,0.0,0.0,-12.804,0.0,0.0,0.0
138,0.0,0.0,0.0,0.3423837890625,0.0,0.0,0.0,0.0,0.0,0.0,-0.558,0.0,0.0,0.0,0.0,0.0,0.0,0.23954233239141512,0.0,0.0,0.0,0.0,0.0,0.0,-11.96,0.0,0.0,0.0
139,0.0,0.0,0.0,0.3376005859375,0.0,0.0,0.0,0.0,0.0,0.0,-0.51,0.0,0.0,0.0,0.0,0.0,0.0,0.22852738787040763,0.0,0.0,0.0,0.0,0.0,0.0,-12.004,0.0,0.0,0.0
140,0.0,0.0,0.0,0.3322412109375,0.0,0.0,0.0,0.0,0.0,0.0,-0.507,0.0,0.0,0.0,0.0,0.0,0.0,0.21737253557741407,0.0,0.0,0.0,0.0,0.0,0.0,-12.872,0.0,0.0,0.0
141,0.0,0.0,0.0,0.326880859375,0.0,0.0,0.0,0.0,0.0,0.0,-0.535,0.0,0.0,0.0,0.0,0.0,0.0,0.20606602674949764,0.0,0.0,0.0,0.0,0.0,0.0,-13.628,0.0,0.0,0.0
142,0.0,0.0,0.0,0.321232421875,0.0,0.0,0.0,0.0,0.0,0.0,-0.534,0.0,0.0,0.0,0.0,0.0,0.0,0.19486779619817465,0.0,0.0,0.0,0.0,0.0,0.0,-13.972,0.0,0.0,0.0
143,0.0,0.0,0.0,0.3163056640625,0.0,0.0,0.0,0.0,0.0,0.0,-0.53,0.0,0.0,0.0,0.0,0.0,0.0,0.1834482442441458,0.0,0.0,0.0,0.0,0.0,0.0,-13.788,0.0,0.0,0.0
144,0.0,0.0,0.0,0.3108017578125,0.0,0.0,0.0,0.0,0.0,0.0,-0.531,0.0,0.0,0.0,0.0,0.0,0.0,0.17193160691550372,0.0,0.0,0.0,0.0,0.0,0.0,-12.712,0.0,0.0,0.0
145,0.0,0.0,0.0,0.3063076171875,0.0,0.0,0.0,0.0,0.0,0.0,-0.505,0.0,0.0,0.0,0.0,0.0,0.0,0.160474281705168,0.0,0.0,0.0,0.0,0.0,0.0,-13.284,0.0,0.0,0.0
146,0.0,0.0,0.0,0.3010927734375,0.0,0.0,0.0,0.0,0.0,0.0,-0.502,0.0,0.0,0.0,0.0,0.0,0.0,0.14888595297905308,0.0,0.0,0.0,0.0,0.0,0.0,-15.092,0.0,0.0,0.0
147,0.0,0.0,0.0,0.29501953125,0.0,0.0,0.0,0.0,0.0,0.0,-0.548,0.0,0.0,0.0,0.0,0.0,0.0,0.13715039696975975,0.0,0.0,0.0,0.0,0.0,0.0,-15.252,0.0,0.0,0.0
148,0.0,0.0,0.0,0.2905166015625,0.0,0.0,0.0,0.0,0.0,0.0,-0.536,0.0,0.0,0.0,0.0,0.0,0.0,0.12552008443023852,0.0,0.0,0.0,0.0,0.0,0.0,-15.116,0.0,0.0,0.0
149,0.0,0.0,0.0,0.2847236328125,0.0,0.0,0.0,0.0,0.0,0.0,-0.523,0.0,0.0,0.0,0.0,0.0,0.0,0.11377057073295554,0.0,0.0,0.0,0.0,0.0,0.0,-14.636,0.0,0.0,0.0
150,0.0,0.0,0.0,0.2805283203125,0.0,0.0,0.0,0.0,0.0,0.0,-0.512,0.0,0.0,0.0,0.0,0.0,0.0,0.10185889691933644,0.0,0.0,0.0,0.0,0.0,0.0,-14.588,0.0,0.0,0.0
151,0.0,0.0,0.0,0.2753125,0.0,0.0,0.0,0.0,0.0,0.0,-0.484,0.0,0.0,0.0,0.0,0.0,0.0,0.09009638864458468,0.0,0.0,0.0,0.0,0.0,0.0,-15.228,0.0,0.0,0.0
152,0.0,0.0,0.0,0.2690771484375,0.0,0.0,0.0,0.0,0.0,0.0,-0.548,0.0,0.0,0.0,0.0,0.0,0.0,0.07823679108378831,0.0,0.0,0.0,0.0,0.0,0.0,-15.848,0.0,0.0,0.0
153,0.0,0.0,0.0,0.263861328125,0.0,0.0,0.0,0.0,0.0,0.0,-0.579,0.0,0.0,0.0,0.0,0.0,0.0,0.06615720294848078,0.0,0.0,0.0,0.0,0.0,0.0,-15.276,0.0,0.0,0.0
154,0.0,0.0,0.0,0.258078125,0.0,0.0,0.0,0.0,0.0,0.0,-0.583,0.0,0.0,0.0,0.0,0.0,0.0,0.05436981468789749,0.0,0.0,0.0,0.0,0.0,0.0,-14.408,0.0,0.0,0.0
155,0.0,0.0,0.0,0.252419921875,0.0,0.0,0.0,0.0,0.0,0.0,-0.577,0.0,0.0,0.0,0.0,0.0,0.0,0.04243423269227403,0.0,0.0,0.0,0.0,0.0,0.0,-14.224,0.0,0.0,0.0
156,0.0,0.0,0.0,0.246337890625,0.0,0.0,0.0,0.0,0.0,0.0,-0.559,0.0,0.0,0.0,0.0,0.0,0.0,0.03038002741317811,0.0,0.0,0.0,0.0,0.0,0.0,-14.612,0.0,0.0,0.0
157,0.0,0.0,0.0,0.240689453125,0.0,0.0,0.0,0.0,0.0,0.0,-0.56,0.0,0.0,0.0,0.0,0.0,0.0,0.01843333541454207,0.0,0.0,0.0,0.0,0.0,0.0,-15.756,0.0,0.0,0.0
158,0.0,0.0,0.0,0.2344541015625,0.0,0.0,0.0,0.0,0.0,0.0,-0.6,0.0,0.0,0.0,0.0,0.0,0.0,0.00646587730681486,0.0,0.0,0.0,0.0,0.0,0.0,-15.892,0.0,0.0,0.0
159,0.0,0.0,0.0,0.2290947265625,0.0,0.0,0.0,0.0,0.0,0.0,-0.617,0.0,0.0,0.0,0.0,0.0,0.0,-0.005731881693476367,0.0,0.0,0.0,0.0,0.0,0.0,-14.932,0.0,0.0,0.0
160,0.0,0.0,0.0,0.2230126953125,0.0,0.0,0.0,0.0,0.0,0.0,-0.605,0.0,0.0,0.0,0.0,0.0,0.0,-0.017555501401947886,0.0,0.0,0.0,0.0,0.0,0.0,-14.476,0.0,0.0,0.0
161,0.0,0.0,0.0,0.2173642578125,0.0,0.0,0.0,0.0,0.0,0.0,-0.596,0.0,0.0,0.0,0.0,0.0,0.0,-0.02958919061159328,0.0,0.0,0.0,0.0,0.0,0.0,-14.156,0.0,0.0,0.0
162,0.0,0.0,0.0,0.21083984375,0.0,0.0,0.0,0.0,0.0,0.0,-0.573,0.0,0.0,0.0,0.0,0.0,0.0,-0.04166461675429985,0.0,0.0,0.0,0.0,0.0,0.0,-14.656,0.0,0.0,0.0
163,0.0,0.0,0.0,0.2046142578125,0.0,0.0,0.0,0.0,0.0,0.0,-0.611,0.0,0.0,0.0,0.0,0.0,0.0,-0.05358832297407725,0.0,0.0,0.0,0.0,0.0,0.0,-14.704,0.0,0.0,0.0
164,0.0,0.0,0.0,0.1985322265625,0.0,0.0,0.0,0.0,0.0,0.0,-0.627,0.0,0.0,0.0,0.0,0.0,0.0,-0.06545376015560735,0.0,0.0,0.0,0.0,0.0,0.0,-14.084,0.0,0.0,0.0
165,0.0,0.0,0.0,0.1920078125,0.0,0.0,0.0,0.0,0.0,0.0,-0.632,0.0,0.0,0.0,0.0,0.0,0.0,-0.07740881721685461,0.0,0.0,0.0,0.0,0.0,0.0,-13.836,0.0,0.0,0.0
166,0.0,0.0,0.0,0.1859267578125,0.0,0.0,0.0,0.0,0.0,0.0,-0.637,0.0,0.0,0.0,0.0,0.0,0.0,-0.08922462595395064,0.0,0.0,0.0,0.0,0.0,0.0,-13.284,0.0,0.0,0.0
167,0.0,0.0,0.0,0.1798447265625,0.0,0.0,0.0,0.0,0.0,0.0,-0.609,0.0,0.0,0.0,0.0,0.0,0.0,-0.10104773629066931,0.0,0.0,0.0,0.0,0.0,0.0,-13.88,0.0,0.0,0.0
168,0.0,0.0,0.0,0.1741865234375,0.0,0.0,0.0,0.0,0.0,0.0,-0.617,0.0,0.0,0.0,0.0,0.0,0.0,-0.11294130960103489,0.0,0.0,0.0,0.0,0.0,0.0,-14.772,0.0,0.0,0.0
169,0.0,0.0,0.0,0.16825,0.0,0.0,0.0,0.0,0.0,0.0,-0.624,0.0,0.0,0.0,0.0,0.0,0.0,-0.12466926974831122,0.0,0.0,0.0,0.0,0.0,0.0,-14.52,0.0,0.0,0.0
170,0.0,0.0,0.0,0.1614462890625,0.0,0.0,0.0,0.0,0.0,0.0,-0.608,0.0,0.0,0.0,0.0,0.0,0.0,-0.13634431019716414,0.0,0.0,0.0,0.0,0.0,0.0,-14.428,0.0,0.0,0.0
171,0.0,0.0,0.0,0.1560859375,0.0,0.0,0.0,0.0,0.0,0.0,-0.618,0.0,0.0,0.0,0.0,0.0,0.0,-0.148046400253593,0.0,0.0,0.0,0.0,0.0,0.0,-13.744,0.0,0.0,0.0
172,0.0,0.0,0.0,0.1495625,0.0,0.0,0.0,0.0,0.0,0.0,-0.602,0.0,0.0,0.0,0.0,0.0,0.0,-0.15957905944769263,0.0,0.0,0.0,0.0,0.0,0.0,-13.764,0.0,0.0,0.0
173,0.0,0.0,0.0,0.14348046875,0.0,0.0,0.0,0.0,0.0,0.0,-0.599,0.0,0.0,0.0,0.0,0.0,0.0,-0.1710946846932432,0.0,0.0,0.0,0.0,0.0,0.0,-14.292,0.0,0.0,0.0
174,0.0,0.0,0.0,0.13754296875,0.0,0.0,0.0,0.0,0.0,0.0,-0.606,0.0,0.0,0.0,0.0,0.0,0.0,-0.18277184244927377,0.0,0.0,0.0,0.0,0.0,0.0,-13.836,0.0,0.0,0.0
175,0.0,0.0,0.0,0.1315966796875,0.0,0.0,0.0,0.0,0.0,0.0,-0.6,0.0,0.0,0.0,0.0,0.0,0.0,-0.19398146743252445,0.0,0.0,0.0,0.0,0.0,0.0,-13.948,0.0,0.0,0.0
176,0.0,0.0,0.0,0.1255146484375,0.0,0.0,0.0,0.0,0.0,0.0,-0.609,0.0,0.0,0.0,0.0,0.0,0.0,-0.20528374234618127,0.0,0.0,0.0,0.0,0.0,0.0,-13.628,0.0,0.0,0.0
177,0.0,0.0,0.0,0.1195771484375,0.0,0.0,0.0,0.0,0.0,0.0,-0.601,0.0,0.0,0.0,0.0,0.0,0.0,-0.21674503083855726,0.0,0.0,0.0,0.0,0.0,0.0,-13.856,0.0,0.0,0.0
178,0.0,0.0,0.0,0.1140732421875,0.0,0.0,0.0,0.0,0.0,0.0,-0.602,0.0,0.0,0.0,0.0,0.0,0.0,-0.22768969972235087,0.0,0.0,0.0,0.0,0.0,0.0,-14.568,0.0,0.0,0.0
179,0.0,0.0,0.0,0.107693359375,0.0,0.0,0.0,0.0,0.0,0.0,-0.602,0.0,0.0,0.0,0.0,0.0,0.0,-0.23875026010381356,0.0,0.0,0.0,0.0,0.0,0.0,-14.452,0.0,0.0,0.0
180,0.0,0.0,0.0,0.1020537109375,0.0,0.0,0.0,0.0,0.0,0.0,-0.574,0.0,0.0,0.0,0.0,0.0,0.0,-0.24981877999431085,0.0,0.0,0.0,0.0,0.0,0.0,-14.772,0.0,0.0,0.0
181,0.0,0.0,0.0,0.09626953125,0.0,0.0,0.0,0.0,0.0,0.0,-0.576,0.0,0.0,0.0,0.0,0.0,0.0,-0.2606946871839276,0.0,0.0,0.0,0.0,0.0,0.0,-14.544,0.0,0.0,0.0
182,0.0,0.0,0.0,0.0907568359375,0.0,0.0,0.0,0.0,0.0,0.0,-0.574,0.0,0.0,0.0,0.0,0.0,0.0,-0.27142314162677134,0.0,0.0,0.0,0.0,0.0,0.0,-13.948,0.0,0.0,0.0
183,0.0,0.0,0.0,0.085396484375,0.0,0.0,0.0,0.0,0.0,0.0,-0.568,0.0,0.0,0.0,0.0,0.0,0.0,-0.2820976117068714,0.0,0.0,0.0,0.0,0.0,0.0,-14.36,0.0,0.0,0.0
184,0.0,0.0,0.0,0.0788818359375,0.0,0.0,0.0,0.0,0.0,0.0,-0.601,0.0,0.0,0.0,0.0,0.0,0.0,-0.29272983847676465,0.0,0.0,0.0,0.0,0.0,0.0,-14.016,0.0,0.0,0.0
185,0.0,0.0,0.0,0.0732236328125,0.0,0.0,0.0,0.0,0.0,0.0,-0.588,0.0,0.0,0.0,0.0,0.0,0.0,-0.3030254927747122,0.0,0.0,0.0,0.0,0.0,0.0,-14.156,0.0,0.0,0.0
186,0.0,0.0,0.0,0.0672861328125,0.0,0.0,0.0,0.0,0.0,0.0,-0.581,0.0,0.0,0.0,0.0,0.0,0.0,-0.3133171753497379,0.0,0.0,0.0,0.0,0.0,0.0,-14.064,0.0,0.0,0.0
187,0.0,0.0,0.0,0.0614931640625,0.0,0.0,0.0,0.0,0.0,0.0,-0.592,0.0,0.0,0.0,0.0,0.0,0.0,-0.3235715825684284,0.0,0.0,0.0,0.0,0.0,0.0,-14.04,0.0,0.0,0.0
188,0.0,0.0,0.0,0.0557001953125,0.0,0.0,0.0,0.0,0.0,0.0,-0.573,0.0,0.0,0.0,0.0,0.0,0.0,-0.3334592145868,0.0,0.0,0.0,0.0,0.0,0.0,-14.772,0.0,0.0,0.0
189,0.0,0.0,0.0,0.049609375,0.0,0.0,0.0,0.0,0.0,0.0,-0.603,0.0,0.0,0.0,0.0,0.0,0.0,-0.34336885941863504,0.0,0.0,0.0,0.0,0.0,0.0,-14.888,0.0,0.0,0.0
190,0.0,0.0,0.0,0.0439697265625,0.0,0.0,0.0,0.0,0.0,0.0,-0.599,0.0,0.0,0.0,0.0,0.0,0.0,-0.35321491552777656,0.0,0.0,0.0,0.0,0.0,0.0,-14.656,0.0,0.0,0.0
191,0.0,0.0,0.0,0.0383212890625,0.0,0.0,0.0,0.0,0.0,0.0,-0.563,0.0,0.0,0.0,0.0,0.0,0.0,-0.36272541481775916,0.0,0.0,0.0,0.0,0.0,0.0,-14.908,0.0,0.0,0.0
192,0.0,0.0,0.0,0.0326640625,0.0,0.0,0.0,0.0,0.0,0.0,-0.58,0.0,0.0,0.0,0.0,0.0,0.0,-0.3722317460261,0.0,0.0,0.0,0.0,0.0,0.0,-14.588,0.0,0.0,0.0
193,0.0,0.0,0.0,0.0273037109375,0.0,0.0,0.0,0.0,0.0,0.0,-0.556,0.0,0.0,0.0,0.0,0.0,0.0,-0.3815876527865694,0.0,0.0,0.0,0.0,0.0,0.0,-14.772,0.0,0.0,0.0
194,0.0,0.0,0.0,0.0210771484375,0.0,0.0,0.0,0.0,0.0,0.0,-0.575,0.0,0.0,0.0,0.0,0.0,0.0,-0.3907503415805302,0.0,0.0,0.0,0.0,0.0,0.0,-14.888,0.0,0.0,0.0
195,0.0,0.0,0.0,0.015140625,0.0,0.0,0.0,0.0,0.0,0.0,-0.625,0.0,0.0,0.0,0.0,0.0,0.0,-0.39978497194486406,0.0,0.0,0.0,0.0,0.0,0.0,-13.972,0.0,0.0,0.0
196,0.0,0.0,0.0,0.009337890625,0.0,0.0,0.0,0.0,0.0,0.0,-0.584,0.0,0.0,0.0,0.0,0.0,0.0,-0.4088221813920257,0.0,0.0,0.0,0.0,0.0,0.0,-14.292,0.0,0.0,0.0
197,0.0,0.0,0.0,0.003255859375,0.0,0.0,0.0,0.0,0.0,0.0,-0.6,0.0,0.0,0.0,0.0,0.0,0.0,-0.41735930348286177,0.0,0.0,0.0,0.0,0.0,0.0,-13.72,0.0,0.0,0.0
198,0.0,0.0,0.0,-0.00223828125,0.0,0.0,0.0,0.0,0.0,0.0,-0.588,0.0,0.0,0.0,0.0,0.0,0.0,-0.42586437307797803,0.0,0.0,0.0,0.0,0.0,0.0,-14.268,0.0,0.0,0.0
199,0.0,0.0,0.0,-0.0084736328125,0.0,0.0,0.0,0.0,0.0,0.0,-0.575,0.0,0.0,0.0,0.0,0.0,0.0,-0.4342989087617774,0.0,0.0,0.0,0.0,0.0,0.0,-15.208,0.0,0.0,0.0
200,0.0,0.0,0.0,-0.014564453125,0.0,0.0,0.0,0.0,0.0,0.0,-0.628,0.0,0.0,0.0,0.0,0.0,0.0,-0.4424765281414008,0.0,0.0,0.0,0.0,0.0,0.0,-14.704,0.0,0.0,0.0
201,0.0,0.0,0.0,-0.0200595703125,0.0,0.0,0.0,0.0,0.0,0.0,-0.587,0.0,0.0,0.0,0.0,0.0,0.0,-0.4504953786479905,0.0,0.0,0.0,0.0,0.0,0.0,-15.092,0.0,0.0,0.0
202,0.0,0.0,0.0,-0.026140625,0.0,0.0,0.0,0.0,0.0,0.0,-0.583,0.0,0.0,0.0,0.0,0.0,0.0,-0.4583887233091982,0.0,0.0,0.0,0.0,0.0,0.0,-14.568,0.0,0.0,0.0
203,0.0,0.0,0.0,-0.031654296875,0.0,0.0,0.0,0.0,0.0,0.0,-0.595,0.0,0.0,0.0,0.0,0.0,0.0,-0.4659669398165228,0.0,0.0,0.0,0.0,0.0,0.0,-14.336,0.0,0.0,0.0
204,0.0,0.0,0.0,-0.037302734375,0.0,0.0,0.0,0.0,0.0,0.0,-0.553,0.0,0.0,0.0,0.0,0.0,0.0,-0.4734256134546762,0.0,0.0,0.0,0.0,0.0,0.0,-15.068,0.0,0.0,0.0
205,0.0,0.0,0.0,-0.043673828125,0.0,0.0,0.0,0.0,0.0,0.0,-0.604,0.0,0.0,0.0,0.0,0.0,0.0,-0.48076634879376157,0.0,0.0,0.0,0.0,0.0,0.0,-14.476,0.0,0.0,0.0
206,0.0,0.0,0.0,-0.049322265625,0.0,0.0,0.0,0.0,0.0,0.0,-0.609,0.0,0.0,0.0,0.0,0.0,0.0,-0.487791264453583,0.0,0.0,0.0,0.0,0.0,0.0,-13.924,0.0,0.0,0.0
207,0.0,0.0,0.0,-0.0554130859375,0.0,0.0,0.0,0.0,0.0,0.0,-0.585,0.0,0.0,0.0,0.0,0.0,0.0,-0.49467044491026496,0.0,0.0,0.0,0.0,0.0,0.0,-14.084,0.0,0.0,0.0
208,0.0,0.0,0.0,-0.0614951171875,0.0,0.0,0.0,0.0,0.0,0.0,-0.62,0.0,0.0,0.0,0.0,0.0,0.0,-0.5014111326318429,0.0,0.0,0.0,0.0,0.0,0.0,-13.584,0.0,0.0,0.0
209,0.0,0.0,0.0,-0.0671435546875,0.0,0.0,0.0,0.0,0.0,0.0,-0.587,0.0,0.0,0.0,0.0,0.0,0.0,-0.5078651151925071,0.0,0.0,0.0,0.0,0.0,0.0,-14.588,0.0,0.0,0.0
210,0.0,0.0,0.0,-0.073369140625,0.0,0.0,0.0,0.0,0.0,0.0,-0.592,0.0,0.0,0.0,0.0,0.0,0.0,-0.5141455138600188,0.0,0.0,0.0,0.0,0.0,0.0,-14.864,0.0,0.0,0.0
211,0.0,0.0,0.0,-0.0791630859375,0.0,0.0,0.0,0.0,0.0,0.0,-0.614,0.0,0.0,0.0,0.0,0.0,0.0,-0.5202666465017732,0.0,0.0,0.0,0.0,0.0,0.0,-14.568,0.0,0.0,0.0
212,0.0,0.0,0.0,-0.0849560546875,0.0,0.0,0.0,0.0,0.0,0.0,-0.572,0.0,0.0,0.0,0.0,0.0,0.0,-0.5261124764094857,0.0,0.0,0.0,0.0,0.0,0.0,-14.84,0.0,0.0,0.0
213,0.0,0.0,0.0,-0.0908935546875,0.0,0.0,0.0,0.0,0.0,0.0,-0.599,0.0,0.0,0.0,0.0,0.0,0.0,-0.5317448047933615,0.0,0.0,0.0,0.0,0.0,0.0,-14.268,0.0,0.0,0.0
214,0.0,0.0,0.0,-0.0962529296875,0.0,0.0,0.0,0.0,0.0,0.0,-0.572,0.0,0.0,0.0,0.0,0.0,0.0,-0.5372412356265774,0.0,0.0,0.0,0.0,0.0,0.0,-14.52,0.0,0.0,0.0
215,0.0,0.0,0.0,-0.10234375,0.0,0.0,0.0,0.0,0.0,0.0,-0.568,0.0,0.0,0.0,0.0,0.0,0.0,-0.5424662634801407,0.0,0.0,0.0,0.0,0.0,0.0,-14.728,0.0,0.0,0.0
216,0.0,0.0,0.0,-0.10828125,0.0,0.0,0.0,0.0,0.0,0.0,-0.614,0.0,0.0,0.0,0.0,0.0,0.0,-0.5474741270881043,0.0,0.0,0.0,0.0,0.0,0.0,-13.996,0.0,0.0,0.0
217,0.0,0.0,0.0,-0.11407421875,0.0,0.0,0.0,0.0,0.0,0.0,-0.585,0.0,0.0,0.0,0.0,0.0,0.0,-0.5523123905786003,0.0,0.0,0.0,0.0,0.0,0.0,-14.176,0.0,0.0,0.0
218,0.0,0.0,0.0,-0.1203095703125,0.0,0.0,0.0,0.0,0.0,0.0,-0.602,0.0,0.0,0.0,0.0,0.0,0.0,-0.5568948402591533,0.0,0.0,0.0,0.0,0.0,0.0,-13.788,0.0,0.0,0.0
219,0.0,0.0,0.0,-0.12594921875,0.0,0.0,0.0,0.0,0.0,0.0,-0.607,0.0,0.0,0.0,0.0,0.0,0.0,-0.5612167196072351,0.0,0.0,0.0,0.0,0.0,0.0,-13.836,0.0,0.0,0.0
220,0.0,0.0,0.0,-0.1317421875,0.0,0.0,0.0,0.0,0.0,0.0,-0.568,0.0,0.0,0.0,0.0,0.0,0.0,-0.5653646169492014,0.0,0.0,0.0,0.0,0.0,0.0,-14.816,0.0,0.0,0.0
221,0.0,0.0,0.0,-0.1379677734375,0.0,0.0,0.0,0.0,0.0,0.0,-0.606,0.0,0.0,0.0,0.0,0.0,0.0,-0.5692579878729159,0.0,0.0,0.0,0.0,0.0,0.0,-14.68,0.0,0.0,0.0
222,0.0,0.0,0.0,-0.1434814453125,0.0,0.0,0.0,0.0,0.0,0.0,-0.591,0.0,0.0,0.0,0.0,0.0,0.0,-0.5729264741029694,0.0,0.0,0.0,0.0,0.0,0.0,-14.612,0.0,0.0,0.0
223,0.0,0.0,0.0,-0.1494189453125,0.0,0.0,0.0,0.0,0.0,0.0,-0.574,0.0,0.0,0.0,0.0,0.0,0.0,-0.576383044891919,0.0,0.0,0.0,0.0,0.0,0.0,-14.728,0.0,0.0,0.0
224,0.0,0.0,0.0,-0.1550673828125,0.0,0.0,0.0,0.0,0.0,0.0,-0.594,0.0,0.0,0.0,0.0,0.0,0.0,-0.5796055325645959,0.0,0.0,0.0,0.0,0.0,0.0,-14.292,0.0,0.0,0.0
225,0.0,0.0,0.0,-0.1607158203125,0.0,0.0,0.0,0.0,0.0,0.0,-0.564,0.0,0.0,0.0,0.0,0.0,0.0,-0.5825805485978024,0.0,0.0,0.0,0.0,0.0,0.0,-14.588,0.0,0.0,0.0
226,0.0,0.0,0.0,-0.1667978515625,0.0,0.0,0.0,0.0,0.0,0.0,-0.584,0.0,0.0,0.0,0.0,0.0,0.0,-0.5853422963649626,0.0,0.0,0.0,0.0,0.0,0.0,-14.588,0.0,0.0,0.0
227,0.0,0.0,0.0,-0.1727353515625,0.0,0.0,0.0,0.0,0.0,0.0,-0.614,0.0,0.0,0.0,0.0,0.0,0.0,-0.5878697087610036,0.0,0.0,0.0,0.0,0.0,0.0,-13.764,0.0,0.0,0.0
228,0.0,0.0,0.0,-0.1785283203125,0.0,0.0,0.0,0.0,0.0,0.0,-0.578,0.0,0.0,0.0,0.0,0.0,0.0,-0.5901399890716991,0.0,0.0,0.0,0.0,0.0,0.0,-14.176,0.0,0.0,0.0
229,0.0,0.0,0.0,-0.1846103515625,0.0,0.0,0.0,0.0,0.0,0.0,-0.606,0.0,0.0,0.0,0.0,0.0,0.0,-0.5921910324832328,0.0,0.0,0.0,0.0,0.0,0.0,-13.764,0.0,0.0,0.0
230,0.0,0.0,0.0,-0.190267578125,0.0,0.0,0.0,0.0,0.0,0.0,-0.593,0.0,0.0,0.0,0.0,0.0,0.0,-0.5940123765855732,0.0,0.0,0.0,0.0,0.0,0.0,-13.924,0.0,0.0,0.0
231,0.0,0.0,0.0,-0.196205078125,0.0,0.0,0.0,0.0,0.0,0.0,-0.576,0.0,0.0,0.0,0.0,0.0,0.0,-0.5955752443043932,0.0,0.0,0.0,0.0,0.0,0.0,-14.772,0.0,0.0,0.0
232,0.0,0.0,0.0,-0.202287109375,0.0,0.0,0.0,0.0,0.0,0.0,-0.613,0.0,0.0,0.0,0.0,0.0,0.0,-0.596909105504705,0.0,0.0,0.0,0.0,0.0,0.0,-14.316,0.0,0.0,0.0
233,0.0,0.0,0.0,-0.2077822265625,0.0,0.0,0.0,0.0,0.0,0.0,-0.584,0.0,0.0,0.0,0.0,0.0,0.0,-0.5980136396114091,0.0,0.0,0.0,0.0,0.0,0.0,-14.656,0.0,0.0,0.0
234,0.0,0.0,0.0,-0.213728515625,0.0,0.0,0.0,0.0,0.0,0.0,-0.572,0.0,0.0,0.0,0.0,0.0,0.0,-0.5988650472371257,0.0,0.0,0.0,0.0,0.0,0.0,-14.384,0.0,0.0,0.0
235,0.0,0.0,0.0,-0.219521484375,0.0,0.0,0.0,0.0,0.0,0.0,-0.593,0.0,0.0,0.0,0.0,0.0,0.0,-0.5994820193463515,0.0,0.0,0.0,0.0,0.0,0.0,-14.132,0.0,0.0,0.0
236,0.0,0.0,0.0,-0.2251708984375,0.0,0.0,0.0,0.0,0.0,0.0,-0.573,0.0,0.0,0.0,0.0,0.0,0.0,-0.5998630153685527,0.0,0.0,0.0,0.0,0.0,0.0,-14.476,0.0,0.0,0.0
237,0.0,0.0,0.0,-0.231251953125,0.0,0.0,0.0,0.0,0.0,0.0,-0.593,0.0,0.0,0.0,0.0,0.0,0.0,-0.5999992910025389,0.0,0.0,0.0,0.0,0.0,0.0,-14.224,0.0,0.0,0.0
238,0.0,0.0,0.0,-0.237044921875,0.0,0.0,0.0,0.0,0.0,0.0,-0.606,0.0,0.0,0.0,0.0,0.0,0.0,-0.5998978949694399,0.0,0.0,0.0,0.0,0.0,0.0,-13.468,0.0,0.0,0.0
239,0.0,0.0,0.0,-0.243126953125,0.0,0.0,0.0,0.0,0.0,0.0,-0.586,0.0,0.0,0.0,0.0,0.0,0.0,-0.5995530458807202,0.0,0.0,0.0,0.0,0.0,0.0,-13.924,0.0,0.0,0.0
240,0.0,0.0,0.0,-0.249064453125,0.0,0.0,0.0,0.0,0.0,0.0,-0.61,0.0,0.0,0.0,0.0,0.0,0.0,-0.5989750619521675,0.0,0.0,0.0,0.0,0.0,0.0,-13.676,0.0,0.0,0.0
241,0.0,0.0,0.0,-0.254712890625,0.0,0.0,0.0,0.0,0.0,0.0,-0.588,0.0,0.0,0.0,0.0,0.0,0.0,-0.5981548625003494,0.0,0.0,0.0,0.0,0.0,0.0,-14.084,0.0,0.0,0.0
242,0.0,0.0,0.0,-0.260794921875,0.0,0.0,0.0,0.0,0.0,0.0,-0.581,0.0,0.0,0.0,0.0,0.0,0.0,-0.5970644196854406,0.0,0.0,0.0,0.0,0.0,0.0,-14.68,0.0,0.0,0.0
243,0.0,0.0,0.0,-0.2665966796875,0.0,0.0,0.0,0.0,0.0,0.0,-0.608,0.0,0.0,0.0,0.0,0.0,0.0,-0.5957930466954617,0.0,0.0,0.0,0.0,0.0,0.0,-14.292,0.0,0.0,0.0
244,0.0,0.0,0.0,-0.272380859375,0.0,0.0,0.0,0.0,0.0,0.0,-0.585,0.0,0.0,0.0,0.0,0.0,0.0,-0.5942531168686053,0.0,0.0,0.0,0.0,0.0,0.0,-14.336,0.0,0.0,0.0
245,0.0,0.0,0.0,-0.278173828125,0.0,0.0,0.0,0.0,0.0,0.0,-0.582,0.0,0.0,0.0,0.0,0.0,0.0,-0.5924706687743785,0.0,0.0,0.0,0.0,0.0,0.0,-14.224,0.0,0.0,0.0
246,0.0,0.0,0.0,-0.2838232421875,0.0,0.0,0.0,0.0,0.0,0.0,-0.578,0.0,0.0,0.0,0.0,0.0,0.0,-0.5904746826645865,0.0,0.0,0.0,0.0,0.0,0.0,-13.924,0.0,0.0,0.0
247,0.0,0.0,0.0,-0.289625,0.0,0.0,0.0,0.0,0.0,0.0,-0.574,0.0,0.0,0.0,0.0,0.0,0.0,-0.5882189138461723,0.0,0.0,0.0,0.0,0.0,0.0,-14.316,0.0,0.0,0.0
248,0.0,0.0,0.0,-0.295697265625,0.0,0.0,0.0,0.0,0.0,0.0,-0.594,0.0,0.0,0.0,0.0,0.0,0.0,-0.5857315311820388,0.0,0.0,0.0,0.0,0.0,0.0,-13.696,0.0,0.0,0.0
249,0.0,0.0,0.0,-0.301634765625,0.0,0.0,0.0,0.0,0.0,0.0,-0.602,0.0,0.0,0.0,0.0,0.0,0.0,-0.5830255720139919,0.0,0.0,0.0,0.0,0.0,0.0,-13.376,0.0,0.0,0.0
250,0.0,0.0,0.0,-0.307427734375,0.0,0.0,0.0,0.0,0.0,0.0,-0.596,0.0,0.0,0.0,0.0,0.0,0.0,-0.5800670302383268,0.0,0.0,0.0,0.0,0.0,0.0,-13.492,0.0,0.0,0.0
251,0.0,0.0,0.0,-0.313365234375,0.0,0.0,0.0,0.0,0.0,0.0,-0.588,0.0,0.0,0.0,0.0,0.0,0.0,-0.5768647202793956,0.0,0.0,0.0,0.0,0.0,0.0,-13.676,0.0,0.0,0.0
252,0.0,0.0,0.0,-0.3193115234375,0.0,0.0,0.0,0.0,0.0,0.0,-0.6,0.0,0.0,0.0,0.0,0.0,0.0,-0.5734723360689131,0.0,0.0,0.0,0.0,0.0,0.0,-13.924,0.0,0.0,0.0
253,0.0,0.0,0.0,-0.325240234375,0.0,0.0,0.0,0.0,0.0,0.0,-0.6,0.0,0.0,0.0,0.0,0.0,0.0,-0.569834101446116,0.0,0.0,0.0,0.0,0.0,0.0,-14.336,0.0,0.0,0.0
254,0.0,0.0,0.0,-0.331033203125,0.0,0.0,0.0,0.0,0.0,0.0,-0.592,0.0,0.0,0.0,0.0,0.0,0.0,-0.5659182736334762,0.0,0.0,0.0,0.0,0.0,0.0,-13.996,0.0,0.0,0.0
255,0.0,0.0,0.0,-0.336826171875,0.0,0.0,0.0,0.0,0.0,0.0,-0.583,0.0,0.0,0.0,0.0,0.0,0.0,-0.5618193633794928,0.0,0.0,0.0,0.0,0.0,0.0,-13.996,0.0,0.0,0.0
256,0.0,0.0,0.0,-0.342474609375,0.0,0.0,0.0,0.0,0.0,0.0,-0.584,0.0,0.0,0.0,0.0,0.0,0.0,-0.557543823662999,0.0,0.0,0.0,0.0,0.0,0.0,-13.972,0.0,0.0,0.0
257,0.0,0.0,0.0,-0.3482685546875,0.0,0.0,0.0,0.0,0.0,0.0,-0.573,0.0,0.0,0.0,0.0,0.0,0.0,-0.5529755759042474,0.0,0.0,0.0,0.0,0.0,0.0,-13.744,0.0,0.0,0.0
258,0.0,0.0,0.0,-0.354205078125,0.0,0.0,0.0,0.0,0.0,0.0,-0.592,0.0,0.0,0.0,0.0,0.0,0.0,-0.5481624063717987,0.0,0.0,0.0,0.0,0.0,0.0,-13.924,0.0,0.0,0.0
259,0.0,0.0,0.0,-0.360142578125,0.0,0.0,0.0,0.0,0.0,0.0,-0.597,0.0,0.0,0.0,0.0,0.0,0.0,-0.5432529393488446,0.0,0.0,0.0,0.0,0.0,0.0,-13.264,0.0,0.0,0.0
260,0.0,0.0,0.0,-0.3660712890625,0.0,0.0,0.0,0.0,0.0,0.0,-0.591,0.0,0.0,0.0,0.0,0.0,0.0,-0.5379957667974745,0.0,0.0,0.0,0.0,0.0,0.0,-13.356,0.0,0.0,0.0
261,0.0,0.0,0.0,-0.372017578125,0.0,0.0,0.0,0.0,0.0,0.0,-0.603,0.0,0.0,0.0,0.0,0.0,0.0,-0.5325011511463535,0.0,0.0,0.0,0.0,0.0,0.0,-13.24,0.0,0.0,0.0
262,0.0,0.0,0.0,-0.377810546875,0.0,0.0,0.0,0.0,0.0,0.0,-0.591,0.0,0.0,0.0,0.0,0.0,0.0,-0.5269738954151181,0.0,0.0,0.0,0.0,0.0,0.0,-13.332,0.0,0.0,0.0
263,0.0,0.0,0.0,-0.383892578125,0.0,0.0,0.0,0.0,0.0,0.0,-0.595,0.0,0.0,0.0,0.0,0.0,0.0,-0.521084976622861,0.0,0.0,0.0,0.0,0.0,0.0,-13.836,0.0,0.0,0.0
264,0.0,0.0,0.0,-0.3898212890625,0.0,0.0,0.0,0.0,0.0,0.0,-0.607,0.0,0.0,0.0,0.0,0.0,0.0,-0.5150630417346327,0.0,0.0,0.0,0.0,0.0,0.0,-13.788,0.0,0.0,0.0
265,0.0,0.0,0.0,-0.3954697265625,0.0,0.0,0.0,0.0,0.0,0.0,-0.584,0.0,0.0,0.0,0.0,0.0,0.0,-0.5088627564216006,0.0,0.0,0.0,0.0,0.0,0.0,-13.696,0.0,0.0,0.0
266,0.0,0.0,0.0,-0.401271484375,0.0,0.0,0.0,0.0,0.0,0.0,-0.574,0.0,0.0,0.0,0.0,0.0,0.0,-0.5023726568243398,0.0,0.0,0.0,0.0,0.0,0.0,-13.604,0.0,0.0,0.0
267,0.0,0.0,0.0,-0.4070556640625,0.0,0.0,0.0,0.0,0.0,0.0,-0.58,0.0,0.0,0.0,0.0,0.0,0.0,-0.49572421339449024,0.0,0.0,0.0,0.0,0.0,0.0,-13.584,0.0,0.0,0.0
268,0.0,0.0,0.0,-0.4128486328125,0.0,0.0,0.0,0.0,0.0,0.0,-0.583,0.0,0.0,0.0,0.0,0.0,0.0,-0.48886662252877644,0.0,0.0,0.0,0.0,0.0,0.0,-13.628,0.0,0.0,0.0
269,0.0,0.0,0.0,-0.4187861328125,0.0,0.0,0.0,0.0,0.0,0.0,-0.587,0.0,0.0,0.0,0.0,0.0,0.0,-0.4818192023244039,0.0,0.0,0.0,0.0,0.0,0.0,-13.4,0.0,0.0,0.0
270,0.0,0.0,0.0,-0.4245703125,0.0,0.0,0.0,0.0,0.0,0.0,-0.594,0.0,0.0,0.0,0.0,0.0,0.0,-0.47454846062274586,0.0,0.0,0.0,0.0,0.0,0.0,-12.852,0.0,0.0,0.0
271,0.0,0.0,0.0,-0.4305166015625,0.0,0.0,0.0,0.0,0.0,0.0,-0.592,0.0,0.0,0.0,0.0,0.0,0.0,-0.46712600754909184,0.0,0.0,0.0,0.0,0.0,0.0,-13.08,0.0,0.0,0.0
272,0.0,0.0,0.0,-0.4364541015625,0.0,0.0,0.0,0.0,0.0,0.0,-0.601,0.0,0.0,0.0,0.0,0.0,0.0,-0.45952665639576556,0.0,0.0,0.0,0.0,0.0,0.0,-12.988,0.0,0.0,0.0
273,0.0,0.0,0.0,-0.4423828125,0.0,0.0,0.0,0.0,0.0,0.0,-0.59,0.0,0.0,0.0,0.0,0.0,0.0,-0.4516388376152002,0.0,0.0,0.0,0.0,0.0,0.0,-13.24,0.0,0.0,0.0
274,0.0,0.0,0.0,-0.4483193359375,0.0,0.0,0.0,0.0,0.0,0.0,-0.599,0.0,0.0,0.0,0.0,0.0,0.0,-0.4437072801643827,0.0,0.0,0.0,0.0,0.0,0.0,-13.676,0.0,0.0,0.0
275,0.0,0.0,0.0,-0.4541123046875,0.0,0.0,0.0,0.0,0.0,0.0,-0.593,0.0,0.0,0.0,0.0,0.0,0.0,-0.4355596694778385,0.0,0.0,0.0,0.0,0.0,0.0,-13.376,0.0,0.0,0.0
276,0.0,0.0,0.0,-0.45918359375,0.0,0.0,0.0,0.0,0.0,0.0,-0.563,0.0,0.0,0.0,0.0,0.0,0.0,-0.4270302516266124,0.0,0.0,0.0,0.0,0.0,0.0,-11.912,0.0,0.0,0.0
277,0.0,0.0,0.0,-0.4612138671875,0.0,0.0,0.0,0.0,0.0,0.0,-0.408,0.0,0.0,0.0,0.0,0.0,0.0,-0.4186318439188128,0.0,0.0,0.0,0.0,0.0,0.0,-7.568,0.0,0.0,0.0
278,0.0,0.0,0.0,-0.4604833984375,0.0,0.0,0.0,0.0,0.0,0.0,-0.071,0.0,0.0,0.0,0.0,0.0,0.0,-0.4099706352424756,0.0,0.0,0.0,0.0,0.0,0.0,-6.492,0.0,0.0,0.0
279,0.0,0.0,0.0,-0.4588955078125,0.0,0.0,0.0,0.0,0.0,0.0,0.102,0.0,0.0,0.0,0.0,0.0,0.0,-0.4010354849669113,0.0,0.0,0.0,0.0,0.0,0.0,-5.488,0.0,0.0,0.0
280,0.0,0.0,0.0,-0.4555654296875,0.0,0.0,0.0,0.0,0.0,0.0,0.23,0.0,0.0,0.0,0.0,0.0,0.0,-0.3920847560284146,0.0,0.0,0.0,0.0,0.0,0.0,-5.784,0.0,0.0,0.0
281,0.0,0.0,0.0,-0.4516494140625,0.0,0.0,0.0,0.0,0.0,0.0,0.372,0.0,0.0,0.0,0.0,0.0,0.0,-0.38295396974663454,0.0,0.0,0.0,0.0,0.0,0.0,-5.968,0.0,0.0,0.0
282,0.0,0.0,0.0,-0.4473095703125,0.0,0.0,0.0,0.0,0.0,0.0,0.4,0.0,0.0,0.0,0.0,0.0,0.0,-0.37353400483475946,0.0,0.0,0.0,0.0,0.0,0.0,-3.956,0.0,0.0,0.0
283,0.0,0.0,0.0,-0.44194921875,0.0,0.0,0.0,0.0,0.0,0.0,0.483,0.0,0.0,0.0,0.0,0.0,0.0,-0.3641786428582759,0.0,0.0,0.0,0.0,0.0,0.0,-2.904,0.0,0.0,0.0
284,0.0,0.0,0.0,-0.43572265625,0.0,0.0,0.0,0.0,0.0,0.0,0.562,0.0,0.0,0.0,0.0,0.0,0.0,-0.35457663034807013,0.0,0.0,0.0,0.0,0.0,0.0,-2.352,0.0,0.0,0.0
285,0.0,0.0,0.0,-0.428052734375,0.0,0.0,0.0,0.0,0.0,0.0,0.69,0.0,0.0,0.0,0.0,0.0,0.0,-0.34477680116647913,0.0,0.0,0.0,0.0,0.0,0.0,-3.336,0.0,0.0,0.0
286,0.0,0.0,0.0,-0.41965234375,0.0,0.0,0.0,0.0,0.0,0.0,0.815,0.0,0.0,0.0,0.0,0.0,0.0,-0.3349433204982955,0.0,0.0,0.0,0.0,0.0,0.0,-5.396,0.0,0.0,0.0
287,0.0,0.0,0.0,-0.412271484375,0.0,0.0,0.0,0.0,0.0,0.0,0.799,0.0,0.0,0.0,0.0,0.0,0.0,-0.32497111112914295,0.0,0.0,0.0,0.0,0.0,0.0,-8.344,0.0,0.0,0.0
288,0.0,0.0,0.0,-0.4053232421875,0.0,0.0,0.0,0.0,0.0,0.0,0.718,0.0,0.0,0.0,0.0,0.0,0.0,-0.3147233421187346,0.0,0.0,0.0,0.0,0.0,0.0,-8.436,0.0,0.0,0.0
289,0.0,0.0,0.0,-0.39706640625,0.0,0.0,0.0,0.0,0.0,0.0,0.752,0.0,0.0,0.0,0.0,0.0,0.0,-0.3044930190199227,0.0,0.0,0.0,0.0,0.0,0.0,-7.568,0.0,0.0,0.0
290,0.0,0.0,0.0,-0.3880888671875,0.0,0.0,0.0,0.0,0.0,0.0,0.869,0.0,0.0,0.0,0.0,0.0,0.0,-0.2941420443673872,0.0,0.0,0.0,0.0,0.0,0.0,-7.316,0.0,0.0,0.0
291,0.0,0.0,0.0,-0.3799765625,0.0,0.0,0.0,0.0,0.0,0.0,0.868,0.0,0.0,0.0,0.0,0.0,0.0,-0.28341759001760125,0.0,0.0,0.0,0.0,0.0,0.0,-10.176,0.0,0.0,0.0
292,0.0,0.0,0.0,-0.371873046875,0.0,0.0,0.0,0.0,0.0,0.0,0.81,0.0,0.0,0.0,0.0,0.0,0.0,-0.2728981627442076,0.0,0.0,0.0,0.0,0.0,0.0,-11.912,0.0,0.0,0.0
293,0.0,0.0,0.0,-0.3627412109375,0.0,0.0,0.0,0.0,0.0,0.0,0.861,0.0,0.0,0.0,0.0,0.0,0.0,-0.26226622280499895,0.0,0.0,0.0,0.0,0.0,0.0,-12.828,0.0,0.0,0.0
294,0.0,0.0,0.0,-0.354927734375,0.0,0.0,0.0,0.0,0.0,0.0,0.876,0.0,0.0,0.0,0.0,0.0,0.0,-0.25133561900098966,0.0,0.0,0.0,0.0,0.0,0.0,-13.172,0.0,0.0,0.0
295,0.0,0.0,0.0,-0.348701171875,0.0,0.0,0.0,0.0,0.0,0.0,0.709,0.0,0.0,0.0,0.0,0.0,0.0,-0.24043474812662546,0.0,0.0,0.0,0.0,0.0,0.0,-13.24,0.0,0.0,0.0
296,0.0,0.0,0.0,-0.3405986328125,0.0,0.0,0.0,0.0,0.0,0.0,0.686,0.0,0.0,0.0,0.0,0.0,0.0,-0.22935416101921816,0.0,0.0,0.0,0.0,0.0,0.0,-13.192,0.0,0.0,0.0
297,0.0,0.0,0.0,-0.3317548828125,0.0,0.0,0.0,0.0,0.0,0.0,0.866,0.0,0.0,0.0,0.0,0.0,0.0,-0.21820038036610395,0.0,0.0,0.0,0.0,0.0,0.0,-16.28,0.0,0.0,0.0
298,0.0,0.0,0.0,-0.3245185546875,0.0,0.0,0.0,0.0,0.0,0.0,0.833,0.0,0.0,0.0,0.0,0.0,0.0,-0.20699365196895156,0.0,0.0,0.0,0.0,0.0,0.0,-16.968,0.0,0.0,0.0
299,0.0,0.0,0.0,-0.31742578125,0.0,0.0,0.0,0.0,0.0,0.0,0.708,0.0,0.0,0.0,0.0,0.0,0.0,-0.19562049879381208,0.0,0.0,0.0,0.0,0.0,0.0,-17.404,0.0,0.0,0.0
300,0.0,0.0,0.0,-0.3097470703125,0.0,0.0,0.0,0.0,0.0,0.0,0.736,0.0,0.0,0.0,0.0,0.0,0.0,-0.1842231441117491,0.0,0.0,0.0,0.0,0.0,0.0,-17.06,0.0,0.0,0.0
301,0.0,0.0,0.0,-0.302798828125,0.0,0.0,0.0,0.0,0.0,0.0,0.747,0.0,0.0,0.0,0.0,0.0,0.0,-0.17283547716983688,0.0,0.0,0.0,0.0,0.0,0.0,-16.372,0.0,0.0,0.0
302,0.0,0.0,0.0,-0.2961396484375,0.0,0.0,0.0,0.0,0.0,0.0,0.679,0.0,0.0,0.0,0.0,0.0,0.0,-0.16137040990407586,0.0,0.0,0.0,0.0,0.0,0.0,-15.984,0.0,0.0,0.0
303,0.0,0.0,0.0,-0.2891826171875,0.0,0.0,0.0,0.0,0.0,0.0,0.69,0.0,0.0,0.0,0.0,0.0,0.0,-0.1497555828772792,0.0,0.0,0.0,0.0,0.0,0.0,-18.704,0.0,0.0,0.0
304,0.0,0.0,0.0,-0.2826591796875,0.0,0.0,0.0,0.0,0.0,0.0,0.677,0.0,0.0,0.0,0.0,0.0,0.0,-0.13813655505882844,0.0,0.0,0.0,0.0,0.0,0.0,-18.132,0.0,0.0,0.0
305,0.0,0.0,0.0,-0.2757109375,0.0,0.0,0.0,0.0,0.0,0.0,0.677,0.0,0.0,0.0,0.0,0.0,0.0,-0.12645081497889854,0.0,0.0,0.0,0.0,0.0,0.0,-17.632,0.0,0.0,0.0
306,0.0,0.0,0.0,-0.269484375,0.0,0.0,0.0,0.0,0.0,0.0,0.673,0.0,0.0,0.0,0.0,0.0,0.0,-0.11467815040219884,0.0,0.0,0.0,0.0,0.0,0.0,-18.544,0.0,0.0,0.0
307,0.0,0.0,0.0,-0.2638447265625,0.0,0.0,0.0,0.0,0.0,0.0,0.597,0.0,0.0,0.0,0.0,0.0,0.0,-0.10283692886815289,0.0,0.0,0.0,0.0,0.0,0.0,-17.996,0.0,0.0,0.0
308,0.0,0.0,0.0,-0.2574658203125,0.0,0.0,0.0,0.0,0.0,0.0,0.593,0.0,0.0,0.0,0.0,0.0,0.0,-0.09106005729185963,0.0,0.0,0.0,0.0,0.0,0.0,-17.792,0.0,0.0,0.0
309,0.0,0.0,0.0,-0.2510947265625,0.0,0.0,0.0,0.0,0.0,0.0,0.644,0.0,0.0,0.0,0.0,0.0,0.0,-0.07913655931222005,0.0,0.0,0.0,0.0,0.0,0.0,-16.352,0.0,0.0,0.0
310,0.0,0.0,0.0,-0.2454462890625,0.0,0.0,0.0,0.0,0.0,0.0,0.615,0.0,0.0,0.0,0.0,0.0,0.0,-0.06722040108714579,0.0,0.0,0.0,0.0,0.0,0.0,-15.732,0.0,0.0,0.0
311,0.0,0.0,0.0,-0.2400859375,0.0,0.0,0.0,0.0,0.0,0.0,0.554,0.0,0.0,0.0,0.0,0.0,0.0,-0.055366782155403325,0.0,0.0,0.0,0.0,0.0,0.0,-16.236,0.0,0.0,0.0
312,0.0,0.0,0.0,-0.2351591796875,0.0,0.0,0.0,0.0,0.0,0.0,0.523,0.0,0.0,0.0,0.0,0.0,0.0,-0.043355212681753484,0.0,0.0,0.0,0.0,0.0,0.0,-15.984,0.0,0.0,0.0
313,0.0,0.0,0.0,-0.230087890625,0.0,0.0,0.0,0.0,0.0,0.0,0.504,0.0,0.0,0.0,0.0,0.0,0.0,-0.03136072036476011,0.0,0.0,0.0,0.0,0.0,0.0,-14.796,0.0,0.0,0.0
314,0.0,0.0,0.0,-0.2250263671875,0.0,0.0,0.0,0.0,0.0,0.0,0.504,0.0,0.0,0.0,0.0,0.0,0.0,-0.01940025684058819,0.0,0.0,0.0,0.0,0.0,0.0,-13.652,0.0,0.0,0.0
315,0.0,0.0,0.0,-0.219521484375,0.0,0.0,0.0,0.0,0.0,0.0,0.527,0.0,0.0,0.0,0.0,0.0,0.0,-0.006986069172618989,0.0,0.0,0.0,0.0,0.0,0.0,-13.856,0.0,0.0,0.0
316,0.0,0.0,0.0,-0.2145947265625,0.0,0.0,0.0,0.0,0.0,0.0,0.538,0.0,0.0,0.0,0.0,0.0,0.0,0.004620325203869491,0.0,0.0,0.0,0.0,0.0,0.0,-14.976,0.0,0.0,0.0
317,0.0,0.0,0.0,-0.20995703125,0.0,0.0,0.0,0.0,0.0,0.0,0.48,0.0,0.0,0.0,0.0,0.0,0.0,3.004074095424588e-05,0.0,0.0,0.0,0.0,0.0,0.0,-15.184,0.0,0.0,0.0
318,0.0,0.0,0.0,-0.20518359375,0.0,0.0,0.0,0.0,0.0,0.0,0.476,0.0,0.0,0.0,0.0,0.0,0.0,0.012523504549232654,0.0,0.0,0.0,0.0,0.0,0.0,-14.588,0.0,0.0,0.0
319,0.0,0.0,0.0,-0.2005458984375,0.0,0.0,0.0,0.0,0.0,0.0,0.472,0.0,0.0,0.0,0.0,0.0,0.0,0.02403445748879095,0.0,0.0,0.0,0.0,0.0,0.0,-12.988,0.0,0.0,0.0
320,0.0,0.0,0.0,-0.195330078125,0.0,0.0,0.0,0.0,0.0,0.0,0.488,0.0,0.0,0.0,0.0,0.0,0.0,0.035922108727663306,0.0,0.0,0.0,0.0,0.0,0.0,-12.14,0.0,0.0,0.0
321,0.0,0.0,0.0,-0.1899794921875,0.0,0.0,0.0,0.0,0.0,0.0,0.533,0.0,0.0,0.0,0.0,0.0,0.0,0.04791540376781169,0.0,0.0,0.0,0.0,0.0,0.0,-12.852,0.0,0.0,0.0
322,0.0,0.0,0.0,-0.1848994140625,0.0,0.0,0.0,0.0,0.0,0.0,0.531,0.0,0.0,0.0,0.0,0.0,0.0,0.059908533236708444,0.0,0.0,0.0,0.0,0.0,0.0,-13.356,0.0,0.0,0.0
323,0.0,0.0,0.0,-0.1801259765625,0.0,0.0,0.0,0.0,0.0,0.0,0.496,0.0,0.0,0.0,0.0,0.0,0.0,0.07176789047589088,0.0,0.0,0.0,0.0,0.0,0.0,-13.012,0.0,0.0,0.0
324,0.0,0.0,0.0,-0.17534375,0.0,0.0,0.0,0.0,0.0,0.0,0.484,0.0,0.0,0.0,0.0,0.0,0.0,0.08365694625271818,0.0,0.0,0.0,0.0,0.0,0.0,-12.576,0.0,0.0,0.0
325,0.0,0.0,0.0,-0.17028125,0.0,0.0,0.0,0.0,0.0,0.0,0.487,0.0,0.0,0.0,0.0,0.0,0.0,0.09565607849277707,0.0,0.0,0.0,0.0,0.0,0.0,-11.136,0.0,0.0,0.0
326,0.0,0.0,0.0,-0.164767578125,0.0,0.0,0.0,0.0,0.0,0.0,0.524,0.0,0.0,0.0,0.0,0.0,0.0,0.1073137749599607,0.0,0.0,0.0,0.0,0.0,0.0,-11.892,0.0,0.0,0.0
327,0.0,0.0,0.0,-0.158974609375,0.0,0.0,0.0,0.0,0.0,0.0,0.569,0.0,0.0,0.0,0.0,0.0,0.0,0.11912521670316589,0.0,0.0,0.0,0.0,0.0,0.0,-13.08,0.0,0.0,0.0
328,0.0,0.0,0.0,-0.153470703125,0.0,0.0,0.0,0.0,0.0,0.0,0.571,0.0,0.0,0.0,0.0,0.0,0.0,0.1309518904911002,0.0,0.0,0.0,0.0,0.0,0.0,-13.604,0.0,0.0,0.0
329,0.0,0.0,0.0,-0.148119140625,0.0,0.0,0.0,0.0,0.0,0.0,0.548,0.0,0.0,0.0,0.0,0.0,0.0,0.14257030793918984,0.0,0.0,0.0,0.0,0.0,0.0,-13.584,0.0,0.0,0.0
330,0.0,0.0,0.0,-0.142470703125,0.0,0.0,0.0,0.0,0.0,0.0,0.548,0.0,0.0,0.0,0.0,0.0,0.0,0.1541810001297016,0.0,0.0,0.0,0.0,0.0,0.0,-12.784,0.0,0.0,0.0
331,0.0,0.0,0.0,-0.1365244140625,0.0,0.0,0.0,0.0,0.0,0.0,0.582,0.0,0.0,0.0,0.0,0.0,0.0,0.1658250584139783,0.0,0.0,0.0,0.0,0.0,0.0,-11.892,0.0,0.0,0.0
332,0.0,0.0,0.0,-0.1304423828125,0.0,0.0,0.0,0.0,0.0,0.0,0.595,0.0,0.0,0.0,0.0,0.0,0.0,0.17720891399515384,0.0,0.0,0.0,0.0,0.0,0.0,-12.232,0.0,0.0,0.0
333,0.0,0.0,0.0,-0.124216796875,0.0,0.0,0.0,0.0,0.0,0.0,0.619,0.0,0.0,0.0,0.0,0.0,0.0,0.1886305845520427,0.0,0.0,0.0,0.0,0.0,0.0,-13.012,0.0,0.0,0.0
334,0.0,0.0,0.0,-0.1182705078125,0.0,0.0,0.0,0.0,0.0,0.0,0.621,0.0,0.0,0.0,0.0,0.0,0.0,0.20013873349574207,0.0,0.0,0.0,0.0,0.0,0.0,-13.192,0.0,0.0,0.0
335,0.0,0.0,0.0,-0.1123330078125,0.0,0.0,0.0,0.0,0.0,0.0,0.591,0.0,0.0,0.0,0.0,0.0,0.0,0.2112746441215966,0.0,0.0,0.0,0.0,0.0,0.0,-13.012,0.0,0.0,0.0
336,0.0,0.0,0.0,-0.1063955078125,0.0,0.0,0.0,0.0,0.0,0.0,0.599,0.0,0.0,0.0,0.0,0.0,0.0,0.22248645197646827,0.0,0.0,0.0,0.0,0.0,0.0,-12.508,0.0,0.0,0.0
337,0.0,0.0,0.0,-0.1003134765625,0.0,0.0,0.0,0.0,0.0,0.0,0.602,0.0,0.0,0.0,0.0,0.0,0.0,0.23362444253475695,0.0,0.0,0.0,0.0,0.0,0.0,-13.104,0.0,0.0,0.0
338,0.0,0.0,0.0,-0.09393359375,0.0,0.0,0.0,0.0,0.0,0.0,0.617,0.0,0.0,0.0,0.0,0.0,0.0,0.24460929010268326,0.0,0.0,0.0,0.0,0.0,0.0,-14.04,0.0,0.0,0.0
339,0.0,0.0,0.0,-0.0875634765625,0.0,0.0,0.0,0.0,0.0,0.0,0.649,0.0,0.0,0.0,0.0,0.0,0.0,0.25545938822111214,0.0,0.0,0.0,0.0,0.0,0.0,-15.412,0.0,0.0,0.0
340,0.0,0.0,0.0,-0.0813369140625,0.0,0.0,0.0,0.0,0.0,0.0,0.628,0.0,0.0,0.0,0.0,0.0,0.0,0.2663442735928271,0.0,0.0,0.0,0.0,0.0,0.0,-15.116,0.0,0.0,0.0
341,0.0,0.0,0.0,-0.074822265625,0.0,0.0,0.0,0.0,0.0,0.0,0.636,0.0,0.0,0.0,0.0,0.0,0.0,0.2770314793187972,0.0,0.0,0.0,0.0,0.0,0.0,-14.268,0.0,0.0,0.0
342,0.0,0.0,0.0,-0.0688759765625,0.0,0.0,0.0,0.0,0.0,0.0,0.639,0.0,0.0,0.0,0.0,0.0,0.0,0.28755639320281273,0.0,0.0,0.0,0.0,0.0,0.0,-13.996,0.0,0.0,0.0
343,0.0,0.0,0.0,-0.0626494140625,0.0,0.0,0.0,0.0,0.0,0.0,0.603,0.0,0.0,0.0,0.0,0.0,0.0,0.29809380879090147,0.0,0.0,0.0,0.0,0.0,0.0,-13.788,0.0,0.0,0.0
344,0.0,0.0,0.0,-0.056134765625,0.0,0.0,0.0,0.0,0.0,0.0,0.645,0.0,0.0,0.0,0.0,0.0,0.0,0.30843126843904145,0.0,0.0,0.0,0.0,0.0,0.0,-14.704,0.0,0.0,0.0
345,0.0,0.0,0.0,-0.0503330078125,0.0,0.0,0.0,0.0,0.0,0.0,0.624,0.0,0.0,0.0,0.0,0.0,0.0,0.31861932938020615,0.0,0.0,0.0,0.0,0.0,0.0,-14.2,0.0,0.0,0.0
346,0.0,0.0,0.0,-0.0439619140625,0.0,0.0,0.0,0.0,0.0,0.0,0.61,0.0,0.0,0.0,0.0,0.0,0.0,0.32878632354739684,0.0,0.0,0.0,0.0,0.0,0.0,-13.996,0.0,0.0,0.0
347,0.0,0.0,0.0,-0.0383134765625,0.0,0.0,0.0,0.0,0.0,0.0,0.614,0.0,0.0,0.0,0.0,0.0,0.0,0.3387667822666824,0.0,0.0,0.0,0.0,0.0,0.0,-14.612,0.0,0.0,0.0
348,0.0,0.0,0.0,-0.0322314453125,0.0,0.0,0.0,0.0,0.0,0.0,0.577,0.0,0.0,0.0,0.0,0.0,0.0,0.3485323178774606,0.0,0.0,0.0,0.0,0.0,0.0,-14.544,0.0,0.0,0.0
349,0.0,0.0,0.0,-0.026140625,0.0,0.0,0.0,0.0,0.0,0.0,0.618,0.0,0.0,0.0,0.0,0.0,0.0,0.35834519669440656,0.0,0.0,0.0,0.0,0.0,0.0,-15.688,0.0,0.0,0.0
350,0.0,0.0,0.0,-0.02034765625,0.0,0.0,0.0,0.0,0.0,0.0,0.596,0.0,0.0,0.0,0.0,0.0,0.0,0.3678795315662535,0.0,0.0,0.0,0.0,0.0,0.0,-15.136,0.0,0.0,0.0
351,0.0,0.0,0.0,-0.0139775390625,0.0,0.0,0.0,0.0,0.0,0.0,0.606,0.0,0.0,0.0,0.0,0.0,0.0,0.3772347992433645,0.0,0.0,0.0,0.0,0.0,0.0,-14.476,0.0,0.0,0.0
352,0.0,0.0,0.0,-0.0083193359375,0.0,0.0,0.0,0.0,0.0,0.0,0.615,0.0,0.0,0.0,0.0,0.0,0.0,0.3865747252945478,0.0,0.0,0.0,0.0,0.0,0.0,-14.544,0.0,0.0,0.0
353,0.0,0.0,0.0,-0.0025361328125,0.0,0.0,0.0,0.0,0.0,0.0,0.569,0.0,0.0,0.0,0.0,0.0,0.0,0.3956569492651871,0.0,0.0,0.0,0.0,0.0,0.0,-13.856,0.0,0.0,0.0
354,0.0,0.0,0.0,0.003544921875,0.0,0.0,0.0,0.0,0.0,0.0,0.606,0.0,0.0,0.0,0.0,0.0,0.0,0.4044982701521646,0.0,0.0,0.0,0.0,0.0,0.0,-14.476,0.0,0.0,0.0
355,0.0,0.0,0.0,0.0089052734375,0.0,0.0,0.0,0.0,0.0,0.0,0.574,0.0,0.0,0.0,0.0,0.0,0.0,0.41332849544336514,0.0,0.0,0.0,0.0,0.0,0.0,-13.604,0.0,0.0,0.0
356,0.0,0.0,0.0,0.01499609375,0.0,0.0,0.0,0.0,0.0,0.0,0.571,0.0,0.0,0.0,0.0,0.0,0.0,0.42194455347957444,0.0,0.0,0.0,0.0,0.0,0.0,-13.788,0.0,0.0,0.0
357,0.0,0.0,0.0,0.0205,0.0,0.0,0.0,0.0,0.0,0.0,0.589,0.0,0.0,0.0,0.0,0.0,0.0,0.43036609176201873,0.0,0.0,0.0,0.0,0.0,0.0,-14.132,0.0,0.0,0.0
358,0.0,0.0,0.0,0.02600390625,0.0,0.0,0.0,0.0,0.0,0.0,0.545,0.0,0.0,0.0,0.0,0.0,0.0,0.4386655115589956,0.0,0.0,0.0,0.0,0.0,0.0,-13.72,0.0,0.0,0.0
359,0.0,0.0,0.0,0.0317978515625,0.0,0.0,0.0,0.0,0.0,0.0,0.573,0.0,0.0,0.0,0.0,0.0,0.0,0.44677313836742594,0.0,0.0,0.0,0.0,0.0,0.0,-14.704,0.0,0.0,0.0
360,0.0,0.0,0.0,0.0373017578125,0.0,0.0,0.0,0.0,0.0,0.0,0.573,0.0,0.0,0.0,0.0,0.0,0.0,0.45465929419441914,0.0,0.0,0.0,0.0,0.0,0.0,-14.656,0.0,0.0,0.0
361,0.0,0.0,0.0,0.0432392578125,0.0,0.0,0.0,0.0,0.0,0.0,0.568,0.0,0.0,0.0,0.0,0.0,0.0,0.46242659992919843,0.0,0.0,0.0,0.0,0.0,0.0,-14.612,0.0,0.0,0.0
362,0.0,0.0,0.0,0.0493212890625,0.0,0.0,0.0,0.0,0.0,0.0,0.608,0.0,0.0,0.0,0.0,0.0,0.0,0.4699737721508625,0.0,0.0,0.0,0.0,0.0,0.0,-14.132,0.0,0.0,0.0
363,0.0,0.0,0.0,0.054833984375,0.0,0.0,0.0,0.0,0.0,0.0,0.581,0.0,0.0,0.0,0.0,0.0,0.0,0.47731003706656927,0.0,0.0,0.0,0.0,0.0,0.0,-13.696,0.0,0.0,0.0
364,0.0,0.0,0.0,0.060626953125,0.0,0.0,0.0,0.0,0.0,0.0,0.566,0.0,0.0,0.0,0.0,0.0,0.0,0.48448526626053556,0.0,0.0,0.0,0.0,0.0,0.0,-13.424,0.0,0.0,0.0
365,0.0,0.0,0.0,0.066275390625,0.0,0.0,0.0,0.0,0.0,0.0,0.588,0.0,0.0,0.0,0.0,0.0,0.0,0.49158386010756017,0.0,0.0,0.0,0.0,0.0,0.0,-13.604,0.0,0.0,0.0
366,0.0,0.0,0.0,0.0719248046875,0.0,0.0,0.0,0.0,0.0,0.0,0.563,0.0,0.0,0.0,0.0,0.0,0.0,0.49830448447412445,0.0,0.0,0.0,0.0,0.0,0.0,-13.124,0.0,0.0,0.0
367,0.0,0.0,0.0,0.078015625,0.0,0.0,0.0,0.0,0.0,0.0,0.583,0.0,0.0,0.0,0.0,0.0,0.0,0.5048430142003746,0.0,0.0,0.0,0.0,0.0,0.0,-13.676,0.0,0.0,0.0
368,0.0,0.0,0.0,0.08351953125,0.0,0.0,0.0,0.0,0.0,0.0,0.594,0.0,0.0,0.0,0.0,0.0,0.0,0.5112748392449429,0.0,0.0,0.0,0.0,0.0,0.0,-13.652,0.0,0.0,0.0
369,0.0,0.0,0.0,0.0891591796875,0.0,0.0,0.0,0.0,0.0,0.0,0.555,0.0,0.0,0.0,0.0,0.0,0.0,0.5174067479663577,0.0,0.0,0.0,0.0,0.0,0.0,-13.676,0.0,0.0,0.0
370,0.0,0.0,0.0,0.09510546875,0.0,0.0,0.0,0.0,0.0,0.0,0.584,0.0,0.0,0.0,0.0,0.0,0.0,0.5233605341413324,0.0,0.0,0.0,0.0,0.0,0.0,-14.452,0.0,0.0,0.0
371,0.0,0.0,0.0,0.10075390625,0.0,0.0,0.0,0.0,0.0,0.0,0.577,0.0,0.0,0.0,0.0,0.0,0.0,0.5293103936275895,0.0,0.0,0.0,0.0,0.0,0.0,-14.428,0.0,0.0,0.0
372,0.0,0.0,0.0,0.1068271484375,0.0,0.0,0.0,0.0,0.0,0.0,0.581,0.0,0.0,0.0,0.0,0.0,0.0,0.5346803893994987,0.0,0.0,0.0,0.0,0.0,0.0,-14.36,0.0,0.0,0.0
373,0.0,0.0,0.0,0.1129091796875,0.0,0.0,0.0,0.0,0.0,0.0,0.619,0.0,0.0,0.0,0.0,0.0,0.0,0.5400315626933192,0.0,0.0,0.0,0.0,0.0,0.0,-13.856,0.0,0.0,0.0
374,0.0,0.0,0.0,0.1187109375,0.0,0.0,0.0,0.0,0.0,0.0,0.599,0.0,0.0,0.0,0.0,0.0,0.0,0.5452167371325871,0.0,0.0,0.0,0.0,0.0,0.0,-13.4,0.0,0.0,0.0
375,0.0,0.0,0.0,0.12479296875,0.0,0.0,0.0,0.0,0.0,0.0,0.596,0.0,0.0,0.0,0.0,0.0,0.0,0.5500641181406358,0.0,0.0,0.0,0.0,0.0,0.0,-13.652,0.0,0.0,0.0
376,0.0,0.0,0.0,0.13044140625,0.0,0.0,0.0,0.0,0.0,0.0,0.599,0.0,0.0,0.0,0.0,0.0,0.0,0.5547462382379326,0.0,0.0,0.0,0.0,0.0,0.0,-13.444,0.0,0.0,0.0
377,0.0,0.0,0.0,0.1363876953125,0.0,0.0,0.0,0.0,0.0,0.0,0.572,0.0,0.0,0.0,0.0,0.0,0.0,0.5592317034197609,0.0,0.0,0.0,0.0,0.0,0.0,-13.444,0.0,0.0,0.0
378,0.0,0.0,0.0,0.1423251953125,0.0,0.0,0.0,0.0,0.0,0.0,0.6,0.0,0.0,0.0,0.0,0.0,0.0,0.5634439363671542,0.0,0.0,0.0,0.0,0.0,0.0,-13.284,0.0,0.0,0.0
379,0.0,0.0,0.0,0.1481181640625,0.0,0.0,0.0,0.0,0.0,0.0,0.592,0.0,0.0,0.0,0.0,0.0,0.0,0.5674521392826252,0.0,0.0,0.0,0.0,0.0,0.0,-13.604,0.0,0.0,0.0
380,0.0,0.0,0.0,0.1540556640625,0.0,0.0,0.0,0.0,0.0,0.0,0.587,0.0,0.0,0.0,0.0,0.0,0.0,0.571289059617316,0.0,0.0,0.0,0.0,0.0,0.0,-14.084,0.0,0.0,0.0
381,0.0,0.0,0.0,0.160001953125,0.0,0.0,0.0,0.0,0.0,0.0,0.603,0.0,0.0,0.0,0.0,0.0,0.0,0.5748092241463358,0.0,0.0,0.0,0.0,0.0,0.0,-14.796,0.0,0.0,0.0
382,0.0,0.0,0.0,0.165794921875,0.0,0.0,0.0,0.0,0.0,0.0,0.586,0.0,0.0,0.0,0.0,0.0,0.0,0.5781342530700073,0.0,0.0,0.0,0.0,0.0,0.0,-14.888,0.0,0.0,0.0
383,0.0,0.0,0.0,0.172021484375,0.0,0.0,0.0,0.0,0.0,0.0,0.602,0.0,0.0,0.0,0.0,0.0,0.0,0.5812674791956135,0.0,0.0,0.0,0.0,0.0,0.0,-14.316,0.0,0.0,0.0
384,0.0,0.0,0.0,0.1779677734375,0.0,0.0,0.0,0.0,0.0,0.0,0.615,0.0,0.0,0.0,0.0,0.0,0.0,0.5840690103495881,0.0,0.0,0.0,0.0,0.0,0.0,-13.652,0.0,0.0,0.0
385,0.0,0.0,0.0,0.183896484375,0.0,0.0,0.0,0.0,0.0,0.0,0.593,0.0,0.0,0.0,0.0,0.0,0.0,0.5866939233309503,0.0,0.0,0.0,0.0,0.0,0.0,-13.536,0.0,0.0,0.0
386,0.0,0.0,0.0,0.189833984375,0.0,0.0,0.0,0.0,0.0,0.0,0.6,0.0,0.0,0.0,0.0,0.0,0.0,0.5891494281141538,0.0,0.0,0.0,0.0,0.0,0.0,-13.812,0.0,0.0,0.0
387,0.0,0.0,0.0,0.1954912109375,0.0,0.0,0.0,0.0,0.0,0.0,0.585,0.0,0.0,0.0,0.0,0.0,0.0,0.5912522842640773,0.0,0.0,0.0,0.0,0.0,0.0,-13.536,0.0,0.0,0.0
388,0.0,0.0,0.0,0.2014287109375,0.0,0.0,0.0,0.0,0.0,0.0,0.584,0.0,0.0,0.0,0.0,0.0,0.0,0.5931733884860442,0.0,0.0,0.0,0.0,0.0,0.0,-13.424,0.0,0.0,0.0
389,0.0,0.0,0.0,0.2072216796875,0.0,0.0,0.0,0.0,0.0,0.0,0.595,0.0,0.0,0.0,0.0,0.0,0.0,0.5948725130172532,0.0,0.0,0.0,0.0,0.0,0.0,-13.216,0.0,0.0,0.0
390,0.0,0.0,0.0,0.2130146484375,0.0,0.0,0.0,0.0,0.0,0.0,0.578,0.0,0.0,0.0,0.0,0.0,0.0,0.5963159890169879,0.0,0.0,0.0,0.0,0.0,0.0,-13.628,0.0,0.0,0.0
391,0.0,0.0,0.0,0.2189609375,0.0,0.0,0.0,0.0,0.0,0.0,0.592,0.0,0.0,0.0,0.0,0.0,0.0,0.5975240438376105,0.0,0.0,0.0,0.0,0.0,0.0,-14.316,0.0,0.0,0.0
392,0.0,0.0,0.0,0.22475390625,0.0,0.0,0.0,0.0,0.0,0.0,0.586,0.0,0.0,0.0,0.0,0.0,0.0,0.5984960608669737,0.0,0.0,0.0,0.0,0.0,0.0,-14.452,0.0,0.0,0.0
393,0.0,0.0,0.0,0.23069140625,0.0,0.0,0.0,0.0,0.0,0.0,0.584,0.0,0.0,0.0,0.0,0.0,0.0,0.5992224353101726,0.0,0.0,0.0,0.0,0.0,0.0,-14.452,0.0,0.0,0.0
394,0.0,0.0,0.0,0.2367822265625,0.0,0.0,0.0,0.0,0.0,0.0,0.605,0.0,0.0,0.0,0.0,0.0,0.0,0.5997148365611642,0.0,0.0,0.0,0.0,0.0,0.0,-13.444,0.0,0.0,0.0
395,0.0,0.0,0.0,0.2425751953125,0.0,0.0,0.0,0.0,0.0,0.0,0.601,0.0,0.0,0.0,0.0,0.0,0.0,0.5999656896490536,0.0,0.0,0.0,0.0,0.0,0.0,-13.216,0.0,0.0,0.0
396,0.0,0.0,0.0,0.248359375,0.0,0.0,0.0,0.0,0.0,0.0,0.582,0.0,0.0,0.0,0.0,0.0,0.0,0.5999737628189163,0.0,0.0,0.0,0.0,0.0,0.0,-13.332,0.0,0.0,0.0
397,0.0,0.0,0.0,0.2543056640625,0.0,0.0,0.0,0.0,0.0,0.0,0.582,0.0,0.0,0.0,0.0,0.0,0.0,0.599745490061642,0.0,0.0,0.0,0.0,0.0,0.0,-13.284,0.0,0.0,0.0
398,0.0,0.0,0.0,0.2599541015625,0.0,0.0,0.0,0.0,0.0,0.0,0.583,0.0,0.0,0.0,0.0,0.0,0.0,0.5992699464066559,0.0,0.0,0.0,0.0,0.0,0.0,-13.24,0.0,0.0,0.0
399,0.0,0.0,0.0,0.2658916015625,0.0,0.0,0.0,0.0,0.0,0.0,0.59,0.0,0.0,0.0,0.0,0.0,0.0,0.5985557711775779,0.0,0.0,0.0,0.0,0.0,0.0,-12.944,0.0,0.0,0.0
400,0.0,0.0,0.0,0.271541015625,0.0,0.0,0.0,0.0,0.0,0.0,0.584,0.0,0.0,0.0,0.0,0.0,0.0,0.5976151411862539,0.0,0.0,0.0,0.0,0.0,0.0,-13.216,0.0,0.0,0.0
401,0.0,0.0,0.0,0.2774873046875,0.0,0.0,0.0,0.0,0.0,0.0,0.573,0.0,0.0,0.0,0.0,0.0,0.0,0.596423437605281,0.0,0.0,0.0,0.0,0.0,0.0,-13.492,0.0,0.0,0.0
402,0.0,0.0,0.0,0.2832802734375,0.0,0.0,0.0,0.0,0.0,0.0,0.593,0.0,0.0,0.0,0.0,0.0,0.0,0.5950011862409167,0.0,0.0,0.0,0.0,0.0,0.0,-14.04,0.0,0.0,0.0
403,0.0,0.0,0.0,0.2892177734375,0.0,0.0,0.0,0.0,0.0,0.0,0.581,0.0,0.0,0.0,0.0,0.0,0.0,0.5933495199436414,0.0,0.0,0.0,0.0,0.0,0.0,-14.428,0.0,0.0,0.0
404,0.0,0.0,0.0,0.2951640625,0.0,0.0,0.0,0.0,0.0,0.0,0.602,0.0,0.0,0.0,0.0,0.0,0.0,0.5914323012712822,0.0,0.0,0.0,0.0,0.0,0.0,-13.676,0.0,0.0,0.0
405,0.0,0.0,0.0,0.30124609375,0.0,0.0,0.0,0.0,0.0,0.0,0.607,0.0,0.0,0.0,0.0,0.0,0.0,0.5892921339756083,0.0,0.0,0.0,0.0,0.0,0.0,-13.148,0.0,0.0,0.0
406,0.0,0.0,0.0,0.307029296875,0.0,0.0,0.0,0.0,0.0,0.0,0.598,0.0,0.0,0.0,0.0,0.0,0.0,0.5869354010859507,0.0,0.0,0.0,0.0,0.0,0.0,-13.104,0.0,0.0,0.0
407,0.0,0.0,0.0,0.31283203125,0.0,0.0,0.0,0.0,0.0,0.0,0.582,0.0,0.0,0.0,0.0,0.0,0.0,0.5843158970270695,0.0,0.0,0.0,0.0,0.0,0.0,-13.284,0.0,0.0,0.0
408,0.0,0.0,0.0,0.318625,0.0,0.0,0.0,0.0,0.0,0.0,0.583,0.0,0.0,0.0,0.0,0.0,0.0,0.5814651696763925,0.0,0.0,0.0,0.0,0.0,0.0,-12.944,0.0,0.0,0.0
409,0.0,0.0,0.0,0.3245625,0.0,0.0,0.0,0.0,0.0,0.0,0.593,0.0,0.0,0.0,0.0,0.0,0.0,0.5784022508116056,0.0,0.0,0.0,0.0,0.0,0.0,-12.804,0.0,0.0,0.0
410,0.0,0.0,0.0,0.3305,0.0,0.0,0.0,0.0,0.0,0.0,0.592,0.0,0.0,0.0,0.0,0.0,0.0,0.5751008574874165,0.0,0.0,0.0,0.0,0.0,0.0,-12.668,0.0,0.0,0.0
411,0.0,0.0,0.0,0.3363017578125,0.0,0.0,0.0,0.0,0.0,0.0,0.584,0.0,0.0,0.0,0.0,0.0,0.0,0.5715416907244376,0.0,0.0,0.0,0.0,0.0,0.0,-13.08,0.0,0.0,0.0
412,0.0,0.0,0.0,0.3420947265625,0.0,0.0,0.0,0.0,0.0,0.0,0.588,0.0,0.0,0.0,0.0,0.0,0.0,0.5677986227822689,0.0,0.0,0.0,0.0,0.0,0.0,-13.652,0.0,0.0,0.0
413,0.0,0.0,0.0,0.3480234375,0.0,0.0,0.0,0.0,0.0,0.0,0.591,0.0,0.0,0.0,0.0,0.0,0.0,0.5638114434241509,0.0,0.0,0.0,0.0,0.0,0.0,-13.972,0.0,0.0,0.0
414,0.0,0.0,0.0,0.3539697265625,0.0,0.0,0.0,0.0,0.0,0.0,0.592,0.0,0.0,0.0,0.0,0.0,0.0,0.5595603228626088,0.0,0.0,0.0,0.0,0.0,0.0,-13.972,0.0,0.0,0.0
415,0.0,0.0,0.0,0.3600517578125,0.0,0.0,0.0,0.0,0.0,0.0,0.606,0.0,0.0,0.0,0.0,0.0,0.0,0.5551487222063671,0.0,0.0,0.0,0.0,0.0,0.0,-13.124,0.0,0.0,0.0
416,0.0,0.0,0.0,0.36598828125,0.0,0.0,0.0,0.0,0.0,0.0,0.609,0.0,0.0,0.0,0.0,0.0,0.0,0.5504908818114755,0.0,0.0,0.0,0.0,0.0,0.0,-12.804,0.0,0.0,0.0
417,0.0,0.0,0.0,0.371791015625,0.0,0.0,0.0,0.0,0.0,0.0,0.59,0.0,0.0,0.0,0.0,0.0,0.0,0.5455545224160129,0.0,0.0,0.0,0.0,0.0,0.0,-12.872,0.0,0.0,0.0
418,0.0,0.0,0.0,0.377583984375,0.0,0.0,0.0,0.0,0.0,0.0,0.584,0.0,0.0,0.0,0.0,0.0,0.0,0.5405144282056269,0.0,0.0,0.0,0.0,0.0,0.0,-12.692,0.0,0.0,0.0
419,0.0,0.0,0.0,0.383521484375,0.0,0.0,0.0,0.0,0.0,0.0,0.587,0.0,0.0,0.0,0.0,0.0,0.0,0.5351978166719339,0.0,0.0,0.0,0.0,0.0,0.0,-12.872,0.0,0.0,0.0
420,0.0,0.0,0.0,0.389314453125,0.0,0.0,0.0,0.0,0.0,0.0,0.591,0.0,0.0,0.0,0.0,0.0,0.0,0.5296170319072996,0.0,0.0,0.0,0.0,0.0,0.0,-12.484,0.0,0.0,0.0
421,0.0,0.0,0.0,0.395107421875,0.0,0.0,0.0,0.0,0.0,0.0,0.588,0.0,0.0,0.0,0.0,0.0,0.0,0.5239254102524132,0.0,0.0,0.0,0.0,0.0,0.0,-12.712,0.0,0.0,0.0
422,0.0,0.0,0.0,0.401044921875,0.0,0.0,0.0,0.0,0.0,0.0,0.59,0.0,0.0,0.0,0.0,0.0,0.0,0.5179806710569892,0.0,0.0,0.0,0.0,0.0,0.0,-13.172,0.0,0.0,0.0
423,0.0,0.0,0.0,0.406837890625,0.0,0.0,0.0,0.0,0.0,0.0,0.586,0.0,0.0,0.0,0.0,0.0,0.0,0.5117943413140676,0.0,0.0,0.0,0.0,0.0,0.0,-13.604,0.0,0.0,0.0
424,0.0,0.0,0.0,0.4127841796875,0.0,0.0,0.0,0.0,0.0,0.0,0.586,0.0,0.0,0.0,0.0,0.0,0.0,0.5054434772607523,0.0,0.0,0.0,0.0,0.0,0.0,-13.676,0.0,0.0,0.0
425,0.0,0.0,0.0,0.4187216796875,0.0,0.0,0.0,0.0,0.0,0.0,0.601,0.0,0.0,0.0,0.0,0.0,0.0,0.4988760697813321,0.0,0.0,0.0,0.0,0.0,0.0,-13.148,0.0,0.0,0.0
426,0.0,0.0,0.0,0.4248037109375,0.0,0.0,0.0,0.0,0.0,0.0,0.603,0.0,0.0,0.0,0.0,0.0,0.0,0.4920781433322606,0.0,0.0,0.0,0.0,0.0,0.0,-12.348,0.0,0.0,0.0
427,0.0,0.0,0.0,0.4305966796875,0.0,0.0,0.0,0.0,0.0,0.0,0.598,0.0,0.0,0.0,0.0,0.0,0.0,0.4851437026015599,0.0,0.0,0.0,0.0,0.0,0.0,-12.44,0.0,0.0,0.0
428,0.0,0.0,0.0,0.4365341796875,0.0,0.0,0.0,0.0,0.0,0.0,0.59,0.0,0.0,0.0,0.0,0.0,0.0,0.47796616752064913,0.0,0.0,0.0,0.0,0.0,0.0,-12.624,0.0,0.0,0.0
429,0.0,0.0,0.0,0.4423271484375,0.0,0.0,0.0,0.0,0.0,0.0,0.591,0.0,0.0,0.0,0.0,0.0,0.0,0.47053141880877014,0.0,0.0,0.0,0.0,0.0,0.0,-12.416,0.0,0.0,0.0
430,0.0,0.0,0.0,0.4481201171875,0.0,0.0,0.0,0.0,0.0,0.0,0.582,0.0,0.0,0.0,0.0,0.0,0.0,0.46307134060992117,0.0,0.0,0.0,0.0,0.0,0.0,-12.464,0.0,0.0,0.0
431,0.0,0.0,0.0,0.4540576171875,0.0,0.0,0.0,0.0,0.0,0.0,0.593,0.0,0.0,0.0,0.0,0.0,0.0,0.45535964294956643,0.0,0.0,0.0,0.0,0.0,0.0,-12.28,0.0,0.0,0.0
432,0.0,0.0,0.0,0.459697265625,0.0,0.0,0.0,0.0,0.0,0.0,0.586,0.0,0.0,0.0,0.0,0.0,0.0,0.44738949980865506,0.0,0.0,0.0,0.0,0.0,0.0,-12.828,0.0,0.0,0.0
433,0.0,0.0,0.0,0.4644794921875,0.0,0.0,0.0,0.0,0.0,0.0,0.547,0.0,0.0,0.0,0.0,0.0,0.0,0.439325740984355,0.0,0.0,0.0,0.0,0.0,0.0,-15.48,0.0,0.0,0.0
434,0.0,0.0,0.0,0.466076171875,0.0,0.0,0.0,0.0,0.0,0.0,0.358,0.0,0.0,0.0,0.0,0.0,0.0,0.43110050282866347,0.0,0.0,0.0,0.0,0.0,0.0,-19.688,0.0,0.0,0.0
435,0.0,0.0,0.0,0.465201171875,0.0,0.0,0.0,0.0,0.0,0.0,0.047,0.0,0.0,0.0,0.0,0.0,0.0,0.4224317004429488,0.0,0.0,0.0,0.0,0.0,0.0,-20.9,0.0,0.0,0.0
436,0.0,0.0,0.0,0.46332421875,0.0,0.0,0.0,0.0,0.0,0.0,-0.124,0.0,0.0,0.0,0.0,0.0,0.0,0.4141145083229915,0.0,0.0,0.0,0.0,0.0,0.0,-21.22,0.0,0.0,0.0
437,0.0,0.0,0.0,0.459697265625,0.0,0.0,0.0,0.0,0.0,0.0,-0.259,0.0,0.0,0.0,0.0,0.0,0.0,0.4053637233153569,0.0,0.0,0.0,0.0,0.0,0.0,-20.696,0.0,0.0,0.0
438,0.0,0.0,0.0,0.4553564453125,0.0,0.0,0.0,0.0,0.0,0.0,-0.404,0.0,0.0,0.0,0.0,0.0,0.0,0.396124393792389,0.0,0.0,0.0,0.0,0.0,0.0,-20.856,0.0,0.0,0.0
439,0.0,0.0,0.0,0.4508720703125,0.0,0.0,0.0,0.0,0.0,0.0,-0.436,0.0,0.0,0.0,0.0,0.0,0.0,0.3873040213390982,0.0,0.0,0.0,0.0,0.0,0.0,-21.792,0.0,0.0,0.0
440,0.0,0.0,0.0,0.4459453125,0.0,0.0,0.0,0.0,0.0,0.0,-0.468,0.0,0.0,0.0,0.0,0.0,0.0,0.3780667931040684,0.0,0.0,0.0,0.0,0.0,0.0,-22.912,0.0,0.0,0.0
441,0.0,0.0,0.0,0.43986328125,0.0,0.0,0.0,0.0,0.0,0.0,-0.539,0.0,0.0,0.0,0.0,0.0,0.0,0.3685904581194378,0.0,0.0,0.0,0.0,0.0,0.0,-22.912,0.0,0.0,0.0
442,0.0,0.0,0.0,0.4319052734375,0.0,0.0,0.0,0.0,0.0,0.0,-0.694,0.0,0.0,0.0,0.0,0.0,0.0,0.35911789609461026,0.0,0.0,0.0,0.0,0.0,0.0,-22.32,0.0,0.0,0.0
443,0.0,0.0,0.0,0.4233505859375,0.0,0.0,0.0,0.0,0.0,0.0,-0.838,0.0,0.0,0.0,0.0,0.0,0.0,0.34943142563348945,0.0,0.0,0.0,0.0,0.0,0.0,-21.496,0.0,0.0,0.0
444,0.0,0.0,0.0,0.41640234375,0.0,0.0,0.0,0.0,0.0,0.0,-0.803,0.0,0.0,0.0,0.0,0.0,0.0,0.3395678602943714,0.0,0.0,0.0,0.0,0.0,0.0,-18.524,0.0,0.0,0.0
445,0.0,0.0,0.0,0.4097431640625,0.0,0.0,0.0,0.0,0.0,0.0,-0.67,0.0,0.0,0.0,0.0,0.0,0.0,0.3296572770250344,0.0,0.0,0.0,0.0,0.0,0.0,-18.684,0.0,0.0,0.0
446,0.0,0.0,0.0,0.4013330078125,0.0,0.0,0.0,0.0,0.0,0.0,-0.745,0.0,0.0,0.0,0.0,0.0,0.0,0.3195270372379388,0.0,0.0,0.0,0.0,0.0,0.0,-18.956,0.0,0.0,0.0
447,0.0,0.0,0.0,0.3926533203125,0.0,0.0,0.0,0.0,0.0,0.0,-0.861,0.0,0.0,0.0,0.0,0.0,0.0,0.30920304855489883,0.0,0.0,0.0,0.0,0.0,0.0,-18.956,0.0,0.0,0.0
448,0.0,0.0,0.0,0.38467578125,0.0,0.0,0.0,0.0,0.0,0.0,-0.855,0.0,0.0,0.0,0.0,0.0,0.0,0.29900690332990554,0.0,0.0,0.0,0.0,0.0,0.0,-14.84,0.0,0.0,0.0
449,0.0,0.0,0.0,0.377005859375,0.0,0.0,0.0,0.0,0.0,0.0,-0.771,0.0,0.0,0.0,0.0,0.0,0.0,0.28852825723298653,0.0,0.0,0.0,0.0,0.0,0.0,-13.604,0.0,0.0,0.0
450,0.0,0.0,0.0,0.367875,0.0,0.0,0.0,0.0,0.0,0.0,-0.834,0.0,0.0,0.0,0.0,0.0,0.0,0.2778369940385973,0.0,0.0,0.0,0.0,0.0,0.0,-13.376,0.0,0.0,0.0
451,0.0,0.0,0.0,0.3597626953125,0.0,0.0,0.0,0.0,0.0,0.0,-0.894,0.0,0.0,0.0,0.0,0.0,0.0,0.2671085760242523,0.0,0.0,0.0,0.0,0.0,0.0,-14.268,0.0,0.0,0.0
452,0.0,0.0,0.0,0.353103515625,0.0,0.0,0.0,0.0,0.0,0.0,-0.75,0.0,0.0,0.0,0.0,0.0,0.0,0.2564277729460187,0.0,0.0,0.0,0.0,0.0,0.0,-14.016,0.0,0.0,0.0
453,0.0,0.0,0.0,0.3454248046875,0.0,0.0,0.0,0.0,0.0,0.0,-0.695,0.0,0.0,0.0,0.0,0.0,0.0,0.24557873736789276,0.0,0.0,0.0,0.0,0.0,0.0,-14.224,0.0,0.0,0.0
454,0.0,0.0,0.0,0.3361572265625,0.0,0.0,0.0,0.0,0.0,0.0,-0.856,0.0,0.0,0.0,0.0,0.0,0.0,0.23454179063170433,0.0,0.0,0.0,0.0,0.0,0.0,-12.164,0.0,0.0,0.0
455,0.0,0.0,0.0,0.3284697265625,0.0,0.0,0.0,0.0,0.0,0.0,-0.879,0.0,0.0,0.0,0.0,0.0,0.0,0.22349611712414155,0.0,0.0,0.0,0.0,0.0,0.0,-10.68,0.0,0.0,0.0
456,0.0,0.0,0.0,0.3220986328125,0.0,0.0,0.0,0.0,0.0,0.0,-0.703,0.0,0.0,0.0,0.0,0.0,0.0,0.21228658731627026,0.0,0.0,0.0,0.0,0.0,0.0,-9.9,0.0,0.0,0.0
457,0.0,0.0,0.0,0.3148623046875,0.0,0.0,0.0,0.0,0.0,0.0,-0.673,0.0,0.0,0.0,0.0,0.0,0.0,0.20102000880286341,0.0,0.0,0.0,0.0,0.0,0.0,-10.884,0.0,0.0,0.0
458,0.0,0.0,0.0,0.307318359375,0.0,0.0,0.0,0.0,0.0,0.0,-0.75,0.0,0.0,0.0,0.0,0.0,0.0,0.18971725239540257,0.0,0.0,0.0,0.0,0.0,0.0,-11.524,0.0,0.0,0.0
459,0.0,0.0,0.0,0.3003701171875,0.0,0.0,0.0,0.0,0.0,0.0,-0.735,0.0,0.0,0.0,0.0,0.0,0.0,0.17822363060742227,0.0,0.0,0.0,0.0,0.0,0.0,-11.64,0.0,0.0,0.0
460,0.0,0.0,0.0,0.29385546875,0.0,0.0,0.0,0.0,0.0,0.0,-0.686,0.0,0.0,0.0,0.0,0.0,0.0,0.16674879299715575,0.0,0.0,0.0,0.0,0.0,0.0,-10.564,0.0,0.0,0.0
461,0.0,0.0,0.0,0.2868984375,0.0,0.0,0.0,0.0,0.0,0.0,-0.665,0.0,0.0,0.0,0.0,0.0,0.0,0.15522847471418433,0.0,0.0,0.0,0.0,0.0,0.0,-10.608,0.0,0.0,0.0
462,0.0,0.0,0.0,0.2799501953125,0.0,0.0,0.0,0.0,0.0,0.0,-0.709,0.0,0.0,0.0,0.0,0.0,0.0,0.14355315328071488,0.0,0.0,0.0,0.0,0.0,0.0,-10.908,0.0,0.0,0.0
463,0.0,0.0,0.0,0.2741572265625,0.0,0.0,0.0,0.0,0.0,0.0,-0.646,0.0,0.0,0.0,0.0,0.0,0.0,0.13170739837160314,0.0,0.0,0.0,0.0,0.0,0.0,-11.524,0.0,0.0,0.0
464,0.0,0.0,0.0,0.26806640625,0.0,0.0,0.0,0.0,0.0,0.0,-0.594,0.0,0.0,0.0,0.0,0.0,0.0,0.12020859405006445,0.0,0.0,0.0,0.0,0.0,0.0,-10.884,0.0,0.0,0.0
465,0.0,0.0,0.0,0.2622734375,0.0,0.0,0.0,0.0,0.0,0.0,-0.602,0.0,0.0,0.0,0.0,0.0,0.0,0.10836252198724819,0.0,0.0,0.0,0.0,0.0,0.0,-10.52,0.0,0.0,0.0
466,0.0,0.0,0.0,0.2560478515625,0.0,0.0,0.0,0.0,0.0,0.0,-0.595,0.0,0.0,0.0,0.0,0.0,0.0,0.0965389780579605,0.0,0.0,0.0,0.0,0.0,0.0,-11.776,0.0,0.0,0.0
467,0.0,0.0,0.0,0.2498125,0.0,0.0,0.0,0.0,0.0,0.0,-0.635,0.0,0.0,0.0,0.0,0.0,0.0,0.08473148462760914,0.0,0.0,0.0,0.0,0.0,0.0,-11.912,0.0,0.0,0.0
468,0.0,0.0,0.0,0.2443076171875,0.0,0.0,0.0,0.0,0.0,0.0,-0.602,0.0,0.0,0.0,0.0,0.0,0.0,0.07266747902182084,0.0,0.0,0.0,0.0,0.0,0.0,-11.456,0.0,0.0,0.0
469,0.0,0.0,0.0,0.2389482421875,0.0,0.0,0.0,0.0,0.0,0.0,-0.547,0.0,0.0,0.0,0.0,0.0,0.0,0.06079104255937588,0.0,0.0,0.0,0.0,0.0,0.0,-11.708,0.0,0.0,0.0
470,0.0,0.0,0.0,0.233587890625,0.0,0.0,0.0,0.0,0.0,0.0,-0.533,0.0,0.0,0.0,0.0,0.0,0.0,0.04892157093017519,0.0,0.0,0.0,0.0,0.0,0.0,-12.712,0.0,0.0,0.0
471,0.0,0.0,0.0,0.228373046875,0.0,0.0,0.0,0.0,0.0,0.0,-0.539,0.0,0.0,0.0,0.0,0.0,0.0,0.03699195795770019,0.0,0.0,0.0,0.0,0.0,0.0,-13.948,0.0,0.0,0.0
472,0.0,0.0,0.0,0.2231572265625,0.0,0.0,0.0,0.0,0.0,0.0,-0.527,0.0,0.0,0.0,0.0,0.0,0.0,0.024950741469630954,0.0,0.0,0.0,0.0,0.0,0.0,-14.772,0.0,0.0,0.0
473,0.0,0.0,0.0,0.2182392578125,0.0,0.0,0.0,0.0,0.0,0.0,-0.513,0.0,0.0,0.0,0.0,0.0,0.0,0.013035029971341152,0.0,0.0,0.0,0.0,0.0,0.0,-14.2,0.0,0.0,0.0
474,0.0,0.0,0.0,0.2131591796875,0.0,0.0,0.0,0.0,0.0,0.0,-0.506,0.0,0.0,0.0,0.0,0.0,0.0,0.0010646766781562047,0.0,0.0,0.0,0.0,0.0,0.0,-13.216,0.0,0.0,0.0
475,0.0,0.0,0.0,0.208232421875,0.0,0.0,0.0,0.0,0.0,0.0,-0.505,0.0,0.0,0.0,0.0,0.0,0.0,-0.01105713714970287,0.0,0.0,0.0,0.0,0.0,0.0,-13.744,0.0,0.0,0.0
476,0.0,0.0,0.0,0.203169921875,0.0,0.0,0.0,0.0,0.0,0.0,-0.497,0.0,0.0,0.0,0.0,0.0,0.0,-0.02300633403143132,0.0,0.0,0.0,0.0,0.0,0.0,-14.748,0.0,0.0,0.0
477,0.0,0.0,0.0,0.197955078125,0.0,0.0,0.0,0.0,0.0,0.0,-0.519,0.0,0.0,0.0,0.0,0.0,0.0,-0.03490726922606543,0.0,0.0,0.0,0.0,0.0,0.0,-15.116,0.0,0.0,0.0
478,0.0,0.0,0.0,0.1925859375,0.0,0.0,0.0,0.0,0.0,0.0,-0.536,0.0,0.0,0.0,0.0,0.0,0.0,-0.04697128011561399,0.0,0.0,0.0,0.0,0.0,0.0,-14.956,0.0,0.0,0.0
479,0.0,0.0,0.0,0.18737890625,0.0,0.0,0.0,0.0,0.0,0.0,-0.535,0.0,0.0,0.0,0.0,0.0,0.0,-0.05885733965619626,0.0,0.0,0.0,0.0,0.0,0.0,-14.064,0.0,0.0,0.0
480,0.0,0.0,0.0,0.1823076171875,0.0,0.0,0.0,0.0,0.0,0.0,-0.512,0.0,0.0,0.0,0.0,0.0,0.0,-0.07076415669383991,0.0,0.0,0.0,0.0,0.0,0.0,-14.316,0.0,0.0,0.0
481,0.0,0.0,0.0,0.1772373046875,0.0,0.0,0.0,0.0,0.0,0.0,-0.508,0.0,0.0,0.0,0.0,0.0,0.0,-0.08279267987313803,0.0,0.0,0.0,0.0,0.0,0.0,-15.868,0.0,0.0,0.0
482,0.0,0.0,0.0,0.171876953125,0.0,0.0,0.0,0.0,0.0,0.0,-0.528,0.0,0.0,0.0,0.0,0.0,0.0,-0.09456814046289153,0.0,0.0,0.0,0.0,0.0,0.0,-16.808,0.0,0.0,0.0
483,0.0,0.0,0.0,0.1665166015625,0.0,0.0,0.0,0.0,0.0,0.0,-0.538,0.0,0.0,0.0,0.0,0.0,0.0,-0.10641251499517612,0.0,0.0,0.0,0.0,0.0,0.0,-16.532,0.0,0.0,0.0
484,0.0,0.0,0.0,0.1608681640625,0.0,0.0,0.0,0.0,0.0,0.0,-0.559,0.0,0.0,0.0,0.0,0.0,0.0,-0.11839093057293806,0.0,0.0,0.0,0.0,0.0,0.0,-15.504,0.0,0.0,0.0
485,0.0,0.0,0.0,0.1554990234375,0.0,0.0,0.0,0.0,0.0,0.0,-0.555,0.0,0.0,0.0,0.0,0.0,0.0,-0.12998054743282378,0.0,0.0,0.0,0.0,0.0,0.0,-14.816,0.0,0.0,0.0
486,0.0,0.0,0.0,0.1501396484375,0.0,0.0,0.0,0.0,0.0,0.0,-0.531,0.0,0.0,0.0,0.0,0.0,0.0,-0.14164071467981107,0.0,0.0,0.0,0.0,0.0,0.0,-15.116,0.0,0.0,0.0
487,0.0,0.0,0.0,0.1445,0.0,0.0,0.0,0.0,0.0,0.0,-0.55,0.0,0.0,0.0,0.0,0.0,0.0,-0.1533305251957149,0.0,0.0,0.0,0.0,0.0,0.0,-15.94,0.0,0.0,0.0
488,0.0,0.0,0.0,0.13870703125,0.0,0.0,0.0,0.0,0.0,0.0,-0.579,0.0,0.0,0.0,0.0,0.0,0.0,-0.1649757197934669,0.0,0.0,0.0,0.0,0.0,0.0,-15.824,0.0,0.0,0.0
489,0.0,0.0,0.0,0.1326162109375,0.0,0.0,0.0,0.0,0.0,0.0,-0.594,0.0,0.0,0.0,0.0,0.0,0.0,-0.17639327763186693,0.0,0.0,0.0,0.0,0.0,0.0,-15.228,0.0,0.0,0.0
490,0.0,0.0,0.0,0.1266787109375,0.0,0.0,0.0,0.0,0.0,0.0,-0.612,0.0,0.0,0.0,0.0,0.0,0.0,-0.18786008084503186,0.0,0.0,0.0,0.0,0.0,0.0,-14.408,0.0,0.0,0.0
491,0.0,0.0,0.0,0.1207412109375,0.0,0.0,0.0,0.0,0.0,0.0,-0.603,0.0,0.0,0.0,0.0,0.0,0.0,-0.19936545409726192,0.0,0.0,0.0,0.0,0.0,0.0,-14.292,0.0,0.0,0.0
492,0.0,0.0,0.0,0.114650390625,0.0,0.0,0.0,0.0,0.0,0.0,-0.595,0.0,0.0,0.0,0.0,0.0,0.0,-0.2105002115402531,0.0,0.0,0.0,0.0,0.0,0.0,-15.436,0.0,0.0,0.0
493,0.0,0.0,0.0,0.108568359375,0.0,0.0,0.0,0.0,0.0,0.0,-0.617,0.0,0.0,0.0,0.0,0.0,0.0,-0.22167573064179633,0.0,0.0,0.0,0.0,0.0,0.0,-15.48,0.0,0.0,0.0
494,0.0,0.0,0.0,0.102630859375,0.0,0.0,0.0,0.0,0.0,0.0,-0.606,0.0,0.0,0.0,0.0,0.0,0.0,-0.2330062516429724,0.0,0.0,0.0,0.0,0.0,0.0,-15.368,0.0,0.0,0.0
495,0.0,0.0,0.0,0.0964140625,0.0,0.0,0.0,0.0,0.0,0.0,-0.608,0.0,0.0,0.0,0.0,0.0,0.0,-0.243820772740592,0.0,0.0,0.0,0.0,0.0,0.0,-14.612,0.0,0.0,0.0
496,0.0,0.0,0.0,0.0904677734375,0.0,0.0,0.0,0.0,0.0,0.0,-0.619,0.0,0.0,0.0,0.0,0.0,0.0,-0.25471298764639416,0.0,0.0,0.0,0.0,0.0,0.0,-14.064,0.0,0.0,0.0
497,0.0,0.0,0.0,0.0842412109375,0.0,0.0,0.0,0.0,0.0,0.0,-0.605,0.0,0.0,0.0,0.0,0.0,0.0,-0.265631767236379,0.0,0.0,0.0,0.0,0.0,0.0,-14.496,0.0,0.0,0.0
498,0.0,0.0,0.0,0.078015625,0.0,0.0,0.0,0.0,0.0,0.0,-0.632,0.0,0.0,0.0,0.0,0.0,0.0,-0.2761918035971368,0.0,0.0,0.0,0.0,0.0,0.0,-14.064,0.0,0.0,0.0
499,0.0,0.0,0.0,0.0719248046875,0.0,0.0,0.0,0.0,0.0,0.0,-0.625,0.0,0.0,0.0,0.0,0.0,0.0,-0.286938650998923,0.0,0.0,0.0,0.0,0.0,0.0,-14.016,0.0,0.0,0.0
500,0.0,0.0,0.0,0.0655537109375,0.0,0.0,0.0,0.0,0.0,0.0,-0.62,0.0,0.0,0.0,0.0,0.0,0.0,-0.2973015748660954,0.0,0.0,0.0,0.0,0.0,0.0,-13.924,0.0,0.0,0.0
501,0.0,0.0,0.0,0.05947265625,0.0,0.0,0.0,0.0,0.0,0.0,-0.63,0.0,0.0,0.0,0.0,0.0,0.0,-0.3076769703128176,0.0,0.0,0.0,0.0,0.0,0.0,-13.4,0.0,0.0,0.0
502,0.0,0.0,0.0,0.0533818359375,0.0,0.0,0.0,0.0,0.0,0.0,-0.61,0.0,0.0,0.0,0.0,0.0,0.0,-0.3178499028051538,0.0,0.0,0.0,0.0,0.0,0.0,-14.52,0.0,0.0,0.0
503,0.0,0.0,0.0,0.0471552734375,0.0,0.0,0.0,0.0,0.0,0.0,-0.628,0.0,0.0,0.0,0.0,0.0,0.0,-0.32804877962682377,0.0,0.0,0.0,0.0,0.0,0.0,-14.588,0.0,0.0,0.0
504,0.0,0.0,0.0,0.0413623046875,0.0,0.0,0.0,0.0,0.0,0.0,-0.608,0.0,0.0,0.0,0.0,0.0,0.0,-0.3379378669531813,0.0,0.0,0.0,0.0,0.0,0.0,-14.588,0.0,0.0,0.0
505,0.0,0.0,0.0,0.0351357421875,0.0,0.0,0.0,0.0,0.0,0.0,-0.595,0.0,0.0,0.0,0.0,0.0,0.0,-0.34774814539837806,0.0,0.0,0.0,0.0,0.0,0.0,-14.452,0.0,0.0,0.0
506,0.0,0.0,0.0,0.029333984375,0.0,0.0,0.0,0.0,0.0,0.0,-0.614,0.0,0.0,0.0,0.0,0.0,0.0,-0.35755893618992357,0.0,0.0,0.0,0.0,0.0,0.0,-13.812,0.0,0.0,0.0
507,0.0,0.0,0.0,0.023541015625,0.0,0.0,0.0,0.0,0.0,0.0,-0.585,0.0,0.0,0.0,0.0,0.0,0.0,-0.3670711480847982,0.0,0.0,0.0,0.0,0.0,0.0,-14.292,0.0,0.0,0.0
508,0.0,0.0,0.0,0.017314453125,0.0,0.0,0.0,0.0,0.0,0.0,-0.607,0.0,0.0,0.0,0.0,0.0,0.0,-0.37647712902276315,0.0,0.0,0.0,0.0,0.0,0.0,-14.04,0.0,0.0,0.0
509,0.0,0.0,0.0,0.0116572265625,0.0,0.0,0.0,0.0,0.0,0.0,-0.601,0.0,0.0,0.0,0.0,0.0,0.0,-0.3858396312720251,0.0,0.0,0.0,0.0,0.0,0.0,-13.972,0.0,0.0,0.0
510,0.0,0.0,0.0,0.0055751953125,0.0,0.0,0.0,0.0,0.0,0.0,-0.583,0.0,0.0,0.0,0.0,0.0,0.0,-0.39486498445594703,0.0,0.0,0.0,0.0,0.0,0.0,-14.2,0.0,0.0,0.0
511,0.0,0.0,0.0,-0.000216796875,0.0,0.0,0.0,0.0,0.0,0.0,-0.612,0.0,0.0,0.0,0.0,0.0,0.0,-0.4038107486768008,0.0,0.0,0.0,0.0,0.0,0.0,-13.72,0.0,0.0,0.0
512,0.0,0.0,0.0,-0.006009765625,0.0,0.0,0.0,0.0,0.0,0.0,-0.579,0.0,0.0,0.0,0.0,0.0,0.0,-0.4126580755185241,0.0,0.0,0.0,0.0,0.0,0.0,-14.384,0.0,0.0,0.0
513,0.0,0.0,0.0,-0.0122451171875,0.0,0.0,0.0,0.0,0.0,0.0,-0.606,0.0,0.0,0.0,0.0,0.0,0.0,-0.42125195065371807,0.0,0.0,0.0,0.0,0.0,0.0,-14.748,0.0,0.0,0.0
514,0.0,0.0,0.0,-0.0177490234375,0.0,0.0,0.0,0.0,0.0,0.0,-0.6,0.0,0.0,0.0,0.0,0.0,0.0,-0.4296988461413542,0.0,0.0,0.0,0.0,0.0,0.0,-14.428,0.0,0.0,0.0
515,0.0,0.0,0.0,-0.023388671875,0.0,0.0,0.0,0.0,0.0,0.0,-0.554,0.0,0.0,0.0,0.0,0.0,0.0,-0.43801860828561745,0.0,0.0,0.0,0.0,0.0,0.0,-14.976,0.0,0.0,0.0
516,0.0,0.0,0.0,-0.029181640625,0.0,0.0,0.0,0.0,0.0,0.0,-0.581,0.0,0.0,0.0,0.0,0.0,0.0,-0.4460768937835011,0.0,0.0,0.0,0.0,0.0,0.0,-14.316,0.0,0.0,0.0
517,0.0,0.0,0.0,-0.03455078125,0.0,0.0,0.0,0.0,0.0,0.0,-0.554,0.0,0.0,0.0,0.0,0.0,0.0,-0.4540454025364813,0.0,0.0,0.0,0.0,0.0,0.0,-14.796,0.0,0.0,0.0
518,0.0,0.0,0.0,-0.0406328125,0.0,0.0,0.0,0.0,0.0,0.0,-0.57,0.0,0.0,0.0,0.0,0.0,0.0,-0.4618753340390136,0.0,0.0,0.0,0.0,0.0,0.0,-14.748,0.0,0.0,0.0
519,0.0,0.0,0.0,-0.0465703125,0.0,0.0,0.0,0.0,0.0,0.0,-0.613,0.0,0.0,0.0,0.0,0.0,0.0,-0.4693649966828702,0.0,0.0,0.0,0.0,0.0,0.0,-14.04,0.0,0.0,0.0
520,0.0,0.0,0.0,-0.0522275390625,0.0,0.0,0.0,0.0,0.0,0.0,-0.578,0.0,0.0,0.0,0.0,0.0,0.0,-0.47672688536709057,0.0,0.0,0.0,0.0,0.0,0.0,-14.176,0.0,0.0,0.0
521,0.0,0.0,0.0,-0.0581650390625,0.0,0.0,0.0,0.0,0.0,0.0,-0.585,0.0,0.0,0.0,0.0,0.0,0.0,-0.48401610802452927,0.0,0.0,0.0,0.0,0.0,0.0,-13.972,0.0,0.0,0.0
522,0.0,0.0,0.0,-0.06366015625,0.0,0.0,0.0,0.0,0.0,0.0,-0.582,0.0,0.0,0.0,0.0,0.0,0.0,-0.49094567556575924,0.0,0.0,0.0,0.0,0.0,0.0,-14.36,0.0,0.0,0.0
523,0.0,0.0,0.0,-0.06959765625,0.0,0.0,0.0,0.0,0.0,0.0,-0.57,0.0,0.0,0.0,0.0,0.0,0.0,-0.4977260056870608,0.0,0.0,0.0,0.0,0.0,0.0,-15.0,0.0,0.0,0.0
524,0.0,0.0,0.0,-0.0756884765625,0.0,0.0,0.0,0.0,0.0,0.0,-0.611,0.0,0.0,0.0,0.0,0.0,0.0,-0.5043572304631657,0.0,0.0,0.0,0.0,0.0,0.0,-14.772,0.0,0.0,0.0
525,0.0,0.0,0.0,-0.0813369140625,0.0,0.0,0.0,0.0,0.0,0.0,-0.593,0.0,0.0,0.0,0.0,0.0,0.0,-0.5107389201407293,0.0,0.0,0.0,0.0,0.0,0.0,-14.656,0.0,0.0,0.0
526,0.0,0.0,0.0,-0.0872744140625,0.0,0.0,0.0,0.0,0.0,0.0,-0.575,0.0,0.0,0.0,0.0,0.0,0.0,-0.5169227951007256,0.0,0.0,0.0,0.0,0.0,0.0,-14.84,0.0,0.0,0.0
527,0.0,0.0,0.0,-0.092779296875,0.0,0.0,0.0,0.0,0.0,0.0,-0.585,0.0,0.0,0.0,0.0,0.0,0.0,-0.5229930904992272,0.0,0.0,0.0,0.0,0.0,0.0,-14.636,0.0,0.0,0.0
528,0.0,0.0,0.0,-0.0982919921875,0.0,0.0,0.0,0.0,0.0,0.0,-0.548,0.0,0.0,0.0,0.0,0.0,0.0,-0.5286975857937275,0.0,0.0,0.0,0.0,0.0,0.0,-15.024,0.0,0.0,0.0
529,0.0,0.0,0.0,-0.1045185546875,0.0,0.0,0.0,0.0,0.0,0.0,-0.585,0.0,0.0,0.0,0.0,0.0,0.0,-0.5342373592154237,0.0,0.0,0.0,0.0,0.0,0.0,-14.728,0.0,0.0,0.0
530,0.0,0.0,0.0,-0.110302734375,0.0,0.0,0.0,0.0,0.0,0.0,-0.61,0.0,0.0,0.0,0.0,0.0,0.0,-0.5396375529650341,0.0,0.0,0.0,0.0,0.0,0.0,-13.924,0.0,0.0,0.0
531,0.0,0.0,0.0,-0.116240234375,0.0,0.0,0.0,0.0,0.0,0.0,-0.587,0.0,0.0,0.0,0.0,0.0,0.0,-0.5447783709972478,0.0,0.0,0.0,0.0,0.0,0.0,-14.064,0.0,0.0,0.0
532,0.0,0.0,0.0,-0.1223310546875,0.0,0.0,0.0,0.0,0.0,0.0,-0.612,0.0,0.0,0.0,0.0,0.0,0.0,-0.5496866494645513,0.0,0.0,0.0,0.0,0.0,0.0,-13.836,0.0,0.0,0.0
533,0.0,0.0,0.0,-0.1279794921875,0.0,0.0,0.0,0.0,0.0,0.0,-0.59,0.0,0.0,0.0,0.0,0.0,0.0,-0.5544030919029942,0.0,0.0,0.0,0.0,0.0,0.0,-14.316,0.0,0.0,0.0
534,0.0,0.0,0.0,-0.1340615234375,0.0,0.0,0.0,0.0,0.0,0.0,-0.581,0.0,0.0,0.0,0.0,0.0,0.0,-0.5588576661218825,0.0,0.0,0.0,0.0,0.0,0.0,-14.888,0.0,0.0,0.0
535,0.0,0.0,0.0,-0.139998046875,0.0,0.0,0.0,0.0,0.0,0.0,-0.614,0.0,0.0,0.0,0.0,0.0,0.0,-0.5631267893550568,0.0,0.0,0.0,0.0,0.0,0.0,-14.544,0.0,0.0,0.0
536,0.0,0.0,0.0,-0.14580078125,0.0,0.0,0.0,0.0,0.0,0.0,-0.589,0.0,0.0,0.0,0.0,0.0,0.0,-0.5671698780970246,0.0,0.0,0.0,0.0,0.0,0.0,-14.84,0.0,0.0,0.0
537,0.0,0.0,0.0,-0.15173828125,0.0,0.0,0.0,0.0,0.0,0.0,-0.59,0.0,0.0,0.0,0.0,0.0,0.0,-0.5709609102039426,0.0,0.0,0.0,0.0,0.0,0.0,-14.36,0.0,0.0,0.0
538,0.0,0.0,0.0,-0.1573779296875,0.0,0.0,0.0,0.0,0.0,0.0,-0.588,0.0,0.0,0.0,0.0,0.0,0.0,-0.5745220338206687,0.0,0.0,0.0,0.0,0.0,0.0,-14.268,0.0,0.0,0.0
539,0.0,0.0,0.0,-0.1630263671875,0.0,0.0,0.0,0.0,0.0,0.0,-0.563,0.0,0.0,0.0,0.0,0.0,0.0,-0.5778769511611138,0.0,0.0,0.0,0.0,0.0,0.0,-14.728,0.0,0.0,0.0
540,0.0,0.0,0.0,-0.16926171875,0.0,0.0,0.0,0.0,0.0,0.0,-0.606,0.0,0.0,0.0,0.0,0.0,0.0,-0.5810046749369883,0.0,0.0,0.0,0.0,0.0,0.0,-14.2,0.0,0.0,0.0
541,0.0,0.0,0.0,-0.1750546875,0.0,0.0,0.0,0.0,0.0,0.0,-0.604,0.0,0.0,0.0,0.0,0.0,0.0,-0.5838586732906502,0.0,0.0,0.0,0.0,0.0,0.0,-13.88,0.0,0.0,0.0
542,0.0,0.0,0.0,-0.18113671875,0.0,0.0,0.0,0.0,0.0,0.0,-0.594,0.0,0.0,0.0,0.0,0.0,0.0,-0.5865408579347449,0.0,0.0,0.0,0.0,0.0,0.0,-14.064,0.0,0.0,0.0
543,0.0,0.0,0.0,-0.1870732421875,0.0,0.0,0.0,0.0,0.0,0.0,-0.611,0.0,0.0,0.0,0.0,0.0,0.0,-0.5889521845074023,0.0,0.0,0.0,0.0,0.0,0.0,-13.812,0.0,0.0,0.0
544,0.0,0.0,0.0,-0.1927314453125,0.0,0.0,0.0,0.0,0.0,0.0,-0.582,0.0,0.0,0.0,0.0,0.0,0.0,-0.5911000874554703,0.0,0.0,0.0,0.0,0.0,0.0,-14.292,0.0,0.0,0.0
545,0.0,0.0,0.0,-0.1989580078125,0.0,0.0,0.0,0.0,0.0,0.0,-0.591,0.0,0.0,0.0,0.0,0.0,0.0,-0.5930456601521026,0.0,0.0,0.0,0.0,0.0,0.0,-14.728,0.0,0.0,0.0
546,0.0,0.0,0.0,-0.2047412109375,0.0,0.0,0.0,0.0,0.0,0.0,-0.609,0.0,0.0,0.0,0.0,0.0,0.0,-0.5947515424924704,0.0,0.0,0.0,0.0,0.0,0.0,-14.336,0.0,0.0,0.0
547,0.0,0.0,0.0,-0.210390625,0.0,0.0,0.0,0.0,0.0,0.0,-0.575,0.0,0.0,0.0,0.0,0.0,0.0,-0.5962020714753691,0.0,0.0,0.0,0.0,0.0,0.0,-14.636,0.0,0.0,0.0
548,0.0,0.0,0.0,-0.2163369140625,0.0,0.0,0.0,0.0,0.0,0.0,-0.59,0.0,0.0,0.0,0.0,0.0,0.0,-0.597431136879614,0.0,0.0,0.0,0.0,0.0,0.0,-14.268,0.0,0.0,0.0
549,0.0,0.0,0.0,-0.2219853515625,0.0,0.0,0.0,0.0,0.0,0.0,-0.582,0.0,0.0,0.0,0.0,0.0,0.0,-0.5984380941685236,0.0,0.0,0.0,0.0,0.0,0.0,-13.948,0.0,0.0,0.0
550,0.0,0.0,0.0,-0.2277783203125,0.0,0.0,0.0,0.0,0.0,0.0,-0.576,0.0,0.0,0.0,0.0,0.0,0.0,-0.599173412565277,0.0,0.0,0.0,0.0,0.0,0.0,-14.384,0.0,0.0,0.0
551,0.0,0.0,0.0,-0.2338515625,0.0,0.0,0.0,0.0,0.0,0.0,-0.6,0.0,0.0,0.0,0.0,0.0,0.0,-0.5996829433552159,0.0,0.0,0.0,0.0,0.0,0.0,-13.764,0.0,0.0,0.0
552,0.0,0.0,0.0,-0.2395087890625,0.0,0.0,0.0,0.0,0.0,0.0,-0.589,0.0,0.0,0.0,0.0,0.0,0.0,-0.599953956665091,0.0,0.0,0.0,0.0,0.0,0.0,-13.744,0.0,0.0,0.0
553,0.0,0.0,0.0,-0.2457353515625,0.0,0.0,0.0,0.0,0.0,0.0,-0.593,0.0,0.0,0.0,0.0,0.0,0.0,-0.599983263441748,0.0,0.0,0.0,0.0,0.0,0.0,-13.72,0.0,0.0,0.0
554,0.0,0.0,0.0,-0.2515283203125,0.0,0.0,0.0,0.0,0.0,0.0,-0.606,0.0,0.0,0.0,0.0,0.0,0.0,-0.5997743700009973,0.0,0.0,0.0,0.0,0.0,0.0,-13.744,0.0,0.0,0.0
555,0.0,0.0,0.0,-0.2573212890625,0.0,0.0,0.0,0.0,0.0,0.0,-0.579,0.0,0.0,0.0,0.0,0.0,0.0,-0.5993171075142008,0.0,0.0,0.0,0.0,0.0,0.0,-14.316,0.0,0.0,0.0
556,0.0,0.0,0.0,-0.263412109375,0.0,0.0,0.0,0.0,0.0,0.0,-0.598,0.0,0.0,0.0,0.0,0.0,0.0,-0.5986338510544408,0.0,0.0,0.0,0.0,0.0,0.0,-14.408,0.0,0.0,0.0
557,0.0,0.0,0.0,-0.2690517578125,0.0,0.0,0.0,0.0,0.0,0.0,-0.599,0.0,0.0,0.0,0.0,0.0,0.0,-0.5977070589913771,0.0,0.0,0.0,0.0,0.0,0.0,-14.2,0.0,0.0,0.0
558,0.0,0.0,0.0,-0.2748447265625,0.0,0.0,0.0,0.0,0.0,0.0,-0.573,0.0,0.0,0.0,0.0,0.0,0.0,-0.5965242901327403,0.0,0.0,0.0,0.0,0.0,0.0,-14.428,0.0,0.0,0.0
559,0.0,0.0,0.0,-0.2806376953125,0.0,0.0,0.0,0.0,0.0,0.0,-0.583,0.0,0.0,0.0,0.0,0.0,0.0,-0.5951171274464279,0.0,0.0,0.0,0.0,0.0,0.0,-14.132,0.0,0.0,0.0
560,0.0,0.0,0.0,-0.2862861328125,0.0,0.0,0.0,0.0,0.0,0.0,-0.575,0.0,0.0,0.0,0.0,0.0,0.0,-0.593474808060746,0.0,0.0,0.0,0.0,0.0,0.0,-14.084,0.0,0.0,0.0
561,0.0,0.0,0.0,-0.2922236328125,0.0,0.0,0.0,0.0,0.0,0.0,-0.581,0.0,0.0,0.0,0.0,0.0,0.0,-0.5914384338754427,0.0,0.0,0.0,0.0,0.0,0.0,-14.268,0.0,0.0,0.0
562,0.0,0.0,0.0,-0.2981611328125,0.0,0.0,0.0,0.0,0.0,0.0,-0.6,0.0,0.0,0.0,0.0,0.0,0.0,-0.5894836665421522,0.0,0.0,0.0,0.0,0.0,0.0,-13.356,0.0,0.0,0.0
563,0.0,0.0,0.0,-0.3039541015625,0.0,0.0,0.0,0.0,0.0,0.0,-0.593,0.0,0.0,0.0,0.0,0.0,0.0,-0.5871305252924532,0.0,0.0,0.0,0.0,0.0,0.0,-13.628,0.0,0.0,0.0
564,0.0,0.0,0.0,-0.3098916015625,0.0,0.0,0.0,0.0,0.0,0.0,-0.593,0.0,0.0,0.0,0.0,0.0,0.0,-0.5845254586341594,0.0,0.0,0.0,0.0,0.0,0.0,-13.56,0.0,0.0,0.0
565,0.0,0.0,0.0,-0.3156845703125,0.0,0.0,0.0,0.0,0.0,0.0,-0.588,0.0,0.0,0.0,0.0,0.0,0.0,-0.5817218647142329,0.0,0.0,0.0,0.0,0.0,0.0,-13.696,0.0,0.0,0.0
566,0.0,0.0,0.0,-0.3217666015625,0.0,0.0,0.0,0.0,0.0,0.0,-0.596,0.0,0.0,0.0,0.0,0.0,0.0,-0.5786727088670434,0.0,0.0,0.0,0.0,0.0,0.0,-14.2,0.0,0.0,0.0
567,0.0,0.0,0.0,-0.3275595703125,0.0,0.0,0.0,0.0,0.0,0.0,-0.597,0.0,0.0,0.0,0.0,0.0,0.0,-0.5753593527979217,0.0,0.0,0.0,0.0,0.0,0.0,-14.084,0.0,0.0,0.0
568,0.0,0.0,0.0,-0.3333525390625,0.0,0.0,0.0,0.0,0.0,0.0,-0.583,0.0,0.0,0.0,0.0,0.0,0.0,-0.5718513726046035,0.0,0.0,0.0,0.0,0.0,0.0,-14.064,0.0,0.0,0.0
569,0.0,0.0,0.0,-0.33913671875,0.0,0.0,0.0,0.0,0.0,0.0,-0.583,0.0,0.0,0.0,0.0,0.0,0.0,-0.568112572736858,0.0,0.0,0.0,0.0,0.0,0.0,-14.064,0.0,0.0,0.0
570,0.0,0.0,0.0,-0.3449384765625,0.0,0.0,0.0,0.0,0.0,0.0,-0.584,0.0,0.0,0.0,0.0,0.0,0.0,-0.5641278617092775,0.0,0.0,0.0,0.0,0.0,0.0,-13.764,0.0,0.0,0.0
571,0.0,0.0,0.0,-0.3507314453125,0.0,0.0,0.0,0.0,0.0,0.0,-0.584,0.0,0.0,0.0,0.0,0.0,0.0,-0.559941536197233,0.0,0.0,0.0,0.0,0.0,0.0,-13.812,0.0,0.0,0.0
572,0.0,0.0,0.0,-0.3566689453125,0.0,0.0,0.0,0.0,0.0,0.0,-0.591,0.0,0.0,0.0,0.0,0.0,0.0,-0.5555241861415133,0.0,0.0,0.0,0.0,0.0,0.0,-13.604,0.0,0.0,0.0
573,0.0,0.0,0.0,-0.36259765625,0.0,0.0,0.0,0.0,0.0,0.0,-0.592,0.0,0.0,0.0,0.0,0.0,0.0,-0.5507779851063028,0.0,0.0,0.0,0.0,0.0,0.0,-13.124,0.0,0.0,0.0
574,0.0,0.0,0.0,-0.3685439453125,0.0,0.0,0.0,0.0,0.0,0.0,-0.596,0.0,0.0,0.0,0.0,0.0,0.0,-0.5459878023754797,0.0,0.0,0.0,0.0,0.0,0.0,-13.284,0.0,0.0,0.0
575,0.0,0.0,0.0,-0.3743369140625,0.0,0.0,0.0,0.0,0.0,0.0,-0.596,0.0,0.0,0.0,0.0,0.0,0.0,-0.5408907285192278,0.0,0.0,0.0,0.0,0.0,0.0,-13.24,0.0,0.0,0.0
576,0.0,0.0,0.0,-0.3802744140625,0.0,0.0,0.0,0.0,0.0,0.0,-0.588,0.0,0.0,0.0,0.0,0.0,0.0,-0.5355696953517515,0.0,0.0,0.0,0.0,0.0,0.0,-13.628,0.0,0.0,0.0
577,0.0,0.0,0.0,-0.3863466796875,0.0,0.0,0.0,0.0,0.0,0.0,-0.604,0.0,0.0,0.0,0.0,0.0,0.0,-0.5300670830613293,0.0,0.0,0.0,0.0,0.0,0.0,-13.948,0.0,0.0,0.0
578,0.0,0.0,0.0,-0.3921396484375,0.0,0.0,0.0,0.0,0.0,0.0,-0.6,0.0,0.0,0.0,0.0,0.0,0.0,-0.5243501639189789,0.0,0.0,0.0,0.0,0.0,0.0,-13.788,0.0,0.0,0.0
579,0.0,0.0,0.0,-0.3979423828125,0.0,0.0,0.0,0.0,0.0,0.0,-0.582,0.0,0.0,0.0,0.0,0.0,0.0,-0.5183656812990115,0.0,0.0,0.0,0.0,0.0,0.0,-13.812,0.0,0.0,0.0
580,0.0,0.0,0.0,-0.40358203125,0.0,0.0,0.0,0.0,0.0,0.0,-0.576,0.0,0.0,0.0,0.0,0.0,0.0,-0.512271183455832,0.0,0.0,0.0,0.0,0.0,0.0,-13.676,0.0,0.0,0.0
581,0.0,0.0,0.0,-0.409375,0.0,0.0,0.0,0.0,0.0,0.0,-0.578,0.0,0.0,0.0,0.0,0.0,0.0,-0.5059481054339517,0.0,0.0,0.0,0.0,0.0,0.0,-13.4,0.0,0.0,0.0
582,0.0,0.0,0.0,-0.41516796875,0.0,0.0,0.0,0.0,0.0,0.0,-0.583,0.0,0.0,0.0,0.0,0.0,0.0,-0.4992826704318154,0.0,0.0,0.0,0.0,0.0,0.0,-13.676,0.0,0.0,0.0
583,0.0,0.0,0.0,-0.421095703125,0.0,0.0,0.0,0.0,0.0,0.0,-0.592,0.0,0.0,0.0,0.0,0.0,0.0,-0.4925681413114241,0.0,0.0,0.0,0.0,0.0,0.0,-13.032,0.0,0.0,0.0
584,0.0,0.0,0.0,-0.42704296875,0.0,0.0,0.0,0.0,0.0,0.0,-0.594,0.0,0.0,0.0,0.0,0.0,0.0,-0.4857047289028193,0.0,0.0,0.0,0.0,0.0,0.0,-12.76,0.0,0.0,0.0
585,0.0,0.0,0.0,-0.4329794921875,0.0,0.0,0.0,0.0,0.0,0.0,-0.598,0.0,0.0,0.0,0.0,0.0,0.0,-0.47849821035199913,0.0,0.0,0.0,0.0,0.0,0.0,-12.988,0.0,0.0,0.0
586,0.0,0.0,0.0,-0.438763671875,0.0,0.0,0.0,0.0,0.0,0.0,-0.594,0.0,0.0,0.0,0.0,0.0,0.0,-0.47113868255964103,0.0,0.0,0.0,0.0,0.0,0.0,-13.056,0.0,0.0,0.0
587,0.0,0.0,0.0,-0.444701171875,0.0,0.0,0.0,0.0,0.0,0.0,-0.592,0.0,0.0,0.0,0.0,0.0,0.0,-0.46371113048809176,0.0,0.0,0.0,0.0,0.0,0.0,-13.492,0.0,0.0,0.0
588,0.0,0.0,0.0,-0.450638671875,0.0,0.0,0.0,0.0,0.0,0.0,-0.601,0.0,0.0,0.0,0.0,0.0,0.0,-0.45594380424566355,0.0,0.0,0.0,0.0,0.0,0.0,-13.424,0.0,0.0,0.0
589,0.0,0.0,0.0,-0.456431640625,0.0,0.0,0.0,0.0,0.0,0.0,-0.588,0.0,0.0,0.0,0.0,0.0,0.0,-0.4479595025673997,0.0,0.0,0.0,0.0,0.0,0.0,-13.424,0.0,0.0,0.0
590,0.0,0.0,0.0,-0.462224609375,0.0,0.0,0.0,0.0,0.0,0.0,-0.584,0.0,0.0,0.0,0.0,0.0,0.0,-0.4399572027777607,0.0,0.0,0.0,0.0,0.0,0.0,-13.376,0.0,0.0,0.0
591,0.0,0.0,0.0,-0.466998046875,0.0,0.0,0.0,0.0,0.0,0.0,-0.558,0.0,0.0,0.0,0.0,0.0,0.0,-0.4317412076695956,0.0,0.0,0.0,0.0,0.0,0.0,-11.112,0.0,0.0,0.0
592,0.0,0.0,0.0,-0.468595703125,0.0,0.0,0.0,0.0,0.0,0.0,-0.359,0.0,0.0,0.0,0.0,0.0,0.0,-0.4232808041998783,0.0,0.0,0.0,0.0,0.0,0.0,-7.432,0.0,0.0,0.0
593,0.0,0.0,0.0,-0.4681533203125,0.0,0.0,0.0,0.0,0.0,0.0,-0.066,0.0,0.0,0.0,0.0,0.0,0.0,-0.4147439275978407,0.0,0.0,0.0,0.0,0.0,0.0,-6.516,0.0,0.0,0.0
594,0.0,0.0,0.0,-0.4665654296875,0.0,0.0,0.0,0.0,0.0,0.0,0.083,0.0,0.0,0.0,0.0,0.0,0.0,-0.4059934341439832,0.0,0.0,0.0,0.0,0.0,0.0,-5.532,0.0,0.0,0.0
595,0.0,0.0,0.0,-0.4632353515625,0.0,0.0,0.0,0.0,0.0,0.0,0.233,0.0,0.0,0.0,0.0,0.0,0.0,-0.39694853301232275,0.0,0.0,0.0,0.0,0.0,0.0,-6.128,0.0,0.0,0.0
596,0.0,0.0,0.0,-0.459328125,0.0,0.0,0.0,0.0,0.0,0.0,0.367,0.0,0.0,0.0,0.0,0.0,0.0,-0.38800134990556734,0.0,0.0,0.0,0.0,0.0,0.0,-5.464,0.0,0.0,0.0
597,0.0,0.0,0.0,-0.4546904296875,0.0,0.0,0.0,0.0,0.0,0.0,0.422,0.0,0.0,0.0,0.0,0.0,0.0,-0.3787702340038929,0.0,0.0,0.0,0.0,0.0,0.0,-4.16,0.0,0.0,0.0
598,0.0,0.0,0.0,-0.449474609375,0.0,0.0,0.0,0.0,0.0,0.0,0.49,0.0,0.0,0.0,0.0,0.0,0.0,-0.36938465552644323,0.0,0.0,0.0,0.0,0.0,0.0,-3.588,0.0,0.0,0.0
599,0.0,0.0,0.0,-0.4431044921875,0.0,0.0,0.0,0.0,0.0,0.0,0.559,0.0,0.0,0.0,0.0,0.0,0.0,-0.3598512086047724,0.0,0.0,0.0,0.0,0.0,0.0,-2.512,0.0,0.0,0.0
600,0.0,0.0,0.0,-0.4351455078125,0.0,0.0,0.0,0.0,0.0,0.0,0.712,0.0,0.0,0.0,0.0,0.0,0.0,-0.3501581438104409,0.0,0.0,0.0,0.0,0.0,0.0,-3.772,0.0,0.0,0.0
601,0.0,0.0,0.0,-0.4271865234375,0.0,0.0,0.0,0.0,0.0,0.0,0.81,0.0,0.0,0.0,0.0,0.0,0.0,-0.3403758239361295,0.0,0.0,0.0,0.0,0.0,0.0,-5.42,0.0,0.0,0.0
602,0.0,0.0,0.0,-0.41965234375,0.0,0.0,0.0,0.0,0.0,0.0,0.785,0.0,0.0,0.0,0.0,0.0,0.0,-0.33047327118616704,0.0,0.0,0.0,0.0,0.0,0.0,-7.432,0.0,0.0,0.0
603,0.0,0.0,0.0,-0.4127041015625,0.0,0.0,0.0,0.0,0.0,0.0,0.722,0.0,0.0,0.0,0.0,0.0,0.0,-0.32043082280876206,0.0,0.0,0.0,0.0,0.0,0.0,-8.392,0.0,0.0,0.0
604,0.0,0.0,0.0,-0.40445703125,0.0,0.0,0.0,0.0,0.0,0.0,0.75,0.0,0.0,0.0,0.0,0.0,0.0,-0.3100052426145636,0.0,0.0,0.0,0.0,0.0,0.0,-7.524,0.0,0.0,0.0
605,0.0,0.0,0.0,-0.3956142578125,0.0,0.0,0.0,0.0,0.0,0.0,0.864,0.0,0.0,0.0,0.0,0.0,0.0,-0.299862083059974,0.0,0.0,0.0,0.0,0.0,0.0,-8.208,0.0,0.0,0.0
606,0.0,0.0,0.0,-0.3875107421875,0.0,0.0,0.0,0.0,0.0,0.0,0.863,0.0,0.0,0.0,0.0,0.0,0.0,-0.28943398034239715,0.0,0.0,0.0,0.0,0.0,0.0,-10.748,0.0,0.0,0.0
607,0.0,0.0,0.0,-0.3792548828125,0.0,0.0,0.0,0.0,0.0,0.0,0.809,0.0,0.0,0.0,0.0,0.0,0.0,-0.27880174136785735,0.0,0.0,0.0,0.0,0.0,0.0,-11.912,0.0,0.0,0.0
608,0.0,0.0,0.0,-0.370140625,0.0,0.0,0.0,0.0,0.0,0.0,0.863,0.0,0.0,0.0,0.0,0.0,0.0,-0.2681669610932377,0.0,0.0,0.0,0.0,0.0,0.0,-12.28,0.0,0.0,0.0
609,0.0,0.0,0.0,-0.3621640625,0.0,0.0,0.0,0.0,0.0,0.0,0.885,0.0,0.0,0.0,0.0,0.0,0.0,-0.25736406962247,0.0,0.0,0.0,0.0,0.0,0.0,-13.72,0.0,0.0,0.0
610,0.0,0.0,0.0,-0.3559375,0.0,0.0,0.0,0.0,0.0,0.0,0.715,0.0,0.0,0.0,0.0,0.0,0.0,-0.2463640361788451,0.0,0.0,0.0,0.0,0.0,0.0,-12.944,0.0,0.0,0.0
611,0.0,0.0,0.0,-0.3479794921875,0.0,0.0,0.0,0.0,0.0,0.0,0.689,0.0,0.0,0.0,0.0,0.0,0.0,-0.2354574394307695,0.0,0.0,0.0,0.0,0.0,0.0,-13.172,0.0,0.0,0.0
612,0.0,0.0,0.0,-0.3389921875,0.0,0.0,0.0,0.0,0.0,0.0,0.858,0.0,0.0,0.0,0.0,0.0,0.0,-0.2244105910678266,0.0,0.0,0.0,0.0,0.0,0.0,-15.436,0.0,0.0,0.0
613,0.0,0.0,0.0,-0.3318994140625,0.0,0.0,0.0,0.0,0.0,0.0,0.828,0.0,0.0,0.0,0.0,0.0,0.0,-0.21319702241210767,0.0,0.0,0.0,0.0,0.0,0.0,-17.312,0.0,0.0,0.0
614,0.0,0.0,0.0,-0.325095703125,0.0,0.0,0.0,0.0,0.0,0.0,0.691,0.0,0.0,0.0,0.0,0.0,0.0,-0.20192234914271345,0.0,0.0,0.0,0.0,0.0,0.0,-17.652,0.0,0.0,0.0
615,0.0,0.0,0.0,-0.31742578125,0.0,0.0,0.0,0.0,0.0,0.0,0.726,0.0,0.0,0.0,0.0,0.0,0.0,-0.19060656130517692,0.0,0.0,0.0,0.0,0.0,0.0,-17.884,0.0,0.0,0.0
616,0.0,0.0,0.0,-0.3101806640625,0.0,0.0,0.0,0.0,0.0,0.0,0.751,0.0,0.0,0.0,0.0,0.0,0.0,-0.1791872756848369,0.0,0.0,0.0,0.0,0.0,0.0,-15.688,0.0,0.0,0.0
617,0.0,0.0,0.0,-0.3035205078125,0.0,0.0,0.0,0.0,0.0,0.0,0.705,0.0,0.0,0.0,0.0,0.0,0.0,-0.16761935563836747,0.0,0.0,0.0,0.0,0.0,0.0,-16.352,0.0,0.0,0.0
618,0.0,0.0,0.0,-0.296716796875,0.0,0.0,0.0,0.0,0.0,0.0,0.672,0.0,0.0,0.0,0.0,0.0,0.0,-0.15604450394970584,0.0,0.0,0.0,0.0,0.0,0.0,-18.432,0.0,0.0,0.0
619,0.0,0.0,0.0,-0.2899140625,0.0,0.0,0.0,0.0,0.0,0.0,0.689,0.0,0.0,0.0,0.0,0.0,0.0,-0.14448782926302614,0.0,0.0,0.0,0.0,0.0,0.0,-18.704,0.0,0.0,0.0
620,0.0,0.0,0.0,-0.2833896484375,0.0,0.0,0.0,0.0,0.0,0.0,0.67,0.0,0.0,0.0,0.0,0.0,0.0,-0.13273418139568327,0.0,0.0,0.0,0.0,0.0,0.0,-16.808,0.0,0.0,0.0
621,0.0,0.0,0.0,-0.27701953125,0.0,0.0,0.0,0.0,0.0,0.0,0.659,0.0,0.0,0.0,0.0,0.0,0.0,-0.12111755656449437,0.0,0.0,0.0,0.0,0.0,0.0,-17.172,0.0,0.0,0.0
622,0.0,0.0,0.0,-0.2715146484375,0.0,0.0,0.0,0.0,0.0,0.0,0.606,0.0,0.0,0.0,0.0,0.0,0.0,-0.10932118922819671,0.0,0.0,0.0,0.0,0.0,0.0,-18.34,0.0,0.0,0.0
623,0.0,0.0,0.0,-0.2654326171875,0.0,0.0,0.0,0.0,0.0,0.0,0.566,0.0,0.0,0.0,0.0,0.0,0.0,-0.09743323759914893,0.0,0.0,0.0,0.0,0.0,0.0,-17.792,0.0,0.0,0.0
624,0.0,0.0,0.0,-0.2587646484375,0.0,0.0,0.0,0.0,0.0,0.0,0.645,0.0,0.0,0.0,0.0,0.0,0.0,-0.08565595060231666,0.0,0.0,0.0,0.0,0.0,0.0,-17.564,0.0,0.0,0.0
625,0.0,0.0,0.0,-0.2534140625,0.0,0.0,0.0,0.0,0.0,0.0,0.617,0.0,0.0,0.0,0.0,0.0,0.0,-0.07372789513313248,0.0,0.0,0.0,0.0,0.0,0.0,-15.46,0.0,0.0,0.0
626,0.0,0.0,0.0,-0.247765625,0.0,0.0,0.0,0.0,0.0,0.0,0.55,0.0,0.0,0.0,0.0,0.0,0.0,-0.06173688154430784,0.0,0.0,0.0,0.0,0.0,0.0,-15.276,0.0,0.0,0.0
627,0.0,0.0,0.0,-0.2428388671875,0.0,0.0,0.0,0.0,0.0,0.0,0.536,0.0,0.0,0.0,0.0,0.0,0.0,-0.04986316445773843,0.0,0.0,0.0,0.0,0.0,0.0,-16.512,0.0,0.0,0.0
628,0.0,0.0,0.0,-0.2380654296875,0.0,0.0,0.0,0.0,0.0,0.0,0.488,0.0,0.0,0.0,0.0,0.0,0.0,-0.037945764849053314,0.0,0.0,0.0,0.0,0.0,0.0,-14.956,0.0,0.0,0.0
629,0.0,0.0,0.0,-0.2326962890625,0.0,0.0,0.0,0.0,0.0,0.0,0.51,0.0,0.0,0.0,0.0,0.0,0.0,-0.025850388649322095,0.0,0.0,0.0,0.0,0.0,0.0,-13.584,0.0,0.0,0.0
630,0.0,0.0,0.0,-0.2276337890625,0.0,0.0,0.0,0.0,0.0,0.0,0.528,0.0,0.0,0.0,0.0,0.0,0.0,-0.01382599512510157,0.0,0.0,0.0,0.0,0.0,0.0,-13.744,0.0,0.0,0.0
631,0.0,0.0,0.0,-0.22270703125,0.0,0.0,0.0,0.0,0.0,0.0,0.491,0.0,0.0,0.0,0.0,0.0,0.0,-0.0019493927006391614,0.0,0.0,0.0,0.0,0.0,0.0,-13.904,0.0,0.0,0.0
632,0.0,0.0,0.0,-0.2176357421875,0.0,0.0,0.0,0.0,0.0,0.0,0.509,0.0,0.0,0.0,0.0,0.0,0.0,0.010172270738532855,0.0,0.0,0.0,0.0,0.0,0.0,-14.728,0.0,0.0,0.0
633,0.0,0.0,0.0,-0.2132958984375,0.0,0.0,0.0,0.0,0.0,0.0,0.481,0.0,0.0,0.0,0.0,0.0,0.0,1.68800353981639e-05,0.0,0.0,0.0,0.0,0.0,0.0,-14.452,0.0,0.0,0.0
634,0.0,0.0,0.0,-0.208658203125,0.0,0.0,0.0,0.0,0.0,0.0,0.442,0.0,0.0,0.0,0.0,0.0,0.0,0.011928249311494584,0.0,0.0,0.0,0.0,0.0,0.0,-13.284,0.0,0.0,0.0
635,0.0,0.0,0.0,-0.2032978515625,0.0,0.0,0.0,0.0,0.0,0.0,0.504,0.0,0.0,0.0,0.0,0.0,0.0,0.024007871307486165,0.0,0.0,0.0,0.0,0.0,0.0,-12.872,0.0,0.0,0.0
636,0.0,0.0,0.0,-0.1982265625,0.0,0.0,0.0,0.0,0.0,0.0,0.53,0.0,0.0,0.0,0.0,0.0,0.0,0.035892121829612926,0.0,0.0,0.0,0.0,0.0,0.0,-12.784,0.0,0.0,0.0
637,0.0,0.0,0.0,-0.1930205078125,0.0,0.0,0.0,0.0,0.0,0.0,0.508,0.0,0.0,0.0,0.0,0.0,0.0,0.04786378446501028,0.0,0.0,0.0,0.0,0.0,0.0,-12.736,0.0,0.0,0.0
638,0.0,0.0,0.0,-0.1877958984375,0.0,0.0,0.0,0.0,0.0,0.0,0.532,0.0,0.0,0.0,0.0,0.0,0.0,0.06002297050819059,0.0,0.0,0.0,0.0,0.0,0.0,-13.216,0.0,0.0,0.0
639,0.0,0.0,0.0,-0.1831669921875,0.0,0.0,0.0,0.0,0.0,0.0,0.495,0.0,0.0,0.0,0.0,0.0,0.0,0.07170568351904187,0.0,0.0,0.0,0.0,0.0,0.0,-12.188,0.0,0.0,0.0
640,0.0,0.0,0.0,-0.177951171875,0.0,0.0,0.0,0.0,0.0,0.0,0.48,0.0,0.0,0.0,0.0,0.0,0.0,0.08359518472258892,0.0,0.0,0.0,0.0,0.0,0.0,-11.48,0.0,0.0,0.0
641,0.0,0.0,0.0,-0.172302734375,0.0,0.0,0.0,0.0,0.0,0.0,0.553,0.0,0.0,0.0,0.0,0.0,0.0,0.09557784095427123,0.0,0.0,0.0,0.0,0.0,0.0,-11.8,0.0,0.0,0.0
642,0.0,0.0,0.0,-0.166951171875,0.0,0.0,0.0,0.0,0.0,0.0,0.554,0.0,0.0,0.0,0.0,0.0,0.0,0.10735290168898852,0.0,0.0,0.0,0.0,0.0,0.0,-12.188,0.0,0.0,0.0
643,0.0,0.0,0.0,-0.1611494140625,0.0,0.0,0.0,0.0,0.0,0.0,0.556,0.0,0.0,0.0,0.0,0.0,0.0,0.11912157141406743,0.0,0.0,0.0,0.0,0.0,0.0,-12.944,0.0,0.0,0.0
644,0.0,0.0,0.0,-0.1557890625,0.0,0.0,0.0,0.0,0.0,0.0,0.571,0.0,0.0,0.0,0.0,0.0,0.0,0.13093318368964063,0.0,0.0,0.0,0.0,0.0,0.0,-13.308,0.0,0.0,0.0
645,0.0,0.0,0.0,-0.1504296875,0.0,0.0,0.0,0.0,0.0,0.0,0.531,0.0,0.0,0.0,0.0,0.0,0.0,0.1425736428329166,0.0,0.0,0.0,0.0,0.0,0.0,-12.852,0.0,0.0,0.0
646,0.0,0.0,0.0,-0.14434765625,0.0,0.0,0.0,0.0,0.0,0.0,0.562,0.0,0.0,0.0,0.0,0.0,0.0,0.15418210610913877,0.0,0.0,0.0,0.0,0.0,0.0,-12.964,0.0,0.0,0.0
647,0.0,0.0,0.0,-0.1382568359375,0.0,0.0,0.0,0.0,0.0,0.0,0.619,0.0,0.0,0.0,0.0,0.0,0.0,0.16589049748476586,0.0,0.0,0.0,0.0,0.0,0.0,-12.668,0.0,0.0,0.0
648,0.0,0.0,0.0,-0.1321748046875,0.0,0.0,0.0,0.0,0.0,0.0,0.612,0.0,0.0,0.0,0.0,0.0,0.0,0.17731551321083255,0.0,0.0,0.0,0.0,0.0,0.0,-12.6,0.0,0.0,0.0
649,0.0,0.0,0.0,-0.12594921875,0.0,0.0,0.0,0.0,0.0,0.0,0.618,0.0,0.0,0.0,0.0,0.0,0.0,0.18871586348891597,0.0,0.0,0.0,0.0,0.0,0.0,-13.148,0.0,0.0,0.0
650,0.0,0.0,0.0,-0.1201650390625,0.0,0.0,0.0,0.0,0.0,0.0,0.618,0.0,0.0,0.0,0.0,0.0,0.0,0.20011823491544495,0.0,0.0,0.0,0.0,0.0,0.0,-13.172,0.0,0.0,0.0
651,0.0,0.0,0.0,-0.11407421875,0.0,0.0,0.0,0.0,0.0,0.0,0.582,0.0,0.0,0.0,0.0,0.0,0.0,0.21141281135867476,0.0,0.0,0.0,0.0,0.0,0.0,-12.784,0.0,0.0,0.0
652,0.0,0.0,0.0,-0.1077041015625,0.0,0.0,0.0,0.0,0.0,0.0,0.622,0.0,0.0,0.0,0.0,0.0,0.0,0.22251886768548068,0.0,0.0,0.0,0.0,0.0,0.0,-12.712,0.0,0.0,0.0
653,0.0,0.0,0.0,-0.1017666015625,0.0,0.0,0.0,0.0,0.0,0.0,0.626,0.0,0.0,0.0,0.0,0.0,0.0,0.23365764601345804,0.0,0.0,0.0,0.0,0.0,0.0,-13.56,0.0,0.0,0.0
654,0.0,0.0,0.0,-0.0952421875,0.0,0.0,0.0,0.0,0.0,0.0,0.621,0.0,0.0,0.0,0.0,0.0,0.0,0.24464429668049212,0.0,0.0,0.0,0.0,0.0,0.0,-14.428,0.0,0.0,0.0
655,0.0,0.0,0.0,-0.0890166015625,0.0,0.0,0.0,0.0,0.0,0.0,0.648,0.0,0.0,0.0,0.0,0.0,0.0,0.2555559445300278,0.0,0.0,0.0,0.0,0.0,0.0,-15.48,0.0,0.0,0.0
656,0.0,0.0,0.0,-0.0830791015625,0.0,0.0,0.0,0.0,0.0,0.0,0.61,0.0,0.0,0.0,0.0,0.0,0.0,0.2664052875769704,0.0,0.0,0.0,0.0,0.0,0.0,-14.976,0.0,0.0,0.0
657,0.0,0.0,0.0,-0.076419921875,0.0,0.0,0.0,0.0,0.0,0.0,0.63,0.0,0.0,0.0,0.0,0.0,0.0,0.2770365549107109,0.0,0.0,0.0,0.0,0.0,0.0,-14.176,0.0,0.0,0.0
658,0.0,0.0,0.0,-0.0703291015625,0.0,0.0,0.0,0.0,0.0,0.0,0.648,0.0,0.0,0.0,0.0,0.0,0.0,0.28757522583018297,0.0,0.0,0.0,0.0,0.0,0.0,-14.176,0.0,0.0,0.0
659,0.0,0.0,0.0,-0.0641025390625,0.0,0.0,0.0,0.0,0.0,0.0,0.61,0.0,0.0,0.0,0.0,0.0,0.0,0.2980602884271866,0.0,0.0,0.0,0.0,0.0,0.0,-13.836,0.0,0.0,0.0
660,0.0,0.0,0.0,-0.0575791015625,0.0,0.0,0.0,0.0,0.0,0.0,0.65,0.0,0.0,0.0,0.0,0.0,0.0,0.308430041404138,0.0,0.0,0.0,0.0,0.0,0.0,-14.84,0.0,0.0,0.0
661,0.0,0.0,0.0,-0.0519296875,0.0,0.0,0.0,0.0,0.0,0.0,0.615,0.0,0.0,0.0,0.0,0.0,0.0,0.31863945075809097,0.0,0.0,0.0,0.0,0.0,0.0,-14.316,0.0,0.0,0.0
662,0.0,0.0,0.0,-0.0457041015625,0.0,0.0,0.0,0.0,0.0,0.0,0.592,0.0,0.0,0.0,0.0,0.0,0.0,0.3287389361988185,0.0,0.0,0.0,0.0,0.0,0.0,-13.972,0.0,0.0,0.0
663,0.0,0.0,0.0,-0.0399111328125,0.0,0.0,0.0,0.0,0.0,0.0,0.616,0.0,0.0,0.0,0.0,0.0,0.0,0.33874198750809387,0.0,0.0,0.0,0.0,0.0,0.0,-14.748,0.0,0.0,0.0
664,0.0,0.0,0.0,-0.0341181640625,0.0,0.0,0.0,0.0,0.0,0.0,0.57,0.0,0.0,0.0,0.0,0.0,0.0,0.3485721396622359,0.0,0.0,0.0,0.0,0.0,0.0,-14.156,0.0,0.0,0.0
665,0.0,0.0,0.0,-0.02773828125,0.0,0.0,0.0,0.0,0.0,0.0,0.611,0.0,0.0,0.0,0.0,0.0,0.0,0.35823917215753315,0.0,0.0,0.0,0.0,0.0,0.0,-15.596,0.0,0.0,0.0
666,0.0,0.0,0.0,-0.0222333984375,0.0,0.0,0.0,0.0,0.0,0.0,0.602,0.0,0.0,0.0,0.0,0.0,0.0,0.36784065573110253,0.0,0.0,0.0,0.0,0.0,0.0,-15.368,0.0,0.0,0.0
667,0.0,0.0,0.0,-0.0160078125,0.0,0.0,0.0,0.0,0.0,0.0,0.584,0.0,0.0,0.0,0.0,0.0,0.0,0.37721054828812733,0.0,0.0,0.0,0.0,0.0,0.0,-14.52,0.0,0.0,0.0
668,0.0,0.0,0.0,-0.0100703125,0.0,0.0,0.0,0.0,0.0,0.0,0.621,0.0,0.0,0.0,0.0,0.0,0.0,0.3864790989487525,0.0,0.0,0.0,0.0,0.0,0.0,-14.496,0.0,0.0,0.0
