EmanuelSamir/lab201_ws_projsamir/sawyer_dev/data/sawyer/vel_sin_motion/test_jointall/training_data_jointvibr.csv
,j1,j2,j3,j4,j5,j6,j7,v1,v2,v3,v4,v5,v6,v7,jd1,jd2,jd3,jd4,jd5,jd6,jd7,e1,e2,e3,e4,e5,e6,e7
0,0.0,0.0,0.0,0.0,0.0,0.0,0.0,0.0,0.0,0.0,0.0,0.0,0.0,0.0,0,0,0,0,0,0,0,0.0,0.0,0.0,0.0,0.0,0.0,0.0
1,-0.0022060546875,-0.0017158203125,-0.0037236328125,-0.004701171875,0.0052001953125,-0.0038505859375,-0.0014658203125,-0.001,-0.001,-0.001,-0.001,-0.001,-0.001,-0.001,[0.17837141],[0.01072499],[-0.04881447],[-0.04650096],[0.0427692],[-0.13859247],[-0.17713189],0.156,-44.108,-4.784,-13.744,2.36,-0.688,0.016
2,-0.0022060546875,-0.0017158203125,-0.0037236328125,-0.004701171875,0.0052001953125,-0.0038505859375,-0.0014658203125,-0.001,-0.001,-0.001,-0.001,-0.001,-0.001,-0.001,[-0.20813658],[0.06613402],[0.13562278],[-0.05522381],[-0.19596798],[-0.0299817],[0.12289203],0.104,-44.052,-4.764,-13.744,2.348,-0.708,0.016
3,-0.0022060546875,-0.0017158203125,-0.0037236328125,-0.004701171875,0.0052001953125,-0.0038505859375,-0.0014658203125,-0.001,-0.001,-0.001,-0.001,-0.001,-0.001,-0.001,[0.09868275],[-0.00891942],[-0.24072097],[-0.05460434],[0.06664851],[-0.12797957],[-0.03243195],0.688,-44.052,-4.716,-13.764,2.36,-0.708,0.012
4,-0.002,-0.0016123046875,-0.0037236328125,-0.004845703125,0.0049931640625,-0.0040576171875,-0.0014658203125,0.011,0.002,-0.001,-0.004,-0.005,-0.003,-0.001,[-0.157537],[-0.19107418],[-0.2059906],[-0.12593106],[0.03274991],[0.08994034],[0.00738331],2.444,-43.136,-4.464,-14.268,2.4,-0.8,-0.024
5,-0.0022060546875,-0.0007890625,-0.0034345703125,-0.0068759765625,0.003134765625,-0.0040576171875,-0.0014658203125,-0.002,0.038,0.003,-0.085,-0.09,-0.016,-0.001,[-0.11566291],[0.02482952],[-0.10301073],[-0.11833561],[0.18568121],[0.00067414],[0.13672565],-0.688,-40.328,-2.844,-14.704,2.724,-1.06,0.016
6,-0.00230859375,0.0002392578125,-0.00214453125,-0.00890625,0.002927734375,-0.0059033203125,-0.0006396484375,-0.013,0.093,0.072,-0.216,-0.142,-0.061,0.028,[0.14148689],[-0.09048552],[-0.18994965],[0.04812859],[0.08437607],[0.06629669],[0.0549305],-3.456,-40.436,-3.144,-12.988,2.668,-1.144,0.208
7,-0.0026181640625,0.001474609375,-0.0022880859375,-0.0107919921875,0.0043740234375,-0.0094150390625,0.0005869140625,-0.015,0.102,0.103,-0.185,0.075,-0.271,0.099,[-0.04592387],[0.09181311],[0.01517296],[0.01063453],[0.09922202],[-0.10672359],[-0.11005193],-7.708,-43.62,-6.936,-13.332,1.312,-0.088,0.148
8,-0.003138671875,0.0032236328125,-0.0055986328125,-0.0141220703125,0.0023076171875,-0.0094150390625,0.0028466796875,-0.043,0.16,-0.168,-0.26,0.017,-0.24,0.161,[-0.23671614],[-0.08565077],[-0.27495081],[-0.11077162],[0.12528079],[-0.03083478],[0.0777055],-11.324,-48.104,-7.1,-12.92,1.548,0.356,0.188
9,-0.0036533203125,0.0037451171875,-0.00919921875,-0.0147080078125,0.0025146484375,-0.007556640625,0.0061259765625,-0.059,0.129,-0.351,-0.252,-0.16,0.117,0.273,[-0.02471689],[-0.03324283],[-0.15442675],[-0.09317918],[-0.04161403],[0.10904557],[-0.07638678],-11.112,-51.236,-6.776,-14.384,2.556,-0.708,0.2
10,-0.0045791015625,0.0034365234375,-0.0159755859375,-0.013400390625,0.000875,-0.0065234375,0.0104384765625,-0.041,-0.024,-0.343,0.089,-0.082,0.021,0.227,[0.03490517],[-0.00385131],[-0.15487122],[-0.01407418],[0.12138556],[-0.10668199],[-0.03437905],-0.316,-48.104,-5.064,-18.704,3.416,-1.04,0.2
11,-0.00540234375,0.0037451171875,-0.019865234375,-0.0139775390625,0.0027216796875,-0.00631640625,0.0110576171875,-0.088,0.025,-0.384,-0.042,0.006,0.117,0.105,[-0.23836533],[0.01868144],[-0.27097961],[-0.01967142],[0.06877692],[-0.05119842],[-0.01895308],-0.636,-49.292,-6.636,-18.956,3.364,-1.672,0.208
12,-0.0062255859375,0.0046708984375,-0.0246201171875,-0.0167294921875,0.0027216796875,-0.004470703125,0.007572265625,-0.076,0.058,-0.432,-0.132,0.147,0.083,-0.173,[-0.11676398],[-0.16428325],[-0.08625127],[0.0046155],[0.21217654],[-0.09048984],[0.0244622],-1.648,-52.208,-8.324,-19.508,2.784,-0.668,0.104
13,-0.0080849609375,0.003951171875,-0.035150390625,-0.0171630859375,0.0070595703125,-0.0048837890625,0.0048994140625,-0.099,-0.035,-0.497,-0.03,0.235,0.145,-0.252,[-0.16479956],[0.0046699],[-0.12207519],[0.17610871],[0.076988],[0.09625049],[-0.06436308],1.168,-54.148,-9.112,-18.316,2.296,-0.968,-0.056
14,-0.0080849609375,0.003951171875,-0.035150390625,-0.0171630859375,0.0070595703125,-0.0048837890625,0.0048994140625,-0.099,-0.035,-0.497,-0.03,0.235,0.145,-0.252,[-0.13625882],[-0.01297239],[-0.41288088],[0.09047125],[-0.0596345],[0.02195928],[-0.04121973],1.168,-54.148,-9.112,-18.316,2.296,-0.968,-0.056
15,-0.0101494140625,0.0015771484375,-0.047259765625,-0.016296875,0.0082861328125,-0.0038505859375,-0.001052734375,-0.109,-0.103,-0.655,0.005,-0.025,0.086,-0.32,[-0.20341587],[0.11153515],[-0.20604248],[-0.03947585],[0.08653017],[-0.06244419],[0.01074264],-2.392,-51.776,-3.676,-19.528,4.236,-1.924,-0.024
16,-0.0110751953125,3.41796875e-05,-0.0512939453125,-0.0151416015625,0.0130244140625,-0.0069365234375,-0.0033115234375,-0.091,-0.178,-0.42,0.145,0.396,-0.068,-0.236,[-0.19453587],[-0.33430293],[-0.14514523],[-0.01057726],[0.05018168],[-0.14105383],[-0.05376843],-5.792,-49.344,-5.896,-21.084,3.18,-1.64,-0.2
17,-0.0127216796875,-0.001201171875,-0.0556162109375,-0.0151416015625,0.01694921875,-0.01003515625,-0.005365234375,-0.132,-0.13,-0.433,0.038,0.423,-0.339,-0.231,[-0.11447829],[0.00093347],[-0.28646114],[-0.00857273],[0.0521819],[-0.114995],[-0.04081025],-9.248,-49.724,-5.988,-14.064,2.672,-0.376,-0.056
18,-0.0141689453125,-0.00346484375,-0.060236328125,-0.013255859375,0.022513671875,-0.01126171875,-0.00619140625,-0.156,-0.172,-0.43,0.09,0.505,-0.23,-0.159,[-0.31610344],[-0.04271511],[-0.1683982],[-0.01270131],[-0.05825945],[-0.03667918],[0.10240742],-13.132,-46.376,-7.216,-13.676,1.124,-0.032,-0.188
19,-0.0161240234375,-0.0054267578125,-0.065568359375,-0.013111328125,0.0212744140625,-0.01126171875,-0.0067978515625,-0.173,-0.214,-0.509,0.117,0.267,-0.075,-0.074,[-0.51055128],[-0.03887256],[-0.09973309],[-0.01766054],[0.1115802],[-0.12316595],[0.05444327],-15.256,-43.944,-4.116,-13.744,2.44,-0.48,-0.148
20,-0.0180859375,-0.0079990234375,-0.0694580078125,-0.0113701171875,0.02456640625,-0.0116748046875,-0.0067978515625,-0.2,-0.223,-0.493,0.066,0.011,-0.005,-0.036,[-0.33179665],[-0.0873669],[-0.24040886],[-0.13547331],[-0.13404408],[0.00857903],[0.10192826],-14.62,-42.328,-2.472,-15.0,3.376,-1.208,-0.052
21,-0.0206650390625,-0.0093369140625,-0.0735,-0.0115234375,0.0282724609375,-0.0141533203125,-0.006591796875,-0.214,-0.221,-0.366,0.13,0.403,-0.121,0.013,[-0.175669],[0.1036436],[-0.28099644],[-0.02793408],[0.04914508],[0.05296141],[-0.05492268],-15.896,-41.84,-5.364,-17.652,2.44,-1.26,-0.156
22,-0.02365625,-0.010572265625,-0.07637890625,-0.013400390625,0.0290986328125,-0.01765234375,-0.006384765625,-0.284,-0.111,-0.41,-0.13,0.221,-0.315,0.013,[-0.48484177],[-0.01250103],[-0.4242627],[-0.1349053],[0.10867061],[-0.07498855],[0.00376452],-16.588,-45.188,-3.816,-12.348,3.124,-0.468,0.036
23,-0.0273671875,-0.013248046875,-0.0759453125,-0.0125341796875,0.0346630859375,-0.0193046875,-0.0049521484375,-0.316,-0.198,-0.124,-0.054,0.301,-0.285,0.074,[-0.18478409],[-0.13911593],[-0.29713235],[-0.15230918],[0.09971824],[-0.12574135],[-0.0201488],-19.244,-44.484,-6.036,-14.544,1.972,-0.14,0.0
24,-0.035201171875,-0.014283203125,-0.084455078125,-0.0180380859375,0.036109375,-0.0215771484375,-0.0037255859375,-0.408,-0.021,-0.503,-0.333,0.041,-0.115,0.05,[-0.28867932],[-0.0594052],[-0.42150331],[-0.06995409],[0.08408937],[0.02861365],[0.10286545],-16.748,-40.06,-3.284,-9.056,2.524,0.004,0.172
25,-0.040353515625,-0.0161357421875,-0.0861875,-0.0177490234375,0.041466796875,-0.0217841796875,-0.0026923828125,-0.449,-0.13,-0.273,-0.115,0.254,-0.125,0.06,[-0.3424033],[-0.03803649],[-0.51869019],[-0.17329669],[0.13604528],[0.07476564],[-0.06309665],-17.384,-39.248,-6.912,-13.332,1.188,0.224,0.036
26,-0.0448935546875,-0.0164443359375,-0.090951171875,-0.02151171875,0.038162109375,-0.0211640625,-0.0026923828125,-0.488,-0.121,-0.301,-0.133,0.207,0.032,0.074,[-0.36109577],[-0.08531917],[-0.37960878],[0.05049752],[0.14370719],[-0.02442053],[0.00123731],-15.256,-43.352,-6.544,-14.108,1.964,-0.42,-0.032
27,-0.050251953125,-0.0173701171875,-0.0955625,-0.0229560546875,0.0394013671875,-0.022197265625,-0.0024853515625,-0.517,-0.04,-0.517,-0.323,-0.199,-0.008,-0.001,[-0.32142941],[-0.18303489],[-0.21948483],[-0.08091656],[0.03291154],[-0.0252819],[0.03737419],-10.952,-46.916,-3.932,-13.172,3.096,-0.304,0.16
28,-0.0625234375,-0.01860546875,-0.1069501953125,-0.02759375,0.039607421875,-0.0215771484375,-0.002279296875,-0.585,-0.05,-0.594,-0.25,0.015,0.061,0.018,[-0.46738877],[-0.16971803],[-0.24436432],[-0.03224005],[0.02077168],[0.04190068],[-0.08618221],-7.336,-46.592,-4.232,-12.532,2.828,-0.544,0.016
29,-0.0687109375,-0.02097265625,-0.1104150390625,-0.0259970703125,0.0429130859375,-0.0226103515625,-0.0020859375,-0.615,-0.102,-0.55,-0.144,-0.016,-0.079,-0.02,[-0.18316028],[-0.2299864],[-0.30626311],[-0.08728078],[0.12052227],[0.13227104],[-0.20864798],-7.812,-46.968,-4.648,-13.148,2.184,0.108,0.096
30,-0.0747890625,-0.02293359375,-0.1148818359375,-0.0259970703125,0.041466796875,-0.0209580078125,-0.00187890625,-0.614,-0.245,-0.339,0.134,0.199,0.004,0.026,[-0.1185742],[-0.23092863],[-0.36145161],[0.10884478],[0.279408],[-0.04541572],[-0.10090171],-8.08,-46.916,-7.216,-17.264,1.664,-0.18,-0.036
31,-0.0877744140625,-0.0277705078125,-0.1209453125,-0.0252744140625,0.0404345703125,-0.0190986328125,-0.0020859375,-0.659,-0.248,-0.313,0.038,-0.077,0.09,-0.01,[-0.4438888],[-0.22846552],[-0.44222236],[0.12296529],[0.08626598],[-0.0724651],[-0.10640169],-2.708,-47.888,-4.576,-19.46,3.096,-0.948,0.012
32,-0.09355078125,-0.029623046875,-0.125412109375,-0.02657421875,0.0404345703125,-0.0188916015625,-0.0033115234375,-0.636,-0.245,-0.274,0.052,0.187,0.032,-0.037,[-0.24594234],[-0.26624677],[-0.56629665],[-0.0848467],[0.20707247],[0.02245695],[-0.0432845],2.176,-52.1,-7.26,-17.516,2.556,-0.604,-0.12
33,-0.1004580078125,-0.0329228515625,-0.129166015625,-0.0252744140625,0.040640625,-0.018685546875,-0.0047451171875,-0.647,-0.225,-0.448,-0.058,-0.026,0.013,-0.143,[-0.4030569],[-0.02439412],[-0.23611279],[0.01042725],[0.16556536],[-0.01522874],[0.11121489],8.028,-54.852,-6.82,-14.316,2.868,-0.116,0.016
34,-0.1062275390625,-0.0369365234375,-0.1337763671875,-0.0223779296875,0.0418798828125,-0.017033203125,-0.00619140625,-0.608,-0.383,-0.39,0.244,0.129,0.063,-0.143,[-0.30545097],[-0.04438652],[-0.34139223],[-0.09366648],[0.11743632],[0.05535005],[-0.08286025],10.896,-50.856,-8.208,-19.576,2.004,-0.276,-0.224
35,-0.111900390625,-0.0402353515625,-0.1398408203125,-0.0219453125,0.038162109375,-0.0149794921875,-0.008244140625,-0.577,-0.369,-0.542,0.163,-0.154,0.211,-0.177,[-0.47816659],[-0.20661284],[-0.28670319],[5.85134816e-05],[0.28953962],[0.07289616],[0.0046655],14.248,-48.86,-4.716,-17.424,3.948,-1.228,-0.116
36,-0.123033203125,-0.0458955078125,-0.1476279296875,-0.02165625,0.0433134765625,-0.013740234375,-0.009263671875,-0.549,-0.312,-0.351,0.078,0.285,0.069,-0.048,[-0.35201979],[-0.05818262],[-0.32319597],[-0.07177901],[0.1909372],[-0.01353814],[0.05221089],9.568,-37.52,-4.972,-17.404,2.672,-1.156,-0.26
37,-0.1287001953125,-0.04702734375,-0.151958984375,-0.024697265625,0.0459990234375,-0.0153935546875,-0.010490234375,-0.582,-0.139,-0.465,-0.28,0.21,-0.03,-0.087,[-0.3323008],[-0.07634658],[-0.4441605],[0.03233448],[0.36264905],[0.03921377],[0.04318703],6.804,-38.224,-4.716,-10.884,2.484,-0.296,-0.076
38,-0.1338583984375,-0.048783203125,-0.155134765625,-0.0257080078125,0.050943359375,-0.015806640625,-0.0109033203125,-0.546,-0.137,-0.389,-0.212,0.424,-0.14,-0.087,[-0.27228844],[-0.04983846],[-0.26855606],[0.06740479],[0.12105878],[0.08558544],[0.05164364],4.944,-38.924,-6.776,-10.656,0.576,0.668,-0.16
39,-0.1385986328125,-0.0502236328125,-0.1604775390625,-0.0270166015625,0.0525966796875,-0.013947265625,-0.0111103515625,-0.524,-0.171,-0.393,-0.109,0.339,0.056,-0.036,[-0.41939868],[-0.06695277],[-0.27060518],[-0.13756616],[0.28609645],[0.03678684],[-0.07691993],3.136,-37.844,-5.92,-10.952,0.976,0.388,-0.14
40,-0.1439560546875,-0.0519736328125,-0.1658095703125,-0.0270166015625,0.05485546875,-0.0116748046875,-0.01131640625,-0.516,-0.152,-0.56,-0.094,0.149,0.212,-0.02,[-0.41707498],[-0.1475463],[-0.70693332],[-0.03085331],[0.14067222],[0.01268919],[-0.24051299],3.56,-36.224,-3.4,-11.204,2.408,-0.46,-0.084
41,-0.148599609375,-0.053826171875,-0.17057421875,-0.0258525390625,0.060419921875,-0.0110546875,-0.0102841796875,-0.471,-0.188,-0.51,0.077,0.411,0.153,0.029,[-0.43704897],[-0.09620337],[-0.36182408],[-0.13239769],[0.37798267],[0.05434925],[-0.00512371],3.188,-33.956,-3.376,-13.788,1.828,-0.504,-0.056
42,-0.1534365234375,-0.0545458984375,-0.1753388671875,-0.0270166015625,0.0641259765625,-0.0094150390625,-0.0098837890625,-0.478,-0.142,-0.465,0.011,0.449,0.099,0.082,[-0.37887869],[-0.12730917],[-0.40672779],[-0.10105949],[0.21433522],[0.00658175],[0.04859942],2.336,-34.012,-3.144,-12.304,2.232,-0.4,0.004
43,-0.157765625,-0.0555751953125,-0.179380859375,-0.0270166015625,0.0703095703125,-0.0087958984375,-0.0096767578125,-0.472,-0.076,-0.467,-0.093,0.486,0.135,0.041,[-0.48960184],[-0.2975333],[-0.48659441],[0.07647563],[0.23726105],[-0.08333159],[-0.04294702],5.208,-36.712,-4.16,-10.656,1.632,-0.408,0.024
44,-0.1619912109375,-0.0563984375,-0.1840009765625,-0.02671875,0.075875,-0.0085888671875,-0.009470703125,-0.425,-0.101,-0.415,0.035,0.636,0.018,0.017,[-0.32023519],[-0.04539382],[-0.31756012],[-0.012116],[0.04358812],[0.06621339],[-0.15146823],5.26,-37.576,-5.316,-13.08,1.02,0.292,-0.064
45,-0.1666279296875,-0.056501953125,-0.1893427734375,-0.0286044921875,0.0783408203125,-0.0046767578125,-0.0096767578125,-0.447,-0.048,-0.503,-0.074,0.372,0.181,0.003,[-0.07467825],[-0.04024769],[-0.27239556],[-0.09068891],[0.14793791],[0.05106405],[-0.01800253],3.08,-40.816,-3.284,-13.056,2.744,-0.524,-0.016
46,-0.1707578125,-0.057537109375,-0.193087890625,-0.0273046875,0.08514453125,-0.0040576171875,-0.009470703125,-0.449,-0.046,-0.481,-0.07,0.432,0.307,-0.011,[-0.17805601],[-0.03486028],[-0.49604671],[-0.04446531],[0.21215478],[-0.02162588],[-0.03809976],2.072,-45.62,-4.44,-13.972,2.688,-1.38,-0.036
47,-0.1782763671875,-0.0582578125,-0.2029052734375,-0.02759375,0.0915224609375,-0.0019912109375,-0.0111103515625,-0.414,-0.033,-0.518,-0.015,0.336,0.059,-0.083,[-0.31552798],[-0.19798594],[-0.39335256],[-0.07364093],[0.25396052],[0.00110232],[0.01867948],12.28,-43.296,-4.716,-14.728,2.88,-0.668,-0.088
48,-0.1809580078125,-0.05856640625,-0.2063701171875,-0.02773828125,0.0964677734375,7.421875e-05,-0.0119365234375,-0.315,-0.018,-0.442,-0.092,0.28,0.344,-0.107,[-0.4912995],[-0.21455554],[-0.41281813],[-0.06792136],[0.27625107],[0.01580178],[-0.10330876],29.08,-40.004,-5.456,-18.704,3.188,-1.696,-0.168
49,-0.1838466796875,-0.057845703125,-0.210701171875,-0.030345703125,0.1005859375,7.421875e-05,-0.01275,-0.261,0.006,-0.383,-0.099,0.49,0.085,-0.076,[-0.52508079],[-0.27217338],[-0.1366965],[-0.14835811],[0.00675922],[0.05430439],[0.00093286],32.54,-40.384,-6.752,-17.836,2.7,-0.94,-0.2
50,-0.185904296875,-0.057537109375,-0.214599609375,-0.0322314453125,0.106150390625,0.000474609375,-0.0131630859375,-0.267,0.072,-0.43,-0.269,0.439,0.024,-0.078,[-0.49027518],[0.01181471],[-0.32649826],[0.09230542],[0.30296498],[0.01143205],[-0.08971066],28.764,-43.676,-7.26,-12.484,2.252,-0.532,-0.096
51,-0.1874541015625,-0.058154296875,-0.2176318359375,-0.0323759765625,0.1100625,0.0006806640625,-0.013369140625,-0.177,-0.016,-0.346,-0.084,0.561,0.024,-0.027,[-0.3868756],[-0.37915768],[-0.25093759],[-0.06017958],[0.24405506],[-0.02838985],[0.00613743],18.5,-43.568,-8.164,-14.292,1.116,-0.056,-0.208
52,-0.1874541015625,-0.0586689453125,-0.2206630859375,-0.0341181640625,0.1082041015625,0.0037783203125,-0.0141962890625,-0.177,-0.059,-0.328,-0.094,0.101,0.128,-0.047,[-0.48121381],[-0.06008927],[-0.27146933],[0.01730638],[0.27101541],[0.07135888],[-0.05430525],18.5,-43.784,-4.16,-14.336,2.844,-0.624,-0.088
53,-0.188998046875,-0.0600068359375,-0.2209521484375,-0.033107421875,0.111302734375,0.005431640625,-0.0143896484375,-0.08,-0.087,-0.183,-0.073,-0.015,0.3,-0.062,[-0.41439278],[-0.03110782],[-0.42148577],[0.07201443],[0.19354626],[-0.06094365],[-0.15527763],9.676,-43.352,-3.816,-15.48,3.388,-1.78,-0.104
54,-0.188998046875,-0.0600068359375,-0.2209521484375,-0.033107421875,0.111302734375,0.005431640625,-0.0143896484375,-0.08,-0.087,-0.183,-0.073,-0.015,0.3,-0.062,[-0.25443825],[-0.25975613],[-0.4074599],[-0.18245473],[0.18778544],[0.01839012],[-0.13145618],9.676,-43.352,-3.816,-15.48,3.388,-1.78,-0.104
55,-0.190033203125,-0.0604189453125,-0.221384765625,-0.0335400390625,0.113974609375,0.0039853515625,-0.014802734375,-0.058,-0.111,-0.011,0.087,0.369,0.007,-0.023,[-0.4910092],[-0.14099601],[-0.23856013],[0.00980663],[0.19615619],[0.17420323],[-0.03299497],0.156,-43.404,-5.388,-17.264,2.236,-0.908,-0.24
56,-0.191474609375,-0.06155078125,-0.22238671875,-0.0338291015625,0.1199521484375,0.003365234375,-0.016236328125,-0.081,-0.051,-0.042,-0.038,0.322,0.01,-0.065,[-0.44998743],[-0.30930278],[-0.40507486],[-0.14707079],[0.38149994],[0.00474558],[-0.10124149],-8.4,-49.508,-7.332,-12.668,1.204,-0.452,-0.22
57,-0.1921943359375,-0.0624765625,-0.22570703125,-0.0339736328125,0.1176806640625,0.0037783203125,-0.017888671875,-0.061,-0.113,-0.145,0.109,0.197,-0.09,-0.117,[-0.516848],[-0.08667225],[-0.36243908],[-0.04216005],[0.30028835],[0.09645215],[-0.10089397],-6.964,-53.124,-7.816,-16.028,1.716,-0.036,-0.18
58,-0.1935322265625,-0.06453515625,-0.227583984375,-0.033107421875,0.11480078125,0.0076904296875,-0.0195283203125,-0.096,-0.123,-0.303,-0.011,-0.349,0.201,-0.182,[-0.3417556],[-0.38177969],[-0.40463573],[-0.02077902],[0.18525541],[0.1853293],[-0.19119866],-11.004,-53.612,-3.212,-16.692,4.216,-1.572,-0.052
59,-0.1946708984375,-0.0673193359375,-0.227873046875,-0.0310771484375,0.1166474609375,0.0085166015625,-0.0205478515625,-0.122,-0.256,-0.102,0.178,-0.042,0.302,-0.129,[-0.41373207],[-0.20152135],[-0.28578411],[-0.07474334],[0.22302822],[-0.12853397],[0.03834691],-15.896,-50.532,-4.068,-21.792,3.688,-2.392,-0.244
60,-0.1966259765625,-0.0683486328125,-0.2304716796875,-0.0333955078125,0.116853515625,0.007484375,-0.021787109375,-0.142,-0.205,-0.12,0.024,0.103,-0.024,-0.109,[-0.4201839],[-0.08998965],[-0.34501023],[-0.03571426],[0.31120974],[0.08842847],[0.02577445],-18.396,-52.208,-4.556,-18.408,3.668,-1.404,-0.148
61,-0.199,-0.069892578125,-0.2320595703125,-0.0351279296875,0.1199521484375,0.0078974609375,-0.023013671875,-0.229,-0.107,-0.254,-0.242,0.149,-0.057,-0.132,[-0.43976269],[-0.06605051],[-0.12607914],[0.07589496],[0.2949211],[0.14709016],[0.16974621],-18.024,-54.256,-4.624,-13.492,2.772,-0.772,-0.096
62,-0.2008515625,-0.0727744140625,-0.23321484375,-0.03455078125,0.1224189453125,0.0076904296875,-0.0238408203125,-0.209,-0.221,-0.118,-0.074,0.309,0.028,-0.102,[-0.34240312],[-0.11451669],[-0.35829024],[-0.10254077],[0.2175225],[0.01684703],[0.0119755],-16.48,-54.204,-7.864,-13.904,1.548,-0.356,-0.148
63,-0.2039453125,-0.075970703125,-0.2358134765625,-0.03455078125,0.1201591796875,0.0089296875,-0.024046875,-0.231,-0.303,-0.177,0.039,0.05,0.022,-0.059,[-0.37473036],[-0.21797396],[-0.27041052],[-0.09062559],[0.27143559],[0.08549855],[-0.02533069],-17.492,-53.34,-5.64,-15.824,2.496,-0.364,-0.104
64,-0.211162109375,-0.082248046875,-0.238845703125,-0.03426171875,0.122625,0.0107890625,-0.023220703125,-0.356,-0.329,-0.165,0.034,0.099,0.139,0.028,[-0.25650823],[-0.19437766],[-0.35043595],[-0.10178495],[0.25355071],[0.10885563],[-0.04586837],-16.64,-44.648,-2.172,-17.38,3.76,-1.82,0.036
65,-0.2161015625,-0.0836953125,-0.2417333984375,-0.0370146484375,0.128189453125,0.00913671875,-0.0221875,-0.429,-0.24,-0.13,-0.093,0.423,-0.135,0.087,[-0.13017584],[-0.10328757],[-0.30404222],[-0.0719212],[0.24245993],[-0.04234041],[-0.10991917],-14.992,-44.7,-5.132,-14.976,2.296,-0.7,0.0
66,-0.22569140625,-0.0890458984375,-0.2483828125,-0.0412099609375,0.1339482421875,0.00913671875,-0.0207548828125,-0.487,-0.252,-0.343,-0.24,0.278,-0.035,0.073,[-0.37363598],[-0.23504515],[-0.29858829],[0.02095411],[0.19668415],[0.04896367],[-0.02715224],-8.932,-50.424,-5.688,-12.872,2.128,-0.024,0.044
67,-0.2303291015625,-0.0921396484375,-0.2530029296875,-0.0426630859375,0.1364267578125,0.0124287109375,-0.0205478515625,-0.459,-0.368,-0.321,-0.056,0.305,0.186,0.064,[-0.38465393],[-0.13701642],[-0.27319777],[0.01752537],[0.2621168],[0.04668182],[-0.07133023],-2.392,-46.7,-4.348,-18.132,2.656,-1.116,-0.044
68,-0.2343486328125,-0.0946103515625,-0.2566123046875,-0.04497265625,0.1386865234375,0.0126357421875,-0.02116796875,-0.451,-0.273,-0.463,-0.221,0.174,0.245,-0.012,[-0.55216713],[-0.09314795],[-0.19586298],[-0.16273363],[0.3756592],[0.17964046],[-0.14319228],19.352,-43.028,-2.124,-15.528,4.204,-1.992,0.032
69,-0.237853515625,-0.097697265625,-0.2573349609375,-0.04497265625,0.1481630859375,0.0097568359375,-0.0213740234375,-0.371,-0.275,-0.239,-0.118,0.567,-0.133,-0.053,[-0.27426473],[-0.00738879],[-0.30220167],[0.01638025],[0.21486591],[0.16527541],[0.02715893],27.86,-41.356,-6.128,-18.132,2.668,-0.784,-0.084
70,-0.24155859375,-0.100173828125,-0.2595,-0.0474365234375,0.153521484375,0.00913671875,-0.02239453125,-0.367,-0.293,-0.118,-0.099,0.802,-0.208,-0.053,[-0.06342142],[0.04073263],[-0.10407191],[-0.07071141],[0.40043926],[0.18244795],[0.18710798],31.952,-41.68,-8.44,-12.964,1.38,-0.056,-0.088
71,-0.245373046875,-0.1077822265625,-0.2605107421875,-0.0451171875,0.164224609375,0.0105830078125,-0.0246533203125,-0.192,-0.411,-0.025,0.16,0.577,0.03,-0.115,[-0.17149757],[-0.11388019],[-0.07312226],[-0.10822285],[0.23039699],[0.03124893],[-0.09911102],32.164,-31.528,-6.244,-15.892,1.796,-0.192,-0.12
72,-0.247025390625,-0.1088173828125,-0.2625322265625,-0.0475810546875,0.168962890625,0.0132548828125,-0.0252734375,-0.163,-0.26,-0.122,-0.011,0.501,0.235,-0.098,[-0.3207444],[-0.27659109],[-0.03968324],[-0.22565402],[0.34961606],[0.02927882],[-0.00039219],28.764,-20.136,-0.392,-11.272,2.732,-0.908,-0.032
73,-0.247025390625,-0.1088173828125,-0.2625322265625,-0.0475810546875,0.168962890625,0.0132548828125,-0.0252734375,-0.163,-0.26,-0.122,-0.011,0.501,0.235,-0.098,[-0.48967322],[-0.10333714],[0.03511781],[-0.04011764],[0.46038967],[0.10050733],[-0.17989269],28.764,-20.136,-0.392,-11.272,2.732,-0.908,-0.032
74,-0.248466796875,-0.108296875,-0.2573349609375,-0.05294921875,0.190162109375,0.01408203125,-0.0236337890625,-0.068,0.012,0.267,-0.239,1.138,0.025,0.1,[-0.30428576],[-0.16478689],[-0.07549462],[-0.17546362],[0.22582894],[0.03416432],[-0.04529825],16.692,-14.792,-3.908,-3.84,-0.836,1.22,0.044
75,-0.2491865234375,-0.106650390625,-0.254447265625,-0.0574345703125,0.1953134765625,0.016353515625,-0.023013671875,-0.064,0.121,0.303,-0.4,0.818,0.096,0.076,[-0.42122203],[-0.19578114],[-0.05346848],[-0.11929024],[0.35099447],[0.06897818],[-0.03524581],11.856,-18.68,-2.796,-1.896,-0.608,1.744,0.148
76,-0.2491865234375,-0.1047978515625,-0.250837890625,-0.0610615234375,0.20169140625,0.021298828125,-0.0221875,-0.048,0.17,0.327,-0.432,0.521,0.367,0.06,[-0.09139677],[-0.25533988],[0.18245478],[0.01356937],[0.36812155],[0.14424087],[0.04040219],5.528,-22.888,-2.124,-4.436,0.624,0.636,0.12
77,-0.2488779296875,-0.1027392578125,-0.2463623046875,-0.0641025390625,0.2062236328125,0.024384765625,-0.021787109375,0.011,0.19,0.395,-0.327,0.595,0.427,0.079,[-0.35964251],[-0.19747499],[-0.03598283],[-0.09687419],[0.3857069],[0.11601016],[-0.08924395],-5.316,-28.396,-2.056,-9.216,1.404,-0.2,0.084
78,-0.248671875,-0.1002763671875,-0.2412998046875,-0.0672880859375,0.2117880859375,0.0264501953125,-0.0215810546875,0.025,0.23,0.471,-0.32,0.464,0.247,0.018,[-0.25129738],[-0.25713828],[0.1957521],[-0.14000464],[0.3363881],[0.13948875],[-0.00536165],-13.132,-35.524,-1.804,-10.404,2.636,-0.208,0.108
79,-0.2480546875,-0.0985205078125,-0.2343701171875,-0.069453125,0.218373046875,0.0293291015625,-0.0213740234375,0.035,0.217,0.599,-0.282,0.618,0.265,0.022,[-0.04696237],[-0.18439555],[-0.06532359],[-0.1293288],[0.4569331],[0.1382332],[-0.04253823],-16.004,-42.652,-3.352,-11.388,2.328,-0.648,0.084
80,-0.24712890625,-0.097697265625,-0.227583984375,-0.06959765625,0.224337890625,0.029123046875,-0.0213740234375,0.083,0.148,0.681,-0.155,0.652,0.163,0.016,[-0.30648304],[-0.07585068],[0.14671022],[0.02724361],[0.43665256],[0.16729918],[-0.00981163],-12.812,-48.156,-4.924,-9.9,1.6,-0.192,0.076
81,-0.2466142578125,-0.0982119140625,-0.220375,-0.066845703125,0.2294892578125,0.0297421875,-0.0213740234375,0.078,0.022,0.705,0.13,0.574,-0.033,-0.001,[-0.29167842],[-0.30512567],[0.17039111],[-0.14203419],[0.29698068],[0.07099197],[-0.09995629],-13.556,-50.532,-6.336,-12.552,1.272,0.732,0.064
82,-0.246716796875,-0.0994462890625,-0.207669921875,-0.0641025390625,0.2296953125,0.03819921875,-0.0213740234375,-0.004,-0.045,0.609,0.098,-0.055,0.501,-0.002,[-0.145062],[-0.11397903],[0.03680421],[0.05725875],[0.25839562],[-0.02587279],[0.16242294],-4.996,-55.5,-3.768,-18.684,4.524,-2.348,0.056
83,-0.2469228515625,-0.1007841796875,-0.1990068359375,-0.0612060546875,0.233814453125,0.037373046875,-0.0213740234375,-0.031,-0.121,0.777,0.27,0.268,0.056,-0.001,[-0.20851714],[-0.00891428],[0.18709308],[-0.0605629],[0.27946198],[-0.06388579],[-0.17107374],-3.456,-56.472,-6.244,-20.58,3.652,-1.22,0.032
84,-0.2478486328125,-0.1018134765625,-0.1910751953125,-0.0607724609375,0.235041015625,0.0390126953125,-0.02116796875,-0.049,-0.121,0.85,0.198,0.338,0.019,0.012,[0.06120366],[-0.16188364],[0.12549216],[0.04591898],[0.16436453],[0.15708672],[-0.08935114],-3.348,-59.82,-7.792,-19.048,2.772,-0.784,-0.012
85,-0.24836328125,-0.1034599609375,-0.1838564453125,-0.0596083984375,0.2344208984375,0.0406650390625,-0.02116796875,-0.083,-0.118,0.759,0.036,-0.015,0.179,-0.002,[-0.04210683],[-0.09651881],[0.04152532],[0.05906822],[0.26557903],[-0.05010132],[-0.06657554],2.976,-59.44,-6.52,-16.304,3.44,-1.216,0.108
86,-0.2481572265625,-0.1064443359375,-0.1767822265625,-0.056423828125,0.235041015625,0.040251953125,-0.0207548828125,-0.013,-0.236,0.719,0.234,0.045,0.068,0.036,[-0.22524106],[-0.24257884],[0.24051089],[-0.14723623],[0.32383315],[0.01348217],[-0.0176604],7.176,-50.912,-6.476,-19.576,2.772,-0.996,0.0
87,-0.24898046875,-0.108193359375,-0.1717294921875,-0.056568359375,0.2340205078125,0.0406650390625,-0.0207548828125,-0.02,-0.252,0.62,0.185,-0.016,-0.009,0.017,[-0.06075805],[-0.25407925],[0.12123915],[0.08503508],[0.31841663],[-0.00167431],[-0.17232206],7.656,-42.652,-2.912,-16.716,2.876,-0.968,0.004
88,-0.2479521484375,-0.1120078125,-0.1562900390625,-0.0552685546875,0.23751953125,0.0361337890625,-0.0207548828125,0.059,-0.2,0.771,0.098,0.302,-0.218,0.003,[-0.2493],[-0.19678786],[0.29323194],[-0.07191823],[0.48610473],[0.07019242],[0.00850592],14.14,-36.712,-6.476,-13.192,0.384,0.24,-0.036
89,-0.2481572265625,-0.112419921875,-0.1525361328125,-0.057732421875,0.2354541015625,0.035720703125,-0.0209609375,0.037,-0.134,0.633,-0.032,0.005,-0.297,-0.002,[-0.17501133],[-0.35740754],[0.2227412],[-0.02662385],[0.54274176],[-0.00825606],[0.01247856],12.864,-36.44,-5.712,-10.7,1.072,0.832,0.004
90,-0.2472314453125,-0.11406640625,-0.146193359375,-0.057732421875,0.233814453125,0.0369599609375,-0.0221875,0.009,-0.082,0.473,-0.188,-0.261,0.092,-0.069,[-0.1661926],[-0.32124946],[0.15246416],[-0.17691778],[0.30416006],[0.10033382],[-0.00791297],15.576,-36.496,-4.252,-7.772,2.4,-0.864,0.096
91,-0.2458876953125,-0.115712890625,-0.1394072265625,-0.0551240234375,0.2352470703125,0.032634765625,-0.0234267578125,0.12,-0.18,0.661,0.166,0.065,-0.135,-0.12,[-0.04896698],[-0.29601885],[0.12400828],[-0.01126955],[0.54917924],[0.06322819],[-0.08215682],10.208,-34.928,-5.388,-14.2,1.032,0.036,-0.128
92,-0.2451669921875,-0.115404296875,-0.135076171875,-0.0567119140625,0.2340205078125,0.0328408203125,-0.0246533203125,0.108,-0.089,0.6,0.074,-0.044,-0.274,-0.142,[-0.10576864],[-0.19151227],[0.25744154],[0.03920815],[0.29714472],[-0.05490359],[0.02824044],10.844,-38.548,-4.532,-11.912,2.308,0.036,0.012
93,-0.2451669921875,-0.115404296875,-0.135076171875,-0.0567119140625,0.2340205078125,0.0328408203125,-0.0246533203125,0.108,-0.089,0.6,0.074,-0.044,-0.274,-0.142,[-0.02194155],[-0.10224315],[0.24240466],[-0.16964864],[0.54010216],[-0.00145086],[-0.11071075],10.844,-38.548,-4.532,-11.912,2.308,0.036,0.012
94,-0.2416611328125,-0.1165361328125,-0.1228134765625,-0.055845703125,0.236486328125,0.0297421875,-0.0256865234375,0.183,-0.07,0.64,0.081,0.161,-0.189,-0.036,[-0.04723605],[-0.14174962],[0.34043226],[0.01004495],[0.33411336],[0.30806544],[0.1447191],8.984,-45.836,-5.804,-16.832,1.952,-0.056,-0.14
95,-0.2398095703125,-0.1169541015625,-0.11748046875,-0.056134765625,0.2373134765625,0.030775390625,-0.026099609375,0.18,-0.028,0.527,-0.02,0.073,-0.112,-0.056,[-0.01655066],[-0.2743017],[0.2206868],[-0.15861178],[0.52989845],[0.01912176],[0.00108408],10.524,-50.964,-5.78,-13.972,3.02,-0.54,0.004
96,-0.2369208984375,-0.11901171875,-0.1108388671875,-0.05352734375,0.239779296875,0.0303623046875,-0.026099609375,0.225,-0.112,0.587,0.099,0.214,0.066,-0.022,[-0.10379778],[-0.14697453],[0.09740311],[0.01073953],[0.65424379],[0.07731307],[-0.17102832],11.112,-53.448,-6.868,-18.864,2.604,-1.008,-0.068
97,-0.234142578125,-0.120453125,-0.105939453125,-0.05309375,0.2401923828125,0.0305693359375,-0.0265,0.297,-0.194,0.614,0.192,0.138,-0.061,-0.025,[0.00578171],[-0.37854708],[0.23550252],[0.00289393],[0.39824799],[0.02124589],[-0.09044924],10.368,-55.716,-6.428,-22.412,3.632,-0.772,-0.068
98,-0.2274404296875,-0.1244658203125,-0.094119140625,-0.0526611328125,0.24822265625,0.0313955078125,-0.0265,0.332,-0.207,0.604,0.034,0.408,0.099,-0.001,[0.08953503],[-0.26833499],[0.35465005],[-0.01590617],[0.42669201],[0.09123085],[-0.00522284],11.536,-59.548,-6.752,-23.256,3.676,-1.62,-0.104
99,-0.2241416015625,-0.1263251953125,-0.0886416015625,-0.0538154296875,0.252328125,0.0311884765625,-0.0265,0.371,-0.202,0.583,-0.002,0.479,-0.167,-0.001,[0.10957049],[-0.29318291],[0.11348934],[-0.10996937],[0.27144977],[0.06308372],[-0.16413028],11.004,-60.144,-7.84,-20.488,3.86,-0.572,-0.052
100,-0.220224609375,-0.1296181640625,-0.082154296875,-0.0533828125,0.2574794921875,0.03303515625,-0.02670703125,0.35,-0.235,0.577,-0.077,0.497,0.106,-0.013,[0.15262325],[-0.25405768],[0.21121707],[-0.11251095],[0.4904588],[0.20431218],[0.01431188],12.016,-60.792,-8.372,-17.744,3.2,-1.288,-0.088
101,-0.21579296875,-0.13342578125,-0.0765234375,-0.05178515625,0.2620244140625,0.03180859375,-0.0269130859375,0.426,-0.366,0.63,0.113,0.501,0.042,-0.025,[-0.07816998],[-0.24998798],[0.35143188],[-0.0768271],[0.44853378],[0.17034479],[-0.0990212],12.864,-56.308,-8.188,-20.764,2.864,-0.604,-0.136
102,-0.2116767578125,-0.1367255859375,-0.072056640625,-0.0528056640625,0.264490234375,0.03448046875,-0.0279462890625,0.428,-0.364,0.525,0.057,0.317,0.007,-0.062,[-0.09141559],[-0.2155489],[0.44157211],[-0.06912201],[0.57007215],[0.04082259],[-0.04625927],15.576,-53.504,-6.752,-19.576,3.616,-0.812,-0.036
103,-0.207142578125,-0.14012109375,-0.0674453125,-0.05352734375,0.269228515625,0.0359267578125,-0.028759765625,0.429,-0.322,0.424,-0.112,0.376,0.275,-0.096,[0.10461913],[-0.28228116],[0.23221032],[-0.00746755],[0.30445543],[0.13176267],[0.08899259],14.352,-52.424,-5.272,-18.156,3.232,-1.684,-0.136
104,-0.2027109375,-0.1437294921875,-0.0631142578125,-0.0539599609375,0.2749873046875,0.03448046875,-0.02937890625,0.46,-0.365,0.472,-0.04,0.51,-0.025,-0.078,[0.15918647],[-0.21056726],[0.21774749],[-0.40968569],[0.11175442],[0.07709961],[0.02585417],7.124,-50.048,-6.06,-18.66,2.74,-0.284,-0.096
105,-0.198279296875,-0.1473310546875,-0.058359375,-0.055990234375,0.2780732421875,0.0377861328125,-0.0303994140625,0.438,-0.358,0.452,-0.124,0.467,0.05,-0.074,[0.22470359],[-0.22966872],[0.38532825],[-0.04365755],[0.39163484],[0.19943966],[-0.09232335],2.708,-48.212,-5.316,-15.024,2.804,-0.608,-0.052
106,-0.1932236328125,-0.151248046875,-0.053458984375,-0.0568564453125,0.2823984375,0.0388056640625,-0.0303994140625,0.469,-0.366,0.466,-0.164,0.397,0.285,-0.055,[0.21382897],[-0.38233335],[0.26866021],[-0.11346802],[0.46427001],[0.05857854],[-0.06577805],2.124,-45.456,-4.116,-14.2,2.504,-1.1,-0.096
107,-0.1932236328125,-0.151248046875,-0.053458984375,-0.0568564453125,0.2823984375,0.0388056640625,-0.0303994140625,0.469,-0.366,0.466,-0.164,0.397,0.285,-0.055,[0.03874503],[-0.34520965],[0.52516724],[-0.01494664],[0.52988534],[0.31210999],[-0.0151076],2.124,-45.456,-4.116,-14.2,2.504,-1.1,-0.096
108,-0.182919921875,-0.15824609375,-0.0448056640625,-0.0612060546875,0.2896025390625,0.04128515625,-0.0303994140625,0.52,-0.352,0.43,-0.2,0.394,0.109,-0.001,[0.14245553],[-0.10164584],[0.29885674],[-0.15923397],[0.35871736],[0.1149745],[-0.11762103],0.584,-36.656,-3.328,-11.66,2.224,-0.576,-0.044
109,-0.177453125,-0.1616484375,-0.0404833984375,-0.0632275390625,0.294947265625,0.041078125,-0.0303994140625,0.518,-0.319,0.409,-0.321,0.352,0.184,-0.001,[0.23280179],[-0.22096999],[0.39162509],[-0.14030042],[0.4391053],[0.13452288],[-0.11888443],1.86,-37.088,-3.468,-9.764,1.776,-0.46,-0.036
110,-0.177453125,-0.1616484375,-0.0404833984375,-0.0632275390625,0.294947265625,0.041078125,-0.0303994140625,0.518,-0.319,0.409,-0.321,0.352,0.184,-0.001,[0.25600875],[-0.30317157],[0.28249107],[0.00075629],[0.51206415],[-0.14592547],[-0.09872533],1.86,-37.088,-3.468,-9.764,1.776,-0.46,-0.036
111,-0.166943359375,-0.16803515625,-0.032263671875,-0.0672880859375,0.301119140625,0.04314453125,-0.0303994140625,0.531,-0.319,0.402,-0.191,0.385,0.079,-0.001,[0.13482663],[-0.23166947],[0.35565618],[-0.23885482],[0.29176104],[0.07973953],[-0.2351122],-1.328,-33.364,-3.56,-8.528,0.936,0.252,-0.064
112,-0.1614765625,-0.17101953125,-0.0280859375,-0.0687314453125,0.3035849609375,0.044990234375,-0.03060546875,0.506,-0.295,0.403,-0.223,0.133,0.224,-0.014,[0.20856417],[-0.21027075],[0.39724787],[-0.21394092],[0.53021915],[0.20238289],[-0.1895573],1.06,-32.392,-3.12,-9.148,2.048,-0.42,-0.032
113,-0.1614765625,-0.17101953125,-0.0280859375,-0.0687314453125,0.3035849609375,0.044990234375,-0.03060546875,0.506,-0.295,0.403,-0.223,0.133,0.224,-0.014,[0.3605772],[-0.22211757],[0.53741334],[0.07601181],[0.50119578],[0.19535849],[-0.15787698],1.06,-32.392,-3.12,-9.148,2.048,-0.42,-0.032
114,-0.1501435546875,-0.1755478515625,-0.0181416015625,-0.07047265625,0.3105830078125,0.0439580078125,-0.0310185546875,0.57,-0.237,0.492,-0.085,0.37,-0.052,-0.014,[0.36953011],[-0.15830101],[0.45039522],[-0.15633883],[0.44276368],[0.16141049],[-0.01700609],10.152,-32.068,-4.924,-8.504,0.844,0.232,-0.108
115,-0.1443740234375,-0.17771484375,-0.01309765625,-0.0713388671875,0.3126484375,0.0439580078125,-0.0322451171875,0.577,-0.204,0.501,-0.097,0.3,-0.072,-0.083,[0.25426595],[-0.21385045],[0.46597948],[-0.06740421],[0.39369257],[0.15738284],[-0.14816215],8.56,-32.608,-6.288,-10.22,0.888,0.48,-0.068
116,-0.13334375,-0.179669921875,-0.0042998046875,-0.076275390625,0.3151142578125,0.046642578125,-0.035951171875,0.541,-0.092,0.428,-0.303,0.014,0.188,-0.198,[0.26004406],[-0.15596768],[0.44656526],[-0.22005755],[0.35570214],[0.25670821],[0.00720449],-0.264,-33.416,-1.384,-7.772,2.604,-1.012,0.052
117,-0.1266416015625,-0.1815224609375,0.002322265625,-0.074966796875,0.320873046875,0.0433505859375,-0.0375908203125,0.62,-0.141,0.563,-0.035,0.477,-0.116,-0.172,[0.07663676],[-0.08567856],[0.44762357],[0.06822157],[0.40499572],[0.27026974],[0.03329256],0.688,-30.556,-4.74,-8.576,0.376,0.44,-0.064
118,-0.1205576171875,-0.1821396484375,0.0067890625,-0.0755439453125,0.322318359375,0.0433505859375,-0.03923046875,0.655,-0.133,0.575,0.077,0.433,-0.244,-0.16,[0.32049934],[-0.39225176],[0.36852196],[-0.01566308],[0.30558179],[0.07763568],[-0.16639376],2.124,-29.692,-4.764,-7.752,-0.408,1.448,-0.084
119,-0.1147880859375,-0.1827578125,0.0118330078125,-0.076419921875,0.320873046875,0.0472626953125,-0.0406630859375,0.591,-0.056,0.477,-0.096,-0.042,0.193,-0.17,[0.28251157],[-0.26929803],[0.45893591],[-0.09803558],[0.59270325],[0.11731156],[-0.08924019],4.04,-29.044,-2.636,-7.544,1.448,-0.052,0.052
120,-0.1089091796875,-0.1831689453125,0.0177431640625,-0.0759775390625,0.322318359375,0.049109375,-0.041283203125,0.592,-0.061,0.537,-0.031,-0.007,0.342,-0.106,[0.15645691],[-0.26256627],[0.25466041],[-0.15512726],[0.40420504],[0.01356316],[-0.02979507],-4.676,-26.884,-1.78,-9.948,1.816,-0.768,-0.016
121,-0.1034423828125,-0.1827578125,0.023365234375,-0.0761220703125,0.3241650390625,0.048501953125,-0.0420966796875,0.568,-0.011,0.582,0.027,0.166,0.046,-0.071,[0.16044873],[-0.36482993],[0.32510983],[-0.1405628],[0.31647001],[0.10737326],[-0.08369375],-10.368,-30.612,-3.376,-8.436,1.156,0.292,-0.016
122,-0.0977763671875,-0.18244921875,0.0284091796875,-0.0755439453125,0.3258173828125,0.0501416015625,-0.0427158203125,0.557,0.044,0.552,0.0,0.166,0.048,-0.078,[0.28200615],[-0.41443076],[0.51221198],[-0.04447264],[0.38062536],[0.02023722],[0.09731278],-9.196,-34.768,-5.064,-7.112,0.748,0.452,0.0
123,-0.092412109375,-0.1828603515625,0.03403125,-0.073369140625,0.3249912109375,0.051794921875,-0.04312890625,0.561,-0.001,0.522,0.136,0.097,0.16,-0.052,[0.34464426],[-0.22349841],[0.31675395],[-0.18317677],[0.25986725],[0.1578114],[-0.11191162],-7.124,-37.792,-5.736,-10.86,0.924,0.448,-0.024
124,-0.0816904296875,-0.1822431640625,0.04425390625,-0.0732255859375,0.3200458984375,0.059412109375,-0.04312890625,0.54,0.035,0.488,-0.021,-0.32,0.443,-0.001,[0.44611336],[-0.38395109],[0.3654198],[0.10822913],[0.3963079],[0.01965437],[-0.03321897],-1.592,-47.456,-4.0,-16.9,4.088,-1.924,0.052
125,-0.07644140625,-0.1821396484375,0.051021484375,-0.0717724609375,0.32314453125,0.0577724609375,-0.04312890625,0.532,0.026,0.648,0.069,0.072,0.089,-0.001,[0.32685726],[-0.38263218],[0.39169155],[0.04697064],[0.52943496],[0.12359509],[-0.07354739],-4.2,-50.1,-7.26,-17.836,2.824,-0.784,-0.024
126,-0.07138671875,-0.1810078125,0.05519921875,-0.072927734375,0.32314453125,0.057978515625,-0.04312890625,0.53,0.052,0.589,0.05,0.205,-0.111,-0.001,[0.19171774],[-0.34142459],[0.42730577],[-0.16549218],[0.17110047],[0.2881476],[-0.20525298],-4.252,-50.748,-7.792,-16.532,1.676,0.264,-0.016
127,-0.0617001953125,-0.182037109375,0.0639794921875,-0.0703291015625,0.320666015625,0.061064453125,-0.04312890625,0.487,-0.038,0.422,0.116,-0.088,0.175,-0.001,[0.29727092],[-0.24503662],[0.58301318],[-0.07325734],[0.5106522],[0.114383],[0.01726343],4.732,-52.64,-6.196,-16.42,2.356,-0.524,0.012
128,-0.0571591796875,-0.18306640625,0.0680126953125,-0.068298828125,0.31840625,0.061890625,-0.04312890625,0.501,-0.136,0.464,0.297,-0.113,0.031,-0.001,[0.35552971],[-0.32076615],[0.29894261],[0.04253362],[0.21763445],[0.05564836],[-0.0290585],2.976,-50.912,-6.152,-20.4,2.76,-0.156,-0.016
129,-0.0527275390625,-0.18368359375,0.0726240234375,-0.0690205078125,0.313875,0.0664228515625,-0.0441494140625,0.441,-0.08,0.413,0.067,-0.343,0.257,-0.036,[0.44908654],[-0.48914305],[0.46703735],[-0.08560929],[0.33244234],[0.05851406],[-0.16255409],-1.06,-52.044,-4.348,-18.476,4.228,-1.456,0.004
130,-0.0479873046875,-0.18471875,0.078236328125,-0.0685869140625,0.314701171875,0.0668359375,-0.0445625,0.455,-0.076,0.501,-0.027,-0.223,0.324,-0.08,[0.33730956],[-0.03298154],[0.23991701],[-0.19853195],[0.53692886],[0.22238382],[-0.3142927],-3.508,-51.128,-4.116,-19.048,3.656,-1.78,-0.084
131,-0.04334375,-0.1852333984375,0.0837138671875,-0.06930859375,0.3151142578125,0.065802734375,-0.0449755859375,0.478,-0.094,0.582,0.011,0.049,-0.064,-0.054,[0.37472342],[-0.23852348],[0.23369165],[-0.09349046],[0.39786909],[-0.11613144],[-0.0470422],-4.412,-49.832,-6.612,-17.676,2.936,-0.232,-0.036
132,-0.0388095703125,-0.18616015625,0.0887490234375,-0.0703291015625,0.314701171875,0.0672490234375,-0.045388671875,0.46,-0.054,0.515,-0.107,0.032,0.01,-0.036,[0.32154987],[-0.10168563],[0.23977118],[-0.21742887],[0.32456959],[0.18916986],[-0.14073946],-1.648,-51.668,-7.516,-12.964,2.024,-0.172,-0.064
133,-0.0340693359375,-0.188115234375,0.0924931640625,-0.06930859375,0.314701171875,0.067662109375,-0.0462021484375,0.465,-0.136,0.466,-0.016,-0.031,0.112,-0.05,[0.19751703],[-0.25123499],[0.33651151],[-0.20452746],[0.31431496],[0.17156764],[-0.08643924],0.9,-49.724,-7.492,-15.092,1.832,-0.088,-0.12
134,-0.0252001953125,-0.1893505859375,0.0971044921875,-0.072783203125,0.311615234375,0.0730205078125,-0.051546875,0.442,-0.055,0.187,-0.191,-0.18,0.315,-0.267,[0.48421192],[-0.33057772],[0.44101482],[0.02121668],[0.42388696],[-0.04413454],[-0.10937751],1.648,-40.816,-2.588,-13.836,3.46,-1.56,-0.064
135,-0.02025390625,-0.1898642578125,0.100560546875,-0.074091796875,0.31552734375,0.070541015625,-0.0536005859375,0.471,-0.042,0.309,-0.2,0.157,0.068,-0.254,[0.41507937],[-0.34225191],[0.34899761],[0.12370138],[0.39718049],[0.13287737],[-0.04799438],0.744,-41.408,-5.04,-14.408,2.1,-0.844,-0.128
136,-0.0111787109375,-0.191099609375,0.108771484375,-0.0796044921875,0.31552734375,0.0738330078125,-0.0574990234375,0.45,-0.044,0.388,-0.315,0.004,0.163,-0.202,[0.54568137],[-0.37013773],[0.44805278],[0.11302713],[0.33902269],[0.22452279],[-0.29003033],3.456,-47.672,-6.936,-12.872,2.204,-0.316,-0.032
137,-0.006123046875,-0.1929580078125,0.1122275390625,-0.0791630859375,0.3173740234375,0.073626953125,-0.05851953125,0.474,-0.132,0.398,-0.117,0.08,0.24,-0.145,[0.49535541],[-0.21441607],[0.35124705],[-0.05489855],[0.42077966],[0.16174102],[-0.12874228],4.092,-47.672,-7.216,-15.32,2.128,-0.856,-0.068
138,-0.006123046875,-0.1929580078125,0.1122275390625,-0.0791630859375,0.3173740234375,0.073626953125,-0.05851953125,0.474,-0.132,0.398,-0.117,0.08,0.24,-0.145,[0.29665982],[-0.31713797],[0.12200991],[-0.16932106],[0.34278848],[0.11028876],[-0.18994416],4.092,-47.672,-7.216,-15.32,2.128,-0.856,-0.068
139,-0.0013828125,-0.1949072265625,0.1155390625,-0.0785849609375,0.3179931640625,0.0732265625,-0.0589326171875,0.494,-0.193,0.344,0.067,0.11,-0.086,-0.076,[0.50917557],[-0.32451931],[0.28968193],[-0.12414987],[0.45106202],[0.22359871],[-0.11623819],3.612,-46.916,-7.216,-16.512,2.532,0.096,-0.016
140,0.003458984375,-0.1968623046875,0.11841796875,-0.0784404296875,0.3192333984375,0.0765185546875,-0.059345703125,0.48,-0.187,0.296,0.029,0.119,0.141,-0.035,[0.50875879],[-0.202798],[0.36411698],[-0.16629282],[0.49044892],[0.10009545],[-0.29086008],2.868,-45.996,-5.064,-14.612,2.42,-0.784,-0.084
141,0.00830859375,-0.1988173828125,0.12057421875,-0.07757421875,0.32169921875,0.075486328125,-0.0597587890625,0.489,-0.209,0.287,0.05,0.149,0.167,-0.034,[0.39152383],[-0.39482407],[0.26529664],[-0.00305825],[0.45963244],[0.37323057],[-0.10929349],2.284,-43.244,-4.832,-15.368,2.48,-0.968,-0.068
142,0.0132548828125,-0.2004638671875,0.122875,-0.0780078125,0.3227314453125,0.0756923828125,-0.060572265625,0.495,-0.184,0.217,0.035,0.18,-0.095,-0.057,[0.48473777],[-0.3508113],[0.30901643],[-0.33107341],[0.47623563],[-0.0112166],[-0.21323596],2.392,-43.512,-5.016,-14.908,2.524,-0.128,-0.036
143,0.01820703125,-0.2017060546875,0.1241748046875,-0.0787294921875,0.3258173828125,0.076931640625,-0.0609853515625,0.493,-0.143,0.172,-0.062,0.229,0.091,-0.065,[0.3406655],[-0.18387703],[0.13679],[-0.42009405],[0.3485379],[0.07672719],[-0.21110511],2.924,-44.108,-4.508,-13.696,1.832,-0.608,-0.108
144,0.023359375,-0.2032490234375,0.125609375,-0.0788740234375,0.3280771484375,0.0763125,-0.06241796875,0.504,-0.143,0.154,-0.049,0.238,0.047,-0.098,[0.45778682],[-0.1737277],[0.22646808],[-0.005415],[0.38099932],[0.04018171],[-0.02732974],3.772,-42.92,-4.856,-13.056,2.128,-0.368,-0.024
145,0.028517578125,-0.2052041015625,0.127775390625,-0.0784404296875,0.33054296875,0.077345703125,-0.0638515625,0.523,-0.168,0.165,0.011,0.249,-0.017,-0.131,[0.35327535],[-0.23632197],[0.1380329],[-0.25386306],[0.46210032],[0.27104211],[0.00406376],3.348,-44.268,-5.664,-13.764,1.976,0.068,-0.032
146,0.038828125,-0.207056640625,0.1283525390625,-0.08234765625,0.3319892578125,0.0812568359375,-0.0673505859375,0.524,-0.102,0.033,-0.191,0.028,0.21,-0.179,[0.45910017],[-0.24354498],[0.21842845],[-0.10337415],[0.45642466],[-0.09182499],[-0.1110607],2.176,-42.596,-3.4,-16.168,3.436,-1.092,0.036
147,0.0442880859375,-0.207673828125,0.130076171875,-0.0843779296875,0.3365078125,0.0812568359375,-0.0685771484375,0.526,-0.046,0.049,-0.274,0.182,0.091,-0.177,[0.43228273],[-0.37269459],[0.10900015],[-0.28564086],[0.32046715],[0.21239693],[-0.1768201],2.176,-41.572,-3.376,-13.172,2.752,-0.996,0.036
148,0.050064453125,-0.2081884765625,0.131375,-0.0859755859375,0.3416591796875,0.0793984375,-0.068783203125,0.564,-0.065,0.173,-0.166,0.534,-0.083,-0.084,[0.46003945],[-0.34470492],[0.18590214],[-0.13994154],[0.22227287],[0.28578687],[-0.20664136],1.168,-41.084,-6.452,-12.828,0.844,-0.024,-0.012
149,0.0606826171875,-0.2094296875,0.1319443359375,-0.0901708984375,0.343298828125,0.082896484375,-0.068990234375,0.531,-0.043,0.002,-0.246,0.074,0.194,-0.013,[0.25538345],[-0.19702294],[0.00105152],[-0.13405202],[0.42127236],[0.05581612],[-0.06415568],2.176,-43.784,-4.972,-11.8,2.048,-0.636,0.044
150,0.0606826171875,-0.2094296875,0.1319443359375,-0.0901708984375,0.343298828125,0.082896484375,-0.068990234375,0.531,-0.043,0.002,-0.246,0.074,0.194,-0.013,[0.28729403],[-0.21774899],[0.057779],[-0.12220596],[0.22468945],[0.09997484],[-0.07761301],2.176,-43.784,-4.972,-11.8,2.048,-0.636,0.044
151,0.0715078125,-0.2112822265625,0.1316640625,-0.092779296875,0.3439189453125,0.083310546875,-0.0694033203125,0.548,-0.108,0.001,-0.114,-0.003,-0.041,-0.023,[0.49189259],[-0.2963627],[-0.03575676],[-0.2265905],[0.3554667],[0.10194159],[0.07623426],0.796,-44.324,-5.204,-15.868,3.0,-0.396,0.036
152,0.0770771484375,-0.21148828125,0.130220703125,-0.09509765625,0.3465908203125,0.0843427734375,-0.069609375,0.543,-0.029,-0.093,-0.248,0.142,0.151,-0.036,[0.48210173],[-0.28193561],[0.09440017],[-0.06624976],[0.34969175],[0.15949792],[-0.06603507],0.584,-44.54,-5.688,-12.736,2.14,-1.136,0.016
153,0.08275,-0.21210546875,0.1282080078125,-0.09640625,0.3470048828125,0.0812568359375,-0.0698037109375,0.566,-0.038,-0.167,-0.182,0.192,-0.093,-0.016,[0.3256615],[-0.40706831],[0.16948115],[-0.02437188],[0.42996326],[0.19374861],[-0.06628337],0.156,-43.676,-6.452,-12.304,1.38,0.076,0.016
154,0.0880048828125,-0.212826171875,0.1261865234375,-0.0978505859375,0.346384765625,0.083103515625,-0.0698037109375,0.551,-0.066,-0.202,-0.137,-0.026,-0.139,-0.014,[0.39695744],[-0.36434872],[0.0971808],[-0.23769693],[0.22095209],[0.16444795],[-0.20156125],0.956,-43.296,-5.988,-12.6,1.816,0.376,0.052
155,0.0932666015625,-0.21385546875,0.1238857421875,-0.0985810546875,0.3447451171875,0.0853759765625,-0.0698037109375,0.53,-0.084,-0.232,-0.126,-0.094,0.268,-0.001,[0.50043245],[-0.31090902],[0.04835311],[-0.28521226],[0.392337],[0.00671104],[-0.11114959],1.276,-43.836,-4.88,-13.172,2.324,-1.188,0.032
156,0.09852734375,-0.2159130859375,0.12301953125,-0.0975615234375,0.3439189453125,0.0839296875,-0.0698037109375,0.532,-0.148,-0.179,-0.003,-0.151,0.039,-0.001,[0.31454512],[-0.31861874],[0.21872586],[-0.14560833],[0.38290147],[0.24869176],[-0.16474178],0.264,-45.456,-4.576,-13.996,2.88,-0.552,0.068
157,0.10398828125,-0.2183896484375,0.12330859375,-0.09655078125,0.34433203125,0.0859951171875,-0.0698037109375,0.537,-0.233,-0.019,0.121,-0.007,-0.016,-0.001,[0.62743899],[-0.14269884],[0.07939462],[-0.1620115],[0.30907],[0.03934003],[-0.15854199],-0.528,-45.78,-6.268,-17.38,2.392,-0.524,0.024
158,0.1092490234375,-0.219521484375,0.1218740234375,-0.0984365234375,0.341453125,0.08744140625,-0.0698037109375,0.54,-0.191,-0.05,-0.016,-0.081,0.212,-0.001,[0.33569335],[-0.27735865],[-0.0329998],[0.03550779],[0.30242954],[0.01294581],[-0.07912312],-0.052,-45.348,-4.9,-17.08,2.928,-1.26,0.004
159,0.114716796875,-0.2210654296875,0.122162109375,-0.1000244140625,0.3406259765625,0.087841796875,-0.0704228515625,0.536,-0.12,-0.092,-0.206,-0.272,0.081,-0.022,[0.31896289],[-0.38949924],[-0.02391707],[-0.22458388],[0.47903998],[0.16955639],[-0.19112365],0.212,-47.832,-3.72,-14.568,3.644,-0.98,0.116
160,0.1204921875,-0.223123046875,0.12359765625,-0.099880859375,0.3437119140625,0.088875,-0.07104296875,0.566,-0.19,0.109,-0.069,0.123,0.082,-0.061,[0.50255197],[-0.45401171],[0.05938724],[-0.14810924],[0.24842527],[0.03037585],[-0.02312903],-0.636,-45.728,-6.912,-15.756,2.06,-0.864,-0.036
161,0.1257470703125,-0.22415234375,0.1217294921875,-0.1016220703125,0.3426796875,0.087841796875,-0.0724755859375,0.563,-0.16,0.006,-0.067,0.15,0.017,-0.1,[0.30217114],[-0.60015794],[0.10928852],[-0.26585007],[0.38549806],[0.14114439],[0.06872684],-0.848,-43.192,-6.82,-11.5,1.268,-0.076,0.004
162,0.130802734375,-0.2261142578125,0.1194189453125,-0.1013330078125,0.3426796875,0.0890810546875,-0.0733017578125,0.512,-0.13,-0.225,-0.113,-0.092,-0.025,-0.12,[0.28802308],[-0.29862872],[0.07213209],[-0.18083761],[0.41202612],[0.1665073],[-0.06175792],-0.316,-44.432,-6.288,-9.056,1.528,0.2,0.096
163,0.1359609375,-0.2290986328125,0.1171181640625,-0.099447265625,0.34124609375,0.0907333984375,-0.074322265625,0.514,-0.256,-0.218,0.125,-0.016,0.163,-0.093,[0.26411687],[-0.39208256],[0.17658406],[-0.29388526],[0.35077377],[0.18984771],[-0.1704],-0.744,-41.896,-6.82,-14.36,1.5,-0.556,-0.052
164,0.1404951171875,-0.23115625,0.1146728515625,-0.099880859375,0.3365078125,0.0919736328125,-0.0749423828125,0.496,-0.266,-0.247,0.1,-0.31,0.13,-0.088,[0.33760445],[-0.2530219],[0.06083053],[-0.08760474],[0.35629895],[0.04438152],[0.12349963],-3.348,-41.032,-3.512,-16.464,3.592,-0.884,0.044
165,0.1453447265625,-0.23290625,0.114240234375,-0.100890625,0.3371279296875,0.094439453125,-0.0749423828125,0.463,-0.187,-0.17,-0.089,-0.282,0.204,-0.036,[0.44016844],[-0.29486076],[-0.02708389],[-0.19579631],[0.30243988],[-0.04041176],[-0.10366143],-8.716,-42.652,-2.68,-15.46,3.912,-2.004,0.12
166,0.1507021484375,-0.2344560546875,0.1149619140625,-0.10234375,0.3385732421875,0.0923740234375,-0.0749423828125,0.508,-0.178,0.012,-0.102,0.135,0.06,0.01,[0.23227746],[-0.32696884],[-0.04209948],[-0.28046873],[0.40767138],[0.07936089],[-0.21813199],-9.356,-44.0,-5.388,-16.876,2.812,-1.476,0.036
167,0.159880859375,-0.237234375,0.1152509765625,-0.1071171875,0.340419921875,0.0938193359375,-0.074115234375,0.459,-0.128,0.032,-0.275,0.082,0.109,0.025,[0.3825703],[-0.42412148],[0.03461822],[-0.18712583],[0.37430475],[0.4430288],[-0.16089988],-5.58,-50.372,-8.672,-12.644,1.932,-1.0,0.148
168,0.1641123046875,-0.2394990234375,0.1125078125,-0.1077041015625,0.3387802734375,0.0917666015625,-0.074115234375,0.448,-0.204,-0.124,-0.106,0.066,0.021,0.061,[0.2574533],[-0.37021002],[0.15127299],[-0.34900164],[0.27242758],[0.33782507],[-0.10712271],-5.316,-49.94,-8.672,-17.012,2.132,-0.44,0.104
169,0.1676181640625,-0.241248046875,0.1081943359375,-0.1104560546875,0.3365078125,0.094439453125,-0.0745283203125,0.396,-0.211,-0.345,-0.141,-0.232,-0.061,-0.013,[0.31283865],[-0.48220347],[0.17294289],[-0.22060184],[0.41180709],[0.17748821],[-0.09170385],-7.496,-51.344,-6.96,-20.284,3.676,-0.552,0.076
170,0.1712255859375,-0.243416015625,0.1048828125,-0.1134873046875,0.33507421875,0.0979384765625,-0.07616796875,0.35,-0.182,-0.413,-0.308,-0.201,0.386,-0.096,[0.30764745],[-0.27392515],[0.10474133],[-0.20753939],[0.43199925],[0.09719209],[-0.19143242],-6.06,-54.796,-5.432,-19.184,4.436,-2.824,-0.004
171,0.17524609375,-0.24660546875,0.1040166015625,-0.1146513671875,0.33671484375,0.095265625,-0.0776142578125,0.388,-0.266,-0.232,-0.219,-0.024,0.056,-0.164,[0.36970221],[-0.23428582],[0.2212323],[-0.19366773],[0.40593286],[0.12079488],[-0.25211318],-4.676,-55.66,-6.82,-21.68,3.976,-1.312,0.032
172,0.181748046875,-0.2521689453125,0.103150390625,-0.1230615234375,0.3371279296875,0.10308984375,-0.081513671875,0.316,-0.262,-0.053,-0.462,0.014,0.463,-0.194,[0.16900004],[-0.30269155],[0.23650089],[0.02076688],[0.37421656],[0.15055255],[-0.14923957],-6.22,-55.716,-6.844,-15.068,3.476,-1.78,-0.004
173,0.1855625,-0.2561826171875,0.103150390625,-0.1250830078125,0.338986328125,0.1026767578125,-0.0845859375,0.343,-0.346,-0.034,-0.324,0.055,0.193,-0.247,[0.21484786],[-0.53092555],[0.03850153],[-0.26978524],[0.29603965],[0.1435066],[-0.09939517],-1.22,-47.456,-5.964,-16.852,3.104,-0.716,-0.064
174,0.1885537109375,-0.2589677734375,0.1035830078125,-0.129865234375,0.3400068359375,0.105568359375,-0.0886923828125,0.358,-0.361,0.015,-0.296,0.164,0.072,-0.35,[0.04083409],[-0.38782468],[0.14496707],[-0.14741108],[0.45092898],[0.12677322],[-0.07292319],-0.584,-39.572,-4.996,-15.48,2.812,-0.212,-0.064
175,0.1908173828125,-0.2620546875,0.1053154296875,-0.1337724609375,0.343505859375,0.1080341796875,-0.09300390625,0.266,-0.275,0.083,-0.498,0.181,0.331,-0.441,[0.28356193],[-0.25268113],[0.05810095],[-0.06577298],[0.2585838],[0.00179004],[-0.09665772],-9.144,-37.088,-3.952,-6.288,2.112,-0.896,-0.032
176,0.1908173828125,-0.2620546875,0.1053154296875,-0.1337724609375,0.343505859375,0.1080341796875,-0.09300390625,0.266,-0.275,0.083,-0.498,0.181,0.331,-0.441,[0.1240736],[-0.35448604],[0.09776284],[-0.13622556],[0.16467431],[0.10793345],[-0.24785698],-9.144,-37.088,-3.952,-6.288,2.112,-0.896,-0.032
177,0.194740234375,-0.2705966796875,0.108771484375,-0.1362353515625,0.3476240234375,0.1088603515625,-0.09875,0.212,-0.451,0.204,-0.092,0.225,-0.045,-0.297,[0.24213432],[-0.432655],[0.22165575],[-0.0045432],[0.26414074],[0.13061177],[-0.1786418],-24.456,-25.264,-3.908,-9.168,1.28,1.196,-0.116
178,0.19576953125,-0.2732724609375,0.1084833984375,-0.1384013671875,0.349470703125,0.113392578125,-0.1003896484375,0.114,-0.33,0.04,-0.246,-0.01,0.448,-0.218,[0.14877964],[-0.48724238],[0.05173937],[-0.1826214],[0.47918618],[0.28569621],[-0.16895656],-18.712,-24.348,-1.432,-4.892,1.996,-1.292,-0.064
179,0.197216796875,-0.2765712890625,0.1081943359375,-0.1376796875,0.3525556640625,0.1074150390625,-0.1024423828125,0.13,-0.298,-0.048,-0.081,0.309,0.015,-0.16,[0.09112216],[-0.36052156],[0.13615407],[-0.26847832],[0.2741105],[0.28204164],[-0.09560395],-16.908,-24.024,-3.42,-6.152,0.46,-0.244,-0.18
180,0.197525390625,-0.2793505859375,0.1084833984375,-0.13753515625,0.3527626953125,0.1047421875,-0.10594140625,0.104,-0.315,0.009,0.05,0.158,-0.588,-0.288,[0.22876299],[-0.32984111],[0.09453826],[-0.16530502],[0.35371381],[-0.08346222],[-0.07916365],-18.872,-24.832,-4.532,-5.26,0.304,2.076,-0.024
181,0.197216796875,-0.28212890625,0.108626953125,-0.137390625,0.3525556640625,0.108447265625,-0.10861328125,-0.001,-0.28,0.031,0.005,0.012,0.076,-0.323,[0.04048761],[-0.340845],[0.06476278],[-0.11109596],[0.29998664],[0.21338137],[-0.09196473],-18.288,-27.048,-3.816,-4.044,0.544,0.004,-0.088
182,0.1965927734375,-0.2849140625,0.1084833984375,-0.1371015625,0.3490576171875,0.1080341796875,-0.1102529296875,-0.037,-0.288,-0.01,0.041,-0.132,0.203,-0.209,[0.07305798],[-0.21481191],[0.45719071],[-0.1964465],[0.29309848],[0.02670348],[0.02652523],-17.756,-29.584,-3.188,-12.416,1.944,-0.5,-0.116
183,0.1952548828125,-0.28583984375,0.1079052734375,-0.139998046875,0.3457646484375,0.110306640625,-0.110666015625,-0.094,-0.203,-0.042,-0.101,-0.404,0.024,-0.12,[0.05652573],[-0.17427643],[0.08839029],[-0.15699898],[0.25648525],[0.1177301],[-0.21760007],-13.504,-35.684,-2.288,-16.396,3.748,-0.644,0.016
184,0.192779296875,-0.2890302734375,0.1100625,-0.140287109375,0.3484501953125,0.0985576171875,-0.1104599609375,-0.119,-0.151,0.11,-0.029,0.174,-0.599,0.008,[0.25599235],[-0.30016526],[0.14928573],[-0.19997438],[0.32561752],[0.07420063],[-0.15887455],-7.388,-50.156,-9.944,-13.948,1.432,0.752,0.052
185,0.190611328125,-0.29119140625,0.1107841796875,-0.1398544921875,0.346177734375,0.099796875,-0.1094267578125,-0.151,-0.244,0.14,0.134,-0.061,-0.602,0.062,[0.22249355],[-0.42816503],[0.34402344],[-0.12032455],[0.18240479],[0.24082136],[-0.10827808],-6.536,-44.648,-9.04,-15.732,1.484,1.24,0.068
186,0.190611328125,-0.29119140625,0.1107841796875,-0.1398544921875,0.346177734375,0.099796875,-0.1094267578125,-0.151,-0.244,0.14,0.134,-0.061,-0.602,0.062,[0.10298863],[-0.37294097],[0.09133067],[-0.05020698],[0.37725624],[0.18400703],[-0.10915865],-6.536,-44.648,-9.04,-15.732,1.484,1.24,0.068
187,0.187935546875,-0.2920205078125,0.1084833984375,-0.1420380859375,0.3418662109375,0.1026767578125,-0.1092333984375,-0.243,-0.154,-0.074,-0.078,-0.305,0.304,0.071,[0.02174722],[-0.28206848],[0.2531348],[-0.2319533],[0.31934281],[0.23832017],[-0.15863715],-4.784,-33.092,-2.124,-12.668,2.536,-2.016,0.036
188,0.185974609375,-0.2933583984375,0.10991796875,-0.1436259765625,0.3379541015625,0.0979384765625,-0.1094267578125,-0.251,-0.099,-0.097,-0.21,-0.5,-0.057,-0.003,[0.13512536],[-0.44278138],[0.4547841],[-0.12836939],[0.24743915],[0.15461863],[-0.19775628],-2.924,-30.504,-0.02,-11.64,4.0,-1.208,0.108
189,0.18452734375,-0.29428515625,0.1135185546875,-0.14463671875,0.343298828125,0.0958857421875,-0.1092333984375,-0.171,-0.127,0.261,-0.112,0.034,-0.4,-0.007,[0.10000805],[-0.39470087],[0.29599711],[-0.24883835],[0.31225956],[0.14647776],[-0.11653436],-0.316,-29.64,-5.04,-11.088,1.08,0.056,0.088
190,0.1819541015625,-0.2940791015625,0.11539453125,-0.1468115234375,0.343298828125,0.0932001953125,-0.1092333984375,-0.188,-0.043,0.301,-0.163,0.386,-0.195,0.015,[0.29228506],[-0.20202692],[0.10449001],[-0.13118003],[0.26204722],[0.12168904],[-0.11229509],-2.02,-30.828,-7.54,-5.028,-1.052,1.028,0.016
191,0.1791689453125,-0.2950048828125,0.1176962890625,-0.148263671875,0.3385732421875,0.0948525390625,-0.1096337890625,-0.275,-0.019,0.196,-0.211,-0.26,-0.161,-0.016,[-0.00026096],[-0.48715669],[0.09863321],[-0.22751898],[0.34516223],[0.14593159],[-0.1167234],-2.656,-31.312,-4.88,-3.724,0.296,1.78,0.12
192,0.1764873046875,-0.2969599609375,0.1210078125,-0.147388671875,0.336107421875,0.101037109375,-0.10983984375,-0.271,-0.148,0.275,-0.045,-0.364,0.407,-0.025,[0.09462314],[-0.36768135],[0.19668481],[-0.13175082],[0.20966265],[0.13052484],[-0.08465643],-5.048,-29.26,-2.98,-9.672,1.208,-0.304,0.004
193,0.173599609375,-0.297578125,0.1237412109375,-0.1479658203125,0.33075,0.103708984375,-0.1104599609375,-0.279,-0.154,0.32,0.063,-0.37,0.494,-0.034,[-0.09170984],[-0.52614981],[0.16674396],[-0.12273656],[0.30990121],[-0.02105441],[-0.22319877],-7.708,-29.152,-1.408,-14.476,2.812,-1.104,-0.068
194,0.16978515625,-0.2969599609375,0.132521484375,-0.14999609375,0.3346611328125,0.106794921875,-0.111892578125,-0.186,0.04,0.438,-0.14,0.164,0.228,-0.081,[0.09030065],[-0.23920496],[0.19381869],[-0.13356104],[0.25651199],[0.43239803],[-0.11423936],3.932,-38.116,-6.868,-9.536,0.7,-0.26,-0.012
195,0.1673095703125,-0.2969599609375,0.136265625,-0.150140625,0.3326083984375,0.1059814453125,-0.111892578125,-0.207,-0.018,0.519,0.036,0.24,-0.052,-0.023,[-0.13063976],[-0.27955767],[0.46949246],[-0.23921058],[0.42519002],[0.15141456],[-0.10890826],1.116,-42.652,-10.22,-10.268,-0.624,1.776,-0.108
196,0.1641123046875,-0.2976806640625,0.1372763671875,-0.1494189453125,0.3280771484375,0.1113271484375,-0.112306640625,-0.281,-0.016,0.245,-0.017,-0.376,0.171,-0.016,[-0.03075639],[-0.37735784],[0.45242364],[-0.40256837],[0.2814756],[0.21367565],[0.00664852],0.528,-47.348,-7.424,-9.124,0.936,1.048,-0.012
197,0.1610185546875,-0.2999443359375,0.13914453125,-0.14551171875,0.3233388671875,0.1175107421875,-0.1125126953125,-0.323,-0.146,0.144,0.224,-0.461,0.606,-0.032,[-0.14444178],[-0.40489745],[0.35564628],[-0.08522175],[0.24329448],[0.21320981],[-0.09064416],-0.9,-45.62,-5.34,-15.116,2.496,-0.792,-0.036
198,0.157822265625,-0.301185546875,0.140876953125,-0.1436259765625,0.317787109375,0.1218359375,-0.1127197265625,-0.303,-0.196,0.156,0.35,-0.489,0.546,-0.015,[0.02678538],[-0.23916105],[0.22936347],[-0.17328968],[0.22451457],[0.25539901],[-0.09361016],-4.2,-39.736,-1.456,-21.68,3.964,-1.476,-0.104
199,0.154728515625,-0.300568359375,0.14446875,-0.1459453125,0.3153212890625,0.12698828125,-0.1127197265625,-0.326,-0.043,0.246,-0.003,-0.494,0.468,-0.016,[0.10359545],[-0.40360321],[0.36859851],[-0.00393116],[0.28909215],[0.14310075],[-0.2271423],-7.496,-44.376,-0.808,-20.328,4.996,-2.18,0.0
200,0.15235546875,-0.3004658203125,0.150658203125,-0.147677734375,0.317580078125,0.127607421875,-0.1127197265625,-0.279,0.048,0.475,-0.238,-0.014,0.38,-0.003,[0.12504754],[-0.38960631],[0.50980133],[-0.19177525],[0.21743421],[0.15725146],[-0.17900172],-11.8,-50.316,-5.528,-15.868,3.012,-2.128,-0.004
201,0.1490556640625,-0.3003623046875,0.1548359375,-0.148841796875,0.3190263671875,0.1245087890625,-0.112306640625,-0.276,0.006,0.57,-0.128,0.238,-0.177,0.017,[-0.0197446],[-0.56168652],[0.3610686],[-0.28518499],[0.2022995],[0.13679919],[-0.12051367],-16.96,-48.644,-9.828,-14.2,0.452,1.084,0.024
202,0.14059765625,-0.3037587890625,0.16289453125,-0.147677734375,0.3107890625,0.1368779296875,-0.1125126953125,-0.435,-0.145,0.381,-0.01,-0.476,0.711,-0.018,[0.08293367],[-0.35448746],[0.41603435],[-0.33771163],[0.20411486],[0.10760499],[-0.24804229],-10.74,-44.484,-4.0,-12.304,2.44,-1.684,0.056
203,0.1366806640625,-0.3064345703125,0.1680732421875,-0.1449345703125,0.3060634765625,0.1368779296875,-0.11292578125,-0.406,-0.323,0.543,0.376,-0.33,0.284,-0.012,[-0.10138159],[-0.4273028],[0.35527885],[-0.18754852],[0.06797597],[0.25023327],[-0.31886687],-6.804,-37.736,-4.692,-21.792,3.5,-0.98,-0.088
204,0.13255859375,-0.3060224609375,0.171529296875,-0.148408203125,0.3035849609375,0.140169921875,-0.1131328125,-0.404,-0.133,0.418,0.009,-0.4,0.111,-0.032,[0.13278439],[-0.56389761],[0.29008583],[-0.03163769],[0.20663256],[0.0997192],[0.02416696],2.552,-40.004,-2.24,-17.356,3.876,-1.152,-0.024
205,0.1291494140625,-0.305919921875,0.1775751953125,-0.15116015625,0.305857421875,0.1395498046875,-0.1139462890625,-0.388,0.044,0.456,-0.36,-0.07,0.274,-0.053,[0.1028073],[-0.39648216],[0.55609465],[-0.36401929],[0.16407878],[0.17888383],[-0.24769214],8.132,-44.0,-4.856,-11.66,2.328,-1.956,-0.032
206,0.1257470703125,-0.306640625,0.1840537109375,-0.1527490234375,0.3052373046875,0.132953125,-0.116412109375,-0.337,-0.037,0.649,-0.199,0.163,-0.397,-0.143,[0.16638083],[-0.36325339],[0.29427419],[-0.09615433],[0.13508488],[0.11732618],[-0.0834129],7.496,-45.62,-9.968,-13.444,0.556,1.3,-0.116
207,0.1216240234375,-0.30694921875,0.1879345703125,-0.156078125,0.3021513671875,0.138310546875,-0.1219638671875,-0.374,-0.045,0.531,-0.249,-0.18,0.357,-0.283,[-0.08973523],[-0.21491644],[0.20622522],[-0.20825387],[0.29856063],[0.18517326],[-0.12109768],8.08,-48.804,-9.272,-10.908,0.824,-1.084,-0.044
208,0.11461328125,-0.31189453125,0.197435546875,-0.154490234375,0.291861328125,0.1366708984375,-0.1238095703125,-0.358,-0.256,0.456,0.1,-0.499,0.023,-0.223,[-0.19123382],[-0.43008871],[0.37225322],[-0.07547836],[0.12355203],[0.17091245],[-0.15863022],15.044,-48.048,-5.108,-19.348,3.5,-0.636,-0.036
209,0.1121376953125,-0.31364453125,0.202615234375,-0.1552119140625,0.290208984375,0.137484375,-0.1248427734375,-0.273,-0.258,0.542,0.059,-0.474,-0.062,-0.165,[0.0551086],[-0.51538126],[0.42697114],[-0.24406599],[0.34849203],[0.36444854],[-0.03612299],20.148,-48.752,-5.204,-18.476,3.48,-1.124,-0.016
210,0.11017578125,-0.3147763671875,0.2063505859375,-0.1570888671875,0.290416015625,0.1343984375,-0.1248427734375,-0.234,-0.144,0.475,-0.129,-0.054,-0.035,-0.049,[0.04434959],[-0.24592289],[0.40755419],[-0.19437782],[0.287636],[0.10597367],[0.0449957],16.268,-48.048,-7.84,-13.492,1.536,-0.928,-0.052
211,0.1083232421875,-0.31662890625,0.209806640625,-0.1585419921875,0.2879501953125,0.130693359375,-0.125048828125,-0.185,-0.127,0.348,-0.179,-0.087,-0.412,-0.001,[0.13632353],[-0.41345012],[0.2720799],[-0.43923192],[0.19860888],[0.31829711],[-0.06203239],10.74,-48.644,-8.88,-10.22,1.012,1.196,0.0
212,0.106052734375,-0.3198251953125,0.212974609375,-0.1578193359375,0.2867236328125,0.1331591796875,-0.1246357421875,-0.208,-0.245,0.346,-0.057,-0.187,-0.103,-0.004,[0.03218921],[-0.34359323],[0.362853],[-0.29213872],[0.20531611],[0.32233554],[-0.16844631],5.42,-47.348,-9.18,-10.748,0.416,0.512,0.056
213,0.1036796875,-0.3232216796875,0.2157080078125,-0.1569443359375,0.2795185546875,0.1350185546875,-0.1227900390625,-0.234,-0.348,0.316,0.092,-0.404,0.252,0.088,[0.10680234],[-0.56862886],[0.29435426],[-0.15112022],[0.12173027],[0.0843359],[-0.06441141],1.54,-40.976,-6.128,-14.292,2.556,-0.68,0.136
214,0.1019296875,-0.3253828125,0.2184423828125,-0.1579638671875,0.275193359375,0.13727734375,-0.119498046875,-0.22,-0.285,0.228,0.023,-0.599,0.177,0.251,[0.08073721],[-0.4576013],[0.3867653],[-0.11915868],[0.13860061],[0.19295122],[-0.05408022],4.04,-34.336,-0.716,-17.036,3.916,-1.204,0.148
215,0.10089453125,-0.3261025390625,0.2230439453125,-0.1614384765625,0.2768330078125,0.13913671875,-0.116205078125,-0.148,-0.167,0.377,-0.207,-0.223,0.249,0.33,[0.0249625],[-0.48631175],[0.30079204],[-0.1040416],[0.29550801],[-0.01748448],[-0.1708196],3.932,-36.116,-3.168,-15.48,3.108,-1.736,0.172
216,0.0997626953125,-0.3262060546875,0.2283681640625,-0.1666533203125,0.27766015625,0.137484375,-0.11415234375,-0.106,-0.041,0.506,-0.428,0.165,0.02,0.283,[0.07204916],[-0.42364092],[0.44425324],[-0.13117837],[0.2443269],[0.12963701],[-0.16289032],-0.636,-40.708,-7.976,-10.152,1.268,0.252,0.208
217,0.0991455078125,-0.3271318359375,0.232392578125,-0.1699833984375,0.278279296875,0.13934375,-0.112099609375,-0.094,-0.026,0.447,-0.47,0.137,-0.054,0.22,[0.22374627],[-0.48304724],[0.36147558],[-0.10422358],[0.25754999],[0.25935746],[-0.14379188],3.08,-44.756,-9.32,-4.664,-0.628,1.476,0.192
218,0.0980126953125,-0.330212890625,0.2365615234375,-0.16926171875,0.276626953125,0.14222265625,-0.110046875,-0.081,-0.196,0.445,-0.182,-0.099,0.265,0.201,[0.06244988],[-0.34691702],[0.29368236],[-0.29083003],[0.05355444],[0.02309965],[-0.14413296],3.668,-43.192,-10.732,-6.172,-0.224,1.104,0.232
219,0.09543359375,-0.3374228515625,0.2430400390625,-0.166365234375,0.2671630859375,0.152732421875,-0.1092333984375,-0.134,-0.361,0.295,0.139,-0.55,0.545,0.033,[0.0263174],[-0.42706],[0.57966386],[-0.15918849],[0.28926358],[0.03609143],[-0.08887133],9.248,-37.412,-1.456,-13.424,3.428,-1.312,0.18
220,0.09543359375,-0.3374228515625,0.2430400390625,-0.166365234375,0.2671630859375,0.152732421875,-0.1092333984375,-0.134,-0.361,0.295,0.139,-0.55,0.545,0.033,[-0.02396785],[-0.28238324],[0.29782852],[-0.33308389],[0.14876337],[0.42109161],[0.03907061],9.248,-37.412,-1.456,-13.424,3.428,-1.312,0.18
221,0.09543359375,-0.3397900390625,0.246919921875,-0.1654990234375,0.2688154296875,0.1531455078125,-0.1096337890625,-0.057,-0.311,0.376,0.134,-0.116,0.398,-0.011,[-0.02075218],[-0.57851554],[0.40225159],[-0.23946371],[0.2123052],[0.0112981],[-0.25041822],11.428,-37.736,-3.628,-15.3,2.576,-1.292,0.016
222,0.0956396484375,-0.340818359375,0.25051171875,-0.1685400390625,0.26654296875,0.1514931640625,-0.1112861328125,0.011,-0.186,0.384,-0.076,0.033,-0.087,-0.088,[0.18253173],[-0.24744324],[0.48995275],[-0.2545725],[0.27252306],[0.1540945],[-0.37890994],9.304,-42.436,-6.868,-13.88,1.848,0.084,0.012
223,0.095125,-0.342369140625,0.254400390625,-0.1710029296875,0.26531640625,0.1512861328125,-0.1125126953125,-0.01,-0.102,0.344,-0.326,-0.207,-0.105,-0.168,[0.01212917],[-0.33105025],[0.27982299],[-0.15128403],[0.24812453],[0.10234488],[-0.25395843],2.764,-49.292,-6.592,-9.808,1.552,0.096,0.068
224,0.0943984375,-0.3447353515625,0.257279296875,-0.1714365234375,0.26387109375,0.15169921875,-0.1125126953125,-0.063,-0.205,0.393,-0.131,-0.101,0.009,-0.073,[0.3105163],[-0.40411219],[0.44346929],[-0.11830061],[0.39792004],[0.23630136],[-0.14644427],-5.528,-46.484,-8.164,-14.016,0.896,0.108,-0.032
225,0.09378125,-0.34669140625,0.259291015625,-0.1736103515625,0.256447265625,0.1537646484375,-0.1137392578125,-0.066,-0.229,0.248,-0.129,-0.451,0.095,-0.028,[0.21584157],[-0.34603626],[0.3854721],[-0.09335585],[0.09965971],[0.41151637],[-0.12422072],-3.72,-45.188,-5.204,-14.52,3.476,-0.356,0.064
226,0.0941923828125,-0.3497783203125,0.26518359375,-0.1766513671875,0.2576865234375,0.1504599609375,-0.121150390625,0.018,-0.173,0.337,-0.137,0.016,-0.081,-0.372,[0.08954598],[-0.41036703],[0.37657348],[-0.20030903],[0.21371672],[0.26244207],[-0.02006729],-2.336,-33.956,-3.72,-11.82,1.696,-0.628,-0.116
227,0.0945009765625,-0.35101953125,0.2687841796875,-0.1789619140625,0.2572734375,0.147787109375,-0.12544921875,0.03,-0.107,0.305,-0.223,0.104,-0.489,-0.466,[-0.03870776],[-0.26793384],[0.41949715],[-0.11198924],[0.21053253],[0.22100588],[-0.24226919],-1.008,-35.36,-5.572,-5.304,0.732,1.412,0.084
228,0.0946044921875,-0.353283203125,0.27280859375,-0.1789619140625,0.258306640625,0.14983984375,-0.1283291015625,0.03,-0.164,0.367,-0.142,0.065,-0.033,-0.372,[0.08890771],[-0.51227321],[0.5190818],[-0.19003817],[0.36781152],[0.28538612],[-0.13318507],1.22,-33.848,-6.728,-3.52,-0.664,1.228,-0.052
229,0.0943984375,-0.3557529296875,0.275822265625,-0.1785283203125,0.255220703125,0.1539716796875,-0.1316083984375,-0.006,-0.249,0.378,0.03,-0.068,0.607,-0.18,[0.24076506],[-0.41043426],[0.35560595],[-0.19653371],[0.18558301],[0.11911775],[-0.34595074],5.688,-30.504,-6.012,-4.848,-0.26,0.5,0.056
230,0.0941923828125,-0.3582294921875,0.27926953125,-0.177517578125,0.2515146484375,0.1628154296875,-0.1316083984375,-0.022,-0.25,0.308,0.057,-0.381,0.607,-0.18,[0.22815105],[-0.27296193],[0.59351544],[-0.18537794],[0.20565523],[0.33109543],[-0.3294548],9.78,-27.748,-3.584,-5.144,1.24,0.5,0.056
231,0.093986328125,-0.3601845703125,0.2834384765625,-0.1754873046875,0.2517216796875,0.16920703125,-0.131814453125,-0.024,-0.223,0.359,0.153,-0.178,0.833,-0.068,[0.14877944],[-0.4031765],[0.24690406],[-0.20684107],[0.11633374],[0.14666692],[-0.31864957],8.612,-23.212,-2.68,-5.624,0.74,-0.576,-0.032
232,0.095845703125,-0.3615224609375,0.2933642578125,-0.1750546875,0.2511015625,0.17991015625,-0.13407421875,0.096,-0.072,0.493,0.015,-0.051,0.528,-0.092,[0.16998354],[-0.54784883],[0.29706443],[-0.44438053],[0.21466846],[0.281217],[-0.11225709],10.684,-27.372,-5.18,-5.784,0.78,0.096,-0.076
233,0.0972861328125,-0.361111328125,0.2976767578125,-0.1759208984375,0.2506884765625,0.1840283203125,-0.1381796875,0.123,0.004,0.492,-0.046,0.069,0.584,-0.253,[0.36268059],[-0.31623426],[0.25087788],[-0.20708431],[0.13614875],[0.32851315],[-0.01314116],12.12,-32.984,-6.452,-6.172,0.088,0.108,-0.156
234,0.099248046875,-0.3604931640625,0.299544921875,-0.1770849609375,0.24822265625,0.1869072265625,-0.1459775390625,0.164,0.039,0.361,-0.094,-0.161,0.36,-0.565,[0.19847643],[-0.39234935],[0.32840327],[-0.19643082],[-0.01304746],[0.35246666],[-0.11312978],14.036,-40.328,-9.32,-9.008,0.504,0.604,-0.108
235,0.1011064453125,-0.3595673828125,0.299255859375,-0.1789619140625,0.2422451171875,0.18938671875,-0.1564482421875,0.19,0.084,0.083,-0.148,-0.366,0.271,-0.935,[0.11167344],[-0.32166897],[0.4263305],[-0.28162055],[0.17343086],[0.20596604],[-0.12246801],14.46,-49.4,-10.104,-12.14,1.516,0.148,0.012
236,0.103576171875,-0.359361328125,0.2988232421875,-0.17925,0.2368994140625,0.1918525390625,-0.1642470703125,0.209,0.072,-0.051,-0.141,-0.61,0.246,-0.947,[0.21658269],[-0.45459622],[0.33697149],[-0.18359242],[0.272624],[0.3831068],[-0.16730461],15.844,-55.336,-8.188,-14.656,3.084,-0.728,0.044
237,0.106669921875,-0.3595673828125,0.299111328125,-0.1785283203125,0.2340205078125,0.1924716796875,-0.168958984375,0.279,-0.008,-0.001,0.027,-0.418,0.188,-0.651,[0.12402008],[-0.34289497],[0.34018883],[-0.37003355],[0.27033312],[0.25848845],[-0.16906577],16.692,-53.072,-8.788,-17.884,2.764,-1.02,-0.052
238,0.1138935546875,-0.3591552734375,0.301990234375,-0.183310546875,0.22228515625,0.1953515625,-0.1724580078125,0.353,0.026,0.121,-0.246,-0.639,0.149,-0.204,[0.28953231],[-0.32054853],[0.49622043],[-0.32543383],[-0.1018218],[0.22917023],[-0.26566578],12.652,-45.296,-4.368,-14.04,3.004,-1.02,-0.036
239,0.1179130859375,-0.3591552734375,0.30500390625,-0.185765625,0.2194052734375,0.1945380859375,-0.172044921875,0.404,0.014,0.263,-0.278,-0.404,0.144,-0.017,[0.15236657],[-0.33713076],[0.41483991],[-0.06916085],[0.02326766],[0.05621759],[-0.01815202],7.76,-45.132,-7.608,-13.356,2.164,-0.72,0.032
240,0.1250263671875,-0.35760546875,0.3068720703125,-0.195041015625,0.207669921875,0.199056640625,-0.1693720703125,0.349,0.084,0.082,-0.486,-0.615,0.188,0.123,[0.14720305],[-0.27591516],[0.35140332],[-0.21634389],[-0.11326169],[0.03244588],[-0.03628432],-1.804,-44.052,-4.484,-11.34,2.38,-0.492,0.172
241,0.128943359375,-0.3578115234375,0.310751953125,-0.19837109375,0.2002587890625,0.2002958984375,-0.1685595703125,0.372,0.026,0.226,-0.425,-0.717,0.41,0.133,[0.23072505],[-0.44592154],[0.41246845],[-0.30807851],[0.28357112],[0.2732654],[-0.15694929],-2.552,-39.572,-3.7,-13.308,2.688,-1.416,0.168
242,0.13317578125,-0.3570908203125,0.3173662109375,-0.2063388671875,0.1914013671875,0.197830078125,-0.1630078125,0.408,0.037,0.343,-0.417,-0.459,-0.093,0.248,[-0.04855663],[-0.33687793],[0.16129751],[-0.16260009],[-0.01171791],[0.27201433],[-0.24908556],-3.508,-34.28,-4.556,-7.156,0.596,-0.332,0.24
243,0.1419423828125,-0.3575029296875,0.320822265625,-0.2095244140625,0.1837841796875,0.193091796875,-0.159521484375,0.438,0.025,0.292,-0.368,-0.486,-0.27,0.385,[0.15644429],[-0.54912663],[0.3472492],[-0.26699847],[0.08489968],[0.2609984],[-0.39823042],-4.04,-35.468,-5.388,-6.952,0.172,0.76,0.292
244,0.1459619140625,-0.3586416015625,0.32426953125,-0.2116982421875,0.1769931640625,0.1943310546875,-0.15603515625,0.422,-0.079,0.357,-0.279,-0.782,-0.284,0.345,[0.35910513],[-0.44042772],[0.35750294],[-0.17437936],[0.01431463],[0.13555573],[-0.07894027],-3.932,-41.572,-6.244,-12.072,1.84,0.772,0.368
245,0.148953125,-0.359361328125,0.3265703125,-0.2135849609375,0.171634765625,0.1976240234375,-0.153982421875,0.365,-0.104,0.314,-0.207,-0.611,0.272,0.289,[0.21572651],[-0.13395632],[0.34673228],[-0.06397736],[-0.04868735],[0.17114373],[-0.12170751],-7.496,-45.728,-6.288,-15.916,2.536,-1.196,0.208
246,0.1514287109375,-0.360390625,0.3282939453125,-0.214306640625,0.16627734375,0.1957646484375,-0.1543955078125,0.273,-0.07,0.187,-0.161,-0.544,0.113,0.113,[0.12141944],[-0.4086718],[0.54544555],[-0.33804327],[0.06400975],[0.19248733],[-0.06054531],-13.236,-50.372,-5.248,-15.32,2.98,-1.06,0.18
247,0.1541044921875,-0.3625517578125,0.33102734375,-0.2134404296875,0.1625712890625,0.196177734375,-0.155416015625,0.26,-0.151,0.216,0.001,-0.453,-0.133,-0.072,[0.30293742],[-0.37626296],[0.52067829],[-0.31832283],[0.08790798],[0.08574233],[-0.11442166],-10.1,-52.152,-7.168,-16.9,2.74,-0.428,0.104
248,0.1565810546875,-0.3635810546875,0.3308828125,-0.2131513671875,0.1596923828125,0.1963837890625,-0.1566552734375,0.268,-0.189,0.18,0.082,-0.342,0.076,-0.125,[0.13464182],[-0.47482104],[0.38528897],[-0.19561843],[-0.09114845],[0.06764425],[-0.05379518],-5.26,-44.916,-7.052,-16.328,2.236,-0.836,-0.016
249,0.158130859375,-0.3646103515625,0.331740234375,-0.214451171875,0.154333984375,0.196177734375,-0.158087890625,0.203,-0.084,-0.015,-0.053,-0.421,-0.029,-0.132,[0.14498191],[-0.41335073],[0.48907465],[-0.44013369],[0.06224065],[0.24524006],[-0.03268924],-11.056,-40.6,-3.076,-12.552,2.908,-0.384,0.172
250,0.1604013671875,-0.3670859375,0.3357646484375,-0.2145947265625,0.1526943359375,0.1984501953125,-0.158087890625,0.178,-0.165,0.216,-0.071,-0.334,0.092,-0.077,[0.2560453],[-0.33228267],[0.15712786],[-0.20342695],[-0.11517385],[0.23155541],[-0.20693101],-13.396,-38.98,-3.512,-15.068,2.324,-1.136,0.044
251,0.1623564453125,-0.3686298828125,0.338931640625,-0.2160478515625,0.1498154296875,0.1957646484375,-0.158294921875,0.224,-0.228,0.407,-0.067,-0.269,0.067,-0.012,[0.44789036],[-0.55379485],[0.40381048],[-0.28942311],[-0.00116414],[0.13164732],[-0.19384552],-10.26,-36.872,-5.18,-14.864,2.672,-1.424,0.056
252,0.1634951171875,-0.369453125,0.34237890625,-0.2186552734375,0.148369140625,0.1926787109375,-0.158294921875,0.165,-0.113,0.301,-0.2,-0.214,-0.362,-0.014,[0.30724612],[-0.27745968],[0.31631401],[-0.3694516],[-0.01224182],[0.25583539],[-0.19944172],-10.58,-41.14,-5.016,-12.14,2.252,0.192,0.14
253,0.1647294921875,-0.37037890625,0.3442470703125,-0.2203876953125,0.148783203125,0.192884765625,-0.1578818359375,0.115,-0.09,0.313,-0.228,-0.034,-0.13,0.023,[0.18013603],[-0.41581205],[0.30068742],[-0.22512356],[-0.13237579],[0.18201467],[-0.12256791],-11.908,-40.868,-7.884,-11.592,0.48,-0.272,0.064
254,0.16534765625,-0.3709970703125,0.3435341796875,-0.22299609375,0.1434248046875,0.1904189453125,-0.158087890625,0.101,-0.076,0.069,-0.222,-0.201,-0.101,0.015,[0.31442116],[-0.47848512],[0.46598715],[-0.20629604],[-0.10922748],[0.08266848],[-0.17242223],-6.484,-43.084,-7.676,-10.472,1.404,0.156,0.108
255,0.1658623046875,-0.372025390625,0.3432451171875,-0.2244482421875,0.1401328125,0.19205859375,-0.158087890625,0.055,-0.082,-0.059,-0.207,-0.491,-0.115,-0.015,[0.17237516],[-0.27525912],[0.44136353],[-0.1799051],[0.04491853],[0.09179849],[-0.1447781],-0.052,-41.948,-5.664,-12.92,2.472,0.064,0.172
256,0.1668974609375,-0.3726435546875,0.34295703125,-0.22719140625,0.13683984375,0.193298828125,-0.1578818359375,0.072,-0.086,-0.032,-0.192,-0.291,0.221,0.014,[0.24130643],[-0.47727904],[0.15463994],[-0.21407313],[0.0032934],[0.23128579],[-0.20973517],5.368,-39.088,-5.364,-13.08,2.232,-1.516,0.068
257,0.1682353515625,-0.373158203125,0.3435341796875,-0.2297998046875,0.13353515625,0.1887666015625,-0.158087890625,0.112,-0.051,-0.015,-0.285,-0.372,-0.18,-0.01,[0.07942742],[-0.45471318],[0.49725538],[-0.15739628],[-0.0708852],[0.05031202],[-0.20281831],9.408,-41.84,-5.016,-9.716,2.108,-0.224,0.148
258,0.1696826171875,-0.375119140625,0.34726953125,-0.230666015625,0.1321015625,0.1871142578125,-0.158087890625,0.144,-0.117,0.204,-0.196,-0.26,-0.348,-0.009,[0.20687969],[-0.29894451],[0.35452077],[-0.16233953],[0.16948534],[0.25164906],[-0.20773036],12.76,-41.356,-8.324,-8.116,0.844,0.292,0.14
259,0.1707119140625,-0.3761484375,0.348271484375,-0.231251953125,0.129015625,0.1832021484375,-0.1578818359375,0.134,-0.169,0.286,-0.056,-0.177,-0.244,0.014,[0.26034945],[-0.2452308],[0.56560913],[-0.17836208],[-0.06025008],[0.17911787],[-0.22448485],8.772,-34.984,-8.904,-7.292,-0.2,0.336,0.088
260,0.171431640625,-0.3773837890625,0.3491376953125,-0.231830078125,0.1222119140625,0.180736328125,-0.158087890625,0.089,-0.094,0.055,-0.08,-0.489,-0.395,-0.009,[0.07629913],[-0.37211133],[0.41163965],[-0.38483696],[-0.26469042],[0.32874849],[0.00245857],5.368,-35.092,-4.948,-5.12,0.772,0.98,0.168
261,0.1720498046875,-0.3799560546875,0.3521513671875,-0.2296552734375,0.11809375,0.1801162109375,-0.158294921875,0.072,-0.183,0.187,0.044,-0.581,-0.115,-0.022,[0.41247885],[-0.44284053],[0.47441285],[-0.1282772],[0.04520077],[0.30032877],[-0.15788038],-3.188,-32.608,-5.248,-7.772,0.896,-0.644,0.076
262,0.17287890625,-0.381087890625,0.353017578125,-0.22835546875,0.1125283203125,0.1753779296875,-0.1591083984375,0.063,-0.22,0.241,0.22,-0.455,-0.256,-0.047,[0.40504724],[-0.33677614],[0.36735703],[-0.26676883],[-0.06226455],[0.12921884],[-0.05010316],-5.688,-27.1,-4.44,-11.296,1.208,-0.26,0.036
263,0.1738056640625,-0.3809853515625,0.3545966796875,-0.2296552734375,0.1075966796875,0.17496484375,-0.1601416015625,0.085,-0.052,0.075,0.0,-0.594,-0.323,-0.113,[0.23580827],[-0.32999104],[0.31232671],[-0.30421803],[-0.16271967],[0.31634137],[-0.11486768],-6.432,-24.564,-1.408,-6.676,2.172,0.012,0.2
264,0.1750400390625,-0.3809853515625,0.35862109375,-0.230666015625,0.1049111328125,0.17496484375,-0.159728515625,0.104,0.008,0.266,-0.107,-0.316,0.03,-0.025,[0.39049621],[-0.46002341],[0.35098471],[-0.33481243],[-0.07510711],[0.16991221],[-0.20680283],-9.196,-27.1,-4.556,-8.392,0.304,-0.824,0.064
265,0.176693359375,-0.380470703125,0.3635029296875,-0.2309638671875,0.0972939453125,0.172912109375,-0.1589150390625,0.083,0.031,0.244,-0.029,-0.415,-0.172,0.017,[0.24914742],[-0.4331949],[0.2552609],[-0.03532445],[-0.05203589],[0.40960137],[-0.20730959],-7.868,-32.34,-7.076,-5.26,-0.408,1.184,0.252
266,0.1772080078125,-0.3799560546875,0.3633583984375,-0.2321181640625,0.08823046875,0.1766171875,-0.158294921875,0.036,0.02,0.151,0.029,-0.412,0.261,0.093,[0.32203031],[-0.32881145],[0.35896307],[-0.15797297],[-0.02374971],[0.20748557],[-0.1428511],-4.252,-34.064,-7.144,-10.52,0.224,0.004,0.036
267,0.177310546875,-0.3786181640625,0.361634765625,-0.23341796875,0.07875390625,0.17991015625,-0.158294921875,0.042,0.095,-0.104,-0.168,-1.085,0.35,0.032,[0.14108469],[-0.41674675],[0.41674553],[-0.04725873],[-0.19351097],[0.30393331],[-0.15161824],0.848,-40.6,-3.884,-10.128,3.584,-0.76,0.304
268,0.1775166015625,-0.378515625,0.3626455078125,-0.2309638671875,0.07875390625,0.1827890625,-0.158087890625,0.01,0.085,-0.059,0.046,-0.481,0.319,0.008,[0.29828765],[-0.53514333],[0.24128647],[-0.26322596],[0.08060633],[0.28118518],[-0.12592528],7.972,-44.756,-7.748,-11.412,1.412,-0.812,0.22
269,0.1786484375,-0.3778984375,0.361779296875,-0.230087890625,0.0717431640625,0.1840283203125,-0.158087890625,0.064,0.014,0.049,0.202,-0.253,0.215,0.028,[0.19389093],[-0.38723658],[0.38662729],[-0.22838465],[-0.1397479],[0.10650269],[-0.07448418],13.608,-42.976,-10.708,-10.816,0.888,0.368,0.104
270,0.179375,-0.376765625,0.359623046875,-0.2297998046875,0.0663984375,0.1891796875,-0.158294921875,0.091,0.099,-0.171,0.023,-0.716,0.253,-0.018,[0.07075039],[-0.40916571],[0.18961887],[-0.2722602],[-0.10120123],[0.16014313],[-0.22863313],19.936,-41.948,-5.34,-6.152,1.788,0.8,0.244
271,0.181125,-0.3775888671875,0.3603447265625,-0.2263251953125,0.063712890625,0.19514453125,-0.1578818359375,0.107,0.032,-0.075,0.168,-0.402,0.616,-0.003,[0.15150504],[-0.45858827],[0.34981511],[-0.40011044],[0.02091139],[0.30961725],[-0.0797684],24.296,-42.004,-8.604,-8.024,0.664,-0.668,0.188
272,0.1832919921875,-0.3776923828125,0.35891015625,-0.2240068359375,0.0554755859375,0.1949384765625,-0.15746875,0.206,-0.065,-0.005,0.337,-0.475,0.316,0.045,[0.40929653],[-0.5050396],[0.12783337],[-0.15768915],[-0.01317697],[0.36430518],[-0.22068202],24.456,-41.14,-9.48,-9.876,1.424,0.608,0.188
273,0.18525390625,-0.3776923828125,0.3576103515625,-0.2222744140625,0.0501171875,0.20008984375,-0.1556220703125,0.201,0.007,-0.173,0.186,-0.749,0.167,0.107,[0.35974866],[-0.50897997],[0.34546542],[-0.26380184],[-0.00152547],[0.31721286],[-0.22990827],18.66,-42.652,-5.456,-9.284,1.88,0.44,0.284
274,0.1887587890625,-0.376765625,0.3525849609375,-0.2209658203125,0.0338369140625,0.2021552734375,-0.15336328125,0.175,0.042,-0.253,0.097,-0.805,-0.035,0.108,[0.35470934],[-0.48162189],[0.37581702],[-0.30742561],[-0.05731879],[0.27158378],[-0.12068431],-12.44,-46.644,-5.504,-18.204,3.624,-0.064,0.284
275,0.1887587890625,-0.376765625,0.3525849609375,-0.2209658203125,0.0338369140625,0.2021552734375,-0.15336328125,0.175,0.042,-0.253,0.097,-0.805,-0.035,0.108,[0.37513945],[-0.29811446],[0.25995155],[-0.21942648],[-0.10894527],[0.22197896],[-0.35484242],-12.44,-46.644,-5.504,-18.204,3.624,-0.064,0.284
276,0.1916474609375,-0.3762509765625,0.350283203125,-0.2209658203125,0.0311640625,0.20770703125,-0.1523427734375,0.208,0.094,-0.354,-0.065,-0.731,0.223,0.083,[0.10515884],[-0.32630919],[0.33625542],[-0.29667171],[-0.11747425],[0.21455307],[-0.20414126],-5.528,-51.02,-5.18,-15.688,3.376,-1.496,0.232
277,0.19484375,-0.3761484375,0.3494267578125,-0.219955078125,0.02621875,0.2062734375,-0.15213671875,0.306,0.025,-0.136,0.068,-0.318,0.356,0.073,[0.32563397],[-0.26860182],[0.18451336],[-0.10917203],[-0.01259144],[0.26133129],[-0.11896264],6.804,-53.504,-10.084,-18.02,2.604,-1.78,0.076
278,0.1984521484375,-0.3756337890625,0.3474140625,-0.2218408203125,0.018794921875,0.206880859375,-0.1525498046875,0.334,0.035,-0.159,-0.025,-0.654,-0.19,-0.007,[0.42863198],[-0.22295048],[0.12781298],[-0.13745983],[0.05265563],[0.22719612],[-0.21619938],13.396,-57.768,-8.788,-16.188,3.916,0.364,0.156
279,0.202369140625,-0.3763544921875,0.345970703125,-0.2221298828125,0.0185888671875,0.2124453125,-0.153982421875,0.386,0.001,-0.178,-0.14,-0.408,0.365,-0.084,[0.45328999],[-0.44057484],[0.22397969],[-0.27902253],[-0.05933673],[0.33755395],[-0.2476761],15.788,-55.444,-8.764,-15.024,2.38,-1.852,-0.044
280,0.2062919921875,-0.3762509765625,0.342234375,-0.2235732421875,0.012611328125,0.2081201171875,-0.15746875,0.38,-0.052,-0.203,-0.053,-0.26,0.088,-0.243,[0.21027691],[-0.41227654],[0.2571308],[-0.2221867],[-0.10410128],[0.23582287],[-0.2344374],12.704,-46.268,-8.256,-15.412,2.38,-0.576,-0.032
281,0.2109296875,-0.3757373046875,0.3383544921875,-0.226037109375,0.0101455078125,0.2097724609375,-0.159728515625,0.425,0.044,-0.43,-0.216,-0.526,-0.279,-0.296,[0.25994482],[-0.27651069],[0.22530103],[-0.26274125],[-0.2263667],[0.29706348],[-0.05903171],13.768,-39.736,-3.952,-8.164,2.864,0.616,0.192
282,0.2152646484375,-0.37583984375,0.3349072265625,-0.225458984375,0.014056640625,0.210185546875,-0.16178125,0.458,0.02,-0.349,-0.108,0.112,0.227,-0.201,[0.29611785],[-0.44699856],[0.00563643],[-0.32372095],[-0.214942],[0.28694291],[-0.20727015],9.092,-33.04,-6.892,-6.24,-0.696,-0.636,-0.116
283,0.2234140625,-0.377486328125,0.32642578125,-0.2247373046875,0.00540625,0.2118251953125,-0.167939453125,0.425,-0.078,-0.438,-0.003,-0.517,0.006,-0.338,[0.21580442],[-0.51397424],[0.01848154],[-0.11874621],[-0.13909649],[0.21640769],[-0.37102172],2.552,-41.572,-7.168,-9.948,1.8,0.356,0.044
284,0.227130859375,-0.37707421875,0.3195224609375,-0.2243046875,0.0012880859375,0.21409765625,-0.17019921875,0.374,-0.072,-0.513,0.14,-0.227,0.416,-0.236,[0.3168331],[-0.42204276],[0.01621796],[-0.3644345],[-0.12349314],[0.30282614],[-0.22038631],1.648,-37.952,-4.996,-15.024,1.448,-1.3,-0.212
285,0.2317685546875,-0.3761484375,0.313486328125,-0.2263251953125,-0.0048955078125,0.214705078125,-0.17121875,0.412,0.077,-0.684,-0.096,-0.639,0.082,-0.172,[0.29915416],[-0.33257551],[0.39828135],[-0.12512637],[-0.05350567],[0.2543098],[-0.20351492],-6.272,-39.464,-1.384,-12.532,3.984,-0.708,0.2
286,0.2362060546875,-0.3760458984375,0.3094619140625,-0.225892578125,-0.0011904296875,0.216357421875,-0.1718388671875,0.469,0.055,-0.506,-0.095,-0.175,0.135,-0.085,[0.28996625],[-0.40642838],[0.17381465],[-0.2881372],[-0.00092249],[0.11980295],[-0.1915552],-15.948,-41.948,-5.944,-12.736,1.644,-1.052,-0.128
287,0.23991796875,-0.3759423828125,0.3029921875,-0.2263251953125,-0.0040693359375,0.21409765625,-0.1736845703125,0.41,0.01,-0.491,0.014,0.181,-0.005,-0.116,[0.19103027],[-0.24372169],[0.27649117],[-0.33407688],[-0.25863494],[0.21602467],[-0.24583558],-18.712,-44.324,-9.204,-11.844,0.212,0.084,-0.116
288,0.2437314453125,-0.3772802734375,0.2989677734375,-0.225603515625,-0.0112861328125,0.2169775390625,-0.17532421875,0.379,-0.037,-0.596,-0.036,-0.55,-0.074,-0.185,[0.18819691],[-0.40516318],[0.02117277],[-0.13820304],[-0.36295445],[0.25305505],[-0.23002639],-13.184,-43.028,-4.092,-9.672,2.752,0.556,0.068
289,0.2474423828125,-0.3793388671875,0.29795703125,-0.2216962890625,-0.0114931640625,0.2219091796875,-0.17553125,0.378,-0.188,-0.248,0.248,-0.396,0.453,-0.104,[0.19504955],[-0.39934635],[0.08313109],[-0.1596509],[-0.13774199],[0.08581276],[-0.22625704],-6.432,-34.444,-3.932,-16.26,2.128,-1.788,-0.2
290,0.2503310546875,-0.378412109375,0.2932197265625,-0.223140625,-0.0164375,0.2198564453125,-0.1767705078125,0.341,-0.102,-0.224,0.187,-0.256,0.207,-0.068,[0.31760001],[-0.25986084],[0.00365901],[-0.09436649],[-0.33905972],[0.38552552],[-0.13824507],-13.768,-33.148,-5.156,-16.692,2.908,-1.476,-0.148
291,0.2520869140625,-0.37707421875,0.289619140625,-0.225603515625,-0.0170576171875,0.2196494140625,-0.1782041015625,0.24,0.141,-0.49,-0.229,-0.357,-0.181,-0.138,[0.33161148],[-0.41702062],[0.18857855],[-0.02184694],[-0.09859485],[0.28219443],[-0.18893163],-23.924,-34.876,-2.172,-10.06,2.428,-0.348,0.104
292,0.2536298828125,-0.37707421875,0.2877509765625,-0.2248818359375,-0.01478515625,0.21841015625,-0.17841015625,0.17,0.072,-0.258,-0.103,0.164,0.011,-0.084,[0.38810013],[-0.64997658],[-0.00124767],[-0.26120659],[-0.2397856],[0.32241333],[-0.12531731],-25.84,-36.172,-8.0,-8.896,-0.968,-0.572,-0.224
293,0.2541513671875,-0.3766630859375,0.281859375,-0.2245927734375,-0.022208984375,0.21409765625,-0.17984375,0.121,0.01,-0.336,0.056,-0.22,-0.354,-0.086,[0.22546109],[-0.34967429],[0.1449412],[-0.26553172],[-0.07935657],[0.26483728],[-0.2803812],-25.468,-37.304,-8.696,-7.864,0.172,1.704,-0.084
294,0.2547685546875,-0.3796474609375,0.2739541015625,-0.2174912109375,-0.031685546875,0.2213017578125,-0.17984375,0.021,-0.165,-0.374,0.375,-0.407,0.489,0.002,[0.4699025],[-0.43342758],[0.24145327],[-0.11633199],[-0.21038774],[0.28265554],[-0.34019241],-7.656,-33.848,-4.416,-14.932,2.008,-2.212,-0.188
295,0.254974609375,-0.3790302734375,0.26820703125,-0.217203125,-0.0378701171875,0.2178037109375,-0.180669921875,0.063,-0.103,-0.424,0.287,-0.612,-0.092,-0.011,[0.37887612],[-0.31896057],[0.06370123],[-0.1164856],[-0.19690094],[0.32481582],[-0.06869074],-6.272,-35.684,-3.608,-15.48,3.664,-0.316,-0.12
296,0.25425390625,-0.3775888671875,0.2636044921875,-0.21793359375,-0.0364365234375,0.2213017578125,-0.1823095703125,-0.027,0.11,-0.548,-0.04,-0.307,-0.052,-0.12,[0.26884433],[-0.43677455],[0.13231703],[-0.33317913],[-0.11321023],[0.3069202],[-0.24370787],-15.044,-40.924,-3.352,-13.264,1.944,-0.82,-0.088
297,0.2527041015625,-0.377794921875,0.256845703125,-0.2160478515625,-0.046533203125,0.21841015625,-0.18784765625,-0.057,-0.016,-0.313,0.072,-0.602,-0.259,-0.291,[0.25794592],[-0.46141539],[0.01982173],[-0.31196229],[0.01341289],[0.23156179],[-0.18121757],-5.208,-44.484,-7.864,-11.752,2.264,0.976,-0.084
298,0.2505361328125,-0.3778984375,0.2515224609375,-0.214892578125,-0.04921875,0.2245947265625,-0.18928125,-0.166,-0.027,-0.458,0.174,-0.381,0.226,-0.186,[0.24542356],[-0.37938326],[-0.08082478],[-0.17968986],[-0.14127335],[0.43537469],[0.08986497],3.88,-43.784,-5.804,-14.268,1.436,-0.696,-0.16
299,0.24981640625,-0.377794921875,0.2460537109375,-0.2160478515625,-0.0591083984375,0.2272666015625,-0.1913330078125,-0.165,0.001,-0.552,0.025,-0.572,0.518,-0.171,[0.30730086],[-0.45435951],[0.05032731],[-0.05972629],[-0.27427741],[0.2288007],[-0.16245235],9.092,-46.428,-4.252,-17.516,3.292,-1.768,-0.16
300,0.2493017578125,-0.3773837890625,0.2411630859375,-0.2174912109375,-0.0636396484375,0.2285068359375,-0.19297265625,-0.059,0.015,-0.511,-0.145,-0.891,0.21,-0.214,[0.30911729],[-0.36146396],[0.00814302],[-0.2808492],[-0.15880789],[0.17861627],[-0.24050816],8.344,-49.616,-6.012,-17.564,5.032,-1.1,0.0
301,0.2493017578125,-0.3773837890625,0.2411630859375,-0.2174912109375,-0.061380859375,0.232005859375,-0.1931796875,-0.059,0.015,-0.511,-0.145,-0.05,0.238,-0.111,[0.3174747],[-0.47847572],[0.06570389],[-0.28344598],[-0.26974089],[0.28104312],[-0.15618217],8.344,-49.616,-6.012,-17.564,2.024,-1.204,-0.148
302,0.248787109375,-0.37707421875,0.2315263671875,-0.2205322265625,-0.0663251953125,0.232625,-0.1923662109375,-0.03,0.018,-0.475,-0.162,-0.06,0.214,0.031,[0.18017516],[-0.48332839],[0.00466287],[-0.32755199],[-0.26400364],[0.2022444],[-0.19328187],6.484,-53.72,-10.084,-13.516,1.808,-0.296,-0.036
303,0.24806640625,-0.3808818359375,0.220455078125,-0.2187998046875,-0.0737490234375,0.240849609375,-0.189900390625,-0.045,-0.196,-0.542,0.142,-0.252,0.422,0.139,[0.61956299],[-0.53044729],[-0.01278188],[-0.07352647],[0.00329734],[0.41182225],[-0.16845661],10.632,-46.644,-8.092,-17.652,1.936,-1.052,-0.084
304,0.2482724609375,-0.3819052734375,0.2133984375,-0.2206767578125,-0.082193359375,0.2429150390625,-0.1886748046875,-0.012,-0.159,-0.682,-0.07,-0.719,0.404,0.115,[0.36420979],[-0.32371218],[-0.10538631],[-0.37826257],[-0.12868579],[0.19485152],[-0.1902405],10.632,-46.592,-3.536,-16.692,4.28,-1.548,0.116
305,0.248169921875,-0.383146484375,0.2089404296875,-0.221263671875,-0.082193359375,0.2439482421875,-0.187021484375,0.011,-0.126,-0.581,-0.129,-0.523,0.127,0.134,[0.25595374],[-0.27854685],[0.03888917],[-0.27423526],[-0.3005641],[0.41239705],[-0.28963088],6.324,-45.78,-6.38,-17.54,3.564,-1.116,0.068
306,0.24868359375,-0.383763671875,0.2036171875,-0.2243046875,-0.0850849609375,0.2439482421875,-0.1864150390625,0.008,-0.091,-0.494,-0.149,-0.024,0.061,0.13,[0.31014162],[-0.30931414],[-0.12083121],[-0.26930677],[-0.16416976],[0.12209642],[-0.0796662],7.284,-47.4,-7.492,-14.176,1.736,-0.74,0.024
307,0.24981640625,-0.3856162109375,0.1991591796875,-0.225748046875,-0.088791015625,0.2437412109375,-0.1855888671875,0.077,-0.102,-0.516,-0.271,-0.378,-0.02,0.081,[0.29293585],[-0.30707133],[-0.19471763],[-0.32066859],[-0.16036469],[0.40965391],[-0.15269504],6.804,-48.048,-7.168,-11.592,2.408,-0.16,0.096
308,0.2507421875,-0.38716015625,0.1928251953125,-0.2270478515625,-0.090443359375,0.2457939453125,-0.18517578125,0.107,-0.195,-0.495,-0.107,-0.263,0.072,0.063,[0.33278936],[-0.41292818],[0.07816218],[-0.31998599],[-0.27119455],[0.4043626],[-0.3118539],6.912,-40.276,-7.1,-14.728,1.768,-0.564,-0.056
309,0.2520869140625,-0.38716015625,0.1847666015625,-0.231541015625,-0.0953876953125,0.2466201171875,-0.186001953125,0.102,-0.09,-0.726,-0.274,-0.34,0.173,-0.026,[0.45215796],[-0.18678236],[-0.0560852],[-0.32078231],[-0.11682309],[0.41926093],[0.03042712],7.92,-30.828,-1.408,-10.448,2.392,-0.904,0.016
310,0.2541513671875,-0.38777734375,0.1800205078125,-0.2344375,-0.09580078125,0.245587890625,-0.1862080078125,0.17,-0.025,-0.678,-0.401,-0.343,0.009,-0.053,[0.35180848],[-0.40265494],[0.06478234],[-0.10914186],[-0.13707587],[0.30461944],[-0.14274125],7.388,-28.828,-3.096,-7.156,1.884,-0.232,0.036
311,0.255900390625,-0.387365234375,0.1738310546875,-0.244869140625,-0.1021923828125,0.2499130859375,-0.191953125,0.199,-0.028,-0.51,-0.549,-0.338,0.171,-0.303,[0.26445277],[-0.22459884],[-0.02782189],[-0.24098162],[-0.19984196],[0.25243929],[-0.11982734],6.112,-28.288,-7.124,-4.388,0.772,0.564,0.016
312,0.2606474609375,-0.387056640625,0.16289453125,-0.2466015625,-0.1038447265625,0.2538251953125,-0.1944189453125,0.23,0.028,-0.574,-0.47,-0.465,0.452,-0.347,[0.38769027],[-0.5202604],[-0.29986446],[-0.20101554],[-0.2255399],[0.32608821],[-0.18918887],11.588,-30.772,-5.48,-4.616,1.176,-0.344,0.032
313,0.2630205078125,-0.387365234375,0.1581474609375,-0.2468896484375,-0.1057041015625,0.2544443359375,-0.1956455078125,0.267,-0.066,-0.392,-0.072,-0.115,0.236,-0.181,[0.53573823],[-0.4420691],[0.05350936],[-0.3395613],[-0.4141346],[0.26828719],[-0.09699431],11.908,-29.8,-8.28,-6.56,0.416,0.436,-0.096
314,0.2655927734375,-0.3869541015625,0.150513671875,-0.2479091796875,-0.1083896484375,0.2583564453125,-0.19605859375,0.238,0.007,-0.624,-0.071,-0.251,0.165,-0.101,[0.42609499],[-0.51540596],[-0.11296435],[-0.41832836],[-0.44571964],[0.45640245],[-0.20666179],11.004,-29.044,-3.976,-4.868,0.792,0.52,0.012
315,0.269001953125,-0.387673828125,0.145623046875,-0.24616796875,-0.1096162109375,0.2614423828125,-0.19605859375,0.294,-0.004,-0.651,-0.01,-0.234,0.42,-0.026,[0.41760038],[-0.25322206],[-0.12245757],[-0.33653172],[-0.34227579],[0.17809753],[-0.3684107],11.056,-26.452,-3.56,-3.384,0.836,-0.628,0.004
316,0.2721982421875,-0.3882919921875,0.14130078125,-0.243560546875,-0.111888671875,0.2612353515625,-0.1956455078125,0.339,-0.084,-0.457,0.252,-0.099,0.128,0.024,[0.18413006],[-0.33487959],[0.16370053],[-0.19872041],[-0.38993752],[0.22573882],[-0.27319089],4.732,-25.372,-5.088,-7.956,0.364,0.48,-0.036
317,0.275498046875,-0.3868505859375,0.1348310546875,-0.24587890625,-0.1178662109375,0.2674072265625,-0.195025390625,0.321,0.021,-0.535,0.069,-0.408,0.212,0.036,[0.47904546],[-0.31957854],[-0.24383499],[-0.32794612],[-0.19821681],[0.15608834],[-0.28165491],3.24,-28.612,-1.78,-11.752,1.936,-0.46,0.084
318,0.2797236328125,-0.3852041015625,0.1309423828125,-0.2486318359375,-0.121583984375,0.2713193359375,-0.1948193359375,0.372,0.16,-0.55,-0.293,-0.556,0.63,0.045,[0.35959552],[-0.34862275],[-0.18629237],[-0.24229288],[-0.26117525],[0.31545322],[-0.2667037],1.7,-34.82,-2.124,-10.928,2.952,-2.452,0.056
319,0.2830234375,-0.383763671875,0.1284970703125,-0.2483427734375,-0.1224111328125,0.2665810546875,-0.195025390625,0.396,0.154,-0.316,-0.147,-0.239,-0.021,0.014,[0.51658127],[-0.30435686],[-0.22415725],[-0.31618494],[-0.12473522],[0.22160697],[-0.10255203],-3.828,-39.356,-6.66,-10.108,1.432,0.056,0.036
320,0.2861171875,-0.382625,0.125041015625,-0.2481982421875,-0.1250830078125,0.26802734375,-0.195232421875,0.311,0.134,-0.288,0.032,-0.128,-0.263,-0.025,[0.34510045],[-0.30991938],[0.13052893],[-0.32230505],[-0.27266528],[0.21465673],[-0.19912651],-7.812,-40.652,-6.268,-8.62,-0.224,0.896,-0.024
321,0.2897314453125,-0.3825224609375,0.12028515625,-0.2468896484375,-0.131474609375,0.2704931640625,-0.1958515625,0.337,0.072,-0.405,0.058,-0.402,0.254,-0.04,[0.40617638],[-0.35389065],[-0.16255048],[-0.23265061],[-0.39228806],[0.42775834],[-0.24146168],-8.344,-41.68,-6.22,-9.74,0.46,-0.656,-0.096
322,0.2929287109375,-0.3821103515625,0.114095703125,-0.2451572265625,-0.139724609375,0.27090625,-0.1962646484375,0.355,0.011,-0.52,0.167,-0.778,0.131,-0.052,[0.41284738],[-0.31611256],[-0.21670929],[-0.18604175],[-0.37892728],[0.23935359],[-0.30480482],-8.24,-38.764,-4.784,-14.248,2.848,-0.78,0.004
323,0.29581640625,-0.3806767578125,0.10933984375,-0.24587890625,-0.1453017578125,0.2735791015625,-0.1962646484375,0.293,0.081,-0.6,0.093,-0.707,0.13,-0.028,[0.39224423],[-0.29699295],[-0.00109769],[-0.17803688],[-0.35406629],[0.24612691],[-0.19888411],-5.368,-33.148,-0.368,-17.516,3.408,-1.964,-0.004
324,0.29952734375,-0.378103515625,0.109484375,-0.249642578125,-0.150453125,0.271525390625,-0.1962646484375,0.326,0.191,-0.275,-0.214,-0.562,0.134,-0.001,[0.1660525],[-0.28306479],[-0.19503098],[-0.30477969],[-0.23739669],[0.3756678],[-0.22371139],-3.136,-30.612,-0.3,-14.064,3.292,-2.544,-0.016
325,0.3027236328125,-0.3745986328125,0.1091962890625,-0.2528271484375,-0.14880078125,0.2643212890625,-0.196677734375,0.369,0.297,0.039,-0.375,-0.244,-0.428,-0.019,[0.20600376],[-0.48045296],[-0.01969078],[-0.13713071],[-0.21797343],[0.40073712],[-0.27006613],-3.88,-37.576,-9.228,-7.384,0.76,0.084,-0.044
326,0.3048916015625,-0.3719228515625,0.10473828125,-0.2545693359375,-0.1500400390625,0.2606162109375,-0.197904296875,0.271,0.33,-0.202,-0.26,0.119,-0.636,-0.066,[0.34160984],[-0.56283028],[-0.26025366],[-0.41310604],[-0.27455381],[0.26913744],[-0.14474534],-2.604,-43.892,-12.652,-2.492,-2.296,2.184,-0.104
327,0.307162109375,-0.371408203125,0.0986923828125,-0.2534140625,-0.1605625,0.26185546875,-0.1989248046875,0.219,0.192,-0.554,-0.065,-0.498,-0.094,-0.111,[0.5724704],[-0.40956377],[-0.34602135],[-0.44931561],[-0.36020742],[0.10244588],[-0.23815341],-3.028,-38.6,-6.268,-4.136,-0.852,0.852,-0.052
328,0.31015234375,-0.3716142578125,0.089037109375,-0.2460234375,-0.174376953125,0.265767578125,-0.2009775390625,0.141,-0.032,-0.483,0.419,-0.704,0.217,-0.112,[0.35004519],[-0.44691784],[-0.21466025],[-0.35740498],[-0.21983375],[0.26727595],[-0.18782815],-16.428,-42.76,-2.796,-20.216,3.072,-2.204,-0.056
329,0.311798828125,-0.370173828125,0.084146484375,-0.2468896484375,-0.1809873046875,0.2645283203125,-0.2018037109375,0.138,0.079,-0.481,0.144,-0.564,0.042,-0.081,[0.42127039],[-0.54641196],[-0.15273021],[-0.12738826],[-0.28601421],[0.17109078],[-0.21801603],-15.256,-50.264,-4.784,-21.176,3.572,-1.964,-0.052
330,0.3129375,-0.3683212890625,0.0793916015625,-0.2484873046875,-0.1838671875,0.26308203125,-0.202216796875,0.153,0.175,-0.497,-0.148,-0.529,-0.152,-0.064,[0.48203938],[-0.34574085],[-0.12321986],[-0.46374291],[-0.40080737],[0.08118083],[-0.20415681],-10.048,-56.04,-6.544,-16.692,3.176,-1.204,-0.032
331,0.313966796875,-0.3676005859375,0.0747802734375,-0.2484873046875,-0.1857255859375,0.26185546875,-0.202216796875,0.108,0.143,-0.469,-0.09,-0.184,-0.154,-0.029,[0.52453215],[-0.35198856],[-0.05896937],[-0.34736414],[-0.28263472],[0.26228811],[-0.16928717],-2.976,-59.44,-9.272,-16.74,1.34,-0.492,-0.084
332,0.3150986328125,-0.3688359375,0.0626796875,-0.2479091796875,-0.1976943359375,0.265560546875,-0.202423828125,0.053,-0.055,-0.63,0.025,-0.625,0.187,-0.014,[0.4391823],[-0.39213761],[-0.27634668],[-0.24486936],[-0.32389459],[0.44638844],[-0.27412768],-0.316,-58.308,-4.996,-21.2,3.652,-2.076,-0.024
333,0.3158251953125,-0.3692470703125,0.0569228515625,-0.249064453125,-0.203052734375,0.264734375,-0.202216796875,0.059,-0.093,-0.595,0.022,-0.511,0.113,0.006,[0.53837956],[-0.40014671],[-0.14256023],[-0.00742896],[-0.35667281],[0.19498196],[-0.35680543],5.74,-51.884,-5.04,-23.188,4.132,-2.472,-0.064
