EmanuelSamir/lab201_ws_projsamir/sawyer_dev/data/sawyer/vel_sin_motion/test_jointall/validation_data_jointall.csv
,j1,j2,j3,j4,j5,j6,j7,v1,v2,v3,v4,v5,v6,v7,jd1,jd2,jd3,jd4,jd5,jd6,jd7,e1,e2,e3,e4,e5,e6,e7
0,0.0,0.0,0.0,0.0,0.0,0.0,0.0,0.0,0.0,0.0,0.0,0.0,0.0,0.0,0.0,0.0,0.0,0.0,0.0,0.0,0.0,0.0,0.0,0.0,0.0,0.0,0.0,0.0
1,-0.0022060546875,0.0019892578125,0.000166015625,-0.0042685546875,0.000875,-0.002611328125,0.001,-0.001,-0.001,-0.001,-0.001,-0.001,-0.001,-0.001,-0.00010942502068945781,0.00011974437048102797,-7.610829583822878e-05,3.691446131081713e-05,4.821808816617403e-05,4.101321043406743e-05,-6.129414779958884e-05,0.104,-43.944,-4.624,-13.788,2.504,-0.688,0.076
2,-0.0022060546875,0.0019892578125,0.000166015625,-0.0042685546875,0.000875,-0.002611328125,0.001,-0.001,-0.001,-0.001,-0.001,-0.001,-0.001,-0.001,-0.006387541513048699,0.008966383457451668,-0.01142411013041552,0.006002265677475509,0.0076151915156793,0.005363677581180783,-0.008586386640542771,0.104,-43.944,-4.672,-13.744,2.516,-0.696,0.088
3,-0.0022060546875,0.0019892578125,0.000166015625,-0.0042685546875,0.000875,-0.002611328125,0.001,-0.001,-0.001,-0.001,-0.001,-0.001,-0.001,-0.001,-0.014999529218665111,0.021299176042379898,-0.02737643845780682,0.01446551810944837,0.018435992372074717,0.013062925137312612,-0.021020950245936188,0.104,-43.944,-4.44,-13.696,2.484,-0.68,0.088
4,-0.0022060546875,0.0019892578125,2.1484375e-05,-0.0042685546875,0.000875,-0.0028173828125,0.001,-0.001,-0.001,-0.002,-0.001,-0.001,-0.005,-0.001,-0.024472884967552448,0.034842770471097566,-0.04485119761175705,0.023739599485541593,0.030281554434467728,0.021496893539856572,-0.034631187100024496,0.052,-44.052,-4.832,-13.72,2.46,-0.688,0.088
5,-0.00230859375,0.0026064453125,-0.0025771484375,-0.0044130859375,0.0027216796875,-0.0032314453125,0.0007939453125,-0.005,0.019,-0.093,-0.001,0.06,-0.022,-0.005,-0.032102973849733416,0.04571160532856582,-0.058868414524322815,0.031213831306765246,0.0398288728592886,0.028305020050368918,-0.04560784824246643,-1.912,-42.004,-5.504,-13.032,2.06,-0.556,0.004
6,-0.002720703125,0.0040537109375,-0.00704296875,-0.005134765625,0.00375390625,-0.00364453125,-0.0014658203125,-0.026,0.103,-0.359,-0.043,0.16,-0.048,-0.105,-0.040584597001360585,0.05778974331937195,-0.07439197498841103,0.03951433573853211,0.05041090476194269,0.035852534603435515,-0.0577340984203649,-6.22,-37.36,-4.44,-9.992,1.684,-0.148,0.004
7,-0.0032412109375,0.00559765625,-0.0120869140625,-0.004845703125,0.0072529296875,-0.0028173828125,-0.0049521484375,-0.043,0.148,-0.483,-0.041,0.21,-0.001,-0.284,-0.05054258019795053,0.07190319924333169,-0.0924882858559352,0.049258013766573266,0.06281783288141536,0.04472176172591445,-0.07194832848693261,-9.248,-31.744,-3.908,-7.888,1.02,0.18,-0.056
8,-0.003859375,0.0073466796875,-0.017130859375,-0.004556640625,0.0103515625,-0.0013720703125,-0.0096767578125,-0.056,0.154,-0.489,0.032,0.334,0.113,-0.407,-0.05747832264722727,0.08172134475892628,-0.10501278359470523,0.05604528577572693,0.07145074591716122,0.050906322009929075,-0.0818272137900307,-11.216,-26.832,-4.784,-6.928,0.656,0.192,-0.128
9,-0.0048876953125,0.00981640625,-0.023041015625,-0.0041240234375,0.0134375,0.000474609375,-0.0158359375,-0.083,0.212,-0.565,0.029,0.317,0.162,-0.534,-0.06600603350528636,0.09380282591223656,-0.12039405213107046,0.0644413600716944,0.08211372101219921,0.058576670873992265,-0.09403764673709972,-12.44,-25.48,-3.976,-5.348,0.68,0.348,-0.108
10,-0.0060205078125,0.0124990234375,-0.029095703125,-0.00282421875,0.0185888671875,0.0031591796875,-0.0221875,-0.106,0.251,-0.594,0.081,0.395,0.217,-0.63,-0.07532168847675257,0.10689482830132287,-0.1369563764053425,0.07356598860517476,0.09366832526602425,0.06689074253115469,-0.10721141605254687,-13.292,-24.888,-3.952,-5.76,0.4,0.388,-0.104
11,-0.0075703125,0.01589453125,-0.035728515625,-0.00209375,0.022720703125,0.006658203125,-0.0281396484375,-0.135,0.299,-0.618,0.113,0.476,0.313,-0.628,-0.08283153875525445,0.11737156875458808,-0.1501131757171593,0.08088269819593898,0.102900549889716,0.07355291755601673,-0.11769568781321976,-13.504,-24.24,-3.536,-5.968,0.584,0.232,0.004
12,-0.0094228515625,0.0200107421875,-0.0427841796875,-0.0009384765625,0.0276650390625,0.009962890625,-0.034091796875,-0.166,0.377,-0.709,0.086,0.45,0.342,-0.603,-0.09110703654271934,0.1289138233251073,-0.16453341437494953,0.089000998193007,0.11312709736651061,0.08096584734750249,-0.12930728300848654,-13.292,-24.616,-2.68,-5.168,0.748,0.296,-0.044
13,-0.0114873046875,0.02433984375,-0.0494169921875,0.0010908203125,0.03404296875,0.0132548828125,-0.03923046875,-0.194,0.417,-0.692,0.15,0.557,0.326,-0.56,-0.09973632495998253,0.1409083646213924,-0.179430082323814,0.09751057502036024,0.12382542096537785,0.0887618808261701,-0.14145317987962028,-12.92,-27.048,-3.144,-6.128,0.54,0.584,-0.012
14,-0.0139638671875,0.0287646484375,-0.0556162109375,0.003400390625,0.0391943359375,0.017580078125,-0.0441494140625,-0.227,0.439,-0.642,0.212,0.588,0.377,-0.511,-0.10925566653351922,0.1540138315802776,-0.1955355478052654,0.10684558723779272,0.13551361049743657,0.09730522691124721,-0.1546358853509997,-12.332,-30.612,-3.952,-7.064,1.032,0.48,-0.016
15,-0.0166455078125,0.033298828125,-0.0613818359375,0.0065859375,0.0439326171875,0.0219189453125,-0.0490810546875,-0.255,0.451,-0.61,0.269,0.505,0.44,-0.498,-0.11587991663559605,0.16305965989021118,-0.20654357756156042,0.11332577090699938,0.1435751614030306,0.10322436930070251,-0.16369169148673487,-11.588,-33.256,-3.56,-8.964,1.54,0.232,-0.076
16,-0.0196298828125,0.0381357421875,-0.06816796875,0.010357421875,0.0501171875,0.0256240234375,-0.0531865234375,-0.284,0.463,-0.613,0.35,0.536,0.418,-0.458,-0.12403387840494962,0.17413151429173024,-0.2199001960810536,0.1213186908641015,0.15350210609085613,0.11055673549903806,-0.17483376392777372,-10.952,-35.684,-4.252,-10.68,1.484,-0.004,-0.148
17,-0.022826171875,0.04308203125,-0.0749443359375,0.0141298828125,0.0546494140625,0.029123046875,-0.05729296875,-0.312,0.497,-0.683,0.369,0.537,0.364,-0.423,-0.13236351715294548,0.1853845780583993,-0.2333382928223156,0.12953729035968653,0.16368283986993426,0.11813000258526736,-0.18624416142623415,-9.94,-38.656,-5.388,-10.792,1.944,-0.068,-0.032
18,-0.02633203125,0.0479248046875,-0.0804208984375,0.0184697265625,0.0593876953125,0.03303515625,-0.0609853515625,-0.334,0.496,-0.648,0.408,0.489,0.361,-0.39,-0.1401722053074774,0.19579662308312185,-0.24557706549219965,0.13714524322741345,0.17301261727372938,0.12508174414923864,-0.19658214759310308,-9.092,-38.924,-4.808,-11.936,2.164,-0.344,-0.032
19,-0.0299404296875,0.0529677734375,-0.0853212890625,0.0226748046875,0.0645390625,0.0361337890625,-0.064470703125,-0.358,0.489,-0.518,0.438,0.477,0.364,-0.36,-0.1481396733216668,0.20636906424564688,-0.2578828146807612,0.14500148167401347,0.18263441303588768,0.13231798230873187,-0.20724468765977144,-8.188,-38.708,-4.624,-12.372,2.216,-0.624,-0.032
20,-0.0337607421875,0.05822265625,-0.089796875,0.0270146484375,0.0696904296875,0.0377861328125,-0.0673505859375,-0.374,0.519,-0.469,0.418,0.5,0.254,-0.325,-0.1575516683610081,0.21871259585851918,-0.2720064812407789,0.15426529193814573,0.19390543254537462,0.1408646120254809,-0.21967946848752706,-7.228,-40.436,-5.756,-11.272,2.036,-0.304,0.044
21,-0.0377802734375,0.0632646484375,-0.0946962890625,0.0316533203125,0.074634765625,0.03942578125,-0.070216796875,-0.396,0.524,-0.477,0.453,0.542,0.146,-0.286,-0.16623512680151709,0.22992578211385306,-0.2845730672979405,0.16276970049587908,0.20417672374448068,0.1487161712520922,-0.2309276731678489,-6.164,-42.868,-6.452,-11.96,1.268,0.272,0.004
22,-0.0419033203125,0.0683134765625,-0.1007509765625,0.036146484375,0.0771015625,0.0429375,-0.073095703125,-0.408,0.509,-0.534,0.461,0.38,0.254,-0.291,-0.171641731443788,0.2368762680255453,-0.2922449009816031,0.16810875049123444,0.21058531282254306,0.15364965507150352,-0.23790733317539622,-4.2,-43.836,-6.196,-13.332,1.932,-0.108,0.064
23,-0.0460263671875,0.073150390625,-0.105794921875,0.04078515625,0.077927734375,0.046849609375,-0.07616796875,-0.416,0.498,-0.581,0.46,0.168,0.376,-0.296,-0.179330980884512,0.24661292638108956,-0.3028032503214422,0.17566560447354304,0.21960841732710487,0.16065186946910695,-0.24768092235102146,-1.912,-43.028,-4.276,-15.572,3.2,-0.956,0.056
24,-0.050251953125,0.0784052734375,-0.109837890625,0.0448359375,0.08061328125,0.049109375,-0.0794609375,-0.417,0.503,-0.481,0.447,0.174,0.324,-0.318,-0.18741250895595085,0.25670387825301094,-0.313498479783082,0.18360521013900816,0.22901489757318913,0.16802005285316812,-0.2578018105506301,0.212,-43.028,-3.236,-16.944,3.356,-1.208,0.012
25,-0.0545869140625,0.08396875,-0.1137265625,0.0485986328125,0.0853515625,0.049728515625,-0.0829462890625,-0.428,0.543,-0.381,0.392,0.338,0.168,-0.348,-0.1944277504652563,0.2653622442507483,-0.32245757467492225,0.1905144629378746,0.23712978054362105,0.1744338936316295,-0.2664586319005672,0.584,-45.024,-5.108,-14.316,2.512,-0.664,-0.012
26,-0.0589150390625,0.088908203125,-0.1170478515625,0.0530927734375,0.0884365234375,0.0503486328125,-0.086845703125,-0.437,0.535,-0.357,0.402,0.425,0.049,-0.361,-0.2018653635458242,0.2743941248380693,-0.3315685983750335,0.19784367563496794,0.2456757261808824,0.18126389818766042,-0.27552153116329325,-0.584,-47.076,-7.816,-12.164,1.724,0.312,-0.076
27,-0.063244140625,0.09333984375,-0.121658203125,0.05830859375,0.0898828125,0.053447265625,-0.090951171875,-0.439,0.478,-0.402,0.482,0.274,0.155,-0.398,-0.2092328891527601,0.2832251266792271,-0.34022293597938913,0.2051454265212505,0.25412152590957543,0.18809514058030252,-0.28441885649018445,-1.804,-46.752,-6.8,-12.28,1.552,0.332,-0.108
28,-0.0674697265625,0.0978681640625,-0.12743359375,0.06337890625,0.0894697265625,0.0577724609375,-0.095263671875,-0.431,0.441,-0.508,0.529,0.039,0.363,-0.432,-0.2165551868863405,0.29180949431303177,-0.34834751913052875,0.21235844513221647,0.262378017553295,0.19484667391306346,-0.293015896716025,-1.7,-44.756,-4.464,-15.048,2.772,-0.596,-0.128
29,-0.0716953125,0.1028134765625,-0.132630859375,0.066708984375,0.0888505859375,0.061271484375,-0.1003896484375,-0.429,0.471,-0.569,0.436,-0.062,0.416,-0.466,-0.22576838907752306,0.30238984961412996,-0.3579368591447447,0.2214549956667936,0.2726687090620667,0.20338853160948245,-0.30361720363008066,0.956,-45.132,-3.212,-17.768,3.892,-1.416,-0.16
30,-0.0800439453125,0.1137216796875,-0.1395517578125,0.0717802734375,0.095228515625,0.0633369140625,-0.10983984375,-0.422,0.548,-0.344,0.247,0.303,0.089,-0.49,-0.2354112822202481,0.31315389287259743,-0.3671343301455182,0.23098347356249904,0.28329223229347406,0.21237114653141878,-0.31440714672754844,6.964,-50.264,-7.584,-15.092,2.464,-0.088,-0.084
31,-0.0800439453125,0.1137216796875,-0.1395517578125,0.0717802734375,0.095228515625,0.0633369140625,-0.10983984375,-0.422,0.548,-0.344,0.247,0.303,0.089,-0.49,-0.23986061027231043,0.3180084554327061,-0.3710610016736824,0.23535925164285906,0.28809954599751897,0.21648730059841742,-0.3192061144113786,6.964,-50.264,-7.584,-15.092,2.464,-0.088,-0.084
32,-0.0840634765625,0.118353515625,-0.1427275390625,0.074830078125,0.0972939453125,0.065802734375,-0.11415234375,-0.419,0.511,-0.3,0.272,0.318,0.144,-0.45,-0.2454442044255959,0.32401132578288006,-0.375728611172635,0.24090804810265604,0.29416095725894403,0.221752103087962,-0.32523699179865334,6.752,-50.264,-8.948,-13.812,1.92,0.172,-0.052
33,-0.0878779296875,0.1224755859375,-0.1469150390625,0.0788818359375,0.0981201171875,0.0693017578125,-0.118271484375,-0.396,0.449,-0.374,0.345,0.161,0.3,-0.425,-0.2511704024107694,0.3300399205838885,-0.38015960066438736,0.2465993835778751,0.30030211980197064,0.22715698790532315,-0.3313750606997414,5.048,-49.128,-7.376,-14.36,2.388,-0.212,-0.064
34,-0.09169140625,0.126283203125,-0.1513818359375,0.0832216796875,0.0993466796875,0.0730205078125,-0.1219638671875,-0.384,0.394,-0.431,0.428,0.076,0.363,-0.4,-0.257687765822812,0.33670001285941314,-0.38471902742259956,0.25304562624544785,0.30716995478767517,0.2332971695906737,-0.33791478168879235,2.496,-47.672,-6.128,-16.212,3.052,-0.772,-0.056
35,-0.0952998046875,0.1305087890625,-0.156001953125,0.086849609375,0.1018251953125,0.07610546875,-0.1258623046875,-0.377,0.397,-0.456,0.415,0.175,0.363,-0.378,-0.2641255774426198,0.3430914588187075,-0.3887104741631616,0.2594084155622279,0.31384111336656134,0.23936488272277018,-0.3442559840442552,1.328,-46.7,-5.34,-16.304,3.144,-1.208,-0.068
36,-0.098908203125,0.1348310546875,-0.1603330078125,0.0903232421875,0.10553125,0.0775517578125,-0.1295556640625,-0.365,0.431,-0.452,0.358,0.298,0.225,-0.377,-0.27055568206773456,0.349290720469707,-0.3921784446114419,0.2658112608920881,0.3204546278849016,0.24550660698456497,-0.3504419560908705,2.496,-46.86,-5.248,-15.412,2.792,-0.688,-0.024
37,-0.1024130859375,0.1392626953125,-0.164798828125,0.0932197265625,0.109236328125,0.080224609375,-0.1330537109375,-0.355,0.435,-0.438,0.329,0.38,0.18,-0.367,-0.27677321850432296,0.3550626235692524,-0.39497317805391785,0.2719881903763247,0.32672476711052023,0.25145269772310674,-0.35618843723139687,4.464,-47.024,-6.684,-15.228,2.428,-0.364,-0.064
38,-0.1058154296875,0.14337890625,-0.169130859375,0.0958369140625,0.1115087890625,0.0839296875,-0.13716015625,-0.348,0.438,-0.448,0.268,0.304,0.335,-0.38,-0.2828503299071004,0.3604959566129275,-0.3971520329276951,0.27803715837463894,0.33275839946731506,0.2573106654958878,-0.36160708472137926,5.42,-47.672,-5.736,-15.208,2.72,-0.844,-0.076
39,-0.1090126953125,0.14708984375,-0.1730283203125,0.099021484375,0.1150078125,0.0870283203125,-0.14105859375,-0.334,0.399,-0.42,0.286,0.273,0.345,-0.397,-0.2888019743203405,0.3655983589877235,-0.3987173798030202,0.28395962884357523,0.33854370996929034,0.2630564159495237,-0.3666598185212018,5.156,-47.456,-5.016,-16.968,3.156,-0.928,-0.096
40,-0.112208984375,0.1511103515625,-0.1770712890625,0.1014765625,0.11974609375,0.09052734375,-0.1451513671875,-0.325,0.382,-0.39,0.296,0.403,0.33,-0.407,-0.2947559242324049,0.37047718702679844,-0.39968326752067984,0.2899092155491804,0.3442324433688426,0.26885860110680476,-0.37149904295705105,4.464,-47.832,-5.62,-17.128,3.032,-1.084,-0.104
41,-0.115302734375,0.1550205078125,-0.1809697265625,0.1042197265625,0.1250908203125,0.092787109375,-0.1494638671875,-0.318,0.399,-0.408,0.256,0.499,0.3,-0.422,-0.3020924809856069,0.3761521191852264,-0.3999742396199091,0.29726479177667675,0.3510765306073357,0.27606636695138265,-0.37710241263687805,3.4,-48.048,-5.756,-14.864,2.772,-0.824,-0.032
42,-0.118287109375,0.15862890625,-0.18515625,0.107548828125,0.1306552734375,0.09505859375,-0.15336328125,-0.305,0.377,-0.402,0.305,0.561,0.201,-0.415,-0.3060294421046895,0.378977648717904,-0.3996945353813508,0.3011642656849304,0.3546156908602698,0.27991208873219814,-0.37989665862849853,1.86,-47.24,-6.172,-14.588,2.288,-0.128,-0.012
43,-0.12127734375,0.1621279296875,-0.190208984375,0.110734375,0.1351875,0.0993837890625,-0.1570556640625,-0.304,0.36,-0.452,0.325,0.518,0.33,-0.388,-0.3113893943525571,0.38267091068081244,-0.3987796897412742,0.30654567255432696,0.3593886069903258,0.2852408518793916,-0.38352971112474255,0.848,-45.512,-5.504,-13.696,2.232,-0.376,0.052
44,-0.1240625,0.1654208984375,-0.19496484375,0.114505859375,0.13971875,0.1026767578125,-0.1609677734375,-0.293,0.348,-0.506,0.333,0.451,0.403,-0.383,-0.3166668346167719,0.3860372322706455,-0.3972437151390416,0.31182899801009567,0.3639330105036784,0.29049524961837,-0.38682213915455216,0.636,-44.216,-4.88,-13.924,2.504,-0.552,0.044
45,-0.1298388671875,0.1721162109375,-0.2026162109375,0.1207412109375,0.1500087890625,0.1098935546875,-0.167939453125,-0.292,0.34,-0.395,0.314,0.512,0.381,-0.364,-0.3253477629476132,0.3909584803647219,-0.393198291256458,0.3205492941970572,0.3711113200674346,0.2992496457731451,-0.39162081612509647,1.276,-42.812,-5.204,-13.536,2.764,-0.644,-0.016
46,-0.1298388671875,0.1721162109375,-0.2026162109375,0.1207412109375,0.1500087890625,0.1098935546875,-0.167939453125,-0.292,0.34,-0.395,0.314,0.512,0.381,-0.364,-0.3285241813040426,0.3925493296230377,-0.39119812035036866,0.3237489546694188,0.3736301461919656,0.3024817493572924,-0.39315818696104254,1.276,-42.812,-5.204,-13.536,2.764,-0.644,-0.016
47,-0.1298388671875,0.1721162109375,-0.2026162109375,0.1207412109375,0.1500087890625,0.1098935546875,-0.167939453125,-0.292,0.34,-0.395,0.314,0.512,0.381,-0.364,-0.33193047316719226,0.3941161609081587,-0.38871753513936064,0.3272077706728731,0.37627981396814847,0.3060117694522469,-0.39468236435143633,1.276,-42.812,-5.204,-13.536,2.764,-0.644,-0.016
48,-0.135607421875,0.1795322265625,-0.2092578125,0.1255146484375,0.1617578125,0.115044921875,-0.17553125,-0.292,0.369,-0.33,0.248,0.581,0.24,-0.372,-0.33644475718872907,0.39595544998290233,-0.3848503079560935,0.33175161070456644,0.3796311233143811,0.3106370143720742,-0.39641805314825795,0.316,-42.596,-6.196,-12.44,2.192,-0.024,-0.084
49,-0.13849609375,0.1832373046875,-0.212578125,0.1281220703125,0.16772265625,0.118130859375,-0.1794296875,-0.287,0.381,-0.349,0.209,0.581,0.335,-0.391,-0.34099245832078706,0.397504346717368,-0.38024113571166107,0.33635668566318616,0.3828675730809711,0.3153790426445275,-0.3978740027878493,-0.584,-42.544,-6.196,-11.64,2.12,-0.332,-0.108
50,-0.1413837890625,0.1867421875,-0.21604296875,0.1310185546875,0.172875,0.120390625,-0.1837421875,-0.288,0.357,-0.337,0.281,0.575,0.261,-0.407,-0.34797212195272353,0.399215575738588,-0.3715902944004874,0.34344960222506804,0.38749472698118825,0.3227600870786158,-0.3994235699370874,-1.328,-41.948,-6.36,-12.484,2.056,0.016,-0.16
51,-0.1413837890625,0.1867421875,-0.21604296875,0.1310185546875,0.172875,0.120390625,-0.1837421875,-0.288,0.357,-0.337,0.281,0.575,0.261,-0.407,-0.3506778687884635,0.3996331539733502,-0.3676772455896846,0.34619873181079397,0.38915744038243416,0.32565029086638897,-0.39977221563394116,-1.328,-41.948,-6.36,-12.484,2.056,0.016,-0.16
52,-0.1413837890625,0.1867421875,-0.21604296875,0.1310185546875,0.172875,0.120390625,-0.1837421875,-0.288,0.357,-0.337,0.281,0.575,0.261,-0.407,-0.355043713877225,0.39998129044612135,-0.36058584222978807,0.35065973620355706,0.3916791088580857,0.33037874078708557,-0.39999997328643877,-1.328,-41.948,-6.36,-12.484,2.056,0.016,-0.16
53,-0.1413837890625,0.1867421875,-0.21604296875,0.1310185546875,0.172875,0.120390625,-0.1837421875,-0.288,0.357,-0.337,0.281,0.575,0.261,-0.407,-0.3575834469782273,0.39997876452685677,-0.35599387175720876,0.3532590801442701,0.3930382896159536,0.3331577277795874,-0.3999220872360875,-1.328,-41.948,-6.36,-12.484,2.056,0.016,-0.16
54,-0.144271484375,0.190447265625,-0.21994140625,0.133482421875,0.17761328125,0.124095703125,-0.18826171875,-0.294,0.365,-0.37,0.267,0.492,0.294,-0.446,-0.3617519738736901,0.39960652754153053,-0.34761947172576946,0.35753888128146527,0.39507908854856205,0.337778497110395,-0.39941659138606833,-2.124,-42.22,-5.224,-11.66,2.212,-0.232,-0.148
55,-0.1534365234375,0.2008466796875,-0.22975,0.143625,0.1924345703125,0.1331591796875,-0.2011845703125,-0.312,0.364,-0.346,0.308,0.465,0.36,-0.43,-0.36498160111297606,0.39896372257264845,-0.3403250271845437,0.3608691966107238,0.39647678211874837,0.34141557301812003,-0.3986616521472215,-3.828,-41.084,-4.692,-10.952,2.112,-0.448,-0.024
56,-0.1599326171875,0.2078515625,-0.2355244140625,0.1504375,0.2014853515625,0.13913671875,-0.20858203125,-0.326,0.349,-0.283,0.352,0.444,0.281,-0.377,-0.36834356085731546,0.39791810422494234,-0.33189521933873867,0.36434670061703145,0.39773416590188587,0.3452594621574281,-0.39748945792479445,-4.252,-38.116,-4.672,-10.656,1.992,0.044,-0.032
57,-0.1599326171875,0.2078515625,-0.2355244140625,0.1504375,0.2014853515625,0.13913671875,-0.20858203125,-0.326,0.349,-0.283,0.352,0.444,0.281,-0.377,-0.37375525704955925,0.39527234935608346,-0.3161991452389632,0.369975611652261,0.3992535410505485,0.3515996301216288,-0.39461451594697444,-4.252,-38.116,-4.672,-10.656,1.992,0.044,-0.032
58,-0.1633349609375,0.211453125,-0.2379794921875,0.1539111328125,0.2060166015625,0.1426357421875,-0.2122744140625,-0.335,0.372,-0.282,0.313,0.445,0.389,-0.373,-0.3761171743322853,0.3936690540728345,-0.30835790170777055,0.37245067672638843,0.39968234065219344,0.3544418117442827,-0.3928553918138931,-4.624,-38.548,-4.764,-10.336,1.8,-0.068,-0.052
59,-0.1633349609375,0.211453125,-0.2379794921875,0.1539111328125,0.2060166015625,0.1426357421875,-0.2122744140625,-0.335,0.372,-0.282,0.313,0.445,0.389,-0.373,-0.37803269239795595,0.39213289254220923,-0.30149406604244217,0.3744625194180442,0.39990407674413564,0.35678105166552376,-0.39126691233275374,-4.624,-38.548,-4.764,-10.336,1.8,-0.068,-0.052
60,-0.1633349609375,0.211453125,-0.2379794921875,0.1539111328125,0.2060166015625,0.1426357421875,-0.2122744140625,-0.335,0.372,-0.282,0.313,0.445,0.389,-0.373,-0.3822979102366342,0.3877614947136338,-0.28411500694155806,0.3790013017504408,0.39990912501903275,0.3621706018062808,-0.38665708438176033,-4.624,-38.548,-4.764,-10.336,1.8,-0.068,-0.052
61,-0.1633349609375,0.211453125,-0.2379794921875,0.1539111328125,0.2060166015625,0.1426357421875,-0.2122744140625,-0.335,0.372,-0.282,0.313,0.445,0.389,-0.373,-0.38386777191843985,0.3857996975303436,-0.2770196783156232,0.38065397005522,0.39970868690367667,0.3641801389746805,-0.38459906412166067,-4.624,-38.548,-4.764,-10.336,1.8,-0.068,-0.052
62,-0.1827138671875,0.2301953125,-0.24910546875,0.1741865234375,0.225783203125,0.162208984375,-0.2317705078125,-0.409,0.378,-0.214,0.437,0.369,0.441,-0.426,-0.38605212882422274,0.3826022183920421,-0.26609881135746705,0.38300011029095477,0.39919787211102903,0.3670841843011513,-0.381258708655675,-7.068,-38.168,-4.024,-9.876,1.78,-0.088,-0.016
63,-0.1915771484375,0.2375087890625,-0.2515595703125,0.183896484375,0.23298828125,0.171259765625,-0.24039453125,-0.447,0.366,-0.125,0.499,0.379,0.446,-0.435,-0.3905409387767216,0.3739144125523632,-0.23920612575991573,0.3878979531894711,0.3970207185444484,0.37340588705923095,-0.37221664043156466,-6.912,-37.196,-3.932,-10.036,1.756,-0.172,-0.012
64,-0.1915771484375,0.2375087890625,-0.2515595703125,0.183896484375,0.23298828125,0.171259765625,-0.24039453125,-0.447,0.366,-0.125,0.499,0.379,0.446,-0.435,-0.39169432132267384,0.3710458712291363,-0.23097131169227297,0.38917862507624984,0.39612216976376047,0.37513560909033256,-0.36924215489922096,-6.912,-37.196,-3.932,-10.036,1.756,-0.172,-0.012
65,-0.2014697265625,0.2453359375,-0.2515595703125,0.19331640625,0.2410185546875,0.1815625,-0.247986328125,-0.495,0.39,-0.004,0.478,0.402,0.503,-0.376,-0.3950354792996929,0.3603183882449291,-0.20211988381528712,0.39297613605368004,0.3922251755014697,0.3805536156831451,-0.35814745971700607,-7.228,-37.792,-4.44,-9.808,1.744,-0.156,0.064
66,-0.21208203125,0.2534716796875,-0.250837890625,0.203748046875,0.2498623046875,0.1984501953125,-0.2580439453125,-0.533,0.413,0.02,0.507,0.456,0.557,-0.331,-0.3963141497124332,0.35470075912487536,-0.187971829680123,0.3944874197524,0.3899236515184383,0.38294835446962433,-0.3521808546385063,-6.752,-38.656,-4.324,-8.436,1.704,0.42,-0.068
67,-0.2234208984375,0.2608818359375,-0.2493935546875,0.2157763671875,0.2576865234375,0.2050341796875,-0.2613232421875,-0.571,0.376,0.07,0.607,0.406,0.685,-0.323,-0.39743664039199444,0.348558789061917,-0.17310161981047745,0.3958513084369486,0.38725344504736897,0.3851304733874917,-0.3460307227752848,-4.624,-39.844,-4.484,-11.0,2.036,-0.24,-0.12
68,-0.2234208984375,0.2608818359375,-0.2493935546875,0.2157763671875,0.2576865234375,0.2050341796875,-0.2613232421875,-0.571,0.376,0.07,0.607,0.406,0.685,-0.323,-0.39826369076259627,0.34277996421118395,-0.15958779882973823,0.3969051066826739,0.38461139111532944,0.387001843834308,-0.3400859441883053,-4.624,-39.844,-4.484,-11.0,2.036,-0.24,-0.12
69,-0.2291904296875,0.268400390625,-0.247373046875,0.227939453125,0.2655234375,0.2165634765625,-0.2674814453125,-0.577,0.378,0.101,0.616,0.397,0.554,-0.315,-0.3989856191917857,0.3359698455416553,-0.14418369968849218,0.39790370427931593,0.38136036991930977,0.3889527570509076,-0.3330804937435938,-3.772,-43.136,-4.6,-13.744,2.36,-0.128,-0.116
70,-0.2414560546875,0.2721044921875,-0.2456396484375,0.234021484375,0.2698359375,0.2225283203125,-0.2705673828125,-0.617,0.379,0.142,0.59,0.426,0.632,-0.302,-0.39956407506314395,0.3283203695092424,-0.12749169208116148,0.3987547427918891,0.37756330309660957,0.3908588192083402,-0.32523442032837124,-1.752,-44.592,-4.856,-12.324,2.204,-0.364,-0.128
71,-0.2476435546875,0.2753017578125,-0.243474609375,0.240833984375,0.2741611328125,0.2274736328125,-0.2732275390625,-0.623,0.349,0.191,0.644,0.439,0.55,-0.29,-0.3999430178136091,0.3182795295886507,-0.10639669785898681,0.39950575591220433,0.3723681176761109,0.3929794682258991,-0.3149407003802225,-1.276,-45.404,-5.712,-11.936,2.096,0.26,-0.14
72,-0.2601142578125,0.281064453125,-0.238412109375,0.2537197265625,0.279931640625,0.24167578125,-0.2779521484375,-0.627,0.292,0.243,0.645,0.297,0.735,-0.239,-0.3999516997963608,0.3067301528603461,-0.08314367806928136,0.3999350257535651,0.36614449754123357,0.3949665304571765,-0.30311810999292454,1.008,-45.888,-4.924,-13.492,2.744,-0.5,-0.12
73,-0.2664951171875,0.283541015625,-0.234802734375,0.2603876953125,0.283017578125,0.247240234375,-0.279798828125,-0.642,0.265,0.314,0.656,0.269,0.637,-0.209,-0.39972885425859916,0.29877399405291655,-0.06767508835400081,0.3999983894595436,0.36170972813865054,0.39609836074004656,-0.2949481195472412,1.912,-46.752,-4.996,-14.864,3.032,-0.436,-0.104
74,-0.2728876953125,0.2860107421875,-0.2306162109375,0.2664697265625,0.2869169921875,0.253205078125,-0.281025390625,-0.643,0.253,0.386,0.643,0.354,0.577,-0.159,-0.3993398929210066,0.2907978068233423,-0.052585286991145466,0.3998937681802745,0.35718624595793363,0.3970536351122076,-0.2868140979594838,2.976,-47.888,-5.272,-14.336,2.784,-0.472,-0.116
75,-0.2793779296875,0.2879658203125,-0.2255634765625,0.272984375,0.290208984375,0.2583564453125,-0.2818515625,-0.646,0.226,0.453,0.629,0.372,0.566,-0.112,-0.3981237203976558,0.2748410959480215,-0.023525150622889613,0.3992385353859454,0.3478507215255729,0.3985122139483481,-0.2705102928773856,3.296,-48.912,-5.804,-13.628,2.64,-0.332,-0.084
76,-0.2855654296875,0.2893037109375,-0.219796875,0.279517578125,0.29289453125,0.2643212890625,-0.2822646484375,-0.639,0.169,0.535,0.658,0.304,0.54,-0.071,-0.3974678809336296,0.26826908896805096,-0.011965849998271952,0.3988138376232429,0.34391664835229785,0.3989536935312008,-0.2638092569128518,5.048,-49.4,-5.896,-15.208,2.752,-0.212,-0.068
77,-0.297830078125,0.2912587890625,-0.207236328125,0.2913828125,0.2963935546875,0.276263671875,-0.2822646484375,-0.617,0.101,0.626,0.595,0.157,0.619,-0.001,-0.394732135019477,0.24643694401854122,0.024924210318081914,0.3968342954578421,0.33049341341987915,0.39984425479241725,-0.24155389770528002,9.196,-50.748,-6.244,-17.952,3.48,-0.552,-0.056
78,-0.303599609375,0.2917734375,-0.200306640625,0.297185546875,0.298859375,0.28140234375,-0.2822646484375,-0.598,0.068,0.683,0.593,0.225,0.509,-0.001,-0.3933566101740896,0.23730333431972328,0.039698316280528154,0.39577282704817285,0.3247407530299423,0.39997967752078156,-0.23227410376274196,11.428,-52.1,-7.216,-17.792,3.092,-0.172,-0.056
79,-0.31430859375,0.2919794921875,-0.186455078125,0.307029296875,0.3000986328125,0.291279296875,-0.2814384765625,-0.543,0.015,0.683,0.494,0.054,0.509,0.033,-0.39036131931999796,0.2196409134980556,0.06728555185658137,0.39336558694701435,0.31337169010322463,0.39988989470828834,-0.21428496822019683,14.3,-53.504,-4.692,-16.808,3.456,-0.364,0.052
80,-0.31430859375,0.2919794921875,-0.186455078125,0.307029296875,0.3000986328125,0.291279296875,-0.2814384765625,-0.543,0.015,0.683,0.494,0.054,0.509,0.033,-0.38875733440431437,0.2112158744329655,0.07998925584416004,0.39206635387117383,0.30785598157325444,0.3996951965048386,-0.20571323155250743,14.3,-53.504,-4.692,-16.808,3.456,-0.364,0.052
81,-0.31430859375,0.2919794921875,-0.186455078125,0.307029296875,0.3000986328125,0.291279296875,-0.2814384765625,-0.543,0.015,0.683,0.494,0.054,0.509,0.033,-0.38740268602938754,0.20428101574376845,0.09025130060499076,0.39092686921789965,0.3032696725155113,0.3994660308528513,-0.19866607746811246,14.3,-53.504,-4.692,-16.808,3.456,-0.364,0.052
82,-0.31430859375,0.2919794921875,-0.186455078125,0.307029296875,0.3000986328125,0.291279296875,-0.2814384765625,-0.543,0.015,0.683,0.494,0.054,0.509,0.033,-0.3822746744644474,0.18062763277254854,0.12387010744038328,0.386594813142506,0.2854478973115887,0.39805996346346556,-0.17183678252603424,14.3,-53.504,-4.692,-16.808,3.456,-0.364,0.052
83,-0.31430859375,0.2919794921875,-0.186455078125,0.307029296875,0.3000986328125,0.291279296875,-0.2814384765625,-0.543,0.015,0.683,0.494,0.054,0.509,0.033,-0.3799335550166242,0.17076743007975745,0.13728290660513695,0.3845978167445504,0.28056832830080436,0.39754713392743146,-0.16464107080813323,14.3,-53.504,-4.692,-16.808,3.456,-0.364,0.052
84,-0.335025390625,0.2863193359375,-0.1464814453125,0.3236962890625,0.2992724609375,0.3093935546875,-0.2730205078125,-0.244,-0.156,0.657,0.18,-0.055,0.257,0.176,-0.3753223908743202,0.15253075719567458,0.16120074512239302,0.38061752518220077,0.2678483023639459,0.3959812265153506,-0.14613913134186715,19.988,-55.176,-6.172,-19.004,3.656,-0.696,0.056
85,-0.335025390625,0.2863193359375,-0.1464814453125,0.3236962890625,0.2992724609375,0.3093935546875,-0.2730205078125,-0.244,-0.156,0.657,0.18,-0.055,0.257,0.176,-0.37347975699234454,0.14558172506498554,0.17001528255500298,0.37901321694309387,0.2629569350465572,0.395296560610475,-0.1391107084688363,19.988,-55.176,-6.172,-19.004,3.656,-0.696,0.056
86,-0.3364658203125,0.2843642578125,-0.14041796875,0.32470703125,0.2992724609375,0.310013671875,-0.2709677734375,-0.178,-0.17,0.608,0.13,-0.014,0.065,0.192,-0.37150089067164077,0.13831816977951447,0.17905571347714896,0.3772787442822437,0.2577876231497722,0.39452668253929757,-0.13174153218204307,18.396,-55.444,-6.288,-18.18,3.344,-0.016,0.052
87,-0.3373984375,0.281990234375,-0.1343544921875,0.3251396484375,0.2986533203125,0.31206640625,-0.26912109375,-0.125,-0.214,0.614,0.08,-0.016,0.13,0.2,-0.36931061938163445,0.13051369996793294,0.18857554977698548,0.3753550458071275,0.2521997878471643,0.39363725575521924,-0.12376868382783097,18.872,-55.336,-6.288,-17.724,3.136,-0.252,0.044
88,-0.3373984375,0.281990234375,-0.1343544921875,0.3251396484375,0.2986533203125,0.31206640625,-0.26912109375,-0.125,-0.214,0.614,0.08,-0.016,0.13,0.2,-0.36597552972832875,0.1190037530740929,0.20224410221771372,0.3724065447507783,0.24387442481107532,0.3922329716767909,-0.11218494134659876,18.872,-55.336,-6.288,-17.724,3.136,-0.252,0.044
89,-0.3373984375,0.281990234375,-0.1343544921875,0.3251396484375,0.2986533203125,0.31206640625,-0.26912109375,-0.125,-0.214,0.614,0.08,-0.016,0.13,0.2,-0.3636892773697,0.1113691532147486,0.21107232818283495,0.3703790807024724,0.23830563361684398,0.39122941946546763,-0.10446464756131234,18.872,-55.336,-6.288,-17.724,3.136,-0.252,0.044
90,-0.3373984375,0.281990234375,-0.1343544921875,0.3251396484375,0.2986533203125,0.31206640625,-0.26912109375,-0.125,-0.214,0.614,0.08,-0.016,0.13,0.2,-0.36114007410862276,0.1030742198920953,0.22044895998654207,0.3681116132527937,0.2322064766273486,0.39007668458822237,-0.09606848344325314,18.872,-55.336,-6.288,-17.724,3.136,-0.252,0.044
91,-0.3373984375,0.281990234375,-0.1343544921875,0.3251396484375,0.2986533203125,0.31206640625,-0.26912109375,-0.125,-0.214,0.614,0.08,-0.016,0.13,0.2,-0.3583859575594388,0.09434312284665072,0.2300725439302306,0.36565524098361757,0.22574306201300764,0.3887973081054188,-0.0872502535800064,18.872,-55.336,-6.288,-17.724,3.136,-0.252,0.044
92,-0.337810546875,0.2792119140625,-0.1282998046875,0.3254287109375,0.2974130859375,0.3130986328125,-0.2668623046875,-0.071,-0.254,0.61,0.039,-0.097,0.169,0.198,-0.3543457606080407,0.08189473602249152,0.24337914343995337,0.3620218163611917,0.21641940003731666,0.3868353758529712,-0.07456100168831101,18.076,-54.472,-5.088,-17.904,3.352,-0.408,0.064
93,-0.337810546875,0.2792119140625,-0.1282998046875,0.3254287109375,0.2974130859375,0.3130986328125,-0.2668623046875,-0.071,-0.254,0.61,0.039,-0.097,0.169,0.198,-0.3499622950586714,0.068950048822121,0.2566787992883912,0.358093091174961,0.20663246913385752,0.38468267680861296,-0.06159067818045835,18.076,-54.472,-5.088,-17.904,3.352,-0.408,0.064
94,-0.3335849609375,0.261705078125,-0.100029296875,0.3232626953125,0.295154296875,0.31392578125,-0.25537109375,0.13,-0.406,0.563,-0.029,-0.056,0.041,0.246,-0.345875903013777,0.05256100327345621,0.27276650659649276,0.35288244478881775,0.1940526453671698,0.38172171135002564,-0.04504370981453638,7.812,-45.296,-5.18,-13.72,2.512,-0.084,0.14
95,-0.3335849609375,0.261705078125,-0.100029296875,0.3232626953125,0.295154296875,0.31392578125,-0.25537109375,0.13,-0.406,0.563,-0.029,-0.056,0.041,0.246,-0.33887752775189484,0.03803339883347007,0.28627367022501293,0.3480609690151166,0.1827644145473134,0.3789014173495363,-0.030387530953178067,7.812,-45.296,-5.18,-13.72,2.512,-0.084,0.14
96,-0.3335849609375,0.261705078125,-0.100029296875,0.3232626953125,0.295154296875,0.31392578125,-0.25537109375,0.13,-0.406,0.563,-0.029,-0.056,0.041,0.246,-0.33575694612818785,0.02976607798684977,0.293659614986026,0.34522765280671247,0.1762763383884759,0.3772147707058455,-0.02205937045393016,7.812,-45.296,-5.18,-13.72,2.512,-0.084,0.14
97,-0.3335849609375,0.261705078125,-0.100029296875,0.3232626953125,0.295154296875,0.31392578125,-0.25537109375,0.13,-0.406,0.563,-0.029,-0.056,0.041,0.246,-0.3327354657362387,0.02080863824329835,0.3062051354875306,0.3400375920001924,0.16464432142568097,0.37407420281831855,-0.007297099916925636,7.812,-45.296,-5.18,-13.72,2.512,-0.084,0.14
98,-0.3335849609375,0.261705078125,-0.100029296875,0.3232626953125,0.295154296875,0.31392578125,-0.25537109375,0.13,-0.406,0.563,-0.029,-0.056,0.041,0.246,-0.32469194373847426,0.0017387597845314213,0.31705473435995274,0.3351275463545176,0.1539076514421942,0.37104396599348843,0.0061655547174076335,7.812,-45.296,-5.18,-13.72,2.512,-0.084,0.14
99,-0.3335849609375,0.261705078125,-0.100029296875,0.3232626953125,0.295154296875,0.31392578125,-0.25537109375,0.13,-0.406,0.563,-0.029,-0.056,0.041,0.246,-0.32146348972367567,-0.006195289915334223,0.3232011770754914,0.3321328060743158,0.14747759458780954,0.36917271687403364,0.014130217824433675,7.812,-45.296,-5.18,-13.72,2.512,-0.084,0.14
100,-0.3335849609375,0.261705078125,-0.100029296875,0.3232626953125,0.295154296875,0.31392578125,-0.25537109375,0.13,-0.406,0.563,-0.029,-0.056,0.041,0.246,-0.3177998578233771,-0.015837956386725843,0.3303964155543839,0.32840448620658086,0.13958946570997266,0.3668153773940014,0.023847474877561527,7.812,-45.296,-5.18,-13.72,2.512,-0.084,0.14
101,-0.326470703125,0.2442041015625,-0.0773896484375,0.3222431640625,0.2937080078125,0.312892578125,-0.243673828125,0.181,-0.463,0.591,-0.002,-0.052,0.011,0.311,-0.30729413834586405,-0.03896168604403886,0.3463544599845624,0.31907215142932355,0.12036023324090939,0.3608071876207115,0.047134548046702286,-2.176,-43.244,-6.82,-11.136,1.8,0.396,0.284
102,-0.3199814453125,0.2223681640625,-0.04840625,0.321376953125,0.290416015625,0.315978515625,-0.223765625,0.098,-0.432,0.617,-0.022,-0.037,0.042,0.402,-0.3036152455866885,-0.047045668661027475,0.3514922478691137,0.3156946093195614,0.11358408114741676,0.35860328771043914,0.05520819705161173,-7.336,-42.704,-7.124,-9.148,1.064,0.836,0.14
103,-0.3199814453125,0.2223681640625,-0.04840625,0.321376953125,0.290416015625,0.315978515625,-0.223765625,0.098,-0.432,0.617,-0.022,-0.037,0.042,0.402,-0.29270544082583155,-0.07008509360668556,0.3648602500162742,0.30565047767233333,0.09377889409221601,0.35190252260924815,0.07844625921635773,-7.336,-42.704,-7.124,-9.148,1.064,0.836,0.14
104,-0.318740234375,0.2129970703125,-0.0374521484375,0.3228203125,0.284244140625,0.3221494140625,-0.215966796875,0.061,-0.49,0.552,0.099,-0.317,0.303,0.392,-0.28798264291084164,-0.07971787494759112,0.36987444903215927,0.3012739943768472,0.08552001409751842,0.34899812431514565,0.08797167907505798,-7.176,-37.304,-3.884,-13.148,2.712,-0.44,0.168
105,-0.318328125,0.2092919921875,-0.031974609375,0.3220986328125,0.28341796875,0.3231826171875,-0.2122744140625,0.047,-0.405,0.526,-0.032,-0.219,0.302,0.375,-0.2840826496164254,-0.08751747437134778,0.3736770384218445,0.2976544380457031,0.07868759529495951,0.34654485922168377,0.09578294923881185,-6.324,-35.632,-3.144,-11.8,2.66,-0.696,0.148
106,-0.3185341796875,0.2016708984375,-0.0188544921875,0.321232421875,0.28219140625,0.3231826171875,-0.2040634765625,-0.007,-0.379,0.66,-0.052,-0.027,-0.039,0.413,-0.2721942427121821,-0.1104616484266243,0.3835002914041083,0.28657465363557105,0.05825530626926948,0.33894307967157505,0.11874578919835302,-3.56,-44.16,-8.048,-9.604,0.976,1.08,0.252
107,-0.3185341796875,0.2016708984375,-0.0188544921875,0.321232421875,0.28219140625,0.3231826171875,-0.2040634765625,-0.007,-0.379,0.66,-0.052,-0.027,-0.039,0.413,-0.2674205026523981,-0.11930608036291344,0.38672266717389575,0.28212668419306325,0.0502425475729555,0.33585280621300195,0.12758975117798926,-3.56,-44.16,-8.048,-9.604,0.976,1.08,0.252
108,-0.3185341796875,0.2016708984375,-0.0188544921875,0.321232421875,0.28219140625,0.3231826171875,-0.2040634765625,-0.007,-0.379,0.66,-0.052,-0.027,-0.039,0.413,-0.2584690726763516,-0.13540396770068783,0.39174853738971477,0.2737624048529805,0.03545412188146183,0.3299889261605702,0.14367763516330545,-3.56,-44.16,-8.048,-9.604,0.976,1.08,0.252
109,-0.3188427734375,0.1927109375,-0.0080537109375,0.3223876953125,0.2741611328125,0.32852734375,-0.1954384765625,-0.013,-0.46,0.553,0.084,-0.4,0.258,0.44,-0.2518047974141587,-0.14698204074978133,0.3946674912603921,0.2675263240064021,0.02465717223498691,0.32557456039227783,0.1552239817393237,-0.956,-41.084,-4.484,-13.972,2.576,-0.232,0.148
110,-0.3188427734375,0.1892119140625,-0.0034345703125,0.321810546875,0.2716953125,0.3299736328125,-0.1907265625,-0.01,-0.4,0.465,-0.021,-0.404,0.238,0.454,-0.24492328628351628,-0.15865054699678235,0.396999040132278,0.2610097649483146,0.013547917280139321,0.3209068034545801,0.16696732714839016,-0.688,-38.816,-2.52,-13.264,3.032,-0.804,0.14
111,-0.3188427734375,0.1892119140625,-0.0034345703125,0.321810546875,0.2716953125,0.3299736328125,-0.1907265625,-0.01,-0.4,0.465,-0.021,-0.404,0.238,0.454,-0.238337204833923,-0.16935529404980232,0.3985659649851616,0.2548919349036909,0.0033399709871950525,0.31652772313837674,0.17751596620887067,-0.688,-38.816,-2.52,-13.264,3.032,-0.804,0.14
112,-0.319466796875,0.178296875,0.0122666015625,0.3197802734375,0.2642841796875,0.3283212890625,-0.177376953125,-0.017,-0.374,0.519,-0.081,-0.326,-0.006,0.434,-0.23142705244810902,-0.1803364347143288,0.3995910473903015,0.24839122234843403,-0.007354806916590769,0.31181831857060627,0.18845106814343368,2.976,-45.836,-5.572,-11.64,1.592,0.448,0.168
113,-0.319466796875,0.178296875,0.0122666015625,0.3197802734375,0.2642841796875,0.3283212890625,-0.177376953125,-0.017,-0.374,0.519,-0.081,-0.326,-0.006,0.434,-0.22429186941642418,-0.1913312356217865,0.3999948721269519,0.24166523267458478,-0.018233432904663283,0.3069117120231506,0.1993906177823256,2.976,-45.836,-5.572,-11.64,1.592,0.448,0.168
114,-0.319466796875,0.178296875,0.0122666015625,0.3197802734375,0.2642841796875,0.3283212890625,-0.177376953125,-0.017,-0.374,0.519,-0.081,-0.326,-0.006,0.434,-0.2167517507347701,-0.20256841440344553,0.39973105376689283,0.23456164229004195,-0.0295160888734405,0.301692806808443,0.21054953230819012,2.976,-45.836,-5.572,-11.64,1.592,0.448,0.168
115,-0.319466796875,0.178296875,0.0122666015625,0.3197802734375,0.2642841796875,0.3283212890625,-0.177376953125,-0.017,-0.374,0.519,-0.081,-0.326,-0.006,0.434,-0.2101082829523917,-0.21217699974207221,0.39893422725675415,0.22828375406155163,-0.03932168906729377,0.2970493669196402,0.22008616397125946,2.976,-45.836,-5.572,-11.64,1.592,0.448,0.168
116,-0.319466796875,0.178296875,0.0122666015625,0.3197802734375,0.2642841796875,0.3283212890625,-0.177376953125,-0.017,-0.374,0.519,-0.081,-0.326,-0.006,0.434,-0.2025927840298159,-0.22270064973941317,0.39742458189718183,0.22118270448195357,-0.05022366315338422,0.2917671664415947,0.2305053215932953,2.976,-45.836,-5.572,-11.64,1.592,0.448,0.168
117,-0.3193642578125,0.1703671875,0.0209111328125,0.3190576171875,0.2560341796875,0.3301806640625,-0.1697861328125,-0.001,-0.404,0.436,-0.026,-0.443,0.107,0.385,-0.19322608818129905,-0.23532972428920687,0.39467548161375504,0.21231477955813427,-0.06357716206982399,0.2851195196136615,0.24300353294793686,4.516,-42.272,-3.86,-14.268,2.828,-0.604,0.168
118,-0.3193642578125,0.1703671875,0.0209111328125,0.3190576171875,0.2560341796875,0.3301806640625,-0.1697861328125,-0.001,-0.404,0.436,-0.026,-0.443,0.107,0.385,-0.18648287035632355,-0.24409816621379946,0.3921242195643989,0.2059196428543867,-0.07303012824932964,0.2802901939125504,0.251674286623986,4.516,-42.272,-3.86,-14.268,2.828,-0.604,0.168
119,-0.3158583984375,0.147919921875,0.0438212890625,0.3132646484375,0.2340205078125,0.32544140625,-0.1461845703125,0.087,-0.405,0.378,-0.073,-0.392,0.029,0.412,-0.17900204852120624,-0.2535086119455579,0.38876000881859163,0.19881921765826338,-0.0833498161016269,0.2749029178462285,0.2609552908688688,5.848,-43.084,-4.0,-14.544,2.824,-0.572,0.14
120,-0.3158583984375,0.147919921875,0.0438212890625,0.3132646484375,0.2340205078125,0.32544140625,-0.1461845703125,0.087,-0.405,0.378,-0.073,-0.392,0.029,0.412,-0.16911276280441,-0.26549041010124846,0.38346346854656455,0.1893863475257148,-0.09678998039157873,0.26769271221604457,0.27276576175275713,5.848,-43.084,-4.0,-14.544,2.824,-0.572,0.14
121,-0.3158583984375,0.147919921875,0.0438212890625,0.3132646484375,0.2340205078125,0.32544140625,-0.1461845703125,0.087,-0.405,0.378,-0.073,-0.392,0.029,0.412,-0.16391474241467902,-0.271525035871609,0.3803367443611851,0.1844615845224271,-0.10368289128351832,0.2639079591579033,0.27869498860254804,5.848,-43.084,-4.0,-14.544,2.824,-0.572,0.14
122,-0.313587890625,0.1409091796875,0.051599609375,0.3097822265625,0.2292822265625,0.321736328125,-0.1381796875,0.11,-0.349,0.396,-0.172,-0.2,-0.213,0.408,-0.15593217485461586,-0.28055327542058195,0.375027638637647,0.1768176977439957,-0.1142276119289921,0.25799702399536634,0.28759837517059866,5.42,-43.836,-6.012,-11.684,1.364,0.656,0.128
123,-0.3121474609375,0.1368896484375,0.0573564453125,0.308193359375,0.2208388671875,0.321736328125,-0.130794921875,0.132,-0.37,0.292,-0.085,-0.422,-0.008,0.376,-0.14761361265547104,-0.28955311831609665,0.3689417059582393,0.16882266681396624,-0.12504845030032735,0.25178104823717395,0.2965028856212713,5.048,-44.916,-4.576,-13.284,2.244,0.208,0.172
124,-0.310603515625,0.1325673828125,0.0573564453125,0.308193359375,0.2208388671875,0.321736328125,-0.130794921875,0.148,-0.424,0.292,-0.085,-0.422,-0.008,0.376,-0.14045605971563185,-0.29701496853119463,0.36322278665486485,0.1620654319502729,-0.13401909438618329,0.246505771905537,0.30370655417138626,4.516,-44.54,-4.576,-13.284,2.244,0.208,0.172
125,-0.310603515625,0.1325673828125,0.0573564453125,0.308193359375,0.2208388671875,0.321736328125,-0.130794921875,0.148,-0.424,0.292,-0.085,-0.422,-0.008,0.376,-0.1331807375650132,-0.30439372767861284,0.35692882397407116,0.15503740216263961,-0.14319699761997276,0.2409898527145794,0.310900644417529,4.516,-44.54,-4.576,-13.284,2.244,0.208,0.172
126,-0.310603515625,0.1325673828125,0.0573564453125,0.308193359375,0.2208388671875,0.321736328125,-0.130794921875,0.148,-0.424,0.292,-0.085,-0.422,-0.008,0.376,-0.12158019525595415,-0.3153825383977916,0.34621629144276045,0.14398404300485973,-0.157319574634476,0.23224779328844833,0.32162610662106716,4.516,-44.54,-4.576,-13.284,2.244,0.208,0.172
127,-0.308951171875,0.1284443359375,0.0599462890625,0.307029296875,0.216306640625,0.3225625,-0.1272958984375,0.16,-0.433,0.264,-0.066,-0.461,0.052,0.36,-0.11590322884937997,-0.3205350895823676,0.34058816714057505,0.13854238481459472,-0.16413249944166847,0.22791691250586302,0.3266413838817903,4.304,-43.944,-3.468,-14.68,2.928,-0.368,0.18
128,-0.3034970703125,0.1171181640625,0.06887890625,0.3019677734375,0.208896484375,0.3190634765625,-0.1159990234375,0.179,-0.374,0.313,-0.195,-0.244,-0.152,0.38,-0.10858834610035573,-0.3269330756230465,0.33299030266268215,0.13152335556295344,-0.17277570099683304,0.2223173350164224,0.33283444709054544,3.456,-44.108,-5.272,-12.164,1.86,0.364,0.244
129,-0.299580078125,0.1083642578125,0.074203125,0.29979296875,0.2008779296875,0.3182373046875,-0.107787109375,0.194,-0.438,0.275,-0.108,-0.42,-0.066,0.418,-0.09011775055110184,-0.3420327835255034,0.3119267364238396,0.11353946259870484,-0.19423541561548446,0.20782996613197163,0.34742416716192653,2.176,-44.16,-4.576,-14.176,2.44,0.16,0.14
130,-0.2974189453125,0.1041513671875,0.0766572265625,0.2984931640625,0.197779296875,0.3184443359375,-0.1030615234375,0.207,-0.443,0.245,-0.109,-0.387,0.028,0.438,-0.08276605591593746,-0.34734545663879235,0.3032756549794124,0.10664901335663785,-0.20219566741386805,0.20223377932548128,0.3525249978611673,1.752,-43.46,-3.932,-14.796,2.604,-0.532,0.104
131,-0.2974189453125,0.1041513671875,0.0766572265625,0.2984931640625,0.197779296875,0.3184443359375,-0.1030615234375,0.207,-0.443,0.245,-0.109,-0.387,0.028,0.438,-0.07671499295301798,-0.3517095785247235,0.29558069694488753,0.10071124558489525,-0.20893593756425852,0.1973913030977471,0.35670121056296494,1.752,-43.46,-3.932,-14.796,2.604,-0.532,0.104
132,-0.2889677734375,0.0881875,0.0860146484375,0.2919697265625,0.1868701171875,0.312685546875,-0.0866396484375,0.214,-0.409,0.218,-0.165,-0.319,-0.126,0.398,-0.057068431824708214,-0.36430441112422035,0.26971197379753087,0.08183916860913651,-0.22965706598360938,0.18187214150784084,0.3686768258751836,0.9,-43.46,-5.272,-13.192,1.956,0.304,0.172
133,-0.28659375,0.0838662109375,0.0878916015625,0.2906611328125,0.1829580078125,0.312685546875,-0.0829462890625,0.222,-0.43,0.199,-0.126,-0.382,-0.098,0.381,-0.046365621171507936,-0.37044356453291344,0.25453954182384336,0.07139343567856404,-0.24066362233675856,0.17319767908484668,0.37446245154812696,0.744,-43.512,-4.368,-14.748,2.464,-0.088,0.192
134,-0.28659375,0.0838662109375,0.0878916015625,0.2906611328125,0.1829580078125,0.312685546875,-0.0829462890625,0.222,-0.43,0.199,-0.126,-0.382,-0.098,0.381,-0.03667174166856876,-0.375478887106405,0.24037121877143386,0.06197390626494499,-0.2503072609370557,0.16532421198557867,0.379168214038482,0.744,-43.512,-4.368,-14.748,2.464,-0.088,0.192
135,-0.28659375,0.0838662109375,0.0878916015625,0.2906611328125,0.1829580078125,0.312685546875,-0.0829462890625,0.222,-0.43,0.199,-0.126,-0.382,-0.098,0.381,-0.03124972833260188,-0.3780520833393032,0.23237847452675348,0.056786226222021875,-0.2555034752650415,0.16096816484750034,0.3815533647902866,0.744,-43.512,-4.368,-14.748,2.464,-0.088,0.192
136,-0.282265625,0.07583203125,0.0914921875,0.2871875,0.1769931640625,0.309806640625,-0.0755615234375,0.221,-0.411,0.18,-0.168,-0.3,-0.138,0.376,-0.02039200133011501,-0.3828519754553224,0.21514059045442654,0.04585542781361137,-0.26618493039518004,0.1517423058258065,0.3861017575311696,0.372,-43.728,-4.392,-14.84,2.376,-0.212,0.276
137,-0.277833984375,0.0681083984375,0.095091796875,0.2828466796875,0.1714287109375,0.306927734375,-0.06795703125,0.222,-0.382,0.178,-0.233,-0.284,-0.137,0.375,-0.01100398339706559,-0.3865277717145205,0.20086270138966716,0.03705615587412316,-0.2745207163586329,0.1442688681408214,0.38929450980945374,0.528,-43.512,-5.388,-12.896,1.956,-0.036,0.356
138,-0.2755703125,0.0639853515625,0.09652734375,0.28110546875,0.1675166015625,0.3054814453125,-0.0640576171875,0.223,-0.409,0.171,-0.185,-0.316,-0.16,0.394,-0.005784761159142594,-0.38837647109281415,0.19248281876424894,0.03197841346924072,-0.2792236995449311,0.13993502413320144,0.39094764482836636,0.848,-44.0,-5.596,-13.836,2.044,0.104,0.276
139,-0.2732998046875,0.0599716796875,0.097537109375,0.2789306640625,0.16319140625,0.305068359375,-0.0595517578125,0.227,-0.41,0.133,-0.192,-0.421,-0.106,0.412,0.004726657502358331,-0.3917018263322636,0.17519322309525806,0.02168524563496689,-0.28851746203279816,0.13110317136035401,0.3938757833092524,0.9,-44.324,-5.04,-13.948,2.484,-0.292,0.208
140,-0.27092578125,0.0559521484375,0.0985478515625,0.2769091796875,0.159486328125,0.3034287109375,-0.0554462890625,0.231,-0.403,0.101,-0.209,-0.406,-0.079,0.435,0.013902423740987727,-0.3941470397961957,0.15980972967852616,0.012724319135866677,-0.2963393348635441,0.12337252689571697,0.39595824719199535,1.06,-44.324,-4.716,-14.292,2.532,-0.488,0.172
141,-0.268662109375,0.05214453125,0.0996943359375,0.2744462890625,0.1557802734375,0.30136328125,-0.051546875,0.228,-0.398,0.104,-0.22,-0.38,-0.197,0.41,0.02737995834696537,-0.396976037775066,0.13664158911331797,-0.00048511970709189226,-0.30741627556889184,0.111891750595292,0.39824354629543324,1.168,-44.268,-4.972,-14.36,2.524,-0.148,0.16
142,-0.268662109375,0.05214453125,0.0996943359375,0.2744462890625,0.1557802734375,0.30136328125,-0.051546875,0.228,-0.398,0.104,-0.22,-0.38,-0.197,0.41,0.03569540639635841,-0.39826348311025195,0.1220402921139667,-0.008658701973960986,-0.31399862343327833,0.10473166389184518,0.39918895983262087,1.168,-44.268,-4.972,-14.36,2.524,-0.148,0.16
143,-0.2640244140625,0.044625,0.1015712890625,0.2690771484375,0.14940234375,0.2976572265625,-0.0437490234375,0.234,-0.377,0.1,-0.274,-0.318,-0.19,0.387,0.0460743463763898,-0.399375192771083,0.10352538700153031,-0.01887109201859057,-0.3219238144365946,0.09573545901178176,0.39986328904462687,1.06,-44.216,-5.848,-13.284,2.008,0.024,0.208
144,-0.2640244140625,0.044625,0.1015712890625,0.2690771484375,0.14940234375,0.2976572265625,-0.0437490234375,0.234,-0.377,0.1,-0.274,-0.318,-0.19,0.387,0.05108819685268208,-0.39971330263713667,0.09414317796232458,-0.024002364304672726,-0.3257792298188742,0.0911920550526874,0.3999981417667681,1.06,-44.216,-5.848,-13.284,2.008,0.024,0.208
145,-0.2640244140625,0.044625,0.1015712890625,0.2690771484375,0.14940234375,0.2976572265625,-0.0437490234375,0.234,-0.377,0.1,-0.274,-0.318,-0.19,0.387,0.06196772064690351,-0.3999996031191879,0.07463255703600931,-0.03453665970930369,-0.33342825412480215,0.08181381942840932,0.3998010370350827,1.06,-44.216,-5.848,-13.284,2.008,0.024,0.208
146,-0.2640244140625,0.044625,0.1015712890625,0.2690771484375,0.14940234375,0.2976572265625,-0.0437490234375,0.234,-0.377,0.1,-0.274,-0.318,-0.19,0.387,0.06952718650531128,-0.3998339489659508,0.0606606900358898,-0.04201010120499662,-0.3386351532029066,0.07511663820866751,0.39930087502864503,1.06,-44.216,-5.848,-13.284,2.008,0.024,0.208
147,-0.2615546875,0.04071484375,0.1021484375,0.2666142578125,0.1452841796875,0.296224609375,-0.04025,0.236,-0.394,0.078,-0.252,-0.38,-0.209,0.366,0.07780921692216813,-0.3993052474204525,0.04521206384936805,-0.050210187436788345,-0.3441345862499252,0.06772874074657446,0.3984002191290189,1.328,-45.024,-5.92,-13.468,2.204,0.052,0.22
148,-0.2615546875,0.04071484375,0.1021484375,0.2666142578125,0.1452841796875,0.296224609375,-0.04025,0.236,-0.394,0.078,-0.252,-0.38,-0.209,0.366,0.08762672040390362,-0.39820427505875805,0.02674750553189544,-0.05993526706271146,-0.3503630691292172,0.05891226274566511,0.3968518692349428,1.328,-45.024,-5.92,-13.468,2.204,0.052,0.22
149,-0.2615546875,0.04071484375,0.1021484375,0.2666142578125,0.1452841796875,0.296224609375,-0.04025,0.236,-0.394,0.078,-0.252,-0.38,-0.209,0.366,0.09319828899882822,-0.39734681331957594,0.01618588933404617,-0.06546837703983953,-0.35376273456729046,0.053868827487272564,0.39573429146034944,1.328,-45.024,-5.92,-13.468,2.204,0.052,0.22
150,-0.24898046875,0.020833984375,0.10229296875,0.2532861328125,0.1246904296875,0.28634765625,-0.0207548828125,0.253,-0.39,0.011,-0.285,-0.4,-0.268,0.412,0.10349620891517873,-0.395312503601603,-0.003476482418617331,-0.07572003555544542,-0.3597807598984035,0.044467392008994126,0.39321853949882885,2.604,-44.16,-5.736,-13.284,2.232,0.032,0.168
151,-0.2435205078125,0.0128076171875,0.100849609375,0.2476376953125,0.11480078125,0.282642578125,-0.0119365234375,0.276,-0.404,-0.068,-0.293,-0.511,-0.177,0.445,0.11138307558996297,-0.39335672745080874,2.013741749330635e-05,-0.08374222578448332,-0.364230572273674,0.03706290401580849,0.3908354970941223,3.348,-44.972,-5.272,-13.516,2.412,-0.316,0.096
152,-0.2435205078125,0.0128076171875,0.100849609375,0.2476376953125,0.11480078125,0.282642578125,-0.0119365234375,0.276,-0.404,-0.068,-0.293,-0.511,-0.177,0.445,0.11857752698621414,-0.3912661044456853,0.0008514056741437947,-0.09074920982954578,-0.36792971542565617,0.03055490554535721,0.3884532026082713,3.348,-44.972,-5.272,-13.516,2.412,-0.316,0.096
153,-0.2435205078125,0.0128076171875,0.100849609375,0.2476376953125,0.11480078125,0.282642578125,-0.0119365234375,0.276,-0.404,-0.068,-0.293,-0.511,-0.177,0.445,0.1252191666477854,-0.3890678758428212,0.0016433194935923476,-0.09740069548819724,-0.3712738049231094,0.02434561543084595,0.3859313314905066,3.348,-44.972,-5.272,-13.516,2.412,-0.316,0.096
154,-0.2376416015625,0.0049794921875,0.0989814453125,0.241123046875,0.1057373046875,0.2783173828125,-0.003931640625,0.291,-0.394,-0.104,-0.326,-0.471,-0.211,0.406,0.13465518132605533,-0.38551625542212276,0.0027717363025657198,-0.1068267852003399,-0.3757313681672836,0.015490865883854416,0.3819180564102629,3.88,-45.08,-4.764,-13.924,2.636,-0.492,0.136
155,-0.2314609375,-0.0025390625,0.0971044921875,0.234166015625,0.0975,0.2719384765625,0.0036728515625,0.305,-0.378,-0.084,-0.35,-0.411,-0.333,0.379,0.1414861918320949,-0.3826113948481608,0.003635608255412176,-0.11402753861357039,-0.3789098604349186,0.008678607725642737,0.3784995691358069,4.252,-45.132,-5.944,-13.788,2.1,0.004,0.168
156,-0.2314609375,-0.0025390625,0.0971044921875,0.234166015625,0.0975,0.2719384765625,0.0036728515625,0.305,-0.378,-0.084,-0.35,-0.411,-0.333,0.379,0.14655489378371275,-0.3802750422481906,0.004211806217857875,-0.11876361056895751,-0.38088938861228705,0.004180099778480717,0.3760862963310583,4.252,-45.132,-5.944,-13.788,2.1,0.004,0.168
157,-0.228263671875,-0.0066611328125,0.0958046875,0.231125,0.0925556640625,0.269873046875,0.0071591796875,0.322,-0.397,-0.118,-0.342,-0.466,-0.241,0.367,0.15607926844058898,-0.3754538665123763,0.005378514414597985,-0.1283526421766243,-0.3846376185504316,-0.005035141783404423,0.37075280640119007,4.516,-45.728,-5.64,-14.04,2.08,-0.212,0.24
158,-0.221458984375,-0.0151064453125,0.0929267578125,0.2248984375,0.0816328125,0.265767578125,0.01475,0.34,-0.431,-0.145,-0.31,-0.57,-0.211,0.373,0.16126822763713097,-0.37259067591672745,0.006018782287087555,-0.13357964676505954,-0.3865099525690245,-0.010020597968465023,0.3676545848836775,5.42,-44.648,-4.484,-15.848,2.792,-0.792,0.296
159,-0.221458984375,-0.0151064453125,0.0929267578125,0.2248984375,0.0816328125,0.265767578125,0.01475,0.34,-0.431,-0.145,-0.31,-0.57,-0.211,0.373,0.16820127243376856,-0.368448767536074,0.006890997434194593,-0.1406601362255108,-0.38887942974042405,-0.016873828793232116,0.3631479577305298,5.42,-44.648,-4.484,-15.848,2.792,-0.792,0.296
160,-0.2142490234375,-0.023037109375,0.0909140625,0.2175087890625,0.0725693359375,0.259376953125,0.022341796875,0.358,-0.397,-0.098,-0.362,-0.449,-0.341,0.386,0.17591669315522906,-0.3635629252829205,0.00785082553686932,-0.14839359967793805,-0.39122511578545177,-0.024404476621505435,0.35787171451309785,5.636,-44.052,-4.88,-14.084,2.192,-0.276,0.172
161,-0.2142490234375,-0.023037109375,0.0909140625,0.2175087890625,0.0725693359375,0.259376953125,0.022341796875,0.358,-0.397,-0.098,-0.362,-0.449,-0.341,0.386,0.1856188057614077,-0.356803897654289,0.009083480652944143,-0.1582350878539669,-0.3938362228609463,-0.03407248329743032,0.3506001807452753,5.636,-44.052,-4.88,-14.084,2.192,-0.276,0.172
162,-0.2142490234375,-0.023037109375,0.0909140625,0.2175087890625,0.0725693359375,0.259376953125,0.022341796875,0.358,-0.397,-0.098,-0.362,-0.449,-0.341,0.386,0.1924119673033132,-0.35169777546308273,0.009955169852103396,-0.16512527053898585,-0.3954059191849299,-0.04089110646256876,0.345137695998577,5.636,-44.052,-4.88,-14.084,2.192,-0.276,0.172
163,-0.202298828125,-0.03498046875,0.087314453125,0.20548046875,0.0565078125,0.251552734375,0.035072265625,0.401,-0.413,-0.116,-0.393,-0.569,-0.278,0.421,0.1985523269309311,-0.3467912904635997,0.010752755177860118,-0.17137781874989616,-0.3966414291753715,-0.04711967569879508,0.3399099662336878,7.124,-45.024,-4.532,-15.388,2.792,-0.592,0.104
164,-0.202298828125,-0.03498046875,0.087314453125,0.20548046875,0.0565078125,0.251552734375,0.035072265625,0.401,-0.413,-0.116,-0.393,-0.569,-0.278,0.421,0.2069215089150597,-0.33966587031750234,0.011852552871997251,-0.17991915877548015,-0.39803007611966074,-0.05569612227290854,0.33233583050281834,7.124,-45.024,-4.532,-15.388,2.792,-0.592,0.104
165,-0.1935322265625,-0.0425,0.08529296875,0.1963662109375,0.046412109375,0.24353515625,0.0426640625,0.44,-0.38,-0.103,-0.456,-0.509,-0.408,0.386,0.21360312909160506,-0.3335896752970054,0.012744204681739205,-0.18677111184786724,-0.39888621672657054,-0.06263071216218753,0.32589789520428475,8.504,-46.104,-4.832,-14.268,2.504,-0.264,0.14
166,-0.1935322265625,-0.0425,0.08529296875,0.1963662109375,0.046412109375,0.24353515625,0.0426640625,0.44,-0.38,-0.103,-0.456,-0.509,-0.408,0.386,0.22040852578886083,-0.32706529167145254,0.013660880980323956,-0.19374032472979552,-0.39951362439501614,-0.06973566083228841,0.3190101620400041,8.504,-46.104,-4.832,-14.268,2.504,-0.264,0.14
167,-0.1841552734375,-0.0503271484375,0.0834248046875,0.18679296875,0.035076171875,0.236537109375,0.0498427734375,0.471,-0.388,-0.093,-0.488,-0.565,-0.327,0.355,0.2344042949940758,-0.31245986994784625,0.01558837077386894,-0.20814911013765092,-0.39999686974200604,-0.08460896351459107,0.30364104529932706,7.548,-45.348,-5.204,-13.56,2.328,-0.468,0.168
168,-0.1791064453125,-0.0543408203125,0.08226953125,0.18201953125,0.028478515625,0.232005859375,0.0533408203125,0.491,-0.409,-0.103,-0.458,-0.635,-0.44,0.349,0.24012966750941703,-0.30602380191701123,0.016392162021120225,-0.2140513397008098,-0.399863057620248,-0.09077357963495633,0.2968950535911567,7.92,-45.132,-4.88,-14.816,2.628,-0.188,0.168
169,-0.1791064453125,-0.0543408203125,0.08226953125,0.18201953125,0.028478515625,0.232005859375,0.0533408203125,0.491,-0.409,-0.103,-0.458,-0.635,-0.44,0.349,0.2439327321000486,-0.30158531224715224,0.01693256230165411,-0.21798590626263914,-0.39966197412890275,-0.09491150095998925,0.2922450966990142,7.92,-45.132,-4.88,-14.816,2.628,-0.188,0.168
170,-0.1791064453125,-0.0543408203125,0.08226953125,0.18201953125,0.028478515625,0.232005859375,0.0533408203125,0.491,-0.409,-0.103,-0.458,-0.635,-0.44,0.349,0.24904225354835524,-0.29540514584333655,0.017668505148306722,-0.22329822818193068,-0.39924428386745386,-0.10053069306547538,0.28576911786478154,7.92,-45.132,-4.88,-14.816,2.628,-0.188,0.168
171,-0.1630205078125,-0.0652548828125,0.0796806640625,0.1653525390625,0.0130244140625,0.2186171875,0.0640185546875,0.544,-0.368,-0.071,-0.538,-0.476,-0.569,0.359,0.25595893511602813,-0.2866624267763384,0.01867712750336842,-0.23048001721296632,-0.3984044903846342,-0.10818561604213413,0.27585554142190766,7.868,-44.648,-4.9,-14.496,2.172,0.004,0.156
172,-0.1630205078125,-0.0652548828125,0.0796806640625,0.1653525390625,0.0130244140625,0.2186171875,0.0640185546875,0.544,-0.368,-0.071,-0.538,-0.476,-0.569,0.359,0.2619327970768524,-0.2787129233021665,0.019567419899023882,-0.2367298473380064,-0.3974056190291014,-0.11490887095623054,0.26837960427011165,7.868,-44.648,-4.9,-14.496,2.172,0.004,0.156
173,-0.151583984375,-0.0727744140625,0.07766796875,0.1546328125,0.0012880859375,0.2091533203125,0.0710029296875,0.573,-0.377,-0.103,-0.542,-0.586,-0.473,0.36,0.2688639032360661,-0.2690657734102773,0.020614904204629567,-0.24397194565727914,-0.39592205428877086,-0.12277611439175085,0.258359255252073,5.208,-41.3,-4.672,-13.332,2.036,-0.108,0.064
174,-0.151583984375,-0.0727744140625,0.07766796875,0.1546328125,0.0012880859375,0.2091533203125,0.0710029296875,0.573,-0.377,-0.103,-0.542,-0.586,-0.473,0.36,0.2767400377467894,-0.2574843972185001,0.02183274659441957,-0.25223828362703876,-0.39377833132788975,-0.13186327852324056,0.24634183525828154,5.208,-41.3,-4.672,-13.332,2.036,-0.108,0.064
175,-0.151583984375,-0.0727744140625,0.07766796875,0.1546328125,0.0012880859375,0.2091533203125,0.0710029296875,0.573,-0.377,-0.103,-0.542,-0.586,-0.473,0.36,0.28078846054216,-0.2512595891156873,0.022471243623262405,-0.25650240624213694,-0.39247561924001945,-0.13659858281460538,0.23989021819233947,5.208,-41.3,-4.672,-13.332,2.036,-0.108,0.064
176,-0.13973046875,-0.079572265625,0.075791015625,0.14319140625,-0.0102529296875,0.2011220703125,0.0773681640625,0.598,-0.344,-0.102,-0.591,-0.581,-0.352,0.316,0.2884051486283686,-0.23900462953927903,0.023698546513439493,-0.26456230064977504,-0.3896283156500182,-0.14563550729853697,0.22722188920497322,3.24,-39.628,-3.884,-12.988,2.348,-0.888,0.084
177,-0.13973046875,-0.079572265625,0.075791015625,0.14319140625,-0.0102529296875,0.2011220703125,0.0773681640625,0.598,-0.344,-0.102,-0.591,-0.581,-0.352,0.316,0.2944757814719631,-0.22872313965731372,0.0247015442323198,-0.2710106919386845,-0.3869657480848289,-0.1529680401594153,0.21659360999166039,3.24,-39.628,-3.884,-12.988,2.348,-0.888,0.084
178,-0.13365234375,-0.0826591796875,0.0752138671875,0.1373984375,-0.0151982421875,0.194125,0.0796279296875,0.606,-0.326,-0.075,-0.571,-0.53,-0.585,0.271,0.29894130297324617,-0.22085960389883033,0.025453552290495715,-0.27576305441310656,-0.3847757112119573,-0.15841715339914222,0.20849621268074428,3.296,-39.52,-4.232,-12.872,2.148,-0.052,0.108
179,-0.1154052734375,-0.0907958984375,0.073056640625,0.1198662109375,-0.02942578125,0.1790830078125,0.08598046875,0.61,-0.279,-0.066,-0.565,-0.498,-0.582,0.197,0.30546151164990554,-0.20884345391186315,0.026580357289467556,-0.28302072104301385,-0.38102553474378825,-0.16685558356466376,0.19561615817355438,0.156,-38.116,-4.416,-11.684,1.932,0.012,0.168
180,-0.1154052734375,-0.0907958984375,0.073056640625,0.1198662109375,-0.02942578125,0.1790830078125,0.08598046875,0.61,-0.279,-0.066,-0.565,-0.498,-0.582,0.197,0.3089941971031063,-0.20208735899468222,0.027211130526464924,-0.28658821764343523,-0.3790033937053632,-0.17103170814300755,0.1890881151218131,0.156,-38.116,-4.416,-11.684,1.932,0.012,0.168
181,-0.1154052734375,-0.0907958984375,0.073056640625,0.1198662109375,-0.02942578125,0.1790830078125,0.08598046875,0.61,-0.279,-0.066,-0.565,-0.498,-0.582,0.197,0.3149828879866352,-0.1900622083277962,0.028294409746701568,-0.293052110847187,-0.37499944098622867,-0.17870334944948518,0.17682912888287208,0.156,-38.116,-4.416,-11.684,1.932,0.012,0.168
182,-0.1031337890625,-0.0952275390625,0.07190234375,0.1079912109375,-0.0378701171875,0.169826171875,0.088859375,0.618,-0.221,-0.065,-0.606,-0.436,-0.428,0.151,0.31972153095126654,-0.17931547529614764,0.029252213376616404,-0.30047725581342005,-0.3698269049086965,-0.18767723219638424,0.16205235312223407,-0.848,-37.792,-4.116,-11.732,1.852,-0.576,0.168
183,-0.1031337890625,-0.0952275390625,0.07190234375,0.1079912109375,-0.0378701171875,0.169826171875,0.088859375,0.618,-0.221,-0.065,-0.606,-0.436,-0.428,0.151,0.32495818629648576,-0.16882218961184847,0.03017351102912882,-0.30388676090968453,-0.36725214292406255,-0.19182428981897348,0.15506201231382177,-0.848,-37.792,-4.116,-11.732,1.852,-0.576,0.168
184,-0.1031337890625,-0.0952275390625,0.07190234375,0.1079912109375,-0.0378701171875,0.169826171875,0.088859375,0.618,-0.221,-0.065,-0.606,-0.436,-0.428,0.151,0.33142572420141087,-0.15400683200883758,0.031453387061950264,-0.31098155950058326,-0.3614027191718112,-0.2006143258577606,0.1399113510725942,-0.848,-37.792,-4.116,-11.732,1.852,-0.576,0.168
185,-0.1031337890625,-0.0952275390625,0.07190234375,0.1079912109375,-0.0378701171875,0.169826171875,0.088859375,0.618,-0.221,-0.065,-0.606,-0.436,-0.428,0.151,0.3342587456095399,-0.14724970467280346,0.0320297293485789,-0.31409904911892095,-0.3586189064424332,-0.2045339843209909,0.13300708483296808,-0.848,-37.792,-4.116,-11.732,1.852,-0.576,0.168
186,-0.0911767578125,-0.098931640625,0.0707470703125,0.096703125,-0.0459130859375,0.1615888671875,0.0911181640625,0.605,-0.187,-0.052,-0.575,-0.398,-0.397,0.108,0.33929496609499754,-0.13486895458756146,0.03307466740521057,-0.31962707440830923,-0.35333846282070774,-0.2115695643244509,0.12037791319245626,-1.168,-37.36,-4.508,-11.592,1.604,-0.488,0.2
187,-0.073451171875,-0.10325390625,0.0690234375,0.080767578125,-0.057662109375,0.14716796875,0.0933779296875,0.592,-0.121,-0.065,-0.577,-0.388,-0.381,0.072,0.3455650398656673,-0.11834768106647309,0.034450675940136864,-0.326658831140696,-0.3459066496874423,-0.2207802325322431,0.10338534701372071,-2.232,-36.82,-3.816,-11.684,1.88,-0.648,0.24
188,-0.073451171875,-0.10325390625,0.0690234375,0.080767578125,-0.057662109375,0.14716796875,0.0933779296875,0.592,-0.121,-0.065,-0.577,-0.388,-0.381,0.072,0.34872423568615424,-0.10969080074125875,0.03516367065628781,-0.3301882587636773,-0.3418955229813229,-0.22536888348565057,0.09473926015592832,-2.232,-36.82,-3.816,-11.684,1.88,-0.648,0.24
189,-0.0565419921875,-0.1053125,0.0678681640625,0.0648232421875,-0.0669453125,0.132345703125,0.0948115234375,0.568,-0.054,-0.055,-0.564,-0.31,-0.372,0.049,0.3522097069475536,-0.0997144955755101,0.035979661908063516,-0.3341309513937168,-0.33711289312588505,-0.2306558079007188,0.08460652490881315,-2.708,-36.496,-4.252,-10.792,1.588,-0.5,0.232
190,-0.0510810546875,-0.10562109375,0.067291015625,0.0596162109375,-0.0704443359375,0.1274013671875,0.095017578125,0.56,-0.053,-0.048,-0.5,-0.342,-0.543,0.033,0.3558217301937935,-0.08891645389718446,0.03685676169019411,-0.33825436483449334,-0.3317752623934923,-0.23627682249375012,0.07364048224046836,-2.656,-35.848,-4.232,-11.892,1.816,0.2,0.284
191,-0.0510810546875,-0.10562109375,0.067291015625,0.0596162109375,-0.0704443359375,0.1274013671875,0.095017578125,0.56,-0.053,-0.048,-0.5,-0.342,-0.543,0.033,0.36033723716839006,-0.07475498047014585,0.03799856963526743,-0.34343867980964643,-0.3245341435091831,-0.24348686148494836,0.05928184731823262,-2.656,-35.848,-4.232,-11.892,1.816,0.2,0.284
192,-0.0401474609375,-0.1054150390625,0.0664248046875,0.0490322265625,-0.07621484375,0.1185439453125,0.095224609375,0.548,0.011,-0.042,-0.543,-0.3,-0.418,0.004,0.3634922086311096,-0.06429413779132571,0.03883677619919719,-0.34711178060920417,-0.31900772126594434,-0.2487036560828414,0.04868580488208351,-2.444,-36.332,-4.0,-11.912,1.808,-0.312,0.272
193,-0.034892578125,-0.10500390625,0.0661455078125,0.0438251953125,-0.0786943359375,0.11421875,0.095224609375,0.535,0.025,-0.027,-0.509,-0.283,-0.56,-0.001,0.3668268226306114,-0.05274872749058873,0.039757421050257286,-0.3510141813584273,-0.31273928888921143,-0.25435594720149757,0.037005297688624705,-2.072,-37.036,-4.276,-12.188,1.672,0.148,0.24
194,-0.034892578125,-0.10500390625,0.0661455078125,0.0438251953125,-0.0786943359375,0.11421875,0.095224609375,0.535,0.025,-0.027,-0.509,-0.283,-0.56,-0.001,0.37140608539766784,-0.03586516595935423,0.04109726039725324,-0.3564454974658261,-0.3032476805592535,-0.26243566953044367,0.019943376731629145,-2.072,-37.036,-4.276,-12.188,1.672,0.148,0.24
195,-0.034892578125,-0.10500390625,0.0661455078125,0.0438251953125,-0.0786943359375,0.11421875,0.095224609375,0.535,0.025,-0.027,-0.509,-0.283,-0.56,-0.001,0.37364228905625696,-0.02709884259224765,0.041790536073054316,-0.35913785930169184,-0.2981704484164826,-0.2665445340133062,0.01109981796402012,-2.072,-37.036,-4.276,-12.188,1.672,0.148,0.24
196,-0.029630859375,-0.1044892578125,0.0658564453125,0.0387548828125,-0.0815732421875,0.110513671875,0.0954306640625,0.531,0.045,-0.03,-0.526,-0.252,-0.376,0.006,0.3765358532238383,-0.015209976670381981,0.04272905667589199,-0.3626536819332102,-0.29111952788528944,-0.2720268925909512,-0.0009018514045689209,-2.176,-37.52,-4.508,-11.892,1.456,-0.452,0.212
197,-0.014375,-0.101916015625,0.064556640625,0.0241181640625,-0.0906494140625,0.096091796875,0.095017578125,0.515,0.101,-0.035,-0.508,-0.256,-0.364,-0.003,0.3790804099760783,-0.004114055193963274,0.0436037066164593,-0.36579532762162614,-0.28436878071556854,-0.27705682880469634,-2.5679831361801452e-05,-1.276,-37.628,-3.976,-12.004,1.832,-0.856,0.172
198,-0.014375,-0.101916015625,0.064556640625,0.0241181640625,-0.0906494140625,0.096091796875,0.095017578125,0.515,0.101,-0.035,-0.508,-0.256,-0.364,-0.003,0.3817503065166613,0.008251879607313757,0.0445785281830099,-0.36914227458292176,-0.27664137176869436,-0.2825681114201304,-0.0038309217509752192,-1.276,-37.628,-3.976,-12.004,1.832,-0.856,0.172
199,-0.0043740234375,-0.098931640625,0.0642685546875,0.0136962890625,-0.09580078125,0.08744140625,0.0939853515625,0.502,0.146,-0.016,-0.533,-0.267,-0.441,-0.055,0.38417637280975114,-3.524650065928798e-05,0.045529335512179,-0.3722451113651998,-0.2689253963863862,-0.2878247934634853,-0.007548971712595963,-0.584,-38.98,-4.324,-11.572,1.696,-0.604,0.12
200,0.000373046875,-0.0974912109375,0.0639794921875,0.0089052734375,-0.0993125,0.081669921875,0.0927587890625,0.495,0.153,-0.016,-0.508,-0.261,-0.409,-0.085,0.38647278535128493,-0.005347002113054731,0.04648699272641537,-0.37521496995232745,-0.26093474367341596,-0.2930429921180492,-0.011316177343155126,-0.584,-39.032,-4.392,-12.12,1.684,-0.524,0.068
201,0.000373046875,-0.0974912109375,0.0639794921875,0.0089052734375,-0.0993125,0.081669921875,0.0927587890625,0.495,0.153,-0.016,-0.508,-0.261,-0.409,-0.085,0.3885976047309103,-0.010711110861528778,0.04745428580406331,-0.3780487561142704,-0.2526824226666626,-0.2982039637974007,-0.015121726349090045,-0.584,-39.032,-4.392,-12.12,1.684,-0.524,0.068
202,0.010263671875,-0.0937861328125,0.06340234375,-0.0013720703125,-0.1048779296875,0.0742470703125,0.0902919921875,0.498,0.184,-0.032,-0.523,-0.274,-0.329,-0.119,0.3905256672128445,-0.01601468046291209,0.048410225407316015,-0.3806829697942201,-0.24436205536101308,-0.3031801338316496,-0.0188612821893334,0.0,-40.168,-4.14,-12.12,1.972,-0.948,0.016
203,0.01511328125,-0.0918310546875,0.06311328125,-0.005865234375,-0.10776953125,0.067455078125,0.08865234375,0.49,0.188,-0.012,-0.48,-0.268,-0.509,-0.144,0.3922831922467147,-0.02134961139236486,0.049372049113133115,-0.3831714942323208,-0.23578765593919032,-0.30811136690594126,-0.022656221424615874,0.316,-41.032,-4.508,-13.08,2.06,-0.232,0.0
204,0.01995703125,-0.0896640625,0.06296875,-0.0113701171875,-0.1106484375,0.0635302734375,0.0870126953125,0.486,0.207,-0.016,-0.5,-0.302,-0.581,-0.168,0.39416413440633885,-0.027790264792806465,0.050534518478785095,-0.3859546204230647,-0.22520692952349763,-0.3138959472250437,-0.027214898600106275,0.372,-42.544,-4.532,-13.652,2.252,-0.104,0.016
205,0.024806640625,-0.08760546875,0.06311328125,-0.0160078125,-0.1131279296875,0.0585859375,0.085373046875,0.491,0.214,-0.002,-0.523,-0.256,-0.389,-0.172,0.39526927155008584,-0.03200215807028739,0.05129367636396666,-0.38763784832241166,-0.21817510460235867,-0.3175832511443425,-0.030188679816862515,0.9,-43.944,-4.808,-13.468,2.076,-0.872,-0.064
206,0.029546875,-0.0857529296875,0.06296875,-0.02034765625,-0.1162138671875,0.051794921875,0.0833203125,0.483,0.198,0.001,-0.444,-0.274,-0.629,-0.183,0.3964899823353714,-0.0373243464717474,0.052256148116198144,-0.38962218805527055,-0.20910569326203318,-0.3221652608887566,-0.033965184731477485,1.328,-44.592,-5.064,-15.184,2.264,0.0,-0.044
207,0.0344990234375,-0.0836953125,0.06282421875,-0.0252744140625,-0.1188984375,0.0486962890625,0.0816806640625,0.487,0.197,-0.016,-0.471,-0.305,-0.519,-0.194,0.3975371973276343,-0.042683905367111676,0.053224835257446396,-0.3914454187879517,-0.19983393393435017,-0.3266528232348469,-0.03775855644416168,1.116,-46.052,-4.948,-14.588,2.44,-0.644,-0.064
208,0.0394453125,-0.0820419921875,0.06296875,-0.029181640625,-0.1219970703125,0.0427314453125,0.0798212890625,0.496,0.19,-0.002,-0.454,-0.277,-0.41,-0.174,0.3983880657631945,-0.04794931782260284,0.05417835528370675,-0.3930716110102479,-0.1905496262243248,-0.3309630693879691,-0.0415001111728166,1.488,-46.7,-5.04,-15.572,2.492,-0.94,-0.136
209,0.0442880859375,-0.08029296875,0.06282421875,-0.0336845703125,-0.124876953125,0.037373046875,0.0779755859375,0.488,0.168,0.001,-0.404,-0.316,-0.619,-0.187,0.3990647026130419,-0.0532481828728639,0.05513853803671659,-0.3945372633710558,-0.18106846798891285,-0.33517964882437185,-0.04525894800208075,2.072,-47.348,-4.9,-15.916,2.752,-0.296,-0.108
210,0.049234375,-0.078646484375,0.06296875,-0.0383134765625,-0.1271494140625,0.033861328125,0.0763359375,0.495,0.176,-0.001,-0.467,-0.267,-0.415,-0.176,0.39955382447052185,-0.05848153717461381,0.05608833635021886,-0.39581716367231756,-0.17155208045881024,-0.339236381482946,-0.04897805962024471,1.752,-48.912,-5.34,-15.708,2.708,-1.22,-0.14
211,0.0541865234375,-0.077205078125,0.06296875,-0.0425185546875,-0.130248046875,0.0270703125,0.074283203125,0.497,0.159,0.015,-0.452,-0.26,-0.492,-0.183,0.3998698239878061,-0.06385014491367522,0.057064852340989375,-0.3969567962364154,-0.16164825100831692,-0.3432777014279012,-0.052793002980272764,2.072,-49.992,-5.712,-16.992,2.812,-0.78,-0.116
212,0.0591328125,-0.0758671875,0.06311328125,-0.0470029296875,-0.13230078125,0.02233203125,0.0724365234375,0.498,0.139,0.0,-0.436,-0.267,-0.631,-0.198,0.39999620237708283,-0.06905394880447661,0.058012162893970154,-0.39789022209037594,-0.15192264550434315,-0.3470771646318527,-0.056492189945592255,2.336,-50.696,-5.62,-17.288,2.94,-0.5,-0.096
213,0.0641884765625,-0.0748388671875,0.06311328125,-0.05134375,-0.1341591796875,0.0173740234375,0.07058984375,0.503,0.118,0.008,-0.454,-0.196,-0.457,-0.179,0.3999423695872136,-0.07429662138778452,0.05896900854563913,-0.3986605559539864,-0.14198359800670818,-0.3507938095314517,-0.0602273404112244,1.752,-51.504,-5.92,-17.312,2.848,-1.256,-0.188
214,0.0692431640625,-0.0740087890625,0.06296875,-0.0555576171875,-0.1362255859375,0.0107890625,0.068744140625,0.505,0.096,-0.002,-0.423,-0.21,-0.594,-0.189,0.39949607525166086,-0.08243783072166808,0.06045889607601915,-0.3995138166144982,-0.12630437179641552,-0.35632755243823855,-0.06603070686880744,2.072,-51.828,-5.78,-17.972,3.044,-0.812,-0.136
215,0.0743955078125,-0.0732880859375,0.06282421875,-0.0601865234375,-0.13746484375,0.006658203125,0.0668974609375,0.514,0.076,-0.013,-0.439,-0.173,-0.561,-0.186,0.3991029448790193,-0.08653540145710968,0.06121117603223353,-0.39978409705400153,-0.11828624565081894,-0.35901187375063476,-0.06896719633106942,2.176,-52.208,-5.848,-17.608,3.04,-1.124,-0.128
216,0.079451171875,-0.072876953125,0.0626796875,-0.0646796875,-0.1387041015625,0.0008876953125,0.0650517578125,0.512,0.061,-0.017,-0.467,-0.111,-0.455,-0.187,0.39868978355202894,-0.08993151942468693,0.061834419800880974,-0.3999257823680265,-0.11164201489471288,-0.36115553938915673,-0.07136850391479314,1.752,-52.316,-5.988,-17.404,2.968,-1.416,-0.116
217,0.0846025390625,-0.0726708984375,0.062544921875,-0.069453125,-0.139517578125,-0.0046767578125,0.063205078125,0.513,0.032,-0.018,-0.453,-0.123,-0.601,-0.188,0.39789627216795576,-0.09526570870948452,0.06281875022934762,-0.39999895427768667,-0.10100706569187279,-0.3644627718567228,-0.07520751712427307,2.072,-52.26,-5.712,-18.636,3.24,-0.876,-0.084
218,0.0897607421875,-0.072568359375,0.062544921875,-0.074677734375,-0.139517578125,-0.0085888671875,0.061345703125,0.518,0.019,-0.007,-0.504,-0.045,-0.463,-0.184,0.39693655389678156,-0.10042804509516895,0.06377305359230839,-0.3998927300022646,-0.09064320192237273,-0.36752550208942447,-0.07890589382262714,2.176,-52.476,-5.896,-18.364,3.096,-1.416,-0.104
219,0.0950224609375,-0.0727744140625,0.062544921875,-0.0791630859375,-0.1393115234375,-0.015599609375,0.05929296875,0.523,0.0,-0.001,-0.5,0.012,-0.52,-0.194,0.39579125635532303,-0.10549600270564297,0.06471196663913269,-0.39961801550500914,-0.08037948605152315,-0.37041069619759853,-0.0825400465739397,1.752,-52.208,-5.804,-18.66,2.94,-0.94,-0.052
220,0.10027734375,-0.0730830078125,0.062400390625,-0.08408984375,-0.1388974609375,-0.0211640625,0.057447265625,0.525,-0.029,-0.002,-0.47,0.021,-0.685,-0.194,0.3944597754812938,-0.11065086489214003,0.06567078799752384,-0.39916295812854186,-0.06982745892836738,-0.3732288511505924,-0.08625121253327735,1.7,-51.344,-5.828,-18.408,2.916,-0.488,-0.012
221,0.1055380859375,-0.0737001953125,0.062400390625,-0.0893046875,-0.138498046875,-0.0265224609375,0.05539453125,0.529,-0.044,-0.011,-0.514,0.043,-0.514,-0.201,0.3929485877536001,-0.11578188383975214,0.06662815149941478,-0.3985331165739183,-0.05925054551428748,-0.37590208269623754,-0.08994170194096507,1.912,-50.912,-5.596,-17.54,2.98,-1.156,-0.068
222,0.1107998046875,-0.0745302734375,0.062255859375,-0.094078125,-0.1378779296875,-0.0337392578125,0.0533408203125,0.53,-0.073,-0.004,-0.491,0.053,-0.633,-0.207,0.3912794081094921,-0.1208240234275341,0.0675726265857915,-0.3977394533433039,-0.048765052645448406,-0.37840847482401374,-0.0935793797982995,1.54,-49.992,-5.528,-17.744,3.144,-0.748,-0.036
223,0.1160537109375,-0.0751474609375,0.062111328125,-0.099880859375,-0.136638671875,-0.038890625,0.05108203125,0.53,-0.077,-0.019,-0.523,0.089,-0.649,-0.214,0.3893715336061685,-0.1260187960373866,0.0685493402467645,-0.3967393619075945,-0.037882004968423005,-0.3808605473945316,-0.09733456929520641,1.648,-49.616,-5.04,-16.992,3.116,-0.928,-0.052
224,0.121521484375,-0.075970703125,0.062255859375,-0.105673828125,-0.134779296875,-0.0452822265625,0.048822265625,0.54,-0.074,0.002,-0.591,0.142,-0.54,-0.23,0.38733784065542937,-0.13103981062118833,0.06949636405328431,-0.39559621364021735,-0.02731318500443026,-0.3830963106255516,-0.10095633798062705,1.432,-49.884,-5.48,-16.92,3.052,-1.24,-0.044
225,0.1267822265625,-0.077,0.062400390625,-0.111177734375,-0.1325068359375,-0.05229296875,0.0465625,0.537,-0.09,0.015,-0.567,0.203,-0.699,-0.231,0.38515100663789414,-0.13599627792765787,0.07043668945872815,-0.3942898782228472,-0.01676799246923062,-0.3851903401767482,-0.10456267839493119,1.06,-49.94,-5.848,-16.808,2.876,-0.572,-0.064
226,0.1322431640625,-0.078234375,0.062400390625,-0.117259765625,-0.130248046875,-0.057650390625,0.043890625,0.536,-0.108,0.003,-0.58,0.231,-0.632,-0.245,0.38274544911981473,-0.14102653319791478,0.07139442787153726,-0.3927873182717597,-0.006015454727735607,-0.3871837257733122,-0.10823096364080276,0.9,-50.264,-5.78,-16.372,2.776,-0.732,-0.076
227,0.137607421875,-0.0796748046875,0.062255859375,-0.122619140625,-0.128181640625,-0.0648681640625,0.0410244140625,0.545,-0.131,-0.007,-0.586,0.22,-0.594,-0.27,0.3789896936038539,-0.14819679467745833,0.07276752275192903,-0.3903283324007,0.009410432121115635,-0.38979323024231677,-0.11346683774985272,0.796,-49.4,-5.364,-16.26,2.9,-1.028,-0.088
228,0.1429716796875,-0.0810126953125,0.061966796875,-0.128556640625,-0.12549609375,-0.0722919921875,0.0381455078125,0.537,-0.146,-0.022,-0.559,0.232,-0.765,-0.294,0.3768588961094168,-0.15195154348698564,0.07349021853361334,-0.38889111519694297,0.00019394110891538438,-0.39107424380589756,-0.11627015899347531,0.796,-48.536,-4.972,-16.808,3.076,-0.644,-0.104
229,0.1484384765625,-0.0823505859375,0.062255859375,-0.1352158203125,-0.1222041015625,-0.0780625,0.035072265625,0.542,-0.137,-0.008,-0.627,0.286,-0.652,-0.306,0.37427521284137144,-0.15628405645599172,0.0743277135554192,-0.3871020829748545,0.010942963048008283,-0.3924022660607782,-0.11938806936753724,0.636,-49.02,-5.064,-16.92,3.024,-1.292,-0.148
230,0.1537958984375,-0.0839013671875,0.062400390625,-0.1412978515625,-0.118072265625,-0.08651953125,0.0315859375,0.549,-0.141,0.023,-0.647,0.371,-0.691,-0.318,0.3714415280594601,-0.16077332230895136,0.07519950631734873,-0.38509960891812967,0.02232720368039555,-0.39369518624114735,-0.12268861419192012,0.372,-48.912,-5.412,-16.328,2.692,-1.048,-0.12
231,0.15916015625,-0.0855478515625,0.062544921875,-0.147388671875,-0.1143671875,-0.093736328125,0.028087890625,0.539,-0.161,0.02,-0.614,0.4,-0.837,-0.35,0.3681477511445343,-0.16570449433823017,0.07616184125630149,-0.3827237763685946,0.034880463995326225,-0.39498366280583286,-0.1263178852784386,0.104,-48.48,-5.64,-16.1,2.42,-0.324,-0.116
232,0.164626953125,-0.08760546875,0.0626796875,-0.153326171875,-0.11085546875,-0.0995078125,0.02439453125,0.546,-0.185,0.014,-0.621,0.377,-0.638,-0.363,0.36461600132991845,-0.17069199289633857,0.07714139376123867,-0.3801293127409126,0.04761149032658106,-0.3961440552241102,-0.13000100244194315,0.0,-48.212,-5.62,-15.048,2.48,-0.896,-0.076
233,0.1699912109375,-0.0898701171875,0.0626796875,-0.158830078125,-0.10776953125,-0.1077578125,0.0207021484375,0.546,-0.217,0.007,-0.569,0.333,-0.691,-0.377,0.3611497574074791,-0.17532777566879698,0.07805673163227964,-0.3775414376985294,0.05950212171775612,-0.39709509638568435,-0.13344880162685302,0.052,-46.916,-4.948,-15.868,2.732,-0.732,-0.032
234,0.1753486328125,-0.0918310546875,0.062544921875,-0.1652099609375,-0.10446484375,-0.1151943359375,0.017009765625,0.536,-0.216,-0.01,-0.588,0.3,-0.815,-0.376,0.3573418617189317,-0.18017717524940302,0.07901977432133699,-0.37465338292154293,0.0719387617147823,-0.39794930482850543,-0.13705310188848177,-0.212,-46.592,-4.184,-16.188,3.128,-0.644,0.024
235,0.1808154296875,-0.0939921875,0.0632578125,-0.171580078125,-0.0993125,-0.12303125,0.0133173828125,0.545,-0.201,0.024,-0.653,0.406,-0.734,-0.373,0.3533748309768703,-0.18497123746232708,0.07997826773673308,-0.37161002158697554,0.0842537787461915,-0.39865303064949154,-0.14063243810426682,-0.104,-46.808,-4.74,-15.228,2.88,-1.092,0.052
236,0.1861796875,-0.0961533203125,0.0638349609375,-0.177517578125,-0.0941611328125,-0.132521484375,0.00941796875,0.545,-0.221,0.07,-0.611,0.539,-0.871,-0.371,0.3489341068426386,-0.190086963696525,0.08100781510340493,-0.3681539754978429,0.09739951965376394,-0.39924538294798806,-0.144465864183852,-0.156,-47.348,-5.92,-15.596,2.46,-0.42,0.0
237,0.1915439453125,-0.0985205078125,0.0639794921875,-0.1841767578125,-0.0896171875,-0.1393251953125,0.0053125,0.536,-0.223,0.035,-0.632,0.488,-0.854,-0.407,0.3445563942252716,-0.1948999905138411,0.08198330235778452,-0.36470320637616677,0.1097515451178492,-0.39964934237571736,-0.14807971133703624,-0.424,-48.104,-5.528,-14.476,2.604,-0.416,-0.032
238,0.2021630859375,-0.104283203125,0.0644130859375,-0.195185546875,-0.0805537109375,-0.155619140625,-0.0033115234375,0.535,-0.299,0.028,-0.544,0.462,-0.83,-0.433,0.33324482470439265,-0.20640845517822315,0.0843453789096347,-0.35563990186688854,0.13921815257397294,-0.399993770246154,-0.15679395453517633,-0.848,-47.184,-4.764,-17.448,3.0,-0.76,-0.128
239,0.2127880859375,-0.1098466796875,0.0655673828125,-0.207349609375,-0.0675654296875,-0.1735654296875,-0.013369140625,0.531,-0.277,0.051,-0.617,0.654,-0.882,-0.5,0.3263466790752546,-0.21289372055156638,0.08569597928889477,-0.3500162514472478,0.15571292421905444,-0.39978572518219657,-0.16174099267647524,-1.168,-47.508,-4.856,-16.144,2.48,-0.916,-0.16
240,0.2180498046875,-0.1128310546875,0.0662890625,-0.213728515625,-0.0615869140625,-0.182021484375,-0.019115234375,0.534,-0.309,0.101,-0.583,0.699,-0.97,-0.539,0.32121539864112064,-0.21752822220759144,0.08667135360906042,-0.34575295159028874,0.16746766638556132,-0.399450732951113,-0.16536780860377093,-1.804,-47.94,-6.312,-15.572,2.184,-0.24,-0.156
241,0.2231044921875,-0.116330078125,0.0665693359375,-0.219521484375,-0.0555966796875,-0.1894453125,-0.0246533203125,0.522,-0.314,0.042,-0.63,0.596,-0.777,-0.577,0.31612988295330563,-0.2219302623160746,0.08760346596637779,-0.3415341842129594,0.1785068121264174,-0.3989886310589775,-0.16868472348756836,-2.072,-49.236,-5.388,-13.948,2.616,-0.676,-0.076
242,0.2282626953125,-0.1205556640625,0.067435546875,-0.2237177734375,-0.0488056640625,-0.1993486328125,-0.0301923828125,0.516,-0.386,0.056,-0.509,0.638,-0.867,-0.556,0.3075066007759433,-0.22899005316103782,0.08911637189259114,-0.3343671912848154,0.19610289479987159,-0.39793722167836787,-0.17415319660649173,-2.124,-48.752,-5.34,-16.92,3.052,-0.552,-0.064
243,0.23805859375,-0.1282802734375,0.0684462890625,-0.2344375,-0.03251171875,-0.2171005859375,-0.041283203125,0.494,-0.382,0.035,-0.556,0.806,-0.843,-0.562,0.300697180725047,-0.23432310260707917,0.09027325570980978,-0.3286296319764627,0.2092395341018039,-0.39688337022960274,-0.17830782405491527,-5.104,-48.48,-4.0,-16.12,3.052,-1.332,-0.056
244,0.23805859375,-0.1282802734375,0.0684462890625,-0.2344375,-0.03251171875,-0.2171005859375,-0.041283203125,0.494,-0.382,0.035,-0.556,0.806,-0.843,-0.562,0.29742696049715883,-0.23680887983346027,0.09081706902965199,-0.32585561684581105,0.21531379173492593,-0.39631321493435306,-0.1802565012066285,-5.104,-48.48,-4.0,-16.12,3.052,-1.332,-0.056
245,0.24301171875,-0.132396484375,0.0697451171875,-0.2395087890625,-0.02303515625,-0.2274169921875,-0.0472353515625,0.487,-0.402,0.094,-0.502,0.94,-1.08,-0.571,0.2899739385786107,-0.24231229777137087,0.09203188747415136,-0.31948273359926277,0.22864979208235325,-0.3948647476095468,-0.18459344571277794,-6.696,-46.968,-5.156,-15.78,2.568,0.024,-0.056
246,0.2476484375,-0.13651953125,0.0704580078125,-0.2454462890625,-0.0131455078125,-0.2338076171875,-0.0533935546875,0.483,-0.415,0.111,-0.561,0.98,-0.839,-0.612,0.28423990637052987,-0.2464061911673867,0.092943621472868,-0.3145505141161255,0.23839783213340893,-0.39362585476787554,-0.1878154996576802,-8.344,-47.076,-5.756,-13.148,2.08,-0.604,-0.068
247,0.25177734375,-0.141458984375,0.0708916015625,-0.249208984375,-0.0040693359375,-0.2451689453125,-0.0599521484375,0.444,-0.442,0.059,-0.507,0.952,-0.85,-0.632,0.2812091075359336,-0.24851407039074808,0.0934181820267093,-0.3119236502054631,0.2434189773479942,-0.39292190821124273,-0.18950673085457714,-10.472,-46.268,-5.064,-12.964,2.408,-0.368,-0.056
248,0.2556943359375,-0.146611328125,0.07146875,-0.2529716796875,0.0052001953125,-0.253212890625,-0.0663173828125,0.408,-0.512,0.05,-0.369,0.908,-1.069,-0.664,0.27290530559709747,-0.25408855314872997,0.09468348132621866,-0.3047521055487022,0.2564952530494879,-0.39087073682589846,-0.19398395377657443,-12.76,-44.648,-4.44,-14.428,2.796,0.2,0.068
249,0.259302734375,-0.1517626953125,0.0717578125,-0.2568876953125,0.0163291015625,-0.2589970703125,-0.0720625,0.381,-0.52,0.038,-0.397,1.023,-0.636,-0.621,0.2680887931291452,-0.2572114336553934,0.09539769485018391,-0.3006071316468195,0.2636371653235559,-0.38961102906384193,-0.19646610985271928,-14.992,-42.704,-3.628,-13.56,2.524,-1.516,0.084
250,0.262396484375,-0.156908203125,0.07190234375,-0.2600732421875,0.0266318359375,-0.2697255859375,-0.0776142578125,0.343,-0.521,0.024,-0.355,1.083,-0.815,-0.556,0.2629438455928652,-0.26052686014331344,0.09616433193284306,-0.29606160048846536,0.2711817595334269,-0.38815794987524715,-0.19914685801954746,-17.544,-38.764,-2.912,-13.332,2.376,-0.368,0.036
251,0.2650791015625,-0.1616484375,0.0721904296875,-0.2642783203125,0.03878125,-0.2761298828125,-0.082533203125,0.295,-0.495,0.019,-0.368,1.099,-0.939,-0.545,0.2554348633087235,-0.26513877233526706,0.09724210545219993,-0.289522967476508,0.28149277112451265,-0.38595721756779433,-0.20289380070233648,-19.616,-37.36,-2.336,-10.792,2.212,0.46,0.088
252,0.267349609375,-0.167,0.073201171875,-0.2667412109375,0.051150390625,-0.28293359375,-0.0874658203125,0.254,-0.496,0.056,-0.364,1.255,-0.593,-0.49,0.24905813404818158,-0.2689476764533441,0.09814221115962113,-0.28393300468682675,0.28983056381064454,-0.3839789127886237,-0.2060043838717871,-21.904,-37.196,-3.096,-9.1,1.26,-0.244,-0.064
253,0.2688994140625,-0.172666015625,0.073490234375,-0.2684736328125,0.0620732421875,-0.2920361328125,-0.0925908203125,0.204,-0.56,0.081,-0.201,1.182,-0.84,-0.496,0.24362684320823283,-0.27215767552850156,0.09890870039346672,-0.27907844373197216,0.2967373211443799,-0.3821904689716855,-0.20864456731687292,-24.404,-35.308,-3.816,-10.816,1.344,0.988,-0.052
254,0.2695166015625,-0.177818359375,0.073201171875,-0.2709375,0.0725693359375,-0.2953408203125,-0.09731640625,0.115,-0.548,0.003,-0.209,1.066,-0.665,-0.505,0.2367305715482253,-0.27604175992234675,0.099845907085298,-0.2730301692302428,0.30491932288546014,-0.37988047643171796,-0.21185196517921942,-25.308,-34.496,-2.404,-9.9,1.768,0.148,-0.116
255,0.269619140625,-0.1834775390625,0.073201171875,-0.2715146484375,0.084111328125,-0.3019384765625,-0.1024423828125,0.04,-0.54,-0.03,-0.182,1.089,-0.434,-0.497,0.22977929909316508,-0.2799237700053855,0.10079488817510163,-0.26677646537354116,0.3129207965502276,-0.3773951548174536,-0.21509113946127634,-26.212,-31.584,-0.692,-9.216,2.112,-0.384,-0.108
256,0.269310546875,-0.1888359375,0.073779296875,-0.2720927734375,0.09584765625,-0.30772265625,-0.1071806640625,-0.005,-0.561,0.03,-0.038,1.182,-0.692,-0.499,0.22272727151808921,-0.2837080554475333,0.10173120353915976,-0.2604883001571872,0.32050864522089073,-0.37480660573001584,-0.21826528864999775,-25.572,-29.152,-0.968,-9.672,1.696,0.804,-0.056
257,0.26724609375,-0.1990234375,0.075791015625,-0.272525390625,0.1191259765625,-0.3168115234375,-0.1155859375,-0.1,-0.507,0.095,-0.033,1.182,-0.429,-0.421,0.2052159895671377,-0.29266579988603597,0.10399703749513739,-0.2447869557841711,0.3375974705283309,-0.36797649643486435,-0.2258724654338674,-18.556,-29.532,-3.004,-7.112,0.904,0.68,0.004
258,0.2653876953125,-0.2038662109375,0.0763681640625,-0.2718037109375,0.1306552734375,-0.3192783203125,-0.1193037109375,-0.15,-0.52,0.093,0.071,1.113,-0.53,-0.397,0.19951521076217227,-0.2957967612421423,0.1048068712865256,-0.2390136407552489,0.34325228103594707,-0.36534137424409385,-0.22856748455560202,-15.472,-28.992,-3.212,-7.844,1.064,1.204,0.016
259,0.26291796875,-0.2086005859375,0.0768017578125,-0.27108203125,0.140958984375,-0.320517578125,-0.12299609375,-0.216,-0.489,0.053,0.061,1.125,-0.14,-0.366,0.1942934750915759,-0.29799237147789714,0.10538005497606684,-0.23488103360762744,0.34710242748794595,-0.36341835594582217,-0.23046241463284028,-12.332,-28.02,-2.52,-7.224,0.864,-0.12,-0.076
260,0.2572451171875,-0.217044921875,0.0789580078125,-0.2697822265625,0.1603125,-0.325888671875,-0.12996875,-0.286,-0.433,0.107,0.076,0.966,-0.31,-0.349,0.17898100642333833,-0.3050628442390571,0.1072634489667369,-0.22100989748175262,0.35888226164395687,-0.3567372303947057,-0.23665181439828006,-7.548,-30.448,-2.772,-9.124,1.444,0.46,-0.016
261,0.2572451171875,-0.217044921875,0.0789580078125,-0.2697822265625,0.1603125,-0.325888671875,-0.12996875,-0.286,-0.433,0.107,0.076,0.966,-0.31,-0.349,0.1739118036429397,-0.30733162169520367,0.10787945800965691,-0.21638288865831062,0.3624337627260519,-0.35443491830803553,-0.23866028105482068,-7.548,-30.448,-2.772,-9.124,1.444,0.46,-0.016
262,0.2543564453125,-0.2206533203125,0.080546875,-0.26933984375,0.1703955078125,-0.327333984375,-0.1334541015625,-0.291,-0.375,0.14,0.013,1.031,-0.058,-0.352,0.1682583228019855,-0.3098167424222494,0.10856202816514807,-0.21120526789411437,0.36619177889427434,-0.351818412848935,-0.24087401402975248,-5.848,-32.444,-3.676,-8.528,1.328,-0.128,-0.068
263,0.2509541015625,-0.22415234375,0.0818369140625,-0.2684736328125,0.1798720703125,-0.33001953125,-0.137353515625,-0.314,-0.359,0.155,0.069,0.993,-0.243,-0.375,0.1631648574880787,-0.312014998840664,0.10917214406355535,-0.20653305912728437,0.36939173544424636,-0.3494197023130675,-0.24284474628306404,-6.06,-33.796,-4.672,-9.328,1.064,0.824,-0.056
264,0.2509541015625,-0.22415234375,0.0818369140625,-0.2684736328125,0.1798720703125,-0.33001953125,-0.137353515625,-0.314,-0.359,0.155,0.069,0.993,-0.243,-0.375,0.15793031401268715,-0.31423637672507915,0.10979548718683943,-0.201717354420895,0.37250524490004877,-0.3469121909728272,-0.2448497947890799,-6.06,-33.796,-4.672,-9.328,1.064,0.824,-0.056
265,0.2474423828125,-0.2274521484375,0.08284765625,-0.267751953125,0.1887294921875,-0.329193359375,-0.1412529296875,-0.346,-0.342,0.118,0.074,0.92,-0.122,-0.388,0.15119134230683573,-0.31714792767961164,0.1106329388394457,-0.19517319627580465,0.3764403760981327,-0.343448017324933,-0.24764635417950076,-6.272,-35.576,-4.948,-8.596,0.948,0.556,-0.088
266,0.243525390625,-0.231259765625,0.0840029296875,-0.2660107421875,0.1963466796875,-0.329400390625,-0.145564453125,-0.373,-0.351,0.101,0.115,0.843,0.064,-0.411,0.14394745701942688,-0.3199823189188358,0.1114399908879787,-0.18881362456041179,0.3799455582734976,-0.34002216968726184,-0.2500957945062717,-6.22,-36.388,-4.416,-8.94,1.256,0.212,-0.056
267,0.239505859375,-0.2350732421875,0.0851484375,-0.2637001953125,0.20355078125,-0.3287802734375,-0.149876953125,-0.395,-0.385,0.113,0.207,0.74,-0.011,-0.436,0.13776483218070276,-0.32244079639047984,0.11215879535136292,-0.18308658457158944,0.3828416575973439,-0.33688655943598517,-0.2523687608187634,-7.868,-36.116,-4.252,-10.404,1.62,0.408,0.016
268,0.2351708984375,-0.2383671875,0.0860146484375,-0.2618056640625,0.2107548828125,-0.327333984375,-0.153982421875,-0.423,-0.365,0.107,0.208,0.726,0.107,-0.426,0.13094810969296905,-0.32509614096278905,0.11294632807863447,-0.17675411634865829,0.3857616374686923,-0.3333666868130823,-0.25484501619976213,-8.824,-35.9,-3.652,-10.564,1.912,-0.232,0.024
269,0.2307392578125,-0.2417626953125,0.087314453125,-0.259486328125,0.2177529296875,-0.3279541015625,-0.158087890625,-0.441,-0.339,0.102,0.205,0.717,0.061,-0.42,0.12317710987451314,-0.328050234362194,0.11383666525531762,-0.16952129023678564,0.3887426279531607,-0.3292795666186061,-0.25762600755765097,-7.284,-35.9,-3.536,-10.084,2.048,0.036,0.056
270,0.2266103515625,-0.2451650390625,0.0887490234375,-0.2568876953125,0.225783203125,-0.327541015625,-0.1619873046875,-0.431,-0.343,0.137,0.244,0.734,-0.034,-0.406,0.11497816670142479,-0.3310923142741724,0.11477063462846299,-0.1618568524606662,0.39150042281729713,-0.32486896676627286,-0.26052559134651454,-2.924,-35.9,-4.784,-9.556,1.484,0.504,0.116
271,0.22228125,-0.2484580078125,0.0900478515625,-0.2539912109375,0.2334013671875,-0.3265078125,-0.16588671875,-0.42,-0.339,0.144,0.276,0.805,0.084,-0.388,0.1068051625151984,-0.3340419332037524,0.11569306848712346,-0.1542110835700528,0.3938492389478272,-0.3203960925399765,-0.2633640224633837,-0.584,-36.332,-6.172,-9.376,0.78,0.22,0.012
272,0.2175283203125,-0.2518603515625,0.0909140625,-0.2510947265625,0.238953125,-0.3265078125,-0.1695791015625,-0.454,-0.333,0.111,0.291,0.686,0.055,-0.38,0.09851512932128609,-0.3369571263444022,0.11662207696442246,-0.14644544519470523,0.3958320495611247,-0.31578381954981016,-0.26619308933926494,-0.9,-37.252,-5.848,-9.284,0.948,0.576,-0.016
273,0.2124794921875,-0.255359375,0.09163671875,-0.24762109375,0.2441044921875,-0.3250625,-0.173478515625,-0.493,-0.342,0.074,0.311,0.526,0.053,-0.382,0.08907285709389978,-0.3401909326988183,0.11767674157349413,-0.13753328151349545,0.3976231826731201,-0.31038820193379263,-0.269391135088957,-3.136,-37.952,-4.784,-8.984,1.572,0.54,-0.024
274,0.20721875,-0.2590703125,0.0924931640625,-0.243416015625,0.2500693359375,-0.323203125,-0.177376953125,-0.519,-0.364,0.08,0.377,0.559,0.172,-0.388,0.08137030992027479,-0.34275186749160036,0.11852933120346608,-0.13026529845950038,0.39870820984290295,-0.3059085552844589,-0.27196327716924273,-7.44,-37.952,-4.3,-10.152,1.756,0.052,-0.088
275,0.2018544921875,-0.2626728515625,0.0932158203125,-0.238931640625,0.2556337890625,-0.322376953125,-0.1814833984375,-0.536,-0.369,0.085,0.442,0.573,0.14,-0.409,0.073489338605323,-0.3453129021463892,0.11939927204171835,-0.12279601913602008,0.39947715681735524,-0.3012470247900749,-0.2745575970537046,-9.248,-37.412,-4.232,-11.18,2.204,-0.012,-0.116
276,0.1966962890625,-0.2659658203125,0.0943701171875,-0.2347265625,0.2611982421875,-0.32134375,-0.186001953125,-0.531,-0.347,0.084,0.433,0.564,0.098,-0.434,0.06508378166392714,-0.347970817985341,0.12032180403696709,-0.11481821334800722,0.3999192845613735,-0.29619389567547033,-0.2772890169674535,-4.092,-37.9,-4.024,-10.792,2.308,-0.084,-0.12
277,0.19175,-0.269361328125,0.09594921875,-0.230087890625,0.26840234375,-0.32113671875,-0.19051953125,-0.507,-0.341,0.139,0.435,0.618,0.068,-0.453,0.05664597337486241,-0.3505669604475889,0.12124262056457098,-0.1068056986568826,0.39997638888886594,-0.2910516826114117,-0.2799847652543738,-1.22,-38.168,-5.62,-10.792,1.716,0.064,-0.088
278,0.18648828125,-0.272654296875,0.0972490234375,-0.225892578125,0.27457421875,-0.3209306640625,-0.1948193359375,-0.512,-0.338,0.15,0.457,0.71,0.011,-0.448,0.04821027684098423,-0.3530947156269606,0.12216143270845602,-0.09875005223518586,0.399649890598714,-0.2857981721832841,-0.2826614193802045,-2.708,-38.764,-6.704,-10.7,0.976,0.356,-0.128
279,0.1806103515625,-0.2759541015625,0.097826171875,-0.221263671875,0.2795185546875,-0.3209306640625,-0.1989248046875,-0.557,-0.325,0.097,0.435,0.559,0.006,-0.43,0.03948510858777538,-0.3556395218539713,0.12311003261261906,-0.09037591776932817,0.3989082123666646,-0.28024766307890797,-0.28541020151849367,-6.804,-39.464,-5.872,-9.488,1.26,0.532,-0.016
280,0.1744228515625,-0.27976171875,0.098404296875,-0.215470703125,0.283625,-0.320310546875,-0.20282421875,-0.608,-0.354,0.05,0.517,0.461,0.017,-0.403,0.031193157507186417,-0.3579854095612027,0.1240058347004523,-0.0824324034158125,0.39783375375201757,-0.2749226281805234,-0.28797031192550565,-8.08,-38.492,-4.624,-9.876,1.78,0.436,-0.036
281,0.16844140625,-0.283671875,0.0991162109375,-0.2090908203125,0.2887763671875,-0.318865234375,-0.206322265625,-0.614,-0.393,0.067,0.608,0.458,0.096,-0.375,0.022628512678505103,-0.36034589185053717,0.1249307854708962,-0.07418520189105872,0.3963410527387587,-0.26931795257517566,-0.2905931129739443,-4.092,-36.548,-4.024,-11.892,2.028,-0.052,-0.044
282,0.1627685546875,-0.286869140625,0.100416015625,-0.20373046875,0.294328125,-0.3180517578125,-0.20980859375,-0.589,-0.366,0.104,0.607,0.524,0.134,-0.345,0.011532463652399138,-0.3633064477364534,0.12612809345919862,-0.06345129589275043,0.3938308426935823,-0.2619062849847191,-0.29395320690299725,2.284,-34.928,-4.74,-13.032,2.12,-0.5,-0.052
283,0.1569921875,-0.2893388671875,0.101859375,-0.19953515625,0.3000986328125,-0.318865234375,-0.2126748046875,-0.576,-0.289,0.132,0.493,0.586,0.012,-0.325,0.004616138114622094,-0.365085840312259,0.1268685451037647,-0.056787367915762055,0.3919559370691868,-0.25724689154095726,-0.2960064350706815,2.392,-36.224,-5.688,-11.708,1.652,-0.044,-0.064
284,0.1511201171875,-0.29180859375,0.103150390625,-0.195330078125,0.305857421875,-0.31969140625,-0.2155537109375,-0.582,-0.245,0.139,0.402,0.568,-0.084,-0.302,-0.002999875846239852,-0.3670063607490158,0.1276884629169191,-0.049377329894861675,0.3895876711652013,-0.2520007567511112,-0.2982677550477297,-1.592,-38.384,-7.1,-8.78,1.132,0.644,-0.004
285,0.1449326171875,-0.29490234375,0.1041611328125,-0.1899794921875,0.3103759765625,-0.3192783203125,-0.21843359375,-0.607,-0.275,0.113,0.472,0.538,-0.042,-0.283,-9.21983196046976e-05,-0.36979008946189723,0.12891716451852378,-0.038236302933002925,0.38547322531944267,-0.2439987610741381,-0.3016181470951074,-4.732,-38.224,-7.028,-7.796,0.72,0.968,-0.052
286,0.1386357421875,-0.2980927734375,0.1043046875,-0.183888671875,0.3134619140625,-0.3170185546875,-0.2210927734375,-0.628,-0.322,0.07,0.577,0.386,0.122,-0.277,-0.004900035103171465,-0.3711807164989316,0.12955342451027257,-0.03244675461092095,0.38307775899813556,-0.23979242867664663,-0.3033344015584496,-2.496,-36.172,-5.64,-9.764,1.188,0.448,-0.056
287,0.1326611328125,-0.3010830078125,0.1048828125,-0.178095703125,0.3159404296875,-0.3143330078125,-0.2239716796875,-0.625,-0.315,0.03,0.598,0.271,0.258,-0.281,-0.01168472428861341,-0.37309864977530915,0.13045057655356973,-0.02427151626385537,0.37939564814030424,-0.23378381359683048,-0.3057341956190833,4.996,-35.144,-4.44,-11.844,2.112,-0.488,-0.052
288,0.1267822265625,-0.3033466796875,0.1058837890625,-0.173322265625,0.3204599609375,-0.313712890625,-0.2266318359375,-0.597,-0.273,0.071,0.547,0.353,0.184,-0.267,-0.018640440123865457,-0.37496428899531703,0.13135120473082237,-0.016049203429803063,0.37534255240026965,-0.22766891652684795,-0.3081181533469694,5.528,-36.332,-4.832,-12.392,1.816,-0.472,-0.136
289,0.1210068359375,-0.3050966796875,0.1070390625,-0.1695498046875,0.32437109375,-0.3135068359375,-0.2293037109375,-0.587,-0.206,0.119,0.431,0.418,0.039,-0.27,-0.027401200113257397,-0.37725091673775835,0.13250243703174705,-0.005516553774616308,0.3696423470883418,-0.21972825670249377,-0.31112738428961795,1.432,-39.844,-6.912,-10.38,1.364,0.232,-0.068
