EmanuelSamir/lab201_ws_projsamir/sawyer_dev/data/simulation/sin_motion/test_joint7/validation_data_joint7.csv
,j1,j2,j3,j4,j5,j6,j7,jd1,jd2,jd3,jd4,jd5,jd6,jd7,e1,e2,e3,e4,e5,e6,e7
0,0.0,0.0,0.0,0.0,0.0,0.0,0.0,0,0,0,0,0,0,0.0,0.0,0.0,0.0,0.0,0.0,0.0,0.0
1,0.0,0.0,0.0,0.0,0.0,0.0,-2.701894914913794e-05,0,0,0,0,0,0,-4.1756603263202594e-05,0.0,0.0,0.0,0.0,0.0,0.0,-0.6406581555895284
2,0.0,0.0,0.0,0.0,0.0,0.0,-2.701894914913794e-05,0,0,0,0,0,0,-0.00017138814922667127,0.0,0.0,0.0,0.0,0.0,0.0,-0.6406581555895284
3,0.0,0.0,0.0,0.0,0.0,0.0,-9.591414884102534e-05,0,0,0,0,0,0,-4.147052358893591e-05,0.0,0.0,0.0,0.0,0.0,0.0,-0.6581937772556307
4,0.0,0.0,0.0,0.0,0.0,0.0,-6.456518138531209e-05,0,0,0,0,0,0,2.5696689510207037e-05,0.0,0.0,0.0,0.0,0.0,0.0,-0.7265168015414117
5,0.0,0.0,0.0,0.0,0.0,0.0,-2.9815411353162347e-05,0,0,0,0,0,0,0.0017580373700240319,0.0,0.0,0.0,0.0,0.0,0.0,-0.8798556730005573
6,0.0,0.0,0.0,0.0,0.0,0.0,0.0005871672886224033,0,0,0,0,0,0,0.004738888664761299,0.0,0.0,0.0,0.0,0.0,0.0,-1.2129063432759162
7,0.0,0.0,0.0,0.0,0.0,0.0,0.0005871672886224033,0,0,0,0,0,0,0.006581890109683285,0.0,0.0,0.0,0.0,0.0,0.0,-1.2129063432759162
8,0.0,0.0,0.0,0.0,0.0,0.0,0.0005871672886224033,0,0,0,0,0,0,0.007563744793716157,0.0,0.0,0.0,0.0,0.0,0.0,-1.2129063432759162
9,0.0,0.0,0.0,0.0,0.0,0.0,0.0005871672886224033,0,0,0,0,0,0,0.008672170923415639,0.0,0.0,0.0,0.0,0.0,0.0,-1.2129063432759162
10,0.0,0.0,0.0,0.0,0.0,0.0,0.0018378440193567158,0,0,0,0,0,0,0.010554777345286212,0.0,0.0,0.0,0.0,0.0,0.0,-3.39220187213988
11,0.0,0.0,0.0,0.0,0.0,0.0,0.0036995847249068348,0,0,0,0,0,0,0.012238201054841918,0.0,0.0,0.0,0.0,0.0,0.0,-2.318378968207816
12,0.0,0.0,0.0,0.0,0.0,0.0,0.0036995847249068348,0,0,0,0,0,0,0.014780600381574563,0.0,0.0,0.0,0.0,0.0,0.0,-2.318378968207816
13,0.0,0.0,0.0,0.0,0.0,0.0,0.0071896897129777315,0,0,0,0,0,0,0.021694843997671947,0.0,0.0,0.0,0.0,0.0,0.0,-1.559136611877109
14,0.0,0.0,0.0,0.0,0.0,0.0,0.008914151494869849,0,0,0,0,0,0,0.02566148113044559,0.0,0.0,0.0,0.0,0.0,0.0,-1.4502396462937504
15,0.0,0.0,0.0,0.0,0.0,0.0,0.008914151494869849,0,0,0,0,0,0,0.02694174690705658,0.0,0.0,0.0,0.0,0.0,0.0,-1.4502396462937504
16,0.0,0.0,0.0,0.0,0.0,0.0,0.010463582935144267,0,0,0,0,0,0,0.028613456730761284,0.0,0.0,0.0,0.0,0.0,0.0,-3.3547009033408077
17,0.0,0.0,0.0,0.0,0.0,0.0,0.010463582935144267,0,0,0,0,0,0,0.030349052269158166,0.0,0.0,0.0,0.0,0.0,0.0,-3.3547009033408077
18,0.0,0.0,0.0,0.0,0.0,0.0,0.012907197503891688,0,0,0,0,0,0,0.03174359648260501,0.0,0.0,0.0,0.0,0.0,0.0,-4.814281633186052
19,0.0,0.0,0.0,0.0,0.0,0.0,0.012907197503891688,0,0,0,0,0,0,0.03303099404540401,0.0,0.0,0.0,0.0,0.0,0.0,-4.814281633186052
20,0.0,0.0,0.0,0.0,0.0,0.0,0.014909098652482022,0,0,0,0,0,0,0.0342514466638525,0.0,0.0,0.0,0.0,0.0,0.0,9.0
21,0.0,0.0,0.0,0.0,0.0,0.0,0.014909098652482022,0,0,0,0,0,0,0.035555726718333173,0.0,0.0,0.0,0.0,0.0,0.0,9.0
22,0.0,0.0,0.0,0.0,0.0,0.0,0.017625530400430023,0,0,0,0,0,0,0.036766804103042006,0.0,0.0,0.0,0.0,0.0,0.0,9.0
23,0.0,0.0,0.0,0.0,0.0,0.0,0.017625530400430023,0,0,0,0,0,0,0.037915643041130695,0.0,0.0,0.0,0.0,0.0,0.0,9.0
24,0.0,0.0,0.0,0.0,0.0,0.0,0.017625530400430023,0,0,0,0,0,0,0.03898786011860935,0.0,0.0,0.0,0.0,0.0,0.0,9.0
25,0.0,0.0,0.0,0.0,0.0,0.0,0.0208601046315664,0,0,0,0,0,0,0.0400200957514443,0.0,0.0,0.0,0.0,0.0,0.0,-2.405533670254983
26,0.0,0.0,0.0,0.0,0.0,0.0,0.0208601046315664,0,0,0,0,0,0,0.04126812688952773,0.0,0.0,0.0,0.0,0.0,0.0,-2.405533670254983
27,0.0,0.0,0.0,0.0,0.0,0.0,0.024025033745799895,0,0,0,0,0,0,0.04277799376351368,0.0,0.0,0.0,0.0,0.0,0.0,9.0
28,0.0,0.0,0.0,0.0,0.0,0.0,0.026104330478637472,0,0,0,0,0,0,0.044381753627900616,0.0,0.0,0.0,0.0,0.0,0.0,-1.8179070948040803
29,0.0,0.0,0.0,0.0,0.0,0.0,0.02893197769069822,0,0,0,0,0,0,0.04734751069081475,0.0,0.0,0.0,0.0,0.0,0.0,-1.1680061773043622
30,0.0,0.0,0.0,0.0,0.0,0.0,0.02893197769069822,0,0,0,0,0,0,0.04873910614729881,0.0,0.0,0.0,0.0,0.0,0.0,-1.1680061773043622
31,0.0,0.0,0.0,0.0,0.0,0.0,0.030578002299625595,0,0,0,0,0,0,0.050669132306059884,0.0,0.0,0.0,0.0,0.0,0.0,-0.8506755000206558
32,0.0,0.0,0.0,0.0,0.0,0.0,0.03256336401438631,0,0,0,0,0,0,0.052376272979556555,0.0,0.0,0.0,0.0,0.0,0.0,-1.1256261290230616
33,0.0,0.0,0.0,0.0,0.0,0.0,0.03434235097318883,0,0,0,0,0,0,0.053977591851761195,0.0,0.0,0.0,0.0,0.0,0.0,-1.0238093346783907
34,0.0,0.0,0.0,0.0,0.0,0.0,0.036117460476128294,0,0,0,0,0,0,0.05599749630620546,0.0,0.0,0.0,0.0,0.0,0.0,-1.1835335950327233
35,0.0,0.0,0.0,0.0,0.0,0.0,0.037842570269240206,0,0,0,0,0,0,0.058169183258772676,0.0,0.0,0.0,0.0,0.0,0.0,9.0
36,0.0,0.0,0.0,0.0,0.0,0.0,0.039458050998119276,0,0,0,0,0,0,0.05965184363670362,0.0,0.0,0.0,0.0,0.0,0.0,-1.2421814508705993
37,0.0,0.0,0.0,0.0,0.0,0.0,0.0413756846956197,0,0,0,0,0,0,0.061478993923359995,0.0,0.0,0.0,0.0,0.0,0.0,-1.1599079791852784
38,0.0,0.0,0.0,0.0,0.0,0.0,0.0431776597113247,0,0,0,0,0,0,0.06342525341472946,0.0,0.0,0.0,0.0,0.0,0.0,-0.7386791551772012
39,0.0,0.0,0.0,0.0,0.0,0.0,0.04486302752228699,0,0,0,0,0,0,0.06480092234799682,0.0,0.0,0.0,0.0,0.0,0.0,9.0
40,0.0,0.0,0.0,0.0,0.0,0.0,0.04486302752228699,0,0,0,0,0,0,0.06608196890182529,0.0,0.0,0.0,0.0,0.0,0.0,9.0
41,0.0,0.0,0.0,0.0,0.0,0.0,0.04887951723305495,0,0,0,0,0,0,0.06919524133269127,0.0,0.0,0.0,0.0,0.0,0.0,-1.5261345082711264
42,0.0,0.0,0.0,0.0,0.0,0.0,0.049659072196172716,0,0,0,0,0,0,0.07173817701865569,0.0,0.0,0.0,0.0,0.0,0.0,-0.48318373395669056
43,0.0,0.0,0.0,0.0,0.0,0.0,0.05114938459375207,0,0,0,0,0,0,0.07272698797616456,0.0,0.0,0.0,0.0,0.0,0.0,-1.2487082424621385
44,0.0,0.0,0.0,0.0,0.0,0.0,0.05250467497828826,0,0,0,0,0,0,0.07435569921559622,0.0,0.0,0.0,0.0,0.0,0.0,-3.271824414378823
45,0.0,0.0,0.0,0.0,0.0,0.0,0.05402450604042208,0,0,0,0,0,0,0.07568705206021488,0.0,0.0,0.0,0.0,0.0,0.0,-0.9197495901311161
46,0.0,0.0,0.0,0.0,0.0,0.0,0.05402450604042208,0,0,0,0,0,0,0.07764985835450561,0.0,0.0,0.0,0.0,0.0,0.0,-0.9197495901311161
47,0.0,0.0,0.0,0.0,0.0,0.0,0.05831327631018368,0,0,0,0,0,0,0.08307079216035836,0.0,0.0,0.0,0.0,0.0,0.0,-0.8694656624348086
48,0.0,0.0,0.0,0.0,0.0,0.0,0.06190244689900304,0,0,0,0,0,0,0.08937316889664099,0.0,0.0,0.0,0.0,0.0,0.0,-0.5561506208909718
49,0.0,0.0,0.0,0.0,0.0,0.0,0.06486627978778525,0,0,0,0,0,0,0.0955942842369486,0.0,0.0,0.0,0.0,0.0,0.0,-0.5661346251035204
50,0.0,0.0,0.0,0.0,0.0,0.0,0.06802896469322484,0,0,0,0,0,0,0.10076359837903091,0.0,0.0,0.0,0.0,0.0,0.0,-1.390676977154131
51,0.0,0.0,0.0,0.0,0.0,0.0,0.06802896469322484,0,0,0,0,0,0,0.10273676969039314,0.0,0.0,0.0,0.0,0.0,0.0,-1.390676977154131
52,0.0,0.0,0.0,0.0,0.0,0.0,0.07024557086622618,0,0,0,0,0,0,0.10502370619434259,0.0,0.0,0.0,0.0,0.0,0.0,9.0
53,0.0,0.0,0.0,0.0,0.0,0.0,0.07024557086622618,0,0,0,0,0,0,0.10675074460342114,0.0,0.0,0.0,0.0,0.0,0.0,9.0
54,0.0,0.0,0.0,0.0,0.0,0.0,0.07299182757101264,0,0,0,0,0,0,0.10829200463088187,0.0,0.0,0.0,0.0,0.0,0.0,-1.6236678068453934
55,0.0,0.0,0.0,0.0,0.0,0.0,0.07299182757101264,0,0,0,0,0,0,0.11018583746283263,0.0,0.0,0.0,0.0,0.0,0.0,-1.6236678068453934
56,0.0,0.0,0.0,0.0,0.0,0.0,0.07906890221430984,0,0,0,0,0,0,0.11284074032215621,0.0,0.0,0.0,0.0,0.0,0.0,-1.2340617338294813
57,0.0,0.0,0.0,0.0,0.0,0.0,0.08104521690113575,0,0,0,0,0,0,0.11437856431151887,0.0,0.0,0.0,0.0,0.0,0.0,-1.2158974233678863
58,0.0,0.0,0.0,0.0,0.0,0.0,0.08343594111490837,0,0,0,0,0,0,0.11602285066999386,0.0,0.0,0.0,0.0,0.0,0.0,-1.339334799047889
59,0.0,0.0,0.0,0.0,0.0,0.0,0.08601851002692218,0,0,0,0,0,0,0.1184181385511656,0.0,0.0,0.0,0.0,0.0,0.0,-1.7574801574112566
60,0.0,0.0,0.0,0.0,0.0,0.0,0.08601851002692218,0,0,0,0,0,0,0.12038977833777396,0.0,0.0,0.0,0.0,0.0,0.0,-1.7574801574112566
61,0.0,0.0,0.0,0.0,0.0,0.0,0.08849323065826997,0,0,0,0,0,0,0.1237897699987327,0.0,0.0,0.0,0.0,0.0,0.0,-0.6961029662513137
62,0.0,0.0,0.0,0.0,0.0,0.0,0.09108696731245747,0,0,0,0,0,0,0.12592686971378284,0.0,0.0,0.0,0.0,0.0,0.0,-1.0205091066531427
63,0.0,0.0,0.0,0.0,0.0,0.0,0.09108696731245747,0,0,0,0,0,0,0.12797146824201575,0.0,0.0,0.0,0.0,0.0,0.0,-1.0205091066531427
64,0.0,0.0,0.0,0.0,0.0,0.0,0.09389334138329186,0,0,0,0,0,0,0.13010471467960638,0.0,0.0,0.0,0.0,0.0,0.0,9.0
65,0.0,0.0,0.0,0.0,0.0,0.0,0.09891626357677197,0,0,0,0,0,0,0.13277470324917418,0.0,0.0,0.0,0.0,0.0,0.0,-1.4189710304867384
66,0.0,0.0,0.0,0.0,0.0,0.0,0.10270966882228105,0,0,0,0,0,0,0.13687584861044916,0.0,0.0,0.0,0.0,0.0,0.0,-0.5751841483524256
67,0.0,0.0,0.0,0.0,0.0,0.0,0.1075422539878037,0,0,0,0,0,0,0.1412507307299182,0.0,0.0,0.0,0.0,0.0,0.0,-0.4377970535449545
68,0.0,0.0,0.0,0.0,0.0,0.0,0.11110221770487438,0,0,0,0,0,0,0.14469866052851765,0.0,0.0,0.0,0.0,0.0,0.0,-1.402551130736111
69,0.0,0.0,0.0,0.0,0.0,0.0,0.11110221770487438,0,0,0,0,0,0,0.14603036605003866,0.0,0.0,0.0,0.0,0.0,0.0,-1.402551130736111
70,0.0,0.0,0.0,0.0,0.0,0.0,0.11341543592010428,0,0,0,0,0,0,0.1474476689379702,0.0,0.0,0.0,0.0,0.0,0.0,9.0
71,0.0,0.0,0.0,0.0,0.0,0.0,0.11341543592010428,0,0,0,0,0,0,0.1483562817297352,0.0,0.0,0.0,0.0,0.0,0.0,9.0
72,0.0,0.0,0.0,0.0,0.0,0.0,0.11341543592010428,0,0,0,0,0,0,0.1496981135613457,0.0,0.0,0.0,0.0,0.0,0.0,9.0
73,0.0,0.0,0.0,0.0,0.0,0.0,0.11744339785314573,0,0,0,0,0,0,0.15100418768501267,0.0,0.0,0.0,0.0,0.0,0.0,-5.225827953792279
74,0.0,0.0,0.0,0.0,0.0,0.0,0.1201530769978767,0,0,0,0,0,0,0.15227890908706598,0.0,0.0,0.0,0.0,0.0,0.0,-1.0735649213811462
75,0.0,0.0,0.0,0.0,0.0,0.0,0.1201530769978767,0,0,0,0,0,0,0.1536849626693282,0.0,0.0,0.0,0.0,0.0,0.0,-1.0735649213811462
76,0.0,0.0,0.0,0.0,0.0,0.0,0.12541352481443369,0,0,0,0,0,0,0.15603831116957675,0.0,0.0,0.0,0.0,0.0,0.0,-1.29629775062503
77,0.0,0.0,0.0,0.0,0.0,0.0,0.12719406636325736,0,0,0,0,0,0,0.15828365552242887,0.0,0.0,0.0,0.0,0.0,0.0,-1.212438379713952
78,0.0,0.0,0.0,0.0,0.0,0.0,0.12920348861392572,0,0,0,0,0,0,0.15979173137273034,0.0,0.0,0.0,0.0,0.0,0.0,9.0
79,0.0,0.0,0.0,0.0,0.0,0.0,0.1313214899518913,0,0,0,0,0,0,0.16112363300521193,0.0,0.0,0.0,0.0,0.0,0.0,9.0
80,0.0,0.0,0.0,0.0,0.0,0.0,0.1336664925047808,0,0,0,0,0,0,0.16255759212446189,0.0,0.0,0.0,0.0,0.0,0.0,-4.597888981231941
81,0.0,0.0,0.0,0.0,0.0,0.0,0.13570800019505747,0,0,0,0,0,0,0.16458858060886458,0.0,0.0,0.0,0.0,0.0,0.0,-0.9704048870355505
82,0.0,0.0,0.0,0.0,0.0,0.0,0.13773657663617378,0,0,0,0,0,0,0.16605947879227817,0.0,0.0,0.0,0.0,0.0,0.0,-3.719415420394304
83,0.0,0.0,0.0,0.0,0.0,0.0,0.139549077783804,0,0,0,0,0,0,0.16713796968433076,0.0,0.0,0.0,0.0,0.0,0.0,-0.9099592583633528
84,0.0,0.0,0.0,0.0,0.0,0.0,0.139549077783804,0,0,0,0,0,0,0.16834642032133504,0.0,0.0,0.0,0.0,0.0,0.0,-0.9099592583633528
85,0.0,0.0,0.0,0.0,0.0,0.0,0.14188252013359293,0,0,0,0,0,0,0.16978539982234764,0.0,0.0,0.0,0.0,0.0,0.0,-1.004350942598601
86,0.0,0.0,0.0,0.0,0.0,0.0,0.14383365259886194,0,0,0,0,0,0,0.1711330948777569,0.0,0.0,0.0,0.0,0.0,0.0,-1.61743306839417
87,0.0,0.0,0.0,0.0,0.0,0.0,0.14820016107978784,0,0,0,0,0,0,0.17303790317427636,0.0,0.0,0.0,0.0,0.0,0.0,-1.789307280167354
88,0.0,0.0,0.0,0.0,0.0,0.0,0.14820016107978784,0,0,0,0,0,0,0.1743899875847279,0.0,0.0,0.0,0.0,0.0,0.0,-1.789307280167354
89,0.0,0.0,0.0,0.0,0.0,0.0,0.14820016107978784,0,0,0,0,0,0,0.1755006208794862,0.0,0.0,0.0,0.0,0.0,0.0,-1.789307280167354
90,0.0,0.0,0.0,0.0,0.0,0.0,0.15226251315339656,0,0,0,0,0,0,0.1775154093838604,0.0,0.0,0.0,0.0,0.0,0.0,7.907623220850122
91,0.0,0.0,0.0,0.0,0.0,0.0,0.15448686228543718,0,0,0,0,0,0,0.1790185611827389,0.0,0.0,0.0,0.0,0.0,0.0,-1.5198790146472143
92,0.0,0.0,0.0,0.0,0.0,0.0,0.15664870930352937,0,0,0,0,0,0,0.18022112636539672,0.0,0.0,0.0,0.0,0.0,0.0,-1.0137905710264912
93,0.0,0.0,0.0,0.0,0.0,0.0,0.15872399464407128,0,0,0,0,0,0,0.18131032909525727,0.0,0.0,0.0,0.0,0.0,0.0,-1.1241974691027057
94,0.0,0.0,0.0,0.0,0.0,0.0,0.15872399464407128,0,0,0,0,0,0,0.18242336734776032,0.0,0.0,0.0,0.0,0.0,0.0,-1.1241974691027057
95,0.0,0.0,0.0,0.0,0.0,0.0,0.1605632351740054,0,0,0,0,0,0,0.18375903814771197,0.0,0.0,0.0,0.0,0.0,0.0,-1.1015335764044953
96,0.0,0.0,0.0,0.0,0.0,0.0,0.1627607683611867,0,0,0,0,0,0,0.18519227683387796,0.0,0.0,0.0,0.0,0.0,0.0,-4.01541066566128
97,0.0,0.0,0.0,0.0,0.0,0.0,0.16455650776811837,0,0,0,0,0,0,0.18619782132698318,0.0,0.0,0.0,0.0,0.0,0.0,9.0
98,0.0,0.0,0.0,0.0,0.0,0.0,0.1673207895879152,0,0,0,0,0,0,0.1924001028421295,0.0,0.0,0.0,0.0,0.0,0.0,-3.3860758652621312
99,0.0,0.0,0.0,0.0,0.0,0.0,0.1696434443804069,0,0,0,0,0,0,0.19626834564424664,0.0,0.0,0.0,0.0,0.0,0.0,-0.3874838920839254
100,0.0,0.0,0.0,0.0,0.0,0.0,0.17157210459629102,0,0,0,0,0,0,0.19744606237592568,0.0,0.0,0.0,0.0,0.0,0.0,-0.9345810798565314
101,0.0,0.0,0.0,0.0,0.0,0.0,0.17372306610613375,0,0,0,0,0,0,0.1997515455194141,0.0,0.0,0.0,0.0,0.0,0.0,-1.1017108342177016
102,0.0,0.0,0.0,0.0,0.0,0.0,0.18031784084467972,0,0,0,0,0,0,0.2080108979538012,0.0,0.0,0.0,0.0,0.0,0.0,9.0
103,0.0,0.0,0.0,0.0,0.0,0.0,0.18313746296347144,0,0,0,0,0,0,0.21177466802213918,0.0,0.0,0.0,0.0,0.0,0.0,-0.45882920141155964
104,0.0,0.0,0.0,0.0,0.0,0.0,0.18468609890469256,0,0,0,0,0,0,0.21326666107523476,0.0,0.0,0.0,0.0,0.0,0.0,-0.6337971089484846
105,0.0,0.0,0.0,0.0,0.0,0.0,0.18685310682889789,0,0,0,0,0,0,0.21457421305979857,0.0,0.0,0.0,0.0,0.0,0.0,-0.7231200107979281
106,0.0,0.0,0.0,0.0,0.0,0.0,0.1889908383942993,0,0,0,0,0,0,0.21574446384172774,0.0,0.0,0.0,0.0,0.0,0.0,-0.7484749413034142
107,0.0,0.0,0.0,0.0,0.0,0.0,0.1911990471030922,0,0,0,0,0,0,0.2169046410828864,0.0,0.0,0.0,0.0,0.0,0.0,-0.6523300828933011
108,0.0,0.0,0.0,0.0,0.0,0.0,0.1911990471030922,0,0,0,0,0,0,0.21805046892903676,0.0,0.0,0.0,0.0,0.0,0.0,-0.6523300828933011
109,0.0,0.0,0.0,0.0,0.0,0.0,0.19368427113450082,0,0,0,0,0,0,0.21937206874387502,0.0,0.0,0.0,0.0,0.0,0.0,9.0
110,0.0,0.0,0.0,0.0,0.0,0.0,0.19604452023882235,0,0,0,0,0,0,0.22071698254165628,0.0,0.0,0.0,0.0,0.0,0.0,-1.4200028592078282
111,0.0,0.0,0.0,0.0,0.0,0.0,0.19784954472796112,0,0,0,0,0,0,0.22183268582038693,0.0,0.0,0.0,0.0,0.0,0.0,-0.8433899628219728
112,0.0,0.0,0.0,0.0,0.0,0.0,0.19986054319590796,0,0,0,0,0,0,0.2232141451896353,0.0,0.0,0.0,0.0,0.0,0.0,-0.7593116901367358
113,0.0,0.0,0.0,0.0,0.0,0.0,0.20211904382658474,0,0,0,0,0,0,0.2252663741535468,0.0,0.0,0.0,0.0,0.0,0.0,-1.8430950132577937
114,0.0,0.0,0.0,0.0,0.0,0.0,0.20211904382658474,0,0,0,0,0,0,0.22622190776671547,0.0,0.0,0.0,0.0,0.0,0.0,-1.8430950132577937
115,0.0,0.0,0.0,0.0,0.0,0.0,0.20367794609441336,0,0,0,0,0,0,0.22720015518876369,0.0,0.0,0.0,0.0,0.0,0.0,-0.49768634700977876
116,0.0,0.0,0.0,0.0,0.0,0.0,0.20635145389888443,0,0,0,0,0,0,0.22847619925451612,0.0,0.0,0.0,0.0,0.0,0.0,-1.9061212569387123
117,0.0,0.0,0.0,0.0,0.0,0.0,0.20635145389888443,0,0,0,0,0,0,0.22932555453953207,0.0,0.0,0.0,0.0,0.0,0.0,-1.9061212569387123
118,0.0,0.0,0.0,0.0,0.0,0.0,0.20886658999506746,0,0,0,0,0,0,0.2301701029612631,0.0,0.0,0.0,0.0,0.0,0.0,-4.210764671729249
119,0.0,0.0,0.0,0.0,0.0,0.0,0.20886658999506746,0,0,0,0,0,0,0.23079094064360742,0.0,0.0,0.0,0.0,0.0,0.0,-4.210764671729249
120,0.0,0.0,0.0,0.0,0.0,0.0,0.20886658999506746,0,0,0,0,0,0,0.23203503755387903,0.0,0.0,0.0,0.0,0.0,0.0,-4.210764671729249
121,0.0,0.0,0.0,0.0,0.0,0.0,0.2132695067140027,0,0,0,0,0,0,0.2333721870411428,0.0,0.0,0.0,0.0,0.0,0.0,-1.1903026646916983
122,0.0,0.0,0.0,0.0,0.0,0.0,0.2132695067140027,0,0,0,0,0,0,0.23459010929174615,0.0,0.0,0.0,0.0,0.0,0.0,-1.1903026646916983
123,0.0,0.0,0.0,0.0,0.0,0.0,0.2150870415626951,0,0,0,0,0,0,0.23549590507846285,0.0,0.0,0.0,0.0,0.0,0.0,9.0
124,0.0,0.0,0.0,0.0,0.0,0.0,0.21717303024321932,0,0,0,0,0,0,0.23685368167771578,0.0,0.0,0.0,0.0,0.0,0.0,7.558004531598611
125,0.0,0.0,0.0,0.0,0.0,0.0,0.21850439609969463,0,0,0,0,0,0,0.2382997485165989,0.0,0.0,0.0,0.0,0.0,0.0,-1.37409831875217
126,0.0,0.0,0.0,0.0,0.0,0.0,0.21987164355806676,0,0,0,0,0,0,0.2395798317300997,0.0,0.0,0.0,0.0,0.0,0.0,-1.0502916595271754
127,0.0,0.0,0.0,0.0,0.0,0.0,0.22313633768135244,0,0,0,0,0,0,0.2412096766380883,0.0,0.0,0.0,0.0,0.0,0.0,-1.2254894923226802
128,0.0,0.0,0.0,0.0,0.0,0.0,0.2245338608445442,0,0,0,0,0,0,0.24222222548435465,0.0,0.0,0.0,0.0,0.0,0.0,-1.293784578807148
129,0.0,0.0,0.0,0.0,0.0,0.0,0.2245338608445442,0,0,0,0,0,0,0.24301984623668968,0.0,0.0,0.0,0.0,0.0,0.0,-1.293784578807148
130,0.0,0.0,0.0,0.0,0.0,0.0,0.2262197518216853,0,0,0,0,0,0,0.24389740412017608,0.0,0.0,0.0,0.0,0.0,0.0,-1.3919815216813245
131,0.0,0.0,0.0,0.0,0.0,0.0,0.2282758162159242,0,0,0,0,0,0,0.24499325558593546,0.0,0.0,0.0,0.0,0.0,0.0,-0.9682971311066974
132,0.0,0.0,0.0,0.0,0.0,0.0,0.2282758162159242,0,0,0,0,0,0,0.24589268295814204,0.0,0.0,0.0,0.0,0.0,0.0,-0.9682971311066974
133,0.0,0.0,0.0,0.0,0.0,0.0,0.22997102364186794,0,0,0,0,0,0,0.246858512072624,0.0,0.0,0.0,0.0,0.0,0.0,-1.0127833198016163
134,0.0,0.0,0.0,0.0,0.0,0.0,0.23173834211764,0,0,0,0,0,0,0.24796722172348246,0.0,0.0,0.0,0.0,0.0,0.0,-1.8999666240841282
135,0.0,0.0,0.0,0.0,0.0,0.0,0.2337414091520067,0,0,0,0,0,0,0.24894868655640107,0.0,0.0,0.0,0.0,0.0,0.0,9.0
136,0.0,0.0,0.0,0.0,0.0,0.0,0.2354935785907024,0,0,0,0,0,0,0.24990567787210738,0.0,0.0,0.0,0.0,0.0,0.0,-1.463657670176793
137,0.0,0.0,0.0,0.0,0.0,0.0,0.23680709309800552,0,0,0,0,0,0,0.2507683216383806,0.0,0.0,0.0,0.0,0.0,0.0,8.870361002920081
138,0.0,0.0,0.0,0.0,0.0,0.0,0.2382044646931849,0,0,0,0,0,0,0.25165504089044316,0.0,0.0,0.0,0.0,0.0,0.0,-1.608441138014821
139,0.0,0.0,0.0,0.0,0.0,0.0,0.23963308644614845,0,0,0,0,0,0,0.2530715947296994,0.0,0.0,0.0,0.0,0.0,0.0,-0.6462367306841081
140,0.0,0.0,0.0,0.0,0.0,0.0,0.2409960569341978,0,0,0,0,0,0,0.25417409565851257,0.0,0.0,0.0,0.0,0.0,0.0,9.0
141,0.0,0.0,0.0,0.0,0.0,0.0,0.24323159002613437,0,0,0,0,0,0,0.255466302080067,0.0,0.0,0.0,0.0,0.0,0.0,-1.2450778321759255
142,0.0,0.0,0.0,0.0,0.0,0.0,0.24507218739780523,0,0,0,0,0,0,0.25703858741816843,0.0,0.0,0.0,0.0,0.0,0.0,-1.1518926694150033
143,0.0,0.0,0.0,0.0,0.0,0.0,0.24507218739780523,0,0,0,0,0,0,0.2577657055038718,0.0,0.0,0.0,0.0,0.0,0.0,-1.1518926694150033
144,0.0,0.0,0.0,0.0,0.0,0.0,0.24642337178532792,0,0,0,0,0,0,0.25841999340654337,0.0,0.0,0.0,0.0,0.0,0.0,-3.1685806803844816
145,0.0,0.0,0.0,0.0,0.0,0.0,0.24642337178532792,0,0,0,0,0,0,0.25906498638073244,0.0,0.0,0.0,0.0,0.0,0.0,-3.1685806803844816
146,0.0,0.0,0.0,0.0,0.0,0.0,0.24903196396316485,0,0,0,0,0,0,0.25992570674917337,0.0,0.0,0.0,0.0,0.0,0.0,-0.9806223086831948
147,0.0,0.0,0.0,0.0,0.0,0.0,0.24903196396316485,0,0,0,0,0,0,0.26070010385529196,0.0,0.0,0.0,0.0,0.0,0.0,-0.9806223086831948
148,0.0,0.0,0.0,0.0,0.0,0.0,0.25027178004243655,0,0,0,0,0,0,0.2616056309426849,0.0,0.0,0.0,0.0,0.0,0.0,-1.778983693937615
149,0.0,0.0,0.0,0.0,0.0,0.0,0.25194350079672123,0,0,0,0,0,0,0.26231562363747535,0.0,0.0,0.0,0.0,0.0,0.0,-1.0273755534747453
150,0.0,0.0,0.0,0.0,0.0,0.0,0.25194350079672123,0,0,0,0,0,0,0.2630052668339597,0.0,0.0,0.0,0.0,0.0,0.0,-1.0273755534747453
151,0.0,0.0,0.0,0.0,0.0,0.0,0.2532790420031681,0,0,0,0,0,0,0.26365000157926016,0.0,0.0,0.0,0.0,0.0,0.0,-1.2477626683294263
152,0.0,0.0,0.0,0.0,0.0,0.0,0.25464607417263174,0,0,0,0,0,0,0.264376870158163,0.0,0.0,0.0,0.0,0.0,0.0,-3.2647479183423043
153,0.0,0.0,0.0,0.0,0.0,0.0,0.2558469023316592,0,0,0,0,0,0,0.265143562540178,0.0,0.0,0.0,0.0,0.0,0.0,-3.5104173134563212
154,0.0,0.0,0.0,0.0,0.0,0.0,0.2558469023316592,0,0,0,0,0,0,0.26575736553689716,0.0,0.0,0.0,0.0,0.0,0.0,-3.5104173134563212
155,0.0,0.0,0.0,0.0,0.0,0.0,0.2569776764364784,0,0,0,0,0,0,0.26644440007315373,0.0,0.0,0.0,0.0,0.0,0.0,5.005823497058348
156,0.0,0.0,0.0,0.0,0.0,0.0,0.2569776764364784,0,0,0,0,0,0,0.2669772049793083,0.0,0.0,0.0,0.0,0.0,0.0,5.005823497058348
157,0.0,0.0,0.0,0.0,0.0,0.0,0.2584047316949549,0,0,0,0,0,0,0.2675659507559086,0.0,0.0,0.0,0.0,0.0,0.0,-1.1163322842358439
158,0.0,0.0,0.0,0.0,0.0,0.0,0.2599195811268693,0,0,0,0,0,0,0.26861127251404143,0.0,0.0,0.0,0.0,0.0,0.0,-3.45618821245954
159,0.0,0.0,0.0,0.0,0.0,0.0,0.26095612658729284,0,0,0,0,0,0,0.2696108497496851,0.0,0.0,0.0,0.0,0.0,0.0,-3.9350388699929937
160,0.0,0.0,0.0,0.0,0.0,0.0,0.26160798105564353,0,0,0,0,0,0,0.2702453471909681,0.0,0.0,0.0,0.0,0.0,0.0,-1.132114767001293
161,0.0,0.0,0.0,0.0,0.0,0.0,0.26250734665963815,0,0,0,0,0,0,0.2711926155205376,0.0,0.0,0.0,0.0,0.0,0.0,-1.1140542080645655
162,0.0,0.0,0.0,0.0,0.0,0.0,0.2637519499572747,0,0,0,0,0,0,0.2720292668825869,0.0,0.0,0.0,0.0,0.0,0.0,-3.569240713907409
163,0.0,0.0,0.0,0.0,0.0,0.0,0.26474259527845234,0,0,0,0,0,0,0.27279806846892835,0.0,0.0,0.0,0.0,0.0,0.0,-1.1738020973708585
164,0.0,0.0,0.0,0.0,0.0,0.0,0.26566935265770475,0,0,0,0,0,0,0.2734921419141755,0.0,0.0,0.0,0.0,0.0,0.0,-1.2817745991957983
165,0.0,0.0,0.0,0.0,0.0,0.0,0.26664966722153594,0,0,0,0,0,0,0.27422376391448017,0.0,0.0,0.0,0.0,0.0,0.0,-1.599662496074909
166,0.0,0.0,0.0,0.0,0.0,0.0,0.2678821074640796,0,0,0,0,0,0,0.27504735329139285,0.0,0.0,0.0,0.0,0.0,0.0,6.316522316806303
167,0.0,0.0,0.0,0.0,0.0,0.0,0.2686374084883987,0,0,0,0,0,0,0.2757262770964944,0.0,0.0,0.0,0.0,0.0,0.0,-1.2738660504254433
168,0.0,0.0,0.0,0.0,0.0,0.0,0.2697460791110684,0,0,0,0,0,0,0.2764294236923083,0.0,0.0,0.0,0.0,0.0,0.0,-1.6148616642294642
169,0.0,0.0,0.0,0.0,0.0,0.0,0.2708584466945956,0,0,0,0,0,0,0.2774462776082282,0.0,0.0,0.0,0.0,0.0,0.0,-0.8724323044260768
170,0.0,0.0,0.0,0.0,0.0,0.0,0.2718119355539743,0,0,0,0,0,0,0.27819368059040367,0.0,0.0,0.0,0.0,0.0,0.0,9.0
171,0.0,0.0,0.0,0.0,0.0,0.0,0.2725307429773167,0,0,0,0,0,0,0.27887118582247855,0.0,0.0,0.0,0.0,0.0,0.0,-1.5073195986551093
172,0.0,0.0,0.0,0.0,0.0,0.0,0.2725307429773167,0,0,0,0,0,0,0.27934785603500395,0.0,0.0,0.0,0.0,0.0,0.0,-1.5073195986551093
173,0.0,0.0,0.0,0.0,0.0,0.0,0.2737667300525102,0,0,0,0,0,0,0.27988907350829056,0.0,0.0,0.0,0.0,0.0,0.0,-1.1971805896704426
174,0.0,0.0,0.0,0.0,0.0,0.0,0.2737667300525102,0,0,0,0,0,0,0.2804485226033739,0.0,0.0,0.0,0.0,0.0,0.0,-1.1971805896704426
175,0.0,0.0,0.0,0.0,0.0,0.0,0.2749103955215242,0,0,0,0,0,0,0.2809528132700738,0.0,0.0,0.0,0.0,0.0,0.0,-1.2907466597000148
176,0.0,0.0,0.0,0.0,0.0,0.0,0.27624262568890323,0,0,0,0,0,0,0.28140273463726345,0.0,0.0,0.0,0.0,0.0,0.0,-0.9793435130946875
177,0.0,0.0,0.0,0.0,0.0,0.0,0.2769183640053434,0,0,0,0,0,0,0.2819044556520032,0.0,0.0,0.0,0.0,0.0,0.0,-0.7144846577739077
178,0.0,0.0,0.0,0.0,0.0,0.0,0.2769183640053434,0,0,0,0,0,0,0.2824305466188813,0.0,0.0,0.0,0.0,0.0,0.0,-0.7144846577739077
179,0.0,0.0,0.0,0.0,0.0,0.0,0.27756474495878525,0,0,0,0,0,0,0.28279085727824166,0.0,0.0,0.0,0.0,0.0,0.0,-0.7787675600095827
180,0.0,0.0,0.0,0.0,0.0,0.0,0.27756474495878525,0,0,0,0,0,0,0.28316968380760665,0.0,0.0,0.0,0.0,0.0,0.0,-0.7787675600095827
181,0.0,0.0,0.0,0.0,0.0,0.0,0.27861489817526497,0,0,0,0,0,0,0.28365385230193557,0.0,0.0,0.0,0.0,0.0,0.0,-1.3005087568216842
182,0.0,0.0,0.0,0.0,0.0,0.0,0.2792394782587886,0,0,0,0,0,0,0.28413611365824226,0.0,0.0,0.0,0.0,0.0,0.0,-0.8592010816751215
183,0.0,0.0,0.0,0.0,0.0,0.0,0.2800105041910843,0,0,0,0,0,0,0.2847138348325334,0.0,0.0,0.0,0.0,0.0,0.0,-0.9221760707333523
184,0.0,0.0,0.0,0.0,0.0,0.0,0.2805525768389048,0,0,0,0,0,0,0.285193310457145,0.0,0.0,0.0,0.0,0.0,0.0,-0.8126310026996183
185,0.0,0.0,0.0,0.0,0.0,0.0,0.2813260457352609,0,0,0,0,0,0,0.2856079073404171,0.0,0.0,0.0,0.0,0.0,0.0,-1.1780537919882312
186,0.0,0.0,0.0,0.0,0.0,0.0,0.2813260457352609,0,0,0,0,0,0,0.2859766975471794,0.0,0.0,0.0,0.0,0.0,0.0,-1.1780537919882312
187,0.0,0.0,0.0,0.0,0.0,0.0,0.2822725283029799,0,0,0,0,0,0,0.28639370291501076,0.0,0.0,0.0,0.0,0.0,0.0,2.9107158266034934
188,0.0,0.0,0.0,0.0,0.0,0.0,0.28294033363773696,0,0,0,0,0,0,0.28690526099498337,0.0,0.0,0.0,0.0,0.0,0.0,-0.9732206987292169
189,0.0,0.0,0.0,0.0,0.0,0.0,0.28294033363773696,0,0,0,0,0,0,0.28734536300395785,0.0,0.0,0.0,0.0,0.0,0.0,-0.9732206987292169
190,0.0,0.0,0.0,0.0,0.0,0.0,0.2836028262581145,0,0,0,0,0,0,0.2877834047305928,0.0,0.0,0.0,0.0,0.0,0.0,-1.0507063969214463
191,0.0,0.0,0.0,0.0,0.0,0.0,0.28446882082855485,0,0,0,0,0,0,0.28822827150485525,0.0,0.0,0.0,0.0,0.0,0.0,-0.9124029860756724
192,0.0,0.0,0.0,0.0,0.0,0.0,0.28446882082855485,0,0,0,0,0,0,0.2887212409292776,0.0,0.0,0.0,0.0,0.0,0.0,-0.9124029860756724
193,0.0,0.0,0.0,0.0,0.0,0.0,0.2856399807317658,0,0,0,0,0,0,0.28942454043592836,0.0,0.0,0.0,0.0,0.0,0.0,-1.1111804513038506
194,0.0,0.0,0.0,0.0,0.0,0.0,0.28672318307782074,0,0,0,0,0,0,0.29027081080067435,0.0,0.0,0.0,0.0,0.0,0.0,-1.097664006387892
195,0.0,0.0,0.0,0.0,0.0,0.0,0.28713042581726267,0,0,0,0,0,0,0.29063568235051923,0.0,0.0,0.0,0.0,0.0,0.0,-0.4352877658951518
196,0.0,0.0,0.0,0.0,0.0,0.0,0.2879448783463028,0,0,0,0,0,0,0.2910484973017064,0.0,0.0,0.0,0.0,0.0,0.0,-1.0243314403811006
197,0.0,0.0,0.0,0.0,0.0,0.0,0.2887166971832915,0,0,0,0,0,0,0.2918546262732092,0.0,0.0,0.0,0.0,0.0,0.0,-0.7352897651235646
198,0.0,0.0,0.0,0.0,0.0,0.0,0.2893477623410172,0,0,0,0,0,0,0.29262101769268467,0.0,0.0,0.0,0.0,0.0,0.0,-1.4160540881216421
199,0.0,0.0,0.0,0.0,0.0,0.0,0.29037852910373196,0,0,0,0,0,0,0.2934343710777876,0.0,0.0,0.0,0.0,0.0,0.0,-1.17807311053825
200,0.0,0.0,0.0,0.0,0.0,0.0,0.29067330086385024,0,0,0,0,0,0,0.29370813200054624,0.0,0.0,0.0,0.0,0.0,0.0,-0.5260723253970835
201,0.0,0.0,0.0,0.0,0.0,0.0,0.2918140802392113,0,0,0,0,0,0,0.2940754330652293,0.0,0.0,0.0,0.0,0.0,0.0,-0.9115269642200631
202,0.0,0.0,0.0,0.0,0.0,0.0,0.2921302619802475,0,0,0,0,0,0,0.2944044298655216,0.0,0.0,0.0,0.0,0.0,0.0,-0.5902948247584807
203,0.0,0.0,0.0,0.0,0.0,0.0,0.2921302619802475,0,0,0,0,0,0,0.2946757944687915,0.0,0.0,0.0,0.0,0.0,0.0,-0.5902948247584807
204,0.0,0.0,0.0,0.0,0.0,0.0,0.2925534205281064,0,0,0,0,0,0,0.29497246527073634,0.0,0.0,0.0,0.0,0.0,0.0,-0.6849281162048535
205,0.0,0.0,0.0,0.0,0.0,0.0,0.2928961304041229,0,0,0,0,0,0,0.2952906064113676,0.0,0.0,0.0,0.0,0.0,0.0,-0.669577245351436
206,0.0,0.0,0.0,0.0,0.0,0.0,0.29359590516218503,0,0,0,0,0,0,0.29554090508465336,0.0,0.0,0.0,0.0,0.0,0.0,-0.6376185771716749
207,0.0,0.0,0.0,0.0,0.0,0.0,0.29359590516218503,0,0,0,0,0,0,0.295753843218305,0.0,0.0,0.0,0.0,0.0,0.0,-0.6376185771716749
208,0.0,0.0,0.0,0.0,0.0,0.0,0.29395312768479176,0,0,0,0,0,0,0.2960227360058259,0.0,0.0,0.0,0.0,0.0,0.0,-0.8100371969157834
209,0.0,0.0,0.0,0.0,0.0,0.0,0.29434443594852056,0,0,0,0,0,0,0.2963146601490587,0.0,0.0,0.0,0.0,0.0,0.0,1.9153894121505983
210,0.0,0.0,0.0,0.0,0.0,0.0,0.29434443594852056,0,0,0,0,0,0,0.2964812061787702,0.0,0.0,0.0,0.0,0.0,0.0,1.9153894121505983
211,0.0,0.0,0.0,0.0,0.0,0.0,0.2947525029816722,0,0,0,0,0,0,0.29669066064793775,0.0,0.0,0.0,0.0,0.0,0.0,-0.9059800902617978
212,0.0,0.0,0.0,0.0,0.0,0.0,0.29502671813978676,0,0,0,0,0,0,0.2968792084199759,0.0,0.0,0.0,0.0,0.0,0.0,-0.6326541425347321
213,0.0,0.0,0.0,0.0,0.0,0.0,0.29536949984394933,0,0,0,0,0,0,0.29710790931086656,0.0,0.0,0.0,0.0,0.0,0.0,-0.9097849703844445
214,0.0,0.0,0.0,0.0,0.0,0.0,0.29536949984394933,0,0,0,0,0,0,0.2972786272511539,0.0,0.0,0.0,0.0,0.0,0.0,-0.9097849703844445
215,0.0,0.0,0.0,0.0,0.0,0.0,0.2958108736847498,0,0,0,0,0,0,0.29748343605182215,0.0,0.0,0.0,0.0,0.0,0.0,-1.3115182412037563
216,0.0,0.0,0.0,0.0,0.0,0.0,0.2960798803052187,0,0,0,0,0,0,0.29768813227681823,0.0,0.0,0.0,0.0,0.0,0.0,1.3112923964941825
217,0.0,0.0,0.0,0.0,0.0,0.0,0.2960798803052187,0,0,0,0,0,0,0.29786903231399897,0.0,0.0,0.0,0.0,0.0,0.0,1.3112923964941825
218,0.0,0.0,0.0,0.0,0.0,0.0,0.2964277463652909,0,0,0,0,0,0,0.298065783842625,0.0,0.0,0.0,0.0,0.0,0.0,0.9705339587588276
219,0.0,0.0,0.0,0.0,0.0,0.0,0.29666899833203964,0,0,0,0,0,0,0.2982039001431744,0.0,0.0,0.0,0.0,0.0,0.0,-0.7960034498728119
220,0.0,0.0,0.0,0.0,0.0,0.0,0.29692809022810973,0,0,0,0,0,0,0.29838588820236694,0.0,0.0,0.0,0.0,0.0,0.0,-0.8026662281610497
221,0.0,0.0,0.0,0.0,0.0,0.0,0.29723148205704053,0,0,0,0,0,0,0.29856088077611836,0.0,0.0,0.0,0.0,0.0,0.0,-0.8675104517726915
222,0.0,0.0,0.0,0.0,0.0,0.0,0.29751645167132246,0,0,0,0,0,0,0.29884939599319454,0.0,0.0,0.0,0.0,0.0,0.0,-0.6229788782388072
223,0.0,0.0,0.0,0.0,0.0,0.0,0.29771441431896584,0,0,0,0,0,0,0.29909629205817795,0.0,0.0,0.0,0.0,0.0,0.0,-0.9186152142822145
224,0.0,0.0,0.0,0.0,0.0,0.0,0.29802553096369966,0,0,0,0,0,0,0.2992342797333883,0.0,0.0,0.0,0.0,0.0,0.0,-1.4830651606646459
225,0.0,0.0,0.0,0.0,0.0,0.0,0.2981426497753974,0,0,0,0,0,0,0.2993791743986416,0.0,0.0,0.0,0.0,0.0,0.0,-0.7992614505441712
226,0.0,0.0,0.0,0.0,0.0,0.0,0.298298605651917,0,0,0,0,0,0,0.2994742498409956,0.0,0.0,0.0,0.0,0.0,0.0,-0.733374388112321
227,0.0,0.0,0.0,0.0,0.0,0.0,0.298298605651917,0,0,0,0,0,0,0.2995600080681517,0.0,0.0,0.0,0.0,0.0,0.0,-0.733374388112321
228,0.0,0.0,0.0,0.0,0.0,0.0,0.29852050592505464,0,0,0,0,0,0,0.29965661313574965,0.0,0.0,0.0,0.0,0.0,0.0,-0.8235706494458879
229,0.0,0.0,0.0,0.0,0.0,0.0,0.29880963373144453,0,0,0,0,0,0,0.2997545344580465,0.0,0.0,0.0,0.0,0.0,0.0,-0.7685819960683901
230,0.0,0.0,0.0,0.0,0.0,0.0,0.29880963373144453,0,0,0,0,0,0,0.299811444101371,0.0,0.0,0.0,0.0,0.0,0.0,-0.7685819960683901
231,0.0,0.0,0.0,0.0,0.0,0.0,0.2989198596868805,0,0,0,0,0,0,0.2998541040339945,0.0,0.0,0.0,0.0,0.0,0.0,-0.6249078961206764
232,0.0,0.0,0.0,0.0,0.0,0.0,0.2990321526706028,0,0,0,0,0,0,0.29989319969381456,0.0,0.0,0.0,0.0,0.0,0.0,-0.6813626138288449
233,0.0,0.0,0.0,0.0,0.0,0.0,0.2991107633632657,0,0,0,0,0,0,0.29992728345095954,0.0,0.0,0.0,0.0,0.0,0.0,-0.66892224643133
234,0.0,0.0,0.0,0.0,0.0,0.0,0.29918681199927466,0,0,0,0,0,0,0.2999556857451638,0.0,0.0,0.0,0.0,0.0,0.0,-0.6658244217474911
235,0.0,0.0,0.0,0.0,0.0,0.0,0.2992661051685337,0,0,0,0,0,0,0.2999757618166027,0.0,0.0,0.0,0.0,0.0,0.0,-0.636959763172027
236,0.0,0.0,0.0,0.0,0.0,0.0,0.2992661051685337,0,0,0,0,0,0,0.2999885513922722,0.0,0.0,0.0,0.0,0.0,0.0,-0.636959763172027
237,0.0,0.0,0.0,0.0,0.0,0.0,0.2993147932682634,0,0,0,0,0,0,0.2999986855877943,0.0,0.0,0.0,0.0,0.0,0.0,-0.6443093208980804
238,0.0,0.0,0.0,0.0,0.0,0.0,0.2993147932682634,0,0,0,0,0,0,0.2999988093580106,0.0,0.0,0.0,0.0,0.0,0.0,-0.6443093208980804
239,0.0,0.0,0.0,0.0,0.0,0.0,0.2993664801644149,0,0,0,0,0,0,0.2999936993458513,0.0,0.0,0.0,0.0,0.0,0.0,-0.6863977884654726
240,0.0,0.0,0.0,0.0,0.0,0.0,0.2993981444287783,0,0,0,0,0,0,0.299981362766548,0.0,0.0,0.0,0.0,0.0,0.0,-0.6437521693685244
241,0.0,0.0,0.0,0.0,0.0,0.0,0.2994204408819785,0,0,0,0,0,0,0.29994399636749575,0.0,0.0,0.0,0.0,0.0,0.0,-0.6322106465656453
242,0.0,0.0,0.0,0.0,0.0,0.0,0.2994215000631639,0,0,0,0,0,0,0.29991248196273346,0.0,0.0,0.0,0.0,0.0,0.0,-0.6372373996897429
243,0.0,0.0,0.0,0.0,0.0,0.0,0.2994215000631639,0,0,0,0,0,0,0.299880477005257,0.0,0.0,0.0,0.0,0.0,0.0,-0.6372373996897429
244,0.0,0.0,0.0,0.0,0.0,0.0,0.29940088716978863,0,0,0,0,0,0,0.2998247659735134,0.0,0.0,0.0,0.0,0.0,0.0,-0.6196861452667589
245,0.0,0.0,0.0,0.0,0.0,0.0,0.29935723471271025,0,0,0,0,0,0,0.2997490207497035,0.0,0.0,0.0,0.0,0.0,0.0,-0.6167949989730184
246,0.0,0.0,0.0,0.0,0.0,0.0,0.2993266010365403,0,0,0,0,0,0,0.2996608221829421,0.0,0.0,0.0,0.0,0.0,0.0,-0.6405067010758799
247,0.0,0.0,0.0,0.0,0.0,0.0,0.299242491320471,0,0,0,0,0,0,0.2995105406602378,0.0,0.0,0.0,0.0,0.0,0.0,-0.5563401298880487
248,0.0,0.0,0.0,0.0,0.0,0.0,0.299242491320471,0,0,0,0,0,0,0.29944709835501,0.0,0.0,0.0,0.0,0.0,0.0,-0.5563401298880487
249,0.0,0.0,0.0,0.0,0.0,0.0,0.29920317767237137,0,0,0,0,0,0,0.2993726931094988,0.0,0.0,0.0,0.0,0.0,0.0,-0.6277497206375635
250,0.0,0.0,0.0,0.0,0.0,0.0,0.29920317767237137,0,0,0,0,0,0,0.29928955511175226,0.0,0.0,0.0,0.0,0.0,0.0,-0.6277497206375635
251,0.0,0.0,0.0,0.0,0.0,0.0,0.29898522189788146,0,0,0,0,0,0,0.29919906137206975,0.0,0.0,0.0,0.0,0.0,0.0,-0.519513860301796
252,0.0,0.0,0.0,0.0,0.0,0.0,0.29898522189788146,0,0,0,0,0,0,0.29910905224224915,0.0,0.0,0.0,0.0,0.0,0.0,-0.519513860301796
253,0.0,0.0,0.0,0.0,0.0,0.0,0.298858298854646,0,0,0,0,0,0,0.2990165471596218,0.0,0.0,0.0,0.0,0.0,0.0,-1.4497776329666519
254,0.0,0.0,0.0,0.0,0.0,0.0,0.298858298854646,0,0,0,0,0,0,0.2988922980856976,0.0,0.0,0.0,0.0,0.0,0.0,-1.4497776329666519
255,0.0,0.0,0.0,0.0,0.0,0.0,0.298858298854646,0,0,0,0,0,0,0.29878903837305726,0.0,0.0,0.0,0.0,0.0,0.0,-1.4497776329666519
256,0.0,0.0,0.0,0.0,0.0,0.0,0.2986318034506521,0,0,0,0,0,0,0.29868167536960416,0.0,0.0,0.0,0.0,0.0,0.0,-1.5216843968758562
257,0.0,0.0,0.0,0.0,0.0,0.0,0.2984575679098249,0,0,0,0,0,0,0.29856126259305055,0.0,0.0,0.0,0.0,0.0,0.0,-0.5095606585036708
258,0.0,0.0,0.0,0.0,0.0,0.0,0.2984575679098249,0,0,0,0,0,0,0.29843066701971566,0.0,0.0,0.0,0.0,0.0,0.0,-0.5095606585036708
259,0.0,0.0,0.0,0.0,0.0,0.0,0.2983004418443871,0,0,0,0,0,0,0.2982727270126501,0.0,0.0,0.0,0.0,0.0,0.0,-0.5585502543353777
260,0.0,0.0,0.0,0.0,0.0,0.0,0.2983004418443871,0,0,0,0,0,0,0.2981398502721158,0.0,0.0,0.0,0.0,0.0,0.0,-0.5585502543353777
261,0.0,0.0,0.0,0.0,0.0,0.0,0.2980692464283088,0,0,0,0,0,0,0.29799101305997755,0.0,0.0,0.0,0.0,0.0,0.0,-0.4850949191672135
262,0.0,0.0,0.0,0.0,0.0,0.0,0.29786206595047826,0,0,0,0,0,0,0.29782951717374584,0.0,0.0,0.0,0.0,0.0,0.0,-0.0246726273570433
263,0.0,0.0,0.0,0.0,0.0,0.0,0.2977460206518412,0,0,0,0,0,0,0.29763586545138754,0.0,0.0,0.0,0.0,0.0,0.0,-0.5867884659591841
264,0.0,0.0,0.0,0.0,0.0,0.0,0.29757818181334894,0,0,0,0,0,0,0.29738481186578136,0.0,0.0,0.0,0.0,0.0,0.0,-2.5142156884560865
265,0.0,0.0,0.0,0.0,0.0,0.0,0.29734808295242043,0,0,0,0,0,0,0.29721338430605304,0.0,0.0,0.0,0.0,0.0,0.0,-0.4647294556594092
266,0.0,0.0,0.0,0.0,0.0,0.0,0.29734808295242043,0,0,0,0,0,0,0.29706250656839234,0.0,0.0,0.0,0.0,0.0,0.0,-0.4647294556594092
267,0.0,0.0,0.0,0.0,0.0,0.0,0.29734808295242043,0,0,0,0,0,0,0.2968391879917599,0.0,0.0,0.0,0.0,0.0,0.0,-0.4647294556594092
268,0.0,0.0,0.0,0.0,0.0,0.0,0.29707302244389755,0,0,0,0,0,0,0.29662704001732704,0.0,0.0,0.0,0.0,0.0,0.0,-0.45597148059214804
269,0.0,0.0,0.0,0.0,0.0,0.0,0.2967064010172784,0,0,0,0,0,0,0.29633387788681875,0.0,0.0,0.0,0.0,0.0,0.0,0.08199719982490992
270,0.0,0.0,0.0,0.0,0.0,0.0,0.2964040614874319,0,0,0,0,0,0,0.29603080408197885,0.0,0.0,0.0,0.0,0.0,0.0,-0.6732397079636411
271,0.0,0.0,0.0,0.0,0.0,0.0,0.2961034676351799,0,0,0,0,0,0,0.2957583891110517,0.0,0.0,0.0,0.0,0.0,0.0,-0.531550892383767
272,0.0,0.0,0.0,0.0,0.0,0.0,0.2958500759355953,0,0,0,0,0,0,0.2954466622797653,0.0,0.0,0.0,0.0,0.0,0.0,-0.654668072225999
273,0.0,0.0,0.0,0.0,0.0,0.0,0.2958500759355953,0,0,0,0,0,0,0.2951814359343019,0.0,0.0,0.0,0.0,0.0,0.0,-0.654668072225999
274,0.0,0.0,0.0,0.0,0.0,0.0,0.2955776510482053,0,0,0,0,0,0,0.29494168078140826,0.0,0.0,0.0,0.0,0.0,0.0,-0.25631996506543275
275,0.0,0.0,0.0,0.0,0.0,0.0,0.2955776510482053,0,0,0,0,0,0,0.2947172798582361,0.0,0.0,0.0,0.0,0.0,0.0,-0.25631996506543275
276,0.0,0.0,0.0,0.0,0.0,0.0,0.29506520140345227,0,0,0,0,0,0,0.29439534556056995,0.0,0.0,0.0,0.0,0.0,0.0,-2.706592349247449
277,0.0,0.0,0.0,0.0,0.0,0.0,0.29506520140345227,0,0,0,0,0,0,0.2941486241197771,0.0,0.0,0.0,0.0,0.0,0.0,-2.706592349247449
278,0.0,0.0,0.0,0.0,0.0,0.0,0.29455428980334286,0,0,0,0,0,0,0.29385560495451774,0.0,0.0,0.0,0.0,0.0,0.0,-2.889022767294
279,0.0,0.0,0.0,0.0,0.0,0.0,0.2939473800951955,0,0,0,0,0,0,0.2931085138926827,0.0,0.0,0.0,0.0,0.0,0.0,-0.5058409631734909
280,0.0,0.0,0.0,0.0,0.0,0.0,0.2935895352822504,0,0,0,0,0,0,0.29277039678666134,0.0,0.0,0.0,0.0,0.0,0.0,-0.03970966290785264
281,0.0,0.0,0.0,0.0,0.0,0.0,0.2930379719461609,0,0,0,0,0,0,0.2921674792976452,0.0,0.0,0.0,0.0,0.0,0.0,-0.3424359809402618
282,0.0,0.0,0.0,0.0,0.0,0.0,0.29251490204260033,0,0,0,0,0,0,0.29178653657557524,0.0,0.0,0.0,0.0,0.0,0.0,-0.24193886685200877
283,0.0,0.0,0.0,0.0,0.0,0.0,0.29213910276812705,0,0,0,0,0,0,0.29136281760492566,0.0,0.0,0.0,0.0,0.0,0.0,-0.3616369666617281
284,0.0,0.0,0.0,0.0,0.0,0.0,0.2917432686300714,0,0,0,0,0,0,0.290959560313816,0.0,0.0,0.0,0.0,0.0,0.0,-0.7136991216394021
285,0.0,0.0,0.0,0.0,0.0,0.0,0.2914274468949021,0,0,0,0,0,0,0.29050775562628206,0.0,0.0,0.0,0.0,0.0,0.0,-4.562749595695359
286,0.0,0.0,0.0,0.0,0.0,0.0,0.2912080117712028,0,0,0,0,0,0,0.2900689590450729,0.0,0.0,0.0,0.0,0.0,0.0,-0.26359242811186967
287,0.0,0.0,0.0,0.0,0.0,0.0,0.29088146532179415,0,0,0,0,0,0,0.28963840987618933,0.0,0.0,0.0,0.0,0.0,0.0,-0.38965301331059377
288,0.0,0.0,0.0,0.0,0.0,0.0,0.2902883980680109,0,0,0,0,0,0,0.28909893575400497,0.0,0.0,0.0,0.0,0.0,0.0,-4.735923008751078
289,0.0,0.0,0.0,0.0,0.0,0.0,0.2896271110632309,0,0,0,0,0,0,0.2886069081114159,0.0,0.0,0.0,0.0,0.0,0.0,1.2360323891828489
290,0.0,0.0,0.0,0.0,0.0,0.0,0.28922329043292727,0,0,0,0,0,0,0.28807689034020306,0.0,0.0,0.0,0.0,0.0,0.0,-0.3696967306540436
291,0.0,0.0,0.0,0.0,0.0,0.0,0.28922329043292727,0,0,0,0,0,0,0.2875449106586926,0.0,0.0,0.0,0.0,0.0,0.0,-0.3696967306540436
292,0.0,0.0,0.0,0.0,0.0,0.0,0.2886073139042731,0,0,0,0,0,0,0.28719535693481046,0.0,0.0,0.0,0.0,0.0,0.0,0.08094360949702639
293,0.0,0.0,0.0,0.0,0.0,0.0,0.28809534114124613,0,0,0,0,0,0,0.2867104990940182,0.0,0.0,0.0,0.0,0.0,0.0,-0.7136734134601961
294,0.0,0.0,0.0,0.0,0.0,0.0,0.2877615311077939,0,0,0,0,0,0,0.2862031023227709,0.0,0.0,0.0,0.0,0.0,0.0,-0.6751431359891217
295,0.0,0.0,0.0,0.0,0.0,0.0,0.28726930430129016,0,0,0,0,0,0,0.2858111879622979,0.0,0.0,0.0,0.0,0.0,0.0,-0.4728892314296526
296,0.0,0.0,0.0,0.0,0.0,0.0,0.28679564717756545,0,0,0,0,0,0,0.2853423145074556,0.0,0.0,0.0,0.0,0.0,0.0,-0.5427897150852697
297,0.0,0.0,0.0,0.0,0.0,0.0,0.2861535312844117,0,0,0,0,0,0,0.2847415887057639,0.0,0.0,0.0,0.0,0.0,0.0,-0.3255769070276309
298,0.0,0.0,0.0,0.0,0.0,0.0,0.28552468437011314,0,0,0,0,0,0,0.28428149499540767,0.0,0.0,0.0,0.0,0.0,0.0,-6.502422017707272
299,0.0,0.0,0.0,0.0,0.0,0.0,0.28504719131123846,0,0,0,0,0,0,0.2837984367226481,0.0,0.0,0.0,0.0,0.0,0.0,-0.14023825025140624
300,0.0,0.0,0.0,0.0,0.0,0.0,0.2844555036775329,0,0,0,0,0,0,0.28319710147826715,0.0,0.0,0.0,0.0,0.0,0.0,-0.24509813459501573
301,0.0,0.0,0.0,0.0,0.0,0.0,0.2844555036775329,0,0,0,0,0,0,0.2826124428070643,0.0,0.0,0.0,0.0,0.0,0.0,-0.24509813459501573
302,0.0,0.0,0.0,0.0,0.0,0.0,0.28395310304382004,0,0,0,0,0,0,0.2821261499515995,0.0,0.0,0.0,0.0,0.0,0.0,-0.5707889006244452
303,0.0,0.0,0.0,0.0,0.0,0.0,0.2831752727787853,0,0,0,0,0,0,0.2816158675669633,0.0,0.0,0.0,0.0,0.0,0.0,-0.14624083501277743
304,0.0,0.0,0.0,0.0,0.0,0.0,0.28274820909831355,0,0,0,0,0,0,0.28092329724621784,0.0,0.0,0.0,0.0,0.0,0.0,-0.11427558768748339
305,0.0,0.0,0.0,0.0,0.0,0.0,0.2819914258526488,0,0,0,0,0,0,0.2804042825311416,0.0,0.0,0.0,0.0,0.0,0.0,-7.026117856642162
306,0.0,0.0,0.0,0.0,0.0,0.0,0.2813160031828277,0,0,0,0,0,0,0.27990193331002855,0.0,0.0,0.0,0.0,0.0,0.0,-5.385341189489248
307,0.0,0.0,0.0,0.0,0.0,0.0,0.28071803665761497,0,0,0,0,0,0,0.27936302352052883,0.0,0.0,0.0,0.0,0.0,0.0,-0.25083041165058306
308,0.0,0.0,0.0,0.0,0.0,0.0,0.2801022287207875,0,0,0,0,0,0,0.2786113599930786,0.0,0.0,0.0,0.0,0.0,0.0,-0.1989890292609773
309,0.0,0.0,0.0,0.0,0.0,0.0,0.2801022287207875,0,0,0,0,0,0,0.2778981911849734,0.0,0.0,0.0,0.0,0.0,0.0,-0.1989890292609773
310,0.0,0.0,0.0,0.0,0.0,0.0,0.2801022287207875,0,0,0,0,0,0,0.2774862656714875,0.0,0.0,0.0,0.0,0.0,0.0,-0.1989890292609773
311,0.0,0.0,0.0,0.0,0.0,0.0,0.27949854656062634,0,0,0,0,0,0,0.2768793109746391,0.0,0.0,0.0,0.0,0.0,0.0,-0.6411762598968506
312,0.0,0.0,0.0,0.0,0.0,0.0,0.2789090110879293,0,0,0,0,0,0,0.27633062867060226,0.0,0.0,0.0,0.0,0.0,0.0,-9.0
313,0.0,0.0,0.0,0.0,0.0,0.0,0.2789090110879293,0,0,0,0,0,0,0.27580146902856717,0.0,0.0,0.0,0.0,0.0,0.0,-9.0
314,0.0,0.0,0.0,0.0,0.0,0.0,0.27762991000639126,0,0,0,0,0,0,0.27517228023917895,0.0,0.0,0.0,0.0,0.0,0.0,0.31576456238335976
315,0.0,0.0,0.0,0.0,0.0,0.0,0.27637317721517807,0,0,0,0,0,0,0.2745129143786225,0.0,0.0,0.0,0.0,0.0,0.0,-0.2549739453950259
316,0.0,0.0,0.0,0.0,0.0,0.0,0.27566471789810265,0,0,0,0,0,0,0.2738141167754769,0.0,0.0,0.0,0.0,0.0,0.0,-0.27680483586599
317,0.0,0.0,0.0,0.0,0.0,0.0,0.27505419523219476,0,0,0,0,0,0,0.2729845992406664,0.0,0.0,0.0,0.0,0.0,0.0,-0.6509856718792044
318,0.0,0.0,0.0,0.0,0.0,0.0,0.2742997028587615,0,0,0,0,0,0,0.2721805951531304,0.0,0.0,0.0,0.0,0.0,0.0,2.339114973180294
319,0.0,0.0,0.0,0.0,0.0,0.0,0.27351614836666194,0,0,0,0,0,0,0.271268582400166,0.0,0.0,0.0,0.0,0.0,0.0,-0.11098586487003449
320,0.0,0.0,0.0,0.0,0.0,0.0,0.27351614836666194,0,0,0,0,0,0,0.27043067890943057,0.0,0.0,0.0,0.0,0.0,0.0,-0.11098586487003449
321,0.0,0.0,0.0,0.0,0.0,0.0,0.27251351886997277,0,0,0,0,0,0,0.26973356659472136,0.0,0.0,0.0,0.0,0.0,0.0,-0.11676615939488375
322,0.0,0.0,0.0,0.0,0.0,0.0,0.27174610076717975,0,0,0,0,0,0,0.2690476426831642,0.0,0.0,0.0,0.0,0.0,0.0,-0.6467452208642892
323,0.0,0.0,0.0,0.0,0.0,0.0,0.27107976762831587,0,0,0,0,0,0,0.2679436198626721,0.0,0.0,0.0,0.0,0.0,0.0,-0.4640017349304997
324,0.0,0.0,0.0,0.0,0.0,0.0,0.26936484838303265,0,0,0,0,0,0,0.26707468052774735,0.0,0.0,0.0,0.0,0.0,0.0,0.011862190485465919
325,0.0,0.0,0.0,0.0,0.0,0.0,0.26869479608085456,0,0,0,0,0,0,0.2658301718306238,0.0,0.0,0.0,0.0,0.0,0.0,-0.557288461836114
326,0.0,0.0,0.0,0.0,0.0,0.0,0.26782864673683093,0,0,0,0,0,0,0.2646473042940341,0.0,0.0,0.0,0.0,0.0,0.0,-0.44366992521861487
327,0.0,0.0,0.0,0.0,0.0,0.0,0.2669301195868412,0,0,0,0,0,0,0.2637466454819363,0.0,0.0,0.0,0.0,0.0,0.0,-0.42225004486348366
328,0.0,0.0,0.0,0.0,0.0,0.0,0.2659623805427822,0,0,0,0,0,0,0.26281419867230066,0.0,0.0,0.0,0.0,0.0,0.0,-0.3605268710418165
329,0.0,0.0,0.0,0.0,0.0,0.0,0.2659623805427822,0,0,0,0,0,0,0.26196659098992603,0.0,0.0,0.0,0.0,0.0,0.0,-0.3605268710418165
330,0.0,0.0,0.0,0.0,0.0,0.0,0.26378529830447484,0,0,0,0,0,0,0.25989666011099816,0.0,0.0,0.0,0.0,0.0,0.0,-0.7936267201866226
331,0.0,0.0,0.0,0.0,0.0,0.0,0.2636964944879914,0,0,0,0,0,0,0.2593928537564337,0.0,0.0,0.0,0.0,0.0,0.0,-0.6227493180638849
332,0.0,0.0,0.0,0.0,0.0,0.0,0.26289995429359525,0,0,0,0,0,0,0.2580972754363014,0.0,0.0,0.0,0.0,0.0,0.0,-0.19636501188826472
333,0.0,0.0,0.0,0.0,0.0,0.0,0.26289995429359525,0,0,0,0,0,0,0.2573112240665627,0.0,0.0,0.0,0.0,0.0,0.0,-0.19636501188826472
334,0.0,0.0,0.0,0.0,0.0,0.0,0.2619091725951934,0,0,0,0,0,0,0.2567193690252672,0.0,0.0,0.0,0.0,0.0,0.0,-0.6341363614141157
335,0.0,0.0,0.0,0.0,0.0,0.0,0.2605181924970763,0,0,0,0,0,0,0.2560849167355786,0.0,0.0,0.0,0.0,0.0,0.0,0.2833963703526274
336,0.0,0.0,0.0,0.0,0.0,0.0,0.2605181924970763,0,0,0,0,0,0,0.2553377237634963,0.0,0.0,0.0,0.0,0.0,0.0,0.2833963703526274
337,0.0,0.0,0.0,0.0,0.0,0.0,0.2585935913605413,0,0,0,0,0,0,0.25397386689629065,0.0,0.0,0.0,0.0,0.0,0.0,-0.2624058525139878
338,0.0,0.0,0.0,0.0,0.0,0.0,0.2585935913605413,0,0,0,0,0,0,0.25320111381029475,0.0,0.0,0.0,0.0,0.0,0.0,-0.2624058525139878
339,0.0,0.0,0.0,0.0,0.0,0.0,0.25791970290468313,0,0,0,0,0,0,0.25224016156721546,0.0,0.0,0.0,0.0,0.0,0.0,-0.32167104334647817
340,0.0,0.0,0.0,0.0,0.0,0.0,0.25644758006606416,0,0,0,0,0,0,0.2510231924239041,0.0,0.0,0.0,0.0,0.0,0.0,0.44848600987905063
341,0.0,0.0,0.0,0.0,0.0,0.0,0.25499209197151274,0,0,0,0,0,0,0.24913189613797215,0.0,0.0,0.0,0.0,0.0,0.0,0.0032526581299324384
342,0.0,0.0,0.0,0.0,0.0,0.0,0.2539995920813025,0,0,0,0,0,0,0.2482205773850178,0.0,0.0,0.0,0.0,0.0,0.0,2.701214012862933
343,0.0,0.0,0.0,0.0,0.0,0.0,0.2539995920813025,0,0,0,0,0,0,0.24752435042017878,0.0,0.0,0.0,0.0,0.0,0.0,2.701214012862933
344,0.0,0.0,0.0,0.0,0.0,0.0,0.2529473509903566,0,0,0,0,0,0,0.2463496147848325,0.0,0.0,0.0,0.0,0.0,0.0,0.3943108247099797
345,0.0,0.0,0.0,0.0,0.0,0.0,0.250830267916041,0,0,0,0,0,0,0.24504777903141584,0.0,0.0,0.0,0.0,0.0,0.0,-0.1177663777398954
346,0.0,0.0,0.0,0.0,0.0,0.0,0.25005458469674124,0,0,0,0,0,0,0.24419480049609074,0.0,0.0,0.0,0.0,0.0,0.0,-0.34933206468207656
347,0.0,0.0,0.0,0.0,0.0,0.0,0.25005458469674124,0,0,0,0,0,0,0.2431912198563267,0.0,0.0,0.0,0.0,0.0,0.0,-0.34933206468207656
348,0.0,0.0,0.0,0.0,0.0,0.0,0.24905691200249613,0,0,0,0,0,0,0.24211869788340343,0.0,0.0,0.0,0.0,0.0,0.0,-0.6333585895091011
349,0.0,0.0,0.0,0.0,0.0,0.0,0.24803127390644253,0,0,0,0,0,0,0.24138433082518093,0.0,0.0,0.0,0.0,0.0,0.0,-0.06615468786252757
350,0.0,0.0,0.0,0.0,0.0,0.0,0.2469879494835343,0,0,0,0,0,0,0.23984364014982743,0.0,0.0,0.0,0.0,0.0,0.0,-0.27284211763883476
351,0.0,0.0,0.0,0.0,0.0,0.0,0.2452264560118813,0,0,0,0,0,0,0.2388128378686366,0.0,0.0,0.0,0.0,0.0,0.0,0.05897829001894186
352,0.0,0.0,0.0,0.0,0.0,0.0,0.24398475663671437,0,0,0,0,0,0,0.2377767985736302,0.0,0.0,0.0,0.0,0.0,0.0,0.3135247153857835
353,0.0,0.0,0.0,0.0,0.0,0.0,0.24290195279507465,0,0,0,0,0,0,0.23661639236303095,0.0,0.0,0.0,0.0,0.0,0.0,-0.6988956798899848
354,0.0,0.0,0.0,0.0,0.0,0.0,0.24139066736080306,0,0,0,0,0,0,0.23439993675927437,0.0,0.0,0.0,0.0,0.0,0.0,-0.31144574839050376
355,0.0,0.0,0.0,0.0,0.0,0.0,0.24067553758265703,0,0,0,0,0,0,0.23361011559513734,0.0,0.0,0.0,0.0,0.0,0.0,2.59616456896592
356,0.0,0.0,0.0,0.0,0.0,0.0,0.24067553758265703,0,0,0,0,0,0,0.23276406671205885,0.0,0.0,0.0,0.0,0.0,0.0,2.59616456896592
357,0.0,0.0,0.0,0.0,0.0,0.0,0.2396134692493428,0,0,0,0,0,0,0.2316608483382715,0.0,0.0,0.0,0.0,0.0,0.0,-0.09548100456305816
358,0.0,0.0,0.0,0.0,0.0,0.0,0.23779598750512054,0,0,0,0,0,0,0.23082843559078653,0.0,0.0,0.0,0.0,0.0,0.0,3.502619510073547
359,0.0,0.0,0.0,0.0,0.0,0.0,0.2366329382605663,0,0,0,0,0,0,0.22898303711535425,0.0,0.0,0.0,0.0,0.0,0.0,-0.07662564993901336
360,0.0,0.0,0.0,0.0,0.0,0.0,0.2351531398029758,0,0,0,0,0,0,0.2271659033737941,0.0,0.0,0.0,0.0,0.0,0.0,-0.1656184927720712
361,0.0,0.0,0.0,0.0,0.0,0.0,0.234091599274306,0,0,0,0,0,0,0.22592777095299832,0.0,0.0,0.0,0.0,0.0,0.0,-0.32181542852526257
362,0.0,0.0,0.0,0.0,0.0,0.0,0.23290026405861042,0,0,0,0,0,0,0.2242301260016267,0.0,0.0,0.0,0.0,0.0,0.0,-0.6187431415216827
363,0.0,0.0,0.0,0.0,0.0,0.0,0.23185906165932657,0,0,0,0,0,0,0.22288783403466383,0.0,0.0,0.0,0.0,0.0,0.0,0.1962149739152783
364,0.0,0.0,0.0,0.0,0.0,0.0,0.2306520818975013,0,0,0,0,0,0,0.22128695210395705,0.0,0.0,0.0,0.0,0.0,0.0,3.1577040846739273
365,0.0,0.0,0.0,0.0,0.0,0.0,0.22896800572200338,0,0,0,0,0,0,0.21968065094364067,0.0,0.0,0.0,0.0,0.0,0.0,-0.010041687981317847
366,0.0,0.0,0.0,0.0,0.0,0.0,0.22896800572200338,0,0,0,0,0,0,0.21855958472274695,0.0,0.0,0.0,0.0,0.0,0.0,-0.010041687981317847
367,0.0,0.0,0.0,0.0,0.0,0.0,0.22792087857938892,0,0,0,0,0,0,0.21729663865360402,0.0,0.0,0.0,0.0,0.0,0.0,-0.3788077399599541
368,0.0,0.0,0.0,0.0,0.0,0.0,0.22681509111021292,0,0,0,0,0,0,0.2162548465136526,0.0,0.0,0.0,0.0,0.0,0.0,-0.5237788781917072
369,0.0,0.0,0.0,0.0,0.0,0.0,0.22424516386649618,0,0,0,0,0,0,0.2145797377314998,0.0,0.0,0.0,0.0,0.0,0.0,-0.5301784335354979
370,0.0,0.0,0.0,0.0,0.0,0.0,0.22243871452406694,0,0,0,0,0,0,0.21177072809418176,0.0,0.0,0.0,0.0,0.0,0.0,-0.3148082807116916
371,0.0,0.0,0.0,0.0,0.0,0.0,0.22104004968956747,0,0,0,0,0,0,0.2093396464625432,0.0,0.0,0.0,0.0,0.0,0.0,-0.2108293083982838
372,0.0,0.0,0.0,0.0,0.0,0.0,0.22042327424379504,0,0,0,0,0,0,0.20762005999402083,0.0,0.0,0.0,0.0,0.0,0.0,-0.7622941240105185
373,0.0,0.0,0.0,0.0,0.0,0.0,0.21873312248342014,0,0,0,0,0,0,0.206442711168969,0.0,0.0,0.0,0.0,0.0,0.0,0.3125959209995123
374,0.0,0.0,0.0,0.0,0.0,0.0,0.21717041388228164,0,0,0,0,0,0,0.20491004946248548,0.0,0.0,0.0,0.0,0.0,0.0,-0.29065586181743697
375,0.0,0.0,0.0,0.0,0.0,0.0,0.2159144883960069,0,0,0,0,0,0,0.2025313584658635,0.0,0.0,0.0,0.0,0.0,0.0,-0.28066776530122
376,0.0,0.0,0.0,0.0,0.0,0.0,0.2159144883960069,0,0,0,0,0,0,0.20131589658245436,0.0,0.0,0.0,0.0,0.0,0.0,-0.28066776530122
377,0.0,0.0,0.0,0.0,0.0,0.0,0.2151723022094254,0,0,0,0,0,0,0.20012466018826552,0.0,0.0,0.0,0.0,0.0,0.0,-0.7402994814855922
378,0.0,0.0,0.0,0.0,0.0,0.0,0.2126015454108101,0,0,0,0,0,0,0.19784991767948745,0.0,0.0,0.0,0.0,0.0,0.0,0.5951349641452551
379,0.0,0.0,0.0,0.0,0.0,0.0,0.21082360438961079,0,0,0,0,0,0,0.19580054146989287,0.0,0.0,0.0,0.0,0.0,0.0,2.5384218590211938
380,0.0,0.0,0.0,0.0,0.0,0.0,0.2099966711996606,0,0,0,0,0,0,0.19452850224569468,0.0,0.0,0.0,0.0,0.0,0.0,-0.18272282265069745
381,0.0,0.0,0.0,0.0,0.0,0.0,0.20811844911845423,0,0,0,0,0,0,0.19284210135405677,0.0,0.0,0.0,0.0,0.0,0.0,0.046826255465333984
382,0.0,0.0,0.0,0.0,0.0,0.0,0.20811844911845423,0,0,0,0,0,0,0.19186615240512808,0.0,0.0,0.0,0.0,0.0,0.0,0.046826255465333984
383,0.0,0.0,0.0,0.0,0.0,0.0,0.20631581456172743,0,0,0,0,0,0,0.19051075977955392,0.0,0.0,0.0,0.0,0.0,0.0,-0.16587322902153243
384,0.0,0.0,0.0,0.0,0.0,0.0,0.20631581456172743,0,0,0,0,0,0,0.18903452197359874,0.0,0.0,0.0,0.0,0.0,0.0,-0.16587322902153243
385,0.0,0.0,0.0,0.0,0.0,0.0,0.20453787248497246,0,0,0,0,0,0,0.18735791343844463,0.0,0.0,0.0,0.0,0.0,0.0,0.2433429812340998
386,0.0,0.0,0.0,0.0,0.0,0.0,0.20091706792942343,0,0,0,0,0,0,0.18524367188527008,0.0,0.0,0.0,0.0,0.0,0.0,-0.2253552592112178
387,0.0,0.0,0.0,0.0,0.0,0.0,0.19874625034029325,0,0,0,0,0,0,0.18202739258816908,0.0,0.0,0.0,0.0,0.0,0.0,-0.6328591709911363
388,0.0,0.0,0.0,0.0,0.0,0.0,0.19757701457126498,0,0,0,0,0,0,0.17958479652574397,0.0,0.0,0.0,0.0,0.0,0.0,-0.44578433161821646
389,0.0,0.0,0.0,0.0,0.0,0.0,0.19440084171307248,0,0,0,0,0,0,0.17496505571678542,0.0,0.0,0.0,0.0,0.0,0.0,-0.7568339602353134
390,0.0,0.0,0.0,0.0,0.0,0.0,0.19133073587030935,0,0,0,0,0,0,0.17136457804220864,0.0,0.0,0.0,0.0,0.0,0.0,-0.7927316837620557
391,0.0,0.0,0.0,0.0,0.0,0.0,0.19133073587030935,0,0,0,0,0,0,0.16908906628705353,0.0,0.0,0.0,0.0,0.0,0.0,-0.7927316837620557
392,0.0,0.0,0.0,0.0,0.0,0.0,0.18812474130015033,0,0,0,0,0,0,0.16729849040249853,0.0,0.0,0.0,0.0,0.0,0.0,0.2506202846483139
393,0.0,0.0,0.0,0.0,0.0,0.0,0.18659273960160938,0,0,0,0,0,0,0.16559890213549347,0.0,0.0,0.0,0.0,0.0,0.0,-0.47717113827722824
394,0.0,0.0,0.0,0.0,0.0,0.0,0.18490840085009985,0,0,0,0,0,0,0.1639109229491413,0.0,0.0,0.0,0.0,0.0,0.0,-0.27612058124490757
395,0.0,0.0,0.0,0.0,0.0,0.0,0.18315545364928276,0,0,0,0,0,0,0.16164972039468364,0.0,0.0,0.0,0.0,0.0,0.0,-0.6765676133805656
396,0.0,0.0,0.0,0.0,0.0,0.0,0.1814819092977622,0,0,0,0,0,0,0.16027363675024048,0.0,0.0,0.0,0.0,0.0,0.0,2.6843584706013504
397,0.0,0.0,0.0,0.0,0.0,0.0,0.18031075369089855,0,0,0,0,0,0,0.15875139907421162,0.0,0.0,0.0,0.0,0.0,0.0,-0.24757360501590964
398,0.0,0.0,0.0,0.0,0.0,0.0,0.17862826415283628,0,0,0,0,0,0,0.15748267587878503,0.0,0.0,0.0,0.0,0.0,0.0,-0.13214546473222352
399,0.0,0.0,0.0,0.0,0.0,0.0,0.17862826415283628,0,0,0,0,0,0,0.15613086134296425,0.0,0.0,0.0,0.0,0.0,0.0,-0.13214546473222352
400,0.0,0.0,0.0,0.0,0.0,0.0,0.17661020688887952,0,0,0,0,0,0,0.1548298086390619,0.0,0.0,0.0,0.0,0.0,0.0,0.37427800226608704
401,0.0,0.0,0.0,0.0,0.0,0.0,0.17463048188822583,0,0,0,0,0,0,0.1537345497868237,0.0,0.0,0.0,0.0,0.0,0.0,0.24383801523468862
402,0.0,0.0,0.0,0.0,0.0,0.0,0.17248803985916972,0,0,0,0,0,0,0.1525937080795697,0.0,0.0,0.0,0.0,0.0,0.0,-9.0
403,0.0,0.0,0.0,0.0,0.0,0.0,0.17248803985916972,0,0,0,0,0,0,0.15149391410026505,0.0,0.0,0.0,0.0,0.0,0.0,-9.0
404,0.0,0.0,0.0,0.0,0.0,0.0,0.17248803985916972,0,0,0,0,0,0,0.15028613162226911,0.0,0.0,0.0,0.0,0.0,0.0,-9.0
405,0.0,0.0,0.0,0.0,0.0,0.0,0.16948413921875982,0,0,0,0,0,0,0.14887376914936412,0.0,0.0,0.0,0.0,0.0,0.0,0.8224466727749647
406,0.0,0.0,0.0,0.0,0.0,0.0,0.16582253762212495,0,0,0,0,0,0,0.14589749398463586,0.0,0.0,0.0,0.0,0.0,0.0,-0.3653287022595959
407,0.0,0.0,0.0,0.0,0.0,0.0,0.16455845754514975,0,0,0,0,0,0,0.1446517704885861,0.0,0.0,0.0,0.0,0.0,0.0,-9.0
408,0.0,0.0,0.0,0.0,0.0,0.0,0.16455845754514975,0,0,0,0,0,0,0.14322866373996704,0.0,0.0,0.0,0.0,0.0,0.0,-9.0
409,0.0,0.0,0.0,0.0,0.0,0.0,0.1628197908788529,0,0,0,0,0,0,0.14186661339671341,0.0,0.0,0.0,0.0,0.0,0.0,0.3791319841591653
410,0.0,0.0,0.0,0.0,0.0,0.0,0.16031646532067434,0,0,0,0,0,0,0.14044395176031885,0.0,0.0,0.0,0.0,0.0,0.0,3.4288789669188944
411,0.0,0.0,0.0,0.0,0.0,0.0,0.16031646532067434,0,0,0,0,0,0,0.139033164867809,0.0,0.0,0.0,0.0,0.0,0.0,3.4288789669188944
412,0.0,0.0,0.0,0.0,0.0,0.0,0.15905621344724885,0,0,0,0,0,0,0.1376205681786916,0.0,0.0,0.0,0.0,0.0,0.0,-0.20002549093850147
413,0.0,0.0,0.0,0.0,0.0,0.0,0.15710868160991787,0,0,0,0,0,0,0.13631174282611522,0.0,0.0,0.0,0.0,0.0,0.0,-9.0
414,0.0,0.0,0.0,0.0,0.0,0.0,0.15524505565970337,0,0,0,0,0,0,0.1350116666966925,0.0,0.0,0.0,0.0,0.0,0.0,0.4168204336843091
415,0.0,0.0,0.0,0.0,0.0,0.0,0.15394595077112783,0,0,0,0,0,0,0.13334896033942317,0.0,0.0,0.0,0.0,0.0,0.0,-0.3968113138292344
416,0.0,0.0,0.0,0.0,0.0,0.0,0.15183935345678634,0,0,0,0,0,0,0.1320936116153437,0.0,0.0,0.0,0.0,0.0,0.0,3.263276343602511
417,0.0,0.0,0.0,0.0,0.0,0.0,0.15183935345678634,0,0,0,0,0,0,0.13110289440767559,0.0,0.0,0.0,0.0,0.0,0.0,3.263276343602511
418,0.0,0.0,0.0,0.0,0.0,0.0,0.15013471919365706,0,0,0,0,0,0,0.12978005507277096,0.0,0.0,0.0,0.0,0.0,0.0,-0.036597849351141756
419,0.0,0.0,0.0,0.0,0.0,0.0,0.14821752204616523,0,0,0,0,0,0,0.12846989134774386,0.0,0.0,0.0,0.0,0.0,0.0,-0.1008871269664659
420,0.0,0.0,0.0,0.0,0.0,0.0,0.1465234610563595,0,0,0,0,0,0,0.1272633864915102,0.0,0.0,0.0,0.0,0.0,0.0,0.08052583064513824
421,0.0,0.0,0.0,0.0,0.0,0.0,0.1465234610563595,0,0,0,0,0,0,0.12619169425924257,0.0,0.0,0.0,0.0,0.0,0.0,0.08052583064513824
422,0.0,0.0,0.0,0.0,0.0,0.0,0.14424416277882735,0,0,0,0,0,0,0.1250544396294654,0.0,0.0,0.0,0.0,0.0,0.0,-0.032665311988689626
423,0.0,0.0,0.0,0.0,0.0,0.0,0.1424447810688747,0,0,0,0,0,0,0.12357776378266153,0.0,0.0,0.0,0.0,0.0,0.0,-0.22038921494940936
424,0.0,0.0,0.0,0.0,0.0,0.0,0.1424447810688747,0,0,0,0,0,0,0.12236158709787448,0.0,0.0,0.0,0.0,0.0,0.0,-0.22038921494940936
425,0.0,0.0,0.0,0.0,0.0,0.0,0.14028914248704183,0,0,0,0,0,0,0.12126072780937719,0.0,0.0,0.0,0.0,0.0,0.0,2.778080092800141
426,0.0,0.0,0.0,0.0,0.0,0.0,0.13784768881001952,0,0,0,0,0,0,0.12011678741902304,0.0,0.0,0.0,0.0,0.0,0.0,0.9548246879635633
427,0.0,0.0,0.0,0.0,0.0,0.0,0.13784768881001952,0,0,0,0,0,0,0.11867960192657967,0.0,0.0,0.0,0.0,0.0,0.0,0.9548246879635633
428,0.0,0.0,0.0,0.0,0.0,0.0,0.13784768881001952,0,0,0,0,0,0,0.11740791753250956,0.0,0.0,0.0,0.0,0.0,0.0,0.9548246879635633
429,0.0,0.0,0.0,0.0,0.0,0.0,0.13518523844179775,0,0,0,0,0,0,0.1162323389528488,0.0,0.0,0.0,0.0,0.0,0.0,0.1758836968056511
430,0.0,0.0,0.0,0.0,0.0,0.0,0.13518523844179775,0,0,0,0,0,0,0.11516553254731192,0.0,0.0,0.0,0.0,0.0,0.0,0.1758836968056511
431,0.0,0.0,0.0,0.0,0.0,0.0,0.1319779183613239,0,0,0,0,0,0,0.11271584981078672,0.0,0.0,0.0,0.0,0.0,0.0,4.31272907255529
432,0.0,0.0,0.0,0.0,0.0,0.0,0.12990737968839028,0,0,0,0,0,0,0.11149628422036083,0.0,0.0,0.0,0.0,0.0,0.0,0.6145293645959666
433,0.0,0.0,0.0,0.0,0.0,0.0,0.12990737968839028,0,0,0,0,0,0,0.1101832635674108,0.0,0.0,0.0,0.0,0.0,0.0,0.6145293645959666
434,0.0,0.0,0.0,0.0,0.0,0.0,0.12816935580113586,0,0,0,0,0,0,0.1087420542997933,0.0,0.0,0.0,0.0,0.0,0.0,-0.2945212418311474
435,0.0,0.0,0.0,0.0,0.0,0.0,0.12658859018014113,0,0,0,0,0,0,0.10731832777492507,0.0,0.0,0.0,0.0,0.0,0.0,-0.5275178584850273
436,0.0,0.0,0.0,0.0,0.0,0.0,0.1245365271916441,0,0,0,0,0,0,0.10543160190936768,0.0,0.0,0.0,0.0,0.0,0.0,-9.0
437,0.0,0.0,0.0,0.0,0.0,0.0,0.12252848388650506,0,0,0,0,0,0,0.10428310092572358,0.0,0.0,0.0,0.0,0.0,0.0,3.409746298958728
438,0.0,0.0,0.0,0.0,0.0,0.0,0.12252848388650506,0,0,0,0,0,0,0.10315713811869302,0.0,0.0,0.0,0.0,0.0,0.0,3.409746298958728
439,0.0,0.0,0.0,0.0,0.0,0.0,0.12252848388650506,0,0,0,0,0,0,0.10173193220925118,0.0,0.0,0.0,0.0,0.0,0.0,3.409746298958728
440,0.0,0.0,0.0,0.0,0.0,0.0,0.12002035027258096,0,0,0,0,0,0,0.10057526703449354,0.0,0.0,0.0,0.0,0.0,0.0,-9.0
441,0.0,0.0,0.0,0.0,0.0,0.0,0.12002035027258096,0,0,0,0,0,0,0.09948314308849,0.0,0.0,0.0,0.0,0.0,0.0,-9.0
442,0.0,0.0,0.0,0.0,0.0,0.0,0.11472123659150668,0,0,0,0,0,0,0.09533176013416553,0.0,0.0,0.0,0.0,0.0,0.0,-0.7336222798274866
443,0.0,0.0,0.0,0.0,0.0,0.0,0.11231669416481083,0,0,0,0,0,0,0.09125728670332842,0.0,0.0,0.0,0.0,0.0,0.0,-0.46073468604685985
444,0.0,0.0,0.0,0.0,0.0,0.0,0.11128184501859906,0,0,0,0,0,0,0.08962219020480919,0.0,0.0,0.0,0.0,0.0,0.0,-9.0
445,0.0,0.0,0.0,0.0,0.0,0.0,0.10943958128531683,0,0,0,0,0,0,0.08687323904963364,0.0,0.0,0.0,0.0,0.0,0.0,-0.13903149109839916
446,0.0,0.0,0.0,0.0,0.0,0.0,0.10943958128531683,0,0,0,0,0,0,0.08573498618437277,0.0,0.0,0.0,0.0,0.0,0.0,-0.13903149109839916
447,0.0,0.0,0.0,0.0,0.0,0.0,0.10816554775211529,0,0,0,0,0,0,0.08407514119589084,0.0,0.0,0.0,0.0,0.0,0.0,-0.7624299491345166
448,0.0,0.0,0.0,0.0,0.0,0.0,0.10626402531388734,0,0,0,0,0,0,0.08154642963989789,0.0,0.0,0.0,0.0,0.0,0.0,2.976080903658296
449,0.0,0.0,0.0,0.0,0.0,0.0,0.10469571526211752,0,0,0,0,0,0,0.08003102886570286,0.0,0.0,0.0,0.0,0.0,0.0,-0.17838735896349156
450,0.0,0.0,0.0,0.0,0.0,0.0,0.10309464959549253,0,0,0,0,0,0,0.07863402197653786,0.0,0.0,0.0,0.0,0.0,0.0,-0.11474174396394796
451,0.0,0.0,0.0,0.0,0.0,0.0,0.0995077909536004,0,0,0,0,0,0,0.07609865037026531,0.0,0.0,0.0,0.0,0.0,0.0,-0.21219227524628687
452,0.0,0.0,0.0,0.0,0.0,0.0,0.09791468209464149,0,0,0,0,0,0,0.07378912646457318,0.0,0.0,0.0,0.0,0.0,0.0,0.006592207966229786
453,0.0,0.0,0.0,0.0,0.0,0.0,0.09608675919137077,0,0,0,0,0,0,0.07094357163757885,0.0,0.0,0.0,0.0,0.0,0.0,3.043218630383923
454,0.0,0.0,0.0,0.0,0.0,0.0,0.09478763976349036,0,0,0,0,0,0,0.0693529153258719,0.0,0.0,0.0,0.0,0.0,0.0,-0.2558563160524194
455,0.0,0.0,0.0,0.0,0.0,0.0,0.09254075063217293,0,0,0,0,0,0,0.06780639310543339,0.0,0.0,0.0,0.0,0.0,0.0,-0.015988308466824787
456,0.0,0.0,0.0,0.0,0.0,0.0,0.0903827472276415,0,0,0,0,0,0,0.06636738327160605,0.0,0.0,0.0,0.0,0.0,0.0,-0.7045574452114811
457,0.0,0.0,0.0,0.0,0.0,0.0,0.0903827472276415,0,0,0,0,0,0,0.06444604369760222,0.0,0.0,0.0,0.0,0.0,0.0,-0.7045574452114811
458,0.0,0.0,0.0,0.0,0.0,0.0,0.08818941761439802,0,0,0,0,0,0,0.06306299307254984,0.0,0.0,0.0,0.0,0.0,0.0,-9.0
459,0.0,0.0,0.0,0.0,0.0,0.0,0.0858319724375125,0,0,0,0,0,0,0.06147513503890747,0.0,0.0,0.0,0.0,0.0,0.0,-0.09757022947370031
460,0.0,0.0,0.0,0.0,0.0,0.0,0.08398025300475886,0,0,0,0,0,0,0.060046660716054585,0.0,0.0,0.0,0.0,0.0,0.0,0.2624650777660922
461,0.0,0.0,0.0,0.0,0.0,0.0,0.08398025300475886,0,0,0,0,0,0,0.058600474517698405,0.0,0.0,0.0,0.0,0.0,0.0,0.2624650777660922
462,0.0,0.0,0.0,0.0,0.0,0.0,0.08109114193087308,0,0,0,0,0,0,0.05700372132597834,0.0,0.0,0.0,0.0,0.0,0.0,-0.6562577907209978
463,0.0,0.0,0.0,0.0,0.0,0.0,0.08109114193087308,0,0,0,0,0,0,0.05560759612205334,0.0,0.0,0.0,0.0,0.0,0.0,-0.6562577907209978
464,0.0,0.0,0.0,0.0,0.0,0.0,0.07819800522019982,0,0,0,0,0,0,0.053996491243664325,0.0,0.0,0.0,0.0,0.0,0.0,0.8149822646604543
465,0.0,0.0,0.0,0.0,0.0,0.0,0.07614979908889552,0,0,0,0,0,0,0.052217318546381626,0.0,0.0,0.0,0.0,0.0,0.0,-0.44835411209529835
466,0.0,0.0,0.0,0.0,0.0,0.0,0.07272555958526183,0,0,0,0,0,0,0.050349671643706004,0.0,0.0,0.0,0.0,0.0,0.0,3.223328574414696
467,0.0,0.0,0.0,0.0,0.0,0.0,0.07272555958526183,0,0,0,0,0,0,0.04920787892410731,0.0,0.0,0.0,0.0,0.0,0.0,3.223328574414696
468,0.0,0.0,0.0,0.0,0.0,0.0,0.07089807229551504,0,0,0,0,0,0,0.04785568240797672,0.0,0.0,0.0,0.0,0.0,0.0,-0.18387160682668022
469,0.0,0.0,0.0,0.0,0.0,0.0,0.06902667770952142,0,0,0,0,0,0,0.04692468411728746,0.0,0.0,0.0,0.0,0.0,0.0,-0.22195599669852997
470,0.0,0.0,0.0,0.0,0.0,0.0,0.06662452035912914,0,0,0,0,0,0,0.045181168489523325,0.0,0.0,0.0,0.0,0.0,0.0,0.2286990747504499
471,0.0,0.0,0.0,0.0,0.0,0.0,0.0646188880116707,0,0,0,0,0,0,0.043663464774382744,0.0,0.0,0.0,0.0,0.0,0.0,-0.749312668105938
472,0.0,0.0,0.0,0.0,0.0,0.0,0.0646188880116707,0,0,0,0,0,0,0.04240958701377107,0.0,0.0,0.0,0.0,0.0,0.0,-0.749312668105938
473,0.0,0.0,0.0,0.0,0.0,0.0,0.06300618633012611,0,0,0,0,0,0,0.040909211040546,0.0,0.0,0.0,0.0,0.0,0.0,-0.44880529829934673
474,0.0,0.0,0.0,0.0,0.0,0.0,0.06300618633012611,0,0,0,0,0,0,0.03920402177390945,0.0,0.0,0.0,0.0,0.0,0.0,-0.44880529829934673
475,0.0,0.0,0.0,0.0,0.0,0.0,0.06056370979916892,0,0,0,0,0,0,0.03786680001859662,0.0,0.0,0.0,0.0,0.0,0.0,0.24723183227555445
476,0.0,0.0,0.0,0.0,0.0,0.0,0.05817668670966114,0,0,0,0,0,0,0.03670655699393121,0.0,0.0,0.0,0.0,0.0,0.0,-9.0
477,0.0,0.0,0.0,0.0,0.0,0.0,0.05817668670966114,0,0,0,0,0,0,0.035394140040683184,0.0,0.0,0.0,0.0,0.0,0.0,-9.0
478,0.0,0.0,0.0,0.0,0.0,0.0,0.055040703328588236,0,0,0,0,0,0,0.033362995593188796,0.0,0.0,0.0,0.0,0.0,0.0,4.264596044942614
479,0.0,0.0,0.0,0.0,0.0,0.0,0.055040703328588236,0,0,0,0,0,0,0.03217801333026232,0.0,0.0,0.0,0.0,0.0,0.0,4.264596044942614
480,0.0,0.0,0.0,0.0,0.0,0.0,0.053126232909804116,0,0,0,0,0,0,0.03099729358676005,0.0,0.0,0.0,0.0,0.0,0.0,-0.17438988697721447
481,0.0,0.0,0.0,0.0,0.0,0.0,0.053126232909804116,0,0,0,0,0,0,0.02987405362481952,0.0,0.0,0.0,0.0,0.0,0.0,-0.17438988697721447
482,0.0,0.0,0.0,0.0,0.0,0.0,0.053126232909804116,0,0,0,0,0,0,0.02883205698720512,0.0,0.0,0.0,0.0,0.0,0.0,-0.17438988697721447
483,0.0,0.0,0.0,0.0,0.0,0.0,0.05062127863301491,0,0,0,0,0,0,0.02742847751908701,0.0,0.0,0.0,0.0,0.0,0.0,-0.18558141728690652
484,0.0,0.0,0.0,0.0,0.0,0.0,0.05062127863301491,0,0,0,0,0,0,0.02636242108161917,0.0,0.0,0.0,0.0,0.0,0.0,-0.18558141728690652
485,0.0,0.0,0.0,0.0,0.0,0.0,0.0491387776331198,0,0,0,0,0,0,0.025206742139778308,0.0,0.0,0.0,0.0,0.0,0.0,-0.514176544660794
486,0.0,0.0,0.0,0.0,0.0,0.0,0.04770690474174444,0,0,0,0,0,0,0.02403510896304856,0.0,0.0,0.0,0.0,0.0,0.0,-0.06870099656537415
487,0.0,0.0,0.0,0.0,0.0,0.0,0.04627911132610052,0,0,0,0,0,0,0.022474830971335052,0.0,0.0,0.0,0.0,0.0,0.0,-0.06578343697564829
488,0.0,0.0,0.0,0.0,0.0,0.0,0.04627911132610052,0,0,0,0,0,0,0.020548298279495524,0.0,0.0,0.0,0.0,0.0,0.0,-0.06578343697564829
489,0.0,0.0,0.0,0.0,0.0,0.0,0.04329922153714172,0,0,0,0,0,0,0.018032610812200343,0.0,0.0,0.0,0.0,0.0,0.0,-9.0
490,0.0,0.0,0.0,0.0,0.0,0.0,0.04134922695963361,0,0,0,0,0,0,0.016157171468363405,0.0,0.0,0.0,0.0,0.0,0.0,-0.024765279779554415
491,0.0,0.0,0.0,0.0,0.0,0.0,0.03905196047458226,0,0,0,0,0,0,0.013623289974166583,0.0,0.0,0.0,0.0,0.0,0.0,3.1513021769334553
492,0.0,0.0,0.0,0.0,0.0,0.0,0.035784340652551094,0,0,0,0,0,0,0.011074467789022753,0.0,0.0,0.0,0.0,0.0,0.0,-0.20647642987449055
493,0.0,0.0,0.0,0.0,0.0,0.0,0.035784340652551094,0,0,0,0,0,0,0.009083578474840202,0.0,0.0,0.0,0.0,0.0,0.0,-0.20647642987449055
494,0.0,0.0,0.0,0.0,0.0,0.0,0.029963322360751832,0,0,0,0,0,0,0.002787618014604397,0.0,0.0,0.0,0.0,0.0,0.0,-0.6875566215473687
495,0.0,0.0,0.0,0.0,0.0,0.0,0.02848346574546845,0,0,0,0,0,0,-0.0006880646934641593,0.0,0.0,0.0,0.0,0.0,0.0,2.3691071524199434
496,0.0,0.0,0.0,0.0,0.0,0.0,0.027078270030271412,0,0,0,0,0,0,-0.0021158498460179223,0.0,0.0,0.0,0.0,0.0,0.0,-0.2703542711679312
497,0.0,0.0,0.0,0.0,0.0,0.0,0.02509158427239022,0,0,0,0,0,0,-0.003908553530584816,0.0,0.0,0.0,0.0,0.0,0.0,-0.18901783525757773
498,0.0,0.0,0.0,0.0,0.0,0.0,0.02269058727182305,0,0,0,0,0,0,-0.0064092362025809846,0.0,0.0,0.0,0.0,0.0,0.0,-9.0
499,0.0,0.0,0.0,0.0,0.0,0.0,0.02063484721273312,0,0,0,0,0,0,-0.008154760100917974,0.0,0.0,0.0,0.0,0.0,0.0,-9.0
500,0.0,0.0,0.0,0.0,0.0,0.0,0.018974293873499803,0,0,0,0,0,0,-0.009499901430695847,0.0,0.0,0.0,0.0,0.0,0.0,-0.20968198446534952
501,0.0,0.0,0.0,0.0,0.0,0.0,0.017098973192656075,0,0,0,0,0,0,-0.010984518572641896,0.0,0.0,0.0,0.0,0.0,0.0,-0.0699757697658695
502,0.0,0.0,0.0,0.0,0.0,0.0,0.01469485388329872,0,0,0,0,0,0,-0.012636684793407023,0.0,0.0,0.0,0.0,0.0,0.0,-9.0
503,0.0,0.0,0.0,0.0,0.0,0.0,0.012441564863742371,0,0,0,0,0,0,-0.015316668473067552,0.0,0.0,0.0,0.0,0.0,0.0,3.3030330372615415
504,0.0,0.0,0.0,0.0,0.0,0.0,0.012441564863742371,0,0,0,0,0,0,-0.01679107867530766,0.0,0.0,0.0,0.0,0.0,0.0,3.3030330372615415
505,0.0,0.0,0.0,0.0,0.0,0.0,0.009674726070539208,0,0,0,0,0,0,-0.01818518590290181,0.0,0.0,0.0,0.0,0.0,0.0,3.9315560911493743
506,0.0,0.0,0.0,0.0,0.0,0.0,0.009674726070539208,0,0,0,0,0,0,-0.020084038718462198,0.0,0.0,0.0,0.0,0.0,0.0,3.9315560911493743
507,0.0,0.0,0.0,0.0,0.0,0.0,0.007439193460530902,0,0,0,0,0,0,-0.02187222236467587,0.0,0.0,0.0,0.0,0.0,0.0,-0.2080709011573587
508,0.0,0.0,0.0,0.0,0.0,0.0,0.004860180519903778,0,0,0,0,0,0,-0.023416813268010532,0.0,0.0,0.0,0.0,0.0,0.0,-9.0
509,0.0,0.0,0.0,0.0,0.0,0.0,0.002659094537930784,0,0,0,0,0,0,-0.02483014396334284,0.0,0.0,0.0,0.0,0.0,0.0,0.371420581288832
510,0.0,0.0,0.0,0.0,0.0,0.0,0.002659094537930784,0,0,0,0,0,0,-0.02659472643978596,0.0,0.0,0.0,0.0,0.0,0.0,0.371420581288832
511,0.0,0.0,0.0,0.0,0.0,0.0,-9.310619791591535e-06,0,0,0,0,0,0,-0.027979441339822504,0.0,0.0,0.0,0.0,0.0,0.0,0.4556321245874162
512,0.0,0.0,0.0,0.0,0.0,0.0,-9.310619791591535e-06,0,0,0,0,0,0,-0.02913123702381331,0.0,0.0,0.0,0.0,0.0,0.0,0.4556321245874162
513,0.0,0.0,0.0,0.0,0.0,0.0,-9.310619791591535e-06,0,0,0,0,0,0,-0.030419271750680592,0.0,0.0,0.0,0.0,0.0,0.0,0.4556321245874162
514,0.0,0.0,0.0,0.0,0.0,0.0,-0.0035557227514484424,0,0,0,0,0,0,-0.031896436979844046,0.0,0.0,0.0,0.0,0.0,0.0,1.1137637843939039
515,0.0,0.0,0.0,0.0,0.0,0.0,-0.0035557227514484424,0,0,0,0,0,0,-0.033117278430517864,0.0,0.0,0.0,0.0,0.0,0.0,1.1137637843939039
516,0.0,0.0,0.0,0.0,0.0,0.0,-0.006931907856820629,0,0,0,0,0,0,-0.03488649629978525,0.0,0.0,0.0,0.0,0.0,0.0,4.033239414894237
517,0.0,0.0,0.0,0.0,0.0,0.0,-0.009341674179085047,0,0,0,0,0,0,-0.036940089559519544,0.0,0.0,0.0,0.0,0.0,0.0,-0.14263120321788733
518,0.0,0.0,0.0,0.0,0.0,0.0,-0.011295517364620977,0,0,0,0,0,0,-0.038723108770280144,0.0,0.0,0.0,0.0,0.0,0.0,-0.3497172314098124
519,0.0,0.0,0.0,0.0,0.0,0.0,-0.01329566064128862,0,0,0,0,0,0,-0.040315390188561596,0.0,0.0,0.0,0.0,0.0,0.0,-0.5389750246969528
520,0.0,0.0,0.0,0.0,0.0,0.0,-0.01537315365627201,0,0,0,0,0,0,-0.04196643123165227,0.0,0.0,0.0,0.0,0.0,0.0,-0.5902735690859766
521,0.0,0.0,0.0,0.0,0.0,0.0,-0.01537315365627201,0,0,0,0,0,0,-0.0436421345582559,0.0,0.0,0.0,0.0,0.0,0.0,-0.5902735690859766
522,0.0,0.0,0.0,0.0,0.0,0.0,-0.01779929657643997,0,0,0,0,0,0,-0.04572402747000375,0.0,0.0,0.0,0.0,0.0,0.0,-9.0
523,0.0,0.0,0.0,0.0,0.0,0.0,-0.02006845794537071,0,0,0,0,0,0,-0.04749994424784159,0.0,0.0,0.0,0.0,0.0,0.0,0.4287736522144436
524,0.0,0.0,0.0,0.0,0.0,0.0,-0.02219078611852865,0,0,0,0,0,0,-0.04896108829380854,0.0,0.0,0.0,0.0,0.0,0.0,3.025787062620393
525,0.0,0.0,0.0,0.0,0.0,0.0,-0.02219078611852865,0,0,0,0,0,0,-0.05093788744913665,0.0,0.0,0.0,0.0,0.0,0.0,3.025787062620393
526,0.0,0.0,0.0,0.0,0.0,0.0,-0.02414455551104666,0,0,0,0,0,0,-0.05284881646447789,0.0,0.0,0.0,0.0,0.0,0.0,0.2490058973846066
527,0.0,0.0,0.0,0.0,0.0,0.0,-0.026726760237437475,0,0,0,0,0,0,-0.05439894383014094,0.0,0.0,0.0,0.0,0.0,0.0,-9.0
528,0.0,0.0,0.0,0.0,0.0,0.0,-0.028858654746827028,0,0,0,0,0,0,-0.055865808269285874,0.0,0.0,0.0,0.0,0.0,0.0,-0.02254546911485581
529,0.0,0.0,0.0,0.0,0.0,0.0,-0.031157720474736195,0,0,0,0,0,0,-0.05808118662089953,0.0,0.0,0.0,0.0,0.0,0.0,-0.14110000559670716
530,0.0,0.0,0.0,0.0,0.0,0.0,-0.0330610572242751,0,0,0,0,0,0,-0.06076876800466714,0.0,0.0,0.0,0.0,0.0,0.0,-0.3949223149717585
531,0.0,0.0,0.0,0.0,0.0,0.0,-0.035169444850609466,0,0,0,0,0,0,-0.0639597866289929,0.0,0.0,0.0,0.0,0.0,0.0,0.09468531693735814
532,0.0,0.0,0.0,0.0,0.0,0.0,-0.037027688613092025,0,0,0,0,0,0,-0.0668396030521189,0.0,0.0,0.0,0.0,0.0,0.0,-0.5088717864422215
533,0.0,0.0,0.0,0.0,0.0,0.0,-0.038932658556607436,0,0,0,0,0,0,-0.06987677302158764,0.0,0.0,0.0,0.0,0.0,0.0,0.017854807434487314
534,0.0,0.0,0.0,0.0,0.0,0.0,-0.04222262434332258,0,0,0,0,0,0,-0.0727660041835263,0.0,0.0,0.0,0.0,0.0,0.0,-0.43897480026233676
535,0.0,0.0,0.0,0.0,0.0,0.0,-0.04421251784757274,0,0,0,0,0,0,-0.07476733258876736,0.0,0.0,0.0,0.0,0.0,0.0,-0.6420393805761422
536,0.0,0.0,0.0,0.0,0.0,0.0,-0.047852579606047385,0,0,0,0,0,0,-0.07800867915428952,0.0,0.0,0.0,0.0,0.0,0.0,-0.391388171227425
537,0.0,0.0,0.0,0.0,0.0,0.0,-0.04977377471518807,0,0,0,0,0,0,-0.0809993764554587,0.0,0.0,0.0,0.0,0.0,0.0,-0.37643546480833545
538,0.0,0.0,0.0,0.0,0.0,0.0,-0.05292117524712303,0,0,0,0,0,0,-0.08365971757250741,0.0,0.0,0.0,0.0,0.0,0.0,-0.5846951831428847
539,0.0,0.0,0.0,0.0,0.0,0.0,-0.05512154761620636,0,0,0,0,0,0,-0.08540558959696144,0.0,0.0,0.0,0.0,0.0,0.0,-0.4139708316214987
540,0.0,0.0,0.0,0.0,0.0,0.0,-0.05512154761620636,0,0,0,0,0,0,-0.08728930589000085,0.0,0.0,0.0,0.0,0.0,0.0,-0.4139708316214987
541,0.0,0.0,0.0,0.0,0.0,0.0,-0.05712821917807531,0,0,0,0,0,0,-0.08877240329282196,0.0,0.0,0.0,0.0,0.0,0.0,-0.30455835451717145
542,0.0,0.0,0.0,0.0,0.0,0.0,-0.05948320466017698,0,0,0,0,0,0,-0.09046847742971854,0.0,0.0,0.0,0.0,0.0,0.0,0.25724204112149485
543,0.0,0.0,0.0,0.0,0.0,0.0,-0.061542815683178986,0,0,0,0,0,0,-0.09242150679215494,0.0,0.0,0.0,0.0,0.0,0.0,-0.0954580163253716
544,0.0,0.0,0.0,0.0,0.0,0.0,-0.06706500364091816,0,0,0,0,0,0,-0.09554159763313647,0.0,0.0,0.0,0.0,0.0,0.0,-0.6743232734943313
545,0.0,0.0,0.0,0.0,0.0,0.0,-0.0688978280081507,0,0,0,0,0,0,-0.09820897302016499,0.0,0.0,0.0,0.0,0.0,0.0,-0.30839830783227595
546,0.0,0.0,0.0,0.0,0.0,0.0,-0.07080315767643164,0,0,0,0,0,0,-0.10026045740057593,0.0,0.0,0.0,0.0,0.0,0.0,-0.6677243622101127
547,0.0,0.0,0.0,0.0,0.0,0.0,-0.07434575787958231,0,0,0,0,0,0,-0.10264747820435097,0.0,0.0,0.0,0.0,0.0,0.0,-0.3956401980219086
548,0.0,0.0,0.0,0.0,0.0,0.0,-0.07434575787958231,0,0,0,0,0,0,-0.10474397465699292,0.0,0.0,0.0,0.0,0.0,0.0,-0.3956401980219086
549,0.0,0.0,0.0,0.0,0.0,0.0,-0.07832137943708872,0,0,0,0,0,0,-0.10677660301672452,0.0,0.0,0.0,0.0,0.0,0.0,-0.2959483703284817
550,0.0,0.0,0.0,0.0,0.0,0.0,-0.07832137943708872,0,0,0,0,0,0,-0.10858177078435134,0.0,0.0,0.0,0.0,0.0,0.0,-0.2959483703284817
551,0.0,0.0,0.0,0.0,0.0,0.0,-0.08020642308855663,0,0,0,0,0,0,-0.11079877951920582,0.0,0.0,0.0,0.0,0.0,0.0,-0.640368434426568
552,0.0,0.0,0.0,0.0,0.0,0.0,-0.08238860716501151,0,0,0,0,0,0,-0.11293179722787695,0.0,0.0,0.0,0.0,0.0,0.0,-0.05734119259623337
553,0.0,0.0,0.0,0.0,0.0,0.0,-0.08436374012999437,0,0,0,0,0,0,-0.11487038701710205,0.0,0.0,0.0,0.0,0.0,0.0,-0.4250431452576636
554,0.0,0.0,0.0,0.0,0.0,0.0,-0.0886047971183821,0,0,0,0,0,0,-0.11781619750877467,0.0,0.0,0.0,0.0,0.0,0.0,-0.0605986141975384
555,0.0,0.0,0.0,0.0,0.0,0.0,-0.09051664630047007,0,0,0,0,0,0,-0.11948108264628285,0.0,0.0,0.0,0.0,0.0,0.0,-0.5302387342714154
556,0.0,0.0,0.0,0.0,0.0,0.0,-0.09051664630047007,0,0,0,0,0,0,-0.12067559140799416,0.0,0.0,0.0,0.0,0.0,0.0,-0.5302387342714154
557,0.0,0.0,0.0,0.0,0.0,0.0,-0.09279525419224122,0,0,0,0,0,0,-0.12267574309546185,0.0,0.0,0.0,0.0,0.0,0.0,-9.0
558,0.0,0.0,0.0,0.0,0.0,0.0,-0.09543240330989988,0,0,0,0,0,0,-0.12425530417432157,0.0,0.0,0.0,0.0,0.0,0.0,3.513134240051855
559,0.0,0.0,0.0,0.0,0.0,0.0,-0.09751710570336591,0,0,0,0,0,0,-0.12570890888964248,0.0,0.0,0.0,0.0,0.0,0.0,-0.20169030344836808
560,0.0,0.0,0.0,0.0,0.0,0.0,-0.09751710570336591,0,0,0,0,0,0,-0.12708701537655953,0.0,0.0,0.0,0.0,0.0,0.0,-0.20169030344836808
561,0.0,0.0,0.0,0.0,0.0,0.0,-0.09999394005613382,0,0,0,0,0,0,-0.12851002470532416,0.0,0.0,0.0,0.0,0.0,0.0,-9.0
562,0.0,0.0,0.0,0.0,0.0,0.0,-0.09999394005613382,0,0,0,0,0,0,-0.12987054943186413,0.0,0.0,0.0,0.0,0.0,0.0,-9.0
563,0.0,0.0,0.0,0.0,0.0,0.0,-0.10245712535671103,0,0,0,0,0,0,-0.13108218780580608,0.0,0.0,0.0,0.0,0.0,0.0,0.6024915241631648
564,0.0,0.0,0.0,0.0,0.0,0.0,-0.10245712535671103,0,0,0,0,0,0,-0.13174401064505498,0.0,0.0,0.0,0.0,0.0,0.0,0.6024915241631648
565,0.0,0.0,0.0,0.0,0.0,0.0,-0.10245712535671103,0,0,0,0,0,0,-0.13275089422052216,0.0,0.0,0.0,0.0,0.0,0.0,0.6024915241631648
566,0.0,0.0,0.0,0.0,0.0,0.0,-0.10596071141630148,0,0,0,0,0,0,-0.13475859666826862,0.0,0.0,0.0,0.0,0.0,0.0,0.25839151925032267
567,0.0,0.0,0.0,0.0,0.0,0.0,-0.10790540161503692,0,0,0,0,0,0,-0.13616615009397887,0.0,0.0,0.0,0.0,0.0,0.0,-0.6011354392465919
568,0.0,0.0,0.0,0.0,0.0,0.0,-0.11015193271334844,0,0,0,0,0,0,-0.1373987133980346,0.0,0.0,0.0,0.0,0.0,0.0,3.3258309140119118
569,0.0,0.0,0.0,0.0,0.0,0.0,-0.11015193271334844,0,0,0,0,0,0,-0.13886294142169625,0.0,0.0,0.0,0.0,0.0,0.0,3.3258309140119118
570,0.0,0.0,0.0,0.0,0.0,0.0,-0.11015193271334844,0,0,0,0,0,0,-0.14005711837671123,0.0,0.0,0.0,0.0,0.0,0.0,3.3258309140119118
571,0.0,0.0,0.0,0.0,0.0,0.0,-0.11270900825352825,0,0,0,0,0,0,-0.14123941295402517,0.0,0.0,0.0,0.0,0.0,0.0,0.8542428927373665
572,0.0,0.0,0.0,0.0,0.0,0.0,-0.11596836155430879,0,0,0,0,0,0,-0.14348604096875417,0.0,0.0,0.0,0.0,0.0,0.0,0.22840588725275934
573,0.0,0.0,0.0,0.0,0.0,0.0,-0.11952182764446384,0,0,0,0,0,0,-0.1466988039838848,0.0,0.0,0.0,0.0,0.0,0.0,-0.15573208661817883
574,0.0,0.0,0.0,0.0,0.0,0.0,-0.12120412475558595,0,0,0,0,0,0,-0.1494606664762955,0.0,0.0,0.0,0.0,0.0,0.0,-0.6881109181180829
575,0.0,0.0,0.0,0.0,0.0,0.0,-0.12318705895197724,0,0,0,0,0,0,-0.15090655363451333,0.0,0.0,0.0,0.0,0.0,0.0,2.659803943266597
576,0.0,0.0,0.0,0.0,0.0,0.0,-0.12464310619280816,0,0,0,0,0,0,-0.15255761439599588,0.0,0.0,0.0,0.0,0.0,0.0,-0.24370119717781044
577,0.0,0.0,0.0,0.0,0.0,0.0,-0.12649149622760447,0,0,0,0,0,0,-0.15413687918393276,0.0,0.0,0.0,0.0,0.0,0.0,-0.3414355096955919
578,0.0,0.0,0.0,0.0,0.0,0.0,-0.12649149622760447,0,0,0,0,0,0,-0.1554543957281078,0.0,0.0,0.0,0.0,0.0,0.0,-0.3414355096955919
579,0.0,0.0,0.0,0.0,0.0,0.0,-0.1284152614271612,0,0,0,0,0,0,-0.15656628982130066,0.0,0.0,0.0,0.0,0.0,0.0,-0.4642152879637232
580,0.0,0.0,0.0,0.0,0.0,0.0,-0.13064096128833924,0,0,0,0,0,0,-0.1577529455113341,0.0,0.0,0.0,0.0,0.0,0.0,0.2847797729442547
581,0.0,0.0,0.0,0.0,0.0,0.0,-0.13064096128833924,0,0,0,0,0,0,-0.15914735118288312,0.0,0.0,0.0,0.0,0.0,0.0,0.2847797729442547
582,0.0,0.0,0.0,0.0,0.0,0.0,-0.13356250956598537,0,0,0,0,0,0,-0.1604526970833415,0.0,0.0,0.0,0.0,0.0,0.0,0.7648303090802316
583,0.0,0.0,0.0,0.0,0.0,0.0,-0.13614577271386175,0,0,0,0,0,0,-0.16182099451451384,0.0,0.0,0.0,0.0,0.0,0.0,0.39996825309771233
584,0.0,0.0,0.0,0.0,0.0,0.0,-0.13614577271386175,0,0,0,0,0,0,-0.1629624747052454,0.0,0.0,0.0,0.0,0.0,0.0,0.39996825309771233
585,0.0,0.0,0.0,0.0,0.0,0.0,-0.13841552464012885,0,0,0,0,0,0,-0.1646900158580782,0.0,0.0,0.0,0.0,0.0,0.0,-9.0
586,0.0,0.0,0.0,0.0,0.0,0.0,-0.14064159587934455,0,0,0,0,0,0,-0.16611082486624437,0.0,0.0,0.0,0.0,0.0,0.0,0.061492642298856
587,0.0,0.0,0.0,0.0,0.0,0.0,-0.14281060840438364,0,0,0,0,0,0,-0.1676091676212795,0.0,0.0,0.0,0.0,0.0,0.0,-0.6776989811301883
588,0.0,0.0,0.0,0.0,0.0,0.0,-0.14473702079504314,0,0,0,0,0,0,-0.16912640678256735,0.0,0.0,0.0,0.0,0.0,0.0,-0.3392644134015323
589,0.0,0.0,0.0,0.0,0.0,0.0,-0.14782169304188564,0,0,0,0,0,0,-0.17210142957425398,0.0,0.0,0.0,0.0,0.0,0.0,-0.8819018669698867
590,0.0,0.0,0.0,0.0,0.0,0.0,-0.14938633331008688,0,0,0,0,0,0,-0.17376356610355734,0.0,0.0,0.0,0.0,0.0,0.0,-0.4514414485090722
591,0.0,0.0,0.0,0.0,0.0,0.0,-0.15116866466250123,0,0,0,0,0,0,-0.17506335352169636,0.0,0.0,0.0,0.0,0.0,0.0,-0.310247151026919
592,0.0,0.0,0.0,0.0,0.0,0.0,-0.15116866466250123,0,0,0,0,0,0,-0.1760266949328259,0.0,0.0,0.0,0.0,0.0,0.0,-0.310247151026919
593,0.0,0.0,0.0,0.0,0.0,0.0,-0.1536510826059434,0,0,0,0,0,0,-0.17722022247567581,0.0,0.0,0.0,0.0,0.0,0.0,3.3062267429093386
594,0.0,0.0,0.0,0.0,0.0,0.0,-0.1536510826059434,0,0,0,0,0,0,-0.17825226894913512,0.0,0.0,0.0,0.0,0.0,0.0,3.3062267429093386
595,0.0,0.0,0.0,0.0,0.0,0.0,-0.15612753848991545,0,0,0,0,0,0,-0.17929486814778645,0.0,0.0,0.0,0.0,0.0,0.0,-9.0
596,0.0,0.0,0.0,0.0,0.0,0.0,-0.15974769149478796,0,0,0,0,0,0,-0.1822524827941327,0.0,0.0,0.0,0.0,0.0,0.0,-0.770272567257416
597,0.0,0.0,0.0,0.0,0.0,0.0,-0.16111435125891838,0,0,0,0,0,0,-0.18401921875693295,0.0,0.0,0.0,0.0,0.0,0.0,2.5916598613375776
598,0.0,0.0,0.0,0.0,0.0,0.0,-0.1638633890496486,0,0,0,0,0,0,-0.18603093793421133,0.0,0.0,0.0,0.0,0.0,0.0,-0.4721002154844659
599,0.0,0.0,0.0,0.0,0.0,0.0,-0.1668318424638784,0,0,0,0,0,0,-0.18915215321527745,0.0,0.0,0.0,0.0,0.0,0.0,-0.6967776950470446
600,0.0,0.0,0.0,0.0,0.0,0.0,-0.16931641973832967,0,0,0,0,0,0,-0.1912855982607655,0.0,0.0,0.0,0.0,0.0,0.0,-0.18510105740849642
601,0.0,0.0,0.0,0.0,0.0,0.0,-0.1719304209554373,0,0,0,0,0,0,-0.19370680020433487,0.0,0.0,0.0,0.0,0.0,0.0,-0.3702200669079611
602,0.0,0.0,0.0,0.0,0.0,0.0,-0.1719304209554373,0,0,0,0,0,0,-0.19489626299321489,0.0,0.0,0.0,0.0,0.0,0.0,-0.3702200669079611
603,0.0,0.0,0.0,0.0,0.0,0.0,-0.17349111249276383,0,0,0,0,0,0,-0.19576100488065298,0.0,0.0,0.0,0.0,0.0,0.0,-0.3235167177981132
604,0.0,0.0,0.0,0.0,0.0,0.0,-0.17349111249276383,0,0,0,0,0,0,-0.19693901775433095,0.0,0.0,0.0,0.0,0.0,0.0,-0.3235167177981132
605,0.0,0.0,0.0,0.0,0.0,0.0,-0.17589820960128577,0,0,0,0,0,0,-0.1981136027358066,0.0,0.0,0.0,0.0,0.0,0.0,-0.018149765781388272
606,0.0,0.0,0.0,0.0,0.0,0.0,-0.1780928045607073,0,0,0,0,0,0,-0.1995022098132738,0.0,0.0,0.0,0.0,0.0,0.0,-9.0
607,0.0,0.0,0.0,0.0,0.0,0.0,-0.18029538928044175,0,0,0,0,0,0,-0.20096325099935283,0.0,0.0,0.0,0.0,0.0,0.0,3.47890623518963
608,0.0,0.0,0.0,0.0,0.0,0.0,-0.1819136497334668,0,0,0,0,0,0,-0.2021559401080983,0.0,0.0,0.0,0.0,0.0,0.0,-0.0683256447281817
609,0.0,0.0,0.0,0.0,0.0,0.0,-0.18365728335685816,0,0,0,0,0,0,-0.20339072193776705,0.0,0.0,0.0,0.0,0.0,0.0,0.14593051905217647
610,0.0,0.0,0.0,0.0,0.0,0.0,-0.18365728335685816,0,0,0,0,0,0,-0.20449548244158935,0.0,0.0,0.0,0.0,0.0,0.0,0.14593051905217647
611,0.0,0.0,0.0,0.0,0.0,0.0,-0.18523785839331275,0,0,0,0,0,0,-0.20578903390826855,0.0,0.0,0.0,0.0,0.0,0.0,-0.17227439557365096
612,0.0,0.0,0.0,0.0,0.0,0.0,-0.18780752734438622,0,0,0,0,0,0,-0.20678383256304464,0.0,0.0,0.0,0.0,0.0,0.0,3.6524981435787813
613,0.0,0.0,0.0,0.0,0.0,0.0,-0.18944474658271382,0,0,0,0,0,0,-0.2080104887588122,0.0,0.0,0.0,0.0,0.0,0.0,0.3922002254484538
614,0.0,0.0,0.0,0.0,0.0,0.0,-0.18944474658271382,0,0,0,0,0,0,-0.20914540090402275,0.0,0.0,0.0,0.0,0.0,0.0,0.3922002254484538
615,0.0,0.0,0.0,0.0,0.0,0.0,-0.19111551954576278,0,0,0,0,0,0,-0.210381764980397,0.0,0.0,0.0,0.0,0.0,0.0,-0.1987586611706435
616,0.0,0.0,0.0,0.0,0.0,0.0,-0.19111551954576278,0,0,0,0,0,0,-0.21125586822764003,0.0,0.0,0.0,0.0,0.0,0.0,-0.1987586611706435
617,0.0,0.0,0.0,0.0,0.0,0.0,-0.19346964292479285,0,0,0,0,0,0,-0.2123904027255001,0.0,0.0,0.0,0.0,0.0,0.0,0.2808500492047162
618,0.0,0.0,0.0,0.0,0.0,0.0,-0.1960313358859871,0,0,0,0,0,0,-0.21359992479459064,0.0,0.0,0.0,0.0,0.0,0.0,0.01652660767668679
619,0.0,0.0,0.0,0.0,0.0,0.0,-0.1960313358859871,0,0,0,0,0,0,-0.21444762237698844,0.0,0.0,0.0,0.0,0.0,0.0,0.01652660767668679
620,0.0,0.0,0.0,0.0,0.0,0.0,-0.19799598025979037,0,0,0,0,0,0,-0.21538122472805935,0.0,0.0,0.0,0.0,0.0,0.0,0.2574033836419419
621,0.0,0.0,0.0,0.0,0.0,0.0,-0.19955822975216186,0,0,0,0,0,0,-0.21625562241196433,0.0,0.0,0.0,0.0,0.0,0.0,0.02695199765163942
622,0.0,0.0,0.0,0.0,0.0,0.0,-0.20151378191638614,0,0,0,0,0,0,-0.21746067028991872,0.0,0.0,0.0,0.0,0.0,0.0,0.34023904889088696
623,0.0,0.0,0.0,0.0,0.0,0.0,-0.20332760517337967,0,0,0,0,0,0,-0.21854923276367896,0.0,0.0,0.0,0.0,0.0,0.0,-0.12614141015787303
624,0.0,0.0,0.0,0.0,0.0,0.0,-0.20478383562515923,0,0,0,0,0,0,-0.21960274538551844,0.0,0.0,0.0,0.0,0.0,0.0,3.0150872415775996
625,0.0,0.0,0.0,0.0,0.0,0.0,-0.20614190941879684,0,0,0,0,0,0,-0.22051799297767535,0.0,0.0,0.0,0.0,0.0,0.0,-0.027611536605099997
626,0.0,0.0,0.0,0.0,0.0,0.0,-0.20766972546559437,0,0,0,0,0,0,-0.22147049671293464,0.0,0.0,0.0,0.0,0.0,0.0,-0.530576292925071
627,0.0,0.0,0.0,0.0,0.0,0.0,-0.20903480271287656,0,0,0,0,0,0,-0.22237162371003563,0.0,0.0,0.0,0.0,0.0,0.0,-0.41353215248423675
628,0.0,0.0,0.0,0.0,0.0,0.0,-0.21047270973766885,0,0,0,0,0,0,-0.22345030034884883,0.0,0.0,0.0,0.0,0.0,0.0,-0.555201961944073
629,0.0,0.0,0.0,0.0,0.0,0.0,-0.21177260276179943,0,0,0,0,0,0,-0.22453586194392355,0.0,0.0,0.0,0.0,0.0,0.0,-0.4472983855429258
630,0.0,0.0,0.0,0.0,0.0,0.0,-0.21177260276179943,0,0,0,0,0,0,-0.22545224363366811,0.0,0.0,0.0,0.0,0.0,0.0,-0.4472983855429258
631,0.0,0.0,0.0,0.0,0.0,0.0,-0.21318441601042615,0,0,0,0,0,0,-0.2263930391720967,0.0,0.0,0.0,0.0,0.0,0.0,-0.0405059990905618
632,0.0,0.0,0.0,0.0,0.0,0.0,-0.2150307625874852,0,0,0,0,0,0,-0.22726573266386607,0.0,0.0,0.0,0.0,0.0,0.0,-9.0
633,0.0,0.0,0.0,0.0,0.0,0.0,-0.2165675490119554,0,0,0,0,0,0,-0.22813028501693683,0.0,0.0,0.0,0.0,0.0,0.0,-0.15052206643446173
634,0.0,0.0,0.0,0.0,0.0,0.0,-0.2179189783080684,0,0,0,0,0,0,-0.22924194202295833,0.0,0.0,0.0,0.0,0.0,0.0,-0.3471155214987929
635,0.0,0.0,0.0,0.0,0.0,0.0,-0.2179189783080684,0,0,0,0,0,0,-0.23013129192323895,0.0,0.0,0.0,0.0,0.0,0.0,-0.3471155214987929
636,0.0,0.0,0.0,0.0,0.0,0.0,-0.2179189783080684,0,0,0,0,0,0,-0.23096072685979724,0.0,0.0,0.0,0.0,0.0,0.0,-0.3471155214987929
637,0.0,0.0,0.0,0.0,0.0,0.0,-0.2199834109692853,0,0,0,0,0,0,-0.2317440810196738,0.0,0.0,0.0,0.0,0.0,0.0,-8.241835469363524
638,0.0,0.0,0.0,0.0,0.0,0.0,-0.2199834109692853,0,0,0,0,0,0,-0.23250920565217992,0.0,0.0,0.0,0.0,0.0,0.0,-8.241835469363524
639,0.0,0.0,0.0,0.0,0.0,0.0,-0.22225047199359782,0,0,0,0,0,0,-0.23359493433048034,0.0,0.0,0.0,0.0,0.0,0.0,-7.555407864436539
640,0.0,0.0,0.0,0.0,0.0,0.0,-0.2237782512280857,0,0,0,0,0,0,-0.23492346704234485,0.0,0.0,0.0,0.0,0.0,0.0,0.5353545065687302
641,0.0,0.0,0.0,0.0,0.0,0.0,-0.22591448302296424,0,0,0,0,0,0,-0.23694292097358016,0.0,0.0,0.0,0.0,0.0,0.0,-0.3249097143961292
642,0.0,0.0,0.0,0.0,0.0,0.0,-0.22687586649681268,0,0,0,0,0,0,-0.23881907117957857,0.0,0.0,0.0,0.0,0.0,0.0,-0.43671356553940255
643,0.0,0.0,0.0,0.0,0.0,0.0,-0.22871403672382673,0,0,0,0,0,0,-0.24014544200623503,0.0,0.0,0.0,0.0,0.0,0.0,-0.01413030277888442
644,0.0,0.0,0.0,0.0,0.0,0.0,-0.2300105490258746,0,0,0,0,0,0,-0.24157797155007843,0.0,0.0,0.0,0.0,0.0,0.0,-0.30860690348013803
645,0.0,0.0,0.0,0.0,0.0,0.0,-0.23096637012396837,0,0,0,0,0,0,-0.24344818887440675,0.0,0.0,0.0,0.0,0.0,0.0,-9.0
646,0.0,0.0,0.0,0.0,0.0,0.0,-0.23184047467062907,0,0,0,0,0,0,-0.24439666179998154,0.0,0.0,0.0,0.0,0.0,0.0,-0.14127412557681998
647,0.0,0.0,0.0,0.0,0.0,0.0,-0.23278600437239128,0,0,0,0,0,0,-0.24531443409721496,0.0,0.0,0.0,0.0,0.0,0.0,-0.5605442053374835
648,0.0,0.0,0.0,0.0,0.0,0.0,-0.23464236476303135,0,0,0,0,0,0,-0.24683358547458714,0.0,0.0,0.0,0.0,0.0,0.0,0.6463727961788285
649,0.0,0.0,0.0,0.0,0.0,0.0,-0.23602120478372512,0,0,0,0,0,0,-0.24795903540962178,0.0,0.0,0.0,0.0,0.0,0.0,-9.0
650,0.0,0.0,0.0,0.0,0.0,0.0,-0.23719366225393745,0,0,0,0,0,0,-0.2490990346706748,0.0,0.0,0.0,0.0,0.0,0.0,-9.0
651,0.0,0.0,0.0,0.0,0.0,0.0,-0.23871513780069353,0,0,0,0,0,0,-0.25038869963944127,0.0,0.0,0.0,0.0,0.0,0.0,3.376684826223104
652,0.0,0.0,0.0,0.0,0.0,0.0,-0.23997136346499648,0,0,0,0,0,0,-0.25144123372739785,0.0,0.0,0.0,0.0,0.0,0.0,0.40837789699360566
653,0.0,0.0,0.0,0.0,0.0,0.0,-0.24131696201725905,0,0,0,0,0,0,-0.2524020345791303,0.0,0.0,0.0,0.0,0.0,0.0,0.40752747509656223
654,0.0,0.0,0.0,0.0,0.0,0.0,-0.24243003757246573,0,0,0,0,0,0,-0.25343908823966604,0.0,0.0,0.0,0.0,0.0,0.0,-9.0
655,0.0,0.0,0.0,0.0,0.0,0.0,-0.24243003757246573,0,0,0,0,0,0,-0.2544583859750973,0.0,0.0,0.0,0.0,0.0,0.0,-9.0
656,0.0,0.0,0.0,0.0,0.0,0.0,-0.24243003757246573,0,0,0,0,0,0,-0.25513597245522074,0.0,0.0,0.0,0.0,0.0,0.0,-9.0
657,0.0,0.0,0.0,0.0,0.0,0.0,-0.24329567559378784,0,0,0,0,0,0,-0.2557085445760712,0.0,0.0,0.0,0.0,0.0,0.0,-0.13442676611624693
658,0.0,0.0,0.0,0.0,0.0,0.0,-0.24549419904254943,0,0,0,0,0,0,-0.2565595373373377,0.0,0.0,0.0,0.0,0.0,0.0,0.046859462765967086
659,0.0,0.0,0.0,0.0,0.0,0.0,-0.24549419904254943,0,0,0,0,0,0,-0.25728542145174277,0.0,0.0,0.0,0.0,0.0,0.0,0.046859462765967086
660,0.0,0.0,0.0,0.0,0.0,0.0,-0.2474778484669935,0,0,0,0,0,0,-0.2581579281205576,0.0,0.0,0.0,0.0,0.0,0.0,2.790961586652539
661,0.0,0.0,0.0,0.0,0.0,0.0,-0.2474778484669935,0,0,0,0,0,0,-0.2590366814479659,0.0,0.0,0.0,0.0,0.0,0.0,2.790961586652539
662,0.0,0.0,0.0,0.0,0.0,0.0,-0.2474778484669935,0,0,0,0,0,0,-0.25961072602193164,0.0,0.0,0.0,0.0,0.0,0.0,2.790961586652539
663,0.0,0.0,0.0,0.0,0.0,0.0,-0.24965306211236804,0,0,0,0,0,0,-0.2607215095554957,0.0,0.0,0.0,0.0,0.0,0.0,0.5468916285536141
664,0.0,0.0,0.0,0.0,0.0,0.0,-0.24965306211236804,0,0,0,0,0,0,-0.2613770036162478,0.0,0.0,0.0,0.0,0.0,0.0,0.5468916285536141
665,0.0,0.0,0.0,0.0,0.0,0.0,-0.25162733013066063,0,0,0,0,0,0,-0.2620257962478187,0.0,0.0,0.0,0.0,0.0,0.0,0.23095446785413362
666,0.0,0.0,0.0,0.0,0.0,0.0,-0.25162733013066063,0,0,0,0,0,0,-0.26249299978958185,0.0,0.0,0.0,0.0,0.0,0.0,0.23095446785413362
667,0.0,0.0,0.0,0.0,0.0,0.0,-0.2535871901005402,0,0,0,0,0,0,-0.26343846674432425,0.0,0.0,0.0,0.0,0.0,0.0,-0.20959545657794054
668,0.0,0.0,0.0,0.0,0.0,0.0,-0.2557603466234273,0,0,0,0,0,0,-0.26542759435713864,0.0,0.0,0.0,0.0,0.0,0.0,-0.6271794696070185
669,0.0,0.0,0.0,0.0,0.0,0.0,-0.2557603466234273,0,0,0,0,0,0,-0.26622418598558795,0.0,0.0,0.0,0.0,0.0,0.0,-0.6271794696070185
670,0.0,0.0,0.0,0.0,0.0,0.0,-0.25794578585445294,0,0,0,0,0,0,-0.2684315463747255,0.0,0.0,0.0,0.0,0.0,0.0,-0.7926971327355756
671,0.0,0.0,0.0,0.0,0.0,0.0,-0.2595476126508185,0,0,0,0,0,0,-0.2698901534981437,0.0,0.0,0.0,0.0,0.0,0.0,-0.7403724330068081
672,0.0,0.0,0.0,0.0,0.0,0.0,-0.2611512104529501,0,0,0,0,0,0,-0.27151268752082675,0.0,0.0,0.0,0.0,0.0,0.0,-0.644440282597914
673,0.0,0.0,0.0,0.0,0.0,0.0,-0.2630853216375222,0,0,0,0,0,0,-0.2733229623466443,0.0,0.0,0.0,0.0,0.0,0.0,-0.6988110579346457
674,0.0,0.0,0.0,0.0,0.0,0.0,-0.264092744064917,0,0,0,0,0,0,-0.2742687923901165,0.0,0.0,0.0,0.0,0.0,0.0,-0.5804273015292096
675,0.0,0.0,0.0,0.0,0.0,0.0,-0.2652529452480996,0,0,0,0,0,0,-0.2750160948908402,0.0,0.0,0.0,0.0,0.0,0.0,0.20834463366327974
676,0.0,0.0,0.0,0.0,0.0,0.0,-0.2670144720900387,0,0,0,0,0,0,-0.2764046620509528,0.0,0.0,0.0,0.0,0.0,0.0,-0.25626262185488097
677,0.0,0.0,0.0,0.0,0.0,0.0,-0.26738536870352725,0,0,0,0,0,0,-0.2769346865021468,0.0,0.0,0.0,0.0,0.0,0.0,-0.7128877854694579
678,0.0,0.0,0.0,0.0,0.0,0.0,-0.26834537056050856,0,0,0,0,0,0,-0.2775545378315051,0.0,0.0,0.0,0.0,0.0,0.0,-0.5657388196757291
679,0.0,0.0,0.0,0.0,0.0,0.0,-0.26834537056050856,0,0,0,0,0,0,-0.27806628227526037,0.0,0.0,0.0,0.0,0.0,0.0,-0.5657388196757291
680,0.0,0.0,0.0,0.0,0.0,0.0,-0.26980269705589244,0,0,0,0,0,0,-0.2787055502107732,0.0,0.0,0.0,0.0,0.0,0.0,-0.15564007547595474
681,0.0,0.0,0.0,0.0,0.0,0.0,-0.26980269705589244,0,0,0,0,0,0,-0.2791593399929563,0.0,0.0,0.0,0.0,0.0,0.0,-0.15564007547595474
682,0.0,0.0,0.0,0.0,0.0,0.0,-0.2712257403880711,0,0,0,0,0,0,-0.27961669176233017,0.0,0.0,0.0,0.0,0.0,0.0,-5.182204271636818
683,0.0,0.0,0.0,0.0,0.0,0.0,-0.2725121165240063,0,0,0,0,0,0,-0.2802942245157186,0.0,0.0,0.0,0.0,0.0,0.0,0.03127189815133324
684,0.0,0.0,0.0,0.0,0.0,0.0,-0.27337304105993265,0,0,0,0,0,0,-0.2816526934262592,0.0,0.0,0.0,0.0,0.0,0.0,-0.30841468088735613
685,0.0,0.0,0.0,0.0,0.0,0.0,-0.2744287976801134,0,0,0,0,0,0,-0.2822385171848646,0.0,0.0,0.0,0.0,0.0,0.0,2.653129723262747
686,0.0,0.0,0.0,0.0,0.0,0.0,-0.2744287976801134,0,0,0,0,0,0,-0.2828343586397779,0.0,0.0,0.0,0.0,0.0,0.0,2.653129723262747
687,0.0,0.0,0.0,0.0,0.0,0.0,-0.2744287976801134,0,0,0,0,0,0,-0.2832665449145345,0.0,0.0,0.0,0.0,0.0,0.0,2.653129723262747
688,0.0,0.0,0.0,0.0,0.0,0.0,-0.2764595280381146,0,0,0,0,0,0,-0.2838214660136535,0.0,0.0,0.0,0.0,0.0,0.0,2.6625970536939225
689,0.0,0.0,0.0,0.0,0.0,0.0,-0.27792458948581444,0,0,0,0,0,0,-0.2853160711974725,0.0,0.0,0.0,0.0,0.0,0.0,-0.44837392993721875
690,0.0,0.0,0.0,0.0,0.0,0.0,-0.27792458948581444,0,0,0,0,0,0,-0.2858566008082408,0.0,0.0,0.0,0.0,0.0,0.0,-0.44837392993721875
691,0.0,0.0,0.0,0.0,0.0,0.0,-0.2787579780514129,0,0,0,0,0,0,-0.28649880379793347,0.0,0.0,0.0,0.0,0.0,0.0,-0.576050710556319
692,0.0,0.0,0.0,0.0,0.0,0.0,-0.2801671446685017,0,0,0,0,0,0,-0.2871158889368424,0.0,0.0,0.0,0.0,0.0,0.0,-0.13573959139592343
693,0.0,0.0,0.0,0.0,0.0,0.0,-0.2809388463240623,0,0,0,0,0,0,-0.2877859896389322,0.0,0.0,0.0,0.0,0.0,0.0,-6.913436015730183
694,0.0,0.0,0.0,0.0,0.0,0.0,-0.2809388463240623,0,0,0,0,0,0,-0.288329449809443,0.0,0.0,0.0,0.0,0.0,0.0,-6.913436015730183
695,0.0,0.0,0.0,0.0,0.0,0.0,-0.28188640235935036,0,0,0,0,0,0,-0.28875626943828037,0.0,0.0,0.0,0.0,0.0,0.0,-0.22643204391913707
696,0.0,0.0,0.0,0.0,0.0,0.0,-0.28359563145310673,0,0,0,0,0,0,-0.2897724659573376,0.0,0.0,0.0,0.0,0.0,0.0,-0.5728863657261711
697,0.0,0.0,0.0,0.0,0.0,0.0,-0.28359563145310673,0,0,0,0,0,0,-0.29023270298445975,0.0,0.0,0.0,0.0,0.0,0.0,-0.5728863657261711
698,0.0,0.0,0.0,0.0,0.0,0.0,-0.28359563145310673,0,0,0,0,0,0,-0.2905293700876388,0.0,0.0,0.0,0.0,0.0,0.0,-0.5728863657261711
699,0.0,0.0,0.0,0.0,0.0,0.0,-0.28462130015470244,0,0,0,0,0,0,-0.29086141155140327,0.0,0.0,0.0,0.0,0.0,0.0,-0.007468618681596345
700,0.0,0.0,0.0,0.0,0.0,0.0,-0.2856115225821325,0,0,0,0,0,0,-0.29124325029010356,0.0,0.0,0.0,0.0,0.0,0.0,-0.3031007899936326
701,0.0,0.0,0.0,0.0,0.0,0.0,-0.2862891375307157,0,0,0,0,0,0,-0.29163905568360676,0.0,0.0,0.0,0.0,0.0,0.0,-0.32241712091608815
702,0.0,0.0,0.0,0.0,0.0,0.0,-0.2862891375307157,0,0,0,0,0,0,-0.29204922022974605,0.0,0.0,0.0,0.0,0.0,0.0,-0.32241712091608815
703,0.0,0.0,0.0,0.0,0.0,0.0,-0.28740095564196544,0,0,0,0,0,0,-0.292499295053628,0.0,0.0,0.0,0.0,0.0,0.0,-0.6489700316372413
704,0.0,0.0,0.0,0.0,0.0,0.0,-0.28799321989614945,0,0,0,0,0,0,-0.2929254027799636,0.0,0.0,0.0,0.0,0.0,0.0,-5.164524270441067
705,0.0,0.0,0.0,0.0,0.0,0.0,-0.2886459098526375,0,0,0,0,0,0,-0.29330808825054777,0.0,0.0,0.0,0.0,0.0,0.0,1.2632651258968701
706,0.0,0.0,0.0,0.0,0.0,0.0,-0.28920893144506277,0,0,0,0,0,0,-0.2937485004718745,0.0,0.0,0.0,0.0,0.0,0.0,-0.44352258349310103
707,0.0,0.0,0.0,0.0,0.0,0.0,-0.28920893144506277,0,0,0,0,0,0,-0.29396777445193695,0.0,0.0,0.0,0.0,0.0,0.0,-0.44352258349310103
708,0.0,0.0,0.0,0.0,0.0,0.0,-0.28979421540064454,0,0,0,0,0,0,-0.2942284563710235,0.0,0.0,0.0,0.0,0.0,0.0,0.9931860204547509
709,0.0,0.0,0.0,0.0,0.0,0.0,-0.290384412656401,0,0,0,0,0,0,-0.2945941955822834,0.0,0.0,0.0,0.0,0.0,0.0,-0.23169649615702229
710,0.0,0.0,0.0,0.0,0.0,0.0,-0.290384412656401,0,0,0,0,0,0,-0.2948217884983691,0.0,0.0,0.0,0.0,0.0,0.0,-0.23169649615702229
711,0.0,0.0,0.0,0.0,0.0,0.0,-0.2909594866995473,0,0,0,0,0,0,-0.29501777520354544,0.0,0.0,0.0,0.0,0.0,0.0,-0.5486552555723552
712,0.0,0.0,0.0,0.0,0.0,0.0,-0.2909594866995473,0,0,0,0,0,0,-0.2953944061243977,0.0,0.0,0.0,0.0,0.0,0.0,-0.5486552555723552
713,0.0,0.0,0.0,0.0,0.0,0.0,-0.29192760091656833,0,0,0,0,0,0,-0.29574250959289944,0.0,0.0,0.0,0.0,0.0,0.0,-0.6387347462538138
714,0.0,0.0,0.0,0.0,0.0,0.0,-0.2924290593773362,0,0,0,0,0,0,-0.296057832141563,0.0,0.0,0.0,0.0,0.0,0.0,-0.7041550732372884
715,0.0,0.0,0.0,0.0,0.0,0.0,-0.29277307882192183,0,0,0,0,0,0,-0.29641706935269,0.0,0.0,0.0,0.0,0.0,0.0,-0.45083777562744315
716,0.0,0.0,0.0,0.0,0.0,0.0,-0.2930988374378938,0,0,0,0,0,0,-0.2966211870468739,0.0,0.0,0.0,0.0,0.0,0.0,-0.4565015187167727
717,0.0,0.0,0.0,0.0,0.0,0.0,-0.2930988374378938,0,0,0,0,0,0,-0.29679337384053384,0.0,0.0,0.0,0.0,0.0,0.0,-0.4565015187167727
718,0.0,0.0,0.0,0.0,0.0,0.0,-0.29373034229962336,0,0,0,0,0,0,-0.2970146352357195,0.0,0.0,0.0,0.0,0.0,0.0,-0.39362193172356424
719,0.0,0.0,0.0,0.0,0.0,0.0,-0.29406449086241704,0,0,0,0,0,0,-0.29723524985446403,0.0,0.0,0.0,0.0,0.0,0.0,-0.4602002180107642
720,0.0,0.0,0.0,0.0,0.0,0.0,-0.2944473622020869,0,0,0,0,0,0,-0.29741226908135504,0.0,0.0,0.0,0.0,0.0,0.0,-0.49754722522071343
721,0.0,0.0,0.0,0.0,0.0,0.0,-0.2948661251121081,0,0,0,0,0,0,-0.2976203198113047,0.0,0.0,0.0,0.0,0.0,0.0,-2.3460286856190224
722,0.0,0.0,0.0,0.0,0.0,0.0,-0.2951657814940587,0,0,0,0,0,0,-0.2978555046212413,0.0,0.0,0.0,0.0,0.0,0.0,0.2711219269674968
723,0.0,0.0,0.0,0.0,0.0,0.0,-0.2951657814940587,0,0,0,0,0,0,-0.2980365348435634,0.0,0.0,0.0,0.0,0.0,0.0,0.2711219269674968
724,0.0,0.0,0.0,0.0,0.0,0.0,-0.2954910379522113,0,0,0,0,0,0,-0.29818397344626635,0.0,0.0,0.0,0.0,0.0,0.0,-0.5127722008151796
725,0.0,0.0,0.0,0.0,0.0,0.0,-0.29582842933533815,0,0,0,0,0,0,-0.298338465440544,0.0,0.0,0.0,0.0,0.0,0.0,-0.401282731080908
726,0.0,0.0,0.0,0.0,0.0,0.0,-0.29603406677262534,0,0,0,0,0,0,-0.298536399898316,0.0,0.0,0.0,0.0,0.0,0.0,-0.6672104509933438
727,0.0,0.0,0.0,0.0,0.0,0.0,-0.2963836225260854,0,0,0,0,0,0,-0.29870099582330717,0.0,0.0,0.0,0.0,0.0,0.0,-0.4953321558017163
728,0.0,0.0,0.0,0.0,0.0,0.0,-0.2963836225260854,0,0,0,0,0,0,-0.29883289840738025,0.0,0.0,0.0,0.0,0.0,0.0,-0.4953321558017163
729,0.0,0.0,0.0,0.0,0.0,0.0,-0.2967088754589984,0,0,0,0,0,0,-0.2989975223359298,0.0,0.0,0.0,0.0,0.0,0.0,-0.6195989613519944
730,0.0,0.0,0.0,0.0,0.0,0.0,-0.2968996661828154,0,0,0,0,0,0,-0.29911935797233025,0.0,0.0,0.0,0.0,0.0,0.0,-0.5732226383477322
731,0.0,0.0,0.0,0.0,0.0,0.0,-0.29719869241321195,0,0,0,0,0,0,-0.29922404695041854,0.0,0.0,0.0,0.0,0.0,0.0,-0.5114677903739026
732,0.0,0.0,0.0,0.0,0.0,0.0,-0.29719869241321195,0,0,0,0,0,0,-0.2993168893042073,0.0,0.0,0.0,0.0,0.0,0.0,-0.5114677903739026
733,0.0,0.0,0.0,0.0,0.0,0.0,-0.2974497979877695,0,0,0,0,0,0,-0.2994421997537084,0.0,0.0,0.0,0.0,0.0,0.0,-0.5467318511104754
734,0.0,0.0,0.0,0.0,0.0,0.0,-0.2976560876141203,0,0,0,0,0,0,-0.29953741461313416,0.0,0.0,0.0,0.0,0.0,0.0,-0.5241730783900737
735,0.0,0.0,0.0,0.0,0.0,0.0,-0.2978783564223324,0,0,0,0,0,0,-0.29960731234342314,0.0,0.0,0.0,0.0,0.0,0.0,-0.5703775218090056
736,0.0,0.0,0.0,0.0,0.0,0.0,-0.29806757355008795,0,0,0,0,0,0,-0.2996780785711668,0.0,0.0,0.0,0.0,0.0,0.0,-0.3579048382666889
737,0.0,0.0,0.0,0.0,0.0,0.0,-0.29819357001623903,0,0,0,0,0,0,-0.2997809900530809,0.0,0.0,0.0,0.0,0.0,0.0,-0.6006532498352207
738,0.0,0.0,0.0,0.0,0.0,0.0,-0.29829176502927357,0,0,0,0,0,0,-0.29986643508336375,0.0,0.0,0.0,0.0,0.0,0.0,-0.6264658887036268
739,0.0,0.0,0.0,0.0,0.0,0.0,-0.29845310743374487,0,0,0,0,0,0,-0.2999026013622023,0.0,0.0,0.0,0.0,0.0,0.0,-0.5870148624436978
740,0.0,0.0,0.0,0.0,0.0,0.0,-0.29861333628349573,0,0,0,0,0,0,-0.2999348255629915,0.0,0.0,0.0,0.0,0.0,0.0,-0.6047810918601308
741,0.0,0.0,0.0,0.0,0.0,0.0,-0.29861333628349573,0,0,0,0,0,0,-0.2999613832204378,0.0,0.0,0.0,0.0,0.0,0.0,-0.6047810918601308
742,0.0,0.0,0.0,0.0,0.0,0.0,-0.2987068240432347,0,0,0,0,0,0,-0.29998226096787967,0.0,0.0,0.0,0.0,0.0,0.0,-0.6197632216854903
743,0.0,0.0,0.0,0.0,0.0,0.0,-0.2987068240432347,0,0,0,0,0,0,-0.2999934572871005,0.0,0.0,0.0,0.0,0.0,0.0,-0.6197632216854903
744,0.0,0.0,0.0,0.0,0.0,0.0,-0.2987965684569067,0,0,0,0,0,0,-0.2999996729887,0.0,0.0,0.0,0.0,0.0,0.0,-0.6285689361806206
745,0.0,0.0,0.0,0.0,0.0,0.0,-0.2988772899650982,0,0,0,0,0,0,-0.29999807875721846,0.0,0.0,0.0,0.0,0.0,0.0,-0.6321968159660337
746,0.0,0.0,0.0,0.0,0.0,0.0,-0.2989856735551468,0,0,0,0,0,0,-0.2999722665985232,0.0,0.0,0.0,0.0,0.0,0.0,-0.64087925258392
747,0.0,0.0,0.0,0.0,0.0,0.0,-0.29901805517551683,0,0,0,0,0,0,-0.2999420420185634,0.0,0.0,0.0,0.0,0.0,0.0,-0.6374227847463837
748,0.0,0.0,0.0,0.0,0.0,0.0,-0.2990675619240095,0,0,0,0,0,0,-0.2998615412285369,0.0,0.0,0.0,0.0,0.0,0.0,-0.6467671548250682
749,0.0,0.0,0.0,0.0,0.0,0.0,-0.299065242632679,0,0,0,0,0,0,-0.2997805926179553,0.0,0.0,0.0,0.0,0.0,0.0,-0.6348800483871054
750,0.0,0.0,0.0,0.0,0.0,0.0,-0.29904233153593207,0,0,0,0,0,0,-0.2996435338072567,0.0,0.0,0.0,0.0,0.0,0.0,-0.6479310092321008
751,0.0,0.0,0.0,0.0,0.0,0.0,-0.2989539919474229,0,0,0,0,0,0,-0.29954334753524847,0.0,0.0,0.0,0.0,0.0,0.0,-1.1651291611615302
752,0.0,0.0,0.0,0.0,0.0,0.0,-0.2988947497567027,0,0,0,0,0,0,-0.29937782722229694,0.0,0.0,0.0,0.0,0.0,0.0,-0.7116321338587799
753,0.0,0.0,0.0,0.0,0.0,0.0,-0.29885703420463194,0,0,0,0,0,0,-0.2992552666714708,0.0,0.0,0.0,0.0,0.0,0.0,-0.5978147683188891
754,0.0,0.0,0.0,0.0,0.0,0.0,-0.29873052315871007,0,0,0,0,0,0,-0.2991174785767962,0.0,0.0,0.0,0.0,0.0,0.0,-0.7422431878876532
755,0.0,0.0,0.0,0.0,0.0,0.0,-0.2986966196890748,0,0,0,0,0,0,-0.2989646513524122,0.0,0.0,0.0,0.0,0.0,0.0,-0.6285885194109845
756,0.0,0.0,0.0,0.0,0.0,0.0,-0.29848275184981965,0,0,0,0,0,0,-0.2987636056520776,0.0,0.0,0.0,0.0,0.0,0.0,-0.768755186417157
757,0.0,0.0,0.0,0.0,0.0,0.0,-0.298432453357651,0,0,0,0,0,0,-0.29850282504012965,0.0,0.0,0.0,0.0,0.0,0.0,-0.6538037828456617
758,0.0,0.0,0.0,0.0,0.0,0.0,-0.298118791133418,0,0,0,0,0,0,-0.29809410231346783,0.0,0.0,0.0,0.0,0.0,0.0,-0.9072161400855671
759,0.0,0.0,0.0,0.0,0.0,0.0,-0.298118791133418,0,0,0,0,0,0,-0.2979776507908744,0.0,0.0,0.0,0.0,0.0,0.0,-0.9072161400855671
760,0.0,0.0,0.0,0.0,0.0,0.0,-0.2978861521509204,0,0,0,0,0,0,-0.29772963535758956,0.0,0.0,0.0,0.0,0.0,0.0,-1.0496913773150032
761,0.0,0.0,0.0,0.0,0.0,0.0,-0.29744448795048495,0,0,0,0,0,0,-0.2973245501351708,0.0,0.0,0.0,0.0,0.0,0.0,-0.7860590635827666
762,0.0,0.0,0.0,0.0,0.0,0.0,-0.2972542951435937,0,0,0,0,0,0,-0.2968268739923265,0.0,0.0,0.0,0.0,0.0,0.0,-0.6072640495381268
763,0.0,0.0,0.0,0.0,0.0,0.0,-0.29709264776638733,0,0,0,0,0,0,-0.29660913331867733,0.0,0.0,0.0,0.0,0.0,0.0,-0.7508671529234431
764,0.0,0.0,0.0,0.0,0.0,0.0,-0.2964841186678342,0,0,0,0,0,0,-0.2962361728887838,0.0,0.0,0.0,0.0,0.0,0.0,-0.6951435779354416
765,0.0,0.0,0.0,0.0,0.0,0.0,-0.29633086970536215,0,0,0,0,0,0,-0.2958765265135293,0.0,0.0,0.0,0.0,0.0,0.0,-0.6836090726463225
766,0.0,0.0,0.0,0.0,0.0,0.0,-0.29584455624146067,0,0,0,0,0,0,-0.29538970127273684,0.0,0.0,0.0,0.0,0.0,0.0,-0.9539344654509255
767,0.0,0.0,0.0,0.0,0.0,0.0,-0.29533896502475443,0,0,0,0,0,0,-0.2948216864523359,0.0,0.0,0.0,0.0,0.0,0.0,-0.6461987089790715
768,0.0,0.0,0.0,0.0,0.0,0.0,-0.29533896502475443,0,0,0,0,0,0,-0.2945567624773738,0.0,0.0,0.0,0.0,0.0,0.0,-0.6461987089790715
769,0.0,0.0,0.0,0.0,0.0,0.0,-0.2946917058215828,0,0,0,0,0,0,-0.2941516882073189,0.0,0.0,0.0,0.0,0.0,0.0,-0.657950055574526
770,0.0,0.0,0.0,0.0,0.0,0.0,-0.2946917058215828,0,0,0,0,0,0,-0.2939117905225601,0.0,0.0,0.0,0.0,0.0,0.0,-0.657950055574526
771,0.0,0.0,0.0,0.0,0.0,0.0,-0.2943486064765253,0,0,0,0,0,0,-0.2935568380134609,0.0,0.0,0.0,0.0,0.0,0.0,-0.6429994628899999
772,0.0,0.0,0.0,0.0,0.0,0.0,-0.2941089043967402,0,0,0,0,0,0,-0.293171545963955,0.0,0.0,0.0,0.0,0.0,0.0,1.6570105144719212
773,0.0,0.0,0.0,0.0,0.0,0.0,-0.2937846958072985,0,0,0,0,0,0,-0.2928357560450478,0.0,0.0,0.0,0.0,0.0,0.0,-0.8966789629930227
774,0.0,0.0,0.0,0.0,0.0,0.0,-0.2932225539978237,0,0,0,0,0,0,-0.2924159035685895,0.0,0.0,0.0,0.0,0.0,0.0,2.218708721874442
775,0.0,0.0,0.0,0.0,0.0,0.0,-0.2928172835801064,0,0,0,0,0,0,-0.29178772407705095,0.0,0.0,0.0,0.0,0.0,0.0,-0.9465454663139211
776,0.0,0.0,0.0,0.0,0.0,0.0,-0.29192771813724505,0,0,0,0,0,0,-0.29077722384093235,0.0,0.0,0.0,0.0,0.0,0.0,-0.6242936060770449
777,0.0,0.0,0.0,0.0,0.0,0.0,-0.29163072416428015,0,0,0,0,0,0,-0.2903838819206417,0.0,0.0,0.0,0.0,0.0,0.0,9.0
778,0.0,0.0,0.0,0.0,0.0,0.0,-0.2909416651561827,0,0,0,0,0,0,-0.28982275204519137,0.0,0.0,0.0,0.0,0.0,0.0,-1.4610807645131463
779,0.0,0.0,0.0,0.0,0.0,0.0,-0.2903385162810146,0,0,0,0,0,0,-0.28919145342903346,0.0,0.0,0.0,0.0,0.0,0.0,-0.7801850161374105
780,0.0,0.0,0.0,0.0,0.0,0.0,-0.29012767230768866,0,0,0,0,0,0,-0.2888009147834698,0.0,0.0,0.0,0.0,0.0,0.0,-0.6329064263402707
781,0.0,0.0,0.0,0.0,0.0,0.0,-0.28965092489858435,0,0,0,0,0,0,-0.2883150891384093,0.0,0.0,0.0,0.0,0.0,0.0,-1.5368921895767407
782,0.0,0.0,0.0,0.0,0.0,0.0,-0.2890529302658118,0,0,0,0,0,0,-0.2878251682588817,0.0,0.0,0.0,0.0,0.0,0.0,3.8520257124837847
783,0.0,0.0,0.0,0.0,0.0,0.0,-0.28851829435648124,0,0,0,0,0,0,-0.28737511940823907,0.0,0.0,0.0,0.0,0.0,0.0,3.8733289400126685
784,0.0,0.0,0.0,0.0,0.0,0.0,-0.2880737251887089,0,0,0,0,0,0,-0.28670932927993364,0.0,0.0,0.0,0.0,0.0,0.0,-1.0044040963565424
785,0.0,0.0,0.0,0.0,0.0,0.0,-0.2875250238970688,0,0,0,0,0,0,-0.28619124394737866,0.0,0.0,0.0,0.0,0.0,0.0,-0.7025979571084525
786,0.0,0.0,0.0,0.0,0.0,0.0,-0.2875250238970688,0,0,0,0,0,0,-0.285923579839801,0.0,0.0,0.0,0.0,0.0,0.0,-0.7025979571084525
787,0.0,0.0,0.0,0.0,0.0,0.0,-0.2875250238970688,0,0,0,0,0,0,-0.2853872946656894,0.0,0.0,0.0,0.0,0.0,0.0,-0.7025979571084525
788,0.0,0.0,0.0,0.0,0.0,0.0,-0.28666430364074724,0,0,0,0,0,0,-0.28492449898118605,0.0,0.0,0.0,0.0,0.0,0.0,-0.9298875538043545
789,0.0,0.0,0.0,0.0,0.0,0.0,-0.28600484891080313,0,0,0,0,0,0,-0.2844593395227044,0.0,0.0,0.0,0.0,0.0,0.0,-1.1841899934183604
790,0.0,0.0,0.0,0.0,0.0,0.0,-0.2855171045537306,0,0,0,0,0,0,-0.28389841459191023,0.0,0.0,0.0,0.0,0.0,0.0,-1.2100198420002424
791,0.0,0.0,0.0,0.0,0.0,0.0,-0.2851056803352421,0,0,0,0,0,0,-0.2831491998723027,0.0,0.0,0.0,0.0,0.0,0.0,-0.842361422079553
792,0.0,0.0,0.0,0.0,0.0,0.0,-0.28378896427041234,0,0,0,0,0,0,-0.28221751144139173,0.0,0.0,0.0,0.0,0.0,0.0,-1.2720600817314653
793,0.0,0.0,0.0,0.0,0.0,0.0,-0.28291004034335643,0,0,0,0,0,0,-0.2808464253034074,0.0,0.0,0.0,0.0,0.0,0.0,-1.166635602449497
794,0.0,0.0,0.0,0.0,0.0,0.0,-0.2825463157913184,0,0,0,0,0,0,-0.2802195959906982,0.0,0.0,0.0,0.0,0.0,0.0,9.0
795,0.0,0.0,0.0,0.0,0.0,0.0,-0.2825463157913184,0,0,0,0,0,0,-0.2796226139627052,0.0,0.0,0.0,0.0,0.0,0.0,9.0
796,0.0,0.0,0.0,0.0,0.0,0.0,-0.28096009582810577,0,0,0,0,0,0,-0.2785757494631321,0.0,0.0,0.0,0.0,0.0,0.0,-1.004961723428919
797,0.0,0.0,0.0,0.0,0.0,0.0,-0.2801105231084957,0,0,0,0,0,0,-0.2773168456155206,0.0,0.0,0.0,0.0,0.0,0.0,-1.4645975100411934
798,0.0,0.0,0.0,0.0,0.0,0.0,-0.2789347517377978,0,0,0,0,0,0,-0.2765421658029429,0.0,0.0,0.0,0.0,0.0,0.0,-1.820066558892598
799,0.0,0.0,0.0,0.0,0.0,0.0,-0.2784361266998756,0,0,0,0,0,0,-0.2759419857662609,0.0,0.0,0.0,0.0,0.0,0.0,-0.2907371602224551
800,0.0,0.0,0.0,0.0,0.0,0.0,-0.2784361266998756,0,0,0,0,0,0,-0.27488429891615823,0.0,0.0,0.0,0.0,0.0,0.0,-0.2907371602224551
801,0.0,0.0,0.0,0.0,0.0,0.0,-0.27763543559221926,0,0,0,0,0,0,-0.2742524782972363,0.0,0.0,0.0,0.0,0.0,0.0,-1.143754431645912
802,0.0,0.0,0.0,0.0,0.0,0.0,-0.27763543559221926,0,0,0,0,0,0,-0.2739246847516197,0.0,0.0,0.0,0.0,0.0,0.0,-1.143754431645912
803,0.0,0.0,0.0,0.0,0.0,0.0,-0.27637989884456005,0,0,0,0,0,0,-0.27322042860202633,0.0,0.0,0.0,0.0,0.0,0.0,-3.8083009900540694
804,0.0,0.0,0.0,0.0,0.0,0.0,-0.27545945017852524,0,0,0,0,0,0,-0.27250929110675404,0.0,0.0,0.0,0.0,0.0,0.0,-1.273797124143305
805,0.0,0.0,0.0,0.0,0.0,0.0,-0.27469697213865274,0,0,0,0,0,0,-0.27146212144176496,0.0,0.0,0.0,0.0,0.0,0.0,-1.1526364364737303
806,0.0,0.0,0.0,0.0,0.0,0.0,-0.2739697429968304,0,0,0,0,0,0,-0.27057401598125486,0.0,0.0,0.0,0.0,0.0,0.0,-0.7012560038362466
807,0.0,0.0,0.0,0.0,0.0,0.0,-0.2731447897694279,0,0,0,0,0,0,-0.2698055027597303,0.0,0.0,0.0,0.0,0.0,0.0,-1.3265459152513581
808,0.0,0.0,0.0,0.0,0.0,0.0,-0.2713398148264563,0,0,0,0,0,0,-0.2677924020806657,0.0,0.0,0.0,0.0,0.0,0.0,-0.6054740949060949
809,0.0,0.0,0.0,0.0,0.0,0.0,-0.2706652158945211,0,0,0,0,0,0,-0.26639918936742585,0.0,0.0,0.0,0.0,0.0,0.0,-1.1539121579227234
810,0.0,0.0,0.0,0.0,0.0,0.0,-0.269907284886008,0,0,0,0,0,0,-0.2654021819652281,0.0,0.0,0.0,0.0,0.0,0.0,-0.6692779489500829
811,0.0,0.0,0.0,0.0,0.0,0.0,-0.2688403860165396,0,0,0,0,0,0,-0.26409871543397545,0.0,0.0,0.0,0.0,0.0,0.0,-0.808053812925189
812,0.0,0.0,0.0,0.0,0.0,0.0,-0.26718531230965237,0,0,0,0,0,0,-0.2619753652699269,0.0,0.0,0.0,0.0,0.0,0.0,-1.504005795679455
813,0.0,0.0,0.0,0.0,0.0,0.0,-0.2657531712339498,0,0,0,0,0,0,-0.2590966587701792,0.0,0.0,0.0,0.0,0.0,0.0,-0.6368434695592525
