EmanuelSamir/lab201_ws_projsamir/sawyer_dev/data/sawyer/sin_motion/test_joint1/validation_data_joint1.csv
,j1,j2,j3,j4,j5,j6,j7,jd1,jd2,jd3,jd4,jd5,jd6,jd7,e1,e2,e3,e4,e5,e6,e7
0,0.0,0.0,0.0,0.0,0.0,0.0,0.0,0.0,0.0,0.0,0.0,0.0,0.0,0.0,0.0,0.0,0.0,0.0,0.0,0.0,0.0
1,0.0020185546875,0.0,0.0,0.0,0.0,0.0,0.0,0.00012079285345104922,0.0,0.0,0.0,0.0,0.0,0.0,-0.264,0.0,0.0,0.0,0.0,0.0,0.0
2,0.0020185546875,0.0,0.0,0.0,0.0,0.0,0.0,0.0008540255351961551,0.0,0.0,0.0,0.0,0.0,0.0,-0.264,0.0,0.0,0.0,0.0,0.0,0.0
3,0.0020185546875,0.0,0.0,0.0,0.0,0.0,0.0,0.002331240457235282,0.0,0.0,0.0,0.0,0.0,0.0,-0.264,0.0,0.0,0.0,0.0,0.0,0.0
4,0.0020185546875,0.0,0.0,0.0,0.0,0.0,0.0,0.0038080862141403196,0.0,0.0,0.0,0.0,0.0,0.0,-0.264,0.0,0.0,0.0,0.0,0.0,0.0
5,0.0020185546875,0.0,0.0,0.0,0.0,0.0,0.0,0.005256461035433856,0.0,0.0,0.0,0.0,0.0,0.0,-0.316,0.0,0.0,0.0,0.0,0.0,0.0
6,0.0020185546875,0.0,0.0,0.0,0.0,0.0,0.0,0.006703254568789291,0.0,0.0,0.0,0.0,0.0,0.0,-0.264,0.0,0.0,0.0,0.0,0.0,0.0
7,0.0020185546875,0.0,0.0,0.0,0.0,0.0,0.0,0.008162533018614209,0.0,0.0,0.0,0.0,0.0,0.0,0.528,0.0,0.0,0.0,0.0,0.0,0.0
8,0.002224609375,0.0,0.0,0.0,0.0,0.0,0.0,0.009610854182572777,0.0,0.0,0.0,0.0,0.0,0.0,3.508,0.0,0.0,0.0,0.0,0.0,0.0
9,0.0024306640625,0.0,0.0,0.0,0.0,0.0,0.0,0.011082836360090234,0.0,0.0,0.0,0.0,0.0,0.0,5.104,0.0,0.0,0.0,0.0,0.0,0.0
10,0.0027392578125,0.0,0.0,0.0,0.0,0.0,0.0,0.01253636328423059,0.0,0.0,0.0,0.0,0.0,0.0,6.112,0.0,0.0,0.0,0.0,0.0,0.0
11,0.00325390625,0.0,0.0,0.0,0.0,0.0,0.0,0.01400691210910634,0.0,0.0,0.0,0.0,0.0,0.0,7.496,0.0,0.0,0.0,0.0,0.0,0.0
12,0.00398046875,0.0,0.0,0.0,0.0,0.0,0.0,0.015437676190189936,0.0,0.0,0.0,0.0,0.0,0.0,8.612,0.0,0.0,0.0,0.0,0.0,0.0
13,0.0048037109375,0.0,0.0,0.0,0.0,0.0,0.0,0.016898923679271895,0.0,0.0,0.0,0.0,0.0,0.0,8.504,0.0,0.0,0.0,0.0,0.0,0.0
14,0.005935546875,0.0,0.0,0.0,0.0,0.0,0.0,0.018357480496219984,0.0,0.0,0.0,0.0,0.0,0.0,8.504,0.0,0.0,0.0,0.0,0.0,0.0
15,0.00707421875,0.0,0.0,0.0,0.0,0.0,0.0,0.019800869372200307,0.0,0.0,0.0,0.0,0.0,0.0,7.708,0.0,0.0,0.0,0.0,0.0,0.0
16,0.0086171875,0.0,0.0,0.0,0.0,0.0,0.0,0.021260119710893588,0.0,0.0,0.0,0.0,0.0,0.0,7.44,0.0,0.0,0.0,0.0,0.0,0.0
17,0.0101611328125,0.0,0.0,0.0,0.0,0.0,0.0,0.022722190178867712,0.0,0.0,0.0,0.0,0.0,0.0,6.484,0.0,0.0,0.0,0.0,0.0,0.0
18,0.0119169921875,0.0,0.0,0.0,0.0,0.0,0.0,0.024166265751397818,0.0,0.0,0.0,0.0,0.0,0.0,6.06,0.0,0.0,0.0,0.0,0.0,0.0
19,0.0137763671875,0.0,0.0,0.0,0.0,0.0,0.0,0.025610816347943308,0.0,0.0,0.0,0.0,0.0,0.0,4.732,0.0,0.0,0.0,0.0,0.0,0.0
20,0.015833984375,0.0,0.0,0.0,0.0,0.0,0.0,0.02706462971541456,0.0,0.0,0.0,0.0,0.0,0.0,4.624,0.0,0.0,0.0,0.0,0.0,0.0
21,0.018001953125,0.0,0.0,0.0,0.0,0.0,0.0,0.02851043632148894,0.0,0.0,0.0,0.0,0.0,0.0,3.828,0.0,0.0,0.0,0.0,0.0,0.0
22,0.0200595703125,0.0,0.0,0.0,0.0,0.0,0.0,0.029962350116547208,0.0,0.0,0.0,0.0,0.0,0.0,2.764,0.0,0.0,0.0,0.0,0.0,0.0
23,0.022330078125,0.0,0.0,0.0,0.0,0.0,0.0,0.03140588536757515,0.0,0.0,0.0,0.0,0.0,0.0,2.656,0.0,0.0,0.0,0.0,0.0,0.0
24,0.0246005859375,0.0,0.0,0.0,0.0,0.0,0.0,0.03286246387748299,0.0,0.0,0.0,0.0,0.0,0.0,1.06,0.0,0.0,0.0,0.0,0.0,0.0
25,0.0268642578125,0.0,0.0,0.0,0.0,0.0,0.0,0.03430852617185122,0.0,0.0,0.0,0.0,0.0,0.0,0.212,0.0,0.0,0.0,0.0,0.0,0.0
26,0.02923828125,0.0,0.0,0.0,0.0,0.0,0.0,0.03576102471644651,0.0,0.0,0.0,0.0,0.0,0.0,-0.476,0.0,0.0,0.0,0.0,0.0,0.0
27,0.0314052734375,0.0,0.0,0.0,0.0,0.0,0.0,0.03722670353008542,0.0,0.0,0.0,0.0,0.0,0.0,-0.848,0.0,0.0,0.0,0.0,0.0,0.0
28,0.03367578125,0.0,0.0,0.0,0.0,0.0,0.0,0.03865162097512025,0.0,0.0,0.0,0.0,0.0,0.0,-1.38,0.0,0.0,0.0,0.0,0.0,0.0
29,0.035734375,0.0,0.0,0.0,0.0,0.0,0.0,0.040091937209120104,0.0,0.0,0.0,0.0,0.0,0.0,-2.496,0.0,0.0,0.0,0.0,0.0,0.0
30,0.037798828125,0.0,0.0,0.0,0.0,0.0,0.0,0.041533652731827395,0.0,0.0,0.0,0.0,0.0,0.0,-4.04,0.0,0.0,0.0,0.0,0.0,0.0
31,0.0399599609375,0.0,0.0,0.0,0.0,0.0,0.0,0.04297724467523549,0.0,0.0,0.0,0.0,0.0,0.0,-1.804,0.0,0.0,0.0,0.0,0.0,0.0
32,0.0417158203125,0.0,0.0,0.0,0.0,0.0,0.0,0.044422295080836005,0.0,0.0,0.0,0.0,0.0,0.0,-2.656,0.0,0.0,0.0,0.0,0.0,0.0
33,0.04346484375,0.0,0.0,0.0,0.0,0.0,0.0,0.045862378596001396,0.0,0.0,0.0,0.0,0.0,0.0,-4.624,0.0,0.0,0.0,0.0,0.0,0.0
34,0.0453173828125,0.0,0.0,0.0,0.0,0.0,0.0,0.047306286586951095,0.0,0.0,0.0,0.0,0.0,0.0,-3.348,0.0,0.0,0.0,0.0,0.0,0.0
35,0.0468671875,0.0,0.0,0.0,0.0,0.0,0.0,0.048733851786541646,0.0,0.0,0.0,0.0,0.0,0.0,-3.028,0.0,0.0,0.0,0.0,0.0,0.0
36,0.04830859375,0.0,0.0,0.0,0.0,0.0,0.0,0.05017045711227545,0.0,0.0,0.0,0.0,0.0,0.0,-4.092,0.0,0.0,0.0,0.0,0.0,0.0
37,0.0498583984375,0.0,0.0,0.0,0.0,0.0,0.0,0.05172890588159776,0.0,0.0,0.0,0.0,0.0,0.0,-2.604,0.0,0.0,0.0,0.0,0.0,0.0
38,0.0511962890625,0.0,0.0,0.0,0.0,0.0,0.0,0.053050138861009254,0.0,0.0,0.0,0.0,0.0,0.0,-1.276,0.0,0.0,0.0,0.0,0.0,0.0
39,0.0525341796875,0.0,0.0,0.0,0.0,0.0,0.0,0.05448353008252565,0.0,0.0,0.0,0.0,0.0,0.0,-2.444,0.0,0.0,0.0,0.0,0.0,0.0
40,0.053775390625,0.0,0.0,0.0,0.0,0.0,0.0,0.05591048231521726,0.0,0.0,0.0,0.0,0.0,0.0,-2.284,0.0,0.0,0.0,0.0,0.0,0.0
41,0.055009765625,0.0,0.0,0.0,0.0,0.0,0.0,0.05734485490114944,0.0,0.0,0.0,0.0,0.0,0.0,-1.328,0.0,0.0,0.0,0.0,0.0,0.0
42,0.0559365234375,0.0,0.0,0.0,0.0,0.0,0.0,0.05877613070473746,0.0,0.0,0.0,0.0,0.0,0.0,-3.136,0.0,0.0,0.0,0.0,0.0,0.0
43,0.05707421875,0.0,0.0,0.0,0.0,0.0,0.0,0.06020016278649985,0.0,0.0,0.0,0.0,0.0,0.0,-1.54,0.0,0.0,0.0,0.0,0.0,0.0
44,0.0583095703125,0.0,0.0,0.0,0.0,0.0,0.0,0.06163192882786026,0.0,0.0,0.0,0.0,0.0,0.0,0.584,0.0,0.0,0.0,0.0,0.0,0.0
45,0.0590302734375,0.0,0.0,0.0,0.0,0.0,0.0,0.06305098845498296,0.0,0.0,0.0,0.0,0.0,0.0,-0.848,0.0,0.0,0.0,0.0,0.0,0.0
46,0.06016796875,0.0,0.0,0.0,0.0,0.0,0.0,0.06447708978665558,0.0,0.0,0.0,0.0,0.0,0.0,-0.264,0.0,0.0,0.0,0.0,0.0,0.0
47,0.0610947265625,0.0,0.0,0.0,0.0,0.0,0.0,0.06593437049558536,0.0,0.0,0.0,0.0,0.0,0.0,1.488,0.0,0.0,0.0,0.0,0.0,0.0
48,0.0620205078125,0.0,0.0,0.0,0.0,0.0,0.0,0.06732014438075055,0.0,0.0,0.0,0.0,0.0,0.0,2.232,0.0,0.0,0.0,0.0,0.0,0.0
49,0.0631591796875,0.0,0.0,0.0,0.0,0.0,0.0,0.0687398810757122,0.0,0.0,0.0,0.0,0.0,0.0,1.328,0.0,0.0,0.0,0.0,0.0,0.0
50,0.0640849609375,0.0,0.0,0.0,0.0,0.0,0.0,0.07016012276578777,0.0,0.0,0.0,0.0,0.0,0.0,1.804,0.0,0.0,0.0,0.0,0.0,0.0
51,0.0651142578125,0.0,0.0,0.0,0.0,0.0,0.0,0.07157654379671952,0.0,0.0,0.0,0.0,0.0,0.0,1.86,0.0,0.0,0.0,0.0,0.0,0.0
52,0.0662529296875,0.0,0.0,0.0,0.0,0.0,0.0,0.07298706288653893,0.0,0.0,0.0,0.0,0.0,0.0,2.924,0.0,0.0,0.0,0.0,0.0,0.0
53,0.0672822265625,0.0,0.0,0.0,0.0,0.0,0.0,0.07439997501436464,0.0,0.0,0.0,0.0,0.0,0.0,2.124,0.0,0.0,0.0,0.0,0.0,0.0
54,0.0685166015625,0.0,0.0,0.0,0.0,0.0,0.0,0.07581392074922598,0.0,0.0,0.0,0.0,0.0,0.0,2.444,0.0,0.0,0.0,0.0,0.0,0.0
55,0.0697578125,0.0,0.0,0.0,0.0,0.0,0.0,0.07721794583723178,0.0,0.0,0.0,0.0,0.0,0.0,2.552,0.0,0.0,0.0,0.0,0.0,0.0
56,0.0709931640625,0.0,0.0,0.0,0.0,0.0,0.0,0.0786243527115016,0.0,0.0,0.0,0.0,0.0,0.0,3.56,0.0,0.0,0.0,0.0,0.0,0.0
57,0.0722275390625,0.0,0.0,0.0,0.0,0.0,0.0,0.08012988228045555,0.0,0.0,0.0,0.0,0.0,0.0,3.24,0.0,0.0,0.0,0.0,0.0,0.0
58,0.073572265625,0.0,0.0,0.0,0.0,0.0,0.0,0.08143438305662186,0.0,0.0,0.0,0.0,0.0,0.0,1.86,0.0,0.0,0.0,0.0,0.0,0.0
59,0.0750126953125,0.0,0.0,0.0,0.0,0.0,0.0,0.08283415954046817,0.0,0.0,0.0,0.0,0.0,0.0,1.804,0.0,0.0,0.0,0.0,0.0,0.0
60,0.0764599609375,0.0,0.0,0.0,0.0,0.0,0.0,0.08423642114762576,0.0,0.0,0.0,0.0,0.0,0.0,2.868,0.0,0.0,0.0,0.0,0.0,0.0
61,0.07800390625,0.0,0.0,0.0,0.0,0.0,0.0,0.08563002861615983,0.0,0.0,0.0,0.0,0.0,0.0,2.552,0.0,0.0,0.0,0.0,0.0,0.0
62,0.079451171875,0.0,0.0,0.0,0.0,0.0,0.0,0.08702887501846668,0.0,0.0,0.0,0.0,0.0,0.0,1.964,0.0,0.0,0.0,0.0,0.0,0.0
63,0.08109765625,0.0,0.0,0.0,0.0,0.0,0.0,0.08842130957507076,0.0,0.0,0.0,0.0,0.0,0.0,2.232,0.0,0.0,0.0,0.0,0.0,0.0
64,0.0826474609375,0.0,0.0,0.0,0.0,0.0,0.0,0.08981699784180669,0.0,0.0,0.0,0.0,0.0,0.0,1.752,0.0,0.0,0.0,0.0,0.0,0.0
65,0.0842939453125,0.0,0.0,0.0,0.0,0.0,0.0,0.09120036035688735,0.0,0.0,0.0,0.0,0.0,0.0,1.648,0.0,0.0,0.0,0.0,0.0,0.0
66,0.0860498046875,0.0,0.0,0.0,0.0,0.0,0.0,0.09258690967939888,0.0,0.0,0.0,0.0,0.0,0.0,1.168,0.0,0.0,0.0,0.0,0.0,0.0
67,0.0876962890625,0.0,0.0,0.0,0.0,0.0,0.0,0.09401149301178999,0.0,0.0,0.0,0.0,0.0,0.0,-0.156,0.0,0.0,0.0,0.0,0.0,0.0
68,0.089349609375,0.0,0.0,0.0,0.0,0.0,0.0,0.09535253864624349,0.0,0.0,0.0,0.0,0.0,0.0,-0.528,0.0,0.0,0.0,0.0,0.0,0.0
69,0.09099609375,0.0,0.0,0.0,0.0,0.0,0.0,0.09673737662570274,0.0,0.0,0.0,0.0,0.0,0.0,-0.052,0.0,0.0,0.0,0.0,0.0,0.0
70,0.0926484375,0.0,0.0,0.0,0.0,0.0,0.0,0.09811207148234762,0.0,0.0,0.0,0.0,0.0,0.0,-0.212,0.0,0.0,0.0,0.0,0.0,0.0
71,0.0943984375,0.0,0.0,0.0,0.0,0.0,0.0,0.09949370576235626,0.0,0.0,0.0,0.0,0.0,0.0,0.0,0.0,0.0,0.0,0.0,0.0,0.0
72,0.0959482421875,0.0,0.0,0.0,0.0,0.0,0.0,0.1008646953804012,0.0,0.0,0.0,0.0,0.0,0.0,-0.528,0.0,0.0,0.0,0.0,0.0,0.0
73,0.0974921875,0.0,0.0,0.0,0.0,0.0,0.0,0.10223785398231817,0.0,0.0,0.0,0.0,0.0,0.0,-1.116,0.0,0.0,0.0,0.0,0.0,0.0
74,0.0990419921875,0.0,0.0,0.0,0.0,0.0,0.0,0.10361407070088663,0.0,0.0,0.0,0.0,0.0,0.0,-0.212,0.0,0.0,0.0,0.0,0.0,0.0
75,0.100482421875,0.0,0.0,0.0,0.0,0.0,0.0,0.10497496116955891,0.0,0.0,0.0,0.0,0.0,0.0,-0.156,0.0,0.0,0.0,0.0,0.0,0.0
76,0.102033203125,0.0,0.0,0.0,0.0,0.0,0.0,0.10634268516323554,0.0,0.0,0.0,0.0,0.0,0.0,-0.372,0.0,0.0,0.0,0.0,0.0,0.0
77,0.103576171875,0.0,0.0,0.0,0.0,0.0,0.0,0.10770733458390964,0.0,0.0,0.0,0.0,0.0,0.0,-0.476,0.0,0.0,0.0,0.0,0.0,0.0
78,0.1049208984375,0.0,0.0,0.0,0.0,0.0,0.0,0.10914298811983673,0.0,0.0,0.0,0.0,0.0,0.0,-1.22,0.0,0.0,0.0,0.0,0.0,0.0
79,0.1062587890625,0.0,0.0,0.0,0.0,0.0,0.0,0.11041185249689227,0.0,0.0,0.0,0.0,0.0,0.0,-2.232,0.0,0.0,0.0,0.0,0.0,0.0
80,0.1075,0.0,0.0,0.0,0.0,0.0,0.0,0.11177080829139299,0.0,0.0,0.0,0.0,0.0,0.0,-2.816,0.0,0.0,0.0,0.0,0.0,0.0
81,0.1089404296875,0.0,0.0,0.0,0.0,0.0,0.0,0.11313251164578385,0.0,0.0,0.0,0.0,0.0,0.0,0.104,0.0,0.0,0.0,0.0,0.0,0.0
82,0.1102783203125,0.0,0.0,0.0,0.0,0.0,0.0,0.114466006456277,0.0,0.0,0.0,0.0,0.0,0.0,1.328,0.0,0.0,0.0,0.0,0.0,0.0
83,0.11151953125,0.0,0.0,0.0,0.0,0.0,0.0,0.11581612025877253,0.0,0.0,0.0,0.0,0.0,0.0,0.052,0.0,0.0,0.0,0.0,0.0,0.0
84,0.1127548828125,0.0,0.0,0.0,0.0,0.0,0.0,0.11716965558164934,0.0,0.0,0.0,0.0,0.0,0.0,-0.796,0.0,0.0,0.0,0.0,0.0,0.0
85,0.11399609375,0.0,0.0,0.0,0.0,0.0,0.0,0.11848837127014401,0.0,0.0,0.0,0.0,0.0,0.0,-0.528,0.0,0.0,0.0,0.0,0.0,0.0
86,0.1151279296875,0.0,0.0,0.0,0.0,0.0,0.0,0.11983912739216203,0.0,0.0,0.0,0.0,0.0,0.0,-0.528,0.0,0.0,0.0,0.0,0.0,0.0
87,0.11636328125,0.0,0.0,0.0,0.0,0.0,0.0,0.12118296286749296,0.0,0.0,0.0,0.0,0.0,0.0,-0.528,0.0,0.0,0.0,0.0,0.0,0.0
88,0.1176044921875,0.0,0.0,0.0,0.0,0.0,0.0,0.12251289502944944,0.0,0.0,0.0,0.0,0.0,0.0,0.9,0.0,0.0,0.0,0.0,0.0,0.0
89,0.1188388671875,0.0,0.0,0.0,0.0,0.0,0.0,0.12382507173016072,0.0,0.0,0.0,0.0,0.0,0.0,1.752,0.0,0.0,0.0,0.0,0.0,0.0
90,0.119970703125,0.0,0.0,0.0,0.0,0.0,0.0,0.12515902650772642,0.0,0.0,0.0,0.0,0.0,0.0,0.424,0.0,0.0,0.0,0.0,0.0,0.0
91,0.121212890625,0.0,0.0,0.0,0.0,0.0,0.0,0.12649830827429492,0.0,0.0,0.0,0.0,0.0,0.0,0.9,0.0,0.0,0.0,0.0,0.0,0.0
92,0.122447265625,0.0,0.0,0.0,0.0,0.0,0.0,0.1277939549077953,0.0,0.0,0.0,0.0,0.0,0.0,1.432,0.0,0.0,0.0,0.0,0.0,0.0
93,0.123482421875,0.0,0.0,0.0,0.0,0.0,0.0,0.12911902720939342,0.0,0.0,0.0,0.0,0.0,0.0,0.796,0.0,0.0,0.0,0.0,0.0,0.0
94,0.1248203125,0.0,0.0,0.0,0.0,0.0,0.0,0.1304454886810156,0.0,0.0,0.0,0.0,0.0,0.0,1.116,0.0,0.0,0.0,0.0,0.0,0.0
95,0.1260556640625,0.0,0.0,0.0,0.0,0.0,0.0,0.13173516734360174,0.0,0.0,0.0,0.0,0.0,0.0,2.072,0.0,0.0,0.0,0.0,0.0,0.0
96,0.1271943359375,0.0,0.0,0.0,0.0,0.0,0.0,0.13304232572318225,0.0,0.0,0.0,0.0,0.0,0.0,0.636,0.0,0.0,0.0,0.0,0.0,0.0
97,0.1284287109375,0.0,0.0,0.0,0.0,0.0,0.0,0.13435551073554164,0.0,0.0,0.0,0.0,0.0,0.0,0.212,0.0,0.0,0.0,0.0,0.0,0.0
98,0.1297734375,0.0,0.0,0.0,0.0,0.0,0.0,0.13565894543794865,0.0,0.0,0.0,0.0,0.0,0.0,1.488,0.0,0.0,0.0,0.0,0.0,0.0
99,0.1309052734375,0.0,0.0,0.0,0.0,0.0,0.0,0.13694686705017048,0.0,0.0,0.0,0.0,0.0,0.0,0.636,0.0,0.0,0.0,0.0,0.0,0.0
100,0.1322431640625,0.0,0.0,0.0,0.0,0.0,0.0,0.1382533139930902,0.0,0.0,0.0,0.0,0.0,0.0,2.124,0.0,0.0,0.0,0.0,0.0,0.0
101,0.133484375,0.0,0.0,0.0,0.0,0.0,0.0,0.13954912128412364,0.0,0.0,0.0,0.0,0.0,0.0,1.54,0.0,0.0,0.0,0.0,0.0,0.0
102,0.13471875,0.0,0.0,0.0,0.0,0.0,0.0,0.14081983553371075,0.0,0.0,0.0,0.0,0.0,0.0,1.648,0.0,0.0,0.0,0.0,0.0,0.0
103,0.1360634765625,0.0,0.0,0.0,0.0,0.0,0.0,0.14212097298979767,0.0,0.0,0.0,0.0,0.0,0.0,0.688,0.0,0.0,0.0,0.0,0.0,0.0
104,0.137298828125,0.0,0.0,0.0,0.0,0.0,0.0,0.14341787919301469,0.0,0.0,0.0,0.0,0.0,0.0,1.592,0.0,0.0,0.0,0.0,0.0,0.0
105,0.1387451171875,0.0,0.0,0.0,0.0,0.0,0.0,0.14466780124664577,0.0,0.0,0.0,0.0,0.0,0.0,0.9,0.0,0.0,0.0,0.0,0.0,0.0
106,0.13998046875,0.0,0.0,0.0,0.0,0.0,0.0,0.1459410796941255,0.0,0.0,0.0,0.0,0.0,0.0,0.744,0.0,0.0,0.0,0.0,0.0,0.0
107,0.141318359375,0.0,0.0,0.0,0.0,0.0,0.0,0.14722690590796556,0.0,0.0,0.0,0.0,0.0,0.0,0.796,0.0,0.0,0.0,0.0,0.0,0.0
108,0.142765625,0.0,0.0,0.0,0.0,0.0,0.0,0.1484824645700575,0.0,0.0,0.0,0.0,0.0,0.0,1.22,0.0,0.0,0.0,0.0,0.0,0.0
109,0.144,0.0,0.0,0.0,0.0,0.0,0.0,0.14974849580826,0.0,0.0,0.0,0.0,0.0,0.0,-0.212,0.0,0.0,0.0,0.0,0.0,0.0
110,0.145447265625,0.0,0.0,0.0,0.0,0.0,0.0,0.1510033002898736,0.0,0.0,0.0,0.0,0.0,0.0,-0.264,0.0,0.0,0.0,0.0,0.0,0.0
111,0.14678515625,0.0,0.0,0.0,0.0,0.0,0.0,0.15228280328695465,0.0,0.0,0.0,0.0,0.0,0.0,1.168,0.0,0.0,0.0,0.0,0.0,0.0
112,0.1481298828125,0.0,0.0,0.0,0.0,0.0,0.0,0.15352679999340954,0.0,0.0,0.0,0.0,0.0,0.0,1.38,0.0,0.0,0.0,0.0,0.0,0.0
113,0.1494677734375,0.0,0.0,0.0,0.0,0.0,0.0,0.15476175440578788,0.0,0.0,0.0,0.0,0.0,0.0,0.0,0.0,0.0,0.0,0.0,0.0,0.0
114,0.1508046875,0.0,0.0,0.0,0.0,0.0,0.0,0.15602261147131136,0.0,0.0,0.0,0.0,0.0,0.0,-0.212,0.0,0.0,0.0,0.0,0.0,0.0
115,0.152251953125,0.0,0.0,0.0,0.0,0.0,0.0,0.15726422955007288,0.0,0.0,0.0,0.0,0.0,0.0,0.156,0.0,0.0,0.0,0.0,0.0,0.0
116,0.15358984375,0.0,0.0,0.0,0.0,0.0,0.0,0.15849173196308,0.0,0.0,0.0,0.0,0.0,0.0,0.528,0.0,0.0,0.0,0.0,0.0,0.0
117,0.1548310546875,0.0,0.0,0.0,0.0,0.0,0.0,0.1597327090536315,0.0,0.0,0.0,0.0,0.0,0.0,-1.116,0.0,0.0,0.0,0.0,0.0,0.0
118,0.1561689453125,0.0,0.0,0.0,0.0,0.0,0.0,0.1609606484350457,0.0,0.0,0.0,0.0,0.0,0.0,-0.584,0.0,0.0,0.0,0.0,0.0,0.0
119,0.157513671875,0.0,0.0,0.0,0.0,0.0,0.0,0.1621873845241016,0.0,0.0,0.0,0.0,0.0,0.0,0.264,0.0,0.0,0.0,0.0,0.0,0.0
120,0.158748046875,0.0,0.0,0.0,0.0,0.0,0.0,0.16340898957680447,0.0,0.0,0.0,0.0,0.0,0.0,0.264,0.0,0.0,0.0,0.0,0.0,0.0
121,0.1599833984375,0.0,0.0,0.0,0.0,0.0,0.0,0.16463099431485123,0.0,0.0,0.0,0.0,0.0,0.0,0.528,0.0,0.0,0.0,0.0,0.0,0.0
122,0.161224609375,0.0,0.0,0.0,0.0,0.0,0.0,0.16584777114381918,0.0,0.0,0.0,0.0,0.0,0.0,-0.636,0.0,0.0,0.0,0.0,0.0,0.0
123,0.1623564453125,0.0,0.0,0.0,0.0,0.0,0.0,0.16705797680132298,0.0,0.0,0.0,0.0,0.0,0.0,-0.316,0.0,0.0,0.0,0.0,0.0,0.0
124,0.16359765625,0.0,0.0,0.0,0.0,0.0,0.0,0.16827135874339322,0.0,0.0,0.0,0.0,0.0,0.0,0.476,0.0,0.0,0.0,0.0,0.0,0.0
125,0.1647294921875,0.0,0.0,0.0,0.0,0.0,0.0,0.16947448842748672,0.0,0.0,0.0,0.0,0.0,0.0,1.22,0.0,0.0,0.0,0.0,0.0,0.0
126,0.16596484375,0.0,0.0,0.0,0.0,0.0,0.0,0.17067122808464827,0.0,0.0,0.0,0.0,0.0,0.0,-0.156,0.0,0.0,0.0,0.0,0.0,0.0
127,0.1672060546875,0.0,0.0,0.0,0.0,0.0,0.0,0.17187304888525004,0.0,0.0,0.0,0.0,0.0,0.0,0.0,0.0,0.0,0.0,0.0,0.0,0.0
128,0.168337890625,0.0,0.0,0.0,0.0,0.0,0.0,0.17306090243510283,0.0,0.0,0.0,0.0,0.0,0.0,0.156,0.0,0.0,0.0,0.0,0.0,0.0
129,0.1693671875,0.0,0.0,0.0,0.0,0.0,0.0,0.17424826666592888,0.0,0.0,0.0,0.0,0.0,0.0,-0.424,0.0,0.0,0.0,0.0,0.0,0.0
130,0.1706083984375,0.0,0.0,0.0,0.0,0.0,0.0,0.17542820043798038,0.0,0.0,0.0,0.0,0.0,0.0,0.212,0.0,0.0,0.0,0.0,0.0,0.0
131,0.17184375,0.0,0.0,0.0,0.0,0.0,0.0,0.1766164090246051,0.0,0.0,0.0,0.0,0.0,0.0,0.9,0.0,0.0,0.0,0.0,0.0,0.0
132,0.17287890625,0.0,0.0,0.0,0.0,0.0,0.0,0.17778886376862188,0.0,0.0,0.0,0.0,0.0,0.0,0.636,0.0,0.0,0.0,0.0,0.0,0.0
133,0.1741142578125,0.0,0.0,0.0,0.0,0.0,0.0,0.17896127443685692,0.0,0.0,0.0,0.0,0.0,0.0,0.476,0.0,0.0,0.0,0.0,0.0,0.0
134,0.17524609375,0.0,0.0,0.0,0.0,0.0,0.0,0.18012884597821424,0.0,0.0,0.0,0.0,0.0,0.0,0.424,0.0,0.0,0.0,0.0,0.0,0.0
135,0.176384765625,0.0,0.0,0.0,0.0,0.0,0.0,0.1812900904805457,0.0,0.0,0.0,0.0,0.0,0.0,0.636,0.0,0.0,0.0,0.0,0.0,0.0
136,0.1775166015625,0.0,0.0,0.0,0.0,0.0,0.0,0.18245876449086648,0.0,0.0,0.0,0.0,0.0,0.0,1.06,0.0,0.0,0.0,0.0,0.0,0.0
137,0.1786484375,0.0,0.0,0.0,0.0,0.0,0.0,0.18360852707276412,0.0,0.0,0.0,0.0,0.0,0.0,0.424,0.0,0.0,0.0,0.0,0.0,0.0
138,0.179787109375,0.0,0.0,0.0,0.0,0.0,0.0,0.18475913925854315,0.0,0.0,0.0,0.0,0.0,0.0,-1.06,0.0,0.0,0.0,0.0,0.0,0.0
139,0.1809189453125,0.0,0.0,0.0,0.0,0.0,0.0,0.18592213038415242,0.0,0.0,0.0,0.0,0.0,0.0,0.156,0.0,0.0,0.0,0.0,0.0,0.0
140,0.1820576171875,0.0,0.0,0.0,0.0,0.0,0.0,0.18704456158650618,0.0,0.0,0.0,0.0,0.0,0.0,0.9,0.0,0.0,0.0,0.0,0.0,0.0
141,0.183189453125,0.0,0.0,0.0,0.0,0.0,0.0,0.18818580493395923,0.0,0.0,0.0,0.0,0.0,0.0,0.688,0.0,0.0,0.0,0.0,0.0,0.0
142,0.1843212890625,0.0,0.0,0.0,0.0,0.0,0.0,0.18931564970655945,0.0,0.0,0.0,0.0,0.0,0.0,0.212,0.0,0.0,0.0,0.0,0.0,0.0
143,0.1853564453125,0.0,0.0,0.0,0.0,0.0,0.0,0.19044725048010006,0.0,0.0,0.0,0.0,0.0,0.0,0.796,0.0,0.0,0.0,0.0,0.0,0.0
144,0.18648828125,0.0,0.0,0.0,0.0,0.0,0.0,0.19158173591830419,0.0,0.0,0.0,0.0,0.0,0.0,1.328,0.0,0.0,0.0,0.0,0.0,0.0
145,0.187517578125,0.0,0.0,0.0,0.0,0.0,0.0,0.19268669154487725,0.0,0.0,0.0,0.0,0.0,0.0,1.54,0.0,0.0,0.0,0.0,0.0,0.0
146,0.18865625,0.0,0.0,0.0,0.0,0.0,0.0,0.19380304739599266,0.0,0.0,0.0,0.0,0.0,0.0,1.06,0.0,0.0,0.0,0.0,0.0,0.0
147,0.1897880859375,0.0,0.0,0.0,0.0,0.0,0.0,0.19491579350715282,0.0,0.0,0.0,0.0,0.0,0.0,1.54,0.0,0.0,0.0,0.0,0.0,0.0
148,0.1909267578125,0.0,0.0,0.0,0.0,0.0,0.0,0.196016081170748,0.0,0.0,0.0,0.0,0.0,0.0,0.956,0.0,0.0,0.0,0.0,0.0,0.0
149,0.1919560546875,0.0,0.0,0.0,0.0,0.0,0.0,0.19711749627339561,0.0,0.0,0.0,0.0,0.0,0.0,0.316,0.0,0.0,0.0,0.0,0.0,0.0
150,0.193087890625,0.0,0.0,0.0,0.0,0.0,0.0,0.1982115174485811,0.0,0.0,0.0,0.0,0.0,0.0,0.636,0.0,0.0,0.0,0.0,0.0,0.0
151,0.194123046875,0.0,0.0,0.0,0.0,0.0,0.0,0.19949217909863107,0.0,0.0,0.0,0.0,0.0,0.0,0.316,0.0,0.0,0.0,0.0,0.0,0.0
152,0.19515234375,0.0,0.0,0.0,0.0,0.0,0.0,0.20038429270610378,0.0,0.0,0.0,0.0,0.0,0.0,-0.212,0.0,0.0,0.0,0.0,0.0,0.0
153,0.196181640625,0.0,0.0,0.0,0.0,0.0,0.0,0.20147268536886276,0.0,0.0,0.0,0.0,0.0,0.0,-1.008,0.0,0.0,0.0,0.0,0.0,0.0
154,0.1973203125,0.0,0.0,0.0,0.0,0.0,0.0,0.20256349540566024,0.0,0.0,0.0,0.0,0.0,0.0,1.804,0.0,0.0,0.0,0.0,0.0,0.0
155,0.1984521484375,0.0,0.0,0.0,0.0,0.0,0.0,0.2036215726470775,0.0,0.0,0.0,0.0,0.0,0.0,2.604,0.0,0.0,0.0,0.0,0.0,0.0
156,0.1993779296875,0.0,0.0,0.0,0.0,0.0,0.0,0.2047013880573232,0.0,0.0,0.0,0.0,0.0,0.0,1.008,0.0,0.0,0.0,0.0,0.0,0.0
157,0.2005166015625,0.0,0.0,0.0,0.0,0.0,0.0,0.20576471044898645,0.0,0.0,0.0,0.0,0.0,0.0,-0.104,0.0,0.0,0.0,0.0,0.0,0.0
158,0.2015458984375,0.0,0.0,0.0,0.0,0.0,0.0,0.20681408899916562,0.0,0.0,0.0,0.0,0.0,0.0,1.008,0.0,0.0,0.0,0.0,0.0,0.0
159,0.20257421875,0.0,0.0,0.0,0.0,0.0,0.0,0.2078693886500176,0.0,0.0,0.0,0.0,0.0,0.0,0.316,0.0,0.0,0.0,0.0,0.0,0.0
160,0.203712890625,0.0,0.0,0.0,0.0,0.0,0.0,0.20891161100964786,0.0,0.0,0.0,0.0,0.0,0.0,0.424,0.0,0.0,0.0,0.0,0.0,0.0
161,0.2048447265625,0.0,0.0,0.0,0.0,0.0,0.0,0.20996000353365618,0.0,0.0,0.0,0.0,0.0,0.0,1.54,0.0,0.0,0.0,0.0,0.0,0.0
162,0.2058740234375,0.0,0.0,0.0,0.0,0.0,0.0,0.21100181358647824,0.0,0.0,0.0,0.0,0.0,0.0,0.9,0.0,0.0,0.0,0.0,0.0,0.0
163,0.2070126953125,0.0,0.0,0.0,0.0,0.0,0.0,0.21203347564231903,0.0,0.0,0.0,0.0,0.0,0.0,0.264,0.0,0.0,0.0,0.0,0.0,0.0
164,0.20814453125,0.0,0.0,0.0,0.0,0.0,0.0,0.21305369472452232,0.0,0.0,0.0,0.0,0.0,0.0,0.0,0.0,0.0,0.0,0.0,0.0,0.0
165,0.2091796875,0.0,0.0,0.0,0.0,0.0,0.0,0.21407488091488153,0.0,0.0,0.0,0.0,0.0,0.0,-0.316,0.0,0.0,0.0,0.0,0.0,0.0
166,0.2104150390625,0.0,0.0,0.0,0.0,0.0,0.0,0.21510973326186433,0.0,0.0,0.0,0.0,0.0,0.0,1.328,0.0,0.0,0.0,0.0,0.0,0.0
167,0.2114443359375,0.0,0.0,0.0,0.0,0.0,0.0,0.2161163828038921,0.0,0.0,0.0,0.0,0.0,0.0,0.744,0.0,0.0,0.0,0.0,0.0,0.0
168,0.2124794921875,0.0,0.0,0.0,0.0,0.0,0.0,0.21712425621482254,0.0,0.0,0.0,0.0,0.0,0.0,-0.424,0.0,0.0,0.0,0.0,0.0,0.0
169,0.213611328125,0.0,0.0,0.0,0.0,0.0,0.0,0.2181235986724244,0.0,0.0,0.0,0.0,0.0,0.0,-1.328,0.0,0.0,0.0,0.0,0.0,0.0
170,0.214640625,0.0,0.0,0.0,0.0,0.0,0.0,0.21911992044974335,0.0,0.0,0.0,0.0,0.0,0.0,-0.052,0.0,0.0,0.0,0.0,0.0,0.0
171,0.21567578125,0.0,0.0,0.0,0.0,0.0,0.0,0.2201155497769078,0.0,0.0,0.0,0.0,0.0,0.0,0.372,0.0,0.0,0.0,0.0,0.0,0.0
172,0.2166025390625,0.0,0.0,0.0,0.0,0.0,0.0,0.22109985015060205,0.0,0.0,0.0,0.0,0.0,0.0,-0.212,0.0,0.0,0.0,0.0,0.0,0.0
173,0.2176318359375,0.0,0.0,0.0,0.0,0.0,0.0,0.2220838492810383,0.0,0.0,0.0,0.0,0.0,0.0,0.424,0.0,0.0,0.0,0.0,0.0,0.0
174,0.2186669921875,0.0,0.0,0.0,0.0,0.0,0.0,0.22306505287851938,0.0,0.0,0.0,0.0,0.0,0.0,1.38,0.0,0.0,0.0,0.0,0.0,0.0
175,0.2195927734375,0.0,0.0,0.0,0.0,0.0,0.0,0.22403704397984214,0.0,0.0,0.0,0.0,0.0,0.0,0.848,0.0,0.0,0.0,0.0,0.0,0.0
176,0.2206220703125,0.0,0.0,0.0,0.0,0.0,0.0,0.2250013570187814,0.0,0.0,0.0,0.0,0.0,0.0,0.052,0.0,0.0,0.0,0.0,0.0,0.0
177,0.2216640625,0.0,0.0,0.0,0.0,0.0,0.0,0.22601558682932194,0.0,0.0,0.0,0.0,0.0,0.0,0.156,0.0,0.0,0.0,0.0,0.0,0.0
178,0.22258984375,0.0,0.0,0.0,0.0,0.0,0.0,0.22691210644030113,0.0,0.0,0.0,0.0,0.0,0.0,-0.264,0.0,0.0,0.0,0.0,0.0,0.0
179,0.2235166015625,0.0,0.0,0.0,0.0,0.0,0.0,0.22785897228921703,0.0,0.0,0.0,0.0,0.0,0.0,0.052,0.0,0.0,0.0,0.0,0.0,0.0
180,0.22444921875,0.0,0.0,0.0,0.0,0.0,0.0,0.22881203023739474,0.0,0.0,0.0,0.0,0.0,0.0,0.476,0.0,0.0,0.0,0.0,0.0,0.0
181,0.225478515625,0.0,0.0,0.0,0.0,0.0,0.0,0.22975321015727385,0.0,0.0,0.0,0.0,0.0,0.0,1.648,0.0,0.0,0.0,0.0,0.0,0.0
182,0.226404296875,0.0,0.0,0.0,0.0,0.0,0.0,0.23067693687844223,0.0,0.0,0.0,0.0,0.0,0.0,1.22,0.0,0.0,0.0,0.0,0.0,0.0
183,0.2273369140625,0.0,0.0,0.0,0.0,0.0,0.0,0.23161561442276343,0.0,0.0,0.0,0.0,0.0,0.0,0.476,0.0,0.0,0.0,0.0,0.0,0.0
184,0.2282626953125,0.0,0.0,0.0,0.0,0.0,0.0,0.2325465168067716,0.0,0.0,0.0,0.0,0.0,0.0,0.156,0.0,0.0,0.0,0.0,0.0,0.0
185,0.229189453125,0.0,0.0,0.0,0.0,0.0,0.0,0.23345135625628927,0.0,0.0,0.0,0.0,0.0,0.0,0.156,0.0,0.0,0.0,0.0,0.0,0.0
186,0.2300126953125,0.0,0.0,0.0,0.0,0.0,0.0,0.23436864922803977,0.0,0.0,0.0,0.0,0.0,0.0,-0.316,0.0,0.0,0.0,0.0,0.0,0.0
187,0.2309453125,0.0,0.0,0.0,0.0,0.0,0.0,0.23528136646001582,0.0,0.0,0.0,0.0,0.0,0.0,0.424,0.0,0.0,0.0,0.0,0.0,0.0
188,0.231974609375,0.0,0.0,0.0,0.0,0.0,0.0,0.23618134896542248,0.0,0.0,0.0,0.0,0.0,0.0,0.796,0.0,0.0,0.0,0.0,0.0,0.0
189,0.232900390625,0.0,0.0,0.0,0.0,0.0,0.0,0.2370689203363524,0.0,0.0,0.0,0.0,0.0,0.0,0.372,0.0,0.0,0.0,0.0,0.0,0.0
190,0.2338330078125,0.0,0.0,0.0,0.0,0.0,0.0,0.23795906071270842,0.0,0.0,0.0,0.0,0.0,0.0,0.212,0.0,0.0,0.0,0.0,0.0,0.0
191,0.2347587890625,0.0,0.0,0.0,0.0,0.0,0.0,0.23885556921005024,0.0,0.0,0.0,0.0,0.0,0.0,0.584,0.0,0.0,0.0,0.0,0.0,0.0
192,0.2355830078125,0.0,0.0,0.0,0.0,0.0,0.0,0.23972360732812578,0.0,0.0,0.0,0.0,0.0,0.0,-0.052,0.0,0.0,0.0,0.0,0.0,0.0
193,0.236515625,0.0,0.0,0.0,0.0,0.0,0.0,0.24059650474281308,0.0,0.0,0.0,0.0,0.0,0.0,0.052,0.0,0.0,0.0,0.0,0.0,0.0
194,0.23744140625,0.0,0.0,0.0,0.0,0.0,0.0,0.24146760636682055,0.0,0.0,0.0,0.0,0.0,0.0,0.584,0.0,0.0,0.0,0.0,0.0,0.0
195,0.2383671875,0.0,0.0,0.0,0.0,0.0,0.0,0.24232454747219492,0.0,0.0,0.0,0.0,0.0,0.0,0.264,0.0,0.0,0.0,0.0,0.0,0.0
196,0.2392998046875,0.0,0.0,0.0,0.0,0.0,0.0,0.2431892229621125,0.0,0.0,0.0,0.0,0.0,0.0,-0.372,0.0,0.0,0.0,0.0,0.0,0.0
197,0.240123046875,0.0,0.0,0.0,0.0,0.0,0.0,0.2440585720883453,0.0,0.0,0.0,0.0,0.0,0.0,-0.052,0.0,0.0,0.0,0.0,0.0,0.0
198,0.2410498046875,0.0,0.0,0.0,0.0,0.0,0.0,0.24488038754805996,0.0,0.0,0.0,0.0,0.0,0.0,0.316,0.0,0.0,0.0,0.0,0.0,0.0
199,0.241873046875,0.0,0.0,0.0,0.0,0.0,0.0,0.24571363603879195,0.0,0.0,0.0,0.0,0.0,0.0,0.212,0.0,0.0,0.0,0.0,0.0,0.0
200,0.2427021484375,0.0,0.0,0.0,0.0,0.0,0.0,0.24654375828026584,0.0,0.0,0.0,0.0,0.0,0.0,-0.584,0.0,0.0,0.0,0.0,0.0,0.0
201,0.243525390625,0.0,0.0,0.0,0.0,0.0,0.0,0.24738538152468914,0.0,0.0,0.0,0.0,0.0,0.0,0.584,0.0,0.0,0.0,0.0,0.0,0.0
202,0.2443486328125,0.0,0.0,0.0,0.0,0.0,0.0,0.24819930524375777,0.0,0.0,0.0,0.0,0.0,0.0,0.688,0.0,0.0,0.0,0.0,0.0,0.0
203,0.2451787109375,0.0,0.0,0.0,0.0,0.0,0.0,0.24901478395994325,0.0,0.0,0.0,0.0,0.0,0.0,-0.264,0.0,0.0,0.0,0.0,0.0,0.0
204,0.246001953125,0.0,0.0,0.0,0.0,0.0,0.0,0.24983550605196853,0.0,0.0,0.0,0.0,0.0,0.0,0.052,0.0,0.0,0.0,0.0,0.0,0.0
205,0.24672265625,0.0,0.0,0.0,0.0,0.0,0.0,0.25062472244415723,0.0,0.0,0.0,0.0,0.0,0.0,0.688,0.0,0.0,0.0,0.0,0.0,0.0
206,0.2474423828125,0.0,0.0,0.0,0.0,0.0,0.0,0.25142008483994044,0.0,0.0,0.0,0.0,0.0,0.0,0.584,0.0,0.0,0.0,0.0,0.0,0.0
207,0.248169921875,0.0,0.0,0.0,0.0,0.0,0.0,0.2522243014548356,0.0,0.0,0.0,0.0,0.0,0.0,0.636,0.0,0.0,0.0,0.0,0.0,0.0
208,0.2488896484375,0.0,0.0,0.0,0.0,0.0,0.0,0.2530064966640763,0.0,0.0,0.0,0.0,0.0,0.0,1.276,0.0,0.0,0.0,0.0,0.0,0.0
209,0.2496103515625,0.0,0.0,0.0,0.0,0.0,0.0,0.25378806006969573,0.0,0.0,0.0,0.0,0.0,0.0,0.372,0.0,0.0,0.0,0.0,0.0,0.0
210,0.2503310546875,0.0,0.0,0.0,0.0,0.0,0.0,0.25455412675387906,0.0,0.0,0.0,0.0,0.0,0.0,0.052,0.0,0.0,0.0,0.0,0.0,0.0
211,0.25116015625,0.0,0.0,0.0,0.0,0.0,0.0,0.2553309829092665,0.0,0.0,0.0,0.0,0.0,0.0,0.688,0.0,0.0,0.0,0.0,0.0,0.0
212,0.25177734375,0.0,0.0,0.0,0.0,0.0,0.0,0.2560897701841721,0.0,0.0,0.0,0.0,0.0,0.0,0.956,0.0,0.0,0.0,0.0,0.0,0.0
213,0.252498046875,0.0,0.0,0.0,0.0,0.0,0.0,0.2568420460022372,0.0,0.0,0.0,0.0,0.0,0.0,1.168,0.0,0.0,0.0,0.0,0.0,0.0
214,0.253115234375,0.0,0.0,0.0,0.0,0.0,0.0,0.2575992907766847,0.0,0.0,0.0,0.0,0.0,0.0,0.688,0.0,0.0,0.0,0.0,0.0,0.0
215,0.2538359375,0.0,0.0,0.0,0.0,0.0,0.0,0.2583310704108964,0.0,0.0,0.0,0.0,0.0,0.0,1.276,0.0,0.0,0.0,0.0,0.0,0.0
216,0.254666015625,0.0,0.0,0.0,0.0,0.0,0.0,0.2590707739061395,0.0,0.0,0.0,0.0,0.0,0.0,1.54,0.0,0.0,0.0,0.0,0.0,0.0
217,0.255283203125,0.0,0.0,0.0,0.0,0.0,0.0,0.25980695679237525,0.0,0.0,0.0,0.0,0.0,0.0,1.7,0.0,0.0,0.0,0.0,0.0,0.0
218,0.2561064453125,0.0,0.0,0.0,0.0,0.0,0.0,0.2605276160750825,0.0,0.0,0.0,0.0,0.0,0.0,1.008,0.0,0.0,0.0,0.0,0.0,0.0
219,0.2567236328125,0.0,0.0,0.0,0.0,0.0,0.0,0.2612480180520862,0.0,0.0,0.0,0.0,0.0,0.0,1.328,0.0,0.0,0.0,0.0,0.0,0.0
220,0.2575537109375,0.0,0.0,0.0,0.0,0.0,0.0,0.261959818408019,0.0,0.0,0.0,0.0,0.0,0.0,1.328,0.0,0.0,0.0,0.0,0.0,0.0
221,0.2582734375,0.0,0.0,0.0,0.0,0.0,0.0,0.2626722943660538,0.0,0.0,0.0,0.0,0.0,0.0,1.168,0.0,0.0,0.0,0.0,0.0,0.0
222,0.258994140625,0.0,0.0,0.0,0.0,0.0,0.0,0.2633692789140968,0.0,0.0,0.0,0.0,0.0,0.0,0.688,0.0,0.0,0.0,0.0,0.0,0.0
223,0.25982421875,0.0,0.0,0.0,0.0,0.0,0.0,0.2640628716740427,0.0,0.0,0.0,0.0,0.0,0.0,0.744,0.0,0.0,0.0,0.0,0.0,0.0
224,0.2605439453125,0.0,0.0,0.0,0.0,0.0,0.0,0.2647521652137398,0.0,0.0,0.0,0.0,0.0,0.0,0.528,0.0,0.0,0.0,0.0,0.0,0.0
225,0.2613671875,0.0,0.0,0.0,0.0,0.0,0.0,0.26543616819992205,0.0,0.0,0.0,0.0,0.0,0.0,0.636,0.0,0.0,0.0,0.0,0.0,0.0
226,0.262087890625,0.0,0.0,0.0,0.0,0.0,0.0,0.26610753946510274,0.0,0.0,0.0,0.0,0.0,0.0,0.316,0.0,0.0,0.0,0.0,0.0,0.0
227,0.262814453125,0.0,0.0,0.0,0.0,0.0,0.0,0.2667834427919284,0.0,0.0,0.0,0.0,0.0,0.0,0.316,0.0,0.0,0.0,0.0,0.0,0.0
228,0.2636376953125,0.0,0.0,0.0,0.0,0.0,0.0,0.26744363210041905,0.0,0.0,0.0,0.0,0.0,0.0,0.584,0.0,0.0,0.0,0.0,0.0,0.0
229,0.2643583984375,0.0,0.0,0.0,0.0,0.0,0.0,0.2681017491588533,0.0,0.0,0.0,0.0,0.0,0.0,0.0,0.0,0.0,0.0,0.0,0.0,0.0
230,0.2650791015625,0.0,0.0,0.0,0.0,0.0,0.0,0.26875126604477895,0.0,0.0,0.0,0.0,0.0,0.0,0.104,0.0,0.0,0.0,0.0,0.0,0.0
231,0.2658056640625,0.0,0.0,0.0,0.0,0.0,0.0,0.2693966361543381,0.0,0.0,0.0,0.0,0.0,0.0,0.156,0.0,0.0,0.0,0.0,0.0,0.0
232,0.266525390625,0.0,0.0,0.0,0.0,0.0,0.0,0.2700340414270861,0.0,0.0,0.0,0.0,0.0,0.0,-0.372,0.0,0.0,0.0,0.0,0.0,0.0
233,0.26724609375,0.0,0.0,0.0,0.0,0.0,0.0,0.27066282535735164,0.0,0.0,0.0,0.0,0.0,0.0,0.424,0.0,0.0,0.0,0.0,0.0,0.0
234,0.267966796875,0.0,0.0,0.0,0.0,0.0,0.0,0.2712910210986894,0.0,0.0,0.0,0.0,0.0,0.0,0.212,0.0,0.0,0.0,0.0,0.0,0.0
235,0.268693359375,0.0,0.0,0.0,0.0,0.0,0.0,0.2719067677258174,0.0,0.0,0.0,0.0,0.0,0.0,-0.212,0.0,0.0,0.0,0.0,0.0,0.0
236,0.2694140625,0.0,0.0,0.0,0.0,0.0,0.0,0.2725195773605969,0.0,0.0,0.0,0.0,0.0,0.0,-0.052,0.0,0.0,0.0,0.0,0.0,0.0
237,0.27003125,0.0,0.0,0.0,0.0,0.0,0.0,0.27312908321895996,0.0,0.0,0.0,0.0,0.0,0.0,-0.104,0.0,0.0,0.0,0.0,0.0,0.0
238,0.2706484375,0.0,0.0,0.0,0.0,0.0,0.0,0.2737252892430728,0.0,0.0,0.0,0.0,0.0,0.0,-0.9,0.0,0.0,0.0,0.0,0.0,0.0
239,0.271265625,0.0,0.0,0.0,0.0,0.0,0.0,0.2743209883370399,0.0,0.0,0.0,0.0,0.0,0.0,-0.848,0.0,0.0,0.0,0.0,0.0,0.0
240,0.2719931640625,0.0,0.0,0.0,0.0,0.0,0.0,0.27490696005007725,0.0,0.0,0.0,0.0,0.0,0.0,0.476,0.0,0.0,0.0,0.0,0.0,0.0
241,0.2725078125,0.0,0.0,0.0,0.0,0.0,0.0,0.2754863505809877,0.0,0.0,0.0,0.0,0.0,0.0,0.156,0.0,0.0,0.0,0.0,0.0,0.0
242,0.273021484375,0.0,0.0,0.0,0.0,0.0,0.0,0.276059707577391,0.0,0.0,0.0,0.0,0.0,0.0,-0.9,0.0,0.0,0.0,0.0,0.0,0.0
243,0.2737421875,0.0,0.0,0.0,0.0,0.0,0.0,0.2766271769467572,0.0,0.0,0.0,0.0,0.0,0.0,-0.316,0.0,0.0,0.0,0.0,0.0,0.0
244,0.274154296875,0.0,0.0,0.0,0.0,0.0,0.0,0.2771891756024606,0.0,0.0,0.0,0.0,0.0,0.0,-0.104,0.0,0.0,0.0,0.0,0.0,0.0
245,0.2746748046875,0.0,0.0,0.0,0.0,0.0,0.0,0.2777428951971616,0.0,0.0,0.0,0.0,0.0,0.0,-0.316,0.0,0.0,0.0,0.0,0.0,0.0
246,0.275189453125,0.0,0.0,0.0,0.0,0.0,0.0,0.27828946048854986,0.0,0.0,0.0,0.0,0.0,0.0,-0.212,0.0,0.0,0.0,0.0,0.0,0.0
247,0.2757041015625,0.0,0.0,0.0,0.0,0.0,0.0,0.27883309796520783,0.0,0.0,0.0,0.0,0.0,0.0,1.008,0.0,0.0,0.0,0.0,0.0,0.0
248,0.27621875,0.0,0.0,0.0,0.0,0.0,0.0,0.27936520428764394,0.0,0.0,0.0,0.0,0.0,0.0,0.796,0.0,0.0,0.0,0.0,0.0,0.0
249,0.2766298828125,0.0,0.0,0.0,0.0,0.0,0.0,0.27989245090865705,0.0,0.0,0.0,0.0,0.0,0.0,0.264,0.0,0.0,0.0,0.0,0.0,0.0
250,0.27714453125,0.0,0.0,0.0,0.0,0.0,0.0,0.28041435481061944,0.0,0.0,0.0,0.0,0.0,0.0,0.104,0.0,0.0,0.0,0.0,0.0,0.0
251,0.2775625,0.0,0.0,0.0,0.0,0.0,0.0,0.28092906411371604,0.0,0.0,0.0,0.0,0.0,0.0,0.316,0.0,0.0,0.0,0.0,0.0,0.0
252,0.2780771484375,0.0,0.0,0.0,0.0,0.0,0.0,0.2814366726756385,0.0,0.0,0.0,0.0,0.0,0.0,0.636,0.0,0.0,0.0,0.0,0.0,0.0
253,0.2784892578125,0.0,0.0,0.0,0.0,0.0,0.0,0.2819369139576029,0.0,0.0,0.0,0.0,0.0,0.0,0.584,0.0,0.0,0.0,0.0,0.0,0.0
254,0.278900390625,0.0,0.0,0.0,0.0,0.0,0.0,0.2824333315212164,0.0,0.0,0.0,0.0,0.0,0.0,0.688,0.0,0.0,0.0,0.0,0.0,0.0
255,0.2794150390625,0.0,0.0,0.0,0.0,0.0,0.0,0.28292051927595246,0.0,0.0,0.0,0.0,0.0,0.0,0.636,0.0,0.0,0.0,0.0,0.0,0.0
256,0.2798271484375,0.0,0.0,0.0,0.0,0.0,0.0,0.28340211370158797,0.0,0.0,0.0,0.0,0.0,0.0,0.688,0.0,0.0,0.0,0.0,0.0,0.0
257,0.28023828125,0.0,0.0,0.0,0.0,0.0,0.0,0.28387968803988883,0.0,0.0,0.0,0.0,0.0,0.0,0.796,0.0,0.0,0.0,0.0,0.0,0.0
258,0.28065625,0.0,0.0,0.0,0.0,0.0,0.0,0.28434658249845224,0.0,0.0,0.0,0.0,0.0,0.0,0.744,0.0,0.0,0.0,0.0,0.0,0.0
259,0.281068359375,0.0,0.0,0.0,0.0,0.0,0.0,0.2848078885557485,0.0,0.0,0.0,0.0,0.0,0.0,0.476,0.0,0.0,0.0,0.0,0.0,0.0
260,0.2815830078125,0.0,0.0,0.0,0.0,0.0,0.0,0.2852647410089541,0.0,0.0,0.0,0.0,0.0,0.0,0.584,0.0,0.0,0.0,0.0,0.0,0.0
261,0.281994140625,0.0,0.0,0.0,0.0,0.0,0.0,0.2857100249460014,0.0,0.0,0.0,0.0,0.0,0.0,0.956,0.0,0.0,0.0,0.0,0.0,0.0
262,0.2825087890625,0.0,0.0,0.0,0.0,0.0,0.0,0.2861503526024862,0.0,0.0,0.0,0.0,0.0,0.0,1.432,0.0,0.0,0.0,0.0,0.0,0.0
263,0.2829208984375,0.0,0.0,0.0,0.0,0.0,0.0,0.2865871035097269,0.0,0.0,0.0,0.0,0.0,0.0,1.38,0.0,0.0,0.0,0.0,0.0,0.0
264,0.28333203125,0.0,0.0,0.0,0.0,0.0,0.0,0.2870448919617149,0.0,0.0,0.0,0.0,0.0,0.0,0.796,0.0,0.0,0.0,0.0,0.0,0.0
265,0.283853515625,0.0,0.0,0.0,0.0,0.0,0.0,0.28743204719456344,0.0,0.0,0.0,0.0,0.0,0.0,0.636,0.0,0.0,0.0,0.0,0.0,0.0
266,0.2842646484375,0.0,0.0,0.0,0.0,0.0,0.0,0.28784969086357365,0.0,0.0,0.0,0.0,0.0,0.0,1.22,0.0,0.0,0.0,0.0,0.0,0.0
267,0.284779296875,0.0,0.0,0.0,0.0,0.0,0.0,0.2882715140388471,0.0,0.0,0.0,0.0,0.0,0.0,0.956,0.0,0.0,0.0,0.0,0.0,0.0
268,0.2851904296875,0.0,0.0,0.0,0.0,0.0,0.0,0.28865235248938326,0.0,0.0,0.0,0.0,0.0,0.0,0.744,0.0,0.0,0.0,0.0,0.0,0.0
269,0.285705078125,0.0,0.0,0.0,0.0,0.0,0.0,0.28905039875713184,0.0,0.0,0.0,0.0,0.0,0.0,0.528,0.0,0.0,0.0,0.0,0.0,0.0
270,0.2862197265625,0.0,0.0,0.0,0.0,0.0,0.0,0.2894361416550594,0.0,0.0,0.0,0.0,0.0,0.0,0.476,0.0,0.0,0.0,0.0,0.0,0.0
271,0.2866376953125,0.0,0.0,0.0,0.0,0.0,0.0,0.28981543033325236,0.0,0.0,0.0,0.0,0.0,0.0,-0.372,0.0,0.0,0.0,0.0,0.0,0.0
272,0.2870498046875,0.0,0.0,0.0,0.0,0.0,0.0,0.29018864268470046,0.0,0.0,0.0,0.0,0.0,0.0,-0.372,0.0,0.0,0.0,0.0,0.0,0.0
273,0.2874609375,0.0,0.0,0.0,0.0,0.0,0.0,0.29055496770683714,0.0,0.0,0.0,0.0,0.0,0.0,-0.316,0.0,0.0,0.0,0.0,0.0,0.0
274,0.2879755859375,0.0,0.0,0.0,0.0,0.0,0.0,0.2909149672009063,0.0,0.0,0.0,0.0,0.0,0.0,0.744,0.0,0.0,0.0,0.0,0.0,0.0
275,0.2883876953125,0.0,0.0,0.0,0.0,0.0,0.0,0.2912673036303379,0.0,0.0,0.0,0.0,0.0,0.0,0.796,0.0,0.0,0.0,0.0,0.0,0.0
276,0.2886962890625,0.0,0.0,0.0,0.0,0.0,0.0,0.29161384155875564,0.0,0.0,0.0,0.0,0.0,0.0,-0.104,0.0,0.0,0.0,0.0,0.0,0.0
277,0.289107421875,0.0,0.0,0.0,0.0,0.0,0.0,0.2919562023012799,0.0,0.0,0.0,0.0,0.0,0.0,-0.316,0.0,0.0,0.0,0.0,0.0,0.0
278,0.2895263671875,0.0,0.0,0.0,0.0,0.0,0.0,0.2922793824166866,0.0,0.0,0.0,0.0,0.0,0.0,0.796,0.0,0.0,0.0,0.0,0.0,0.0
279,0.2898349609375,0.0,0.0,0.0,0.0,0.0,0.0,0.2926073998493766,0.0,0.0,0.0,0.0,0.0,0.0,0.796,0.0,0.0,0.0,0.0,0.0,0.0
280,0.2901435546875,0.0,0.0,0.0,0.0,0.0,0.0,0.29292423676157753,0.0,0.0,0.0,0.0,0.0,0.0,-0.052,0.0,0.0,0.0,0.0,0.0,0.0
281,0.2905546875,0.0,0.0,0.0,0.0,0.0,0.0,0.29323811800206023,0.0,0.0,0.0,0.0,0.0,0.0,-0.212,0.0,0.0,0.0,0.0,0.0,0.0
282,0.29086328125,0.0,0.0,0.0,0.0,0.0,0.0,0.2935404484516461,0.0,0.0,0.0,0.0,0.0,0.0,-0.052,0.0,0.0,0.0,0.0,0.0,0.0
283,0.2911728515625,0.0,0.0,0.0,0.0,0.0,0.0,0.2938362324820217,0.0,0.0,0.0,0.0,0.0,0.0,0.0,0.0,0.0,0.0,0.0,0.0,0.0
284,0.2913779296875,0.0,0.0,0.0,0.0,0.0,0.0,0.2941284317734182,0.0,0.0,0.0,0.0,0.0,0.0,-0.424,0.0,0.0,0.0,0.0,0.0,0.0
285,0.2916865234375,0.0,0.0,0.0,0.0,0.0,0.0,0.29440917249841797,0.0,0.0,0.0,0.0,0.0,0.0,0.264,0.0,0.0,0.0,0.0,0.0,0.0
286,0.29199609375,0.0,0.0,0.0,0.0,0.0,0.0,0.29468861970409993,0.0,0.0,0.0,0.0,0.0,0.0,0.796,0.0,0.0,0.0,0.0,0.0,0.0
287,0.2922080078125,0.0,0.0,0.0,0.0,0.0,0.0,0.2949588345537962,0.0,0.0,0.0,0.0,0.0,0.0,0.264,0.0,0.0,0.0,0.0,0.0,0.0
288,0.2925166015625,0.0,0.0,0.0,0.0,0.0,0.0,0.29521946554526113,0.0,0.0,0.0,0.0,0.0,0.0,-0.156,0.0,0.0,0.0,0.0,0.0,0.0
289,0.29272265625,0.0,0.0,0.0,0.0,0.0,0.0,0.29547650934048914,0.0,0.0,0.0,0.0,0.0,0.0,-0.264,0.0,0.0,0.0,0.0,0.0,0.0
290,0.2929287109375,0.0,0.0,0.0,0.0,0.0,0.0,0.2957237854547833,0.0,0.0,0.0,0.0,0.0,0.0,0.212,0.0,0.0,0.0,0.0,0.0,0.0
291,0.2932373046875,0.0,0.0,0.0,0.0,0.0,0.0,0.29596637470275877,0.0,0.0,0.0,0.0,0.0,0.0,1.276,0.0,0.0,0.0,0.0,0.0,0.0
292,0.293443359375,0.0,0.0,0.0,0.0,0.0,0.0,0.2962002130933052,0.0,0.0,0.0,0.0,0.0,0.0,0.9,0.0,0.0,0.0,0.0,0.0,0.0
293,0.293751953125,0.0,0.0,0.0,0.0,0.0,0.0,0.2964292452939212,0.0,0.0,0.0,0.0,0.0,0.0,0.372,0.0,0.0,0.0,0.0,0.0,0.0
294,0.29395703125,0.0,0.0,0.0,0.0,0.0,0.0,0.2966498955541083,0.0,0.0,0.0,0.0,0.0,0.0,0.156,0.0,0.0,0.0,0.0,0.0,0.0
295,0.2941630859375,0.0,0.0,0.0,0.0,0.0,0.0,0.2968621995671013,0.0,0.0,0.0,0.0,0.0,0.0,0.212,0.0,0.0,0.0,0.0,0.0,0.0
296,0.294369140625,0.0,0.0,0.0,0.0,0.0,0.0,0.2970691595440609,0.0,0.0,0.0,0.0,0.0,0.0,-0.104,0.0,0.0,0.0,0.0,0.0,0.0
297,0.2945751953125,0.0,0.0,0.0,0.0,0.0,0.0,0.29727093530310267,0.0,0.0,0.0,0.0,0.0,0.0,-0.156,0.0,0.0,0.0,0.0,0.0,0.0
298,0.2948837890625,0.0,0.0,0.0,0.0,0.0,0.0,0.2974605698395673,0.0,0.0,0.0,0.0,0.0,0.0,0.264,0.0,0.0,0.0,0.0,0.0,0.0
299,0.29508984375,0.0,0.0,0.0,0.0,0.0,0.0,0.2976466149318836,0.0,0.0,0.0,0.0,0.0,0.0,0.264,0.0,0.0,0.0,0.0,0.0,0.0
300,0.29519921875,0.0,0.0,0.0,0.0,0.0,0.0,0.29782644917362366,0.0,0.0,0.0,0.0,0.0,0.0,-0.104,0.0,0.0,0.0,0.0,0.0,0.0
301,0.2955078125,0.0,0.0,0.0,0.0,0.0,0.0,0.29799765113623583,0.0,0.0,0.0,0.0,0.0,0.0,0.156,0.0,0.0,0.0,0.0,0.0,0.0
302,0.2956103515625,0.0,0.0,0.0,0.0,0.0,0.0,0.29816182308511896,0.0,0.0,0.0,0.0,0.0,0.0,0.104,0.0,0.0,0.0,0.0,0.0,0.0
303,0.29581640625,0.0,0.0,0.0,0.0,0.0,0.0,0.29831954539595373,0.0,0.0,0.0,0.0,0.0,0.0,-0.264,0.0,0.0,0.0,0.0,0.0,0.0
304,0.2960224609375,0.0,0.0,0.0,0.0,0.0,0.0,0.2984711976611179,0.0,0.0,0.0,0.0,0.0,0.0,0.156,0.0,0.0,0.0,0.0,0.0,0.0
305,0.296125,0.0,0.0,0.0,0.0,0.0,0.0,0.29861291552027003,0.0,0.0,0.0,0.0,0.0,0.0,0.104,0.0,0.0,0.0,0.0,0.0,0.0
306,0.2963310546875,0.0,0.0,0.0,0.0,0.0,0.0,0.29874982962189955,0.0,0.0,0.0,0.0,0.0,0.0,0.316,0.0,0.0,0.0,0.0,0.0,0.0
307,0.29643359375,0.0,0.0,0.0,0.0,0.0,0.0,0.29888026287195407,0.0,0.0,0.0,0.0,0.0,0.0,0.264,0.0,0.0,0.0,0.0,0.0,0.0
308,0.2965361328125,0.0,0.0,0.0,0.0,0.0,0.0,0.2990017782816536,0.0,0.0,0.0,0.0,0.0,0.0,0.156,0.0,0.0,0.0,0.0,0.0,0.0
309,0.2967421875,0.0,0.0,0.0,0.0,0.0,0.0,0.2991165162514741,0.0,0.0,0.0,0.0,0.0,0.0,0.424,0.0,0.0,0.0,0.0,0.0,0.0
310,0.296845703125,0.0,0.0,0.0,0.0,0.0,0.0,0.29922546661803934,0.0,0.0,0.0,0.0,0.0,0.0,0.156,0.0,0.0,0.0,0.0,0.0,0.0
311,0.29705078125,0.0,0.0,0.0,0.0,0.0,0.0,0.2993268772133811,0.0,0.0,0.0,0.0,0.0,0.0,-0.156,0.0,0.0,0.0,0.0,0.0,0.0
312,0.297154296875,0.0,0.0,0.0,0.0,0.0,0.0,0.29942003225183256,0.0,0.0,0.0,0.0,0.0,0.0,-0.316,0.0,0.0,0.0,0.0,0.0,0.0
313,0.2972568359375,0.0,0.0,0.0,0.0,0.0,0.0,0.29950757875412115,0.0,0.0,0.0,0.0,0.0,0.0,0.316,0.0,0.0,0.0,0.0,0.0,0.0
314,0.297462890625,0.0,0.0,0.0,0.0,0.0,0.0,0.2995874381895454,0.0,0.0,0.0,0.0,0.0,0.0,0.156,0.0,0.0,0.0,0.0,0.0,0.0
315,0.2975654296875,0.0,0.0,0.0,0.0,0.0,0.0,0.2996597550019248,0.0,0.0,0.0,0.0,0.0,0.0,0.0,0.0,0.0,0.0,0.0,0.0,0.0
316,0.2976689453125,0.0,0.0,0.0,0.0,0.0,0.0,0.29972534271558715,0.0,0.0,0.0,0.0,0.0,0.0,-0.316,0.0,0.0,0.0,0.0,0.0,0.0
317,0.2976689453125,0.0,0.0,0.0,0.0,0.0,0.0,0.2997854019564719,0.0,0.0,0.0,0.0,0.0,0.0,-0.424,0.0,0.0,0.0,0.0,0.0,0.0
318,0.297771484375,0.0,0.0,0.0,0.0,0.0,0.0,0.29983587790500216,0.0,0.0,0.0,0.0,0.0,0.0,0.156,0.0,0.0,0.0,0.0,0.0,0.0
319,0.2978740234375,0.0,0.0,0.0,0.0,0.0,0.0,0.29988104216404304,0.0,0.0,0.0,0.0,0.0,0.0,0.476,0.0,0.0,0.0,0.0,0.0,0.0
320,0.2979775390625,0.0,0.0,0.0,0.0,0.0,0.0,0.29991820513839507,0.0,0.0,0.0,0.0,0.0,0.0,0.264,0.0,0.0,0.0,0.0,0.0,0.0
321,0.2980869140625,0.0,0.0,0.0,0.0,0.0,0.0,0.29994862948139034,0.0,0.0,0.0,0.0,0.0,0.0,0.0,0.0,0.0,0.0,0.0,0.0,0.0
322,0.2980869140625,0.0,0.0,0.0,0.0,0.0,0.0,0.29997211719769573,0.0,0.0,0.0,0.0,0.0,0.0,-0.156,0.0,0.0,0.0,0.0,0.0,0.0
323,0.2980869140625,0.0,0.0,0.0,0.0,0.0,0.0,0.2999884331028992,0.0,0.0,0.0,0.0,0.0,0.0,-0.264,0.0,0.0,0.0,0.0,0.0,0.0
324,0.298189453125,0.0,0.0,0.0,0.0,0.0,0.0,0.29999772011009984,0.0,0.0,0.0,0.0,0.0,0.0,-0.316,0.0,0.0,0.0,0.0,0.0,0.0
325,0.298189453125,0.0,0.0,0.0,0.0,0.0,0.0,0.29999987287943614,0.0,0.0,0.0,0.0,0.0,0.0,-0.316,0.0,0.0,0.0,0.0,0.0,0.0
326,0.298189453125,0.0,0.0,0.0,0.0,0.0,0.0,0.29999499181315636,0.0,0.0,0.0,0.0,0.0,0.0,-0.476,0.0,0.0,0.0,0.0,0.0,0.0
327,0.298189453125,0.0,0.0,0.0,0.0,0.0,0.0,0.29998271930240883,0.0,0.0,0.0,0.0,0.0,0.0,-0.476,0.0,0.0,0.0,0.0,0.0,0.0
328,0.298189453125,0.0,0.0,0.0,0.0,0.0,0.0,0.2999639986202064,0.0,0.0,0.0,0.0,0.0,0.0,-0.372,0.0,0.0,0.0,0.0,0.0,0.0
329,0.2980869140625,0.0,0.0,0.0,0.0,0.0,0.0,0.2999378545429753,0.0,0.0,0.0,0.0,0.0,0.0,-0.316,0.0,0.0,0.0,0.0,0.0,0.0
330,0.2980869140625,0.0,0.0,0.0,0.0,0.0,0.0,0.29990450866016993,0.0,0.0,0.0,0.0,0.0,0.0,-0.212,0.0,0.0,0.0,0.0,0.0,0.0
331,0.2980869140625,0.0,0.0,0.0,0.0,0.0,0.0,0.29986420936969904,0.0,0.0,0.0,0.0,0.0,0.0,-0.052,0.0,0.0,0.0,0.0,0.0,0.0
332,0.2979775390625,0.0,0.0,0.0,0.0,0.0,0.0,0.2998169075505405,0.0,0.0,0.0,0.0,0.0,0.0,0.052,0.0,0.0,0.0,0.0,0.0,0.0
333,0.2979775390625,0.0,0.0,0.0,0.0,0.0,0.0,0.299762365998257,0.0,0.0,0.0,0.0,0.0,0.0,0.104,0.0,0.0,0.0,0.0,0.0,0.0
334,0.2978740234375,0.0,0.0,0.0,0.0,0.0,0.0,0.29970055949043156,0.0,0.0,0.0,0.0,0.0,0.0,0.212,0.0,0.0,0.0,0.0,0.0,0.0
335,0.2978740234375,0.0,0.0,0.0,0.0,0.0,0.0,0.2996324926181973,0.0,0.0,0.0,0.0,0.0,0.0,0.316,0.0,0.0,0.0,0.0,0.0,0.0
336,0.2978740234375,0.0,0.0,0.0,0.0,0.0,0.0,0.2995569504262366,0.0,0.0,0.0,0.0,0.0,0.0,0.424,0.0,0.0,0.0,0.0,0.0,0.0
337,0.2978740234375,0.0,0.0,0.0,0.0,0.0,0.0,0.2994737721675927,0.0,0.0,0.0,0.0,0.0,0.0,0.476,0.0,0.0,0.0,0.0,0.0,0.0
338,0.2978740234375,0.0,0.0,0.0,0.0,0.0,0.0,0.29938415062948154,0.0,0.0,0.0,0.0,0.0,0.0,0.424,0.0,0.0,0.0,0.0,0.0,0.0
339,0.2978740234375,0.0,0.0,0.0,0.0,0.0,0.0,0.2992876224093649,0.0,0.0,0.0,0.0,0.0,0.0,0.528,0.0,0.0,0.0,0.0,0.0,0.0
340,0.2978740234375,0.0,0.0,0.0,0.0,0.0,0.0,0.2991839071376373,0.0,0.0,0.0,0.0,0.0,0.0,0.476,0.0,0.0,0.0,0.0,0.0,0.0
341,0.2978740234375,0.0,0.0,0.0,0.0,0.0,0.0,0.29907252587009925,0.0,0.0,0.0,0.0,0.0,0.0,0.372,0.0,0.0,0.0,0.0,0.0,0.0
342,0.2978740234375,0.0,0.0,0.0,0.0,0.0,0.0,0.2989547902290636,0.0,0.0,0.0,0.0,0.0,0.0,0.316,0.0,0.0,0.0,0.0,0.0,0.0
343,0.2979775390625,0.0,0.0,0.0,0.0,0.0,0.0,0.29882972182240475,0.0,0.0,0.0,0.0,0.0,0.0,0.212,0.0,0.0,0.0,0.0,0.0,0.0
344,0.2979775390625,0.0,0.0,0.0,0.0,0.0,0.0,0.29869647969177876,0.0,0.0,0.0,0.0,0.0,0.0,0.156,0.0,0.0,0.0,0.0,0.0,0.0
345,0.2979775390625,0.0,0.0,0.0,0.0,0.0,0.0,0.2985578997879562,0.0,0.0,0.0,0.0,0.0,0.0,0.104,0.0,0.0,0.0,0.0,0.0,0.0
346,0.2979775390625,0.0,0.0,0.0,0.0,0.0,0.0,0.29841243850288146,0.0,0.0,0.0,0.0,0.0,0.0,0.0,0.0,0.0,0.0,0.0,0.0,0.0
347,0.2980869140625,0.0,0.0,0.0,0.0,0.0,0.0,0.29825818115547226,0.0,0.0,0.0,0.0,0.0,0.0,-0.052,0.0,0.0,0.0,0.0,0.0,0.0
348,0.2980869140625,0.0,0.0,0.0,0.0,0.0,0.0,0.29809885309008094,0.0,0.0,0.0,0.0,0.0,0.0,-0.104,0.0,0.0,0.0,0.0,0.0,0.0
349,0.2980869140625,0.0,0.0,0.0,0.0,0.0,0.0,0.2979316236090219,0.0,0.0,0.0,0.0,0.0,0.0,-0.156,0.0,0.0,0.0,0.0,0.0,0.0
350,0.2980869140625,0.0,0.0,0.0,0.0,0.0,0.0,0.29775749423634856,0.0,0.0,0.0,0.0,0.0,0.0,-0.104,0.0,0.0,0.0,0.0,0.0,0.0
351,0.2980869140625,0.0,0.0,0.0,0.0,0.0,0.0,0.2975748968802731,0.0,0.0,0.0,0.0,0.0,0.0,-0.104,0.0,0.0,0.0,0.0,0.0,0.0
352,0.2980869140625,0.0,0.0,0.0,0.0,0.0,0.0,0.2973871604804827,0.0,0.0,0.0,0.0,0.0,0.0,-0.104,0.0,0.0,0.0,0.0,0.0,0.0
353,0.2980869140625,0.0,0.0,0.0,0.0,0.0,0.0,0.2971918789527974,0.0,0.0,0.0,0.0,0.0,0.0,-0.104,0.0,0.0,0.0,0.0,0.0,0.0
354,0.2980869140625,0.0,0.0,0.0,0.0,0.0,0.0,0.296988151209871,0.0,0.0,0.0,0.0,0.0,0.0,-0.052,0.0,0.0,0.0,0.0,0.0,0.0
355,0.2979775390625,0.0,0.0,0.0,0.0,0.0,0.0,0.29677956622495877,0.0,0.0,0.0,0.0,0.0,0.0,-0.052,0.0,0.0,0.0,0.0,0.0,0.0
356,0.2979775390625,0.0,0.0,0.0,0.0,0.0,0.0,0.2965635548196227,0.0,0.0,0.0,0.0,0.0,0.0,0.052,0.0,0.0,0.0,0.0,0.0,0.0
357,0.2979775390625,0.0,0.0,0.0,0.0,0.0,0.0,0.2963343717423668,0.0,0.0,0.0,0.0,0.0,0.0,0.156,0.0,0.0,0.0,0.0,0.0,0.0
358,0.2979775390625,0.0,0.0,0.0,0.0,0.0,0.0,0.2961084479328958,0.0,0.0,0.0,0.0,0.0,0.0,0.156,0.0,0.0,0.0,0.0,0.0,0.0
359,0.2979775390625,0.0,0.0,0.0,0.0,0.0,0.0,0.29587174282734574,0.0,0.0,0.0,0.0,0.0,0.0,0.264,0.0,0.0,0.0,0.0,0.0,0.0
360,0.2979775390625,0.0,0.0,0.0,0.0,0.0,0.0,0.29562769780322584,0.0,0.0,0.0,0.0,0.0,0.0,0.212,0.0,0.0,0.0,0.0,0.0,0.0
361,0.2979775390625,0.0,0.0,0.0,0.0,0.0,0.0,0.295374947932787,0.0,0.0,0.0,0.0,0.0,0.0,0.156,0.0,0.0,0.0,0.0,0.0,0.0
362,0.2978740234375,0.0,0.0,0.0,0.0,0.0,0.0,0.29511692624997243,0.0,0.0,0.0,0.0,0.0,0.0,-0.476,0.0,0.0,0.0,0.0,0.0,0.0
363,0.2978740234375,0.0,0.0,0.0,0.0,0.0,0.0,0.29485010818613067,0.0,0.0,0.0,0.0,0.0,0.0,-0.956,0.0,0.0,0.0,0.0,0.0,0.0
364,0.297771484375,0.0,0.0,0.0,0.0,0.0,0.0,0.29457551298690043,0.0,0.0,0.0,0.0,0.0,0.0,-1.38,0.0,0.0,0.0,0.0,0.0,0.0
365,0.2976689453125,0.0,0.0,0.0,0.0,0.0,0.0,0.29430046612868555,0.0,0.0,0.0,0.0,0.0,0.0,-1.964,0.0,0.0,0.0,0.0,0.0,0.0
366,0.2975654296875,0.0,0.0,0.0,0.0,0.0,0.0,0.29401428660449197,0.0,0.0,0.0,0.0,0.0,0.0,-1.648,0.0,0.0,0.0,0.0,0.0,0.0
367,0.297462890625,0.0,0.0,0.0,0.0,0.0,0.0,0.29371135207434945,0.0,0.0,0.0,0.0,0.0,0.0,-1.328,0.0,0.0,0.0,0.0,0.0,0.0
368,0.2972568359375,0.0,0.0,0.0,0.0,0.0,0.0,0.2934190598185713,0.0,0.0,0.0,0.0,0.0,0.0,-1.008,0.0,0.0,0.0,0.0,0.0,0.0
369,0.29705078125,0.0,0.0,0.0,0.0,0.0,0.0,0.2931138699239378,0.0,0.0,0.0,0.0,0.0,0.0,-1.592,0.0,0.0,0.0,0.0,0.0,0.0
370,0.2967421875,0.0,0.0,0.0,0.0,0.0,0.0,0.29279806985529644,0.0,0.0,0.0,0.0,0.0,0.0,-2.176,0.0,0.0,0.0,0.0,0.0,0.0
371,0.29643359375,0.0,0.0,0.0,0.0,0.0,0.0,0.2924670718411983,0.0,0.0,0.0,0.0,0.0,0.0,-1.54,0.0,0.0,0.0,0.0,0.0,0.0
372,0.296125,0.0,0.0,0.0,0.0,0.0,0.0,0.2921542414991833,0.0,0.0,0.0,0.0,0.0,0.0,-1.116,0.0,0.0,0.0,0.0,0.0,0.0
373,0.29581640625,0.0,0.0,0.0,0.0,0.0,0.0,0.2918170027313495,0.0,0.0,0.0,0.0,0.0,0.0,-1.168,0.0,0.0,0.0,0.0,0.0,0.0
374,0.2955078125,0.0,0.0,0.0,0.0,0.0,0.0,0.29146993040175195,0.0,0.0,0.0,0.0,0.0,0.0,-1.38,0.0,0.0,0.0,0.0,0.0,0.0
375,0.29508984375,0.0,0.0,0.0,0.0,0.0,0.0,0.2911258904722138,0.0,0.0,0.0,0.0,0.0,0.0,-1.488,0.0,0.0,0.0,0.0,0.0,0.0
376,0.294677734375,0.0,0.0,0.0,0.0,0.0,0.0,0.29077085253924173,0.0,0.0,0.0,0.0,0.0,0.0,-1.648,0.0,0.0,0.0,0.0,0.0,0.0
377,0.2942666015625,0.0,0.0,0.0,0.0,0.0,0.0,0.2904083780043421,0.0,0.0,0.0,0.0,0.0,0.0,-0.636,0.0,0.0,0.0,0.0,0.0,0.0
378,0.2938544921875,0.0,0.0,0.0,0.0,0.0,0.0,0.29004145199515713,0.0,0.0,0.0,0.0,0.0,0.0,-0.424,0.0,0.0,0.0,0.0,0.0,0.0
379,0.29333984375,0.0,0.0,0.0,0.0,0.0,0.0,0.28966526223052397,0.0,0.0,0.0,0.0,0.0,0.0,-1.116,0.0,0.0,0.0,0.0,0.0,0.0
380,0.2929287109375,0.0,0.0,0.0,0.0,0.0,0.0,0.2892804831970099,0.0,0.0,0.0,0.0,0.0,0.0,-0.796,0.0,0.0,0.0,0.0,0.0,0.0
381,0.2925166015625,0.0,0.0,0.0,0.0,0.0,0.0,0.2888906844545547,0.0,0.0,0.0,0.0,0.0,0.0,-0.424,0.0,0.0,0.0,0.0,0.0,0.0
382,0.29199609375,0.0,0.0,0.0,0.0,0.0,0.0,0.28849797419298323,0.0,0.0,0.0,0.0,0.0,0.0,-0.156,0.0,0.0,0.0,0.0,0.0,0.0
383,0.291583984375,0.0,0.0,0.0,0.0,0.0,0.0,0.28809289085571294,0.0,0.0,0.0,0.0,0.0,0.0,-0.372,0.0,0.0,0.0,0.0,0.0,0.0
384,0.2910693359375,0.0,0.0,0.0,0.0,0.0,0.0,0.2876804883030657,0.0,0.0,0.0,0.0,0.0,0.0,-0.636,0.0,0.0,0.0,0.0,0.0,0.0
385,0.290658203125,0.0,0.0,0.0,0.0,0.0,0.0,0.2872683550816382,0.0,0.0,0.0,0.0,0.0,0.0,-1.008,0.0,0.0,0.0,0.0,0.0,0.0
386,0.29024609375,0.0,0.0,0.0,0.0,0.0,0.0,0.28684293651828713,0.0,0.0,0.0,0.0,0.0,0.0,-0.688,0.0,0.0,0.0,0.0,0.0,0.0
387,0.2897314453125,0.0,0.0,0.0,0.0,0.0,0.0,0.286411595677369,0.0,0.0,0.0,0.0,0.0,0.0,-0.688,0.0,0.0,0.0,0.0,0.0,0.0
388,0.2893203125,0.0,0.0,0.0,0.0,0.0,0.0,0.2859767999536824,0.0,0.0,0.0,0.0,0.0,0.0,-0.796,0.0,0.0,0.0,0.0,0.0,0.0
389,0.28890234375,0.0,0.0,0.0,0.0,0.0,0.0,0.2855332239435277,0.0,0.0,0.0,0.0,0.0,0.0,0.0,0.0,0.0,0.0,0.0,0.0,0.0
390,0.2883876953125,0.0,0.0,0.0,0.0,0.0,0.0,0.2850836933715825,0.0,0.0,0.0,0.0,0.0,0.0,0.104,0.0,0.0,0.0,0.0,0.0,0.0
391,0.2879755859375,0.0,0.0,0.0,0.0,0.0,0.0,0.2846249708543262,0.0,0.0,0.0,0.0,0.0,0.0,-0.052,0.0,0.0,0.0,0.0,0.0,0.0
392,0.287564453125,0.0,0.0,0.0,0.0,0.0,0.0,0.2841590187014829,0.0,0.0,0.0,0.0,0.0,0.0,-0.476,0.0,0.0,0.0,0.0,0.0,0.0
393,0.2870498046875,0.0,0.0,0.0,0.0,0.0,0.0,0.2836895340310415,0.0,0.0,0.0,0.0,0.0,0.0,-0.796,0.0,0.0,0.0,0.0,0.0,0.0
394,0.2866376953125,0.0,0.0,0.0,0.0,0.0,0.0,0.28321313564541994,0.0,0.0,0.0,0.0,0.0,0.0,-0.744,0.0,0.0,0.0,0.0,0.0,0.0
395,0.2862197265625,0.0,0.0,0.0,0.0,0.0,0.0,0.2827305793425358,0.0,0.0,0.0,0.0,0.0,0.0,-0.796,0.0,0.0,0.0,0.0,0.0,0.0
396,0.28580859375,0.0,0.0,0.0,0.0,0.0,0.0,0.2822401894841187,0.0,0.0,0.0,0.0,0.0,0.0,-0.636,0.0,0.0,0.0,0.0,0.0,0.0
397,0.285396484375,0.0,0.0,0.0,0.0,0.0,0.0,0.28173840815801593,0.0,0.0,0.0,0.0,0.0,0.0,-0.796,0.0,0.0,0.0,0.0,0.0,0.0
398,0.2848818359375,0.0,0.0,0.0,0.0,0.0,0.0,0.2812400420610053,0.0,0.0,0.0,0.0,0.0,0.0,-0.744,0.0,0.0,0.0,0.0,0.0,0.0
399,0.284470703125,0.0,0.0,0.0,0.0,0.0,0.0,0.28072630500760953,0.0,0.0,0.0,0.0,0.0,0.0,-1.22,0.0,0.0,0.0,0.0,0.0,0.0
400,0.28405859375,0.0,0.0,0.0,0.0,0.0,0.0,0.28020793410332523,0.0,0.0,0.0,0.0,0.0,0.0,-1.168,0.0,0.0,0.0,0.0,0.0,0.0
401,0.2835439453125,0.0,0.0,0.0,0.0,0.0,0.0,0.279686679614764,0.0,0.0,0.0,0.0,0.0,0.0,-0.796,0.0,0.0,0.0,0.0,0.0,0.0
402,0.2831259765625,0.0,0.0,0.0,0.0,0.0,0.0,0.27915428458932534,0.0,0.0,0.0,0.0,0.0,0.0,-0.424,0.0,0.0,0.0,0.0,0.0,0.0
403,0.28271484375,0.0,0.0,0.0,0.0,0.0,0.0,0.27861795866608635,0.0,0.0,0.0,0.0,0.0,0.0,-0.956,0.0,0.0,0.0,0.0,0.0,0.0
404,0.2822001953125,0.0,0.0,0.0,0.0,0.0,0.0,0.2780730677553465,0.0,0.0,0.0,0.0,0.0,0.0,-1.38,0.0,0.0,0.0,0.0,0.0,0.0
405,0.281685546875,0.0,0.0,0.0,0.0,0.0,0.0,0.27752555549276714,0.0,0.0,0.0,0.0,0.0,0.0,-1.116,0.0,0.0,0.0,0.0,0.0,0.0
406,0.2811708984375,0.0,0.0,0.0,0.0,0.0,0.0,0.27696656493555155,0.0,0.0,0.0,0.0,0.0,0.0,-1.276,0.0,0.0,0.0,0.0,0.0,0.0
407,0.28065625,0.0,0.0,0.0,0.0,0.0,0.0,0.27640275440660755,0.0,0.0,0.0,0.0,0.0,0.0,-1.008,0.0,0.0,0.0,0.0,0.0,0.0
408,0.2801357421875,0.0,0.0,0.0,0.0,0.0,0.0,0.2758398535674858,0.0,0.0,0.0,0.0,0.0,0.0,-0.956,0.0,0.0,0.0,0.0,0.0,0.0
409,0.27962109375,0.0,0.0,0.0,0.0,0.0,0.0,0.2752638861779164,0.0,0.0,0.0,0.0,0.0,0.0,-1.22,0.0,0.0,0.0,0.0,0.0,0.0
410,0.2791064453125,0.0,0.0,0.0,0.0,0.0,0.0,0.2746765538107039,0.0,0.0,0.0,0.0,0.0,0.0,-1.488,0.0,0.0,0.0,0.0,0.0,0.0
411,0.2784892578125,0.0,0.0,0.0,0.0,0.0,0.0,0.27408827298302113,0.0,0.0,0.0,0.0,0.0,0.0,-2.072,0.0,0.0,0.0,0.0,0.0,0.0
412,0.27787109375,0.0,0.0,0.0,0.0,0.0,0.0,0.2734934884027404,0.0,0.0,0.0,0.0,0.0,0.0,-1.7,0.0,0.0,0.0,0.0,0.0,0.0
413,0.2773505859375,0.0,0.0,0.0,0.0,0.0,0.0,0.27289304921314184,0.0,0.0,0.0,0.0,0.0,0.0,-0.956,0.0,0.0,0.0,0.0,0.0,0.0
414,0.2767333984375,0.0,0.0,0.0,0.0,0.0,0.0,0.27227887070991685,0.0,0.0,0.0,0.0,0.0,0.0,-0.372,0.0,0.0,0.0,0.0,0.0,0.0
415,0.276115234375,0.0,0.0,0.0,0.0,0.0,0.0,0.2716653120440835,0.0,0.0,0.0,0.0,0.0,0.0,-0.584,0.0,0.0,0.0,0.0,0.0,0.0
416,0.2753955078125,0.0,0.0,0.0,0.0,0.0,0.0,0.27105006412115923,0.0,0.0,0.0,0.0,0.0,0.0,-1.648,0.0,0.0,0.0,0.0,0.0,0.0
417,0.274880859375,0.0,0.0,0.0,0.0,0.0,0.0,0.2704209207000175,0.0,0.0,0.0,0.0,0.0,0.0,-1.38,0.0,0.0,0.0,0.0,0.0,0.0
418,0.274154296875,0.0,0.0,0.0,0.0,0.0,0.0,0.26978764760580354,0.0,0.0,0.0,0.0,0.0,0.0,-1.008,0.0,0.0,0.0,0.0,0.0,0.0
419,0.2735361328125,0.0,0.0,0.0,0.0,0.0,0.0,0.2691457244900329,0.0,0.0,0.0,0.0,0.0,0.0,-0.688,0.0,0.0,0.0,0.0,0.0,0.0
420,0.2729189453125,0.0,0.0,0.0,0.0,0.0,0.0,0.2685016999075829,0.0,0.0,0.0,0.0,0.0,0.0,-1.22,0.0,0.0,0.0,0.0,0.0,0.0
421,0.2721982421875,0.0,0.0,0.0,0.0,0.0,0.0,0.267844839171137,0.0,0.0,0.0,0.0,0.0,0.0,-0.848,0.0,0.0,0.0,0.0,0.0,0.0
422,0.2715751953125,0.0,0.0,0.0,0.0,0.0,0.0,0.26718841237698904,0.0,0.0,0.0,0.0,0.0,0.0,-0.848,0.0,0.0,0.0,0.0,0.0,0.0
423,0.2708544921875,0.0,0.0,0.0,0.0,0.0,0.0,0.26652239122021676,0.0,0.0,0.0,0.0,0.0,0.0,-0.528,0.0,0.0,0.0,0.0,0.0,0.0
424,0.2701337890625,0.0,0.0,0.0,0.0,0.0,0.0,0.2658519768920197,0.0,0.0,0.0,0.0,0.0,0.0,-1.168,0.0,0.0,0.0,0.0,0.0,0.0
425,0.2695166015625,0.0,0.0,0.0,0.0,0.0,0.0,0.26517319270782463,0.0,0.0,0.0,0.0,0.0,0.0,-1.008,0.0,0.0,0.0,0.0,0.0,0.0
426,0.2687958984375,0.0,0.0,0.0,0.0,0.0,0.0,0.2644896030376972,0.0,0.0,0.0,0.0,0.0,0.0,-0.528,0.0,0.0,0.0,0.0,0.0,0.0
427,0.267966796875,0.0,0.0,0.0,0.0,0.0,0.0,0.26378806091070583,0.0,0.0,0.0,0.0,0.0,0.0,-1.008,0.0,0.0,0.0,0.0,0.0,0.0
428,0.26724609375,0.0,0.0,0.0,0.0,0.0,0.0,0.2630975975552347,0.0,0.0,0.0,0.0,0.0,0.0,-0.848,0.0,0.0,0.0,0.0,0.0,0.0
429,0.26662890625,0.0,0.0,0.0,0.0,0.0,0.0,0.26231349971776124,0.0,0.0,0.0,0.0,0.0,0.0,0.156,0.0,0.0,0.0,0.0,0.0,0.0
430,0.265908203125,0.0,0.0,0.0,0.0,0.0,0.0,0.26168433627339743,0.0,0.0,0.0,0.0,0.0,0.0,-0.052,0.0,0.0,0.0,0.0,0.0,0.0
431,0.2650791015625,0.0,0.0,0.0,0.0,0.0,0.0,0.2609704260658336,0.0,0.0,0.0,0.0,0.0,0.0,-1.168,0.0,0.0,0.0,0.0,0.0,0.0
432,0.2643583984375,0.0,0.0,0.0,0.0,0.0,0.0,0.2602520648488131,0.0,0.0,0.0,0.0,0.0,0.0,-1.168,0.0,0.0,0.0,0.0,0.0,0.0
433,0.26353515625,0.0,0.0,0.0,0.0,0.0,0.0,0.2595229511538594,0.0,0.0,0.0,0.0,0.0,0.0,-0.372,0.0,0.0,0.0,0.0,0.0,0.0
434,0.262814453125,0.0,0.0,0.0,0.0,0.0,0.0,0.25878813360421693,0.0,0.0,0.0,0.0,0.0,0.0,0.636,0.0,0.0,0.0,0.0,0.0,0.0
435,0.262087890625,0.0,0.0,0.0,0.0,0.0,0.0,0.2580475696429644,0.0,0.0,0.0,0.0,0.0,0.0,0.0,0.0,0.0,0.0,0.0,0.0,0.0
436,0.2612646484375,0.0,0.0,0.0,0.0,0.0,0.0,0.2573023934574447,0.0,0.0,0.0,0.0,0.0,0.0,-0.584,0.0,0.0,0.0,0.0,0.0,0.0
437,0.2605439453125,0.0,0.0,0.0,0.0,0.0,0.0,0.25654498716909263,0.0,0.0,0.0,0.0,0.0,0.0,-0.9,0.0,0.0,0.0,0.0,0.0,0.0
438,0.25971484375,0.0,0.0,0.0,0.0,0.0,0.0,0.25578997811435567,0.0,0.0,0.0,0.0,0.0,0.0,-0.052,0.0,0.0,0.0,0.0,0.0,0.0
439,0.2588916015625,0.0,0.0,0.0,0.0,0.0,0.0,0.2550265179034428,0.0,0.0,0.0,0.0,0.0,0.0,0.212,0.0,0.0,0.0,0.0,0.0,0.0
440,0.258068359375,0.0,0.0,0.0,0.0,0.0,0.0,0.2542567422040693,0.0,0.0,0.0,0.0,0.0,0.0,0.104,0.0,0.0,0.0,0.0,0.0,0.0
441,0.25734765625,0.0,0.0,0.0,0.0,0.0,0.0,0.253476555230457,0.0,0.0,0.0,0.0,0.0,0.0,-0.688,0.0,0.0,0.0,0.0,0.0,0.0
442,0.256517578125,0.0,0.0,0.0,0.0,0.0,0.0,0.2526949549336926,0.0,0.0,0.0,0.0,0.0,0.0,-0.316,0.0,0.0,0.0,0.0,0.0,0.0
443,0.2557978515625,0.0,0.0,0.0,0.0,0.0,0.0,0.25190644302292126,0.0,0.0,0.0,0.0,0.0,0.0,-0.052,0.0,0.0,0.0,0.0,0.0,0.0
444,0.25487109375,0.0,0.0,0.0,0.0,0.0,0.0,0.25111479895110445,0.0,0.0,0.0,0.0,0.0,0.0,-0.316,0.0,0.0,0.0,0.0,0.0,0.0
445,0.2541513671875,0.0,0.0,0.0,0.0,0.0,0.0,0.2503147615737421,0.0,0.0,0.0,0.0,0.0,0.0,-0.052,0.0,0.0,0.0,0.0,0.0,0.0
446,0.2533212890625,0.0,0.0,0.0,0.0,0.0,0.0,0.24950760602522792,0.0,0.0,0.0,0.0,0.0,0.0,-0.052,0.0,0.0,0.0,0.0,0.0,0.0
447,0.2523955078125,0.0,0.0,0.0,0.0,0.0,0.0,0.24868209384674794,0.0,0.0,0.0,0.0,0.0,0.0,-0.104,0.0,0.0,0.0,0.0,0.0,0.0
448,0.2516748046875,0.0,0.0,0.0,0.0,0.0,0.0,0.2478758832897261,0.0,0.0,0.0,0.0,0.0,0.0,-0.104,0.0,0.0,0.0,0.0,0.0,0.0
449,0.2508447265625,0.0,0.0,0.0,0.0,0.0,0.0,0.24705447253071292,0.0,0.0,0.0,0.0,0.0,0.0,0.744,0.0,0.0,0.0,0.0,0.0,0.0
450,0.250125,0.0,0.0,0.0,0.0,0.0,0.0,0.24622178819946938,0.0,0.0,0.0,0.0,0.0,0.0,1.06,0.0,0.0,0.0,0.0,0.0,0.0
451,0.2493017578125,0.0,0.0,0.0,0.0,0.0,0.0,0.24538810763224514,0.0,0.0,0.0,0.0,0.0,0.0,-0.744,0.0,0.0,0.0,0.0,0.0,0.0
452,0.248478515625,0.0,0.0,0.0,0.0,0.0,0.0,0.24454520006628588,0.0,0.0,0.0,0.0,0.0,0.0,-0.744,0.0,0.0,0.0,0.0,0.0,0.0
453,0.247751953125,0.0,0.0,0.0,0.0,0.0,0.0,0.2436987886435273,0.0,0.0,0.0,0.0,0.0,0.0,-0.212,0.0,0.0,0.0,0.0,0.0,0.0
454,0.2468251953125,0.0,0.0,0.0,0.0,0.0,0.0,0.2428499596751752,0.0,0.0,0.0,0.0,0.0,0.0,-0.9,0.0,0.0,0.0,0.0,0.0,0.0
455,0.2461044921875,0.0,0.0,0.0,0.0,0.0,0.0,0.24199091505956194,0.0,0.0,0.0,0.0,0.0,0.0,-0.636,0.0,0.0,0.0,0.0,0.0,0.0
456,0.24528125,0.0,0.0,0.0,0.0,0.0,0.0,0.24112735143209618,0.0,0.0,0.0,0.0,0.0,0.0,-0.476,0.0,0.0,0.0,0.0,0.0,0.0
457,0.2444521484375,0.0,0.0,0.0,0.0,0.0,0.0,0.2402407333099426,0.0,0.0,0.0,0.0,0.0,0.0,-0.9,0.0,0.0,0.0,0.0,0.0,0.0
458,0.24362890625,0.0,0.0,0.0,0.0,0.0,0.0,0.2393785510105479,0.0,0.0,0.0,0.0,0.0,0.0,-1.06,0.0,0.0,0.0,0.0,0.0,0.0
459,0.2428056640625,0.0,0.0,0.0,0.0,0.0,0.0,0.2385032003971035,0.0,0.0,0.0,0.0,0.0,0.0,0.0,0.0,0.0,0.0,0.0,0.0,0.0
460,0.241873046875,0.0,0.0,0.0,0.0,0.0,0.0,0.2376155099923776,0.0,0.0,0.0,0.0,0.0,0.0,-0.316,0.0,0.0,0.0,0.0,0.0,0.0
461,0.2410498046875,0.0,0.0,0.0,0.0,0.0,0.0,0.23671496660123328,0.0,0.0,0.0,0.0,0.0,0.0,-0.9,0.0,0.0,0.0,0.0,0.0,0.0
462,0.2402265625,0.0,0.0,0.0,0.0,0.0,0.0,0.23582189991672461,0.0,0.0,0.0,0.0,0.0,0.0,-0.956,0.0,0.0,0.0,0.0,0.0,0.0
463,0.2394033203125,0.0,0.0,0.0,0.0,0.0,0.0,0.23491797160543318,0.0,0.0,0.0,0.0,0.0,0.0,-0.156,0.0,0.0,0.0,0.0,0.0,0.0
464,0.2385732421875,0.0,0.0,0.0,0.0,0.0,0.0,0.23400840880808907,0.0,0.0,0.0,0.0,0.0,0.0,-0.476,0.0,0.0,0.0,0.0,0.0,0.0
465,0.2376474609375,0.0,0.0,0.0,0.0,0.0,0.0,0.23309670874004612,0.0,0.0,0.0,0.0,0.0,0.0,-1.168,0.0,0.0,0.0,0.0,0.0,0.0
466,0.23682421875,0.0,0.0,0.0,0.0,0.0,0.0,0.2321750116045247,0.0,0.0,0.0,0.0,0.0,0.0,-0.796,0.0,0.0,0.0,0.0,0.0,0.0
467,0.235994140625,0.0,0.0,0.0,0.0,0.0,0.0,0.2312349363828688,0.0,0.0,0.0,0.0,0.0,0.0,-0.156,0.0,0.0,0.0,0.0,0.0,0.0
468,0.235068359375,0.0,0.0,0.0,0.0,0.0,0.0,0.23026491840510915,0.0,0.0,0.0,0.0,0.0,0.0,-1.06,0.0,0.0,0.0,0.0,0.0,0.0
469,0.2341416015625,0.0,0.0,0.0,0.0,0.0,0.0,0.22938466041564,0.0,0.0,0.0,0.0,0.0,0.0,-1.54,0.0,0.0,0.0,0.0,0.0,0.0
470,0.233318359375,0.0,0.0,0.0,0.0,0.0,0.0,0.22844522679970114,0.0,0.0,0.0,0.0,0.0,0.0,-0.9,0.0,0.0,0.0,0.0,0.0,0.0
471,0.232283203125,0.0,0.0,0.0,0.0,0.0,0.0,0.22749091919879222,0.0,0.0,0.0,0.0,0.0,0.0,-1.328,0.0,0.0,0.0,0.0,0.0,0.0
472,0.2314599609375,0.0,0.0,0.0,0.0,0.0,0.0,0.226540251329624,0.0,0.0,0.0,0.0,0.0,0.0,-0.744,0.0,0.0,0.0,0.0,0.0,0.0
473,0.230533203125,0.0,0.0,0.0,0.0,0.0,0.0,0.22557764176957057,0.0,0.0,0.0,0.0,0.0,0.0,-0.636,0.0,0.0,0.0,0.0,0.0,0.0
474,0.229498046875,0.0,0.0,0.0,0.0,0.0,0.0,0.22461108627674975,0.0,0.0,0.0,0.0,0.0,0.0,-1.06,0.0,0.0,0.0,0.0,0.0,0.0
475,0.2286748046875,0.0,0.0,0.0,0.0,0.0,0.0,0.22364785595736783,0.0,0.0,0.0,0.0,0.0,0.0,-0.848,0.0,0.0,0.0,0.0,0.0,0.0
476,0.2276455078125,0.0,0.0,0.0,0.0,0.0,0.0,0.22267724244724904,0.0,0.0,0.0,0.0,0.0,0.0,-0.9,0.0,0.0,0.0,0.0,0.0,0.0
477,0.226712890625,0.0,0.0,0.0,0.0,0.0,0.0,0.22168081294367548,0.0,0.0,0.0,0.0,0.0,0.0,-1.22,0.0,0.0,0.0,0.0,0.0,0.0
478,0.22568359375,0.0,0.0,0.0,0.0,0.0,0.0,0.2207169469815118,0.0,0.0,0.0,0.0,0.0,0.0,-1.276,0.0,0.0,0.0,0.0,0.0,0.0
479,0.2246552734375,0.0,0.0,0.0,0.0,0.0,0.0,0.21972488580132196,0.0,0.0,0.0,0.0,0.0,0.0,-1.06,0.0,0.0,0.0,0.0,0.0,0.0
480,0.22372265625,0.0,0.0,0.0,0.0,0.0,0.0,0.2187194346352078,0.0,0.0,0.0,0.0,0.0,0.0,-0.476,0.0,0.0,0.0,0.0,0.0,0.0
481,0.22258984375,0.0,0.0,0.0,0.0,0.0,0.0,0.21772766497248056,0.0,0.0,0.0,0.0,0.0,0.0,-1.22,0.0,0.0,0.0,0.0,0.0,0.0
482,0.2216640625,0.0,0.0,0.0,0.0,0.0,0.0,0.21671592425494166,0.0,0.0,0.0,0.0,0.0,0.0,-0.796,0.0,0.0,0.0,0.0,0.0,0.0
483,0.22051953125,0.0,0.0,0.0,0.0,0.0,0.0,0.21570911879214394,0.0,0.0,0.0,0.0,0.0,0.0,-1.276,0.0,0.0,0.0,0.0,0.0,0.0
484,0.219490234375,0.0,0.0,0.0,0.0,0.0,0.0,0.21469636014730742,0.0,0.0,0.0,0.0,0.0,0.0,-0.636,0.0,0.0,0.0,0.0,0.0,0.0
485,0.218564453125,0.0,0.0,0.0,0.0,0.0,0.0,0.21367709783926683,0.0,0.0,0.0,0.0,0.0,0.0,-0.528,0.0,0.0,0.0,0.0,0.0,0.0
486,0.217322265625,0.0,0.0,0.0,0.0,0.0,0.0,0.21264822204674733,0.0,0.0,0.0,0.0,0.0,0.0,-0.9,0.0,0.0,0.0,0.0,0.0,0.0
487,0.216396484375,0.0,0.0,0.0,0.0,0.0,0.0,0.21155806820354833,0.0,0.0,0.0,0.0,0.0,0.0,-0.636,0.0,0.0,0.0,0.0,0.0,0.0
488,0.2153671875,0.0,0.0,0.0,0.0,0.0,0.0,0.21058649959006334,0.0,0.0,0.0,0.0,0.0,0.0,-0.264,0.0,0.0,0.0,0.0,0.0,0.0
489,0.21433203125,0.0,0.0,0.0,0.0,0.0,0.0,0.2095398614969813,0.0,0.0,0.0,0.0,0.0,0.0,-0.372,0.0,0.0,0.0,0.0,0.0,0.0
490,0.213302734375,0.0,0.0,0.0,0.0,0.0,0.0,0.20849871099237974,0.0,0.0,0.0,0.0,0.0,0.0,-0.528,0.0,0.0,0.0,0.0,0.0,0.0
491,0.2121708984375,0.0,0.0,0.0,0.0,0.0,0.0,0.20743792355129456,0.0,0.0,0.0,0.0,0.0,0.0,-0.476,0.0,0.0,0.0,0.0,0.0,0.0
492,0.21123828125,0.0,0.0,0.0,0.0,0.0,0.0,0.20633260301950526,0.0,0.0,0.0,0.0,0.0,0.0,-0.528,0.0,0.0,0.0,0.0,0.0,0.0
493,0.210208984375,0.0,0.0,0.0,0.0,0.0,0.0,0.20533242404197288,0.0,0.0,0.0,0.0,0.0,0.0,-0.156,0.0,0.0,0.0,0.0,0.0,0.0
494,0.2091796875,0.0,0.0,0.0,0.0,0.0,0.0,0.2042730081013779,0.0,0.0,0.0,0.0,0.0,0.0,0.052,0.0,0.0,0.0,0.0,0.0,0.0
495,0.20814453125,0.0,0.0,0.0,0.0,0.0,0.0,0.20319553133435883,0.0,0.0,0.0,0.0,0.0,0.0,-1.06,0.0,0.0,0.0,0.0,0.0,0.0
496,0.207115234375,0.0,0.0,0.0,0.0,0.0,0.0,0.20212435737387682,0.0,0.0,0.0,0.0,0.0,0.0,-0.956,0.0,0.0,0.0,0.0,0.0,0.0
497,0.2060859375,0.0,0.0,0.0,0.0,0.0,0.0,0.20104132669863636,0.0,0.0,0.0,0.0,0.0,0.0,-0.796,0.0,0.0,0.0,0.0,0.0,0.0
498,0.20505078125,0.0,0.0,0.0,0.0,0.0,0.0,0.19996276475096128,0.0,0.0,0.0,0.0,0.0,0.0,-0.156,0.0,0.0,0.0,0.0,0.0,0.0
499,0.204021484375,0.0,0.0,0.0,0.0,0.0,0.0,0.1988581249243581,0.0,0.0,0.0,0.0,0.0,0.0,-0.584,0.0,0.0,0.0,0.0,0.0,0.0
500,0.2029921875,0.0,0.0,0.0,0.0,0.0,0.0,0.19775918289819058,0.0,0.0,0.0,0.0,0.0,0.0,-1.432,0.0,0.0,0.0,0.0,0.0,0.0
501,0.20195703125,0.0,0.0,0.0,0.0,0.0,0.0,0.196687008281143,0.0,0.0,0.0,0.0,0.0,0.0,-1.488,0.0,0.0,0.0,0.0,0.0,0.0
502,0.2008251953125,0.0,0.0,0.0,0.0,0.0,0.0,0.19557858867658037,0.0,0.0,0.0,0.0,0.0,0.0,-1.06,0.0,0.0,0.0,0.0,0.0,0.0
503,0.1997900390625,0.0,0.0,0.0,0.0,0.0,0.0,0.19446391897583995,0.0,0.0,0.0,0.0,0.0,0.0,-0.424,0.0,0.0,0.0,0.0,0.0,0.0
504,0.1986572265625,0.0,0.0,0.0,0.0,0.0,0.0,0.19331242970581217,0.0,0.0,0.0,0.0,0.0,0.0,-0.052,0.0,0.0,0.0,0.0,0.0,0.0
505,0.197525390625,0.0,0.0,0.0,0.0,0.0,0.0,0.19224410186932864,0.0,0.0,0.0,0.0,0.0,0.0,0.156,0.0,0.0,0.0,0.0,0.0,0.0
506,0.1963876953125,0.0,0.0,0.0,0.0,0.0,0.0,0.19111769458054362,0.0,0.0,0.0,0.0,0.0,0.0,-0.9,0.0,0.0,0.0,0.0,0.0,0.0
507,0.1952548828125,0.0,0.0,0.0,0.0,0.0,0.0,0.18999057891821883,0.0,0.0,0.0,0.0,0.0,0.0,-1.86,0.0,0.0,0.0,0.0,0.0,0.0
508,0.194123046875,0.0,0.0,0.0,0.0,0.0,0.0,0.18886520290604455,0.0,0.0,0.0,0.0,0.0,0.0,-0.316,0.0,0.0,0.0,0.0,0.0,0.0
509,0.192984375,0.0,0.0,0.0,0.0,0.0,0.0,0.18773939027346198,0.0,0.0,0.0,0.0,0.0,0.0,0.264,0.0,0.0,0.0,0.0,0.0,0.0
510,0.19175,0.0,0.0,0.0,0.0,0.0,0.0,0.18659150616378573,0.0,0.0,0.0,0.0,0.0,0.0,-0.316,0.0,0.0,0.0,0.0,0.0,0.0
511,0.1905087890625,0.0,0.0,0.0,0.0,0.0,0.0,0.18544330023283503,0.0,0.0,0.0,0.0,0.0,0.0,-2.02,0.0,0.0,0.0,0.0,0.0,0.0
512,0.189376953125,0.0,0.0,0.0,0.0,0.0,0.0,0.18430260532737436,0.0,0.0,0.0,0.0,0.0,0.0,-0.316,0.0,0.0,0.0,0.0,0.0,0.0
513,0.1881416015625,0.0,0.0,0.0,0.0,0.0,0.0,0.18314713123605406,0.0,0.0,0.0,0.0,0.0,0.0,0.424,0.0,0.0,0.0,0.0,0.0,0.0
514,0.1867978515625,0.0,0.0,0.0,0.0,0.0,0.0,0.18200247176943207,0.0,0.0,0.0,0.0,0.0,0.0,-0.424,0.0,0.0,0.0,0.0,0.0,0.0
515,0.1857685546875,0.0,0.0,0.0,0.0,0.0,0.0,0.18084526078125535,0.0,0.0,0.0,0.0,0.0,0.0,-0.528,0.0,0.0,0.0,0.0,0.0,0.0
516,0.1846298828125,0.0,0.0,0.0,0.0,0.0,0.0,0.17968005171810061,0.0,0.0,0.0,0.0,0.0,0.0,1.38,0.0,0.0,0.0,0.0,0.0,0.0
517,0.1832919921875,0.0,0.0,0.0,0.0,0.0,0.0,0.17849538308628274,0.0,0.0,0.0,0.0,0.0,0.0,-0.372,0.0,0.0,0.0,0.0,0.0,0.0
518,0.1820576171875,0.0,0.0,0.0,0.0,0.0,0.0,0.17733519701513947,0.0,0.0,0.0,0.0,0.0,0.0,-1.752,0.0,0.0,0.0,0.0,0.0,0.0
519,0.1809189453125,0.0,0.0,0.0,0.0,0.0,0.0,0.17615896883679158,0.0,0.0,0.0,0.0,0.0,0.0,0.264,0.0,0.0,0.0,0.0,0.0,0.0
520,0.17968359375,0.0,0.0,0.0,0.0,0.0,0.0,0.17496727690692782,0.0,0.0,0.0,0.0,0.0,0.0,0.476,0.0,0.0,0.0,0.0,0.0,0.0
521,0.1784423828125,0.0,0.0,0.0,0.0,0.0,0.0,0.17378798070221543,0.0,0.0,0.0,0.0,0.0,0.0,-0.848,0.0,0.0,0.0,0.0,0.0,0.0
522,0.177310546875,0.0,0.0,0.0,0.0,0.0,0.0,0.17260261126533877,0.0,0.0,0.0,0.0,0.0,0.0,-0.424,0.0,0.0,0.0,0.0,0.0,0.0
523,0.1761787109375,0.0,0.0,0.0,0.0,0.0,0.0,0.171410092251057,0.0,0.0,0.0,0.0,0.0,0.0,0.212,0.0,0.0,0.0,0.0,0.0,0.0
524,0.1749375,0.0,0.0,0.0,0.0,0.0,0.0,0.1702039547549768,0.0,0.0,0.0,0.0,0.0,0.0,-0.584,0.0,0.0,0.0,0.0,0.0,0.0
525,0.1738056640625,0.0,0.0,0.0,0.0,0.0,0.0,0.16900445292559182,0.0,0.0,0.0,0.0,0.0,0.0,-0.528,0.0,0.0,0.0,0.0,0.0,0.0
526,0.1726728515625,0.0,0.0,0.0,0.0,0.0,0.0,0.1677997705324178,0.0,0.0,0.0,0.0,0.0,0.0,0.744,0.0,0.0,0.0,0.0,0.0,0.0
527,0.17153515625,0.0,0.0,0.0,0.0,0.0,0.0,0.16658264316602991,0.0,0.0,0.0,0.0,0.0,0.0,-0.052,0.0,0.0,0.0,0.0,0.0,0.0
528,0.1702998046875,0.0,0.0,0.0,0.0,0.0,0.0,0.16537930684344068,0.0,0.0,0.0,0.0,0.0,0.0,-1.328,0.0,0.0,0.0,0.0,0.0,0.0
529,0.1691611328125,0.0,0.0,0.0,0.0,0.0,0.0,0.1641607666396376,0.0,0.0,0.0,0.0,0.0,0.0,-0.956,0.0,0.0,0.0,0.0,0.0,0.0
530,0.168029296875,0.0,0.0,0.0,0.0,0.0,0.0,0.16288881452451318,0.0,0.0,0.0,0.0,0.0,0.0,-0.052,0.0,0.0,0.0,0.0,0.0,0.0
531,0.166794921875,0.0,0.0,0.0,0.0,0.0,0.0,0.16170930044209297,0.0,0.0,0.0,0.0,0.0,0.0,-0.476,0.0,0.0,0.0,0.0,0.0,0.0
532,0.16565625,0.0,0.0,0.0,0.0,0.0,0.0,0.16048548482283947,0.0,0.0,0.0,0.0,0.0,0.0,-1.328,0.0,0.0,0.0,0.0,0.0,0.0
533,0.1645244140625,0.0,0.0,0.0,0.0,0.0,0.0,0.1592549721832537,0.0,0.0,0.0,0.0,0.0,0.0,-0.956,0.0,0.0,0.0,0.0,0.0,0.0
534,0.163283203125,0.0,0.0,0.0,0.0,0.0,0.0,0.1580137778533608,0.0,0.0,0.0,0.0,0.0,0.0,-1.168,0.0,0.0,0.0,0.0,0.0,0.0
535,0.1620478515625,0.0,0.0,0.0,0.0,0.0,0.0,0.15676859195255352,0.0,0.0,0.0,0.0,0.0,0.0,-0.9,0.0,0.0,0.0,0.0,0.0,0.0
536,0.160916015625,0.0,0.0,0.0,0.0,0.0,0.0,0.1555271362496866,0.0,0.0,0.0,0.0,0.0,0.0,-1.06,0.0,0.0,0.0,0.0,0.0,0.0
537,0.1596748046875,0.0,0.0,0.0,0.0,0.0,0.0,0.15427115247026993,0.0,0.0,0.0,0.0,0.0,0.0,-0.584,0.0,0.0,0.0,0.0,0.0,0.0
538,0.15854296875,0.0,0.0,0.0,0.0,0.0,0.0,0.1530231654868547,0.0,0.0,0.0,0.0,0.0,0.0,-0.636,0.0,0.0,0.0,0.0,0.0,0.0
539,0.1571982421875,0.0,0.0,0.0,0.0,0.0,0.0,0.15175687484947123,0.0,0.0,0.0,0.0,0.0,0.0,-0.848,0.0,0.0,0.0,0.0,0.0,0.0
540,0.15606640625,0.0,0.0,0.0,0.0,0.0,0.0,0.15051161343230976,0.0,0.0,0.0,0.0,0.0,0.0,-0.212,0.0,0.0,0.0,0.0,0.0,0.0
541,0.154728515625,0.0,0.0,0.0,0.0,0.0,0.0,0.14925392644713772,0.0,0.0,0.0,0.0,0.0,0.0,-1.116,0.0,0.0,0.0,0.0,0.0,0.0
542,0.15358984375,0.0,0.0,0.0,0.0,0.0,0.0,0.1479782986959786,0.0,0.0,0.0,0.0,0.0,0.0,-0.744,0.0,0.0,0.0,0.0,0.0,0.0
543,0.15235546875,0.0,0.0,0.0,0.0,0.0,0.0,0.1467064890569531,0.0,0.0,0.0,0.0,0.0,0.0,-1.592,0.0,0.0,0.0,0.0,0.0,0.0
544,0.1510107421875,0.0,0.0,0.0,0.0,0.0,0.0,0.14543731201775437,0.0,0.0,0.0,0.0,0.0,0.0,-1.276,0.0,0.0,0.0,0.0,0.0,0.0
545,0.1497763671875,0.0,0.0,0.0,0.0,0.0,0.0,0.1441752338338764,0.0,0.0,0.0,0.0,0.0,0.0,-0.528,0.0,0.0,0.0,0.0,0.0,0.0
546,0.1484384765625,0.0,0.0,0.0,0.0,0.0,0.0,0.14288701087440997,0.0,0.0,0.0,0.0,0.0,0.0,-0.212,0.0,0.0,0.0,0.0,0.0,0.0
547,0.147197265625,0.0,0.0,0.0,0.0,0.0,0.0,0.14159163451504428,0.0,0.0,0.0,0.0,0.0,0.0,-1.22,0.0,0.0,0.0,0.0,0.0,0.0
548,0.1459619140625,0.0,0.0,0.0,0.0,0.0,0.0,0.1403028940490532,0.0,0.0,0.0,0.0,0.0,0.0,-1.06,0.0,0.0,0.0,0.0,0.0,0.0
549,0.1446181640625,0.0,0.0,0.0,0.0,0.0,0.0,0.13902776298058103,0.0,0.0,0.0,0.0,0.0,0.0,-0.424,0.0,0.0,0.0,0.0,0.0,0.0
550,0.1432802734375,0.0,0.0,0.0,0.0,0.0,0.0,0.13773800619180254,0.0,0.0,0.0,0.0,0.0,0.0,-0.372,0.0,0.0,0.0,0.0,0.0,0.0
551,0.142044921875,0.0,0.0,0.0,0.0,0.0,0.0,0.13642558517606979,0.0,0.0,0.0,0.0,0.0,0.0,-0.156,0.0,0.0,0.0,0.0,0.0,0.0
552,0.140701171875,0.0,0.0,0.0,0.0,0.0,0.0,0.13513532925488358,0.0,0.0,0.0,0.0,0.0,0.0,-1.38,0.0,0.0,0.0,0.0,0.0,0.0
553,0.13936328125,0.0,0.0,0.0,0.0,0.0,0.0,0.13383359713487897,0.0,0.0,0.0,0.0,0.0,0.0,-0.848,0.0,0.0,0.0,0.0,0.0,0.0
554,0.1381220703125,0.0,0.0,0.0,0.0,0.0,0.0,0.13251593293248537,0.0,0.0,0.0,0.0,0.0,0.0,-0.212,0.0,0.0,0.0,0.0,0.0,0.0
555,0.1366806640625,0.0,0.0,0.0,0.0,0.0,0.0,0.13121979708330872,0.0,0.0,0.0,0.0,0.0,0.0,-1.008,0.0,0.0,0.0,0.0,0.0,0.0
556,0.1353369140625,0.0,0.0,0.0,0.0,0.0,0.0,0.12990070934456133,0.0,0.0,0.0,0.0,0.0,0.0,-0.264,0.0,0.0,0.0,0.0,0.0,0.0
557,0.1341015625,0.0,0.0,0.0,0.0,0.0,0.0,0.1285842673682595,0.0,0.0,0.0,0.0,0.0,0.0,0.796,0.0,0.0,0.0,0.0,0.0,0.0
558,0.13255859375,0.0,0.0,0.0,0.0,0.0,0.0,0.1272695669932703,0.0,0.0,0.0,0.0,0.0,0.0,-0.476,0.0,0.0,0.0,0.0,0.0,0.0
559,0.1312138671875,0.0,0.0,0.0,0.0,0.0,0.0,0.1259465820587532,0.0,0.0,0.0,0.0,0.0,0.0,-1.592,0.0,0.0,0.0,0.0,0.0,0.0
560,0.1298759765625,0.0,0.0,0.0,0.0,0.0,0.0,0.12462459872165198,0.0,0.0,0.0,0.0,0.0,0.0,-0.636,0.0,0.0,0.0,0.0,0.0,0.0
561,0.128634765625,0.0,0.0,0.0,0.0,0.0,0.0,0.12330022257690966,0.0,0.0,0.0,0.0,0.0,0.0,1.22,0.0,0.0,0.0,0.0,0.0,0.0
562,0.1271943359375,0.0,0.0,0.0,0.0,0.0,0.0,0.12196415681118157,0.0,0.0,0.0,0.0,0.0,0.0,-0.156,0.0,0.0,0.0,0.0,0.0,0.0
563,0.1257470703125,0.0,0.0,0.0,0.0,0.0,0.0,0.12062903550250109,0.0,0.0,0.0,0.0,0.0,0.0,-1.488,0.0,0.0,0.0,0.0,0.0,0.0
564,0.12451171875,0.0,0.0,0.0,0.0,0.0,0.0,0.11929494694839643,0.0,0.0,0.0,0.0,0.0,0.0,0.052,0.0,0.0,0.0,0.0,0.0,0.0
565,0.1229619140625,0.0,0.0,0.0,0.0,0.0,0.0,0.11796584415716269,0.0,0.0,0.0,0.0,0.0,0.0,-0.052,0.0,0.0,0.0,0.0,0.0,0.0
566,0.1216240234375,0.0,0.0,0.0,0.0,0.0,0.0,0.11662228191043351,0.0,0.0,0.0,0.0,0.0,0.0,0.212,0.0,0.0,0.0,0.0,0.0,0.0
567,0.1202861328125,0.0,0.0,0.0,0.0,0.0,0.0,0.11525177462692487,0.0,0.0,0.0,0.0,0.0,0.0,-0.156,0.0,0.0,0.0,0.0,0.0,0.0
568,0.1189423828125,0.0,0.0,0.0,0.0,0.0,0.0,0.11393664334656053,0.0,0.0,0.0,0.0,0.0,0.0,0.372,0.0,0.0,0.0,0.0,0.0,0.0
569,0.1176044921875,0.0,0.0,0.0,0.0,0.0,0.0,0.11258384979222501,0.0,0.0,0.0,0.0,0.0,0.0,-0.372,0.0,0.0,0.0,0.0,0.0,0.0
570,0.1161572265625,0.0,0.0,0.0,0.0,0.0,0.0,0.11122838643522401,0.0,0.0,0.0,0.0,0.0,0.0,0.156,0.0,0.0,0.0,0.0,0.0,0.0
571,0.1148193359375,0.0,0.0,0.0,0.0,0.0,0.0,0.10987190176004348,0.0,0.0,0.0,0.0,0.0,0.0,-1.008,0.0,0.0,0.0,0.0,0.0,0.0
572,0.113578125,0.0,0.0,0.0,0.0,0.0,0.0,0.108520428992979,0.0,0.0,0.0,0.0,0.0,0.0,0.264,0.0,0.0,0.0,0.0,0.0,0.0
573,0.1123427734375,0.0,0.0,0.0,0.0,0.0,0.0,0.10717280984371601,0.0,0.0,0.0,0.0,0.0,0.0,0.688,0.0,0.0,0.0,0.0,0.0,0.0
574,0.1107998046875,0.0,0.0,0.0,0.0,0.0,0.0,0.10579696080231107,0.0,0.0,0.0,0.0,0.0,0.0,-1.488,0.0,0.0,0.0,0.0,0.0,0.0
575,0.1096611328125,0.0,0.0,0.0,0.0,0.0,0.0,0.10442810821827392,0.0,0.0,0.0,0.0,0.0,0.0,-0.264,0.0,0.0,0.0,0.0,0.0,0.0
576,0.108220703125,0.0,0.0,0.0,0.0,0.0,0.0,0.1030621279417864,0.0,0.0,0.0,0.0,0.0,0.0,-0.584,0.0,0.0,0.0,0.0,0.0,0.0
577,0.1068759765625,0.0,0.0,0.0,0.0,0.0,0.0,0.10169466854321112,0.0,0.0,0.0,0.0,0.0,0.0,-0.476,0.0,0.0,0.0,0.0,0.0,0.0
578,0.105744140625,0.0,0.0,0.0,0.0,0.0,0.0,0.1003265856891416,0.0,0.0,0.0,0.0,0.0,0.0,0.424,0.0,0.0,0.0,0.0,0.0,0.0
579,0.1043037109375,0.0,0.0,0.0,0.0,0.0,0.0,0.0989560512651965,0.0,0.0,0.0,0.0,0.0,0.0,-0.372,0.0,0.0,0.0,0.0,0.0,0.0
580,0.102958984375,0.0,0.0,0.0,0.0,0.0,0.0,0.09756979203259113,0.0,0.0,0.0,0.0,0.0,0.0,-1.964,0.0,0.0,0.0,0.0,0.0,0.0
581,0.101724609375,0.0,0.0,0.0,0.0,0.0,0.0,0.09619613858847903,0.0,0.0,0.0,0.0,0.0,0.0,-0.636,0.0,0.0,0.0,0.0,0.0,0.0
582,0.10027734375,0.0,0.0,0.0,0.0,0.0,0.0,0.09479630445742838,0.0,0.0,0.0,0.0,0.0,0.0,-0.372,0.0,0.0,0.0,0.0,0.0,0.0
583,0.098939453125,0.0,0.0,0.0,0.0,0.0,0.0,0.09342963015255623,0.0,0.0,0.0,0.0,0.0,0.0,-1.432,0.0,0.0,0.0,0.0,0.0,0.0
584,0.0976982421875,0.0,0.0,0.0,0.0,0.0,0.0,0.09204900116262156,0.0,0.0,0.0,0.0,0.0,0.0,-0.212,0.0,0.0,0.0,0.0,0.0,0.0
585,0.096462890625,0.0,0.0,0.0,0.0,0.0,0.0,0.09066247453691843,0.0,0.0,0.0,0.0,0.0,0.0,0.796,0.0,0.0,0.0,0.0,0.0,0.0
586,0.0949189453125,0.0,0.0,0.0,0.0,0.0,0.0,0.08926349846327013,0.0,0.0,0.0,0.0,0.0,0.0,-1.592,0.0,0.0,0.0,0.0,0.0,0.0
587,0.09378125,0.0,0.0,0.0,0.0,0.0,0.0,0.08787647345044441,0.0,0.0,0.0,0.0,0.0,0.0,-0.156,0.0,0.0,0.0,0.0,0.0,0.0
588,0.09233984375,0.0,0.0,0.0,0.0,0.0,0.0,0.08648043810054958,0.0,0.0,0.0,0.0,0.0,0.0,-0.156,0.0,0.0,0.0,0.0,0.0,0.0
589,0.090892578125,0.0,0.0,0.0,0.0,0.0,0.0,0.08507392881764167,0.0,0.0,0.0,0.0,0.0,0.0,-0.9,0.0,0.0,0.0,0.0,0.0,0.0
590,0.0897607421875,0.0,0.0,0.0,0.0,0.0,0.0,0.08368026248465768,0.0,0.0,0.0,0.0,0.0,0.0,-1.116,0.0,0.0,0.0,0.0,0.0,0.0
591,0.0882109375,0.0,0.0,0.0,0.0,0.0,0.0,0.08228446806144055,0.0,0.0,0.0,0.0,0.0,0.0,-1.432,0.0,0.0,0.0,0.0,0.0,0.0
592,0.0869765625,0.0,0.0,0.0,0.0,0.0,0.0,0.0808772104149706,0.0,0.0,0.0,0.0,0.0,0.0,-0.372,0.0,0.0,0.0,0.0,0.0,0.0
593,0.08553515625,0.0,0.0,0.0,0.0,0.0,0.0,0.07947647286815172,0.0,0.0,0.0,0.0,0.0,0.0,-0.476,0.0,0.0,0.0,0.0,0.0,0.0
594,0.084087890625,0.0,0.0,0.0,0.0,0.0,0.0,0.07806820054077655,0.0,0.0,0.0,0.0,0.0,0.0,-0.848,0.0,0.0,0.0,0.0,0.0,0.0
595,0.082853515625,0.0,0.0,0.0,0.0,0.0,0.0,0.07666644370594777,0.0,0.0,0.0,0.0,0.0,0.0,-1.22,0.0,0.0,0.0,0.0,0.0,0.0
596,0.0813037109375,0.0,0.0,0.0,0.0,0.0,0.0,0.0752489038368264,0.0,0.0,0.0,0.0,0.0,0.0,-1.22,0.0,0.0,0.0,0.0,0.0,0.0
597,0.0799658203125,0.0,0.0,0.0,0.0,0.0,0.0,0.0738356297727119,0.0,0.0,0.0,0.0,0.0,0.0,-1.432,0.0,0.0,0.0,0.0,0.0,0.0
598,0.0784150390625,0.0,0.0,0.0,0.0,0.0,0.0,0.07243733084713688,0.0,0.0,0.0,0.0,0.0,0.0,-0.956,0.0,0.0,0.0,0.0,0.0,0.0
599,0.076974609375,0.0,0.0,0.0,0.0,0.0,0.0,0.07102132622612059,0.0,0.0,0.0,0.0,0.0,0.0,-0.476,0.0,0.0,0.0,0.0,0.0,0.0
600,0.07563671875,0.0,0.0,0.0,0.0,0.0,0.0,0.06959374215101712,0.0,0.0,0.0,0.0,0.0,0.0,-0.9,0.0,0.0,0.0,0.0,0.0,0.0
601,0.0739833984375,0.0,0.0,0.0,0.0,0.0,0.0,0.06817186591118872,0.0,0.0,0.0,0.0,0.0,0.0,-1.116,0.0,0.0,0.0,0.0,0.0,0.0
602,0.072646484375,0.0,0.0,0.0,0.0,0.0,0.0,0.06676527393449411,0.0,0.0,0.0,0.0,0.0,0.0,0.316,0.0,0.0,0.0,0.0,0.0,0.0
603,0.07119921875,0.0,0.0,0.0,0.0,0.0,0.0,0.06533536815050008,0.0,0.0,0.0,0.0,0.0,0.0,1.168,0.0,0.0,0.0,0.0,0.0,0.0
604,0.069552734375,0.0,0.0,0.0,0.0,0.0,0.0,0.06392056847340849,0.0,0.0,0.0,0.0,0.0,0.0,-1.328,0.0,0.0,0.0,0.0,0.0,0.0
605,0.06810546875,0.0,0.0,0.0,0.0,0.0,0.0,0.06250142380638797,0.0,0.0,0.0,0.0,0.0,0.0,-1.008,0.0,0.0,0.0,0.0,0.0,0.0
606,0.0665615234375,0.0,0.0,0.0,0.0,0.0,0.0,0.061062278412874794,0.0,0.0,0.0,0.0,0.0,0.0,-0.316,0.0,0.0,0.0,0.0,0.0,0.0
607,0.0651142578125,0.0,0.0,0.0,0.0,0.0,0.0,0.05962837292993671,0.0,0.0,0.0,0.0,0.0,0.0,0.476,0.0,0.0,0.0,0.0,0.0,0.0
608,0.0635712890625,0.0,0.0,0.0,0.0,0.0,0.0,0.058212337311628684,0.0,0.0,0.0,0.0,0.0,0.0,0.104,0.0,0.0,0.0,0.0,0.0,0.0
609,0.0620205078125,0.0,0.0,0.0,0.0,0.0,0.0,0.056787243317022014,0.0,0.0,0.0,0.0,0.0,0.0,0.0,0.0,0.0,0.0,0.0,0.0,0.0
610,0.060580078125,0.0,0.0,0.0,0.0,0.0,0.0,0.055358087507062344,0.0,0.0,0.0,0.0,0.0,0.0,-1.116,0.0,0.0,0.0,0.0,0.0,0.0
611,0.0590302734375,0.0,0.0,0.0,0.0,0.0,0.0,0.05391043997009624,0.0,0.0,0.0,0.0,0.0,0.0,-0.476,0.0,0.0,0.0,0.0,0.0,0.0
612,0.057486328125,0.0,0.0,0.0,0.0,0.0,0.0,0.0524891658481939,0.0,0.0,0.0,0.0,0.0,0.0,-0.052,0.0,0.0,0.0,0.0,0.0,0.0
613,0.0560390625,0.0,0.0,0.0,0.0,0.0,0.0,0.05104185588755973,0.0,0.0,0.0,0.0,0.0,0.0,0.316,0.0,0.0,0.0,0.0,0.0,0.0
614,0.0545986328125,0.0,0.0,0.0,0.0,0.0,0.0,0.04960695794276556,0.0,0.0,0.0,0.0,0.0,0.0,1.752,0.0,0.0,0.0,0.0,0.0,0.0
615,0.053158203125,0.0,0.0,0.0,0.0,0.0,0.0,0.04817836743261411,0.0,0.0,0.0,0.0,0.0,0.0,0.796,0.0,0.0,0.0,0.0,0.0,0.0
616,0.051607421875,0.0,0.0,0.0,0.0,0.0,0.0,0.04674436507929482,0.0,0.0,0.0,0.0,0.0,0.0,-1.008,0.0,0.0,0.0,0.0,0.0,0.0
617,0.05026953125,0.0,0.0,0.0,0.0,0.0,0.0,0.045297556602137114,0.0,0.0,0.0,0.0,0.0,0.0,-0.104,0.0,0.0,0.0,0.0,0.0,0.0
618,0.048822265625,0.0,0.0,0.0,0.0,0.0,0.0,0.04386238509591139,0.0,0.0,0.0,0.0,0.0,0.0,1.328,0.0,0.0,0.0,0.0,0.0,0.0
619,0.0474853515625,0.0,0.0,0.0,0.0,0.0,0.0,0.04242113155969928,0.0,0.0,0.0,0.0,0.0,0.0,0.424,0.0,0.0,0.0,0.0,0.0,0.0
620,0.046140625,0.0,0.0,0.0,0.0,0.0,0.0,0.04097987629508749,0.0,0.0,0.0,0.0,0.0,0.0,-0.104,0.0,0.0,0.0,0.0,0.0,0.0
621,0.044802734375,0.0,0.0,0.0,0.0,0.0,0.0,0.039529598180417465,0.0,0.0,0.0,0.0,0.0,0.0,0.104,0.0,0.0,0.0,0.0,0.0,0.0
622,0.0433623046875,0.0,0.0,0.0,0.0,0.0,0.0,0.038088889458835345,0.0,0.0,0.0,0.0,0.0,0.0,-0.372,0.0,0.0,0.0,0.0,0.0,0.0
623,0.042017578125,0.0,0.0,0.0,0.0,0.0,0.0,0.03664470132605857,0.0,0.0,0.0,0.0,0.0,0.0,-1.168,0.0,0.0,0.0,0.0,0.0,0.0
624,0.0406865234375,0.0,0.0,0.0,0.0,0.0,0.0,0.03518402178859821,0.0,0.0,0.0,0.0,0.0,0.0,-1.168,0.0,0.0,0.0,0.0,0.0,0.0
625,0.039341796875,0.0,0.0,0.0,0.0,0.0,0.0,0.03375018121493407,0.0,0.0,0.0,0.0,0.0,0.0,-0.744,0.0,0.0,0.0,0.0,0.0,0.0
626,0.0379013671875,0.0,0.0,0.0,0.0,0.0,0.0,0.03230405805123898,0.0,0.0,0.0,0.0,0.0,0.0,-1.276,0.0,0.0,0.0,0.0,0.0,0.0
627,0.0365576171875,0.0,0.0,0.0,0.0,0.0,0.0,0.030827076372579195,0.0,0.0,0.0,0.0,0.0,0.0,-0.372,0.0,0.0,0.0,0.0,0.0,0.0
628,0.0351162109375,0.0,0.0,0.0,0.0,0.0,0.0,0.029403827085716386,0.0,0.0,0.0,0.0,0.0,0.0,-1.008,0.0,0.0,0.0,0.0,0.0,0.0
629,0.03367578125,0.0,0.0,0.0,0.0,0.0,0.0,0.027953828969813015,0.0,0.0,0.0,0.0,0.0,0.0,-1.06,0.0,0.0,0.0,0.0,0.0,0.0
630,0.03233203125,0.0,0.0,0.0,0.0,0.0,0.0,0.026501268540895954,0.0,0.0,0.0,0.0,0.0,0.0,-0.636,0.0,0.0,0.0,0.0,0.0,0.0
631,0.030890625,0.0,0.0,0.0,0.0,0.0,0.0,0.02504576217478818,0.0,0.0,0.0,0.0,0.0,0.0,-0.052,0.0,0.0,0.0,0.0,0.0,0.0
632,0.029443359375,0.0,0.0,0.0,0.0,0.0,0.0,0.023597350387950036,0.0,0.0,0.0,0.0,0.0,0.0,-0.744,0.0,0.0,0.0,0.0,0.0,0.0
633,0.027900390625,0.0,0.0,0.0,0.0,0.0,0.0,0.02214024315313512,0.0,0.0,0.0,0.0,0.0,0.0,-1.592,0.0,0.0,0.0,0.0,0.0,0.0
634,0.0265556640625,0.0,0.0,0.0,0.0,0.0,0.0,0.0206766840604292,0.0,0.0,0.0,0.0,0.0,0.0,-0.424,0.0,0.0,0.0,0.0,0.0,0.0
635,0.025115234375,0.0,0.0,0.0,0.0,0.0,0.0,0.01923571998877947,0.0,0.0,0.0,0.0,0.0,0.0,-0.424,0.0,0.0,0.0,0.0,0.0,0.0
636,0.0235654296875,0.0,0.0,0.0,0.0,0.0,0.0,0.01777714384071116,0.0,0.0,0.0,0.0,0.0,0.0,-0.956,0.0,0.0,0.0,0.0,0.0,0.0
637,0.0221240234375,0.0,0.0,0.0,0.0,0.0,0.0,0.016307253475617376,0.0,0.0,0.0,0.0,0.0,0.0,-0.956,0.0,0.0,0.0,0.0,0.0,0.0
638,0.0205810546875,0.0,0.0,0.0,0.0,0.0,0.0,0.014870141587059744,0.0,0.0,0.0,0.0,0.0,0.0,-0.688,0.0,0.0,0.0,0.0,0.0,0.0
639,0.0191337890625,0.0,0.0,0.0,0.0,0.0,0.0,0.013399959986836157,0.0,0.0,0.0,0.0,0.0,0.0,-0.476,0.0,0.0,0.0,0.0,0.0,0.0
640,0.0176923828125,0.0,0.0,0.0,0.0,0.0,0.0,0.011961877788367955,0.0,0.0,0.0,0.0,0.0,0.0,-0.052,0.0,0.0,0.0,0.0,0.0,0.0
641,0.016142578125,0.0,0.0,0.0,0.0,0.0,0.0,0.01043689548971699,0.0,0.0,0.0,0.0,0.0,0.0,-0.052,0.0,0.0,0.0,0.0,0.0,0.0
642,0.0147021484375,0.0,0.0,0.0,0.0,0.0,0.0,0.009048285894468542,0.0,0.0,0.0,0.0,0.0,0.0,-0.476,0.0,0.0,0.0,0.0,0.0,0.0
643,0.013048828125,0.0,0.0,0.0,0.0,0.0,0.0,0.00759301033151558,0.0,0.0,0.0,0.0,0.0,0.0,-0.744,0.0,0.0,0.0,0.0,0.0,0.0
644,0.0117109375,0.0,0.0,0.0,0.0,0.0,0.0,0.006131616566623592,0.0,0.0,0.0,0.0,0.0,0.0,-0.052,0.0,0.0,0.0,0.0,0.0,0.0
645,0.01005859375,0.0,0.0,0.0,0.0,0.0,0.0,0.004678969722694997,0.0,0.0,0.0,0.0,0.0,0.0,-0.264,0.0,0.0,0.0,0.0,0.0,0.0
646,0.0086171875,0.0,0.0,0.0,0.0,0.0,0.0,0.003219195953678531,0.0,0.0,0.0,0.0,0.0,0.0,0.316,0.0,0.0,0.0,0.0,0.0,0.0
647,0.0071767578125,0.0,0.0,0.0,0.0,0.0,0.0,0.0017507651837336145,0.0,0.0,0.0,0.0,0.0,0.0,0.264,0.0,0.0,0.0,0.0,0.0,0.0
648,0.0055234375,0.0,0.0,0.0,0.0,0.0,0.0,0.00030834785691818853,0.0,0.0,0.0,0.0,0.0,0.0,-1.116,0.0,0.0,0.0,0.0,0.0,0.0
649,0.0040830078125,0.0,0.0,0.0,0.0,0.0,0.0,-0.0011487717401358546,0.0,0.0,0.0,0.0,0.0,0.0,-0.316,0.0,0.0,0.0,0.0,0.0,0.0
650,0.002533203125,0.0,0.0,0.0,0.0,0.0,0.0,-0.0026134373874867308,0.0,0.0,0.0,0.0,0.0,0.0,0.424,0.0,0.0,0.0,0.0,0.0,0.0
651,0.0008876953125,0.0,0.0,0.0,0.0,0.0,0.0,-0.004073976470365766,0.0,0.0,0.0,0.0,0.0,0.0,-0.744,0.0,0.0,0.0,0.0,0.0,0.0
652,-0.00045703125,0.0,0.0,0.0,0.0,0.0,0.0,-0.005532925391054649,0.0,0.0,0.0,0.0,0.0,0.0,-0.528,0.0,0.0,0.0,0.0,0.0,0.0
653,-0.002,0.0,0.0,0.0,0.0,0.0,0.0,-0.006985943326926147,0.0,0.0,0.0,0.0,0.0,0.0,0.796,0.0,0.0,0.0,0.0,0.0,0.0
654,-0.003447265625,0.0,0.0,0.0,0.0,0.0,0.0,-0.008445221766675963,0.0,0.0,0.0,0.0,0.0,0.0,1.38,0.0,0.0,0.0,0.0,0.0,0.0
655,-0.0049912109375,0.0,0.0,0.0,0.0,0.0,0.0,-0.00990398775701584,0.0,0.0,0.0,0.0,0.0,0.0,0.796,0.0,0.0,0.0,0.0,0.0,0.0
656,-0.006541015625,0.0,0.0,0.0,0.0,0.0,0.0,-0.011354534759070853,0.0,0.0,0.0,0.0,0.0,0.0,0.052,0.0,0.0,0.0,0.0,0.0,0.0
657,-0.00787890625,0.0,0.0,0.0,0.0,0.0,0.0,-0.01287857195412729,0.0,0.0,0.0,0.0,0.0,0.0,0.104,0.0,0.0,0.0,0.0,0.0,0.0
658,-0.0093193359375,0.0,0.0,0.0,0.0,0.0,0.0,-0.01425923921446371,0.0,0.0,0.0,0.0,0.0,0.0,0.104,0.0,0.0,0.0,0.0,0.0,0.0
659,-0.0107666015625,0.0,0.0,0.0,0.0,0.0,0.0,-0.01572970162888823,0.0,0.0,0.0,0.0,0.0,0.0,0.156,0.0,0.0,0.0,0.0,0.0,0.0
660,-0.0122080078125,0.0,0.0,0.0,0.0,0.0,0.0,-0.017178212072071743,0.0,0.0,0.0,0.0,0.0,0.0,0.316,0.0,0.0,0.0,0.0,0.0,0.0
661,-0.013654296875,0.0,0.0,0.0,0.0,0.0,0.0,-0.01864320680088879,0.0,0.0,0.0,0.0,0.0,0.0,-1.168,0.0,0.0,0.0,0.0,0.0,0.0
662,-0.0149921875,0.0,0.0,0.0,0.0,0.0,0.0,-0.020093509083074338,0.0,0.0,0.0,0.0,0.0,0.0,-0.424,0.0,0.0,0.0,0.0,0.0,0.0
663,-0.016330078125,0.0,0.0,0.0,0.0,0.0,0.0,-0.021546978134727484,0.0,0.0,0.0,0.0,0.0,0.0,0.9,0.0,0.0,0.0,0.0,0.0,0.0
664,-0.017880859375,0.0,0.0,0.0,0.0,0.0,0.0,-0.022993530876614463,0.0,0.0,0.0,0.0,0.0,0.0,-1.328,0.0,0.0,0.0,0.0,0.0,0.0
665,-0.0192177734375,0.0,0.0,0.0,0.0,0.0,0.0,-0.024438680425907085,0.0,0.0,0.0,0.0,0.0,0.0,-1.38,0.0,0.0,0.0,0.0,0.0,0.0
666,-0.0206650390625,0.0,0.0,0.0,0.0,0.0,0.0,-0.02590679470508063,0.0,0.0,0.0,0.0,0.0,0.0,-0.316,0.0,0.0,0.0,0.0,0.0,0.0
667,-0.0220029296875,0.0,0.0,0.0,0.0,0.0,0.0,-0.027356571157069572,0.0,0.0,0.0,0.0,0.0,0.0,0.956,0.0,0.0,0.0,0.0,0.0,0.0
668,-0.02334765625,0.0,0.0,0.0,0.0,0.0,0.0,-0.02879961756175692,0.0,0.0,0.0,0.0,0.0,0.0,0.316,0.0,0.0,0.0,0.0,0.0,0.0
669,-0.024890625,0.0,0.0,0.0,0.0,0.0,0.0,-0.03024399641056764,0.0,0.0,0.0,0.0,0.0,0.0,-0.956,0.0,0.0,0.0,0.0,0.0,0.0
670,-0.0261259765625,0.0,0.0,0.0,0.0,0.0,0.0,-0.03170290217099708,0.0,0.0,0.0,0.0,0.0,0.0,0.156,0.0,0.0,0.0,0.0,0.0,0.0
671,-0.02767578125,0.0,0.0,0.0,0.0,0.0,0.0,-0.03315511135038619,0.0,0.0,0.0,0.0,0.0,0.0,-1.168,0.0,0.0,0.0,0.0,0.0,0.0
672,-0.0291171875,0.0,0.0,0.0,0.0,0.0,0.0,-0.03459307604397809,0.0,0.0,0.0,0.0,0.0,0.0,-1.06,0.0,0.0,0.0,0.0,0.0,0.0
673,-0.0303583984375,0.0,0.0,0.0,0.0,0.0,0.0,-0.03603644372678807,0.0,0.0,0.0,0.0,0.0,0.0,-0.104,0.0,0.0,0.0,0.0,0.0,0.0
674,-0.0320048828125,0.0,0.0,0.0,0.0,0.0,0.0,-0.037481860861416354,0.0,0.0,0.0,0.0,0.0,0.0,-0.796,0.0,0.0,0.0,0.0,0.0,0.0
675,-0.0347890625,0.0,0.0,0.0,0.0,0.0,0.0,-0.04015705036533797,0.0,0.0,0.0,0.0,0.0,0.0,-0.424,0.0,0.0,0.0,0.0,0.0,0.0
676,-0.0347890625,0.0,0.0,0.0,0.0,0.0,0.0,-0.04078478751518976,0.0,0.0,0.0,0.0,0.0,0.0,-0.424,0.0,0.0,0.0,0.0,0.0,0.0
677,-0.036126953125,0.0,0.0,0.0,0.0,0.0,0.0,-0.042070361541514396,0.0,0.0,0.0,0.0,0.0,0.0,0.528,0.0,0.0,0.0,0.0,0.0,0.0
678,-0.037369140625,0.0,0.0,0.0,0.0,0.0,0.0,-0.043261712307527574,0.0,0.0,0.0,0.0,0.0,0.0,1.964,0.0,0.0,0.0,0.0,0.0,0.0
679,-0.039015625,0.0,0.0,0.0,0.0,0.0,0.0,-0.044700065527670155,0.0,0.0,0.0,0.0,0.0,0.0,-0.584,0.0,0.0,0.0,0.0,0.0,0.0
680,-0.040353515625,0.0,0.0,0.0,0.0,0.0,0.0,-0.04613894769565812,0.0,0.0,0.0,0.0,0.0,0.0,-2.552,0.0,0.0,0.0,0.0,0.0,0.0
681,-0.041697265625,0.0,0.0,0.0,0.0,0.0,0.0,-0.047591012686117186,0.0,0.0,0.0,0.0,0.0,0.0,-0.584,0.0,0.0,0.0,0.0,0.0,0.0
682,-0.0432412109375,0.0,0.0,0.0,0.0,0.0,0.0,-0.049020753874375066,0.0,0.0,0.0,0.0,0.0,0.0,-0.212,0.0,0.0,0.0,0.0,0.0,0.0
683,-0.0445849609375,0.0,0.0,0.0,0.0,0.0,0.0,-0.05045298207443558,0.0,0.0,0.0,0.0,0.0,0.0,-0.316,0.0,0.0,0.0,0.0,0.0,0.0
684,-0.0460263671875,0.0,0.0,0.0,0.0,0.0,0.0,-0.051904523733462694,0.0,0.0,0.0,0.0,0.0,0.0,-0.956,0.0,0.0,0.0,0.0,0.0,0.0
685,-0.04747265625,0.0,0.0,0.0,0.0,0.0,0.0,-0.05332787450249636,0.0,0.0,0.0,0.0,0.0,0.0,-0.848,0.0,0.0,0.0,0.0,0.0,0.0
686,-0.0490166015625,0.0,0.0,0.0,0.0,0.0,0.0,-0.054766757795428285,0.0,0.0,0.0,0.0,0.0,0.0,-0.744,0.0,0.0,0.0,0.0,0.0,0.0
687,-0.050560546875,0.0,0.0,0.0,0.0,0.0,0.0,-0.05623365240550321,0.0,0.0,0.0,0.0,0.0,0.0,-0.316,0.0,0.0,0.0,0.0,0.0,0.0
688,-0.0520078125,0.0,0.0,0.0,0.0,0.0,0.0,-0.05761695698059245,0.0,0.0,0.0,0.0,0.0,0.0,-0.316,0.0,0.0,0.0,0.0,0.0,0.0
689,-0.0534482421875,0.0,0.0,0.0,0.0,0.0,0.0,-0.05905784889779022,0.0,0.0,0.0,0.0,0.0,0.0,0.528,0.0,0.0,0.0,0.0,0.0,0.0
690,-0.054998046875,0.0,0.0,0.0,0.0,0.0,0.0,-0.060482182873730576,0.0,0.0,0.0,0.0,0.0,0.0,-0.156,0.0,0.0,0.0,0.0,0.0,0.0
691,-0.0565419921875,0.0,0.0,0.0,0.0,0.0,0.0,-0.06191478507298606,0.0,0.0,0.0,0.0,0.0,0.0,-0.636,0.0,0.0,0.0,0.0,0.0,0.0
692,-0.0578857421875,0.0,0.0,0.0,0.0,0.0,0.0,-0.06333538728201503,0.0,0.0,0.0,0.0,0.0,0.0,0.9,0.0,0.0,0.0,0.0,0.0,0.0
693,-0.0595322265625,0.0,0.0,0.0,0.0,0.0,0.0,-0.06475962673674361,0.0,0.0,0.0,0.0,0.0,0.0,0.316,0.0,0.0,0.0,0.0,0.0,0.0
694,-0.061076171875,0.0,0.0,0.0,0.0,0.0,0.0,-0.06619528076980681,0.0,0.0,0.0,0.0,0.0,0.0,-1.328,0.0,0.0,0.0,0.0,0.0,0.0
695,-0.0624208984375,0.0,0.0,0.0,0.0,0.0,0.0,-0.06759610553718137,0.0,0.0,0.0,0.0,0.0,0.0,-0.528,0.0,0.0,0.0,0.0,0.0,0.0
696,-0.0639638671875,0.0,0.0,0.0,0.0,0.0,0.0,-0.06902587496603334,0.0,0.0,0.0,0.0,0.0,0.0,0.584,0.0,0.0,0.0,0.0,0.0,0.0
697,-0.0655146484375,0.0,0.0,0.0,0.0,0.0,0.0,-0.0704728337363059,0.0,0.0,0.0,0.0,0.0,0.0,0.212,0.0,0.0,0.0,0.0,0.0,0.0
698,-0.066955078125,0.0,0.0,0.0,0.0,0.0,0.0,-0.07184888222897877,0.0,0.0,0.0,0.0,0.0,0.0,0.264,0.0,0.0,0.0,0.0,0.0,0.0
699,-0.0685048828125,0.0,0.0,0.0,0.0,0.0,0.0,-0.07326982000740348,0.0,0.0,0.0,0.0,0.0,0.0,0.264,0.0,0.0,0.0,0.0,0.0,0.0
700,-0.0699453125,0.0,0.0,0.0,0.0,0.0,0.0,-0.07467841316814541,0.0,0.0,0.0,0.0,0.0,0.0,-0.104,0.0,0.0,0.0,0.0,0.0,0.0
701,-0.07138671875,0.0,0.0,0.0,0.0,0.0,0.0,-0.07609147023935814,0.0,0.0,0.0,0.0,0.0,0.0,0.212,0.0,0.0,0.0,0.0,0.0,0.0
702,-0.072833984375,0.0,0.0,0.0,0.0,0.0,0.0,-0.07751564636409326,0.0,0.0,0.0,0.0,0.0,0.0,0.796,0.0,0.0,0.0,0.0,0.0,0.0
703,-0.0742744140625,0.0,0.0,0.0,0.0,0.0,0.0,-0.07890805604810575,0.0,0.0,0.0,0.0,0.0,0.0,0.156,0.0,0.0,0.0,0.0,0.0,0.0
704,-0.0757216796875,0.0,0.0,0.0,0.0,0.0,0.0,-0.08043603931746507,0.0,0.0,0.0,0.0,0.0,0.0,0.104,0.0,0.0,0.0,0.0,0.0,0.0
705,-0.0770595703125,0.0,0.0,0.0,0.0,0.0,0.0,-0.081716186225323,0.0,0.0,0.0,0.0,0.0,0.0,0.476,0.0,0.0,0.0,0.0,0.0,0.0
706,-0.0783974609375,0.0,0.0,0.0,0.0,0.0,0.0,-0.08311150065461706,0.0,0.0,0.0,0.0,0.0,0.0,0.796,0.0,0.0,0.0,0.0,0.0,0.0
707,-0.079837890625,0.0,0.0,0.0,0.0,0.0,0.0,-0.0845260038454846,0.0,0.0,0.0,0.0,0.0,0.0,-0.636,0.0,0.0,0.0,0.0,0.0,0.0
708,-0.08117578125,0.0,0.0,0.0,0.0,0.0,0.0,-0.08590644846005331,0.0,0.0,0.0,0.0,0.0,0.0,0.156,0.0,0.0,0.0,0.0,0.0,0.0
709,-0.08251953125,0.0,0.0,0.0,0.0,0.0,0.0,-0.08730950998336016,0.0,0.0,0.0,0.0,0.0,0.0,-0.156,0.0,0.0,0.0,0.0,0.0,0.0
710,-0.0839609375,0.0,0.0,0.0,0.0,0.0,0.0,-0.0887044480920177,0.0,0.0,0.0,0.0,0.0,0.0,-0.052,0.0,0.0,0.0,0.0,0.0,0.0
711,-0.0850927734375,0.0,0.0,0.0,0.0,0.0,0.0,-0.09008191215758178,0.0,0.0,0.0,0.0,0.0,0.0,0.744,0.0,0.0,0.0,0.0,0.0,0.0
712,-0.086642578125,0.0,0.0,0.0,0.0,0.0,0.0,-0.09148055176171822,0.0,0.0,0.0,0.0,0.0,0.0,-0.956,0.0,0.0,0.0,0.0,0.0,0.0
713,-0.0878779296875,0.0,0.0,0.0,0.0,0.0,0.0,-0.09286540764438532,0.0,0.0,0.0,0.0,0.0,0.0,-1.22,0.0,0.0,0.0,0.0,0.0,0.0
714,-0.0892158203125,0.0,0.0,0.0,0.0,0.0,0.0,-0.09424735276860575,0.0,0.0,0.0,0.0,0.0,0.0,-0.636,0.0,0.0,0.0,0.0,0.0,0.0
715,-0.0905595703125,0.0,0.0,0.0,0.0,0.0,0.0,-0.09562685204301483,0.0,0.0,0.0,0.0,0.0,0.0,1.008,0.0,0.0,0.0,0.0,0.0,0.0
716,-0.09169140625,0.0,0.0,0.0,0.0,0.0,0.0,-0.09699812114852424,0.0,0.0,0.0,0.0,0.0,0.0,2.072,0.0,0.0,0.0,0.0,0.0,0.0
717,-0.0933447265625,0.0,0.0,0.0,0.0,0.0,0.0,-0.09838741325082141,0.0,0.0,0.0,0.0,0.0,0.0,-1.432,0.0,0.0,0.0,0.0,0.0,0.0
718,-0.0945791015625,0.0,0.0,0.0,0.0,0.0,0.0,-0.09976028963276462,0.0,0.0,0.0,0.0,0.0,0.0,-1.86,0.0,0.0,0.0,0.0,0.0,0.0
719,-0.0957119140625,0.0,0.0,0.0,0.0,0.0,0.0,-0.10112562063153115,0.0,0.0,0.0,0.0,0.0,0.0,0.0,0.0,0.0,0.0,0.0,0.0,0.0
720,-0.09726171875,0.0,0.0,0.0,0.0,0.0,0.0,-0.10249682047185381,0.0,0.0,0.0,0.0,0.0,0.0,0.052,0.0,0.0,0.0,0.0,0.0,0.0
721,-0.09849609375,0.0,0.0,0.0,0.0,0.0,0.0,-0.10386957654596478,0.0,0.0,0.0,0.0,0.0,0.0,-1.54,0.0,0.0,0.0,0.0,0.0,0.0
722,-0.099833984375,0.0,0.0,0.0,0.0,0.0,0.0,-0.1052332942971163,0.0,0.0,0.0,0.0,0.0,0.0,-1.116,0.0,0.0,0.0,0.0,0.0,0.0
723,-0.1011787109375,0.0,0.0,0.0,0.0,0.0,0.0,-0.10659713481165617,0.0,0.0,0.0,0.0,0.0,0.0,0.156,0.0,0.0,0.0,0.0,0.0,0.0
724,-0.102619140625,0.0,0.0,0.0,0.0,0.0,0.0,-0.10795774545138088,0.0,0.0,0.0,0.0,0.0,0.0,-0.584,0.0,0.0,0.0,0.0,0.0,0.0
725,-0.10406640625,0.0,0.0,0.0,0.0,0.0,0.0,-0.10931545398036896,0.0,0.0,0.0,0.0,0.0,0.0,-0.528,0.0,0.0,0.0,0.0,0.0,0.0
726,-0.1051982421875,0.0,0.0,0.0,0.0,0.0,0.0,-0.11067148972732184,0.0,0.0,0.0,0.0,0.0,0.0,0.212,0.0,0.0,0.0,0.0,0.0,0.0
727,-0.1067421875,0.0,0.0,0.0,0.0,0.0,0.0,-0.1120327765903238,0.0,0.0,0.0,0.0,0.0,0.0,-0.688,0.0,0.0,0.0,0.0,0.0,0.0
728,-0.1080859375,0.0,0.0,0.0,0.0,0.0,0.0,-0.11338222148335783,0.0,0.0,0.0,0.0,0.0,0.0,-0.744,0.0,0.0,0.0,0.0,0.0,0.0
729,-0.109423828125,0.0,0.0,0.0,0.0,0.0,0.0,-0.11472103448150339,0.0,0.0,0.0,0.0,0.0,0.0,0.316,0.0,0.0,0.0,0.0,0.0,0.0
730,-0.1108642578125,0.0,0.0,0.0,0.0,0.0,0.0,-0.11606886961040927,0.0,0.0,0.0,0.0,0.0,0.0,0.688,0.0,0.0,0.0,0.0,0.0,0.0
731,-0.112208984375,0.0,0.0,0.0,0.0,0.0,0.0,-0.11740564298082973,0.0,0.0,0.0,0.0,0.0,0.0,-0.424,0.0,0.0,0.0,0.0,0.0,0.0
732,-0.1137529296875,0.0,0.0,0.0,0.0,0.0,0.0,-0.11875185632153351,0.0,0.0,0.0,0.0,0.0,0.0,-1.22,0.0,0.0,0.0,0.0,0.0,0.0
733,-0.114994140625,0.0,0.0,0.0,0.0,0.0,0.0,-0.12008922312644606,0.0,0.0,0.0,0.0,0.0,0.0,-0.264,0.0,0.0,0.0,0.0,0.0,0.0
734,-0.116537109375,0.0,0.0,0.0,0.0,0.0,0.0,-0.12141790875704232,0.0,0.0,0.0,0.0,0.0,0.0,-0.372,0.0,0.0,0.0,0.0,0.0,0.0
735,-0.117978515625,0.0,0.0,0.0,0.0,0.0,0.0,-0.12275237447015733,0.0,0.0,0.0,0.0,0.0,0.0,-0.372,0.0,0.0,0.0,0.0,0.0,0.0
736,-0.1192197265625,0.0,0.0,0.0,0.0,0.0,0.0,-0.12408313850416669,0.0,0.0,0.0,0.0,0.0,0.0,0.156,0.0,0.0,0.0,0.0,0.0,0.0
737,-0.120763671875,0.0,0.0,0.0,0.0,0.0,0.0,-0.12595303084830212,0.0,0.0,0.0,0.0,0.0,0.0,0.156,0.0,0.0,0.0,0.0,0.0,0.0
738,-0.1222099609375,0.0,0.0,0.0,0.0,0.0,0.0,-0.12702773603185397,0.0,0.0,0.0,0.0,0.0,0.0,-0.372,0.0,0.0,0.0,0.0,0.0,0.0
739,-0.1235478515625,0.0,0.0,0.0,0.0,0.0,0.0,-0.12817506236578025,0.0,0.0,0.0,0.0,0.0,0.0,1.328,0.0,0.0,0.0,0.0,0.0,0.0
740,-0.1248857421875,0.0,0.0,0.0,0.0,0.0,0.0,-0.12936583345988426,0.0,0.0,0.0,0.0,0.0,0.0,2.284,0.0,0.0,0.0,0.0,0.0,0.0
741,-0.1264365234375,0.0,0.0,0.0,0.0,0.0,0.0,-0.13068289574244718,0.0,0.0,0.0,0.0,0.0,0.0,-1.06,0.0,0.0,0.0,0.0,0.0,0.0
742,-0.1276708984375,0.0,0.0,0.0,0.0,0.0,0.0,-0.13198484564776217,0.0,0.0,0.0,0.0,0.0,0.0,0.372,0.0,0.0,0.0,0.0,0.0,0.0
743,-0.12890625,0.0,0.0,0.0,0.0,0.0,0.0,-0.1333120732661272,0.0,0.0,0.0,0.0,0.0,0.0,1.008,0.0,0.0,0.0,0.0,0.0,0.0
744,-0.1304560546875,0.0,0.0,0.0,0.0,0.0,0.0,-0.13460019876650053,0.0,0.0,0.0,0.0,0.0,0.0,0.424,0.0,0.0,0.0,0.0,0.0,0.0
745,-0.131587890625,0.0,0.0,0.0,0.0,0.0,0.0,-0.13589823300806703,0.0,0.0,0.0,0.0,0.0,0.0,0.156,0.0,0.0,0.0,0.0,0.0,0.0
746,-0.1330283203125,0.0,0.0,0.0,0.0,0.0,0.0,-0.13719696684231644,0.0,0.0,0.0,0.0,0.0,0.0,0.424,0.0,0.0,0.0,0.0,0.0,0.0
747,-0.13426953125,0.0,0.0,0.0,0.0,0.0,0.0,-0.13849711093153594,0.0,0.0,0.0,0.0,0.0,0.0,0.264,0.0,0.0,0.0,0.0,0.0,0.0
748,-0.1355048828125,0.0,0.0,0.0,0.0,0.0,0.0,-0.13978790210440362,0.0,0.0,0.0,0.0,0.0,0.0,0.052,0.0,0.0,0.0,0.0,0.0,0.0
749,-0.136849609375,0.0,0.0,0.0,0.0,0.0,0.0,-0.14106625948989965,0.0,0.0,0.0,0.0,0.0,0.0,1.116,0.0,0.0,0.0,0.0,0.0,0.0
750,-0.1378779296875,0.0,0.0,0.0,0.0,0.0,0.0,-0.14235213172048025,0.0,0.0,0.0,0.0,0.0,0.0,1.276,0.0,0.0,0.0,0.0,0.0,0.0
751,-0.1392158203125,0.0,0.0,0.0,0.0,0.0,0.0,-0.14363268553459746,0.0,0.0,0.0,0.0,0.0,0.0,0.104,0.0,0.0,0.0,0.0,0.0,0.0
752,-0.14034765625,0.0,0.0,0.0,0.0,0.0,0.0,-0.1449110089080953,0.0,0.0,0.0,0.0,0.0,0.0,-0.584,0.0,0.0,0.0,0.0,0.0,0.0
753,-0.14158984375,0.0,0.0,0.0,0.0,0.0,0.0,-0.14618363431714734,0.0,0.0,0.0,0.0,0.0,0.0,-0.476,0.0,0.0,0.0,0.0,0.0,0.0
754,-0.14282421875,0.0,0.0,0.0,0.0,0.0,0.0,-0.1474861888971949,0.0,0.0,0.0,0.0,0.0,0.0,0.104,0.0,0.0,0.0,0.0,0.0,0.0
755,-0.1439560546875,0.0,0.0,0.0,0.0,0.0,0.0,-0.1487270120846526,0.0,0.0,0.0,0.0,0.0,0.0,-0.316,0.0,0.0,0.0,0.0,0.0,0.0
756,-0.14530078125,0.0,0.0,0.0,0.0,0.0,0.0,-0.14998640503655258,0.0,0.0,0.0,0.0,0.0,0.0,-0.956,0.0,0.0,0.0,0.0,0.0,0.0
757,-0.146330078125,0.0,0.0,0.0,0.0,0.0,0.0,-0.151253744598937,0.0,0.0,0.0,0.0,0.0,0.0,-0.636,0.0,0.0,0.0,0.0,0.0,0.0
758,-0.1476669921875,0.0,0.0,0.0,0.0,0.0,0.0,-0.15251134231424784,0.0,0.0,0.0,0.0,0.0,0.0,-0.528,0.0,0.0,0.0,0.0,0.0,0.0
759,-0.1488056640625,0.0,0.0,0.0,0.0,0.0,0.0,-0.15375394099327896,0.0,0.0,0.0,0.0,0.0,0.0,0.0,0.0,0.0,0.0,0.0,0.0,0.0
760,-0.1499375,0.0,0.0,0.0,0.0,0.0,0.0,-0.1549991890172517,0.0,0.0,0.0,0.0,0.0,0.0,-0.372,0.0,0.0,0.0,0.0,0.0,0.0
761,-0.151275390625,0.0,0.0,0.0,0.0,0.0,0.0,-0.15625738268012138,0.0,0.0,0.0,0.0,0.0,0.0,-1.168,0.0,0.0,0.0,0.0,0.0,0.0
762,-0.1524140625,0.0,0.0,0.0,0.0,0.0,0.0,-0.1574941936078426,0.0,0.0,0.0,0.0,0.0,0.0,-0.744,0.0,0.0,0.0,0.0,0.0,0.0
763,-0.1537451171875,0.0,0.0,0.0,0.0,0.0,0.0,-0.15873088720253595,0.0,0.0,0.0,0.0,0.0,0.0,0.636,0.0,0.0,0.0,0.0,0.0,0.0
764,-0.15498046875,0.0,0.0,0.0,0.0,0.0,0.0,-0.15996646165791203,0.0,0.0,0.0,0.0,0.0,0.0,-0.156,0.0,0.0,0.0,0.0,0.0,0.0
765,-0.1562216796875,0.0,0.0,0.0,0.0,0.0,0.0,-0.16119148801713334,0.0,0.0,0.0,0.0,0.0,0.0,-1.116,0.0,0.0,0.0,0.0,0.0,0.0
766,-0.15745703125,0.0,0.0,0.0,0.0,0.0,0.0,-0.16243097342616916,0.0,0.0,0.0,0.0,0.0,0.0,-0.956,0.0,0.0,0.0,0.0,0.0,0.0
767,-0.15869140625,0.0,0.0,0.0,0.0,0.0,0.0,-0.1636671890195452,0.0,0.0,0.0,0.0,0.0,0.0,-0.264,0.0,0.0,0.0,0.0,0.0,0.0
768,-0.1599326171875,0.0,0.0,0.0,0.0,0.0,0.0,-0.16486733199535492,0.0,0.0,0.0,0.0,0.0,0.0,-0.316,0.0,0.0,0.0,0.0,0.0,0.0
769,-0.16116796875,0.0,0.0,0.0,0.0,0.0,0.0,-0.166082859517408,0.0,0.0,0.0,0.0,0.0,0.0,-0.264,0.0,0.0,0.0,0.0,0.0,0.0
770,-0.16240234375,0.0,0.0,0.0,0.0,0.0,0.0,-0.16729386262525378,0.0,0.0,0.0,0.0,0.0,0.0,0.424,0.0,0.0,0.0,0.0,0.0,0.0
771,-0.1637470703125,0.0,0.0,0.0,0.0,0.0,0.0,-0.1685099762089865,0.0,0.0,0.0,0.0,0.0,0.0,-0.156,0.0,0.0,0.0,0.0,0.0,0.0
772,-0.16487890625,0.0,0.0,0.0,0.0,0.0,0.0,-0.16972265933831945,0.0,0.0,0.0,0.0,0.0,0.0,0.052,0.0,0.0,0.0,0.0,0.0,0.0
773,-0.1661142578125,0.0,0.0,0.0,0.0,0.0,0.0,-0.17090241226275218,0.0,0.0,0.0,0.0,0.0,0.0,0.476,0.0,0.0,0.0,0.0,0.0,0.0
774,-0.1674580078125,0.0,0.0,0.0,0.0,0.0,0.0,-0.17211275396098266,0.0,0.0,0.0,0.0,0.0,0.0,-0.956,0.0,0.0,0.0,0.0,0.0,0.0
775,-0.16858984375,0.0,0.0,0.0,0.0,0.0,0.0,-0.17329051993910333,0.0,0.0,0.0,0.0,0.0,0.0,-0.796,0.0,0.0,0.0,0.0,0.0,0.0
776,-0.1698251953125,0.0,0.0,0.0,0.0,0.0,0.0,-0.17449294753894104,0.0,0.0,0.0,0.0,0.0,0.0,0.424,0.0,0.0,0.0,0.0,0.0,0.0
777,-0.17106640625,0.0,0.0,0.0,0.0,0.0,0.0,-0.17598551936520124,0.0,0.0,0.0,0.0,0.0,0.0,0.156,0.0,0.0,0.0,0.0,0.0,0.0
778,-0.17230078125,0.0,0.0,0.0,0.0,0.0,0.0,-0.17683501932461365,0.0,0.0,0.0,0.0,0.0,0.0,-0.636,0.0,0.0,0.0,0.0,0.0,0.0
779,-0.1735361328125,0.0,0.0,0.0,0.0,0.0,0.0,-0.1780348582272654,0.0,0.0,0.0,0.0,0.0,0.0,0.372,0.0,0.0,0.0,0.0,0.0,0.0
780,-0.17477734375,0.0,0.0,0.0,0.0,0.0,0.0,-0.17919760896733514,0.0,0.0,0.0,0.0,0.0,0.0,0.584,0.0,0.0,0.0,0.0,0.0,0.0
781,-0.176115234375,0.0,0.0,0.0,0.0,0.0,0.0,-0.18035035953138714,0.0,0.0,0.0,0.0,0.0,0.0,-0.372,0.0,0.0,0.0,0.0,0.0,0.0
782,-0.1772470703125,0.0,0.0,0.0,0.0,0.0,0.0,-0.1815469994290443,0.0,0.0,0.0,0.0,0.0,0.0,0.636,0.0,0.0,0.0,0.0,0.0,0.0
783,-0.17848828125,0.0,0.0,0.0,0.0,0.0,0.0,-0.1826690547272073,0.0,0.0,0.0,0.0,0.0,0.0,0.372,0.0,0.0,0.0,0.0,0.0,0.0
784,-0.179826171875,0.0,0.0,0.0,0.0,0.0,0.0,-0.1838402452649104,0.0,0.0,0.0,0.0,0.0,0.0,0.104,0.0,0.0,0.0,0.0,0.0,0.0
785,-0.18085546875,0.0,0.0,0.0,0.0,0.0,0.0,-0.18497452963435754,0.0,0.0,0.0,0.0,0.0,0.0,0.688,0.0,0.0,0.0,0.0,0.0,0.0
786,-0.182193359375,0.0,0.0,0.0,0.0,0.0,0.0,-0.18612066681739897,0.0,0.0,0.0,0.0,0.0,0.0,1.168,0.0,0.0,0.0,0.0,0.0,0.0
787,-0.18333203125,0.0,0.0,0.0,0.0,0.0,0.0,-0.18726832115621664,0.0,0.0,0.0,0.0,0.0,0.0,-0.156,0.0,0.0,0.0,0.0,0.0,0.0
788,-0.18456640625,0.0,0.0,0.0,0.0,0.0,0.0,-0.1883939297388967,0.0,0.0,0.0,0.0,0.0,0.0,-0.528,0.0,0.0,0.0,0.0,0.0,0.0
789,-0.1856982421875,0.0,0.0,0.0,0.0,0.0,0.0,-0.1895247633766089,0.0,0.0,0.0,0.0,0.0,0.0,0.9,0.0,0.0,0.0,0.0,0.0,0.0
790,-0.1868369140625,0.0,0.0,0.0,0.0,0.0,0.0,-0.1906516159720921,0.0,0.0,0.0,0.0,0.0,0.0,1.38,0.0,0.0,0.0,0.0,0.0,0.0
791,-0.188072265625,0.0,0.0,0.0,0.0,0.0,0.0,-0.19177966466271754,0.0,0.0,0.0,0.0,0.0,0.0,0.848,0.0,0.0,0.0,0.0,0.0,0.0
792,-0.1891005859375,0.0,0.0,0.0,0.0,0.0,0.0,-0.19289766550237483,0.0,0.0,0.0,0.0,0.0,0.0,-0.104,0.0,0.0,0.0,0.0,0.0,0.0
793,-0.1902392578125,0.0,0.0,0.0,0.0,0.0,0.0,-0.19400759335795953,0.0,0.0,0.0,0.0,0.0,0.0,0.528,0.0,0.0,0.0,0.0,0.0,0.0
794,-0.1912685546875,0.0,0.0,0.0,0.0,0.0,0.0,-0.19512213223259736,0.0,0.0,0.0,0.0,0.0,0.0,1.06,0.0,0.0,0.0,0.0,0.0,0.0
795,-0.192400390625,0.0,0.0,0.0,0.0,0.0,0.0,-0.1962316024037141,0.0,0.0,0.0,0.0,0.0,0.0,0.424,0.0,0.0,0.0,0.0,0.0,0.0
796,-0.1935322265625,0.0,0.0,0.0,0.0,0.0,0.0,-0.1973304615299467,0.0,0.0,0.0,0.0,0.0,0.0,-0.424,0.0,0.0,0.0,0.0,0.0,0.0
797,-0.194568359375,0.0,0.0,0.0,0.0,0.0,0.0,-0.19844293850182795,0.0,0.0,0.0,0.0,0.0,0.0,-0.156,0.0,0.0,0.0,0.0,0.0,0.0
798,-0.1955966796875,0.0,0.0,0.0,0.0,0.0,0.0,-0.19950892087611474,0.0,0.0,0.0,0.0,0.0,0.0,0.796,0.0,0.0,0.0,0.0,0.0,0.0
799,-0.1967294921875,0.0,0.0,0.0,0.0,0.0,0.0,-0.20060125074585491,0.0,0.0,0.0,0.0,0.0,0.0,0.956,0.0,0.0,0.0,0.0,0.0,0.0
800,-0.1976552734375,0.0,0.0,0.0,0.0,0.0,0.0,-0.2016799700268965,0.0,0.0,0.0,0.0,0.0,0.0,0.636,0.0,0.0,0.0,0.0,0.0,0.0
801,-0.1987939453125,0.0,0.0,0.0,0.0,0.0,0.0,-0.20276188979601428,0.0,0.0,0.0,0.0,0.0,0.0,-1.276,0.0,0.0,0.0,0.0,0.0,0.0
802,-0.1997197265625,0.0,0.0,0.0,0.0,0.0,0.0,-0.20383117642602214,0.0,0.0,0.0,0.0,0.0,0.0,-0.476,0.0,0.0,0.0,0.0,0.0,0.0
803,-0.2007490234375,0.0,0.0,0.0,0.0,0.0,0.0,-0.2048990749101296,0.0,0.0,0.0,0.0,0.0,0.0,0.424,0.0,0.0,0.0,0.0,0.0,0.0
804,-0.2018876953125,0.0,0.0,0.0,0.0,0.0,0.0,-0.20596975724490676,0.0,0.0,0.0,0.0,0.0,0.0,-0.212,0.0,0.0,0.0,0.0,0.0,0.0
805,-0.2027109375,0.0,0.0,0.0,0.0,0.0,0.0,-0.20700693689639912,0.0,0.0,0.0,0.0,0.0,0.0,-0.476,0.0,0.0,0.0,0.0,0.0,0.0
806,-0.2038427734375,0.0,0.0,0.0,0.0,0.0,0.0,-0.20806847301283105,0.0,0.0,0.0,0.0,0.0,0.0,-0.212,0.0,0.0,0.0,0.0,0.0,0.0
807,-0.2048720703125,0.0,0.0,0.0,0.0,0.0,0.0,-0.20912356816203065,0.0,0.0,0.0,0.0,0.0,0.0,-0.636,0.0,0.0,0.0,0.0,0.0,0.0
808,-0.2059072265625,0.0,0.0,0.0,0.0,0.0,0.0,-0.2101535746606473,0.0,0.0,0.0,0.0,0.0,0.0,-0.848,0.0,0.0,0.0,0.0,0.0,0.0
809,-0.2069365234375,0.0,0.0,0.0,0.0,0.0,0.0,-0.21119127434980456,0.0,0.0,0.0,0.0,0.0,0.0,-0.052,0.0,0.0,0.0,0.0,0.0,0.0
810,-0.2078623046875,0.0,0.0,0.0,0.0,0.0,0.0,-0.21222160689793043,0.0,0.0,0.0,0.0,0.0,0.0,0.0,0.0,0.0,0.0,0.0,0.0,0.0
811,-0.208994140625,0.0,0.0,0.0,0.0,0.0,0.0,-0.21325975673051037,0.0,0.0,0.0,0.0,0.0,0.0,0.052,0.0,0.0,0.0,0.0,0.0,0.0
812,-0.2100302734375,0.0,0.0,0.0,0.0,0.0,0.0,-0.21429145653747264,0.0,0.0,0.0,0.0,0.0,0.0,0.156,0.0,0.0,0.0,0.0,0.0,0.0
813,-0.2110595703125,0.0,0.0,0.0,0.0,0.0,0.0,-0.21529529114635051,0.0,0.0,0.0,0.0,0.0,0.0,-0.212,0.0,0.0,0.0,0.0,0.0,0.0
814,-0.211978515625,0.0,0.0,0.0,0.0,0.0,0.0,-0.21630272570241382,0.0,0.0,0.0,0.0,0.0,0.0,-0.052,0.0,0.0,0.0,0.0,0.0,0.0
815,-0.213111328125,0.0,0.0,0.0,0.0,0.0,0.0,-0.21730805147743731,0.0,0.0,0.0,0.0,0.0,0.0,-0.688,0.0,0.0,0.0,0.0,0.0,0.0
816,-0.214146484375,0.0,0.0,0.0,0.0,0.0,0.0,-0.21830845965619838,0.0,0.0,0.0,0.0,0.0,0.0,-0.372,0.0,0.0,0.0,0.0,0.0,0.0
817,-0.215072265625,0.0,0.0,0.0,0.0,0.0,0.0,-0.219311983537164,0.0,0.0,0.0,0.0,0.0,0.0,-0.584,0.0,0.0,0.0,0.0,0.0,0.0
818,-0.2162041015625,0.0,0.0,0.0,0.0,0.0,0.0,-0.2203008788856827,0.0,0.0,0.0,0.0,0.0,0.0,-0.212,0.0,0.0,0.0,0.0,0.0,0.0
819,-0.217130859375,0.0,0.0,0.0,0.0,0.0,0.0,-0.22128655300812017,0.0,0.0,0.0,0.0,0.0,0.0,0.264,0.0,0.0,0.0,0.0,0.0,0.0
820,-0.218166015625,0.0,0.0,0.0,0.0,0.0,0.0,-0.22226976842415816,0.0,0.0,0.0,0.0,0.0,0.0,0.584,0.0,0.0,0.0,0.0,0.0,0.0
821,-0.2191953125,0.0,0.0,0.0,0.0,0.0,0.0,-0.2232450968376798,0.0,0.0,0.0,0.0,0.0,0.0,-0.796,0.0,0.0,0.0,0.0,0.0,0.0
822,-0.220224609375,0.0,0.0,0.0,0.0,0.0,0.0,-0.22421389644849304,0.0,0.0,0.0,0.0,0.0,0.0,-0.636,0.0,0.0,0.0,0.0,0.0,0.0
823,-0.221150390625,0.0,0.0,0.0,0.0,0.0,0.0,-0.22517646363650945,0.0,0.0,0.0,0.0,0.0,0.0,0.584,0.0,0.0,0.0,0.0,0.0,0.0
824,-0.2221865234375,0.0,0.0,0.0,0.0,0.0,0.0,-0.22615146489717164,0.0,0.0,0.0,0.0,0.0,0.0,0.476,0.0,0.0,0.0,0.0,0.0,0.0
825,-0.22321484375,0.0,0.0,0.0,0.0,0.0,0.0,-0.22709565510707636,0.0,0.0,0.0,0.0,0.0,0.0,-0.744,0.0,0.0,0.0,0.0,0.0,0.0
826,-0.2241416015625,0.0,0.0,0.0,0.0,0.0,0.0,-0.22804112976128402,0.0,0.0,0.0,0.0,0.0,0.0,-0.372,0.0,0.0,0.0,0.0,0.0,0.0
827,-0.2250673828125,0.0,0.0,0.0,0.0,0.0,0.0,-0.22901749214327188,0.0,0.0,0.0,0.0,0.0,0.0,0.104,0.0,0.0,0.0,0.0,0.0,0.0
828,-0.226103515625,0.0,0.0,0.0,0.0,0.0,0.0,-0.22992549264234374,0.0,0.0,0.0,0.0,0.0,0.0,-0.052,0.0,0.0,0.0,0.0,0.0,0.0
829,-0.227029296875,0.0,0.0,0.0,0.0,0.0,0.0,-0.23085706138720058,0.0,0.0,0.0,0.0,0.0,0.0,-0.372,0.0,0.0,0.0,0.0,0.0,0.0
830,-0.22805859375,0.0,0.0,0.0,0.0,0.0,0.0,-0.2317915627020464,0.0,0.0,0.0,0.0,0.0,0.0,-0.052,0.0,0.0,0.0,0.0,0.0,0.0
831,-0.228984375,0.0,0.0,0.0,0.0,0.0,0.0,-0.23271387359141088,0.0,0.0,0.0,0.0,0.0,0.0,0.584,0.0,0.0,0.0,0.0,0.0,0.0
832,-0.2300205078125,0.0,0.0,0.0,0.0,0.0,0.0,-0.23362749087556076,0.0,0.0,0.0,0.0,0.0,0.0,0.372,0.0,0.0,0.0,0.0,0.0,0.0
833,-0.2309462890625,0.0,0.0,0.0,0.0,0.0,0.0,-0.23453782307272414,0.0,0.0,0.0,0.0,0.0,0.0,-0.156,0.0,0.0,0.0,0.0,0.0,0.0
834,-0.2318720703125,0.0,0.0,0.0,0.0,0.0,0.0,-0.23544668197764868,0.0,0.0,0.0,0.0,0.0,0.0,0.584,0.0,0.0,0.0,0.0,0.0,0.0
835,-0.232798828125,0.0,0.0,0.0,0.0,0.0,0.0,-0.23635069762479297,0.0,0.0,0.0,0.0,0.0,0.0,0.636,0.0,0.0,0.0,0.0,0.0,0.0
836,-0.233724609375,0.0,0.0,0.0,0.0,0.0,0.0,-0.23723979834159734,0.0,0.0,0.0,0.0,0.0,0.0,0.0,0.0,0.0,0.0,0.0,0.0,0.0
837,-0.2345546875,0.0,0.0,0.0,0.0,0.0,0.0,-0.23813161231340574,0.0,0.0,0.0,0.0,0.0,0.0,0.0,0.0,0.0,0.0,0.0,0.0,0.0
838,-0.23548046875,0.0,0.0,0.0,0.0,0.0,0.0,-0.23900859843728905,0.0,0.0,0.0,0.0,0.0,0.0,0.264,0.0,0.0,0.0,0.0,0.0,0.0
839,-0.236509765625,0.0,0.0,0.0,0.0,0.0,0.0,-0.23988609926608387,0.0,0.0,0.0,0.0,0.0,0.0,-0.104,0.0,0.0,0.0,0.0,0.0,0.0
840,-0.2373330078125,0.0,0.0,0.0,0.0,0.0,0.0,-0.24076505432284903,0.0,0.0,0.0,0.0,0.0,0.0,0.636,0.0,0.0,0.0,0.0,0.0,0.0
841,-0.238265625,0.0,0.0,0.0,0.0,0.0,0.0,-0.24163229020897944,0.0,0.0,0.0,0.0,0.0,0.0,0.424,0.0,0.0,0.0,0.0,0.0,0.0
842,-0.23919140625,0.0,0.0,0.0,0.0,0.0,0.0,-0.24248823142590598,0.0,0.0,0.0,0.0,0.0,0.0,-0.052,0.0,0.0,0.0,0.0,0.0,0.0
843,-0.2400146484375,0.0,0.0,0.0,0.0,0.0,0.0,-0.24334227488629487,0.0,0.0,0.0,0.0,0.0,0.0,-0.316,0.0,0.0,0.0,0.0,0.0,0.0
844,-0.24094140625,0.0,0.0,0.0,0.0,0.0,0.0,-0.2441928717480549,0.0,0.0,0.0,0.0,0.0,0.0,0.796,0.0,0.0,0.0,0.0,0.0,0.0
845,-0.2417646484375,0.0,0.0,0.0,0.0,0.0,0.0,-0.2450356661532655,0.0,0.0,0.0,0.0,0.0,0.0,0.744,0.0,0.0,0.0,0.0,0.0,0.0
846,-0.242697265625,0.0,0.0,0.0,0.0,0.0,0.0,-0.24587402400915215,0.0,0.0,0.0,0.0,0.0,0.0,-0.052,0.0,0.0,0.0,0.0,0.0,0.0
847,-0.2435205078125,0.0,0.0,0.0,0.0,0.0,0.0,-0.2467120485825089,0.0,0.0,0.0,0.0,0.0,0.0,-0.212,0.0,0.0,0.0,0.0,0.0,0.0
848,-0.24434375,0.0,0.0,0.0,0.0,0.0,0.0,-0.2475310178444077,0.0,0.0,0.0,0.0,0.0,0.0,0.848,0.0,0.0,0.0,0.0,0.0,0.0
849,-0.2451669921875,0.0,0.0,0.0,0.0,0.0,0.0,-0.24835664315161096,0.0,0.0,0.0,0.0,0.0,0.0,0.744,0.0,0.0,0.0,0.0,0.0,0.0
