EmanuelSamir/lab201_ws_projsamir/sawyer_dev/data/sawyer/all_thought/test_joint7/validation_data_05.csv
,j1,j2,j3,j4,j5,j6,j7,v1,v2,v3,v4,v5,v6,v7,jd1,jd2,jd3,jd4,jd5,jd6,jd7,e1,e2,e3,e4,e5,e6,e7
0,0.0,0.0,0.0,0.0,0.0,0.0,0.0,0.0,0.0,0.0,0.0,0.0,0.0,0.0,0.0,0.0,0.0,0.0,0.0,0.0,0.0,0.0,0.0,0.0,0.0,0.0,0.0,0.0
1,0.0,0.0,0.0,0.0,0.0,0.0,-0.000845703125,0.0,0.0,0.0,0.0,0.0,0.0,-0.001,0.0,0.0,0.0,0.0,0.0,0.0,5.578994750795681e-06,0.0,0.0,0.0,0.0,0.0,0.0,0.068
2,0.0,0.0,0.0,0.0,0.0,0.0,-0.000845703125,0.0,0.0,0.0,0.0,0.0,0.0,-0.001,0.0,0.0,0.0,0.0,0.0,0.0,0.001057003698434388,0.0,0.0,0.0,0.0,0.0,0.0,0.068
3,0.0,0.0,0.0,0.0,0.0,0.0,-0.000845703125,0.0,0.0,0.0,0.0,0.0,0.0,-0.001,0.0,0.0,0.0,0.0,0.0,0.0,0.003085153507906314,0.0,0.0,0.0,0.0,0.0,0.0,0.076
4,0.0,0.0,0.0,0.0,0.0,0.0,-0.000845703125,0.0,0.0,0.0,0.0,0.0,0.0,-0.001,0.0,0.0,0.0,0.0,0.0,0.0,0.005075652279509947,0.0,0.0,0.0,0.0,0.0,0.0,0.076
5,0.0,0.0,0.0,0.0,0.0,0.0,-0.000845703125,0.0,0.0,0.0,0.0,0.0,0.0,-0.001,0.0,0.0,0.0,0.0,0.0,0.0,0.00707923167388376,0.0,0.0,0.0,0.0,0.0,0.0,0.096
6,0.0,0.0,0.0,0.0,0.0,0.0,-0.0006396484375,0.0,0.0,0.0,0.0,0.0,0.0,-0.001,0.0,0.0,0.0,0.0,0.0,0.0,0.009085398354641307,0.0,0.0,0.0,0.0,0.0,0.0,0.128
7,0.0,0.0,0.0,0.0,0.0,0.0,-3.22265625e-05,0.0,0.0,0.0,0.0,0.0,0.0,0.03,0.0,0.0,0.0,0.0,0.0,0.0,0.011070983272124501,0.0,0.0,0.0,0.0,0.0,0.0,0.232
8,0.0,0.0,0.0,0.0,0.0,0.0,0.0018134765625,0.0,0.0,0.0,0.0,0.0,0.0,0.125,0.0,0.0,0.0,0.0,0.0,0.0,0.013078456310011161,0.0,0.0,0.0,0.0,0.0,0.0,0.188
9,0.0,0.0,0.0,0.0,0.0,0.0,0.0036728515625,0.0,0.0,0.0,0.0,0.0,0.0,0.176,0.0,0.0,0.0,0.0,0.0,0.0,0.015064443109140997,0.0,0.0,0.0,0.0,0.0,0.0,0.16
10,0.0,0.0,0.0,0.0,0.0,0.0,0.0065390625,0.0,0.0,0.0,0.0,0.0,0.0,0.227,0.0,0.0,0.0,0.0,0.0,0.0,0.017071972644231576,0.0,0.0,0.0,0.0,0.0,0.0,0.192
11,0.0,0.0,0.0,0.0,0.0,0.0,0.009625,0.0,0.0,0.0,0.0,0.0,0.0,0.299,0.0,0.0,0.0,0.0,0.0,0.0,0.0190705457906684,0.0,0.0,0.0,0.0,0.0,0.0,0.208
12,0.0,0.0,0.0,0.0,0.0,0.0,0.012904296875,0.0,0.0,0.0,0.0,0.0,0.0,0.321,0.0,0.0,0.0,0.0,0.0,0.0,0.0210602611906605,0.0,0.0,0.0,0.0,0.0,0.0,0.24
13,0.0,0.0,0.0,0.0,0.0,0.0,0.0157705078125,0.0,0.0,0.0,0.0,0.0,0.0,0.301,0.0,0.0,0.0,0.0,0.0,0.0,0.023060784028289538,0.0,0.0,0.0,0.0,0.0,0.0,0.292
14,0.0,0.0,0.0,0.0,0.0,0.0,0.0186494140625,0.0,0.0,0.0,0.0,0.0,0.0,0.301,0.0,0.0,0.0,0.0,0.0,0.0,0.025612034807376394,0.0,0.0,0.0,0.0,0.0,0.0,0.244
15,0.0,0.0,0.0,0.0,0.0,0.0,0.021322265625,0.0,0.0,0.0,0.0,0.0,0.0,0.28,0.0,0.0,0.0,0.0,0.0,0.0,0.027055904802388748,0.0,0.0,0.0,0.0,0.0,0.0,0.172
16,0.0,0.0,0.0,0.0,0.0,0.0,0.023775390625,0.0,0.0,0.0,0.0,0.0,0.0,0.256,0.0,0.0,0.0,0.0,0.0,0.0,0.029047409169956063,0.0,0.0,0.0,0.0,0.0,0.0,0.12
17,0.0,0.0,0.0,0.0,0.0,0.0,0.0260341796875,0.0,0.0,0.0,0.0,0.0,0.0,0.243,0.0,0.0,0.0,0.0,0.0,0.0,0.031038142409951553,0.0,0.0,0.0,0.0,0.0,0.0,0.096
18,0.0,0.0,0.0,0.0,0.0,0.0,0.027880859375,0.0,0.0,0.0,0.0,0.0,0.0,0.206,0.0,0.0,0.0,0.0,0.0,0.0,0.03304088561074639,0.0,0.0,0.0,0.0,0.0,0.0,0.116
19,0.0,0.0,0.0,0.0,0.0,0.0,0.0291201171875,0.0,0.0,0.0,0.0,0.0,0.0,0.158,0.0,0.0,0.0,0.0,0.0,0.0,0.035032440079278235,0.0,0.0,0.0,0.0,0.0,0.0,0.136
20,0.0,0.0,0.0,0.0,0.0,0.0,0.030140625,0.0,0.0,0.0,0.0,0.0,0.0,0.119,0.0,0.0,0.0,0.0,0.0,0.0,0.037027487852068296,0.0,0.0,0.0,0.0,0.0,0.0,0.128
21,0.0,0.0,0.0,0.0,0.0,0.0,0.0313798828125,0.0,0.0,0.0,0.0,0.0,0.0,0.107,0.0,0.0,0.0,0.0,0.0,0.0,0.039040114886895204,0.0,0.0,0.0,0.0,0.0,0.0,0.156
22,0.0,0.0,0.0,0.0,0.0,0.0,0.0326064453125,0.0,0.0,0.0,0.0,0.0,0.0,0.124,0.0,0.0,0.0,0.0,0.0,0.0,0.04100265217869362,0.0,0.0,0.0,0.0,0.0,0.0,0.18
23,0.0,0.0,0.0,0.0,0.0,0.0,0.03424609375,0.0,0.0,0.0,0.0,0.0,0.0,0.141,0.0,0.0,0.0,0.0,0.0,0.0,0.043004109662143235,0.0,0.0,0.0,0.0,0.0,0.0,0.172
24,0.0,0.0,0.0,0.0,0.0,0.0,0.0358857421875,0.0,0.0,0.0,0.0,0.0,0.0,0.159,0.0,0.0,0.0,0.0,0.0,0.0,0.044996139414282814,0.0,0.0,0.0,0.0,0.0,0.0,0.128
25,0.0,0.0,0.0,0.0,0.0,0.0,0.0375380859375,0.0,0.0,0.0,0.0,0.0,0.0,0.165,0.0,0.0,0.0,0.0,0.0,0.0,0.0469634100187363,0.0,0.0,0.0,0.0,0.0,0.0,0.116
26,0.0,0.0,0.0,0.0,0.0,0.0,0.039177734375,0.0,0.0,0.0,0.0,0.0,0.0,0.163,0.0,0.0,0.0,0.0,0.0,0.0,0.04897079711806006,0.0,0.0,0.0,0.0,0.0,0.0,0.12
27,0.0,0.0,0.0,0.0,0.0,0.0,0.0414375,0.0,0.0,0.0,0.0,0.0,0.0,0.193,0.0,0.0,0.0,0.0,0.0,0.0,0.05094264389819306,0.0,0.0,0.0,0.0,0.0,0.0,0.16
28,0.0,0.0,0.0,0.0,0.0,0.0,0.043890625,0.0,0.0,0.0,0.0,0.0,0.0,0.242,0.0,0.0,0.0,0.0,0.0,0.0,0.05293185532078637,0.0,0.0,0.0,0.0,0.0,0.0,0.136
29,0.0,0.0,0.0,0.0,0.0,0.0,0.0463564453125,0.0,0.0,0.0,0.0,0.0,0.0,0.239,0.0,0.0,0.0,0.0,0.0,0.0,0.0549251196946285,0.0,0.0,0.0,0.0,0.0,0.0,0.12
30,0.0,0.0,0.0,0.0,0.0,0.0,0.0484091796875,0.0,0.0,0.0,0.0,0.0,0.0,0.23,0.0,0.0,0.0,0.0,0.0,0.0,0.056894197945143624,0.0,0.0,0.0,0.0,0.0,0.0,0.14
31,0.0,0.0,0.0,0.0,0.0,0.0,0.0506689453125,0.0,0.0,0.0,0.0,0.0,0.0,0.222,0.0,0.0,0.0,0.0,0.0,0.0,0.058866397808247095,0.0,0.0,0.0,0.0,0.0,0.0,0.16
32,0.0,0.0,0.0,0.0,0.0,0.0,0.053134765625,0.0,0.0,0.0,0.0,0.0,0.0,0.227,0.0,0.0,0.0,0.0,0.0,0.0,0.060849012508916195,0.0,0.0,0.0,0.0,0.0,0.0,0.148
33,0.0,0.0,0.0,0.0,0.0,0.0,0.05539453125,0.0,0.0,0.0,0.0,0.0,0.0,0.233,0.0,0.0,0.0,0.0,0.0,0.0,0.06282279883368705,0.0,0.0,0.0,0.0,0.0,0.0,0.148
34,0.0,0.0,0.0,0.0,0.0,0.0,0.057447265625,0.0,0.0,0.0,0.0,0.0,0.0,0.223,0.0,0.0,0.0,0.0,0.0,0.0,0.06478791288123564,0.0,0.0,0.0,0.0,0.0,0.0,0.192
35,0.0,0.0,0.0,0.0,0.0,0.0,0.0595,0.0,0.0,0.0,0.0,0.0,0.0,0.206,0.0,0.0,0.0,0.0,0.0,0.0,0.06677055747103132,0.0,0.0,0.0,0.0,0.0,0.0,0.192
36,0.0,0.0,0.0,0.0,0.0,0.0,0.061552734375,0.0,0.0,0.0,0.0,0.0,0.0,0.206,0.0,0.0,0.0,0.0,0.0,0.0,0.06882437168727089,0.0,0.0,0.0,0.0,0.0,0.0,0.18
37,0.0,0.0,0.0,0.0,0.0,0.0,0.063205078125,0.0,0.0,0.0,0.0,0.0,0.0,0.182,0.0,0.0,0.0,0.0,0.0,0.0,0.07070375233960603,0.0,0.0,0.0,0.0,0.0,0.0,0.188
38,0.0,0.0,0.0,0.0,0.0,0.0,0.0650517578125,0.0,0.0,0.0,0.0,0.0,0.0,0.178,0.0,0.0,0.0,0.0,0.0,0.0,0.07295573647650809,0.0,0.0,0.0,0.0,0.0,0.0,0.168
39,0.0,0.0,0.0,0.0,0.0,0.0,0.0668974609375,0.0,0.0,0.0,0.0,0.0,0.0,0.192,0.0,0.0,0.0,0.0,0.0,0.0,0.07463969388917763,0.0,0.0,0.0,0.0,0.0,0.0,0.108
40,0.0,0.0,0.0,0.0,0.0,0.0,0.068744140625,0.0,0.0,0.0,0.0,0.0,0.0,0.186,0.0,0.0,0.0,0.0,0.0,0.0,0.07659697730007115,0.0,0.0,0.0,0.0,0.0,0.0,0.096
41,0.0,0.0,0.0,0.0,0.0,0.0,0.069970703125,0.0,0.0,0.0,0.0,0.0,0.0,0.155,0.0,0.0,0.0,0.0,0.0,0.0,0.07857054642799194,0.0,0.0,0.0,0.0,0.0,0.0,0.116
42,0.0,0.0,0.0,0.0,0.0,0.0,0.07181640625,0.0,0.0,0.0,0.0,0.0,0.0,0.152,0.0,0.0,0.0,0.0,0.0,0.0,0.08055217009097299,0.0,0.0,0.0,0.0,0.0,0.0,0.104
43,0.0,0.0,0.0,0.0,0.0,0.0,0.0734697265625,0.0,0.0,0.0,0.0,0.0,0.0,0.168,0.0,0.0,0.0,0.0,0.0,0.0,0.08248549700677564,0.0,0.0,0.0,0.0,0.0,0.0,0.108
44,0.0,0.0,0.0,0.0,0.0,0.0,0.075109375,0.0,0.0,0.0,0.0,0.0,0.0,0.166,0.0,0.0,0.0,0.0,0.0,0.0,0.08443503779648734,0.0,0.0,0.0,0.0,0.0,0.0,0.104
45,0.0,0.0,0.0,0.0,0.0,0.0,0.0767490234375,0.0,0.0,0.0,0.0,0.0,0.0,0.17,0.0,0.0,0.0,0.0,0.0,0.0,0.08640664529551087,0.0,0.0,0.0,0.0,0.0,0.0,0.104
46,0.0,0.0,0.0,0.0,0.0,0.0,0.0788017578125,0.0,0.0,0.0,0.0,0.0,0.0,0.186,0.0,0.0,0.0,0.0,0.0,0.0,0.0883735884301362,0.0,0.0,0.0,0.0,0.0,0.0,0.096
47,0.0,0.0,0.0,0.0,0.0,0.0,0.0806474609375,0.0,0.0,0.0,0.0,0.0,0.0,0.199,0.0,0.0,0.0,0.0,0.0,0.0,0.0902860285520161,0.0,0.0,0.0,0.0,0.0,0.0,0.096
48,0.0,0.0,0.0,0.0,0.0,0.0,0.082494140625,0.0,0.0,0.0,0.0,0.0,0.0,0.181,0.0,0.0,0.0,0.0,0.0,0.0,0.09225605836407924,0.0,0.0,0.0,0.0,0.0,0.0,0.104
49,0.0,0.0,0.0,0.0,0.0,0.0,0.08475390625,0.0,0.0,0.0,0.0,0.0,0.0,0.207,0.0,0.0,0.0,0.0,0.0,0.0,0.09418637546694253,0.0,0.0,0.0,0.0,0.0,0.0,0.16
50,0.0,0.0,0.0,0.0,0.0,0.0,0.0870126953125,0.0,0.0,0.0,0.0,0.0,0.0,0.215,0.0,0.0,0.0,0.0,0.0,0.0,0.09612992540394848,0.0,0.0,0.0,0.0,0.0,0.0,0.168
51,0.0,0.0,0.0,0.0,0.0,0.0,0.0890654296875,0.0,0.0,0.0,0.0,0.0,0.0,0.221,0.0,0.0,0.0,0.0,0.0,0.0,0.09807865112124327,0.0,0.0,0.0,0.0,0.0,0.0,0.16
52,0.0,0.0,0.0,0.0,0.0,0.0,0.090912109375,0.0,0.0,0.0,0.0,0.0,0.0,0.206,0.0,0.0,0.0,0.0,0.0,0.0,0.09999872527053542,0.0,0.0,0.0,0.0,0.0,0.0,0.2
53,0.0,0.0,0.0,0.0,0.0,0.0,0.0927587890625,0.0,0.0,0.0,0.0,0.0,0.0,0.186,0.0,0.0,0.0,0.0,0.0,0.0,0.10194382607699609,0.0,0.0,0.0,0.0,0.0,0.0,0.188
54,0.0,0.0,0.0,0.0,0.0,0.0,0.0946044921875,0.0,0.0,0.0,0.0,0.0,0.0,0.178,0.0,0.0,0.0,0.0,0.0,0.0,0.10388423404070851,0.0,0.0,0.0,0.0,0.0,0.0,0.232
55,0.0,0.0,0.0,0.0,0.0,0.0,0.096451171875,0.0,0.0,0.0,0.0,0.0,0.0,0.189,0.0,0.0,0.0,0.0,0.0,0.0,0.10583954415159298,0.0,0.0,0.0,0.0,0.0,0.0,0.224
56,0.0,0.0,0.0,0.0,0.0,0.0,0.09850390625,0.0,0.0,0.0,0.0,0.0,0.0,0.194,0.0,0.0,0.0,0.0,0.0,0.0,0.1078081644455367,0.0,0.0,0.0,0.0,0.0,0.0,0.232
57,0.0,0.0,0.0,0.0,0.0,0.0,0.100349609375,0.0,0.0,0.0,0.0,0.0,0.0,0.201,0.0,0.0,0.0,0.0,0.0,0.0,0.1096553002934708,0.0,0.0,0.0,0.0,0.0,0.0,0.284
58,0.0,0.0,0.0,0.0,0.0,0.0,0.10240234375,0.0,0.0,0.0,0.0,0.0,0.0,0.191,0.0,0.0,0.0,0.0,0.0,0.0,0.11159227392855871,0.0,0.0,0.0,0.0,0.0,0.0,0.296
59,0.0,0.0,0.0,0.0,0.0,0.0,0.1042490234375,0.0,0.0,0.0,0.0,0.0,0.0,0.197,0.0,0.0,0.0,0.0,0.0,0.0,0.11349651097551881,0.0,0.0,0.0,0.0,0.0,0.0,0.272
60,0.0,0.0,0.0,0.0,0.0,0.0,0.1059013671875,0.0,0.0,0.0,0.0,0.0,0.0,0.173,0.0,0.0,0.0,0.0,0.0,0.0,0.1159364930872602,0.0,0.0,0.0,0.0,0.0,0.0,0.24
61,0.0,0.0,0.0,0.0,0.0,0.0,0.107541015625,0.0,0.0,0.0,0.0,0.0,0.0,0.168,0.0,0.0,0.0,0.0,0.0,0.0,0.11732901612962106,0.0,0.0,0.0,0.0,0.0,0.0,0.18
62,0.0,0.0,0.0,0.0,0.0,0.0,0.1093876953125,0.0,0.0,0.0,0.0,0.0,0.0,0.18,0.0,0.0,0.0,0.0,0.0,0.0,0.11923364974613038,0.0,0.0,0.0,0.0,0.0,0.0,0.156
63,0.0,0.0,0.0,0.0,0.0,0.0,0.1116474609375,0.0,0.0,0.0,0.0,0.0,0.0,0.202,0.0,0.0,0.0,0.0,0.0,0.0,0.12114468252973361,0.0,0.0,0.0,0.0,0.0,0.0,0.14
64,0.0,0.0,0.0,0.0,0.0,0.0,0.11390625,0.0,0.0,0.0,0.0,0.0,0.0,0.218,0.0,0.0,0.0,0.0,0.0,0.0,0.12306615092735827,0.0,0.0,0.0,0.0,0.0,0.0,0.136
65,0.0,0.0,0.0,0.0,0.0,0.0,0.1157529296875,0.0,0.0,0.0,0.0,0.0,0.0,0.212,0.0,0.0,0.0,0.0,0.0,0.0,0.12498394416427808,0.0,0.0,0.0,0.0,0.0,0.0,0.128
66,0.0,0.0,0.0,0.0,0.0,0.0,0.1175986328125,0.0,0.0,0.0,0.0,0.0,0.0,0.19,0.0,0.0,0.0,0.0,0.0,0.0,0.12718775236191837,0.0,0.0,0.0,0.0,0.0,0.0,0.14
67,0.0,0.0,0.0,0.0,0.0,0.0,0.1194453125,0.0,0.0,0.0,0.0,0.0,0.0,0.18,0.0,0.0,0.0,0.0,0.0,0.0,0.12882263143139702,0.0,0.0,0.0,0.0,0.0,0.0,0.156
68,0.0,0.0,0.0,0.0,0.0,0.0,0.1208779296875,0.0,0.0,0.0,0.0,0.0,0.0,0.164,0.0,0.0,0.0,0.0,0.0,0.0,0.130618052313325,0.0,0.0,0.0,0.0,0.0,0.0,0.156
69,0.0,0.0,0.0,0.0,0.0,0.0,0.122517578125,0.0,0.0,0.0,0.0,0.0,0.0,0.157,0.0,0.0,0.0,0.0,0.0,0.0,0.13254542001492658,0.0,0.0,0.0,0.0,0.0,0.0,0.128
70,0.0,0.0,0.0,0.0,0.0,0.0,0.1245712890625,0.0,0.0,0.0,0.0,0.0,0.0,0.184,0.0,0.0,0.0,0.0,0.0,0.0,0.13443511612316758,0.0,0.0,0.0,0.0,0.0,0.0,0.128
71,0.0,0.0,0.0,0.0,0.0,0.0,0.1266240234375,0.0,0.0,0.0,0.0,0.0,0.0,0.206,0.0,0.0,0.0,0.0,0.0,0.0,0.13629171368004897,0.0,0.0,0.0,0.0,0.0,0.0,0.116
72,0.0,0.0,0.0,0.0,0.0,0.0,0.1286767578125,0.0,0.0,0.0,0.0,0.0,0.0,0.206,0.0,0.0,0.0,0.0,0.0,0.0,0.13817180001814305,0.0,0.0,0.0,0.0,0.0,0.0,0.128
73,0.0,0.0,0.0,0.0,0.0,0.0,0.1305224609375,0.0,0.0,0.0,0.0,0.0,0.0,0.194,0.0,0.0,0.0,0.0,0.0,0.0,0.1400453000440481,0.0,0.0,0.0,0.0,0.0,0.0,0.148
74,0.0,0.0,0.0,0.0,0.0,0.0,0.1323818359375,0.0,0.0,0.0,0.0,0.0,0.0,0.189,0.0,0.0,0.0,0.0,0.0,0.0,0.14193394011334134,0.0,0.0,0.0,0.0,0.0,0.0,0.136
75,0.0,0.0,0.0,0.0,0.0,0.0,0.1358681640625,0.0,0.0,0.0,0.0,0.0,0.0,0.171,0.0,0.0,0.0,0.0,0.0,0.0,0.14555231000956975,0.0,0.0,0.0,0.0,0.0,0.0,0.148
76,0.0,0.0,0.0,0.0,0.0,0.0,0.1377138671875,0.0,0.0,0.0,0.0,0.0,0.0,0.18,0.0,0.0,0.0,0.0,0.0,0.0,0.14713854590777328,0.0,0.0,0.0,0.0,0.0,0.0,0.136
77,0.0,0.0,0.0,0.0,0.0,0.0,0.1377138671875,0.0,0.0,0.0,0.0,0.0,0.0,0.18,0.0,0.0,0.0,0.0,0.0,0.0,0.14821438126916062,0.0,0.0,0.0,0.0,0.0,0.0,0.136
78,0.0,0.0,0.0,0.0,0.0,0.0,0.1389404296875,0.0,0.0,0.0,0.0,0.0,0.0,0.162,0.0,0.0,0.0,0.0,0.0,0.0,0.14942198987796224,0.0,0.0,0.0,0.0,0.0,0.0,0.12
79,0.0,0.0,0.0,0.0,0.0,0.0,0.14059375,0.0,0.0,0.0,0.0,0.0,0.0,0.132,0.0,0.0,0.0,0.0,0.0,0.0,0.15201004169454846,0.0,0.0,0.0,0.0,0.0,0.0,0.18
80,0.0,0.0,0.0,0.0,0.0,0.0,0.14283984375,0.0,0.0,0.0,0.0,0.0,0.0,0.185,0.0,0.0,0.0,0.0,0.0,0.0,0.1532423631633525,0.0,0.0,0.0,0.0,0.0,0.0,0.172
81,0.0,0.0,0.0,0.0,0.0,0.0,0.14469921875,0.0,0.0,0.0,0.0,0.0,0.0,0.211,0.0,0.0,0.0,0.0,0.0,0.0,0.154911618664074,0.0,0.0,0.0,0.0,0.0,0.0,0.192
82,0.0,0.0,0.0,0.0,0.0,0.0,0.1488046875,0.0,0.0,0.0,0.0,0.0,0.0,0.193,0.0,0.0,0.0,0.0,0.0,0.0,0.1577543427075827,0.0,0.0,0.0,0.0,0.0,0.0,0.2
83,0.0,0.0,0.0,0.0,0.0,0.0,0.1488046875,0.0,0.0,0.0,0.0,0.0,0.0,0.193,0.0,0.0,0.0,0.0,0.0,0.0,0.15904374136897353,0.0,0.0,0.0,0.0,0.0,0.0,0.2
84,0.0,0.0,0.0,0.0,0.0,0.0,0.1506513671875,0.0,0.0,0.0,0.0,0.0,0.0,0.211,0.0,0.0,0.0,0.0,0.0,0.0,0.16042811279355496,0.0,0.0,0.0,0.0,0.0,0.0,0.14
85,0.0,0.0,0.0,0.0,0.0,0.0,0.1527041015625,0.0,0.0,0.0,0.0,0.0,0.0,0.188,0.0,0.0,0.0,0.0,0.0,0.0,0.1622669966355924,0.0,0.0,0.0,0.0,0.0,0.0,0.108
86,0.0,0.0,0.0,0.0,0.0,0.0,0.1551572265625,0.0,0.0,0.0,0.0,0.0,0.0,0.225,0.0,0.0,0.0,0.0,0.0,0.0,0.16415409682613025,0.0,0.0,0.0,0.0,0.0,0.0,0.088
87,0.0,0.0,0.0,0.0,0.0,0.0,0.1572099609375,0.0,0.0,0.0,0.0,0.0,0.0,0.233,0.0,0.0,0.0,0.0,0.0,0.0,0.16590999895709235,0.0,0.0,0.0,0.0,0.0,0.0,0.068
88,0.0,0.0,0.0,0.0,0.0,0.0,0.1592626953125,0.0,0.0,0.0,0.0,0.0,0.0,0.206,0.0,0.0,0.0,0.0,0.0,0.0,0.1683029087932919,0.0,0.0,0.0,0.0,0.0,0.0,0.096
89,0.0,0.0,0.0,0.0,0.0,0.0,0.1611220703125,0.0,0.0,0.0,0.0,0.0,0.0,0.201,0.0,0.0,0.0,0.0,0.0,0.0,0.17015842702785716,0.0,0.0,0.0,0.0,0.0,0.0,0.104
90,0.0,0.0,0.0,0.0,0.0,0.0,0.1629677734375,0.0,0.0,0.0,0.0,0.0,0.0,0.184,0.0,0.0,0.0,0.0,0.0,0.0,0.17192351031467976,0.0,0.0,0.0,0.0,0.0,0.0,0.096
91,0.0,0.0,0.0,0.0,0.0,0.0,0.1662470703125,0.0,0.0,0.0,0.0,0.0,0.0,0.162,0.0,0.0,0.0,0.0,0.0,0.0,0.1754262175605913,0.0,0.0,0.0,0.0,0.0,0.0,0.084
92,0.0,0.0,0.0,0.0,0.0,0.0,0.1676806640625,0.0,0.0,0.0,0.0,0.0,0.0,0.159,0.0,0.0,0.0,0.0,0.0,0.0,0.17642654678049788,0.0,0.0,0.0,0.0,0.0,0.0,0.088
93,0.0,0.0,0.0,0.0,0.0,0.0,0.1676806640625,0.0,0.0,0.0,0.0,0.0,0.0,0.159,0.0,0.0,0.0,0.0,0.0,0.0,0.17800328405700017,0.0,0.0,0.0,0.0,0.0,0.0,0.088
94,0.0,0.0,0.0,0.0,0.0,0.0,0.168919921875,0.0,0.0,0.0,0.0,0.0,0.0,0.134,0.0,0.0,0.0,0.0,0.0,0.0,0.17909161755609068,0.0,0.0,0.0,0.0,0.0,0.0,0.12
95,0.0,0.0,0.0,0.0,0.0,0.0,0.1705595703125,0.0,0.0,0.0,0.0,0.0,0.0,0.134,0.0,0.0,0.0,0.0,0.0,0.0,0.18032804852310913,0.0,0.0,0.0,0.0,0.0,0.0,0.128
96,0.0,0.0,0.0,0.0,0.0,0.0,0.17219921875,0.0,0.0,0.0,0.0,0.0,0.0,0.176,0.0,0.0,0.0,0.0,0.0,0.0,0.18217567116342814,0.0,0.0,0.0,0.0,0.0,0.0,0.14
97,0.0,0.0,0.0,0.0,0.0,0.0,0.1740458984375,0.0,0.0,0.0,0.0,0.0,0.0,0.175,0.0,0.0,0.0,0.0,0.0,0.0,0.18405426214018428,0.0,0.0,0.0,0.0,0.0,0.0,0.148
98,0.0,0.0,0.0,0.0,0.0,0.0,0.175685546875,0.0,0.0,0.0,0.0,0.0,0.0,0.17,0.0,0.0,0.0,0.0,0.0,0.0,0.18569445667497864,0.0,0.0,0.0,0.0,0.0,0.0,0.18
99,0.0,0.0,0.0,0.0,0.0,0.0,0.177337890625,0.0,0.0,0.0,0.0,0.0,0.0,0.171,0.0,0.0,0.0,0.0,0.0,0.0,0.18744143453024945,0.0,0.0,0.0,0.0,0.0,0.0,0.2
100,0.0,0.0,0.0,0.0,0.0,0.0,0.1791845703125,0.0,0.0,0.0,0.0,0.0,0.0,0.173,0.0,0.0,0.0,0.0,0.0,0.0,0.189282230868515,0.0,0.0,0.0,0.0,0.0,0.0,0.192
101,0.0,0.0,0.0,0.0,0.0,0.0,0.18082421875,0.0,0.0,0.0,0.0,0.0,0.0,0.179,0.0,0.0,0.0,0.0,0.0,0.0,0.1913246062545009,0.0,0.0,0.0,0.0,0.0,0.0,0.2
102,0.0,0.0,0.0,0.0,0.0,0.0,0.1824638671875,0.0,0.0,0.0,0.0,0.0,0.0,0.164,0.0,0.0,0.0,0.0,0.0,0.0,0.19269974461920894,0.0,0.0,0.0,0.0,0.0,0.0,0.192
103,0.0,0.0,0.0,0.0,0.0,0.0,0.183703125,0.0,0.0,0.0,0.0,0.0,0.0,0.148,0.0,0.0,0.0,0.0,0.0,0.0,0.19446936306583398,0.0,0.0,0.0,0.0,0.0,0.0,0.252
104,0.0,0.0,0.0,0.0,0.0,0.0,0.185548828125,0.0,0.0,0.0,0.0,0.0,0.0,0.148,0.0,0.0,0.0,0.0,0.0,0.0,0.1962085397139939,0.0,0.0,0.0,0.0,0.0,0.0,0.272
105,0.0,0.0,0.0,0.0,0.0,0.0,0.1876025390625,0.0,0.0,0.0,0.0,0.0,0.0,0.19,0.0,0.0,0.0,0.0,0.0,0.0,0.19795469605083788,0.0,0.0,0.0,0.0,0.0,0.0,0.304
106,0.0,0.0,0.0,0.0,0.0,0.0,0.1892421875,0.0,0.0,0.0,0.0,0.0,0.0,0.192,0.0,0.0,0.0,0.0,0.0,0.0,0.19969425934983864,0.0,0.0,0.0,0.0,0.0,0.0,0.276
107,0.0,0.0,0.0,0.0,0.0,0.0,0.191087890625,0.0,0.0,0.0,0.0,0.0,0.0,0.175,0.0,0.0,0.0,0.0,0.0,0.0,0.2014222973956568,0.0,0.0,0.0,0.0,0.0,0.0,0.284
108,0.0,0.0,0.0,0.0,0.0,0.0,0.1929345703125,0.0,0.0,0.0,0.0,0.0,0.0,0.175,0.0,0.0,0.0,0.0,0.0,0.0,0.20314905177512577,0.0,0.0,0.0,0.0,0.0,0.0,0.24
109,0.0,0.0,0.0,0.0,0.0,0.0,0.1947802734375,0.0,0.0,0.0,0.0,0.0,0.0,0.189,0.0,0.0,0.0,0.0,0.0,0.0,0.2048824323479701,0.0,0.0,0.0,0.0,0.0,0.0,0.168
110,0.0,0.0,0.0,0.0,0.0,0.0,0.1968330078125,0.0,0.0,0.0,0.0,0.0,0.0,0.195,0.0,0.0,0.0,0.0,0.0,0.0,0.20659881262430507,0.0,0.0,0.0,0.0,0.0,0.0,0.14
111,0.0,0.0,0.0,0.0,0.0,0.0,0.1990927734375,0.0,0.0,0.0,0.0,0.0,0.0,0.221,0.0,0.0,0.0,0.0,0.0,0.0,0.20829121347158708,0.0,0.0,0.0,0.0,0.0,0.0,0.12
112,0.0,0.0,0.0,0.0,0.0,0.0,0.200939453125,0.0,0.0,0.0,0.0,0.0,0.0,0.204,0.0,0.0,0.0,0.0,0.0,0.0,0.20999312428642872,0.0,0.0,0.0,0.0,0.0,0.0,0.148
113,0.0,0.0,0.0,0.0,0.0,0.0,0.2029921875,0.0,0.0,0.0,0.0,0.0,0.0,0.192,0.0,0.0,0.0,0.0,0.0,0.0,0.21171241928288645,0.0,0.0,0.0,0.0,0.0,0.0,0.16
114,0.0,0.0,0.0,0.0,0.0,0.0,0.204837890625,0.0,0.0,0.0,0.0,0.0,0.0,0.193,0.0,0.0,0.0,0.0,0.0,0.0,0.21339500171845172,0.0,0.0,0.0,0.0,0.0,0.0,0.168
115,0.0,0.0,0.0,0.0,0.0,0.0,0.2064912109375,0.0,0.0,0.0,0.0,0.0,0.0,0.177,0.0,0.0,0.0,0.0,0.0,0.0,0.21509186156719579,0.0,0.0,0.0,0.0,0.0,0.0,0.168
116,0.0,0.0,0.0,0.0,0.0,0.0,0.207923828125,0.0,0.0,0.0,0.0,0.0,0.0,0.154,0.0,0.0,0.0,0.0,0.0,0.0,0.21719292551223007,0.0,0.0,0.0,0.0,0.0,0.0,0.16
117,0.0,0.0,0.0,0.0,0.0,0.0,0.2095634765625,0.0,0.0,0.0,0.0,0.0,0.0,0.161,0.0,0.0,0.0,0.0,0.0,0.0,0.21847476701234025,0.0,0.0,0.0,0.0,0.0,0.0,0.136
118,0.0,0.0,0.0,0.0,0.0,0.0,0.2105966796875,0.0,0.0,0.0,0.0,0.0,0.0,0.137,0.0,0.0,0.0,0.0,0.0,0.0,0.22011598119710218,0.0,0.0,0.0,0.0,0.0,0.0,0.12
119,0.0,0.0,0.0,0.0,0.0,0.0,0.212029296875,0.0,0.0,0.0,0.0,0.0,0.0,0.111,0.0,0.0,0.0,0.0,0.0,0.0,0.22177935889580908,0.0,0.0,0.0,0.0,0.0,0.0,0.148
120,0.0,0.0,0.0,0.0,0.0,0.0,0.2138759765625,0.0,0.0,0.0,0.0,0.0,0.0,0.163,0.0,0.0,0.0,0.0,0.0,0.0,0.2234371779332559,0.0,0.0,0.0,0.0,0.0,0.0,0.128
121,0.0,0.0,0.0,0.0,0.0,0.0,0.215515625,0.0,0.0,0.0,0.0,0.0,0.0,0.184,0.0,0.0,0.0,0.0,0.0,0.0,0.22510532186747445,0.0,0.0,0.0,0.0,0.0,0.0,0.14
122,0.0,0.0,0.0,0.0,0.0,0.0,0.2171552734375,0.0,0.0,0.0,0.0,0.0,0.0,0.16,0.0,0.0,0.0,0.0,0.0,0.0,0.2267667737627037,0.0,0.0,0.0,0.0,0.0,0.0,0.156
123,0.0,0.0,0.0,0.0,0.0,0.0,0.2188076171875,0.0,0.0,0.0,0.0,0.0,0.0,0.164,0.0,0.0,0.0,0.0,0.0,0.0,0.22838212101821626,0.0,0.0,0.0,0.0,0.0,0.0,0.156
124,0.0,0.0,0.0,0.0,0.0,0.0,0.220447265625,0.0,0.0,0.0,0.0,0.0,0.0,0.172,0.0,0.0,0.0,0.0,0.0,0.0,0.23002613547516712,0.0,0.0,0.0,0.0,0.0,0.0,0.168
125,0.0,0.0,0.0,0.0,0.0,0.0,0.2222939453125,0.0,0.0,0.0,0.0,0.0,0.0,0.175,0.0,0.0,0.0,0.0,0.0,0.0,0.23167933032796026,0.0,0.0,0.0,0.0,0.0,0.0,0.16
126,0.0,0.0,0.0,0.0,0.0,0.0,0.22393359375,0.0,0.0,0.0,0.0,0.0,0.0,0.172,0.0,0.0,0.0,0.0,0.0,0.0,0.23328212602199178,0.0,0.0,0.0,0.0,0.0,0.0,0.148
127,0.0,0.0,0.0,0.0,0.0,0.0,0.2253798828125,0.0,0.0,0.0,0.0,0.0,0.0,0.155,0.0,0.0,0.0,0.0,0.0,0.0,0.23490334952642794,0.0,0.0,0.0,0.0,0.0,0.0,0.156
128,0.0,0.0,0.0,0.0,0.0,0.0,0.2272255859375,0.0,0.0,0.0,0.0,0.0,0.0,0.16,0.0,0.0,0.0,0.0,0.0,0.0,0.2365235878334124,0.0,0.0,0.0,0.0,0.0,0.0,0.168
129,0.0,0.0,0.0,0.0,0.0,0.0,0.2286591796875,0.0,0.0,0.0,0.0,0.0,0.0,0.173,0.0,0.0,0.0,0.0,0.0,0.0,0.23815293742074642,0.0,0.0,0.0,0.0,0.0,0.0,0.192
130,0.0,0.0,0.0,0.0,0.0,0.0,0.230298828125,0.0,0.0,0.0,0.0,0.0,0.0,0.153,0.0,0.0,0.0,0.0,0.0,0.0,0.2397396992228949,0.0,0.0,0.0,0.0,0.0,0.0,0.192
131,0.0,0.0,0.0,0.0,0.0,0.0,0.2313310546875,0.0,0.0,0.0,0.0,0.0,0.0,0.138,0.0,0.0,0.0,0.0,0.0,0.0,0.2413499520871104,0.0,0.0,0.0,0.0,0.0,0.0,0.208
132,0.0,0.0,0.0,0.0,0.0,0.0,0.2327646484375,0.0,0.0,0.0,0.0,0.0,0.0,0.116,0.0,0.0,0.0,0.0,0.0,0.0,0.24294044080671762,0.0,0.0,0.0,0.0,0.0,0.0,0.18
133,0.0,0.0,0.0,0.0,0.0,0.0,0.234404296875,0.0,0.0,0.0,0.0,0.0,0.0,0.158,0.0,0.0,0.0,0.0,0.0,0.0,0.24452467806822345,0.0,0.0,0.0,0.0,0.0,0.0,0.208
134,0.0,0.0,0.0,0.0,0.0,0.0,0.2360439453125,0.0,0.0,0.0,0.0,0.0,0.0,0.169,0.0,0.0,0.0,0.0,0.0,0.0,0.24610627277030575,0.0,0.0,0.0,0.0,0.0,0.0,0.168
135,0.0,0.0,0.0,0.0,0.0,0.0,0.2379033203125,0.0,0.0,0.0,0.0,0.0,0.0,0.168,0.0,0.0,0.0,0.0,0.0,0.0,0.24767293847831945,0.0,0.0,0.0,0.0,0.0,0.0,0.116
136,0.0,0.0,0.0,0.0,0.0,0.0,0.2397490234375,0.0,0.0,0.0,0.0,0.0,0.0,0.184,0.0,0.0,0.0,0.0,0.0,0.0,0.2492439093535997,0.0,0.0,0.0,0.0,0.0,0.0,0.116
137,0.0,0.0,0.0,0.0,0.0,0.0,0.2418017578125,0.0,0.0,0.0,0.0,0.0,0.0,0.193,0.0,0.0,0.0,0.0,0.0,0.0,0.2508172011627221,0.0,0.0,0.0,0.0,0.0,0.0,0.088
138,0.0,0.0,0.0,0.0,0.0,0.0,0.2436484375,0.0,0.0,0.0,0.0,0.0,0.0,0.194,0.0,0.0,0.0,0.0,0.0,0.0,0.2523785753116246,0.0,0.0,0.0,0.0,0.0,0.0,0.12
139,0.0,0.0,0.0,0.0,0.0,0.0,0.245908203125,0.0,0.0,0.0,0.0,0.0,0.0,0.206,0.0,0.0,0.0,0.0,0.0,0.0,0.25390249008636373,0.0,0.0,0.0,0.0,0.0,0.0,0.084
140,0.0,0.0,0.0,0.0,0.0,0.0,0.24775390625,0.0,0.0,0.0,0.0,0.0,0.0,0.209,0.0,0.0,0.0,0.0,0.0,0.0,0.2554615020907525,0.0,0.0,0.0,0.0,0.0,0.0,0.096
141,0.0,0.0,0.0,0.0,0.0,0.0,0.2491875,0.0,0.0,0.0,0.0,0.0,0.0,0.161,0.0,0.0,0.0,0.0,0.0,0.0,0.25698121164260246,0.0,0.0,0.0,0.0,0.0,0.0,0.104
142,0.0,0.0,0.0,0.0,0.0,0.0,0.2508271484375,0.0,0.0,0.0,0.0,0.0,0.0,0.153,0.0,0.0,0.0,0.0,0.0,0.0,0.25851322518299197,0.0,0.0,0.0,0.0,0.0,0.0,0.104
143,0.0,0.0,0.0,0.0,0.0,0.0,0.2522734375,0.0,0.0,0.0,0.0,0.0,0.0,0.166,0.0,0.0,0.0,0.0,0.0,0.0,0.26004302943331553,0.0,0.0,0.0,0.0,0.0,0.0,0.084
144,0.0,0.0,0.0,0.0,0.0,0.0,0.2537060546875,0.0,0.0,0.0,0.0,0.0,0.0,0.143,0.0,0.0,0.0,0.0,0.0,0.0,0.2615541521852073,0.0,0.0,0.0,0.0,0.0,0.0,0.104
145,0.0,0.0,0.0,0.0,0.0,0.0,0.2551396484375,0.0,0.0,0.0,0.0,0.0,0.0,0.139,0.0,0.0,0.0,0.0,0.0,0.0,0.26321364016299775,0.0,0.0,0.0,0.0,0.0,0.0,0.108
146,0.0,0.0,0.0,0.0,0.0,0.0,0.2565849609375,0.0,0.0,0.0,0.0,0.0,0.0,0.146,0.0,0.0,0.0,0.0,0.0,0.0,0.2649762137675312,0.0,0.0,0.0,0.0,0.0,0.0,0.156
147,0.0,0.0,0.0,0.0,0.0,0.0,0.2580185546875,0.0,0.0,0.0,0.0,0.0,0.0,0.141,0.0,0.0,0.0,0.0,0.0,0.0,0.26608220220943135,0.0,0.0,0.0,0.0,0.0,0.0,0.168
148,0.0,0.0,0.0,0.0,0.0,0.0,0.2592451171875,0.0,0.0,0.0,0.0,0.0,0.0,0.14,0.0,0.0,0.0,0.0,0.0,0.0,0.2675507800217553,0.0,0.0,0.0,0.0,0.0,0.0,0.148
149,0.0,0.0,0.0,0.0,0.0,0.0,0.260484375,0.0,0.0,0.0,0.0,0.0,0.0,0.126,0.0,0.0,0.0,0.0,0.0,0.0,0.26904024360485157,0.0,0.0,0.0,0.0,0.0,0.0,0.172
150,0.0,0.0,0.0,0.0,0.0,0.0,0.26191796875,0.0,0.0,0.0,0.0,0.0,0.0,0.135,0.0,0.0,0.0,0.0,0.0,0.0,0.27074146795037274,0.0,0.0,0.0,0.0,0.0,0.0,0.168
151,0.0,0.0,0.0,0.0,0.0,0.0,0.26336328125,0.0,0.0,0.0,0.0,0.0,0.0,0.139,0.0,0.0,0.0,0.0,0.0,0.0,0.2719892447488174,0.0,0.0,0.0,0.0,0.0,0.0,0.192
152,0.0,0.0,0.0,0.0,0.0,0.0,0.26458984375,0.0,0.0,0.0,0.0,0.0,0.0,0.125,0.0,0.0,0.0,0.0,0.0,0.0,0.27380534048595995,0.0,0.0,0.0,0.0,0.0,0.0,0.208
153,0.0,0.0,0.0,0.0,0.0,0.0,0.2662421875,0.0,0.0,0.0,0.0,0.0,0.0,0.141,0.0,0.0,0.0,0.0,0.0,0.0,0.27492828466834246,0.0,0.0,0.0,0.0,0.0,0.0,0.224
154,0.0,0.0,0.0,0.0,0.0,0.0,0.26767578125,0.0,0.0,0.0,0.0,0.0,0.0,0.159,0.0,0.0,0.0,0.0,0.0,0.0,0.2763534181525107,0.0,0.0,0.0,0.0,0.0,0.0,0.232
155,0.0,0.0,0.0,0.0,0.0,0.0,0.2691220703125,0.0,0.0,0.0,0.0,0.0,0.0,0.151,0.0,0.0,0.0,0.0,0.0,0.0,0.27779187434042707,0.0,0.0,0.0,0.0,0.0,0.0,0.232
156,0.0,0.0,0.0,0.0,0.0,0.0,0.27076171875,0.0,0.0,0.0,0.0,0.0,0.0,0.154,0.0,0.0,0.0,0.0,0.0,0.0,0.27923885689754324,0.0,0.0,0.0,0.0,0.0,0.0,0.24
157,0.0,0.0,0.0,0.0,0.0,0.0,0.2721943359375,0.0,0.0,0.0,0.0,0.0,0.0,0.158,0.0,0.0,0.0,0.0,0.0,0.0,0.2806663799392292,0.0,0.0,0.0,0.0,0.0,0.0,0.292
158,0.0,0.0,0.0,0.0,0.0,0.0,0.27384765625,0.0,0.0,0.0,0.0,0.0,0.0,0.151,0.0,0.0,0.0,0.0,0.0,0.0,0.28208419144889585,0.0,0.0,0.0,0.0,0.0,0.0,0.292
159,0.0,0.0,0.0,0.0,0.0,0.0,0.2748671875,0.0,0.0,0.0,0.0,0.0,0.0,0.138,0.0,0.0,0.0,0.0,0.0,0.0,0.28349401193918883,0.0,0.0,0.0,0.0,0.0,0.0,0.336
160,0.0,0.0,0.0,0.0,0.0,0.0,0.2762998046875,0.0,0.0,0.0,0.0,0.0,0.0,0.119,0.0,0.0,0.0,0.0,0.0,0.0,0.2850358614343292,0.0,0.0,0.0,0.0,0.0,0.0,0.276
161,0.0,0.0,0.0,0.0,0.0,0.0,0.2775400390625,0.0,0.0,0.0,0.0,0.0,0.0,0.134,0.0,0.0,0.0,0.0,0.0,0.0,0.28630308535705773,0.0,0.0,0.0,0.0,0.0,0.0,0.292
162,0.0,0.0,0.0,0.0,0.0,0.0,0.2787666015625,0.0,0.0,0.0,0.0,0.0,0.0,0.134,0.0,0.0,0.0,0.0,0.0,0.0,0.2877006360372337,0.0,0.0,0.0,0.0,0.0,0.0,0.24
163,0.0,0.0,0.0,0.0,0.0,0.0,0.2802119140625,0.0,0.0,0.0,0.0,0.0,0.0,0.129,0.0,0.0,0.0,0.0,0.0,0.0,0.28908251137999746,0.0,0.0,0.0,0.0,0.0,0.0,0.22
164,0.0,0.0,0.0,0.0,0.0,0.0,0.2818515625,0.0,0.0,0.0,0.0,0.0,0.0,0.149,0.0,0.0,0.0,0.0,0.0,0.0,0.29046051289768826,0.0,0.0,0.0,0.0,0.0,0.0,0.18
165,0.0,0.0,0.0,0.0,0.0,0.0,0.2834912109375,0.0,0.0,0.0,0.0,0.0,0.0,0.155,0.0,0.0,0.0,0.0,0.0,0.0,0.29183305378722046,0.0,0.0,0.0,0.0,0.0,0.0,0.156
166,0.0,0.0,0.0,0.0,0.0,0.0,0.2851318359375,0.0,0.0,0.0,0.0,0.0,0.0,0.164,0.0,0.0,0.0,0.0,0.0,0.0,0.29320302266522,0.0,0.0,0.0,0.0,0.0,0.0,0.116
167,0.0,0.0,0.0,0.0,0.0,0.0,0.2867841796875,0.0,0.0,0.0,0.0,0.0,0.0,0.168,0.0,0.0,0.0,0.0,0.0,0.0,0.2945428867082048,0.0,0.0,0.0,0.0,0.0,0.0,0.156
168,0.0,0.0,0.0,0.0,0.0,0.0,0.288423828125,0.0,0.0,0.0,0.0,0.0,0.0,0.161,0.0,0.0,0.0,0.0,0.0,0.0,0.2958969722783868,0.0,0.0,0.0,0.0,0.0,0.0,0.14
169,0.0,0.0,0.0,0.0,0.0,0.0,0.2898564453125,0.0,0.0,0.0,0.0,0.0,0.0,0.156,0.0,0.0,0.0,0.0,0.0,0.0,0.29723355853034783,0.0,0.0,0.0,0.0,0.0,0.0,0.168
170,0.0,0.0,0.0,0.0,0.0,0.0,0.2912900390625,0.0,0.0,0.0,0.0,0.0,0.0,0.147,0.0,0.0,0.0,0.0,0.0,0.0,0.2985676933606896,0.0,0.0,0.0,0.0,0.0,0.0,0.156
171,0.0,0.0,0.0,0.0,0.0,0.0,0.292529296875,0.0,0.0,0.0,0.0,0.0,0.0,0.137,0.0,0.0,0.0,0.0,0.0,0.0,0.2999060132453636,0.0,0.0,0.0,0.0,0.0,0.0,0.14
172,0.0,0.0,0.0,0.0,0.0,0.0,0.293962890625,0.0,0.0,0.0,0.0,0.0,0.0,0.131,0.0,0.0,0.0,0.0,0.0,0.0,0.30122186977041165,0.0,0.0,0.0,0.0,0.0,0.0,0.18
173,0.0,0.0,0.0,0.0,0.0,0.0,0.2952021484375,0.0,0.0,0.0,0.0,0.0,0.0,0.132,0.0,0.0,0.0,0.0,0.0,0.0,0.30253061349837895,0.0,0.0,0.0,0.0,0.0,0.0,0.148
174,0.0,0.0,0.0,0.0,0.0,0.0,0.2962216796875,0.0,0.0,0.0,0.0,0.0,0.0,0.111,0.0,0.0,0.0,0.0,0.0,0.0,0.30386318637353943,0.0,0.0,0.0,0.0,0.0,0.0,0.156
175,0.0,0.0,0.0,0.0,0.0,0.0,0.2974609375,0.0,0.0,0.0,0.0,0.0,0.0,0.113,0.0,0.0,0.0,0.0,0.0,0.0,0.3051300290922711,0.0,0.0,0.0,0.0,0.0,0.0,0.148
176,0.0,0.0,0.0,0.0,0.0,0.0,0.2986875,0.0,0.0,0.0,0.0,0.0,0.0,0.128,0.0,0.0,0.0,0.0,0.0,0.0,0.3064187745219839,0.0,0.0,0.0,0.0,0.0,0.0,0.136
177,0.0,0.0,0.0,0.0,0.0,0.0,0.2999140625,0.0,0.0,0.0,0.0,0.0,0.0,0.133,0.0,0.0,0.0,0.0,0.0,0.0,0.30772795629350397,0.0,0.0,0.0,0.0,0.0,0.0,0.14
178,0.0,0.0,0.0,0.0,0.0,0.0,0.3015673828125,0.0,0.0,0.0,0.0,0.0,0.0,0.134,0.0,0.0,0.0,0.0,0.0,0.0,0.3089745469897985,0.0,0.0,0.0,0.0,0.0,0.0,0.168
179,0.0,0.0,0.0,0.0,0.0,0.0,0.3027939453125,0.0,0.0,0.0,0.0,0.0,0.0,0.141,0.0,0.0,0.0,0.0,0.0,0.0,0.3102392071974551,0.0,0.0,0.0,0.0,0.0,0.0,0.148
180,0.0,0.0,0.0,0.0,0.0,0.0,0.304033203125,0.0,0.0,0.0,0.0,0.0,0.0,0.129,0.0,0.0,0.0,0.0,0.0,0.0,0.311530290921325,0.0,0.0,0.0,0.0,0.0,0.0,0.156
181,0.0,0.0,0.0,0.0,0.0,0.0,0.3054658203125,0.0,0.0,0.0,0.0,0.0,0.0,0.129,0.0,0.0,0.0,0.0,0.0,0.0,0.3127564372489276,0.0,0.0,0.0,0.0,0.0,0.0,0.172
182,0.0,0.0,0.0,0.0,0.0,0.0,0.3066923828125,0.0,0.0,0.0,0.0,0.0,0.0,0.132,0.0,0.0,0.0,0.0,0.0,0.0,0.3140065295931664,0.0,0.0,0.0,0.0,0.0,0.0,0.16
183,0.0,0.0,0.0,0.0,0.0,0.0,0.307931640625,0.0,0.0,0.0,0.0,0.0,0.0,0.126,0.0,0.0,0.0,0.0,0.0,0.0,0.3152326840276673,0.0,0.0,0.0,0.0,0.0,0.0,0.168
184,0.0,0.0,0.0,0.0,0.0,0.0,0.309158203125,0.0,0.0,0.0,0.0,0.0,0.0,0.126,0.0,0.0,0.0,0.0,0.0,0.0,0.3164608410437646,0.0,0.0,0.0,0.0,0.0,0.0,0.172
185,0.0,0.0,0.0,0.0,0.0,0.0,0.3103984375,0.0,0.0,0.0,0.0,0.0,0.0,0.119,0.0,0.0,0.0,0.0,0.0,0.0,0.31768243594336787,0.0,0.0,0.0,0.0,0.0,0.0,0.136
186,0.0,0.0,0.0,0.0,0.0,0.0,0.31141796875,0.0,0.0,0.0,0.0,0.0,0.0,0.118,0.0,0.0,0.0,0.0,0.0,0.0,0.31889087714013997,0.0,0.0,0.0,0.0,0.0,0.0,0.16
187,0.0,0.0,0.0,0.0,0.0,0.0,0.3126572265625,0.0,0.0,0.0,0.0,0.0,0.0,0.119,0.0,0.0,0.0,0.0,0.0,0.0,0.32009950506100615,0.0,0.0,0.0,0.0,0.0,0.0,0.18
188,0.0,0.0,0.0,0.0,0.0,0.0,0.3138837890625,0.0,0.0,0.0,0.0,0.0,0.0,0.115,0.0,0.0,0.0,0.0,0.0,0.0,0.32128722180183233,0.0,0.0,0.0,0.0,0.0,0.0,0.188
189,0.0,0.0,0.0,0.0,0.0,0.0,0.3151103515625,0.0,0.0,0.0,0.0,0.0,0.0,0.12,0.0,0.0,0.0,0.0,0.0,0.0,0.3224770525516675,0.0,0.0,0.0,0.0,0.0,0.0,0.212
190,0.0,0.0,0.0,0.0,0.0,0.0,0.316349609375,0.0,0.0,0.0,0.0,0.0,0.0,0.124,0.0,0.0,0.0,0.0,0.0,0.0,0.3236604406707553,0.0,0.0,0.0,0.0,0.0,0.0,0.212
191,0.0,0.0,0.0,0.0,0.0,0.0,0.317576171875,0.0,0.0,0.0,0.0,0.0,0.0,0.124,0.0,0.0,0.0,0.0,0.0,0.0,0.32483159016424445,0.0,0.0,0.0,0.0,0.0,0.0,0.224
192,0.0,0.0,0.0,0.0,0.0,0.0,0.318609375,0.0,0.0,0.0,0.0,0.0,0.0,0.119,0.0,0.0,0.0,0.0,0.0,0.0,0.3259953096927836,0.0,0.0,0.0,0.0,0.0,0.0,0.224
193,0.0,0.0,0.0,0.0,0.0,0.0,0.3198359375,0.0,0.0,0.0,0.0,0.0,0.0,0.113,0.0,0.0,0.0,0.0,0.0,0.0,0.32715479307757134,0.0,0.0,0.0,0.0,0.0,0.0,0.208
194,0.0,0.0,0.0,0.0,0.0,0.0,0.320869140625,0.0,0.0,0.0,0.0,0.0,0.0,0.117,0.0,0.0,0.0,0.0,0.0,0.0,0.32834361884076885,0.0,0.0,0.0,0.0,0.0,0.0,0.2
195,0.0,0.0,0.0,0.0,0.0,0.0,0.322095703125,0.0,0.0,0.0,0.0,0.0,0.0,0.112,0.0,0.0,0.0,0.0,0.0,0.0,0.3296157381867882,0.0,0.0,0.0,0.0,0.0,0.0,0.188
196,0.0,0.0,0.0,0.0,0.0,0.0,0.3233349609375,0.0,0.0,0.0,0.0,0.0,0.0,0.116,0.0,0.0,0.0,0.0,0.0,0.0,0.3305651626121802,0.0,0.0,0.0,0.0,0.0,0.0,0.116
197,0.0,0.0,0.0,0.0,0.0,0.0,0.3245615234375,0.0,0.0,0.0,0.0,0.0,0.0,0.129,0.0,0.0,0.0,0.0,0.0,0.0,0.3316828096537169,0.0,0.0,0.0,0.0,0.0,0.0,0.148
198,0.0,0.0,0.0,0.0,0.0,0.0,0.32702734375,0.0,0.0,0.0,0.0,0.0,0.0,0.122,0.0,0.0,0.0,0.0,0.0,0.0,0.3335719649598178,0.0,0.0,0.0,0.0,0.0,0.0,0.104
199,0.0,0.0,0.0,0.0,0.0,0.0,0.32702734375,0.0,0.0,0.0,0.0,0.0,0.0,0.122,0.0,0.0,0.0,0.0,0.0,0.0,0.33414469340480457,0.0,0.0,0.0,0.0,0.0,0.0,0.104
200,0.0,0.0,0.0,0.0,0.0,0.0,0.32825390625,0.0,0.0,0.0,0.0,0.0,0.0,0.128,0.0,0.0,0.0,0.0,0.0,0.0,0.3349907045290019,0.0,0.0,0.0,0.0,0.0,0.0,0.104
201,0.0,0.0,0.0,0.0,0.0,0.0,0.3294931640625,0.0,0.0,0.0,0.0,0.0,0.0,0.117,0.0,0.0,0.0,0.0,0.0,0.0,0.33609453176985465,0.0,0.0,0.0,0.0,0.0,0.0,0.088
202,0.0,0.0,0.0,0.0,0.0,0.0,0.3309267578125,0.0,0.0,0.0,0.0,0.0,0.0,0.126,0.0,0.0,0.0,0.0,0.0,0.0,0.3372827540791029,0.0,0.0,0.0,0.0,0.0,0.0,0.104
203,0.0,0.0,0.0,0.0,0.0,0.0,0.332166015625,0.0,0.0,0.0,0.0,0.0,0.0,0.14,0.0,0.0,0.0,0.0,0.0,0.0,0.3382382469757501,0.0,0.0,0.0,0.0,0.0,0.0,0.104
204,0.0,0.0,0.0,0.0,0.0,0.0,0.333185546875,0.0,0.0,0.0,0.0,0.0,0.0,0.121,0.0,0.0,0.0,0.0,0.0,0.0,0.3393245385742838,0.0,0.0,0.0,0.0,0.0,0.0,0.12
205,0.0,0.0,0.0,0.0,0.0,0.0,0.33421875,0.0,0.0,0.0,0.0,0.0,0.0,0.106,0.0,0.0,0.0,0.0,0.0,0.0,0.3403615283725512,0.0,0.0,0.0,0.0,0.0,0.0,0.116
206,0.0,0.0,0.0,0.0,0.0,0.0,0.33523828125,0.0,0.0,0.0,0.0,0.0,0.0,0.096,0.0,0.0,0.0,0.0,0.0,0.0,0.34140791150823335,0.0,0.0,0.0,0.0,0.0,0.0,0.104
207,0.0,0.0,0.0,0.0,0.0,0.0,0.3360654296875,0.0,0.0,0.0,0.0,0.0,0.0,0.088,0.0,0.0,0.0,0.0,0.0,0.0,0.3424487658038011,0.0,0.0,0.0,0.0,0.0,0.0,0.128
208,0.0,0.0,0.0,0.0,0.0,0.0,0.33687890625,0.0,0.0,0.0,0.0,0.0,0.0,0.084,0.0,0.0,0.0,0.0,0.0,0.0,0.3434765859186421,0.0,0.0,0.0,0.0,0.0,0.0,0.116
209,0.0,0.0,0.0,0.0,0.0,0.0,0.337498046875,0.0,0.0,0.0,0.0,0.0,0.0,0.078,0.0,0.0,0.0,0.0,0.0,0.0,0.3444867071720893,0.0,0.0,0.0,0.0,0.0,0.0,0.136
210,0.0,0.0,0.0,0.0,0.0,0.0,0.33832421875,0.0,0.0,0.0,0.0,0.0,0.0,0.074,0.0,0.0,0.0,0.0,0.0,0.0,0.3455068489040146,0.0,0.0,0.0,0.0,0.0,0.0,0.14
211,0.0,0.0,0.0,0.0,0.0,0.0,0.3391376953125,0.0,0.0,0.0,0.0,0.0,0.0,0.079,0.0,0.0,0.0,0.0,0.0,0.0,0.34651340406958586,0.0,0.0,0.0,0.0,0.0,0.0,0.116
212,0.0,0.0,0.0,0.0,0.0,0.0,0.340376953125,0.0,0.0,0.0,0.0,0.0,0.0,0.099,0.0,0.0,0.0,0.0,0.0,0.0,0.34750094689205147,0.0,0.0,0.0,0.0,0.0,0.0,0.116
213,0.0,0.0,0.0,0.0,0.0,0.0,0.3411904296875,0.0,0.0,0.0,0.0,0.0,0.0,0.103,0.0,0.0,0.0,0.0,0.0,0.0,0.3484876767306726,0.0,0.0,0.0,0.0,0.0,0.0,0.14
214,0.0,0.0,0.0,0.0,0.0,0.0,0.3424296875,0.0,0.0,0.0,0.0,0.0,0.0,0.107,0.0,0.0,0.0,0.0,0.0,0.0,0.3494667511964482,0.0,0.0,0.0,0.0,0.0,0.0,0.156
215,0.0,0.0,0.0,0.0,0.0,0.0,0.34365625,0.0,0.0,0.0,0.0,0.0,0.0,0.118,0.0,0.0,0.0,0.0,0.0,0.0,0.35043204740827116,0.0,0.0,0.0,0.0,0.0,0.0,0.168
216,0.0,0.0,0.0,0.0,0.0,0.0,0.344689453125,0.0,0.0,0.0,0.0,0.0,0.0,0.108,0.0,0.0,0.0,0.0,0.0,0.0,0.35138875806987097,0.0,0.0,0.0,0.0,0.0,0.0,0.172
217,0.0,0.0,0.0,0.0,0.0,0.0,0.345916015625,0.0,0.0,0.0,0.0,0.0,0.0,0.111,0.0,0.0,0.0,0.0,0.0,0.0,0.35234676578125973,0.0,0.0,0.0,0.0,0.0,0.0,0.188
218,0.0,0.0,0.0,0.0,0.0,0.0,0.34694921875,0.0,0.0,0.0,0.0,0.0,0.0,0.114,0.0,0.0,0.0,0.0,0.0,0.0,0.3532881454363615,0.0,0.0,0.0,0.0,0.0,0.0,0.168
219,0.0,0.0,0.0,0.0,0.0,0.0,0.34796875,0.0,0.0,0.0,0.0,0.0,0.0,0.103,0.0,0.0,0.0,0.0,0.0,0.0,0.35422283707783986,0.0,0.0,0.0,0.0,0.0,0.0,0.172
220,0.0,0.0,0.0,0.0,0.0,0.0,0.348794921875,0.0,0.0,0.0,0.0,0.0,0.0,0.098,0.0,0.0,0.0,0.0,0.0,0.0,0.35532564209936035,0.0,0.0,0.0,0.0,0.0,0.0,0.188
221,0.0,0.0,0.0,0.0,0.0,0.0,0.349828125,0.0,0.0,0.0,0.0,0.0,0.0,0.098,0.0,0.0,0.0,0.0,0.0,0.0,0.35606004337109187,0.0,0.0,0.0,0.0,0.0,0.0,0.212
222,0.0,0.0,0.0,0.0,0.0,0.0,0.35084765625,0.0,0.0,0.0,0.0,0.0,0.0,0.095,0.0,0.0,0.0,0.0,0.0,0.0,0.3569680846081307,0.0,0.0,0.0,0.0,0.0,0.0,0.22
223,0.0,0.0,0.0,0.0,0.0,0.0,0.3516748046875,0.0,0.0,0.0,0.0,0.0,0.0,0.092,0.0,0.0,0.0,0.0,0.0,0.0,0.3578693514451139,0.0,0.0,0.0,0.0,0.0,0.0,0.224
224,0.0,0.0,0.0,0.0,0.0,0.0,0.3524873046875,0.0,0.0,0.0,0.0,0.0,0.0,0.094,0.0,0.0,0.0,0.0,0.0,0.0,0.35876263816303444,0.0,0.0,0.0,0.0,0.0,0.0,0.2
225,0.0,0.0,0.0,0.0,0.0,0.0,0.353314453125,0.0,0.0,0.0,0.0,0.0,0.0,0.08,0.0,0.0,0.0,0.0,0.0,0.0,0.3596421508632137,0.0,0.0,0.0,0.0,0.0,0.0,0.22
226,0.0,0.0,0.0,0.0,0.0,0.0,0.354140625,0.0,0.0,0.0,0.0,0.0,0.0,0.076,0.0,0.0,0.0,0.0,0.0,0.0,0.3605088803537999,0.0,0.0,0.0,0.0,0.0,0.0,0.244
227,0.0,0.0,0.0,0.0,0.0,0.0,0.3547470703125,0.0,0.0,0.0,0.0,0.0,0.0,0.071,0.0,0.0,0.0,0.0,0.0,0.0,0.3613731863073344,0.0,0.0,0.0,0.0,0.0,0.0,0.264
228,0.0,0.0,0.0,0.0,0.0,0.0,0.3555732421875,0.0,0.0,0.0,0.0,0.0,0.0,0.079,0.0,0.0,0.0,0.0,0.0,0.0,0.36222553691140347,0.0,0.0,0.0,0.0,0.0,0.0,0.276
229,0.0,0.0,0.0,0.0,0.0,0.0,0.35659375,0.0,0.0,0.0,0.0,0.0,0.0,0.087,0.0,0.0,0.0,0.0,0.0,0.0,0.3630851924347001,0.0,0.0,0.0,0.0,0.0,0.0,0.252
230,0.0,0.0,0.0,0.0,0.0,0.0,0.357419921875,0.0,0.0,0.0,0.0,0.0,0.0,0.084,0.0,0.0,0.0,0.0,0.0,0.0,0.36390714576133454,0.0,0.0,0.0,0.0,0.0,0.0,0.264
231,0.0,0.0,0.0,0.0,0.0,0.0,0.3580390625,0.0,0.0,0.0,0.0,0.0,0.0,0.082,0.0,0.0,0.0,0.0,0.0,0.0,0.364730850111651,0.0,0.0,0.0,0.0,0.0,0.0,0.292
232,0.0,0.0,0.0,0.0,0.0,0.0,0.3588525390625,0.0,0.0,0.0,0.0,0.0,0.0,0.08,0.0,0.0,0.0,0.0,0.0,0.0,0.36554280827653396,0.0,0.0,0.0,0.0,0.0,0.0,0.324
233,0.0,0.0,0.0,0.0,0.0,0.0,0.3596787109375,0.0,0.0,0.0,0.0,0.0,0.0,0.079,0.0,0.0,0.0,0.0,0.0,0.0,0.366371495450333,0.0,0.0,0.0,0.0,0.0,0.0,0.312
234,0.0,0.0,0.0,0.0,0.0,0.0,0.360505859375,0.0,0.0,0.0,0.0,0.0,0.0,0.078,0.0,0.0,0.0,0.0,0.0,0.0,0.36715657620476183,0.0,0.0,0.0,0.0,0.0,0.0,0.284
235,0.0,0.0,0.0,0.0,0.0,0.0,0.3611123046875,0.0,0.0,0.0,0.0,0.0,0.0,0.069,0.0,0.0,0.0,0.0,0.0,0.0,0.3679434575384532,0.0,0.0,0.0,0.0,0.0,0.0,0.304
236,0.0,0.0,0.0,0.0,0.0,0.0,0.361732421875,0.0,0.0,0.0,0.0,0.0,0.0,0.064,0.0,0.0,0.0,0.0,0.0,0.0,0.3687265335177339,0.0,0.0,0.0,0.0,0.0,0.0,0.332
237,0.0,0.0,0.0,0.0,0.0,0.0,0.3623515625,0.0,0.0,0.0,0.0,0.0,0.0,0.065,0.0,0.0,0.0,0.0,0.0,0.0,0.3694873661219262,0.0,0.0,0.0,0.0,0.0,0.0,0.344
238,0.0,0.0,0.0,0.0,0.0,0.0,0.363177734375,0.0,0.0,0.0,0.0,0.0,0.0,0.073,0.0,0.0,0.0,0.0,0.0,0.0,0.3702583432708986,0.0,0.0,0.0,0.0,0.0,0.0,0.356
239,0.0,0.0,0.0,0.0,0.0,0.0,0.3639912109375,0.0,0.0,0.0,0.0,0.0,0.0,0.073,0.0,0.0,0.0,0.0,0.0,0.0,0.37100765938331537,0.0,0.0,0.0,0.0,0.0,0.0,0.336
240,0.0,0.0,0.0,0.0,0.0,0.0,0.3648173828125,0.0,0.0,0.0,0.0,0.0,0.0,0.082,0.0,0.0,0.0,0.0,0.0,0.0,0.37174850982943486,0.0,0.0,0.0,0.0,0.0,0.0,0.284
241,0.0,0.0,0.0,0.0,0.0,0.0,0.365630859375,0.0,0.0,0.0,0.0,0.0,0.0,0.086,0.0,0.0,0.0,0.0,0.0,0.0,0.37248484583785874,0.0,0.0,0.0,0.0,0.0,0.0,0.252
242,0.0,0.0,0.0,0.0,0.0,0.0,0.3666640625,0.0,0.0,0.0,0.0,0.0,0.0,0.087,0.0,0.0,0.0,0.0,0.0,0.0,0.37320806054610794,0.0,0.0,0.0,0.0,0.0,0.0,0.244
243,0.0,0.0,0.0,0.0,0.0,0.0,0.367890625,0.0,0.0,0.0,0.0,0.0,0.0,0.108,0.0,0.0,0.0,0.0,0.0,0.0,0.3739195682138378,0.0,0.0,0.0,0.0,0.0,0.0,0.208
244,0.0,0.0,0.0,0.0,0.0,0.0,0.3691298828125,0.0,0.0,0.0,0.0,0.0,0.0,0.126,0.0,0.0,0.0,0.0,0.0,0.0,0.37462257121693826,0.0,0.0,0.0,0.0,0.0,0.0,0.208
245,0.0,0.0,0.0,0.0,0.0,0.0,0.369943359375,0.0,0.0,0.0,0.0,0.0,0.0,0.103,0.0,0.0,0.0,0.0,0.0,0.0,0.37533075731448684,0.0,0.0,0.0,0.0,0.0,0.0,0.192
246,0.0,0.0,0.0,0.0,0.0,0.0,0.37076953125,0.0,0.0,0.0,0.0,0.0,0.0,0.082,0.0,0.0,0.0,0.0,0.0,0.0,0.37601147831783355,0.0,0.0,0.0,0.0,0.0,0.0,0.172
247,0.0,0.0,0.0,0.0,0.0,0.0,0.371595703125,0.0,0.0,0.0,0.0,0.0,0.0,0.082,0.0,0.0,0.0,0.0,0.0,0.0,0.3766850033038142,0.0,0.0,0.0,0.0,0.0,0.0,0.18
248,0.0,0.0,0.0,0.0,0.0,0.0,0.372203125,0.0,0.0,0.0,0.0,0.0,0.0,0.074,0.0,0.0,0.0,0.0,0.0,0.0,0.37735391958683445,0.0,0.0,0.0,0.0,0.0,0.0,0.168
249,0.0,0.0,0.0,0.0,0.0,0.0,0.3726162109375,0.0,0.0,0.0,0.0,0.0,0.0,0.054,0.0,0.0,0.0,0.0,0.0,0.0,0.37801411234025983,0.0,0.0,0.0,0.0,0.0,0.0,0.188
250,0.0,0.0,0.0,0.0,0.0,0.0,0.373029296875,0.0,0.0,0.0,0.0,0.0,0.0,0.049,0.0,0.0,0.0,0.0,0.0,0.0,0.37866080055932,0.0,0.0,0.0,0.0,0.0,0.0,0.148
251,0.0,0.0,0.0,0.0,0.0,0.0,0.3734423828125,0.0,0.0,0.0,0.0,0.0,0.0,0.045,0.0,0.0,0.0,0.0,0.0,0.0,0.3795098793939795,0.0,0.0,0.0,0.0,0.0,0.0,0.168
252,0.0,0.0,0.0,0.0,0.0,0.0,0.3740615234375,0.0,0.0,0.0,0.0,0.0,0.0,0.042,0.0,0.0,0.0,0.0,0.0,0.0,0.37992719157829247,0.0,0.0,0.0,0.0,0.0,0.0,0.172
253,0.0,0.0,0.0,0.0,0.0,0.0,0.3744619140625,0.0,0.0,0.0,0.0,0.0,0.0,0.05,0.0,0.0,0.0,0.0,0.0,0.0,0.3805534067082179,0.0,0.0,0.0,0.0,0.0,0.0,0.192
254,0.0,0.0,0.0,0.0,0.0,0.0,0.3752880859375,0.0,0.0,0.0,0.0,0.0,0.0,0.059,0.0,0.0,0.0,0.0,0.0,0.0,0.3811722983218488,0.0,0.0,0.0,0.0,0.0,0.0,0.188
255,0.0,0.0,0.0,0.0,0.0,0.0,0.375908203125,0.0,0.0,0.0,0.0,0.0,0.0,0.078,0.0,0.0,0.0,0.0,0.0,0.0,0.3817702067622523,0.0,0.0,0.0,0.0,0.0,0.0,0.172
256,0.0,0.0,0.0,0.0,0.0,0.0,0.3767216796875,0.0,0.0,0.0,0.0,0.0,0.0,0.07,0.0,0.0,0.0,0.0,0.0,0.0,0.38235763856658245,0.0,0.0,0.0,0.0,0.0,0.0,0.188
257,0.0,0.0,0.0,0.0,0.0,0.0,0.377341796875,0.0,0.0,0.0,0.0,0.0,0.0,0.068,0.0,0.0,0.0,0.0,0.0,0.0,0.38294357180455285,0.0,0.0,0.0,0.0,0.0,0.0,0.16
258,0.0,0.0,0.0,0.0,0.0,0.0,0.3779609375,0.0,0.0,0.0,0.0,0.0,0.0,0.069,0.0,0.0,0.0,0.0,0.0,0.0,0.3835169230746406,0.0,0.0,0.0,0.0,0.0,0.0,0.208
259,0.0,0.0,0.0,0.0,0.0,0.0,0.3785810546875,0.0,0.0,0.0,0.0,0.0,0.0,0.064,0.0,0.0,0.0,0.0,0.0,0.0,0.3840779446355004,0.0,0.0,0.0,0.0,0.0,0.0,0.188
260,0.0,0.0,0.0,0.0,0.0,0.0,0.3791875,0.0,0.0,0.0,0.0,0.0,0.0,0.061,0.0,0.0,0.0,0.0,0.0,0.0,0.38479613930912127,0.0,0.0,0.0,0.0,0.0,0.0,0.16
261,0.0,0.0,0.0,0.0,0.0,0.0,0.3798076171875,0.0,0.0,0.0,0.0,0.0,0.0,0.059,0.0,0.0,0.0,0.0,0.0,0.0,0.3853569695180569,0.0,0.0,0.0,0.0,0.0,0.0,0.18
262,0.0,0.0,0.0,0.0,0.0,0.0,0.380220703125,0.0,0.0,0.0,0.0,0.0,0.0,0.052,0.0,0.0,0.0,0.0,0.0,0.0,0.38570594667893987,0.0,0.0,0.0,0.0,0.0,0.0,0.156
263,0.0,0.0,0.0,0.0,0.0,0.0,0.38083984375,0.0,0.0,0.0,0.0,0.0,0.0,0.047,0.0,0.0,0.0,0.0,0.0,0.0,0.3862369310373477,0.0,0.0,0.0,0.0,0.0,0.0,0.18
264,0.0,0.0,0.0,0.0,0.0,0.0,0.381240234375,0.0,0.0,0.0,0.0,0.0,0.0,0.05,0.0,0.0,0.0,0.0,0.0,0.0,0.3867495681538282,0.0,0.0,0.0,0.0,0.0,0.0,0.188
265,0.0,0.0,0.0,0.0,0.0,0.0,0.3818603515625,0.0,0.0,0.0,0.0,0.0,0.0,0.055,0.0,0.0,0.0,0.0,0.0,0.0,0.3872561833485385,0.0,0.0,0.0,0.0,0.0,0.0,0.172
266,0.0,0.0,0.0,0.0,0.0,0.0,0.3824794921875,0.0,0.0,0.0,0.0,0.0,0.0,0.062,0.0,0.0,0.0,0.0,0.0,0.0,0.38775196829642583,0.0,0.0,0.0,0.0,0.0,0.0,0.16
267,0.0,0.0,0.0,0.0,0.0,0.0,0.383099609375,0.0,0.0,0.0,0.0,0.0,0.0,0.061,0.0,0.0,0.0,0.0,0.0,0.0,0.3882451823732744,0.0,0.0,0.0,0.0,0.0,0.0,0.168
268,0.0,0.0,0.0,0.0,0.0,0.0,0.3837060546875,0.0,0.0,0.0,0.0,0.0,0.0,0.057,0.0,0.0,0.0,0.0,0.0,0.0,0.38871685115931304,0.0,0.0,0.0,0.0,0.0,0.0,0.148
269,0.0,0.0,0.0,0.0,0.0,0.0,0.384119140625,0.0,0.0,0.0,0.0,0.0,0.0,0.053,0.0,0.0,0.0,0.0,0.0,0.0,0.38918177345017707,0.0,0.0,0.0,0.0,0.0,0.0,0.156
270,0.0,0.0,0.0,0.0,0.0,0.0,0.3849462890625,0.0,0.0,0.0,0.0,0.0,0.0,0.061,0.0,0.0,0.0,0.0,0.0,0.0,0.3896385016111596,0.0,0.0,0.0,0.0,0.0,0.0,0.14
271,0.0,0.0,0.0,0.0,0.0,0.0,0.3855654296875,0.0,0.0,0.0,0.0,0.0,0.0,0.065,0.0,0.0,0.0,0.0,0.0,0.0,0.3900881435355092,0.0,0.0,0.0,0.0,0.0,0.0,0.172
272,0.0,0.0,0.0,0.0,0.0,0.0,0.3859658203125,0.0,0.0,0.0,0.0,0.0,0.0,0.054,0.0,0.0,0.0,0.0,0.0,0.0,0.39052553032817183,0.0,0.0,0.0,0.0,0.0,0.0,0.168
273,0.0,0.0,0.0,0.0,0.0,0.0,0.38637890625,0.0,0.0,0.0,0.0,0.0,0.0,0.048,0.0,0.0,0.0,0.0,0.0,0.0,0.39095408095327855,0.0,0.0,0.0,0.0,0.0,0.0,0.16
274,0.0,0.0,0.0,0.0,0.0,0.0,0.3867919921875,0.0,0.0,0.0,0.0,0.0,0.0,0.042,0.0,0.0,0.0,0.0,0.0,0.0,0.39137014524970665,0.0,0.0,0.0,0.0,0.0,0.0,0.172
275,0.0,0.0,0.0,0.0,0.0,0.0,0.387205078125,0.0,0.0,0.0,0.0,0.0,0.0,0.04,0.0,0.0,0.0,0.0,0.0,0.0,0.39177711526295367,0.0,0.0,0.0,0.0,0.0,0.0,0.16
276,0.0,0.0,0.0,0.0,0.0,0.0,0.3876181640625,0.0,0.0,0.0,0.0,0.0,0.0,0.037,0.0,0.0,0.0,0.0,0.0,0.0,0.39217782813578084,0.0,0.0,0.0,0.0,0.0,0.0,0.168
277,0.0,0.0,0.0,0.0,0.0,0.0,0.3878251953125,0.0,0.0,0.0,0.0,0.0,0.0,0.031,0.0,0.0,0.0,0.0,0.0,0.0,0.39256682589255765,0.0,0.0,0.0,0.0,0.0,0.0,0.168
278,0.0,0.0,0.0,0.0,0.0,0.0,0.3882255859375,0.0,0.0,0.0,0.0,0.0,0.0,0.034,0.0,0.0,0.0,0.0,0.0,0.0,0.39294392503437336,0.0,0.0,0.0,0.0,0.0,0.0,0.156
279,0.0,0.0,0.0,0.0,0.0,0.0,0.388638671875,0.0,0.0,0.0,0.0,0.0,0.0,0.035,0.0,0.0,0.0,0.0,0.0,0.0,0.3933138545837648,0.0,0.0,0.0,0.0,0.0,0.0,0.192
280,0.0,0.0,0.0,0.0,0.0,0.0,0.3888447265625,0.0,0.0,0.0,0.0,0.0,0.0,0.034,0.0,0.0,0.0,0.0,0.0,0.0,0.39367113489910444,0.0,0.0,0.0,0.0,0.0,0.0,0.172
281,0.0,0.0,0.0,0.0,0.0,0.0,0.3892578125,0.0,0.0,0.0,0.0,0.0,0.0,0.035,0.0,0.0,0.0,0.0,0.0,0.0,0.3940239218106239,0.0,0.0,0.0,0.0,0.0,0.0,0.172
282,0.0,0.0,0.0,0.0,0.0,0.0,0.3896708984375,0.0,0.0,0.0,0.0,0.0,0.0,0.034,0.0,0.0,0.0,0.0,0.0,0.0,0.39436171281974436,0.0,0.0,0.0,0.0,0.0,0.0,0.18
283,0.0,0.0,0.0,0.0,0.0,0.0,0.3898779296875,0.0,0.0,0.0,0.0,0.0,0.0,0.036,0.0,0.0,0.0,0.0,0.0,0.0,0.3946902717535433,0.0,0.0,0.0,0.0,0.0,0.0,0.168
284,0.0,0.0,0.0,0.0,0.0,0.0,0.3902783203125,0.0,0.0,0.0,0.0,0.0,0.0,0.033,0.0,0.0,0.0,0.0,0.0,0.0,0.3950084913735675,0.0,0.0,0.0,0.0,0.0,0.0,0.168
285,0.0,0.0,0.0,0.0,0.0,0.0,0.39069140625,0.0,0.0,0.0,0.0,0.0,0.0,0.041,0.0,0.0,0.0,0.0,0.0,0.0,0.39532184768946127,0.0,0.0,0.0,0.0,0.0,0.0,0.168
286,0.0,0.0,0.0,0.0,0.0,0.0,0.3911044921875,0.0,0.0,0.0,0.0,0.0,0.0,0.041,0.0,0.0,0.0,0.0,0.0,0.0,0.39561944097518087,0.0,0.0,0.0,0.0,0.0,0.0,0.168
287,0.0,0.0,0.0,0.0,0.0,0.0,0.3917236328125,0.0,0.0,0.0,0.0,0.0,0.0,0.049,0.0,0.0,0.0,0.0,0.0,0.0,0.395908899169275,0.0,0.0,0.0,0.0,0.0,0.0,0.16
288,0.0,0.0,0.0,0.0,0.0,0.0,0.3921376953125,0.0,0.0,0.0,0.0,0.0,0.0,0.045,0.0,0.0,0.0,0.0,0.0,0.0,0.39619086402611053,0.0,0.0,0.0,0.0,0.0,0.0,0.188
289,0.0,0.0,0.0,0.0,0.0,0.0,0.392537109375,0.0,0.0,0.0,0.0,0.0,0.0,0.041,0.0,0.0,0.0,0.0,0.0,0.0,0.3964610240381197,0.0,0.0,0.0,0.0,0.0,0.0,0.156
290,0.0,0.0,0.0,0.0,0.0,0.0,0.392744140625,0.0,0.0,0.0,0.0,0.0,0.0,0.035,0.0,0.0,0.0,0.0,0.0,0.0,0.3967217291801748,0.0,0.0,0.0,0.0,0.0,0.0,0.168
291,0.0,0.0,0.0,0.0,0.0,0.0,0.3929501953125,0.0,0.0,0.0,0.0,0.0,0.0,0.025,0.0,0.0,0.0,0.0,0.0,0.0,0.3969733082561493,0.0,0.0,0.0,0.0,0.0,0.0,0.18
292,0.0,0.0,0.0,0.0,0.0,0.0,0.3931572265625,0.0,0.0,0.0,0.0,0.0,0.0,0.023,0.0,0.0,0.0,0.0,0.0,0.0,0.3972129713039738,0.0,0.0,0.0,0.0,0.0,0.0,0.172
293,0.0,0.0,0.0,0.0,0.0,0.0,0.3931572265625,0.0,0.0,0.0,0.0,0.0,0.0,0.004,0.0,0.0,0.0,0.0,0.0,0.0,0.3974486048157782,0.0,0.0,0.0,0.0,0.0,0.0,0.172
294,0.0,0.0,0.0,0.0,0.0,0.0,0.3933642578125,0.0,0.0,0.0,0.0,0.0,0.0,0.014,0.0,0.0,0.0,0.0,0.0,0.0,0.397666973272907,0.0,0.0,0.0,0.0,0.0,0.0,0.172
295,0.0,0.0,0.0,0.0,0.0,0.0,0.3935703125,0.0,0.0,0.0,0.0,0.0,0.0,0.019,0.0,0.0,0.0,0.0,0.0,0.0,0.39787551314276737,0.0,0.0,0.0,0.0,0.0,0.0,0.18
296,0.0,0.0,0.0,0.0,0.0,0.0,0.39377734375,0.0,0.0,0.0,0.0,0.0,0.0,0.018,0.0,0.0,0.0,0.0,0.0,0.0,0.3980755917111695,0.0,0.0,0.0,0.0,0.0,0.0,0.188
297,0.0,0.0,0.0,0.0,0.0,0.0,0.39377734375,0.0,0.0,0.0,0.0,0.0,0.0,0.008,0.0,0.0,0.0,0.0,0.0,0.0,0.3982703564908657,0.0,0.0,0.0,0.0,0.0,0.0,0.18
298,0.0,0.0,0.0,0.0,0.0,0.0,0.3939833984375,0.0,0.0,0.0,0.0,0.0,0.0,0.01,0.0,0.0,0.0,0.0,0.0,0.0,0.39844796314276487,0.0,0.0,0.0,0.0,0.0,0.0,0.172
299,0.0,0.0,0.0,0.0,0.0,0.0,0.3939833984375,0.0,0.0,0.0,0.0,0.0,0.0,0.012,0.0,0.0,0.0,0.0,0.0,0.0,0.3986183807909668,0.0,0.0,0.0,0.0,0.0,0.0,0.172
300,0.0,0.0,0.0,0.0,0.0,0.0,0.394603515625,0.0,0.0,0.0,0.0,0.0,0.0,0.034,0.0,0.0,0.0,0.0,0.0,0.0,0.39898829413283404,0.0,0.0,0.0,0.0,0.0,0.0,0.188
301,0.0,0.0,0.0,0.0,0.0,0.0,0.3952099609375,0.0,0.0,0.0,0.0,0.0,0.0,0.046,0.0,0.0,0.0,0.0,0.0,0.0,0.3990512534493046,0.0,0.0,0.0,0.0,0.0,0.0,0.168
302,0.0,0.0,0.0,0.0,0.0,0.0,0.3952099609375,0.0,0.0,0.0,0.0,0.0,0.0,0.046,0.0,0.0,0.0,0.0,0.0,0.0,0.3991094344238834,0.0,0.0,0.0,0.0,0.0,0.0,0.168
303,0.0,0.0,0.0,0.0,0.0,0.0,0.3954169921875,0.0,0.0,0.0,0.0,0.0,0.0,0.043,0.0,0.0,0.0,0.0,0.0,0.0,0.39920332726125335,0.0,0.0,0.0,0.0,0.0,0.0,0.172
304,0.0,0.0,0.0,0.0,0.0,0.0,0.395830078125,0.0,0.0,0.0,0.0,0.0,0.0,0.034,0.0,0.0,0.0,0.0,0.0,0.0,0.3993296743018126,0.0,0.0,0.0,0.0,0.0,0.0,0.168
305,0.0,0.0,0.0,0.0,0.0,0.0,0.3960361328125,0.0,0.0,0.0,0.0,0.0,0.0,0.022,0.0,0.0,0.0,0.0,0.0,0.0,0.3994355863495222,0.0,0.0,0.0,0.0,0.0,0.0,0.168
306,0.0,0.0,0.0,0.0,0.0,0.0,0.3960361328125,0.0,0.0,0.0,0.0,0.0,0.0,0.015,0.0,0.0,0.0,0.0,0.0,0.0,0.3995396557238746,0.0,0.0,0.0,0.0,0.0,0.0,0.172
307,0.0,0.0,0.0,0.0,0.0,0.0,0.3960361328125,0.0,0.0,0.0,0.0,0.0,0.0,-0.001,0.0,0.0,0.0,0.0,0.0,0.0,0.39963023342568527,0.0,0.0,0.0,0.0,0.0,0.0,0.172
308,0.0,0.0,0.0,0.0,0.0,0.0,0.3960361328125,0.0,0.0,0.0,0.0,0.0,0.0,-0.001,0.0,0.0,0.0,0.0,0.0,0.0,0.39970998247129513,0.0,0.0,0.0,0.0,0.0,0.0,0.156
309,0.0,0.0,0.0,0.0,0.0,0.0,0.3960361328125,0.0,0.0,0.0,0.0,0.0,0.0,-0.001,0.0,0.0,0.0,0.0,0.0,0.0,0.39978052273055786,0.0,0.0,0.0,0.0,0.0,0.0,0.156
310,0.0,0.0,0.0,0.0,0.0,0.0,0.3960361328125,0.0,0.0,0.0,0.0,0.0,0.0,-0.001,0.0,0.0,0.0,0.0,0.0,0.0,0.39984227489626484,0.0,0.0,0.0,0.0,0.0,0.0,0.148
311,0.0,0.0,0.0,0.0,0.0,0.0,0.3960361328125,0.0,0.0,0.0,0.0,0.0,0.0,-0.001,0.0,0.0,0.0,0.0,0.0,0.0,0.39990476963838567,0.0,0.0,0.0,0.0,0.0,0.0,0.18
312,0.0,0.0,0.0,0.0,0.0,0.0,0.3960361328125,0.0,0.0,0.0,0.0,0.0,0.0,-0.001,0.0,0.0,0.0,0.0,0.0,0.0,0.39993449201859893,0.0,0.0,0.0,0.0,0.0,0.0,0.14
313,0.0,0.0,0.0,0.0,0.0,0.0,0.3960361328125,0.0,0.0,0.0,0.0,0.0,0.0,-0.001,0.0,0.0,0.0,0.0,0.0,0.0,0.39996579153934164,0.0,0.0,0.0,0.0,0.0,0.0,0.172
314,0.0,0.0,0.0,0.0,0.0,0.0,0.3960361328125,0.0,0.0,0.0,0.0,0.0,0.0,-0.001,0.0,0.0,0.0,0.0,0.0,0.0,0.39998708009623957,0.0,0.0,0.0,0.0,0.0,0.0,0.172
315,0.0,0.0,0.0,0.0,0.0,0.0,0.3962431640625,0.0,0.0,0.0,0.0,0.0,0.0,-0.001,0.0,0.0,0.0,0.0,0.0,0.0,0.39999805383914006,0.0,0.0,0.0,0.0,0.0,0.0,0.168
316,0.0,0.0,0.0,0.0,0.0,0.0,0.3962431640625,0.0,0.0,0.0,0.0,0.0,0.0,0.015,0.0,0.0,0.0,0.0,0.0,0.0,0.3999992798100219,0.0,0.0,0.0,0.0,0.0,0.0,0.2
317,0.0,0.0,0.0,0.0,0.0,0.0,0.3962431640625,0.0,0.0,0.0,0.0,0.0,0.0,0.002,0.0,0.0,0.0,0.0,0.0,0.0,0.3999905519316262,0.0,0.0,0.0,0.0,0.0,0.0,0.172
318,0.0,0.0,0.0,0.0,0.0,0.0,0.39644921875,0.0,0.0,0.0,0.0,0.0,0.0,0.013,0.0,0.0,0.0,0.0,0.0,0.0,0.3999717634225239,0.0,0.0,0.0,0.0,0.0,0.0,0.168
319,0.0,0.0,0.0,0.0,0.0,0.0,0.39644921875,0.0,0.0,0.0,0.0,0.0,0.0,0.008,0.0,0.0,0.0,0.0,0.0,0.0,0.39994292214724325,0.0,0.0,0.0,0.0,0.0,0.0,0.2
320,0.0,0.0,0.0,0.0,0.0,0.0,0.39665625,0.0,0.0,0.0,0.0,0.0,0.0,0.006,0.0,0.0,0.0,0.0,0.0,0.0,0.39990421664189024,0.0,0.0,0.0,0.0,0.0,0.0,0.2
321,0.0,0.0,0.0,0.0,0.0,0.0,0.3968623046875,0.0,0.0,0.0,0.0,0.0,0.0,0.023,0.0,0.0,0.0,0.0,0.0,0.0,0.39985558052022974,0.0,0.0,0.0,0.0,0.0,0.0,0.18
322,0.0,0.0,0.0,0.0,0.0,0.0,0.3968623046875,0.0,0.0,0.0,0.0,0.0,0.0,0.013,0.0,0.0,0.0,0.0,0.0,0.0,0.399796162403127,0.0,0.0,0.0,0.0,0.0,0.0,0.18
323,0.0,0.0,0.0,0.0,0.0,0.0,0.3968623046875,0.0,0.0,0.0,0.0,0.0,0.0,-0.001,0.0,0.0,0.0,0.0,0.0,0.0,0.3997278025964821,0.0,0.0,0.0,0.0,0.0,0.0,0.16
324,0.0,0.0,0.0,0.0,0.0,0.0,0.3968623046875,0.0,0.0,0.0,0.0,0.0,0.0,-0.001,0.0,0.0,0.0,0.0,0.0,0.0,0.3996492714484285,0.0,0.0,0.0,0.0,0.0,0.0,0.172
325,0.0,0.0,0.0,0.0,0.0,0.0,0.3968623046875,0.0,0.0,0.0,0.0,0.0,0.0,-0.001,0.0,0.0,0.0,0.0,0.0,0.0,0.399560447749294,0.0,0.0,0.0,0.0,0.0,0.0,0.172
326,0.0,0.0,0.0,0.0,0.0,0.0,0.397056640625,0.0,0.0,0.0,0.0,0.0,0.0,0.004,0.0,0.0,0.0,0.0,0.0,0.0,0.3994621639693718,0.0,0.0,0.0,0.0,0.0,0.0,0.18
327,0.0,0.0,0.0,0.0,0.0,0.0,0.397056640625,0.0,0.0,0.0,0.0,0.0,0.0,0.014,0.0,0.0,0.0,0.0,0.0,0.0,0.39935313915520043,0.0,0.0,0.0,0.0,0.0,0.0,0.168
328,0.0,0.0,0.0,0.0,0.0,0.0,0.397056640625,0.0,0.0,0.0,0.0,0.0,0.0,-0.001,0.0,0.0,0.0,0.0,0.0,0.0,0.3992339564847605,0.0,0.0,0.0,0.0,0.0,0.0,0.172
329,0.0,0.0,0.0,0.0,0.0,0.0,0.397056640625,0.0,0.0,0.0,0.0,0.0,0.0,-0.001,0.0,0.0,0.0,0.0,0.0,0.0,0.3991061567211131,0.0,0.0,0.0,0.0,0.0,0.0,0.168
330,0.0,0.0,0.0,0.0,0.0,0.0,0.397056640625,0.0,0.0,0.0,0.0,0.0,0.0,-0.001,0.0,0.0,0.0,0.0,0.0,0.0,0.39896765532390693,0.0,0.0,0.0,0.0,0.0,0.0,0.188
331,0.0,0.0,0.0,0.0,0.0,0.0,0.397056640625,0.0,0.0,0.0,0.0,0.0,0.0,-0.001,0.0,0.0,0.0,0.0,0.0,0.0,0.3988179178357038,0.0,0.0,0.0,0.0,0.0,0.0,0.172
332,0.0,0.0,0.0,0.0,0.0,0.0,0.397056640625,0.0,0.0,0.0,0.0,0.0,0.0,-0.001,0.0,0.0,0.0,0.0,0.0,0.0,0.3986603338872421,0.0,0.0,0.0,0.0,0.0,0.0,0.188
333,0.0,0.0,0.0,0.0,0.0,0.0,0.397056640625,0.0,0.0,0.0,0.0,0.0,0.0,-0.001,0.0,0.0,0.0,0.0,0.0,0.0,0.3984912640982402,0.0,0.0,0.0,0.0,0.0,0.0,0.168
334,0.0,0.0,0.0,0.0,0.0,0.0,0.397056640625,0.0,0.0,0.0,0.0,0.0,0.0,-0.001,0.0,0.0,0.0,0.0,0.0,0.0,0.3983084618555472,0.0,0.0,0.0,0.0,0.0,0.0,0.18
335,0.0,0.0,0.0,0.0,0.0,0.0,0.397056640625,0.0,0.0,0.0,0.0,0.0,0.0,-0.001,0.0,0.0,0.0,0.0,0.0,0.0,0.3981197286376206,0.0,0.0,0.0,0.0,0.0,0.0,0.18
336,0.0,0.0,0.0,0.0,0.0,0.0,0.397056640625,0.0,0.0,0.0,0.0,0.0,0.0,-0.001,0.0,0.0,0.0,0.0,0.0,0.0,0.3979259657502816,0.0,0.0,0.0,0.0,0.0,0.0,0.16
337,0.0,0.0,0.0,0.0,0.0,0.0,0.397056640625,0.0,0.0,0.0,0.0,0.0,0.0,-0.001,0.0,0.0,0.0,0.0,0.0,0.0,0.3977011703277598,0.0,0.0,0.0,0.0,0.0,0.0,0.168
338,0.0,0.0,0.0,0.0,0.0,0.0,0.397056640625,0.0,0.0,0.0,0.0,0.0,0.0,-0.001,0.0,0.0,0.0,0.0,0.0,0.0,0.39749698999799693,0.0,0.0,0.0,0.0,0.0,0.0,0.188
339,0.0,0.0,0.0,0.0,0.0,0.0,0.397056640625,0.0,0.0,0.0,0.0,0.0,0.0,-0.001,0.0,0.0,0.0,0.0,0.0,0.0,0.3972645466696495,0.0,0.0,0.0,0.0,0.0,0.0,0.188
340,0.0,0.0,0.0,0.0,0.0,0.0,0.397056640625,0.0,0.0,0.0,0.0,0.0,0.0,-0.001,0.0,0.0,0.0,0.0,0.0,0.0,0.39703114136535356,0.0,0.0,0.0,0.0,0.0,0.0,0.188
341,0.0,0.0,0.0,0.0,0.0,0.0,0.397056640625,0.0,0.0,0.0,0.0,0.0,0.0,-0.001,0.0,0.0,0.0,0.0,0.0,0.0,0.3967831330165134,0.0,0.0,0.0,0.0,0.0,0.0,0.18
342,0.0,0.0,0.0,0.0,0.0,0.0,0.397056640625,0.0,0.0,0.0,0.0,0.0,0.0,-0.001,0.0,0.0,0.0,0.0,0.0,0.0,0.3965276956564542,0.0,0.0,0.0,0.0,0.0,0.0,0.172
343,0.0,0.0,0.0,0.0,0.0,0.0,0.397056640625,0.0,0.0,0.0,0.0,0.0,0.0,-0.001,0.0,0.0,0.0,0.0,0.0,0.0,0.39625784778451545,0.0,0.0,0.0,0.0,0.0,0.0,0.156
344,0.0,0.0,0.0,0.0,0.0,0.0,0.397056640625,0.0,0.0,0.0,0.0,0.0,0.0,-0.001,0.0,0.0,0.0,0.0,0.0,0.0,0.3959801036184405,0.0,0.0,0.0,0.0,0.0,0.0,0.188
345,0.0,0.0,0.0,0.0,0.0,0.0,0.397056640625,0.0,0.0,0.0,0.0,0.0,0.0,-0.001,0.0,0.0,0.0,0.0,0.0,0.0,0.39569381675339854,0.0,0.0,0.0,0.0,0.0,0.0,0.148
346,0.0,0.0,0.0,0.0,0.0,0.0,0.397056640625,0.0,0.0,0.0,0.0,0.0,0.0,-0.001,0.0,0.0,0.0,0.0,0.0,0.0,0.39539489609408324,0.0,0.0,0.0,0.0,0.0,0.0,0.156
347,0.0,0.0,0.0,0.0,0.0,0.0,0.397056640625,0.0,0.0,0.0,0.0,0.0,0.0,-0.001,0.0,0.0,0.0,0.0,0.0,0.0,0.39508505921197284,0.0,0.0,0.0,0.0,0.0,0.0,0.168
348,0.0,0.0,0.0,0.0,0.0,0.0,0.397056640625,0.0,0.0,0.0,0.0,0.0,0.0,-0.001,0.0,0.0,0.0,0.0,0.0,0.0,0.3947695282387234,0.0,0.0,0.0,0.0,0.0,0.0,0.172
349,0.0,0.0,0.0,0.0,0.0,0.0,0.397056640625,0.0,0.0,0.0,0.0,0.0,0.0,-0.001,0.0,0.0,0.0,0.0,0.0,0.0,0.39444065993606814,0.0,0.0,0.0,0.0,0.0,0.0,0.168
350,0.0,0.0,0.0,0.0,0.0,0.0,0.397056640625,0.0,0.0,0.0,0.0,0.0,0.0,-0.001,0.0,0.0,0.0,0.0,0.0,0.0,0.3941040566934559,0.0,0.0,0.0,0.0,0.0,0.0,0.168
351,0.0,0.0,0.0,0.0,0.0,0.0,0.3968623046875,0.0,0.0,0.0,0.0,0.0,0.0,-0.007,0.0,0.0,0.0,0.0,0.0,0.0,0.39375700673041236,0.0,0.0,0.0,0.0,0.0,0.0,0.16
352,0.0,0.0,0.0,0.0,0.0,0.0,0.3968623046875,0.0,0.0,0.0,0.0,0.0,0.0,-0.014,0.0,0.0,0.0,0.0,0.0,0.0,0.3934022175319002,0.0,0.0,0.0,0.0,0.0,0.0,0.172
353,0.0,0.0,0.0,0.0,0.0,0.0,0.3968623046875,0.0,0.0,0.0,0.0,0.0,0.0,-0.001,0.0,0.0,0.0,0.0,0.0,0.0,0.3930328258354229,0.0,0.0,0.0,0.0,0.0,0.0,0.168
354,0.0,0.0,0.0,0.0,0.0,0.0,0.3968623046875,0.0,0.0,0.0,0.0,0.0,0.0,-0.001,0.0,0.0,0.0,0.0,0.0,0.0,0.39265957584481226,0.0,0.0,0.0,0.0,0.0,0.0,0.12
355,0.0,0.0,0.0,0.0,0.0,0.0,0.39665625,0.0,0.0,0.0,0.0,0.0,0.0,-0.011,0.0,0.0,0.0,0.0,0.0,0.0,0.3922696375195915,0.0,0.0,0.0,0.0,0.0,0.0,0.116
356,0.0,0.0,0.0,0.0,0.0,0.0,0.3962431640625,0.0,0.0,0.0,0.0,0.0,0.0,-0.023,0.0,0.0,0.0,0.0,0.0,0.0,0.3918737643794994,0.0,0.0,0.0,0.0,0.0,0.0,0.064
357,0.0,0.0,0.0,0.0,0.0,0.0,0.395830078125,0.0,0.0,0.0,0.0,0.0,0.0,-0.045,0.0,0.0,0.0,0.0,0.0,0.0,0.39147036324719875,0.0,0.0,0.0,0.0,0.0,0.0,0.044
358,0.0,0.0,0.0,0.0,0.0,0.0,0.3952099609375,0.0,0.0,0.0,0.0,0.0,0.0,-0.056,0.0,0.0,0.0,0.0,0.0,0.0,0.39105064943023055,0.0,0.0,0.0,0.0,0.0,0.0,0.064
359,0.0,0.0,0.0,0.0,0.0,0.0,0.394603515625,0.0,0.0,0.0,0.0,0.0,0.0,-0.055,0.0,0.0,0.0,0.0,0.0,0.0,0.3906264020870265,0.0,0.0,0.0,0.0,0.0,0.0,0.044
360,0.0,0.0,0.0,0.0,0.0,0.0,0.3939833984375,0.0,0.0,0.0,0.0,0.0,0.0,-0.057,0.0,0.0,0.0,0.0,0.0,0.0,0.3901924075872365,0.0,0.0,0.0,0.0,0.0,0.0,0.016
361,0.0,0.0,0.0,0.0,0.0,0.0,0.3935703125,0.0,0.0,0.0,0.0,0.0,0.0,-0.06,0.0,0.0,0.0,0.0,0.0,0.0,0.38974799817202715,0.0,0.0,0.0,0.0,0.0,0.0,0.036
362,0.0,0.0,0.0,0.0,0.0,0.0,0.3929501953125,0.0,0.0,0.0,0.0,0.0,0.0,-0.057,0.0,0.0,0.0,0.0,0.0,0.0,0.38929216291676166,0.0,0.0,0.0,0.0,0.0,0.0,0.024
363,0.0,0.0,0.0,0.0,0.0,0.0,0.392537109375,0.0,0.0,0.0,0.0,0.0,0.0,-0.051,0.0,0.0,0.0,0.0,0.0,0.0,0.3888271210968768,0.0,0.0,0.0,0.0,0.0,0.0,0.012
364,0.0,0.0,0.0,0.0,0.0,0.0,0.39234375,0.0,0.0,0.0,0.0,0.0,0.0,-0.034,0.0,0.0,0.0,0.0,0.0,0.0,0.38835008681705196,0.0,0.0,0.0,0.0,0.0,0.0,0.004
365,0.0,0.0,0.0,0.0,0.0,0.0,0.39234375,0.0,0.0,0.0,0.0,0.0,0.0,-0.034,0.0,0.0,0.0,0.0,0.0,0.0,0.3878622984236013,0.0,0.0,0.0,0.0,0.0,0.0,0.004
366,0.0,0.0,0.0,0.0,0.0,0.0,0.391517578125,0.0,0.0,0.0,0.0,0.0,0.0,-0.038,0.0,0.0,0.0,0.0,0.0,0.0,0.3873759330880886,0.0,0.0,0.0,0.0,0.0,0.0,0.012
367,0.0,0.0,0.0,0.0,0.0,0.0,0.391310546875,0.0,0.0,0.0,0.0,0.0,0.0,-0.037,0.0,0.0,0.0,0.0,0.0,0.0,0.38687259856443784,0.0,0.0,0.0,0.0,0.0,0.0,0.012
368,0.0,0.0,0.0,0.0,0.0,0.0,0.3908974609375,0.0,0.0,0.0,0.0,0.0,0.0,-0.029,0.0,0.0,0.0,0.0,0.0,0.0,0.3863557029295103,0.0,0.0,0.0,0.0,0.0,0.0,-0.012
369,0.0,0.0,0.0,0.0,0.0,0.0,0.390484375,0.0,0.0,0.0,0.0,0.0,0.0,-0.038,0.0,0.0,0.0,0.0,0.0,0.0,0.3858384487129203,0.0,0.0,0.0,0.0,0.0,0.0,0.0
370,0.0,0.0,0.0,0.0,0.0,0.0,0.3898779296875,0.0,0.0,0.0,0.0,0.0,0.0,-0.056,0.0,0.0,0.0,0.0,0.0,0.0,0.38530724102929437,0.0,0.0,0.0,0.0,0.0,0.0,0.016
371,0.0,0.0,0.0,0.0,0.0,0.0,0.3890517578125,0.0,0.0,0.0,0.0,0.0,0.0,-0.064,0.0,0.0,0.0,0.0,0.0,0.0,0.384762176804496,0.0,0.0,0.0,0.0,0.0,0.0,0.004
372,0.0,0.0,0.0,0.0,0.0,0.0,0.388431640625,0.0,0.0,0.0,0.0,0.0,0.0,-0.071,0.0,0.0,0.0,0.0,0.0,0.0,0.3842152743172307,0.0,0.0,0.0,0.0,0.0,0.0,0.016
373,0.0,0.0,0.0,0.0,0.0,0.0,0.3878251953125,0.0,0.0,0.0,0.0,0.0,0.0,-0.066,0.0,0.0,0.0,0.0,0.0,0.0,0.3836537194623705,0.0,0.0,0.0,0.0,0.0,0.0,0.0
374,0.0,0.0,0.0,0.0,0.0,0.0,0.387205078125,0.0,0.0,0.0,0.0,0.0,0.0,-0.063,0.0,0.0,0.0,0.0,0.0,0.0,0.38306766741287823,0.0,0.0,0.0,0.0,0.0,0.0,-0.024
375,0.0,0.0,0.0,0.0,0.0,0.0,0.3865859375,0.0,0.0,0.0,0.0,0.0,0.0,-0.062,0.0,0.0,0.0,0.0,0.0,0.0,0.3825009386111247,0.0,0.0,0.0,0.0,0.0,0.0,-0.024
376,0.0,0.0,0.0,0.0,0.0,0.0,0.3859658203125,0.0,0.0,0.0,0.0,0.0,0.0,-0.058,0.0,0.0,0.0,0.0,0.0,0.0,0.3819136402297135,0.0,0.0,0.0,0.0,0.0,0.0,-0.004
377,0.0,0.0,0.0,0.0,0.0,0.0,0.3855654296875,0.0,0.0,0.0,0.0,0.0,0.0,-0.049,0.0,0.0,0.0,0.0,0.0,0.0,0.3813106393300578,0.0,0.0,0.0,0.0,0.0,0.0,-0.036
378,0.0,0.0,0.0,0.0,0.0,0.0,0.38515234375,0.0,0.0,0.0,0.0,0.0,0.0,-0.044,0.0,0.0,0.0,0.0,0.0,0.0,0.380694800544485,0.0,0.0,0.0,0.0,0.0,0.0,-0.024
379,0.0,0.0,0.0,0.0,0.0,0.0,0.3847392578125,0.0,0.0,0.0,0.0,0.0,0.0,-0.039,0.0,0.0,0.0,0.0,0.0,0.0,0.3800849382757232,0.0,0.0,0.0,0.0,0.0,0.0,-0.052
380,0.0,0.0,0.0,0.0,0.0,0.0,0.384326171875,0.0,0.0,0.0,0.0,0.0,0.0,-0.041,0.0,0.0,0.0,0.0,0.0,0.0,0.37927380642382214,0.0,0.0,0.0,0.0,0.0,0.0,-0.056
381,0.0,0.0,0.0,0.0,0.0,0.0,0.3839130859375,0.0,0.0,0.0,0.0,0.0,0.0,-0.047,0.0,0.0,0.0,0.0,0.0,0.0,0.3788195437458719,0.0,0.0,0.0,0.0,0.0,0.0,-0.052
382,0.0,0.0,0.0,0.0,0.0,0.0,0.3835,0.0,0.0,0.0,0.0,0.0,0.0,-0.045,0.0,0.0,0.0,0.0,0.0,0.0,0.37817185601298936,0.0,0.0,0.0,0.0,0.0,0.0,-0.064
383,0.0,0.0,0.0,0.0,0.0,0.0,0.382892578125,0.0,0.0,0.0,0.0,0.0,0.0,-0.055,0.0,0.0,0.0,0.0,0.0,0.0,0.37751395064311966,0.0,0.0,0.0,0.0,0.0,0.0,-0.044
384,0.0,0.0,0.0,0.0,0.0,0.0,0.38206640625,0.0,0.0,0.0,0.0,0.0,0.0,-0.065,0.0,0.0,0.0,0.0,0.0,0.0,0.37682927794760673,0.0,0.0,0.0,0.0,0.0,0.0,-0.036
385,0.0,0.0,0.0,0.0,0.0,0.0,0.381447265625,0.0,0.0,0.0,0.0,0.0,0.0,-0.068,0.0,0.0,0.0,0.0,0.0,0.0,0.3761718359287498,0.0,0.0,0.0,0.0,0.0,0.0,-0.036
386,0.0,0.0,0.0,0.0,0.0,0.0,0.3806337890625,0.0,0.0,0.0,0.0,0.0,0.0,-0.069,0.0,0.0,0.0,0.0,0.0,0.0,0.3753014565758944,0.0,0.0,0.0,0.0,0.0,0.0,-0.052
387,0.0,0.0,0.0,0.0,0.0,0.0,0.3796005859375,0.0,0.0,0.0,0.0,0.0,0.0,-0.098,0.0,0.0,0.0,0.0,0.0,0.0,0.37479681239674756,0.0,0.0,0.0,0.0,0.0,0.0,-0.044
388,0.0,0.0,0.0,0.0,0.0,0.0,0.3783740234375,0.0,0.0,0.0,0.0,0.0,0.0,-0.117,0.0,0.0,0.0,0.0,0.0,0.0,0.3740959786192417,0.0,0.0,0.0,0.0,0.0,0.0,-0.032
389,0.0,0.0,0.0,0.0,0.0,0.0,0.3775478515625,0.0,0.0,0.0,0.0,0.0,0.0,-0.1,0.0,0.0,0.0,0.0,0.0,0.0,0.373380472086835,0.0,0.0,0.0,0.0,0.0,0.0,-0.024
390,0.0,0.0,0.0,0.0,0.0,0.0,0.3767216796875,0.0,0.0,0.0,0.0,0.0,0.0,-0.084,0.0,0.0,0.0,0.0,0.0,0.0,0.3726569441289046,0.0,0.0,0.0,0.0,0.0,0.0,-0.024
391,0.0,0.0,0.0,0.0,0.0,0.0,0.376115234375,0.0,0.0,0.0,0.0,0.0,0.0,-0.08,0.0,0.0,0.0,0.0,0.0,0.0,0.3719267123439472,0.0,0.0,0.0,0.0,0.0,0.0,-0.036
392,0.0,0.0,0.0,0.0,0.0,0.0,0.3754951171875,0.0,0.0,0.0,0.0,0.0,0.0,-0.07,0.0,0.0,0.0,0.0,0.0,0.0,0.3711838535230113,0.0,0.0,0.0,0.0,0.0,0.0,-0.012
393,0.0,0.0,0.0,0.0,0.0,0.0,0.37508203125,0.0,0.0,0.0,0.0,0.0,0.0,-0.052,0.0,0.0,0.0,0.0,0.0,0.0,0.3704186871470357,0.0,0.0,0.0,0.0,0.0,0.0,-0.016
394,0.0,0.0,0.0,0.0,0.0,0.0,0.3744619140625,0.0,0.0,0.0,0.0,0.0,0.0,-0.054,0.0,0.0,0.0,0.0,0.0,0.0,0.3696746889746904,0.0,0.0,0.0,0.0,0.0,0.0,-0.016
395,0.0,0.0,0.0,0.0,0.0,0.0,0.37385546875,0.0,0.0,0.0,0.0,0.0,0.0,-0.056,0.0,0.0,0.0,0.0,0.0,0.0,0.3689106689749888,0.0,0.0,0.0,0.0,0.0,0.0,-0.056
396,0.0,0.0,0.0,0.0,0.0,0.0,0.3732353515625,0.0,0.0,0.0,0.0,0.0,0.0,-0.056,0.0,0.0,0.0,0.0,0.0,0.0,0.36812587578511513,0.0,0.0,0.0,0.0,0.0,0.0,-0.052
397,0.0,0.0,0.0,0.0,0.0,0.0,0.3726162109375,0.0,0.0,0.0,0.0,0.0,0.0,-0.058,0.0,0.0,0.0,0.0,0.0,0.0,0.367345563224611,0.0,0.0,0.0,0.0,0.0,0.0,-0.044
398,0.0,0.0,0.0,0.0,0.0,0.0,0.371802734375,0.0,0.0,0.0,0.0,0.0,0.0,-0.072,0.0,0.0,0.0,0.0,0.0,0.0,0.3665447864554236,0.0,0.0,0.0,0.0,0.0,0.0,-0.032
399,0.0,0.0,0.0,0.0,0.0,0.0,0.3711826171875,0.0,0.0,0.0,0.0,0.0,0.0,-0.078,0.0,0.0,0.0,0.0,0.0,0.0,0.365740240921186,0.0,0.0,0.0,0.0,0.0,0.0,-0.016
400,0.0,0.0,0.0,0.0,0.0,0.0,0.3705634765625,0.0,0.0,0.0,0.0,0.0,0.0,-0.07,0.0,0.0,0.0,0.0,0.0,0.0,0.36492754476179917,0.0,0.0,0.0,0.0,0.0,0.0,-0.012
401,0.0,0.0,0.0,0.0,0.0,0.0,0.36954296875,0.0,0.0,0.0,0.0,0.0,0.0,-0.075,0.0,0.0,0.0,0.0,0.0,0.0,0.3641022692124556,0.0,0.0,0.0,0.0,0.0,0.0,-0.012
402,0.0,0.0,0.0,0.0,0.0,0.0,0.368509765625,0.0,0.0,0.0,0.0,0.0,0.0,-0.104,0.0,0.0,0.0,0.0,0.0,0.0,0.36326378041952373,0.0,0.0,0.0,0.0,0.0,0.0,0.0
403,0.0,0.0,0.0,0.0,0.0,0.0,0.367490234375,0.0,0.0,0.0,0.0,0.0,0.0,-0.112,0.0,0.0,0.0,0.0,0.0,0.0,0.3624318008938138,0.0,0.0,0.0,0.0,0.0,0.0,0.004
404,0.0,0.0,0.0,0.0,0.0,0.0,0.36645703125,0.0,0.0,0.0,0.0,0.0,0.0,-0.103,0.0,0.0,0.0,0.0,0.0,0.0,0.3615808152030501,0.0,0.0,0.0,0.0,0.0,0.0,0.024
405,0.0,0.0,0.0,0.0,0.0,0.0,0.365630859375,0.0,0.0,0.0,0.0,0.0,0.0,-0.089,0.0,0.0,0.0,0.0,0.0,0.0,0.3607109961910912,0.0,0.0,0.0,0.0,0.0,0.0,0.032
406,0.0,0.0,0.0,0.0,0.0,0.0,0.3648173828125,0.0,0.0,0.0,0.0,0.0,0.0,-0.083,0.0,0.0,0.0,0.0,0.0,0.0,0.35985168971945597,0.0,0.0,0.0,0.0,0.0,0.0,0.052
407,0.0,0.0,0.0,0.0,0.0,0.0,0.3641982421875,0.0,0.0,0.0,0.0,0.0,0.0,-0.08,0.0,0.0,0.0,0.0,0.0,0.0,0.3589754855056487,0.0,0.0,0.0,0.0,0.0,0.0,0.052
408,0.0,0.0,0.0,0.0,0.0,0.0,0.3633720703125,0.0,0.0,0.0,0.0,0.0,0.0,-0.069,0.0,0.0,0.0,0.0,0.0,0.0,0.3580488739852754,0.0,0.0,0.0,0.0,0.0,0.0,0.064
409,0.0,0.0,0.0,0.0,0.0,0.0,0.36255859375,0.0,0.0,0.0,0.0,0.0,0.0,-0.074,0.0,0.0,0.0,0.0,0.0,0.0,0.35718788181324623,0.0,0.0,0.0,0.0,0.0,0.0,0.084
410,0.0,0.0,0.0,0.0,0.0,0.0,0.361732421875,0.0,0.0,0.0,0.0,0.0,0.0,-0.081,0.0,0.0,0.0,0.0,0.0,0.0,0.3562698997912961,0.0,0.0,0.0,0.0,0.0,0.0,0.088
411,0.0,0.0,0.0,0.0,0.0,0.0,0.3609189453125,0.0,0.0,0.0,0.0,0.0,0.0,-0.084,0.0,0.0,0.0,0.0,0.0,0.0,0.3551262540100875,0.0,0.0,0.0,0.0,0.0,0.0,0.064
412,0.0,0.0,0.0,0.0,0.0,0.0,0.3600927734375,0.0,0.0,0.0,0.0,0.0,0.0,-0.08,0.0,0.0,0.0,0.0,0.0,0.0,0.3544482072048894,0.0,0.0,0.0,0.0,0.0,0.0,0.052
413,0.0,0.0,0.0,0.0,0.0,0.0,0.359265625,0.0,0.0,0.0,0.0,0.0,0.0,-0.083,0.0,0.0,0.0,0.0,0.0,0.0,0.3535152875624723,0.0,0.0,0.0,0.0,0.0,0.0,0.064
414,0.0,0.0,0.0,0.0,0.0,0.0,0.3584521484375,0.0,0.0,0.0,0.0,0.0,0.0,-0.087,0.0,0.0,0.0,0.0,0.0,0.0,0.3525744234995065,0.0,0.0,0.0,0.0,0.0,0.0,0.076
415,0.0,0.0,0.0,0.0,0.0,0.0,0.357419921875,0.0,0.0,0.0,0.0,0.0,0.0,-0.094,0.0,0.0,0.0,0.0,0.0,0.0,0.3516299832710063,0.0,0.0,0.0,0.0,0.0,0.0,0.076
416,0.0,0.0,0.0,0.0,0.0,0.0,0.356193359375,0.0,0.0,0.0,0.0,0.0,0.0,-0.108,0.0,0.0,0.0,0.0,0.0,0.0,0.3506697252537651,0.0,0.0,0.0,0.0,0.0,0.0,0.032
417,0.0,0.0,0.0,0.0,0.0,0.0,0.35516015625,0.0,0.0,0.0,0.0,0.0,0.0,-0.119,0.0,0.0,0.0,0.0,0.0,0.0,0.34970241422573856,0.0,0.0,0.0,0.0,0.0,0.0,0.036
418,0.0,0.0,0.0,0.0,0.0,0.0,0.35393359375,0.0,0.0,0.0,0.0,0.0,0.0,-0.117,0.0,0.0,0.0,0.0,0.0,0.0,0.34872141845302135,0.0,0.0,0.0,0.0,0.0,0.0,0.032
419,0.0,0.0,0.0,0.0,0.0,0.0,0.3529013671875,0.0,0.0,0.0,0.0,0.0,0.0,-0.114,0.0,0.0,0.0,0.0,0.0,0.0,0.34774517667004756,0.0,0.0,0.0,0.0,0.0,0.0,0.016
420,0.0,0.0,0.0,0.0,0.0,0.0,0.351880859375,0.0,0.0,0.0,0.0,0.0,0.0,-0.104,0.0,0.0,0.0,0.0,0.0,0.0,0.34674459440805544,0.0,0.0,0.0,0.0,0.0,0.0,0.036
421,0.0,0.0,0.0,0.0,0.0,0.0,0.35084765625,0.0,0.0,0.0,0.0,0.0,0.0,-0.098,0.0,0.0,0.0,0.0,0.0,0.0,0.34573302352831703,0.0,0.0,0.0,0.0,0.0,0.0,-0.004
422,0.0,0.0,0.0,0.0,0.0,0.0,0.349828125,0.0,0.0,0.0,0.0,0.0,0.0,-0.113,0.0,0.0,0.0,0.0,0.0,0.0,0.3447407142363502,0.0,0.0,0.0,0.0,0.0,0.0,0.012
423,0.0,0.0,0.0,0.0,0.0,0.0,0.349001953125,0.0,0.0,0.0,0.0,0.0,0.0,-0.095,0.0,0.0,0.0,0.0,0.0,0.0,0.34371184614168265,0.0,0.0,0.0,0.0,0.0,0.0,0.004
424,0.0,0.0,0.0,0.0,0.0,0.0,0.34817578125,0.0,0.0,0.0,0.0,0.0,0.0,-0.089,0.0,0.0,0.0,0.0,0.0,0.0,0.3426955853950065,0.0,0.0,0.0,0.0,0.0,0.0,0.0
425,0.0,0.0,0.0,0.0,0.0,0.0,0.3473623046875,0.0,0.0,0.0,0.0,0.0,0.0,-0.084,0.0,0.0,0.0,0.0,0.0,0.0,0.34165368147598385,0.0,0.0,0.0,0.0,0.0,0.0,-0.016
426,0.0,0.0,0.0,0.0,0.0,0.0,0.3463291015625,0.0,0.0,0.0,0.0,0.0,0.0,-0.09,0.0,0.0,0.0,0.0,0.0,0.0,0.3406102358888116,0.0,0.0,0.0,0.0,0.0,0.0,-0.032
427,0.0,0.0,0.0,0.0,0.0,0.0,0.3453095703125,0.0,0.0,0.0,0.0,0.0,0.0,-0.104,0.0,0.0,0.0,0.0,0.0,0.0,0.33954934247120033,0.0,0.0,0.0,0.0,0.0,0.0,-0.016
428,0.0,0.0,0.0,0.0,0.0,0.0,0.3444833984375,0.0,0.0,0.0,0.0,0.0,0.0,-0.093,0.0,0.0,0.0,0.0,0.0,0.0,0.33850239247528796,0.0,0.0,0.0,0.0,0.0,0.0,-0.024
429,0.0,0.0,0.0,0.0,0.0,0.0,0.3434501953125,0.0,0.0,0.0,0.0,0.0,0.0,-0.089,0.0,0.0,0.0,0.0,0.0,0.0,0.33742498277639327,0.0,0.0,0.0,0.0,0.0,0.0,-0.036
430,0.0,0.0,0.0,0.0,0.0,0.0,0.3424296875,0.0,0.0,0.0,0.0,0.0,0.0,-0.105,0.0,0.0,0.0,0.0,0.0,0.0,0.3363180321962286,0.0,0.0,0.0,0.0,0.0,0.0,-0.056
431,0.0,0.0,0.0,0.0,0.0,0.0,0.3413974609375,0.0,0.0,0.0,0.0,0.0,0.0,-0.107,0.0,0.0,0.0,0.0,0.0,0.0,0.33526897190282223,0.0,0.0,0.0,0.0,0.0,0.0,-0.076
432,0.0,0.0,0.0,0.0,0.0,0.0,0.340376953125,0.0,0.0,0.0,0.0,0.0,0.0,-0.096,0.0,0.0,0.0,0.0,0.0,0.0,0.3341590375201719,0.0,0.0,0.0,0.0,0.0,0.0,-0.096
433,0.0,0.0,0.0,0.0,0.0,0.0,0.3391376953125,0.0,0.0,0.0,0.0,0.0,0.0,-0.109,0.0,0.0,0.0,0.0,0.0,0.0,0.3330582147099251,0.0,0.0,0.0,0.0,0.0,0.0,-0.096
434,0.0,0.0,0.0,0.0,0.0,0.0,0.3381181640625,0.0,0.0,0.0,0.0,0.0,0.0,-0.123,0.0,0.0,0.0,0.0,0.0,0.0,0.3319625135841381,0.0,0.0,0.0,0.0,0.0,0.0,-0.096
435,0.0,0.0,0.0,0.0,0.0,0.0,0.33687890625,0.0,0.0,0.0,0.0,0.0,0.0,-0.115,0.0,0.0,0.0,0.0,0.0,0.0,0.3308278500024247,0.0,0.0,0.0,0.0,0.0,0.0,-0.084
436,0.0,0.0,0.0,0.0,0.0,0.0,0.33565234375,0.0,0.0,0.0,0.0,0.0,0.0,-0.115,0.0,0.0,0.0,0.0,0.0,0.0,0.3297003044428526,0.0,0.0,0.0,0.0,0.0,0.0,-0.116
437,0.0,0.0,0.0,0.0,0.0,0.0,0.33442578125,0.0,0.0,0.0,0.0,0.0,0.0,-0.138,0.0,0.0,0.0,0.0,0.0,0.0,0.328558490230548,0.0,0.0,0.0,0.0,0.0,0.0,-0.116
438,0.0,0.0,0.0,0.0,0.0,0.0,0.333392578125,0.0,0.0,0.0,0.0,0.0,0.0,-0.115,0.0,0.0,0.0,0.0,0.0,0.0,0.32741802843417434,0.0,0.0,0.0,0.0,0.0,0.0,-0.104
439,0.0,0.0,0.0,0.0,0.0,0.0,0.332166015625,0.0,0.0,0.0,0.0,0.0,0.0,-0.113,0.0,0.0,0.0,0.0,0.0,0.0,0.32626251902496217,0.0,0.0,0.0,0.0,0.0,0.0,-0.116
440,0.0,0.0,0.0,0.0,0.0,0.0,0.3307197265625,0.0,0.0,0.0,0.0,0.0,0.0,-0.131,0.0,0.0,0.0,0.0,0.0,0.0,0.32511779083513276,0.0,0.0,0.0,0.0,0.0,0.0,-0.108
441,0.0,0.0,0.0,0.0,0.0,0.0,0.3294931640625,0.0,0.0,0.0,0.0,0.0,0.0,-0.131,0.0,0.0,0.0,0.0,0.0,0.0,0.3239456947091299,0.0,0.0,0.0,0.0,0.0,0.0,-0.104
442,0.0,0.0,0.0,0.0,0.0,0.0,0.3284609375,0.0,0.0,0.0,0.0,0.0,0.0,-0.122,0.0,0.0,0.0,0.0,0.0,0.0,0.32274160170915206,0.0,0.0,0.0,0.0,0.0,0.0,-0.096
443,0.0,0.0,0.0,0.0,0.0,0.0,0.3274404296875,0.0,0.0,0.0,0.0,0.0,0.0,-0.108,0.0,0.0,0.0,0.0,0.0,0.0,0.3215573763329216,0.0,0.0,0.0,0.0,0.0,0.0,-0.096
444,0.0,0.0,0.0,0.0,0.0,0.0,0.326201171875,0.0,0.0,0.0,0.0,0.0,0.0,-0.113,0.0,0.0,0.0,0.0,0.0,0.0,0.32038597149864795,0.0,0.0,0.0,0.0,0.0,0.0,-0.076
445,0.0,0.0,0.0,0.0,0.0,0.0,0.324974609375,0.0,0.0,0.0,0.0,0.0,0.0,-0.12,0.0,0.0,0.0,0.0,0.0,0.0,0.3191671908684165,0.0,0.0,0.0,0.0,0.0,0.0,-0.108
446,0.0,0.0,0.0,0.0,0.0,0.0,0.32394140625,0.0,0.0,0.0,0.0,0.0,0.0,-0.116,0.0,0.0,0.0,0.0,0.0,0.0,0.31797552556834013,0.0,0.0,0.0,0.0,0.0,0.0,-0.056
447,0.0,0.0,0.0,0.0,0.0,0.0,0.322921875,0.0,0.0,0.0,0.0,0.0,0.0,-0.1,0.0,0.0,0.0,0.0,0.0,0.0,0.3167621961779288,0.0,0.0,0.0,0.0,0.0,0.0,-0.088
448,0.0,0.0,0.0,0.0,0.0,0.0,0.321888671875,0.0,0.0,0.0,0.0,0.0,0.0,-0.097,0.0,0.0,0.0,0.0,0.0,0.0,0.31552356217423316,0.0,0.0,0.0,0.0,0.0,0.0,-0.068
449,0.0,0.0,0.0,0.0,0.0,0.0,0.3210751953125,0.0,0.0,0.0,0.0,0.0,0.0,-0.099,0.0,0.0,0.0,0.0,0.0,0.0,0.31429468325511734,0.0,0.0,0.0,0.0,0.0,0.0,-0.052
450,0.0,0.0,0.0,0.0,0.0,0.0,0.32004296875,0.0,0.0,0.0,0.0,0.0,0.0,-0.091,0.0,0.0,0.0,0.0,0.0,0.0,0.3130533715957038,0.0,0.0,0.0,0.0,0.0,0.0,-0.068
451,0.0,0.0,0.0,0.0,0.0,0.0,0.3190224609375,0.0,0.0,0.0,0.0,0.0,0.0,-0.104,0.0,0.0,0.0,0.0,0.0,0.0,0.3117918643113604,0.0,0.0,0.0,0.0,0.0,0.0,-0.056
452,0.0,0.0,0.0,0.0,0.0,0.0,0.317783203125,0.0,0.0,0.0,0.0,0.0,0.0,-0.119,0.0,0.0,0.0,0.0,0.0,0.0,0.31055552518285356,0.0,0.0,0.0,0.0,0.0,0.0,-0.076
453,0.0,0.0,0.0,0.0,0.0,0.0,0.316556640625,0.0,0.0,0.0,0.0,0.0,0.0,-0.126,0.0,0.0,0.0,0.0,0.0,0.0,0.30928975028808847,0.0,0.0,0.0,0.0,0.0,0.0,-0.036
454,0.0,0.0,0.0,0.0,0.0,0.0,0.3151103515625,0.0,0.0,0.0,0.0,0.0,0.0,-0.129,0.0,0.0,0.0,0.0,0.0,0.0,0.30800983750094524,0.0,0.0,0.0,0.0,0.0,0.0,-0.056
455,0.0,0.0,0.0,0.0,0.0,0.0,0.3138837890625,0.0,0.0,0.0,0.0,0.0,0.0,-0.129,0.0,0.0,0.0,0.0,0.0,0.0,0.3067101930713783,0.0,0.0,0.0,0.0,0.0,0.0,-0.032
456,0.0,0.0,0.0,0.0,0.0,0.0,0.312451171875,0.0,0.0,0.0,0.0,0.0,0.0,-0.134,0.0,0.0,0.0,0.0,0.0,0.0,0.30546385308718427,0.0,0.0,0.0,0.0,0.0,0.0,-0.064
457,0.0,0.0,0.0,0.0,0.0,0.0,0.31141796875,0.0,0.0,0.0,0.0,0.0,0.0,-0.13,0.0,0.0,0.0,0.0,0.0,0.0,0.30414684647245416,0.0,0.0,0.0,0.0,0.0,0.0,-0.044
458,0.0,0.0,0.0,0.0,0.0,0.0,0.3099853515625,0.0,0.0,0.0,0.0,0.0,0.0,-0.127,0.0,0.0,0.0,0.0,0.0,0.0,0.30285216339529347,0.0,0.0,0.0,0.0,0.0,0.0,-0.052
459,0.0,0.0,0.0,0.0,0.0,0.0,0.3085390625,0.0,0.0,0.0,0.0,0.0,0.0,-0.143,0.0,0.0,0.0,0.0,0.0,0.0,0.3015398831124027,0.0,0.0,0.0,0.0,0.0,0.0,0.0
460,0.0,0.0,0.0,0.0,0.0,0.0,0.30710546875,0.0,0.0,0.0,0.0,0.0,0.0,-0.145,0.0,0.0,0.0,0.0,0.0,0.0,0.30010623111405504,0.0,0.0,0.0,0.0,0.0,0.0,0.004
461,0.0,0.0,0.0,0.0,0.0,0.0,0.3056728515625,0.0,0.0,0.0,0.0,0.0,0.0,-0.15,0.0,0.0,0.0,0.0,0.0,0.0,0.2988710277672174,0.0,0.0,0.0,0.0,0.0,0.0,0.012
462,0.0,0.0,0.0,0.0,0.0,0.0,0.3042265625,0.0,0.0,0.0,0.0,0.0,0.0,-0.142,0.0,0.0,0.0,0.0,0.0,0.0,0.29757240264285645,0.0,0.0,0.0,0.0,0.0,0.0,-0.012
463,0.0,0.0,0.0,0.0,0.0,0.0,0.303,0.0,0.0,0.0,0.0,0.0,0.0,-0.134,0.0,0.0,0.0,0.0,0.0,0.0,0.29622410228741636,0.0,0.0,0.0,0.0,0.0,0.0,-0.004
464,0.0,0.0,0.0,0.0,0.0,0.0,0.3015673828125,0.0,0.0,0.0,0.0,0.0,0.0,-0.14,0.0,0.0,0.0,0.0,0.0,0.0,0.2948664383257624,0.0,0.0,0.0,0.0,0.0,0.0,-0.012
465,0.0,0.0,0.0,0.0,0.0,0.0,0.30012109375,0.0,0.0,0.0,0.0,0.0,0.0,-0.145,0.0,0.0,0.0,0.0,0.0,0.0,0.293461182578443,0.0,0.0,0.0,0.0,0.0,0.0,-0.036
466,0.0,0.0,0.0,0.0,0.0,0.0,0.2986875,0.0,0.0,0.0,0.0,0.0,0.0,-0.143,0.0,0.0,0.0,0.0,0.0,0.0,0.29206866312134533,0.0,0.0,0.0,0.0,0.0,0.0,-0.056
467,0.0,0.0,0.0,0.0,0.0,0.0,0.2974609375,0.0,0.0,0.0,0.0,0.0,0.0,-0.133,0.0,0.0,0.0,0.0,0.0,0.0,0.2907208947063136,0.0,0.0,0.0,0.0,0.0,0.0,-0.056
468,0.0,0.0,0.0,0.0,0.0,0.0,0.2964287109375,0.0,0.0,0.0,0.0,0.0,0.0,-0.117,0.0,0.0,0.0,0.0,0.0,0.0,0.28942198813818387,0.0,0.0,0.0,0.0,0.0,0.0,-0.108
469,0.0,0.0,0.0,0.0,0.0,0.0,0.2949951171875,0.0,0.0,0.0,0.0,0.0,0.0,-0.128,0.0,0.0,0.0,0.0,0.0,0.0,0.288027454531242,0.0,0.0,0.0,0.0,0.0,0.0,-0.076
470,0.0,0.0,0.0,0.0,0.0,0.0,0.293548828125,0.0,0.0,0.0,0.0,0.0,0.0,-0.14,0.0,0.0,0.0,0.0,0.0,0.0,0.28662697572336254,0.0,0.0,0.0,0.0,0.0,0.0,-0.012
471,0.0,0.0,0.0,0.0,0.0,0.0,0.2921162109375,0.0,0.0,0.0,0.0,0.0,0.0,-0.134,0.0,0.0,0.0,0.0,0.0,0.0,0.2852266928712021,0.0,0.0,0.0,0.0,0.0,0.0,-0.056
472,0.0,0.0,0.0,0.0,0.0,0.0,0.2906826171875,0.0,0.0,0.0,0.0,0.0,0.0,-0.152,0.0,0.0,0.0,0.0,0.0,0.0,0.2838284016000641,0.0,0.0,0.0,0.0,0.0,0.0,-0.064
473,0.0,0.0,0.0,0.0,0.0,0.0,0.2890302734375,0.0,0.0,0.0,0.0,0.0,0.0,-0.161,0.0,0.0,0.0,0.0,0.0,0.0,0.282309338105147,0.0,0.0,0.0,0.0,0.0,0.0,-0.052
474,0.0,0.0,0.0,0.0,0.0,0.0,0.28759765625,0.0,0.0,0.0,0.0,0.0,0.0,-0.157,0.0,0.0,0.0,0.0,0.0,0.0,0.28098645948682305,0.0,0.0,0.0,0.0,0.0,0.0,-0.064
475,0.0,0.0,0.0,0.0,0.0,0.0,0.28637109375,0.0,0.0,0.0,0.0,0.0,0.0,-0.141,0.0,0.0,0.0,0.0,0.0,0.0,0.2795699558994759,0.0,0.0,0.0,0.0,0.0,0.0,-0.036
476,0.0,0.0,0.0,0.0,0.0,0.0,0.2849248046875,0.0,0.0,0.0,0.0,0.0,0.0,-0.124,0.0,0.0,0.0,0.0,0.0,0.0,0.27813319981769336,0.0,0.0,0.0,0.0,0.0,0.0,-0.056
477,0.0,0.0,0.0,0.0,0.0,0.0,0.2834912109375,0.0,0.0,0.0,0.0,0.0,0.0,-0.141,0.0,0.0,0.0,0.0,0.0,0.0,0.2767056467499498,0.0,0.0,0.0,0.0,0.0,0.0,-0.036
478,0.0,0.0,0.0,0.0,0.0,0.0,0.282265625,0.0,0.0,0.0,0.0,0.0,0.0,-0.142,0.0,0.0,0.0,0.0,0.0,0.0,0.275259712753295,0.0,0.0,0.0,0.0,0.0,0.0,-0.024
479,0.0,0.0,0.0,0.0,0.0,0.0,0.2808193359375,0.0,0.0,0.0,0.0,0.0,0.0,-0.14,0.0,0.0,0.0,0.0,0.0,0.0,0.27377291563490125,0.0,0.0,0.0,0.0,0.0,0.0,0.012
480,0.0,0.0,0.0,0.0,0.0,0.0,0.2793857421875,0.0,0.0,0.0,0.0,0.0,0.0,-0.142,0.0,0.0,0.0,0.0,0.0,0.0,0.27233740316850014,0.0,0.0,0.0,0.0,0.0,0.0,0.0
481,0.0,0.0,0.0,0.0,0.0,0.0,0.2781591796875,0.0,0.0,0.0,0.0,0.0,0.0,-0.13,0.0,0.0,0.0,0.0,0.0,0.0,0.2708701661482781,0.0,0.0,0.0,0.0,0.0,0.0,0.0
482,0.0,0.0,0.0,0.0,0.0,0.0,0.2767138671875,0.0,0.0,0.0,0.0,0.0,0.0,-0.135,0.0,0.0,0.0,0.0,0.0,0.0,0.2693823141555204,0.0,0.0,0.0,0.0,0.0,0.0,0.032
483,0.0,0.0,0.0,0.0,0.0,0.0,0.2754873046875,0.0,0.0,0.0,0.0,0.0,0.0,-0.138,0.0,0.0,0.0,0.0,0.0,0.0,0.26791087419196946,0.0,0.0,0.0,0.0,0.0,0.0,0.052
484,0.0,0.0,0.0,0.0,0.0,0.0,0.274041015625,0.0,0.0,0.0,0.0,0.0,0.0,-0.128,0.0,0.0,0.0,0.0,0.0,0.0,0.2663788357936062,0.0,0.0,0.0,0.0,0.0,0.0,0.036
485,0.0,0.0,0.0,0.0,0.0,0.0,0.272814453125,0.0,0.0,0.0,0.0,0.0,0.0,-0.137,0.0,0.0,0.0,0.0,0.0,0.0,0.26489955829612005,0.0,0.0,0.0,0.0,0.0,0.0,0.076
486,0.0,0.0,0.0,0.0,0.0,0.0,0.271380859375,0.0,0.0,0.0,0.0,0.0,0.0,-0.134,0.0,0.0,0.0,0.0,0.0,0.0,0.26341559357950717,0.0,0.0,0.0,0.0,0.0,0.0,0.052
487,0.0,0.0,0.0,0.0,0.0,0.0,0.269935546875,0.0,0.0,0.0,0.0,0.0,0.0,-0.139,0.0,0.0,0.0,0.0,0.0,0.0,0.26180999986434395,0.0,0.0,0.0,0.0,0.0,0.0,0.012
488,0.0,0.0,0.0,0.0,0.0,0.0,0.268501953125,0.0,0.0,0.0,0.0,0.0,0.0,-0.153,0.0,0.0,0.0,0.0,0.0,0.0,0.2603972845906194,0.0,0.0,0.0,0.0,0.0,0.0,0.024
489,0.0,0.0,0.0,0.0,0.0,0.0,0.2668623046875,0.0,0.0,0.0,0.0,0.0,0.0,-0.155,0.0,0.0,0.0,0.0,0.0,0.0,0.2588819771697853,0.0,0.0,0.0,0.0,0.0,0.0,0.032
490,0.0,0.0,0.0,0.0,0.0,0.0,0.26336328125,0.0,0.0,0.0,0.0,0.0,0.0,-0.182,0.0,0.0,0.0,0.0,0.0,0.0,0.2558191995605413,0.0,0.0,0.0,0.0,0.0,0.0,0.0
491,0.0,0.0,0.0,0.0,0.0,0.0,0.260484375,0.0,0.0,0.0,0.0,0.0,0.0,-0.146,0.0,0.0,0.0,0.0,0.0,0.0,0.2526292869929994,0.0,0.0,0.0,0.0,0.0,0.0,0.0
492,0.0,0.0,0.0,0.0,0.0,0.0,0.25760546875,0.0,0.0,0.0,0.0,0.0,0.0,-0.146,0.0,0.0,0.0,0.0,0.0,0.0,0.2499516623923922,0.0,0.0,0.0,0.0,0.0,0.0,-0.044
493,0.0,0.0,0.0,0.0,0.0,0.0,0.2559658203125,0.0,0.0,0.0,0.0,0.0,0.0,-0.15,0.0,0.0,0.0,0.0,0.0,0.0,0.24828221146745416,0.0,0.0,0.0,0.0,0.0,0.0,-0.056
494,0.0,0.0,0.0,0.0,0.0,0.0,0.2545322265625,0.0,0.0,0.0,0.0,0.0,0.0,-0.161,0.0,0.0,0.0,0.0,0.0,0.0,0.2464429864563701,0.0,0.0,0.0,0.0,0.0,0.0,-0.088
495,0.0,0.0,0.0,0.0,0.0,0.0,0.2528798828125,0.0,0.0,0.0,0.0,0.0,0.0,-0.158,0.0,0.0,0.0,0.0,0.0,0.0,0.2452169424118159,0.0,0.0,0.0,0.0,0.0,0.0,-0.136
496,0.0,0.0,0.0,0.0,0.0,0.0,0.2514462890625,0.0,0.0,0.0,0.0,0.0,0.0,-0.151,0.0,0.0,0.0,0.0,0.0,0.0,0.2436345793994791,0.0,0.0,0.0,0.0,0.0,0.0,-0.136
497,0.0,0.0,0.0,0.0,0.0,0.0,0.249806640625,0.0,0.0,0.0,0.0,0.0,0.0,-0.154,0.0,0.0,0.0,0.0,0.0,0.0,0.242052964894594,0.0,0.0,0.0,0.0,0.0,0.0,-0.116
498,0.0,0.0,0.0,0.0,0.0,0.0,0.2481669921875,0.0,0.0,0.0,0.0,0.0,0.0,-0.165,0.0,0.0,0.0,0.0,0.0,0.0,0.2404564402143904,0.0,0.0,0.0,0.0,0.0,0.0,-0.116
499,0.0,0.0,0.0,0.0,0.0,0.0,0.2465146484375,0.0,0.0,0.0,0.0,0.0,0.0,-0.166,0.0,0.0,0.0,0.0,0.0,0.0,0.2388428023136945,0.0,0.0,0.0,0.0,0.0,0.0,-0.136
500,0.0,0.0,0.0,0.0,0.0,0.0,0.244875,0.0,0.0,0.0,0.0,0.0,0.0,-0.159,0.0,0.0,0.0,0.0,0.0,0.0,0.23724579073194185,0.0,0.0,0.0,0.0,0.0,0.0,-0.128
501,0.0,0.0,0.0,0.0,0.0,0.0,0.2432353515625,0.0,0.0,0.0,0.0,0.0,0.0,-0.179,0.0,0.0,0.0,0.0,0.0,0.0,0.23563452373227145,0.0,0.0,0.0,0.0,0.0,0.0,-0.148
502,0.0,0.0,0.0,0.0,0.0,0.0,0.241388671875,0.0,0.0,0.0,0.0,0.0,0.0,-0.169,0.0,0.0,0.0,0.0,0.0,0.0,0.23401335806650636,0.0,0.0,0.0,0.0,0.0,0.0,-0.128
503,0.0,0.0,0.0,0.0,0.0,0.0,0.2397490234375,0.0,0.0,0.0,0.0,0.0,0.0,-0.173,0.0,0.0,0.0,0.0,0.0,0.0,0.23238939308370724,0.0,0.0,0.0,0.0,0.0,0.0,-0.108
504,0.0,0.0,0.0,0.0,0.0,0.0,0.2383037109375,0.0,0.0,0.0,0.0,0.0,0.0,-0.163,0.0,0.0,0.0,0.0,0.0,0.0,0.23076550654365133,0.0,0.0,0.0,0.0,0.0,0.0,-0.104
505,0.0,0.0,0.0,0.0,0.0,0.0,0.2368701171875,0.0,0.0,0.0,0.0,0.0,0.0,-0.142,0.0,0.0,0.0,0.0,0.0,0.0,0.229134765743473,0.0,0.0,0.0,0.0,0.0,0.0,-0.084
506,0.0,0.0,0.0,0.0,0.0,0.0,0.23523046875,0.0,0.0,0.0,0.0,0.0,0.0,-0.155,0.0,0.0,0.0,0.0,0.0,0.0,0.22748217756257028,0.0,0.0,0.0,0.0,0.0,0.0,-0.108
507,0.0,0.0,0.0,0.0,0.0,0.0,0.2337978515625,0.0,0.0,0.0,0.0,0.0,0.0,-0.16,0.0,0.0,0.0,0.0,0.0,0.0,0.22583378767444975,0.0,0.0,0.0,0.0,0.0,0.0,-0.064
508,0.0,0.0,0.0,0.0,0.0,0.0,0.2323515625,0.0,0.0,0.0,0.0,0.0,0.0,-0.148,0.0,0.0,0.0,0.0,0.0,0.0,0.22418484306034347,0.0,0.0,0.0,0.0,0.0,0.0,-0.064
509,0.0,0.0,0.0,0.0,0.0,0.0,0.2307119140625,0.0,0.0,0.0,0.0,0.0,0.0,-0.143,0.0,0.0,0.0,0.0,0.0,0.0,0.2225206964769586,0.0,0.0,0.0,0.0,0.0,0.0,-0.052
510,0.0,0.0,0.0,0.0,0.0,0.0,0.229072265625,0.0,0.0,0.0,0.0,0.0,0.0,-0.168,0.0,0.0,0.0,0.0,0.0,0.0,0.22085966008092495,0.0,0.0,0.0,0.0,0.0,0.0,-0.044
511,0.0,0.0,0.0,0.0,0.0,0.0,0.2276259765625,0.0,0.0,0.0,0.0,0.0,0.0,-0.162,0.0,0.0,0.0,0.0,0.0,0.0,0.21917769019779898,0.0,0.0,0.0,0.0,0.0,0.0,-0.056
512,0.0,0.0,0.0,0.0,0.0,0.0,0.225986328125,0.0,0.0,0.0,0.0,0.0,0.0,-0.155,0.0,0.0,0.0,0.0,0.0,0.0,0.21750865234353203,0.0,0.0,0.0,0.0,0.0,0.0,-0.068
513,0.0,0.0,0.0,0.0,0.0,0.0,0.2243466796875,0.0,0.0,0.0,0.0,0.0,0.0,-0.161,0.0,0.0,0.0,0.0,0.0,0.0,0.21582004840197155,0.0,0.0,0.0,0.0,0.0,0.0,-0.068
514,0.0,0.0,0.0,0.0,0.0,0.0,0.2225,0.0,0.0,0.0,0.0,0.0,0.0,-0.171,0.0,0.0,0.0,0.0,0.0,0.0,0.21413143853486113,0.0,0.0,0.0,0.0,0.0,0.0,-0.052
515,0.0,0.0,0.0,0.0,0.0,0.0,0.220654296875,0.0,0.0,0.0,0.0,0.0,0.0,-0.192,0.0,0.0,0.0,0.0,0.0,0.0,0.21243540207350825,0.0,0.0,0.0,0.0,0.0,0.0,-0.016
516,0.0,0.0,0.0,0.0,0.0,0.0,0.2188076171875,0.0,0.0,0.0,0.0,0.0,0.0,-0.186,0.0,0.0,0.0,0.0,0.0,0.0,0.2107326916613476,0.0,0.0,0.0,0.0,0.0,0.0,-0.016
517,0.0,0.0,0.0,0.0,0.0,0.0,0.2169619140625,0.0,0.0,0.0,0.0,0.0,0.0,-0.181,0.0,0.0,0.0,0.0,0.0,0.0,0.20902927325613746,0.0,0.0,0.0,0.0,0.0,0.0,-0.012
518,0.0,0.0,0.0,0.0,0.0,0.0,0.2151025390625,0.0,0.0,0.0,0.0,0.0,0.0,-0.188,0.0,0.0,0.0,0.0,0.0,0.0,0.2073209501378632,0.0,0.0,0.0,0.0,0.0,0.0,-0.032
519,0.0,0.0,0.0,0.0,0.0,0.0,0.2130498046875,0.0,0.0,0.0,0.0,0.0,0.0,-0.194,0.0,0.0,0.0,0.0,0.0,0.0,0.20487548108706788,0.0,0.0,0.0,0.0,0.0,0.0,-0.036
520,0.0,0.0,0.0,0.0,0.0,0.0,0.211203125,0.0,0.0,0.0,0.0,0.0,0.0,-0.195,0.0,0.0,0.0,0.0,0.0,0.0,0.20363893825925847,0.0,0.0,0.0,0.0,0.0,0.0,-0.076
521,0.0,0.0,0.0,0.0,0.0,0.0,0.2097705078125,0.0,0.0,0.0,0.0,0.0,0.0,-0.177,0.0,0.0,0.0,0.0,0.0,0.0,0.20218424957410416,0.0,0.0,0.0,0.0,0.0,0.0,-0.104
522,0.0,0.0,0.0,0.0,0.0,0.0,0.207923828125,0.0,0.0,0.0,0.0,0.0,0.0,-0.155,0.0,0.0,0.0,0.0,0.0,0.0,0.20045826001693162,0.0,0.0,0.0,0.0,0.0,0.0,-0.068
523,0.0,0.0,0.0,0.0,0.0,0.0,0.206078125,0.0,0.0,0.0,0.0,0.0,0.0,-0.182,0.0,0.0,0.0,0.0,0.0,0.0,0.19870215220025536,0.0,0.0,0.0,0.0,0.0,0.0,-0.068
524,0.0,0.0,0.0,0.0,0.0,0.0,0.2042314453125,0.0,0.0,0.0,0.0,0.0,0.0,-0.183,0.0,0.0,0.0,0.0,0.0,0.0,0.196965805219596,0.0,0.0,0.0,0.0,0.0,0.0,-0.036
525,0.0,0.0,0.0,0.0,0.0,0.0,0.2025791015625,0.0,0.0,0.0,0.0,0.0,0.0,-0.18,0.0,0.0,0.0,0.0,0.0,0.0,0.19523798763328482,0.0,0.0,0.0,0.0,0.0,0.0,-0.052
526,0.0,0.0,0.0,0.0,0.0,0.0,0.200732421875,0.0,0.0,0.0,0.0,0.0,0.0,-0.171,0.0,0.0,0.0,0.0,0.0,0.0,0.19348242120243087,0.0,0.0,0.0,0.0,0.0,0.0,-0.068
527,0.0,0.0,0.0,0.0,0.0,0.0,0.1990927734375,0.0,0.0,0.0,0.0,0.0,0.0,-0.177,0.0,0.0,0.0,0.0,0.0,0.0,0.19174800577892648,0.0,0.0,0.0,0.0,0.0,0.0,-0.068
528,0.0,0.0,0.0,0.0,0.0,0.0,0.1972470703125,0.0,0.0,0.0,0.0,0.0,0.0,-0.174,0.0,0.0,0.0,0.0,0.0,0.0,0.18998422375459423,0.0,0.0,0.0,0.0,0.0,0.0,-0.052
529,0.0,0.0,0.0,0.0,0.0,0.0,0.1956064453125,0.0,0.0,0.0,0.0,0.0,0.0,-0.183,0.0,0.0,0.0,0.0,0.0,0.0,0.1882283653558775,0.0,0.0,0.0,0.0,0.0,0.0,-0.052
530,0.0,0.0,0.0,0.0,0.0,0.0,0.193966796875,0.0,0.0,0.0,0.0,0.0,0.0,-0.174,0.0,0.0,0.0,0.0,0.0,0.0,0.18645686764619487,0.0,0.0,0.0,0.0,0.0,0.0,-0.004
531,0.0,0.0,0.0,0.0,0.0,0.0,0.192521484375,0.0,0.0,0.0,0.0,0.0,0.0,-0.149,0.0,0.0,0.0,0.0,0.0,0.0,0.18465035744405156,0.0,0.0,0.0,0.0,0.0,0.0,0.0
532,0.0,0.0,0.0,0.0,0.0,0.0,0.1908818359375,0.0,0.0,0.0,0.0,0.0,0.0,-0.154,0.0,0.0,0.0,0.0,0.0,0.0,0.1829201327702149,0.0,0.0,0.0,0.0,0.0,0.0,0.024
533,0.0,0.0,0.0,0.0,0.0,0.0,0.1894482421875,0.0,0.0,0.0,0.0,0.0,0.0,-0.16,0.0,0.0,0.0,0.0,0.0,0.0,0.18111856852826283,0.0,0.0,0.0,0.0,0.0,0.0,0.024
534,0.0,0.0,0.0,0.0,0.0,0.0,0.188001953125,0.0,0.0,0.0,0.0,0.0,0.0,-0.14,0.0,0.0,0.0,0.0,0.0,0.0,0.1793136068990491,0.0,0.0,0.0,0.0,0.0,0.0,0.052
535,0.0,0.0,0.0,0.0,0.0,0.0,0.1863623046875,0.0,0.0,0.0,0.0,0.0,0.0,-0.148,0.0,0.0,0.0,0.0,0.0,0.0,0.17755294747258926,0.0,0.0,0.0,0.0,0.0,0.0,0.052
536,0.0,0.0,0.0,0.0,0.0,0.0,0.1845166015625,0.0,0.0,0.0,0.0,0.0,0.0,-0.175,0.0,0.0,0.0,0.0,0.0,0.0,0.17574922925435993,0.0,0.0,0.0,0.0,0.0,0.0,0.036
537,0.0,0.0,0.0,0.0,0.0,0.0,0.182876953125,0.0,0.0,0.0,0.0,0.0,0.0,-0.175,0.0,0.0,0.0,0.0,0.0,0.0,0.17395369556786133,0.0,0.0,0.0,0.0,0.0,0.0,0.016
538,0.0,0.0,0.0,0.0,0.0,0.0,0.1812373046875,0.0,0.0,0.0,0.0,0.0,0.0,-0.169,0.0,0.0,0.0,0.0,0.0,0.0,0.17215688474215685,0.0,0.0,0.0,0.0,0.0,0.0,0.016
539,0.0,0.0,0.0,0.0,0.0,0.0,0.179390625,0.0,0.0,0.0,0.0,0.0,0.0,-0.168,0.0,0.0,0.0,0.0,0.0,0.0,0.17034510057780924,0.0,0.0,0.0,0.0,0.0,0.0,0.052
540,0.0,0.0,0.0,0.0,0.0,0.0,0.177337890625,0.0,0.0,0.0,0.0,0.0,0.0,-0.198,0.0,0.0,0.0,0.0,0.0,0.0,0.16852670204162118,0.0,0.0,0.0,0.0,0.0,0.0,0.0
541,0.0,0.0,0.0,0.0,0.0,0.0,0.17528515625,0.0,0.0,0.0,0.0,0.0,0.0,-0.207,0.0,0.0,0.0,0.0,0.0,0.0,0.16671602236604516,0.0,0.0,0.0,0.0,0.0,0.0,-0.016
542,0.0,0.0,0.0,0.0,0.0,0.0,0.173232421875,0.0,0.0,0.0,0.0,0.0,0.0,-0.207,0.0,0.0,0.0,0.0,0.0,0.0,0.16488920841390847,0.0,0.0,0.0,0.0,0.0,0.0,-0.024
543,0.0,0.0,0.0,0.0,0.0,0.0,0.1711796875,0.0,0.0,0.0,0.0,0.0,0.0,-0.207,0.0,0.0,0.0,0.0,0.0,0.0,0.16304818347951405,0.0,0.0,0.0,0.0,0.0,0.0,-0.064
544,0.0,0.0,0.0,0.0,0.0,0.0,0.169126953125,0.0,0.0,0.0,0.0,0.0,0.0,-0.207,0.0,0.0,0.0,0.0,0.0,0.0,0.16125114048756795,0.0,0.0,0.0,0.0,0.0,0.0,-0.104
545,0.0,0.0,0.0,0.0,0.0,0.0,0.1672802734375,0.0,0.0,0.0,0.0,0.0,0.0,-0.2,0.0,0.0,0.0,0.0,0.0,0.0,0.15941539197381585,0.0,0.0,0.0,0.0,0.0,0.0,-0.136
546,0.0,0.0,0.0,0.0,0.0,0.0,0.1652275390625,0.0,0.0,0.0,0.0,0.0,0.0,-0.193,0.0,0.0,0.0,0.0,0.0,0.0,0.15757779062585392,0.0,0.0,0.0,0.0,0.0,0.0,-0.14
547,0.0,0.0,0.0,0.0,0.0,0.0,0.1635751953125,0.0,0.0,0.0,0.0,0.0,0.0,-0.191,0.0,0.0,0.0,0.0,0.0,0.0,0.15572429756926431,0.0,0.0,0.0,0.0,0.0,0.0,-0.14
548,0.0,0.0,0.0,0.0,0.0,0.0,0.161728515625,0.0,0.0,0.0,0.0,0.0,0.0,-0.176,0.0,0.0,0.0,0.0,0.0,0.0,0.15388327249107991,0.0,0.0,0.0,0.0,0.0,0.0,-0.14
549,0.0,0.0,0.0,0.0,0.0,0.0,0.15967578125,0.0,0.0,0.0,0.0,0.0,0.0,-0.193,0.0,0.0,0.0,0.0,0.0,0.0,0.15201790434250026,0.0,0.0,0.0,0.0,0.0,0.0,-0.116
550,0.0,0.0,0.0,0.0,0.0,0.0,0.1578291015625,0.0,0.0,0.0,0.0,0.0,0.0,-0.193,0.0,0.0,0.0,0.0,0.0,0.0,0.15020054961569337,0.0,0.0,0.0,0.0,0.0,0.0,-0.104
551,0.0,0.0,0.0,0.0,0.0,0.0,0.156189453125,0.0,0.0,0.0,0.0,0.0,0.0,-0.183,0.0,0.0,0.0,0.0,0.0,0.0,0.14833166428545919,0.0,0.0,0.0,0.0,0.0,0.0,-0.108
552,0.0,0.0,0.0,0.0,0.0,0.0,0.15434375,0.0,0.0,0.0,0.0,0.0,0.0,-0.185,0.0,0.0,0.0,0.0,0.0,0.0,0.1464437528542789,0.0,0.0,0.0,0.0,0.0,0.0,-0.128
553,0.0,0.0,0.0,0.0,0.0,0.0,0.1524970703125,0.0,0.0,0.0,0.0,0.0,0.0,-0.181,0.0,0.0,0.0,0.0,0.0,0.0,0.14462053448446027,0.0,0.0,0.0,0.0,0.0,0.0,-0.108
554,0.0,0.0,0.0,0.0,0.0,0.0,0.15105078125,0.0,0.0,0.0,0.0,0.0,0.0,-0.172,0.0,0.0,0.0,0.0,0.0,0.0,0.14275193832162733,0.0,0.0,0.0,0.0,0.0,0.0,-0.104
555,0.0,0.0,0.0,0.0,0.0,0.0,0.1494111328125,0.0,0.0,0.0,0.0,0.0,0.0,-0.146,0.0,0.0,0.0,0.0,0.0,0.0,0.14086557344563033,0.0,0.0,0.0,0.0,0.0,0.0,-0.088
556,0.0,0.0,0.0,0.0,0.0,0.0,0.147771484375,0.0,0.0,0.0,0.0,0.0,0.0,-0.167,0.0,0.0,0.0,0.0,0.0,0.0,0.13899029118992154,0.0,0.0,0.0,0.0,0.0,0.0,-0.084
557,0.0,0.0,0.0,0.0,0.0,0.0,0.1461318359375,0.0,0.0,0.0,0.0,0.0,0.0,-0.17,0.0,0.0,0.0,0.0,0.0,0.0,0.13710960187717702,0.0,0.0,0.0,0.0,0.0,0.0,-0.076
558,0.0,0.0,0.0,0.0,0.0,0.0,0.1444921875,0.0,0.0,0.0,0.0,0.0,0.0,-0.164,0.0,0.0,0.0,0.0,0.0,0.0,0.1352320685383023,0.0,0.0,0.0,0.0,0.0,0.0,-0.068
559,0.0,0.0,0.0,0.0,0.0,0.0,0.142646484375,0.0,0.0,0.0,0.0,0.0,0.0,-0.171,0.0,0.0,0.0,0.0,0.0,0.0,0.1333581333432286,0.0,0.0,0.0,0.0,0.0,0.0,-0.052
560,0.0,0.0,0.0,0.0,0.0,0.0,0.140787109375,0.0,0.0,0.0,0.0,0.0,0.0,-0.192,0.0,0.0,0.0,0.0,0.0,0.0,0.13148432199353485,0.0,0.0,0.0,0.0,0.0,0.0,-0.056
561,0.0,0.0,0.0,0.0,0.0,0.0,0.140787109375,0.0,0.0,0.0,0.0,0.0,0.0,-0.192,0.0,0.0,0.0,0.0,0.0,0.0,0.1295981575876658,0.0,0.0,0.0,0.0,0.0,0.0,-0.056
562,0.0,0.0,0.0,0.0,0.0,0.0,0.1370947265625,0.0,0.0,0.0,0.0,0.0,0.0,-0.186,0.0,0.0,0.0,0.0,0.0,0.0,0.12770009190637796,0.0,0.0,0.0,0.0,0.0,0.0,-0.056
563,0.0,0.0,0.0,0.0,0.0,0.0,0.1350419921875,0.0,0.0,0.0,0.0,0.0,0.0,-0.189,0.0,0.0,0.0,0.0,0.0,0.0,0.12577998905527618,0.0,0.0,0.0,0.0,0.0,0.0,-0.052
564,0.0,0.0,0.0,0.0,0.0,0.0,0.1329892578125,0.0,0.0,0.0,0.0,0.0,0.0,-0.213,0.0,0.0,0.0,0.0,0.0,0.0,0.12387815554518454,0.0,0.0,0.0,0.0,0.0,0.0,-0.032
565,0.0,0.0,0.0,0.0,0.0,0.0,0.130935546875,0.0,0.0,0.0,0.0,0.0,0.0,-0.207,0.0,0.0,0.0,0.0,0.0,0.0,0.12198334647314542,0.0,0.0,0.0,0.0,0.0,0.0,-0.032
566,0.0,0.0,0.0,0.0,0.0,0.0,0.1284697265625,0.0,0.0,0.0,0.0,0.0,0.0,-0.225,0.0,0.0,0.0,0.0,0.0,0.0,0.12008988114337696,0.0,0.0,0.0,0.0,0.0,0.0,-0.032
567,0.0,0.0,0.0,0.0,0.0,0.0,0.1260166015625,0.0,0.0,0.0,0.0,0.0,0.0,-0.251,0.0,0.0,0.0,0.0,0.0,0.0,0.11818083500098527,0.0,0.0,0.0,0.0,0.0,0.0,-0.076
568,0.0,0.0,0.0,0.0,0.0,0.0,0.1237578125,0.0,0.0,0.0,0.0,0.0,0.0,-0.239,0.0,0.0,0.0,0.0,0.0,0.0,0.11626062241087194,0.0,0.0,0.0,0.0,0.0,0.0,-0.056
569,0.0,0.0,0.0,0.0,0.0,0.0,0.121705078125,0.0,0.0,0.0,0.0,0.0,0.0,-0.221,0.0,0.0,0.0,0.0,0.0,0.0,0.11433670207212683,0.0,0.0,0.0,0.0,0.0,0.0,-0.068
570,0.0,0.0,0.0,0.0,0.0,0.0,0.1196513671875,0.0,0.0,0.0,0.0,0.0,0.0,-0.207,0.0,0.0,0.0,0.0,0.0,0.0,0.1123791902409814,0.0,0.0,0.0,0.0,0.0,0.0,-0.036
571,0.0,0.0,0.0,0.0,0.0,0.0,0.1178056640625,0.0,0.0,0.0,0.0,0.0,0.0,-0.195,0.0,0.0,0.0,0.0,0.0,0.0,0.11051444355382377,0.0,0.0,0.0,0.0,0.0,0.0,-0.052
572,0.0,0.0,0.0,0.0,0.0,0.0,0.115958984375,0.0,0.0,0.0,0.0,0.0,0.0,-0.182,0.0,0.0,0.0,0.0,0.0,0.0,0.10859537271531726,0.0,0.0,0.0,0.0,0.0,0.0,-0.064
573,0.0,0.0,0.0,0.0,0.0,0.0,0.11390625,0.0,0.0,0.0,0.0,0.0,0.0,-0.202,0.0,0.0,0.0,0.0,0.0,0.0,0.10645744794562435,0.0,0.0,0.0,0.0,0.0,0.0,-0.064
574,0.0,0.0,0.0,0.0,0.0,0.0,0.112060546875,0.0,0.0,0.0,0.0,0.0,0.0,-0.193,0.0,0.0,0.0,0.0,0.0,0.0,0.1047344454983314,0.0,0.0,0.0,0.0,0.0,0.0,-0.052
575,0.0,0.0,0.0,0.0,0.0,0.0,0.110201171875,0.0,0.0,0.0,0.0,0.0,0.0,-0.19,0.0,0.0,0.0,0.0,0.0,0.0,0.10277605545408669,0.0,0.0,0.0,0.0,0.0,0.0,-0.068
576,0.0,0.0,0.0,0.0,0.0,0.0,0.1085615234375,0.0,0.0,0.0,0.0,0.0,0.0,-0.172,0.0,0.0,0.0,0.0,0.0,0.0,0.10054076286158241,0.0,0.0,0.0,0.0,0.0,0.0,-0.032
577,0.0,0.0,0.0,0.0,0.0,0.0,0.106921875,0.0,0.0,0.0,0.0,0.0,0.0,-0.161,0.0,0.0,0.0,0.0,0.0,0.0,0.09883222674698917,0.0,0.0,0.0,0.0,0.0,0.0,0.004
578,0.0,0.0,0.0,0.0,0.0,0.0,0.10548828125,0.0,0.0,0.0,0.0,0.0,0.0,-0.155,0.0,0.0,0.0,0.0,0.0,0.0,0.09694422436502373,0.0,0.0,0.0,0.0,0.0,0.0,0.016
579,0.0,0.0,0.0,0.0,0.0,0.0,0.1042490234375,0.0,0.0,0.0,0.0,0.0,0.0,-0.149,0.0,0.0,0.0,0.0,0.0,0.0,0.09492492433464886,0.0,0.0,0.0,0.0,0.0,0.0,0.024
580,0.0,0.0,0.0,0.0,0.0,0.0,0.1042490234375,0.0,0.0,0.0,0.0,0.0,0.0,-0.149,0.0,0.0,0.0,0.0,0.0,0.0,0.09249546756839166,0.0,0.0,0.0,0.0,0.0,0.0,0.024
581,0.0,0.0,0.0,0.0,0.0,0.0,0.10117578125,0.0,0.0,0.0,0.0,0.0,0.0,-0.155,0.0,0.0,0.0,0.0,0.0,0.0,0.09095018960710853,0.0,0.0,0.0,0.0,0.0,0.0,0.036
582,0.0,0.0,0.0,0.0,0.0,0.0,0.0995361328125,0.0,0.0,0.0,0.0,0.0,0.0,-0.157,0.0,0.0,0.0,0.0,0.0,0.0,0.08921179531067794,0.0,0.0,0.0,0.0,0.0,0.0,0.036
583,0.0,0.0,0.0,0.0,0.0,0.0,0.0974833984375,0.0,0.0,0.0,0.0,0.0,0.0,-0.179,0.0,0.0,0.0,0.0,0.0,0.0,0.08726050833063363,0.0,0.0,0.0,0.0,0.0,0.0,0.044
584,0.0,0.0,0.0,0.0,0.0,0.0,0.0954306640625,0.0,0.0,0.0,0.0,0.0,0.0,-0.207,0.0,0.0,0.0,0.0,0.0,0.0,0.08520226205452494,0.0,0.0,0.0,0.0,0.0,0.0,0.032
585,0.0,0.0,0.0,0.0,0.0,0.0,0.0933779296875,0.0,0.0,0.0,0.0,0.0,0.0,-0.204,0.0,0.0,0.0,0.0,0.0,0.0,0.083323405942165,0.0,0.0,0.0,0.0,0.0,0.0,0.012
586,0.0,0.0,0.0,0.0,0.0,0.0,0.0913251953125,0.0,0.0,0.0,0.0,0.0,0.0,-0.21,0.0,0.0,0.0,0.0,0.0,0.0,0.08136073903503409,0.0,0.0,0.0,0.0,0.0,0.0,0.012
587,0.0,0.0,0.0,0.0,0.0,0.0,0.0890654296875,0.0,0.0,0.0,0.0,0.0,0.0,-0.209,0.0,0.0,0.0,0.0,0.0,0.0,0.07943645196469173,0.0,0.0,0.0,0.0,0.0,0.0,-0.032
588,0.0,0.0,0.0,0.0,0.0,0.0,0.086806640625,0.0,0.0,0.0,0.0,0.0,0.0,-0.233,0.0,0.0,0.0,0.0,0.0,0.0,0.07743427706809086,0.0,0.0,0.0,0.0,0.0,0.0,-0.036
589,0.0,0.0,0.0,0.0,0.0,0.0,0.084546875,0.0,0.0,0.0,0.0,0.0,0.0,-0.23,0.0,0.0,0.0,0.0,0.0,0.0,0.07548332750366288,0.0,0.0,0.0,0.0,0.0,0.0,-0.052
590,0.0,0.0,0.0,0.0,0.0,0.0,0.0818740234375,0.0,0.0,0.0,0.0,0.0,0.0,-0.243,0.0,0.0,0.0,0.0,0.0,0.0,0.07351499978677754,0.0,0.0,0.0,0.0,0.0,0.0,-0.096
591,0.0,0.0,0.0,0.0,0.0,0.0,0.0798212890625,0.0,0.0,0.0,0.0,0.0,0.0,-0.24,0.0,0.0,0.0,0.0,0.0,0.0,0.07157785572495252,0.0,0.0,0.0,0.0,0.0,0.0,-0.16
592,0.0,0.0,0.0,0.0,0.0,0.0,0.07778125,0.0,0.0,0.0,0.0,0.0,0.0,-0.21,0.0,0.0,0.0,0.0,0.0,0.0,0.06955844567277235,0.0,0.0,0.0,0.0,0.0,0.0,-0.12
593,0.0,0.0,0.0,0.0,0.0,0.0,0.0755224609375,0.0,0.0,0.0,0.0,0.0,0.0,-0.219,0.0,0.0,0.0,0.0,0.0,0.0,0.06763693575781725,0.0,0.0,0.0,0.0,0.0,0.0,-0.148
594,0.0,0.0,0.0,0.0,0.0,0.0,0.0732626953125,0.0,0.0,0.0,0.0,0.0,0.0,-0.229,0.0,0.0,0.0,0.0,0.0,0.0,0.06566786328279889,0.0,0.0,0.0,0.0,0.0,0.0,-0.128
595,0.0,0.0,0.0,0.0,0.0,0.0,0.0732626953125,0.0,0.0,0.0,0.0,0.0,0.0,-0.229,0.0,0.0,0.0,0.0,0.0,0.0,0.06369084595488246,0.0,0.0,0.0,0.0,0.0,0.0,-0.128
596,0.0,0.0,0.0,0.0,0.0,0.0,0.0691572265625,0.0,0.0,0.0,0.0,0.0,0.0,-0.207,0.0,0.0,0.0,0.0,0.0,0.0,0.06171873252530294,0.0,0.0,0.0,0.0,0.0,0.0,-0.108
597,0.0,0.0,0.0,0.0,0.0,0.0,0.067310546875,0.0,0.0,0.0,0.0,0.0,0.0,-0.202,0.0,0.0,0.0,0.0,0.0,0.0,0.059745269654377764,0.0,0.0,0.0,0.0,0.0,0.0,-0.104
598,0.0,0.0,0.0,0.0,0.0,0.0,0.0656708984375,0.0,0.0,0.0,0.0,0.0,0.0,-0.179,0.0,0.0,0.0,0.0,0.0,0.0,0.057724219263117604,0.0,0.0,0.0,0.0,0.0,0.0,-0.12
599,0.0,0.0,0.0,0.0,0.0,0.0,0.0638115234375,0.0,0.0,0.0,0.0,0.0,0.0,-0.174,0.0,0.0,0.0,0.0,0.0,0.0,0.05452301769393947,0.0,0.0,0.0,0.0,0.0,0.0,-0.084
600,0.0,0.0,0.0,0.0,0.0,0.0,0.0623662109375,0.0,0.0,0.0,0.0,0.0,0.0,-0.171,0.0,0.0,0.0,0.0,0.0,0.0,0.05312843394048439,0.0,0.0,0.0,0.0,0.0,0.0,-0.056
601,0.0,0.0,0.0,0.0,0.0,0.0,0.0623662109375,0.0,0.0,0.0,0.0,0.0,0.0,-0.171,0.0,0.0,0.0,0.0,0.0,0.0,0.051684584930622904,0.0,0.0,0.0,0.0,0.0,0.0,-0.056
602,0.0,0.0,0.0,0.0,0.0,0.0,0.0595,0.0,0.0,0.0,0.0,0.0,0.0,-0.139,0.0,0.0,0.0,0.0,0.0,0.0,0.04982292513048464,0.0,0.0,0.0,0.0,0.0,0.0,-0.056
603,0.0,0.0,0.0,0.0,0.0,0.0,0.057447265625,0.0,0.0,0.0,0.0,0.0,0.0,-0.178,0.0,0.0,0.0,0.0,0.0,0.0,0.04786013809848763,0.0,0.0,0.0,0.0,0.0,0.0,-0.012
604,0.0,0.0,0.0,0.0,0.0,0.0,0.05539453125,0.0,0.0,0.0,0.0,0.0,0.0,-0.202,0.0,0.0,0.0,0.0,0.0,0.0,0.04586240712043402,0.0,0.0,0.0,0.0,0.0,0.0,-0.068
605,0.0,0.0,0.0,0.0,0.0,0.0,0.0533408203125,0.0,0.0,0.0,0.0,0.0,0.0,-0.205,0.0,0.0,0.0,0.0,0.0,0.0,0.043856738607301715,0.0,0.0,0.0,0.0,0.0,0.0,-0.056
606,0.0,0.0,0.0,0.0,0.0,0.0,0.0512880859375,0.0,0.0,0.0,0.0,0.0,0.0,-0.215,0.0,0.0,0.0,0.0,0.0,0.0,0.041905816128730386,0.0,0.0,0.0,0.0,0.0,0.0,-0.052
607,0.0,0.0,0.0,0.0,0.0,0.0,0.049029296875,0.0,0.0,0.0,0.0,0.0,0.0,-0.21,0.0,0.0,0.0,0.0,0.0,0.0,0.03989562200469471,0.0,0.0,0.0,0.0,0.0,0.0,-0.032
608,0.0,0.0,0.0,0.0,0.0,0.0,0.0469765625,0.0,0.0,0.0,0.0,0.0,0.0,-0.222,0.0,0.0,0.0,0.0,0.0,0.0,0.037905723342679776,0.0,0.0,0.0,0.0,0.0,0.0,-0.036
609,0.0,0.0,0.0,0.0,0.0,0.0,0.0449228515625,0.0,0.0,0.0,0.0,0.0,0.0,-0.207,0.0,0.0,0.0,0.0,0.0,0.0,0.03591881938990423,0.0,0.0,0.0,0.0,0.0,0.0,-0.052
610,0.0,0.0,0.0,0.0,0.0,0.0,0.0428701171875,0.0,0.0,0.0,0.0,0.0,0.0,-0.207,0.0,0.0,0.0,0.0,0.0,0.0,0.03393106908793158,0.0,0.0,0.0,0.0,0.0,0.0,-0.024
611,0.0,0.0,0.0,0.0,0.0,0.0,0.040611328125,0.0,0.0,0.0,0.0,0.0,0.0,-0.22,0.0,0.0,0.0,0.0,0.0,0.0,0.031923889606664695,0.0,0.0,0.0,0.0,0.0,0.0,-0.084
612,0.0,0.0,0.0,0.0,0.0,0.0,0.0381455078125,0.0,0.0,0.0,0.0,0.0,0.0,-0.233,0.0,0.0,0.0,0.0,0.0,0.0,0.02993744098667386,0.0,0.0,0.0,0.0,0.0,0.0,-0.096
613,0.0,0.0,0.0,0.0,0.0,0.0,0.036091796875,0.0,0.0,0.0,0.0,0.0,0.0,-0.227,0.0,0.0,0.0,0.0,0.0,0.0,0.027942686413340464,0.0,0.0,0.0,0.0,0.0,0.0,-0.108
614,0.0,0.0,0.0,0.0,0.0,0.0,0.0340390625,0.0,0.0,0.0,0.0,0.0,0.0,-0.207,0.0,0.0,0.0,0.0,0.0,0.0,0.025942237028502194,0.0,0.0,0.0,0.0,0.0,0.0,-0.104
615,0.0,0.0,0.0,0.0,0.0,0.0,0.031986328125,0.0,0.0,0.0,0.0,0.0,0.0,-0.207,0.0,0.0,0.0,0.0,0.0,0.0,0.0239643161362671,0.0,0.0,0.0,0.0,0.0,0.0,-0.052
616,0.0,0.0,0.0,0.0,0.0,0.0,0.02993359375,0.0,0.0,0.0,0.0,0.0,0.0,-0.207,0.0,0.0,0.0,0.0,0.0,0.0,0.02195362146653969,0.0,0.0,0.0,0.0,0.0,0.0,-0.088
617,0.0,0.0,0.0,0.0,0.0,0.0,0.027880859375,0.0,0.0,0.0,0.0,0.0,0.0,-0.207,0.0,0.0,0.0,0.0,0.0,0.0,0.019947418423979544,0.0,0.0,0.0,0.0,0.0,0.0,-0.068
618,0.0,0.0,0.0,0.0,0.0,0.0,0.0260341796875,0.0,0.0,0.0,0.0,0.0,0.0,-0.198,0.0,0.0,0.0,0.0,0.0,0.0,0.0179638155162445,0.0,0.0,0.0,0.0,0.0,0.0,-0.088
619,0.0,0.0,0.0,0.0,0.0,0.0,0.0241884765625,0.0,0.0,0.0,0.0,0.0,0.0,-0.182,0.0,0.0,0.0,0.0,0.0,0.0,0.015975815262743883,0.0,0.0,0.0,0.0,0.0,0.0,-0.084
620,0.0,0.0,0.0,0.0,0.0,0.0,0.022341796875,0.0,0.0,0.0,0.0,0.0,0.0,-0.182,0.0,0.0,0.0,0.0,0.0,0.0,0.013956634797851359,0.0,0.0,0.0,0.0,0.0,0.0,-0.044
621,0.0,0.0,0.0,0.0,0.0,0.0,0.02049609375,0.0,0.0,0.0,0.0,0.0,0.0,-0.189,0.0,0.0,0.0,0.0,0.0,0.0,0.011966076949171595,0.0,0.0,0.0,0.0,0.0,0.0,-0.012
622,0.0,0.0,0.0,0.0,0.0,0.0,0.0186494140625,0.0,0.0,0.0,0.0,0.0,0.0,-0.187,0.0,0.0,0.0,0.0,0.0,0.0,0.00995105431160516,0.0,0.0,0.0,0.0,0.0,0.0,-0.032
623,0.0,0.0,0.0,0.0,0.0,0.0,0.0168037109375,0.0,0.0,0.0,0.0,0.0,0.0,-0.192,0.0,0.0,0.0,0.0,0.0,0.0,0.007959330062255228,0.0,0.0,0.0,0.0,0.0,0.0,-0.004
624,0.0,0.0,0.0,0.0,0.0,0.0,0.0151630859375,0.0,0.0,0.0,0.0,0.0,0.0,-0.175,0.0,0.0,0.0,0.0,0.0,0.0,0.005968266585373607,0.0,0.0,0.0,0.0,0.0,0.0,0.016
625,0.0,0.0,0.0,0.0,0.0,0.0,0.0135234375,0.0,0.0,0.0,0.0,0.0,0.0,-0.157,0.0,0.0,0.0,0.0,0.0,0.0,0.003979010123068781,0.0,0.0,0.0,0.0,0.0,0.0,0.004
626,0.0,0.0,0.0,0.0,0.0,0.0,0.0116650390625,0.0,0.0,0.0,0.0,0.0,0.0,-0.174,0.0,0.0,0.0,0.0,0.0,0.0,0.001963477195766826,0.0,0.0,0.0,0.0,0.0,0.0,0.0
627,0.0,0.0,0.0,0.0,0.0,0.0,0.009625,0.0,0.0,0.0,0.0,0.0,0.0,-0.2,0.0,0.0,0.0,0.0,0.0,0.0,-2.5307338479883397e-05,0.0,0.0,0.0,0.0,0.0,0.0,0.0
628,0.0,0.0,0.0,0.0,0.0,0.0,0.007365234375,0.0,0.0,0.0,0.0,0.0,0.0,-0.209,0.0,0.0,0.0,0.0,0.0,0.0,-0.002044513066296694,0.0,0.0,0.0,0.0,0.0,0.0,-0.032
629,0.0,0.0,0.0,0.0,0.0,0.0,0.0053125,0.0,0.0,0.0,0.0,0.0,0.0,-0.222,0.0,0.0,0.0,0.0,0.0,0.0,-0.0040522708729560835,0.0,0.0,0.0,0.0,0.0,0.0,-0.036
630,0.0,0.0,0.0,0.0,0.0,0.0,0.003259765625,0.0,0.0,0.0,0.0,0.0,0.0,-0.207,0.0,0.0,0.0,0.0,0.0,0.0,-0.006029317129493606,0.0,0.0,0.0,0.0,0.0,0.0,-0.024
631,0.0,0.0,0.0,0.0,0.0,0.0,0.00120703125,0.0,0.0,0.0,0.0,0.0,0.0,-0.207,0.0,0.0,0.0,0.0,0.0,0.0,-0.00802318806465605,0.0,0.0,0.0,0.0,0.0,0.0,-0.024
632,0.0,0.0,0.0,0.0,0.0,0.0,-0.001052734375,0.0,0.0,0.0,0.0,0.0,0.0,-0.214,0.0,0.0,0.0,0.0,0.0,0.0,-0.010046461859813163,0.0,0.0,0.0,0.0,0.0,0.0,-0.068
633,0.0,0.0,0.0,0.0,0.0,0.0,-0.0033115234375,0.0,0.0,0.0,0.0,0.0,0.0,-0.224,0.0,0.0,0.0,0.0,0.0,0.0,-0.01203811684698812,0.0,0.0,0.0,0.0,0.0,0.0,-0.108
634,0.0,0.0,0.0,0.0,0.0,0.0,-0.005365234375,0.0,0.0,0.0,0.0,0.0,0.0,-0.215,0.0,0.0,0.0,0.0,0.0,0.0,-0.014038241561913651,0.0,0.0,0.0,0.0,0.0,0.0,-0.12
635,0.0,0.0,0.0,0.0,0.0,0.0,-0.00741796875,0.0,0.0,0.0,0.0,0.0,0.0,-0.213,0.0,0.0,0.0,0.0,0.0,0.0,-0.016050021530197908,0.0,0.0,0.0,0.0,0.0,0.0,-0.16
636,0.0,0.0,0.0,0.0,0.0,0.0,-0.009263671875,0.0,0.0,0.0,0.0,0.0,0.0,-0.195,0.0,0.0,0.0,0.0,0.0,0.0,-0.018033814177098175,0.0,0.0,0.0,0.0,0.0,0.0,-0.168
637,0.0,0.0,0.0,0.0,0.0,0.0,-0.0111103515625,0.0,0.0,0.0,0.0,0.0,0.0,-0.195,0.0,0.0,0.0,0.0,0.0,0.0,-0.02002954467237657,0.0,0.0,0.0,0.0,0.0,0.0,-0.168
638,0.0,0.0,0.0,0.0,0.0,0.0,-0.0129560546875,0.0,0.0,0.0,0.0,0.0,0.0,-0.188,0.0,0.0,0.0,0.0,0.0,0.0,-0.022030774464358156,0.0,0.0,0.0,0.0,0.0,0.0,-0.136
639,0.0,0.0,0.0,0.0,0.0,0.0,-0.015009765625,0.0,0.0,0.0,0.0,0.0,0.0,-0.192,0.0,0.0,0.0,0.0,0.0,0.0,-0.02401507769241897,0.0,0.0,0.0,0.0,0.0,0.0,-0.14
640,0.0,0.0,0.0,0.0,0.0,0.0,-0.0172685546875,0.0,0.0,0.0,0.0,0.0,0.0,-0.218,0.0,0.0,0.0,0.0,0.0,0.0,-0.026002594595916625,0.0,0.0,0.0,0.0,0.0,0.0,-0.14
641,0.0,0.0,0.0,0.0,0.0,0.0,-0.0193212890625,0.0,0.0,0.0,0.0,0.0,0.0,-0.219,0.0,0.0,0.0,0.0,0.0,0.0,-0.02800278570299716,0.0,0.0,0.0,0.0,0.0,0.0,-0.16
642,0.0,0.0,0.0,0.0,0.0,0.0,-0.0215810546875,0.0,0.0,0.0,0.0,0.0,0.0,-0.222,0.0,0.0,0.0,0.0,0.0,0.0,-0.029999943480165395,0.0,0.0,0.0,0.0,0.0,0.0,-0.088
643,0.0,0.0,0.0,0.0,0.0,0.0,-0.0236337890625,0.0,0.0,0.0,0.0,0.0,0.0,-0.212,0.0,0.0,0.0,0.0,0.0,0.0,-0.031992119183244974,0.0,0.0,0.0,0.0,0.0,0.0,-0.108
644,0.0,0.0,0.0,0.0,0.0,0.0,-0.02548046875,0.0,0.0,0.0,0.0,0.0,0.0,-0.196,0.0,0.0,0.0,0.0,0.0,0.0,-0.03398910286678101,0.0,0.0,0.0,0.0,0.0,0.0,-0.088
645,0.0,0.0,0.0,0.0,0.0,0.0,-0.027326171875,0.0,0.0,0.0,0.0,0.0,0.0,-0.183,0.0,0.0,0.0,0.0,0.0,0.0,-0.03598243164929223,0.0,0.0,0.0,0.0,0.0,0.0,-0.068
646,0.0,0.0,0.0,0.0,0.0,0.0,-0.0289658203125,0.0,0.0,0.0,0.0,0.0,0.0,-0.181,0.0,0.0,0.0,0.0,0.0,0.0,-0.03797167959352233,0.0,0.0,0.0,0.0,0.0,0.0,-0.052
647,0.0,0.0,0.0,0.0,0.0,0.0,-0.03060546875,0.0,0.0,0.0,0.0,0.0,0.0,-0.178,0.0,0.0,0.0,0.0,0.0,0.0,-0.0399635387173338,0.0,0.0,0.0,0.0,0.0,0.0,-0.064
648,0.0,0.0,0.0,0.0,0.0,0.0,-0.032658203125,0.0,0.0,0.0,0.0,0.0,0.0,-0.176,0.0,0.0,0.0,0.0,0.0,0.0,-0.041964166027098515,0.0,0.0,0.0,0.0,0.0,0.0,-0.116
649,0.0,0.0,0.0,0.0,0.0,0.0,-0.0345048828125,0.0,0.0,0.0,0.0,0.0,0.0,-0.194,0.0,0.0,0.0,0.0,0.0,0.0,-0.04395178893120603,0.0,0.0,0.0,0.0,0.0,0.0,-0.056
650,0.0,0.0,0.0,0.0,0.0,0.0,-0.0363515625,0.0,0.0,0.0,0.0,0.0,0.0,-0.184,0.0,0.0,0.0,0.0,0.0,0.0,-0.04592561923216851,0.0,0.0,0.0,0.0,0.0,0.0,-0.044
651,0.0,0.0,0.0,0.0,0.0,0.0,-0.038404296875,0.0,0.0,0.0,0.0,0.0,0.0,-0.195,0.0,0.0,0.0,0.0,0.0,0.0,-0.0479407812020069,0.0,0.0,0.0,0.0,0.0,0.0,-0.024
652,0.0,0.0,0.0,0.0,0.0,0.0,-0.04025,0.0,0.0,0.0,0.0,0.0,0.0,-0.205,0.0,0.0,0.0,0.0,0.0,0.0,-0.04992972943624459,0.0,0.0,0.0,0.0,0.0,0.0,-0.036
653,0.0,0.0,0.0,0.0,0.0,0.0,-0.042302734375,0.0,0.0,0.0,0.0,0.0,0.0,-0.192,0.0,0.0,0.0,0.0,0.0,0.0,-0.05187477724171446,0.0,0.0,0.0,0.0,0.0,0.0,-0.024
654,0.0,0.0,0.0,0.0,0.0,0.0,-0.0445625,0.0,0.0,0.0,0.0,0.0,0.0,-0.214,0.0,0.0,0.0,0.0,0.0,0.0,-0.05387570313613169,0.0,0.0,0.0,0.0,0.0,0.0,-0.024
655,0.0,0.0,0.0,0.0,0.0,0.0,-0.0470283203125,0.0,0.0,0.0,0.0,0.0,0.0,-0.238,0.0,0.0,0.0,0.0,0.0,0.0,-0.055845699415813216,0.0,0.0,0.0,0.0,0.0,0.0,-0.084
656,0.0,0.0,0.0,0.0,0.0,0.0,-0.0490810546875,0.0,0.0,0.0,0.0,0.0,0.0,-0.229,0.0,0.0,0.0,0.0,0.0,0.0,-0.057833896040467604,0.0,0.0,0.0,0.0,0.0,0.0,-0.076
657,0.0,0.0,0.0,0.0,0.0,0.0,-0.050927734375,0.0,0.0,0.0,0.0,0.0,0.0,-0.195,0.0,0.0,0.0,0.0,0.0,0.0,-0.0598754191628769,0.0,0.0,0.0,0.0,0.0,0.0,-0.068
658,0.0,0.0,0.0,0.0,0.0,0.0,-0.0531865234375,0.0,0.0,0.0,0.0,0.0,0.0,-0.196,0.0,0.0,0.0,0.0,0.0,0.0,-0.06179050610869922,0.0,0.0,0.0,0.0,0.0,0.0,-0.064
659,0.0,0.0,0.0,0.0,0.0,0.0,-0.055240234375,0.0,0.0,0.0,0.0,0.0,0.0,-0.222,0.0,0.0,0.0,0.0,0.0,0.0,-0.06374989972202737,0.0,0.0,0.0,0.0,0.0,0.0,-0.044
660,0.0,0.0,0.0,0.0,0.0,0.0,-0.05729296875,0.0,0.0,0.0,0.0,0.0,0.0,-0.216,0.0,0.0,0.0,0.0,0.0,0.0,-0.06574483610632914,0.0,0.0,0.0,0.0,0.0,0.0,-0.052
661,0.0,0.0,0.0,0.0,0.0,0.0,-0.059345703125,0.0,0.0,0.0,0.0,0.0,0.0,-0.202,0.0,0.0,0.0,0.0,0.0,0.0,-0.06771464255150499,0.0,0.0,0.0,0.0,0.0,0.0,-0.036
662,0.0,0.0,0.0,0.0,0.0,0.0,-0.0616044921875,0.0,0.0,0.0,0.0,0.0,0.0,-0.216,0.0,0.0,0.0,0.0,0.0,0.0,-0.06968830048297232,0.0,0.0,0.0,0.0,0.0,0.0,-0.024
663,0.0,0.0,0.0,0.0,0.0,0.0,-0.063658203125,0.0,0.0,0.0,0.0,0.0,0.0,-0.212,0.0,0.0,0.0,0.0,0.0,0.0,-0.07165659797932748,0.0,0.0,0.0,0.0,0.0,0.0,-0.064
664,0.0,0.0,0.0,0.0,0.0,0.0,-0.06550390625,0.0,0.0,0.0,0.0,0.0,0.0,-0.208,0.0,0.0,0.0,0.0,0.0,0.0,-0.07361452743946455,0.0,0.0,0.0,0.0,0.0,0.0,0.0
665,0.0,0.0,0.0,0.0,0.0,0.0,-0.0671435546875,0.0,0.0,0.0,0.0,0.0,0.0,-0.168,0.0,0.0,0.0,0.0,0.0,0.0,-0.0755962929379782,0.0,0.0,0.0,0.0,0.0,0.0,0.0
666,0.0,0.0,0.0,0.0,0.0,0.0,-0.0691962890625,0.0,0.0,0.0,0.0,0.0,0.0,-0.189,0.0,0.0,0.0,0.0,0.0,0.0,-0.07758717561764655,0.0,0.0,0.0,0.0,0.0,0.0,0.0
667,0.0,0.0,0.0,0.0,0.0,0.0,-0.0708359375,0.0,0.0,0.0,0.0,0.0,0.0,-0.19,0.0,0.0,0.0,0.0,0.0,0.0,-0.07956704408340116,0.0,0.0,0.0,0.0,0.0,0.0,0.036
668,0.0,0.0,0.0,0.0,0.0,0.0,-0.0726826171875,0.0,0.0,0.0,0.0,0.0,0.0,-0.178,0.0,0.0,0.0,0.0,0.0,0.0,-0.08146300236918602,0.0,0.0,0.0,0.0,0.0,0.0,0.052
669,0.0,0.0,0.0,0.0,0.0,0.0,-0.0745283203125,0.0,0.0,0.0,0.0,0.0,0.0,-0.179,0.0,0.0,0.0,0.0,0.0,0.0,-0.08342164404756086,0.0,0.0,0.0,0.0,0.0,0.0,0.036
670,0.0,0.0,0.0,0.0,0.0,0.0,-0.076375,0.0,0.0,0.0,0.0,0.0,0.0,-0.189,0.0,0.0,0.0,0.0,0.0,0.0,-0.08536701641327876,0.0,0.0,0.0,0.0,0.0,0.0,0.044
671,0.0,0.0,0.0,0.0,0.0,0.0,-0.07780859375,0.0,0.0,0.0,0.0,0.0,0.0,-0.166,0.0,0.0,0.0,0.0,0.0,0.0,-0.0873185120095486,0.0,0.0,0.0,0.0,0.0,0.0,0.036
672,0.0,0.0,0.0,0.0,0.0,0.0,-0.0796669921875,0.0,0.0,0.0,0.0,0.0,0.0,-0.165,0.0,0.0,0.0,0.0,0.0,0.0,-0.08927814644565941,0.0,0.0,0.0,0.0,0.0,0.0,0.004
673,0.0,0.0,0.0,0.0,0.0,0.0,-0.08170703125,0.0,0.0,0.0,0.0,0.0,0.0,-0.195,0.0,0.0,0.0,0.0,0.0,0.0,-0.09121626112031907,0.0,0.0,0.0,0.0,0.0,0.0,0.0
674,0.0,0.0,0.0,0.0,0.0,0.0,-0.08356640625,0.0,0.0,0.0,0.0,0.0,0.0,-0.193,0.0,0.0,0.0,0.0,0.0,0.0,-0.09317020471462534,0.0,0.0,0.0,0.0,0.0,0.0,-0.036
675,0.0,0.0,0.0,0.0,0.0,0.0,-0.085619140625,0.0,0.0,0.0,0.0,0.0,0.0,-0.2,0.0,0.0,0.0,0.0,0.0,0.0,-0.09534011808721564,0.0,0.0,0.0,0.0,0.0,0.0,-0.036
676,0.0,0.0,0.0,0.0,0.0,0.0,-0.0874658203125,0.0,0.0,0.0,0.0,0.0,0.0,-0.202,0.0,0.0,0.0,0.0,0.0,0.0,-0.09704379877132097,0.0,0.0,0.0,0.0,0.0,0.0,-0.044
677,0.0,0.0,0.0,0.0,0.0,0.0,-0.0897119140625,0.0,0.0,0.0,0.0,0.0,0.0,-0.193,0.0,0.0,0.0,0.0,0.0,0.0,-0.09899289557107789,0.0,0.0,0.0,0.0,0.0,0.0,-0.076
