EmanuelSamir/lab201_ws_projsamir/sawyer_dev/data/sawyer/vel_sin_motion_incrf/test_joint2/training_data_1.csv
,j1,j2,j3,j4,j5,j6,j7,v1,v2,v3,v4,v5,v6,v7,jd1,jd2,jd3,jd4,jd5,jd6,jd7,e1,e2,e3,e4,e5,e6,e7
0,0.0,0.0,0.0,0.0,0.0,0.0,0.0,0.0,0.0,0.0,0.0,0.0,0.0,0.0,0.0,0.0,0.0,0.0,0.0,0.0,0.0,0.0,0.0,0.0,0.0,0.0,0.0,0.0
1,0.0,-0.001509765625,0.0,0.0,0.0,0.0,0.0,0.0,-0.001,0.0,0.0,0.0,0.0,0.0,0.0,2.0313262935572648e-05,0.0,0.0,0.0,0.0,0.0,0.0,-44.324,0.0,0.0,0.0,0.0,0.0
2,0.0,-0.001509765625,0.0,0.0,0.0,0.0,0.0,0.0,-0.001,0.0,0.0,0.0,0.0,0.0,0.0,0.0026927857600719356,0.0,0.0,0.0,0.0,0.0,0.0,-44.324,0.0,0.0,0.0,0.0,0.0
3,0.0,-0.001509765625,0.0,0.0,0.0,0.0,0.0,0.0,-0.001,0.0,0.0,0.0,0.0,0.0,0.0,0.008752989216409502,0.0,0.0,0.0,0.0,0.0,0.0,-44.324,0.0,0.0,0.0,0.0,0.0
4,0.0,-0.001509765625,0.0,0.0,0.0,0.0,0.0,0.0,-0.001,0.0,0.0,0.0,0.0,0.0,0.0,0.014745229006117131,0.0,0.0,0.0,0.0,0.0,0.0,-44.376,0.0,0.0,0.0,0.0,0.0
5,0.0,-0.0013037109375,0.0,0.0,0.0,0.0,0.0,0.0,0.003,0.0,0.0,0.0,0.0,0.0,0.0,0.02075701346451133,0.0,0.0,0.0,0.0,0.0,0.0,-42.704,0.0,0.0,0.0,0.0,0.0
6,0.0,-0.000583984375,0.0,0.0,0.0,0.0,0.0,0.0,0.042,0.0,0.0,0.0,0.0,0.0,0.0,0.026769141682443157,0.0,0.0,0.0,0.0,0.0,0.0,-38.008,0.0,0.0,0.0,0.0,0.0
7,0.0,0.00075390625,0.0,0.0,0.0,0.0,0.0,0.0,0.098,0.0,0.0,0.0,0.0,0.0,0.0,0.032706587585594624,0.0,0.0,0.0,0.0,0.0,0.0,-33.58,0.0,0.0,0.0,0.0,0.0
8,0.0,0.0026064453125,0.0,0.0,0.0,0.0,0.0,0.0,0.153,0.0,0.0,0.0,0.0,0.0,0.0,0.0387407501752933,0.0,0.0,0.0,0.0,0.0,0.0,-29.368,0.0,0.0,0.0,0.0,0.0
9,0.0,0.0050830078125,0.0,0.0,0.0,0.0,0.0,0.0,0.216,0.0,0.0,0.0,0.0,0.0,0.0,0.04473403346556041,0.0,0.0,0.0,0.0,0.0,0.0,-27.264,0.0,0.0,0.0,0.0,0.0
10,0.0,0.0076552734375,0.0,0.0,0.0,0.0,0.0,0.0,0.248,0.0,0.0,0.0,0.0,0.0,0.0,0.050658118628431545,0.0,0.0,0.0,0.0,0.0,0.0,-26.724,0.0,0.0,0.0,0.0,0.0
11,0.0,0.0107431640625,0.0,0.0,0.0,0.0,0.0,0.0,0.276,0.0,0.0,0.0,0.0,0.0,0.0,0.056665245034865815,0.0,0.0,0.0,0.0,0.0,0.0,-26.02,0.0,0.0,0.0,0.0,0.0
12,0.0,0.014556640625,0.0,0.0,0.0,0.0,0.0,0.0,0.344,0.0,0.0,0.0,0.0,0.0,0.0,0.06266408480909912,0.0,0.0,0.0,0.0,0.0,0.0,-24.832,0.0,0.0,0.0,0.0,0.0
13,0.0,0.0189814453125,0.0,0.0,0.0,0.0,0.0,0.0,0.41,0.0,0.0,0.0,0.0,0.0,0.0,0.06858625235199403,0.0,0.0,0.0,0.0,0.0,0.0,-25.428,0.0,0.0,0.0,0.0,0.0
14,0.0,0.0237216796875,0.0,0.0,0.0,0.0,0.0,0.0,0.459,0.0,0.0,0.0,0.0,0.0,0.0,0.07455829250272028,0.0,0.0,0.0,0.0,0.0,0.0,-29.692,0.0,0.0,0.0,0.0,0.0
15,0.0,0.028353515625,0.0,0.0,0.0,0.0,0.0,0.0,0.471,0.0,0.0,0.0,0.0,0.0,0.0,0.08053956682513648,0.0,0.0,0.0,0.0,0.0,0.0,-34.12,0.0,0.0,0.0,0.0,0.0
16,0.0,0.032990234375,0.0,0.0,0.0,0.0,0.0,0.0,0.466,0.0,0.0,0.0,0.0,0.0,0.0,0.08641106270725923,0.0,0.0,0.0,0.0,0.0,0.0,-36.872,0.0,0.0,0.0,0.0,0.0
17,0.0,0.0375185546875,0.0,0.0,0.0,0.0,0.0,0.0,0.462,0.0,0.0,0.0,0.0,0.0,0.0,0.09238620870341561,0.0,0.0,0.0,0.0,0.0,0.0,-38.816,0.0,0.0,0.0,0.0,0.0
18,0.0,0.0427734375,0.0,0.0,0.0,0.0,0.0,0.0,0.485,0.0,0.0,0.0,0.0,0.0,0.0,0.0983217854389894,0.0,0.0,0.0,0.0,0.0,0.0,-39.628,0.0,0.0,0.0,0.0,0.0
19,0.0,0.048439453125,0.0,0.0,0.0,0.0,0.0,0.0,0.548,0.0,0.0,0.0,0.0,0.0,0.0,0.10421255339058254,0.0,0.0,0.0,0.0,0.0,0.0,-40.492,0.0,0.0,0.0,0.0,0.0
20,0.0,0.0538935546875,0.0,0.0,0.0,0.0,0.0,0.0,0.56,0.0,0.0,0.0,0.0,0.0,0.0,0.11011491854814694,0.0,0.0,0.0,0.0,0.0,0.0,-42.812,0.0,0.0,0.0,0.0,0.0
21,0.0,0.0590458984375,0.0,0.0,0.0,0.0,0.0,0.0,0.537,0.0,0.0,0.0,0.0,0.0,0.0,0.11604908355720192,0.0,0.0,0.0,0.0,0.0,0.0,-45.24,0.0,0.0,0.0,0.0,0.0
22,0.0,0.063779296875,0.0,0.0,0.0,0.0,0.0,0.0,0.503,0.0,0.0,0.0,0.0,0.0,0.0,0.12188183636643247,0.0,0.0,0.0,0.0,0.0,0.0,-46.376,0.0,0.0,0.0,0.0,0.0
23,0.0,0.0686220703125,0.0,0.0,0.0,0.0,0.0,0.0,0.473,0.0,0.0,0.0,0.0,0.0,0.0,0.1277516596931072,0.0,0.0,0.0,0.0,0.0,0.0,-45.132,0.0,0.0,0.0,0.0,0.0
24,0.0,0.0739736328125,0.0,0.0,0.0,0.0,0.0,0.0,0.509,0.0,0.0,0.0,0.0,0.0,0.0,0.1336619760179886,0.0,0.0,0.0,0.0,0.0,0.0,-43.892,0.0,0.0,0.0,0.0,0.0
25,0.0,0.0793310546875,0.0,0.0,0.0,0.0,0.0,0.0,0.542,0.0,0.0,0.0,0.0,0.0,0.0,0.1394548851041906,0.0,0.0,0.0,0.0,0.0,0.0,-45.404,0.0,0.0,0.0,0.0,0.0
26,0.0,0.0844833984375,0.0,0.0,0.0,0.0,0.0,0.0,0.529,0.0,0.0,0.0,0.0,0.0,0.0,0.14526184382183288,0.0,0.0,0.0,0.0,0.0,0.0,-47.508,0.0,0.0,0.0,0.0,0.0
27,0.0,0.0893203125,0.0,0.0,0.0,0.0,0.0,0.0,0.507,0.0,0.0,0.0,0.0,0.0,0.0,0.1511648595564603,0.0,0.0,0.0,0.0,0.0,0.0,-48.968,0.0,0.0,0.0,0.0,0.0
28,0.0,0.0937509765625,0.0,0.0,0.0,0.0,0.0,0.0,0.466,0.0,0.0,0.0,0.0,0.0,0.0,0.15689820810633806,0.0,0.0,0.0,0.0,0.0,0.0,-47.672,0.0,0.0,0.0,0.0,0.0
29,0.0,0.0987939453125,0.0,0.0,0.0,0.0,0.0,0.0,0.472,0.0,0.0,0.0,0.0,0.0,0.0,0.1627098514253357,0.0,0.0,0.0,0.0,0.0,0.0,-47.024,0.0,0.0,0.0,0.0,0.0
30,0.0,0.10363671875,0.0,0.0,0.0,0.0,0.0,0.0,0.499,0.0,0.0,0.0,0.0,0.0,0.0,0.16858963494761595,0.0,0.0,0.0,0.0,0.0,0.0,-48.156,0.0,0.0,0.0,0.0,0.0
31,0.0,0.1084677734375,0.0,0.0,0.0,0.0,0.0,0.0,0.488,0.0,0.0,0.0,0.0,0.0,0.0,0.1742085199891484,0.0,0.0,0.0,0.0,0.0,0.0,-49.344,0.0,0.0,0.0,0.0,0.0
32,0.0,0.113001953125,0.0,0.0,0.0,0.0,0.0,0.0,0.475,0.0,0.0,0.0,0.0,0.0,0.0,0.17991830956644572,0.0,0.0,0.0,0.0,0.0,0.0,-50.1,0.0,0.0,0.0,0.0,0.0
33,0.0,0.117015625,0.0,0.0,0.0,0.0,0.0,0.0,0.43,0.0,0.0,0.0,0.0,0.0,0.0,0.18575865838817,0.0,0.0,0.0,0.0,0.0,0.0,-48.428,0.0,0.0,0.0,0.0,0.0
34,0.0,0.12134375,0.0,0.0,0.0,0.0,0.0,0.0,0.418,0.0,0.0,0.0,0.0,0.0,0.0,0.19137489248210918,0.0,0.0,0.0,0.0,0.0,0.0,-47.184,0.0,0.0,0.0,0.0,0.0
35,0.0,0.125666015625,0.0,0.0,0.0,0.0,0.0,0.0,0.438,0.0,0.0,0.0,0.0,0.0,0.0,0.19700643669618348,0.0,0.0,0.0,0.0,0.0,0.0,-47.832,0.0,0.0,0.0,0.0,0.0
36,0.0,0.1298916015625,0.0,0.0,0.0,0.0,0.0,0.0,0.429,0.0,0.0,0.0,0.0,0.0,0.0,0.2027175576789687,0.0,0.0,0.0,0.0,0.0,0.0,-48.536,0.0,0.0,0.0,0.0,0.0
37,0.0,0.1339052734375,0.0,0.0,0.0,0.0,0.0,0.0,0.418,0.0,0.0,0.0,0.0,0.0,0.0,0.2083437631101396,0.0,0.0,0.0,0.0,0.0,0.0,-48.536,0.0,0.0,0.0,0.0,0.0
38,0.0,0.137404296875,0.0,0.0,0.0,0.0,0.0,0.0,0.384,0.0,0.0,0.0,0.0,0.0,0.0,0.2139358489631731,0.0,0.0,0.0,0.0,0.0,0.0,-47.508,0.0,0.0,0.0,0.0,0.0
39,0.0,0.1410126953125,0.0,0.0,0.0,0.0,0.0,0.0,0.353,0.0,0.0,0.0,0.0,0.0,0.0,0.21957861536012674,0.0,0.0,0.0,0.0,0.0,0.0,-46.104,0.0,0.0,0.0,0.0,0.0
40,0.0,0.144826171875,0.0,0.0,0.0,0.0,0.0,0.0,0.373,0.0,0.0,0.0,0.0,0.0,0.0,0.22513128900833623,0.0,0.0,0.0,0.0,0.0,0.0,-45.836,0.0,0.0,0.0,0.0,0.0
41,0.0,0.148537109375,0.0,0.0,0.0,0.0,0.0,0.0,0.379,0.0,0.0,0.0,0.0,0.0,0.0,0.2306544804177406,0.0,0.0,0.0,0.0,0.0,0.0,-46.16,0.0,0.0,0.0,0.0,0.0
42,0.0,0.1522421875,0.0,0.0,0.0,0.0,0.0,0.0,0.373,0.0,0.0,0.0,0.0,0.0,0.0,0.23622597368527795,0.0,0.0,0.0,0.0,0.0,0.0,-46.16,0.0,0.0,0.0,0.0,0.0
43,0.0,0.1557412109375,0.0,0.0,0.0,0.0,0.0,0.0,0.363,0.0,0.0,0.0,0.0,0.0,0.0,0.2417030259468897,0.0,0.0,0.0,0.0,0.0,0.0,-45.348,0.0,0.0,0.0,0.0,0.0
44,0.0,0.1590400390625,0.0,0.0,0.0,0.0,0.0,0.0,0.337,0.0,0.0,0.0,0.0,0.0,0.0,0.2471518388215775,0.0,0.0,0.0,0.0,0.0,0.0,-43.62,0.0,0.0,0.0,0.0,0.0
45,0.0,0.1624365234375,0.0,0.0,0.0,0.0,0.0,0.0,0.335,0.0,0.0,0.0,0.0,0.0,0.0,0.25264978380823655,0.0,0.0,0.0,0.0,0.0,0.0,-42.704,0.0,0.0,0.0,0.0,0.0
46,0.0,0.16594140625,0.0,0.0,0.0,0.0,0.0,0.0,0.349,0.0,0.0,0.0,0.0,0.0,0.0,0.2581246452636161,0.0,0.0,0.0,0.0,0.0,0.0,-42.38,0.0,0.0,0.0,0.0,0.0
47,0.0,0.169646484375,0.0,0.0,0.0,0.0,0.0,0.0,0.36,0.0,0.0,0.0,0.0,0.0,0.0,0.26342777720088356,0.0,0.0,0.0,0.0,0.0,0.0,-42.704,0.0,0.0,0.0,0.0,0.0
48,0.0,0.1731455078125,0.0,0.0,0.0,0.0,0.0,0.0,0.363,0.0,0.0,0.0,0.0,0.0,0.0,0.2688434087078307,0.0,0.0,0.0,0.0,0.0,0.0,-42.976,0.0,0.0,0.0,0.0,0.0
49,0.0,0.176650390625,0.0,0.0,0.0,0.0,0.0,0.0,0.356,0.0,0.0,0.0,0.0,0.0,0.0,0.2742855919328775,0.0,0.0,0.0,0.0,0.0,0.0,-41.948,0.0,0.0,0.0,0.0,0.0
50,0.0,0.1802529296875,0.0,0.0,0.0,0.0,0.0,0.0,0.357,0.0,0.0,0.0,0.0,0.0,0.0,0.2795052386811835,0.0,0.0,0.0,0.0,0.0,0.0,-41.464,0.0,0.0,0.0,0.0,0.0
51,0.0,0.184060546875,0.0,0.0,0.0,0.0,0.0,0.0,0.368,0.0,0.0,0.0,0.0,0.0,0.0,0.28482253698585563,0.0,0.0,0.0,0.0,0.0,0.0,-41.68,0.0,0.0,0.0,0.0,0.0
52,0.0,0.187771484375,0.0,0.0,0.0,0.0,0.0,0.0,0.375,0.0,0.0,0.0,0.0,0.0,0.0,0.29017146674277167,0.0,0.0,0.0,0.0,0.0,0.0,-42.056,0.0,0.0,0.0,0.0,0.0
53,0.0,0.1915791015625,0.0,0.0,0.0,0.0,0.0,0.0,0.38,0.0,0.0,0.0,0.0,0.0,0.0,0.2953073037106256,0.0,0.0,0.0,0.0,0.0,0.0,-42.272,0.0,0.0,0.0,0.0,0.0
54,0.0,0.195392578125,0.0,0.0,0.0,0.0,0.0,0.0,0.384,0.0,0.0,0.0,0.0,0.0,0.0,0.3005268020060331,0.0,0.0,0.0,0.0,0.0,0.0,-42.596,0.0,0.0,0.0,0.0,0.0
55,0.0,0.203111328125,0.0,0.0,0.0,0.0,0.0,0.0,0.388,0.0,0.0,0.0,0.0,0.0,0.0,0.30611409498705416,0.0,0.0,0.0,0.0,0.0,0.0,-41.248,0.0,0.0,0.0,0.0,0.0
56,0.0,0.203111328125,0.0,0.0,0.0,0.0,0.0,0.0,0.388,0.0,0.0,0.0,0.0,0.0,0.0,0.3108290856631923,0.0,0.0,0.0,0.0,0.0,0.0,-41.248,0.0,0.0,0.0,0.0,0.0
57,0.0,0.2070283203125,0.0,0.0,0.0,0.0,0.0,0.0,0.393,0.0,0.0,0.0,0.0,0.0,0.0,0.31593741346280585,0.0,0.0,0.0,0.0,0.0,0.0,-41.464,0.0,0.0,0.0,0.0,0.0
58,0.0,0.21114453125,0.0,0.0,0.0,0.0,0.0,0.0,0.403,0.0,0.0,0.0,0.0,0.0,0.0,0.3211526156012393,0.0,0.0,0.0,0.0,0.0,0.0,-41.896,0.0,0.0,0.0,0.0,0.0
59,0.0,0.2151640625,0.0,0.0,0.0,0.0,0.0,0.0,0.407,0.0,0.0,0.0,0.0,0.0,0.0,0.3260742158442807,0.0,0.0,0.0,0.0,0.0,0.0,-42.328,0.0,0.0,0.0,0.0,0.0
60,0.0,0.219177734375,0.0,0.0,0.0,0.0,0.0,0.0,0.403,0.0,0.0,0.0,0.0,0.0,0.0,0.33110446654574677,0.0,0.0,0.0,0.0,0.0,0.0,-42.652,0.0,0.0,0.0,0.0,0.0
61,0.0,0.22330078125,0.0,0.0,0.0,0.0,0.0,0.0,0.409,0.0,0.0,0.0,0.0,0.0,0.0,0.3361094138755677,0.0,0.0,0.0,0.0,0.0,0.0,-42.328,0.0,0.0,0.0,0.0,0.0
62,0.0,0.2274169921875,0.0,0.0,0.0,0.0,0.0,0.0,0.414,0.0,0.0,0.0,0.0,0.0,0.0,0.34105285072059793,0.0,0.0,0.0,0.0,0.0,0.0,-42.488,0.0,0.0,0.0,0.0,0.0
63,0.0,0.231533203125,0.0,0.0,0.0,0.0,0.0,0.0,0.414,0.0,0.0,0.0,0.0,0.0,0.0,0.3459736559959317,0.0,0.0,0.0,0.0,0.0,0.0,-42.868,0.0,0.0,0.0,0.0,0.0
64,0.0,0.2357587890625,0.0,0.0,0.0,0.0,0.0,0.0,0.419,0.0,0.0,0.0,0.0,0.0,0.0,0.35092354759773053,0.0,0.0,0.0,0.0,0.0,0.0,-43.192,0.0,0.0,0.0,0.0,0.0
65,0.0,0.239875,0.0,0.0,0.0,0.0,0.0,0.0,0.421,0.0,0.0,0.0,0.0,0.0,0.0,0.3556934114965996,0.0,0.0,0.0,0.0,0.0,0.0,-43.46,0.0,0.0,0.0,0.0,0.0
66,0.0,0.243998046875,0.0,0.0,0.0,0.0,0.0,0.0,0.414,0.0,0.0,0.0,0.0,0.0,0.0,0.36050079473318764,0.0,0.0,0.0,0.0,0.0,0.0,-44.052,0.0,0.0,0.0,0.0,0.0
67,0.0,0.248216796875,0.0,0.0,0.0,0.0,0.0,0.0,0.419,0.0,0.0,0.0,0.0,0.0,0.0,0.36536562261745775,0.0,0.0,0.0,0.0,0.0,0.0,-43.676,0.0,0.0,0.0,0.0,0.0
68,0.0,0.25233984375,0.0,0.0,0.0,0.0,0.0,0.0,0.42,0.0,0.0,0.0,0.0,0.0,0.0,0.3700503691749429,0.0,0.0,0.0,0.0,0.0,0.0,-43.296,0.0,0.0,0.0,0.0,0.0
69,0.0,0.2564560546875,0.0,0.0,0.0,0.0,0.0,0.0,0.414,0.0,0.0,0.0,0.0,0.0,0.0,0.3747537298458941,0.0,0.0,0.0,0.0,0.0,0.0,-43.352,0.0,0.0,0.0,0.0,0.0
70,0.0,0.26067578125,0.0,0.0,0.0,0.0,0.0,0.0,0.416,0.0,0.0,0.0,0.0,0.0,0.0,0.3794369188590822,0.0,0.0,0.0,0.0,0.0,0.0,-43.46,0.0,0.0,0.0,0.0,0.0
71,0.0,0.2646953125,0.0,0.0,0.0,0.0,0.0,0.0,0.414,0.0,0.0,0.0,0.0,0.0,0.0,0.3841012403165283,0.0,0.0,0.0,0.0,0.0,0.0,-43.404,0.0,0.0,0.0,0.0,0.0
72,0.0,0.2688115234375,0.0,0.0,0.0,0.0,0.0,0.0,0.413,0.0,0.0,0.0,0.0,0.0,0.0,0.3886923410165671,0.0,0.0,0.0,0.0,0.0,0.0,-43.568,0.0,0.0,0.0,0.0,0.0
73,0.0,0.27283203125,0.0,0.0,0.0,0.0,0.0,0.0,0.407,0.0,0.0,0.0,0.0,0.0,0.0,0.3932431516371888,0.0,0.0,0.0,0.0,0.0,0.0,-43.404,0.0,0.0,0.0,0.0,0.0
74,0.0,0.2768447265625,0.0,0.0,0.0,0.0,0.0,0.0,0.408,0.0,0.0,0.0,0.0,0.0,0.0,0.39771726641520183,0.0,0.0,0.0,0.0,0.0,0.0,-43.296,0.0,0.0,0.0,0.0,0.0
75,0.0,0.2808583984375,0.0,0.0,0.0,0.0,0.0,0.0,0.405,0.0,0.0,0.0,0.0,0.0,0.0,0.4022004720651616,0.0,0.0,0.0,0.0,0.0,0.0,-43.244,0.0,0.0,0.0,0.0,0.0
76,0.0,0.28487890625,0.0,0.0,0.0,0.0,0.0,0.0,0.404,0.0,0.0,0.0,0.0,0.0,0.0,0.40664494711953386,0.0,0.0,0.0,0.0,0.0,0.0,-43.296,0.0,0.0,0.0,0.0,0.0
77,0.0,0.2888916015625,0.0,0.0,0.0,0.0,0.0,0.0,0.403,0.0,0.0,0.0,0.0,0.0,0.0,0.4110201854646578,0.0,0.0,0.0,0.0,0.0,0.0,-43.352,0.0,0.0,0.0,0.0,0.0
78,0.0,0.29280859375,0.0,0.0,0.0,0.0,0.0,0.0,0.401,0.0,0.0,0.0,0.0,0.0,0.0,0.41533996611767615,0.0,0.0,0.0,0.0,0.0,0.0,-43.676,0.0,0.0,0.0,0.0,0.0
79,0.0,0.296822265625,0.0,0.0,0.0,0.0,0.0,0.0,0.4,0.0,0.0,0.0,0.0,0.0,0.0,0.41972583985233786,0.0,0.0,0.0,0.0,0.0,0.0,-43.028,0.0,0.0,0.0,0.0,0.0
80,0.0,0.3008359375,0.0,0.0,0.0,0.0,0.0,0.0,0.4,0.0,0.0,0.0,0.0,0.0,0.0,0.4239613472863892,0.0,0.0,0.0,0.0,0.0,0.0,-42.596,0.0,0.0,0.0,0.0,0.0
81,0.0,0.3047529296875,0.0,0.0,0.0,0.0,0.0,0.0,0.397,0.0,0.0,0.0,0.0,0.0,0.0,0.42811979776730336,0.0,0.0,0.0,0.0,0.0,0.0,-42.38,0.0,0.0,0.0,0.0,0.0
82,0.0,0.3086630859375,0.0,0.0,0.0,0.0,0.0,0.0,0.393,0.0,0.0,0.0,0.0,0.0,0.0,0.43231405058494154,0.0,0.0,0.0,0.0,0.0,0.0,-42.38,0.0,0.0,0.0,0.0,0.0
83,0.0,0.3125732421875,0.0,0.0,0.0,0.0,0.0,0.0,0.395,0.0,0.0,0.0,0.0,0.0,0.0,0.4364525527846136,0.0,0.0,0.0,0.0,0.0,0.0,-42.272,0.0,0.0,0.0,0.0,0.0
84,0.0,0.316490234375,0.0,0.0,0.0,0.0,0.0,0.0,0.394,0.0,0.0,0.0,0.0,0.0,0.0,0.4405344048503908,0.0,0.0,0.0,0.0,0.0,0.0,-42.488,0.0,0.0,0.0,0.0,0.0
85,0.0,0.3204013671875,0.0,0.0,0.0,0.0,0.0,0.0,0.397,0.0,0.0,0.0,0.0,0.0,0.0,0.4446070757427111,0.0,0.0,0.0,0.0,0.0,0.0,-42.22,0.0,0.0,0.0,0.0,0.0
86,0.0,0.324318359375,0.0,0.0,0.0,0.0,0.0,0.0,0.394,0.0,0.0,0.0,0.0,0.0,0.0,0.448650392057099,0.0,0.0,0.0,0.0,0.0,0.0,-42.004,0.0,0.0,0.0,0.0,0.0
87,0.0,0.328228515625,0.0,0.0,0.0,0.0,0.0,0.0,0.392,0.0,0.0,0.0,0.0,0.0,0.0,0.45255626289434403,0.0,0.0,0.0,0.0,0.0,0.0,-41.896,0.0,0.0,0.0,0.0,0.0
88,0.0,0.3322421875,0.0,0.0,0.0,0.0,0.0,0.0,0.395,0.0,0.0,0.0,0.0,0.0,0.0,0.4565053248235329,0.0,0.0,0.0,0.0,0.0,0.0,-42.004,0.0,0.0,0.0,0.0,0.0
89,0.0,0.3361591796875,0.0,0.0,0.0,0.0,0.0,0.0,0.399,0.0,0.0,0.0,0.0,0.0,0.0,0.46037797923861007,0.0,0.0,0.0,0.0,0.0,0.0,-42.22,0.0,0.0,0.0,0.0,0.0
90,0.0,0.3400693359375,0.0,0.0,0.0,0.0,0.0,0.0,0.397,0.0,0.0,0.0,0.0,0.0,0.0,0.4641768147141723,0.0,0.0,0.0,0.0,0.0,0.0,-42.544,0.0,0.0,0.0,0.0,0.0
91,0.0,0.34408984375,0.0,0.0,0.0,0.0,0.0,0.0,0.397,0.0,0.0,0.0,0.0,0.0,0.0,0.46799557633238653,0.0,0.0,0.0,0.0,0.0,0.0,-42.004,0.0,0.0,0.0,0.0,0.0
92,0.0,0.348,0.0,0.0,0.0,0.0,0.0,0.0,0.397,0.0,0.0,0.0,0.0,0.0,0.0,0.47182353591274845,0.0,0.0,0.0,0.0,0.0,0.0,-41.464,0.0,0.0,0.0,0.0,0.0
93,0.0,0.3519169921875,0.0,0.0,0.0,0.0,0.0,0.0,0.396,0.0,0.0,0.0,0.0,0.0,0.0,0.4753797798996745,0.0,0.0,0.0,0.0,0.0,0.0,-41.408,0.0,0.0,0.0,0.0,0.0
94,0.0,0.3559365234375,0.0,0.0,0.0,0.0,0.0,0.0,0.397,0.0,0.0,0.0,0.0,0.0,0.0,0.4790229419802668,0.0,0.0,0.0,0.0,0.0,0.0,-41.464,0.0,0.0,0.0,0.0,0.0
95,0.0,0.3599501953125,0.0,0.0,0.0,0.0,0.0,0.0,0.4,0.0,0.0,0.0,0.0,0.0,0.0,0.48273844387873577,0.0,0.0,0.0,0.0,0.0,0.0,-41.516,0.0,0.0,0.0,0.0,0.0
96,0.0,0.3638603515625,0.0,0.0,0.0,0.0,0.0,0.0,0.401,0.0,0.0,0.0,0.0,0.0,0.0,0.48613955439253176,0.0,0.0,0.0,0.0,0.0,0.0,-41.68,0.0,0.0,0.0,0.0,0.0
97,0.0,0.367880859375,0.0,0.0,0.0,0.0,0.0,0.0,0.399,0.0,0.0,0.0,0.0,0.0,0.0,0.4896408485572987,0.0,0.0,0.0,0.0,0.0,0.0,-41.408,0.0,0.0,0.0,0.0,0.0
98,0.0,0.371791015625,0.0,0.0,0.0,0.0,0.0,0.0,0.4,0.0,0.0,0.0,0.0,0.0,0.0,0.4931237303289796,0.0,0.0,0.0,0.0,0.0,0.0,-41.084,0.0,0.0,0.0,0.0,0.0
99,0.0,0.3758046875,0.0,0.0,0.0,0.0,0.0,0.0,0.402,0.0,0.0,0.0,0.0,0.0,0.0,0.49647969143502463,0.0,0.0,0.0,0.0,0.0,0.0,-41.14,0.0,0.0,0.0,0.0,0.0
100,0.0,0.37982421875,0.0,0.0,0.0,0.0,0.0,0.0,0.402,0.0,0.0,0.0,0.0,0.0,0.0,0.49983118248097863,0.0,0.0,0.0,0.0,0.0,0.0,-41.408,0.0,0.0,0.0,0.0,0.0
101,0.0,0.383837890625,0.0,0.0,0.0,0.0,0.0,0.0,0.4,0.0,0.0,0.0,0.0,0.0,0.0,0.503139641485217,0.0,0.0,0.0,0.0,0.0,0.0,-41.68,0.0,0.0,0.0,0.0,0.0
102,0.0,0.3877548828125,0.0,0.0,0.0,0.0,0.0,0.0,0.401,0.0,0.0,0.0,0.0,0.0,0.0,0.5063507669523241,0.0,0.0,0.0,0.0,0.0,0.0,-41.788,0.0,0.0,0.0,0.0,0.0
103,0.0,0.3917685546875,0.0,0.0,0.0,0.0,0.0,0.0,0.403,0.0,0.0,0.0,0.0,0.0,0.0,0.5095467191466766,0.0,0.0,0.0,0.0,0.0,0.0,-41.14,0.0,0.0,0.0,0.0,0.0
104,0.0,0.3957822265625,0.0,0.0,0.0,0.0,0.0,0.0,0.405,0.0,0.0,0.0,0.0,0.0,0.0,0.5127182385932331,0.0,0.0,0.0,0.0,0.0,0.0,-40.76,0.0,0.0,0.0,0.0,0.0
105,0.0,0.3998017578125,0.0,0.0,0.0,0.0,0.0,0.0,0.403,0.0,0.0,0.0,0.0,0.0,0.0,0.5157782623211629,0.0,0.0,0.0,0.0,0.0,0.0,-40.708,0.0,0.0,0.0,0.0,0.0
106,0.0,0.4038154296875,0.0,0.0,0.0,0.0,0.0,0.0,0.401,0.0,0.0,0.0,0.0,0.0,0.0,0.5188125286066693,0.0,0.0,0.0,0.0,0.0,0.0,-40.708,0.0,0.0,0.0,0.0,0.0
107,0.0,0.407828125,0.0,0.0,0.0,0.0,0.0,0.0,0.403,0.0,0.0,0.0,0.0,0.0,0.0,0.5218261684800976,0.0,0.0,0.0,0.0,0.0,0.0,-40.816,0.0,0.0,0.0,0.0,0.0
108,0.0,0.415861328125,0.0,0.0,0.0,0.0,0.0,0.0,0.401,0.0,0.0,0.0,0.0,0.0,0.0,0.5247928164674517,0.0,0.0,0.0,0.0,0.0,0.0,-40.76,0.0,0.0,0.0,0.0,0.0
109,0.0,0.415861328125,0.0,0.0,0.0,0.0,0.0,0.0,0.401,0.0,0.0,0.0,0.0,0.0,0.0,0.5276233167176267,0.0,0.0,0.0,0.0,0.0,0.0,-40.76,0.0,0.0,0.0,0.0,0.0
110,0.0,0.4197724609375,0.0,0.0,0.0,0.0,0.0,0.0,0.403,0.0,0.0,0.0,0.0,0.0,0.0,0.5304805669111172,0.0,0.0,0.0,0.0,0.0,0.0,-40.544,0.0,0.0,0.0,0.0,0.0
111,0.0,0.4237919921875,0.0,0.0,0.0,0.0,0.0,0.0,0.4,0.0,0.0,0.0,0.0,0.0,0.0,0.5332343085683515,0.0,0.0,0.0,0.0,0.0,0.0,-40.652,0.0,0.0,0.0,0.0,0.0
112,0.0,0.4278056640625,0.0,0.0,0.0,0.0,0.0,0.0,0.402,0.0,0.0,0.0,0.0,0.0,0.0,0.5359504106726195,0.0,0.0,0.0,0.0,0.0,0.0,-40.868,0.0,0.0,0.0,0.0,0.0
113,0.0,0.4318251953125,0.0,0.0,0.0,0.0,0.0,0.0,0.401,0.0,0.0,0.0,0.0,0.0,0.0,0.5386465696008053,0.0,0.0,0.0,0.0,0.0,0.0,-41.14,0.0,0.0,0.0,0.0,0.0
114,0.0,0.435736328125,0.0,0.0,0.0,0.0,0.0,0.0,0.401,0.0,0.0,0.0,0.0,0.0,0.0,0.5412443579115964,0.0,0.0,0.0,0.0,0.0,0.0,-41.032,0.0,0.0,0.0,0.0,0.0
115,0.0,0.4397490234375,0.0,0.0,0.0,0.0,0.0,0.0,0.401,0.0,0.0,0.0,0.0,0.0,0.0,0.5437985792573884,0.0,0.0,0.0,0.0,0.0,0.0,-40.492,0.0,0.0,0.0,0.0,0.0
116,0.0,0.44387890625,0.0,0.0,0.0,0.0,0.0,0.0,0.407,0.0,0.0,0.0,0.0,0.0,0.0,0.5463281071539596,0.0,0.0,0.0,0.0,0.0,0.0,-40.112,0.0,0.0,0.0,0.0,0.0
117,0.0,0.4477890625,0.0,0.0,0.0,0.0,0.0,0.0,0.403,0.0,0.0,0.0,0.0,0.0,0.0,0.5487763246972711,0.0,0.0,0.0,0.0,0.0,0.0,-40.004,0.0,0.0,0.0,0.0,0.0
118,0.0,0.4517001953125,0.0,0.0,0.0,0.0,0.0,0.0,0.398,0.0,0.0,0.0,0.0,0.0,0.0,0.5511589745169533,0.0,0.0,0.0,0.0,0.0,0.0,-40.06,0.0,0.0,0.0,0.0,0.0
119,0.0,0.4597333984375,0.0,0.0,0.0,0.0,0.0,0.0,0.399,0.0,0.0,0.0,0.0,0.0,0.0,0.5535639111958168,0.0,0.0,0.0,0.0,0.0,0.0,-40.168,0.0,0.0,0.0,0.0,0.0
120,0.0,0.4597333984375,0.0,0.0,0.0,0.0,0.0,0.0,0.399,0.0,0.0,0.0,0.0,0.0,0.0,0.5558092744616221,0.0,0.0,0.0,0.0,0.0,0.0,-40.168,0.0,0.0,0.0,0.0,0.0
121,0.0,0.4636435546875,0.0,0.0,0.0,0.0,0.0,0.0,0.399,0.0,0.0,0.0,0.0,0.0,0.0,0.5580328787221922,0.0,0.0,0.0,0.0,0.0,0.0,-39.844,0.0,0.0,0.0,0.0,0.0
122,0.0,0.47157421875,0.0,0.0,0.0,0.0,0.0,0.0,0.4,0.0,0.0,0.0,0.0,0.0,0.0,0.5602571420099237,0.0,0.0,0.0,0.0,0.0,0.0,-39.68,0.0,0.0,0.0,0.0,0.0
123,0.0,0.47157421875,0.0,0.0,0.0,0.0,0.0,0.0,0.4,0.0,0.0,0.0,0.0,0.0,0.0,0.5623352661539046,0.0,0.0,0.0,0.0,0.0,0.0,-39.68,0.0,0.0,0.0,0.0,0.0
124,0.0,0.47950390625,0.0,0.0,0.0,0.0,0.0,0.0,0.399,0.0,0.0,0.0,0.0,0.0,0.0,0.5644187744048574,0.0,0.0,0.0,0.0,0.0,0.0,-40.004,0.0,0.0,0.0,0.0,0.0
125,0.0,0.483517578125,0.0,0.0,0.0,0.0,0.0,0.0,0.398,0.0,0.0,0.0,0.0,0.0,0.0,0.5664950284887422,0.0,0.0,0.0,0.0,0.0,0.0,-39.844,0.0,0.0,0.0,0.0,0.0
126,0.0,0.48753125,0.0,0.0,0.0,0.0,0.0,0.0,0.404,0.0,0.0,0.0,0.0,0.0,0.0,0.5684338230298,0.0,0.0,0.0,0.0,0.0,0.0,-39.304,0.0,0.0,0.0,0.0,0.0
127,0.0,0.4914482421875,0.0,0.0,0.0,0.0,0.0,0.0,0.4,0.0,0.0,0.0,0.0,0.0,0.0,0.5703105761697685,0.0,0.0,0.0,0.0,0.0,0.0,-38.924,0.0,0.0,0.0,0.0,0.0
128,0.0,0.4954619140625,0.0,0.0,0.0,0.0,0.0,0.0,0.4,0.0,0.0,0.0,0.0,0.0,0.0,0.5721673724224955,0.0,0.0,0.0,0.0,0.0,0.0,-38.764,0.0,0.0,0.0,0.0,0.0
129,0.0,0.499474609375,0.0,0.0,0.0,0.0,0.0,0.0,0.399,0.0,0.0,0.0,0.0,0.0,0.0,0.573958424394995,0.0,0.0,0.0,0.0,0.0,0.0,-38.872,0.0,0.0,0.0,0.0,0.0
130,0.0,0.499474609375,0.0,0.0,0.0,0.0,0.0,0.0,0.399,0.0,0.0,0.0,0.0,0.0,0.0,0.5755881457508086,0.0,0.0,0.0,0.0,0.0,0.0,-38.872,0.0,0.0,0.0,0.0,0.0
131,0.0,0.507302734375,0.0,0.0,0.0,0.0,0.0,0.0,0.398,0.0,0.0,0.0,0.0,0.0,0.0,0.5772965633239716,0.0,0.0,0.0,0.0,0.0,0.0,-38.98,0.0,0.0,0.0,0.0,0.0
132,0.0,0.5114189453125,0.0,0.0,0.0,0.0,0.0,0.0,0.402,0.0,0.0,0.0,0.0,0.0,0.0,0.5789049295122236,0.0,0.0,0.0,0.0,0.0,0.0,-38.708,0.0,0.0,0.0,0.0,0.0
133,0.0,0.515341796875,0.0,0.0,0.0,0.0,0.0,0.0,0.402,0.0,0.0,0.0,0.0,0.0,0.0,0.5804248363533929,0.0,0.0,0.0,0.0,0.0,0.0,-38.656,0.0,0.0,0.0,0.0,0.0
134,0.0,0.5192529296875,0.0,0.0,0.0,0.0,0.0,0.0,0.398,0.0,0.0,0.0,0.0,0.0,0.0,0.5819141447535329,0.0,0.0,0.0,0.0,0.0,0.0,-38.764,0.0,0.0,0.0,0.0,0.0
135,0.0,0.5232666015625,0.0,0.0,0.0,0.0,0.0,0.0,0.396,0.0,0.0,0.0,0.0,0.0,0.0,0.5833950682044244,0.0,0.0,0.0,0.0,0.0,0.0,-38.872,0.0,0.0,0.0,0.0,0.0
136,0.0,0.5272861328125,0.0,0.0,0.0,0.0,0.0,0.0,0.402,0.0,0.0,0.0,0.0,0.0,0.0,0.5847157674593583,0.0,0.0,0.0,0.0,0.0,0.0,-39.196,0.0,0.0,0.0,0.0,0.0
137,0.0,0.5311962890625,0.0,0.0,0.0,0.0,0.0,0.0,0.401,0.0,0.0,0.0,0.0,0.0,0.0,0.5860383156996928,0.0,0.0,0.0,0.0,0.0,0.0,-38.924,0.0,0.0,0.0,0.0,0.0
138,0.0,0.5352099609375,0.0,0.0,0.0,0.0,0.0,0.0,0.401,0.0,0.0,0.0,0.0,0.0,0.0,0.5873123807552855,0.0,0.0,0.0,0.0,0.0,0.0,-38.276,0.0,0.0,0.0,0.0,0.0
139,0.0,0.5392236328125,0.0,0.0,0.0,0.0,0.0,0.0,0.404,0.0,0.0,0.0,0.0,0.0,0.0,0.5884871078995615,0.0,0.0,0.0,0.0,0.0,0.0,-37.792,0.0,0.0,0.0,0.0,0.0
140,0.0,0.5432431640625,0.0,0.0,0.0,0.0,0.0,0.0,0.401,0.0,0.0,0.0,0.0,0.0,0.0,0.589623509978914,0.0,0.0,0.0,0.0,0.0,0.0,-37.844,0.0,0.0,0.0,0.0,0.0
141,0.0,0.547154296875,0.0,0.0,0.0,0.0,0.0,0.0,0.398,0.0,0.0,0.0,0.0,0.0,0.0,0.5907495934084873,0.0,0.0,0.0,0.0,0.0,0.0,-37.952,0.0,0.0,0.0,0.0,0.0
142,0.0,0.5511669921875,0.0,0.0,0.0,0.0,0.0,0.0,0.397,0.0,0.0,0.0,0.0,0.0,0.0,0.5917310002804322,0.0,0.0,0.0,0.0,0.0,0.0,-38.332,0.0,0.0,0.0,0.0,0.0
143,0.0,0.5551875,0.0,0.0,0.0,0.0,0.0,0.0,0.402,0.0,0.0,0.0,0.0,0.0,0.0,0.592691464611789,0.0,0.0,0.0,0.0,0.0,0.0,-37.736,0.0,0.0,0.0,0.0,0.0
144,0.0,0.55909765625,0.0,0.0,0.0,0.0,0.0,0.0,0.402,0.0,0.0,0.0,0.0,0.0,0.0,0.5936187792504977,0.0,0.0,0.0,0.0,0.0,0.0,-37.576,0.0,0.0,0.0,0.0,0.0
145,0.0,0.563111328125,0.0,0.0,0.0,0.0,0.0,0.0,0.399,0.0,0.0,0.0,0.0,0.0,0.0,0.5944421231858198,0.0,0.0,0.0,0.0,0.0,0.0,-37.628,0.0,0.0,0.0,0.0,0.0
146,0.0,0.5670283203125,0.0,0.0,0.0,0.0,0.0,0.0,0.399,0.0,0.0,0.0,0.0,0.0,0.0,0.5952265664833176,0.0,0.0,0.0,0.0,0.0,0.0,-37.52,0.0,0.0,0.0,0.0,0.0
147,0.0,0.5710419921875,0.0,0.0,0.0,0.0,0.0,0.0,0.397,0.0,0.0,0.0,0.0,0.0,0.0,0.5959755347067969,0.0,0.0,0.0,0.0,0.0,0.0,-37.684,0.0,0.0,0.0,0.0,0.0
148,0.0,0.5749521484375,0.0,0.0,0.0,0.0,0.0,0.0,0.398,0.0,0.0,0.0,0.0,0.0,0.0,0.596619810165526,0.0,0.0,0.0,0.0,0.0,0.0,-38.116,0.0,0.0,0.0,0.0,0.0
149,0.0,0.578978515625,0.0,0.0,0.0,0.0,0.0,0.0,0.403,0.0,0.0,0.0,0.0,0.0,0.0,0.5972257222781588,0.0,0.0,0.0,0.0,0.0,0.0,-37.468,0.0,0.0,0.0,0.0,0.0
150,0.0,0.5829921875,0.0,0.0,0.0,0.0,0.0,0.0,0.402,0.0,0.0,0.0,0.0,0.0,0.0,0.5978012146562502,0.0,0.0,0.0,0.0,0.0,0.0,-36.872,0.0,0.0,0.0,0.0,0.0
151,0.0,0.5870048828125,0.0,0.0,0.0,0.0,0.0,0.0,0.401,0.0,0.0,0.0,0.0,0.0,0.0,0.5982563358953238,0.0,0.0,0.0,0.0,0.0,0.0,-36.548,0.0,0.0,0.0,0.0,0.0
152,0.0,0.590916015625,0.0,0.0,0.0,0.0,0.0,0.0,0.4,0.0,0.0,0.0,0.0,0.0,0.0,0.5986826386440409,0.0,0.0,0.0,0.0,0.0,0.0,-36.604,0.0,0.0,0.0,0.0,0.0
153,0.0,0.594935546875,0.0,0.0,0.0,0.0,0.0,0.0,0.396,0.0,0.0,0.0,0.0,0.0,0.0,0.5990618839493824,0.0,0.0,0.0,0.0,0.0,0.0,-36.712,0.0,0.0,0.0,0.0,0.0
154,0.0,0.59894921875,0.0,0.0,0.0,0.0,0.0,0.0,0.401,0.0,0.0,0.0,0.0,0.0,0.0,0.5993579672752914,0.0,0.0,0.0,0.0,0.0,0.0,-37.036,0.0,0.0,0.0,0.0,0.0
155,0.0,0.60255078125,0.0,0.0,0.0,0.0,0.0,0.0,0.392,0.0,0.0,0.0,0.0,0.0,0.0,0.5996052964789387,0.0,0.0,0.0,0.0,0.0,0.0,-40.492,0.0,0.0,0.0,0.0,0.0
156,0.0,0.6054326171875,0.0,0.0,0.0,0.0,0.0,0.0,0.333,0.0,0.0,0.0,0.0,0.0,0.0,0.599794669395807,0.0,0.0,0.0,0.0,0.0,0.0,-46.808,0.0,0.0,0.0,0.0,0.0
157,0.0,0.6078056640625,0.0,0.0,0.0,0.0,0.0,0.0,0.267,0.0,0.0,0.0,0.0,0.0,0.0,0.5999207786308905,0.0,0.0,0.0,0.0,0.0,0.0,-50.696,0.0,0.0,0.0,0.0,0.0
158,0.0,0.6095546875,0.0,0.0,0.0,0.0,0.0,0.0,0.217,0.0,0.0,0.0,0.0,0.0,0.0,0.5999882983436602,0.0,0.0,0.0,0.0,0.0,0.0,-52.692,0.0,0.0,0.0,0.0,0.0
159,0.0,0.61099609375,0.0,0.0,0.0,0.0,0.0,0.0,0.162,0.0,0.0,0.0,0.0,0.0,0.0,0.5999957187749564,0.0,0.0,0.0,0.0,0.0,0.0,-52.64,0.0,0.0,0.0,0.0,0.0
160,0.0,0.612333984375,0.0,0.0,0.0,0.0,0.0,0.0,0.143,0.0,0.0,0.0,0.0,0.0,0.0,0.5999430458645331,0.0,0.0,0.0,0.0,0.0,0.0,-53.504,0.0,0.0,0.0,0.0,0.0
161,0.0,0.6128486328125,0.0,0.0,0.0,0.0,0.0,0.0,0.098,0.0,0.0,0.0,0.0,0.0,0.0,0.5998300377270555,0.0,0.0,0.0,0.0,0.0,0.0,-53.772,0.0,0.0,0.0,0.0,0.0
162,0.0,0.6128486328125,0.0,0.0,0.0,0.0,0.0,0.0,0.03,0.0,0.0,0.0,0.0,0.0,0.0,0.5996496630062278,0.0,0.0,0.0,0.0,0.0,0.0,-52.368,0.0,0.0,0.0,0.0,0.0
163,0.0,0.61223046875,0.0,0.0,0.0,0.0,0.0,0.0,-0.025,0.0,0.0,0.0,0.0,0.0,0.0,0.5994192791779794,0.0,0.0,0.0,0.0,0.0,0.0,-50.156,0.0,0.0,0.0,0.0,0.0
164,0.0,0.6114072265625,0.0,0.0,0.0,0.0,0.0,0.0,-0.071,0.0,0.0,0.0,0.0,0.0,0.0,0.5991321148880642,0.0,0.0,0.0,0.0,0.0,0.0,-47.996,0.0,0.0,0.0,0.0,0.0
165,0.0,0.6106875,0.0,0.0,0.0,0.0,0.0,0.0,-0.078,0.0,0.0,0.0,0.0,0.0,0.0,0.5987749361495256,0.0,0.0,0.0,0.0,0.0,0.0,-46.536,0.0,0.0,0.0,0.0,0.0
166,0.0,0.6097607421875,0.0,0.0,0.0,0.0,0.0,0.0,-0.081,0.0,0.0,0.0,0.0,0.0,0.0,0.598365099793512,0.0,0.0,0.0,0.0,0.0,0.0,-45.62,0.0,0.0,0.0,0.0,0.0
167,0.0,0.6085263671875,0.0,0.0,0.0,0.0,0.0,0.0,-0.109,0.0,0.0,0.0,0.0,0.0,0.0,0.5978976364132534,0.0,0.0,0.0,0.0,0.0,0.0,-44.432,0.0,0.0,0.0,0.0,0.0
168,0.0,0.6070849609375,0.0,0.0,0.0,0.0,0.0,0.0,-0.131,0.0,0.0,0.0,0.0,0.0,0.0,0.5973620280009375,0.0,0.0,0.0,0.0,0.0,0.0,-42.652,0.0,0.0,0.0,0.0,0.0
169,0.0,0.60553515625,0.0,0.0,0.0,0.0,0.0,0.0,-0.15,0.0,0.0,0.0,0.0,0.0,0.0,0.5967694140133314,0.0,0.0,0.0,0.0,0.0,0.0,-40.76,0.0,0.0,0.0,0.0,0.0
170,0.0,0.6039912109375,0.0,0.0,0.0,0.0,0.0,0.0,-0.16,0.0,0.0,0.0,0.0,0.0,0.0,0.5961205226869094,0.0,0.0,0.0,0.0,0.0,0.0,-39.032,0.0,0.0,0.0,0.0,0.0
171,0.0,0.6026533203125,0.0,0.0,0.0,0.0,0.0,0.0,-0.147,0.0,0.0,0.0,0.0,0.0,0.0,0.5953986262734612,0.0,0.0,0.0,0.0,0.0,0.0,-37.792,0.0,0.0,0.0,0.0,0.0
172,0.0,0.6011103515625,0.0,0.0,0.0,0.0,0.0,0.0,-0.141,0.0,0.0,0.0,0.0,0.0,0.0,0.5946340155976582,0.0,0.0,0.0,0.0,0.0,0.0,-37.196,0.0,0.0,0.0,0.0,0.0
173,0.0,0.5996689453125,0.0,0.0,0.0,0.0,0.0,0.0,-0.152,0.0,0.0,0.0,0.0,0.0,0.0,0.5938088157177126,0.0,0.0,0.0,0.0,0.0,0.0,-36.928,0.0,0.0,0.0,0.0,0.0
174,0.0,0.5981259765625,0.0,0.0,0.0,0.0,0.0,0.0,-0.152,0.0,0.0,0.0,0.0,0.0,0.0,0.5929223621108983,0.0,0.0,0.0,0.0,0.0,0.0,-36.656,0.0,0.0,0.0,0.0,0.0
175,0.0,0.5964794921875,0.0,0.0,0.0,0.0,0.0,0.0,-0.158,0.0,0.0,0.0,0.0,0.0,0.0,0.5919686927091725,0.0,0.0,0.0,0.0,0.0,0.0,-36.388,0.0,0.0,0.0,0.0,0.0
176,0.0,0.5950380859375,0.0,0.0,0.0,0.0,0.0,0.0,-0.155,0.0,0.0,0.0,0.0,0.0,0.0,0.5909668004586783,0.0,0.0,0.0,0.0,0.0,0.0,-36.548,0.0,0.0,0.0,0.0,0.0
177,0.0,0.59359765625,0.0,0.0,0.0,0.0,0.0,0.0,-0.149,0.0,0.0,0.0,0.0,0.0,0.0,0.5898855924402581,0.0,0.0,0.0,0.0,0.0,0.0,-36.548,0.0,0.0,0.0,0.0,0.0
178,0.0,0.5920537109375,0.0,0.0,0.0,0.0,0.0,0.0,-0.15,0.0,0.0,0.0,0.0,0.0,0.0,0.5887712002773234,0.0,0.0,0.0,0.0,0.0,0.0,-36.172,0.0,0.0,0.0,0.0,0.0
179,0.0,0.590607421875,0.0,0.0,0.0,0.0,0.0,0.0,-0.146,0.0,0.0,0.0,0.0,0.0,0.0,0.5875864264258741,0.0,0.0,0.0,0.0,0.0,0.0,-36.008,0.0,0.0,0.0,0.0,0.0
180,0.0,0.589166015625,0.0,0.0,0.0,0.0,0.0,0.0,-0.146,0.0,0.0,0.0,0.0,0.0,0.0,0.5863418626953849,0.0,0.0,0.0,0.0,0.0,0.0,-35.416,0.0,0.0,0.0,0.0,0.0
181,0.0,0.5877255859375,0.0,0.0,0.0,0.0,0.0,0.0,-0.149,0.0,0.0,0.0,0.0,0.0,0.0,0.584990086733857,0.0,0.0,0.0,0.0,0.0,0.0,-35.308,0.0,0.0,0.0,0.0,0.0
182,0.0,0.586181640625,0.0,0.0,0.0,0.0,0.0,0.0,-0.154,0.0,0.0,0.0,0.0,0.0,0.0,0.5836818492604362,0.0,0.0,0.0,0.0,0.0,0.0,-35.36,0.0,0.0,0.0,0.0,0.0
183,0.0,0.58484375,0.0,0.0,0.0,0.0,0.0,0.0,-0.145,0.0,0.0,0.0,0.0,0.0,0.0,0.5822604364668029,0.0,0.0,0.0,0.0,0.0,0.0,-34.66,0.0,0.0,0.0,0.0,0.0
184,0.0,0.583505859375,0.0,0.0,0.0,0.0,0.0,0.0,-0.133,0.0,0.0,0.0,0.0,0.0,0.0,0.5807495567151745,0.0,0.0,0.0,0.0,0.0,0.0,-34.768,0.0,0.0,0.0,0.0,0.0
185,0.0,0.5821689453125,0.0,0.0,0.0,0.0,0.0,0.0,-0.136,0.0,0.0,0.0,0.0,0.0,0.0,0.5792465195478762,0.0,0.0,0.0,0.0,0.0,0.0,-35.252,0.0,0.0,0.0,0.0,0.0
186,0.0,0.5808310546875,0.0,0.0,0.0,0.0,0.0,0.0,-0.132,0.0,0.0,0.0,0.0,0.0,0.0,0.5776561245947844,0.0,0.0,0.0,0.0,0.0,0.0,-35.848,0.0,0.0,0.0,0.0,0.0
187,0.0,0.5794931640625,0.0,0.0,0.0,0.0,0.0,0.0,-0.133,0.0,0.0,0.0,0.0,0.0,0.0,0.5759782490463214,0.0,0.0,0.0,0.0,0.0,0.0,-37.036,0.0,0.0,0.0,0.0,0.0
188,0.0,0.578251953125,0.0,0.0,0.0,0.0,0.0,0.0,-0.136,0.0,0.0,0.0,0.0,0.0,0.0,0.5742967012728735,0.0,0.0,0.0,0.0,0.0,0.0,-37.036,0.0,0.0,0.0,0.0,0.0
189,0.0,0.577119140625,0.0,0.0,0.0,0.0,0.0,0.0,-0.123,0.0,0.0,0.0,0.0,0.0,0.0,0.5725294423332363,0.0,0.0,0.0,0.0,0.0,0.0,-36.712,0.0,0.0,0.0,0.0,0.0
190,0.0,0.575884765625,0.0,0.0,0.0,0.0,0.0,0.0,-0.114,0.0,0.0,0.0,0.0,0.0,0.0,0.5706937242158775,0.0,0.0,0.0,0.0,0.0,0.0,-37.736,0.0,0.0,0.0,0.0,0.0
191,0.0,0.5746435546875,0.0,0.0,0.0,0.0,0.0,0.0,-0.124,0.0,0.0,0.0,0.0,0.0,0.0,0.5688242047900828,0.0,0.0,0.0,0.0,0.0,0.0,-38.492,0.0,0.0,0.0,0.0,0.0
192,0.0,0.573408203125,0.0,0.0,0.0,0.0,0.0,0.0,-0.123,0.0,0.0,0.0,0.0,0.0,0.0,0.5668819756012707,0.0,0.0,0.0,0.0,0.0,0.0,-39.356,0.0,0.0,0.0,0.0,0.0
193,0.0,0.5719677734375,0.0,0.0,0.0,0.0,0.0,0.0,-0.135,0.0,0.0,0.0,0.0,0.0,0.0,0.5648785309971828,0.0,0.0,0.0,0.0,0.0,0.0,-40.22,0.0,0.0,0.0,0.0,0.0
194,0.0,0.5706298828125,0.0,0.0,0.0,0.0,0.0,0.0,-0.148,0.0,0.0,0.0,0.0,0.0,0.0,0.5628417712265149,0.0,0.0,0.0,0.0,0.0,0.0,-39.896,0.0,0.0,0.0,0.0,0.0
195,0.0,0.5690859375,0.0,0.0,0.0,0.0,0.0,0.0,-0.139,0.0,0.0,0.0,0.0,0.0,0.0,0.560734985207725,0.0,0.0,0.0,0.0,0.0,0.0,-41.032,0.0,0.0,0.0,0.0,0.0
196,0.0,0.5676455078125,0.0,0.0,0.0,0.0,0.0,0.0,-0.154,0.0,0.0,0.0,0.0,0.0,0.0,0.5585445426253022,0.0,0.0,0.0,0.0,0.0,0.0,-40.976,0.0,0.0,0.0,0.0,0.0
197,0.0,0.5661015625,0.0,0.0,0.0,0.0,0.0,0.0,-0.149,0.0,0.0,0.0,0.0,0.0,0.0,0.5563475721845412,0.0,0.0,0.0,0.0,0.0,0.0,-41.248,0.0,0.0,0.0,0.0,0.0
198,0.0,0.5642431640625,0.0,0.0,0.0,0.0,0.0,0.0,-0.166,0.0,0.0,0.0,0.0,0.0,0.0,0.5540673139553551,0.0,0.0,0.0,0.0,0.0,0.0,-42.328,0.0,0.0,0.0,0.0,0.0
199,0.0,0.5621845703125,0.0,0.0,0.0,0.0,0.0,0.0,-0.199,0.0,0.0,0.0,0.0,0.0,0.0,0.5517281113175702,0.0,0.0,0.0,0.0,0.0,0.0,-42.76,0.0,0.0,0.0,0.0,0.0
200,0.0,0.5602294921875,0.0,0.0,0.0,0.0,0.0,0.0,-0.201,0.0,0.0,0.0,0.0,0.0,0.0,0.5493363560370773,0.0,0.0,0.0,0.0,0.0,0.0,-42.164,0.0,0.0,0.0,0.0,0.0
201,0.0,0.558068359375,0.0,0.0,0.0,0.0,0.0,0.0,-0.21,0.0,0.0,0.0,0.0,0.0,0.0,0.5469237379254155,0.0,0.0,0.0,0.0,0.0,0.0,-41.192,0.0,0.0,0.0,0.0,0.0
202,0.0,0.5559072265625,0.0,0.0,0.0,0.0,0.0,0.0,-0.211,0.0,0.0,0.0,0.0,0.0,0.0,0.5444228478504871,0.0,0.0,0.0,0.0,0.0,0.0,-41.572,0.0,0.0,0.0,0.0,0.0
203,0.0,0.553541015625,0.0,0.0,0.0,0.0,0.0,0.0,-0.225,0.0,0.0,0.0,0.0,0.0,0.0,0.5418798964117941,0.0,0.0,0.0,0.0,0.0,0.0,-42.704,0.0,0.0,0.0,0.0,0.0
204,0.0,0.551064453125,0.0,0.0,0.0,0.0,0.0,0.0,-0.246,0.0,0.0,0.0,0.0,0.0,0.0,0.5392830181919362,0.0,0.0,0.0,0.0,0.0,0.0,-41.948,0.0,0.0,0.0,0.0,0.0
205,0.0,0.5484912109375,0.0,0.0,0.0,0.0,0.0,0.0,-0.258,0.0,0.0,0.0,0.0,0.0,0.0,0.5366096267575229,0.0,0.0,0.0,0.0,0.0,0.0,-40.436,0.0,0.0,0.0,0.0,0.0
206,0.0,0.54581640625,0.0,0.0,0.0,0.0,0.0,0.0,-0.261,0.0,0.0,0.0,0.0,0.0,0.0,0.5339109647434396,0.0,0.0,0.0,0.0,0.0,0.0,-40.328,0.0,0.0,0.0,0.0,0.0
207,0.0,0.543037109375,0.0,0.0,0.0,0.0,0.0,0.0,-0.275,0.0,0.0,0.0,0.0,0.0,0.0,0.5311523397991235,0.0,0.0,0.0,0.0,0.0,0.0,-41.248,0.0,0.0,0.0,0.0,0.0
208,0.0,0.5402587890625,0.0,0.0,0.0,0.0,0.0,0.0,-0.278,0.0,0.0,0.0,0.0,0.0,0.0,0.5283244029561062,0.0,0.0,0.0,0.0,0.0,0.0,-41.248,0.0,0.0,0.0,0.0,0.0
209,0.0,0.53737109375,0.0,0.0,0.0,0.0,0.0,0.0,-0.283,0.0,0.0,0.0,0.0,0.0,0.0,0.5254579426424199,0.0,0.0,0.0,0.0,0.0,0.0,-40.276,0.0,0.0,0.0,0.0,0.0
210,0.0,0.5344892578125,0.0,0.0,0.0,0.0,0.0,0.0,-0.292,0.0,0.0,0.0,0.0,0.0,0.0,0.5225418141312688,0.0,0.0,0.0,0.0,0.0,0.0,-39.032,0.0,0.0,0.0,0.0,0.0
211,0.0,0.5316083984375,0.0,0.0,0.0,0.0,0.0,0.0,-0.285,0.0,0.0,0.0,0.0,0.0,0.0,0.5195414662147055,0.0,0.0,0.0,0.0,0.0,0.0,-40.112,0.0,0.0,0.0,0.0,0.0
212,0.0,0.5286240234375,0.0,0.0,0.0,0.0,0.0,0.0,-0.299,0.0,0.0,0.0,0.0,0.0,0.0,0.5165341356947467,0.0,0.0,0.0,0.0,0.0,0.0,-40.816,0.0,0.0,0.0,0.0,0.0
213,0.0,0.525427734375,0.0,0.0,0.0,0.0,0.0,0.0,-0.305,0.0,0.0,0.0,0.0,0.0,0.0,0.5134636856145836,0.0,0.0,0.0,0.0,0.0,0.0,-41.896,0.0,0.0,0.0,0.0,0.0
214,0.0,0.52203125,0.0,0.0,0.0,0.0,0.0,0.0,-0.333,0.0,0.0,0.0,0.0,0.0,0.0,0.51031341811736,0.0,0.0,0.0,0.0,0.0,0.0,-41.84,0.0,0.0,0.0,0.0,0.0
215,0.0,0.51873828125,0.0,0.0,0.0,0.0,0.0,0.0,-0.345,0.0,0.0,0.0,0.0,0.0,0.0,0.5071476906885447,0.0,0.0,0.0,0.0,0.0,0.0,-39.52,0.0,0.0,0.0,0.0,0.0
216,0.0,0.51575390625,0.0,0.0,0.0,0.0,0.0,0.0,-0.311,0.0,0.0,0.0,0.0,0.0,0.0,0.5039291716808719,0.0,0.0,0.0,0.0,0.0,0.0,-38.872,0.0,0.0,0.0,0.0,0.0
217,0.0,0.5124482421875,0.0,0.0,0.0,0.0,0.0,0.0,-0.315,0.0,0.0,0.0,0.0,0.0,0.0,0.500629599349503,0.0,0.0,0.0,0.0,0.0,0.0,-40.868,0.0,0.0,0.0,0.0,0.0
218,0.0,0.5092578125,0.0,0.0,0.0,0.0,0.0,0.0,-0.326,0.0,0.0,0.0,0.0,0.0,0.0,0.4972897490312708,0.0,0.0,0.0,0.0,0.0,0.0,-41.3,0.0,0.0,0.0,0.0,0.0
219,0.0,0.5057587890625,0.0,0.0,0.0,0.0,0.0,0.0,-0.334,0.0,0.0,0.0,0.0,0.0,0.0,0.4939115547804712,0.0,0.0,0.0,0.0,0.0,0.0,-41.732,0.0,0.0,0.0,0.0,0.0
220,0.0,0.5019453125,0.0,0.0,0.0,0.0,0.0,0.0,-0.368,0.0,0.0,0.0,0.0,0.0,0.0,0.49049066947732045,0.0,0.0,0.0,0.0,0.0,0.0,-41.248,0.0,0.0,0.0,0.0,0.0
221,0.0,0.498548828125,0.0,0.0,0.0,0.0,0.0,0.0,-0.367,0.0,0.0,0.0,0.0,0.0,0.0,0.4870055722255787,0.0,0.0,0.0,0.0,0.0,0.0,-39.896,0.0,0.0,0.0,0.0,0.0
222,0.0,0.4951533203125,0.0,0.0,0.0,0.0,0.0,0.0,-0.341,0.0,0.0,0.0,0.0,0.0,0.0,0.4834848531489315,0.0,0.0,0.0,0.0,0.0,0.0,-39.788,0.0,0.0,0.0,0.0,0.0
223,0.0,0.491859375,0.0,0.0,0.0,0.0,0.0,0.0,-0.343,0.0,0.0,0.0,0.0,0.0,0.0,0.4799029588096304,0.0,0.0,0.0,0.0,0.0,0.0,-38.98,0.0,0.0,0.0,0.0,0.0
224,0.0,0.4886630859375,0.0,0.0,0.0,0.0,0.0,0.0,-0.323,0.0,0.0,0.0,0.0,0.0,0.0,0.4762752107918228,0.0,0.0,0.0,0.0,0.0,0.0,-38.276,0.0,0.0,0.0,0.0,0.0
225,0.0,0.4849580078125,0.0,0.0,0.0,0.0,0.0,0.0,-0.342,0.0,0.0,0.0,0.0,0.0,0.0,0.4726200399944511,0.0,0.0,0.0,0.0,0.0,0.0,-39.68,0.0,0.0,0.0,0.0,0.0
226,0.0,0.4813564453125,0.0,0.0,0.0,0.0,0.0,0.0,-0.376,0.0,0.0,0.0,0.0,0.0,0.0,0.46887280893898436,0.0,0.0,0.0,0.0,0.0,0.0,-40.06,0.0,0.0,0.0,0.0,0.0
227,0.0,0.4778515625,0.0,0.0,0.0,0.0,0.0,0.0,-0.356,0.0,0.0,0.0,0.0,0.0,0.0,0.4651025868300756,0.0,0.0,0.0,0.0,0.0,0.0,-40.22,0.0,0.0,0.0,0.0,0.0
228,0.0,0.474146484375,0.0,0.0,0.0,0.0,0.0,0.0,-0.363,0.0,0.0,0.0,0.0,0.0,0.0,0.4613180696126495,0.0,0.0,0.0,0.0,0.0,0.0,-40.384,0.0,0.0,0.0,0.0,0.0
229,0.0,0.4706474609375,0.0,0.0,0.0,0.0,0.0,0.0,-0.364,0.0,0.0,0.0,0.0,0.0,0.0,0.45744693021469873,0.0,0.0,0.0,0.0,0.0,0.0,-41.68,0.0,0.0,0.0,0.0,0.0
230,0.0,0.4670458984375,0.0,0.0,0.0,0.0,0.0,0.0,-0.354,0.0,0.0,0.0,0.0,0.0,0.0,0.4534987696112204,0.0,0.0,0.0,0.0,0.0,0.0,-41.948,0.0,0.0,0.0,0.0,0.0
231,0.0,0.4633349609375,0.0,0.0,0.0,0.0,0.0,0.0,-0.369,0.0,0.0,0.0,0.0,0.0,0.0,0.44959483845657716,0.0,0.0,0.0,0.0,0.0,0.0,-41.68,0.0,0.0,0.0,0.0,0.0
232,0.0,0.45952734375,0.0,0.0,0.0,0.0,0.0,0.0,-0.381,0.0,0.0,0.0,0.0,0.0,0.0,0.4456056308854889,0.0,0.0,0.0,0.0,0.0,0.0,-42.812,0.0,0.0,0.0,0.0,0.0
233,0.0,0.4557197265625,0.0,0.0,0.0,0.0,0.0,0.0,-0.384,0.0,0.0,0.0,0.0,0.0,0.0,0.44152687051620154,0.0,0.0,0.0,0.0,0.0,0.0,-43.136,0.0,0.0,0.0,0.0,0.0
234,0.0,0.451802734375,0.0,0.0,0.0,0.0,0.0,0.0,-0.385,0.0,0.0,0.0,0.0,0.0,0.0,0.4374627423647011,0.0,0.0,0.0,0.0,0.0,0.0,-42.272,0.0,0.0,0.0,0.0,0.0
235,0.0,0.4479951171875,0.0,0.0,0.0,0.0,0.0,0.0,-0.388,0.0,0.0,0.0,0.0,0.0,0.0,0.4333523372051423,0.0,0.0,0.0,0.0,0.0,0.0,-41.84,0.0,0.0,0.0,0.0,0.0
236,0.0,0.4439814453125,0.0,0.0,0.0,0.0,0.0,0.0,-0.393,0.0,0.0,0.0,0.0,0.0,0.0,0.42914708482772373,0.0,0.0,0.0,0.0,0.0,0.0,-41.84,0.0,0.0,0.0,0.0,0.0
237,0.0,0.4398525390625,0.0,0.0,0.0,0.0,0.0,0.0,-0.41,0.0,0.0,0.0,0.0,0.0,0.0,0.42495184981787654,0.0,0.0,0.0,0.0,0.0,0.0,-41.84,0.0,0.0,0.0,0.0,0.0
238,0.0,0.4358388671875,0.0,0.0,0.0,0.0,0.0,0.0,-0.409,0.0,0.0,0.0,0.0,0.0,0.0,0.4207022690402973,0.0,0.0,0.0,0.0,0.0,0.0,-41.464,0.0,0.0,0.0,0.0,0.0
239,0.0,0.4318251953125,0.0,0.0,0.0,0.0,0.0,0.0,-0.407,0.0,0.0,0.0,0.0,0.0,0.0,0.41636791656578426,0.0,0.0,0.0,0.0,0.0,0.0,-41.68,0.0,0.0,0.0,0.0,0.0
240,0.0,0.4278056640625,0.0,0.0,0.0,0.0,0.0,0.0,-0.407,0.0,0.0,0.0,0.0,0.0,0.0,0.4120558190914439,0.0,0.0,0.0,0.0,0.0,0.0,-40.816,0.0,0.0,0.0,0.0,0.0
241,0.0,0.423689453125,0.0,0.0,0.0,0.0,0.0,0.0,-0.407,0.0,0.0,0.0,0.0,0.0,0.0,0.4076788142760937,0.0,0.0,0.0,0.0,0.0,0.0,-40.384,0.0,0.0,0.0,0.0,0.0
242,0.0,0.4194638671875,0.0,0.0,0.0,0.0,0.0,0.0,-0.416,0.0,0.0,0.0,0.0,0.0,0.0,0.4032397343612172,0.0,0.0,0.0,0.0,0.0,0.0,-40.384,0.0,0.0,0.0,0.0,0.0
243,0.0,0.41534765625,0.0,0.0,0.0,0.0,0.0,0.0,-0.423,0.0,0.0,0.0,0.0,0.0,0.0,0.39878749977125805,0.0,0.0,0.0,0.0,0.0,0.0,-40.868,0.0,0.0,0.0,0.0,0.0
244,0.0,0.4111279296875,0.0,0.0,0.0,0.0,0.0,0.0,-0.419,0.0,0.0,0.0,0.0,0.0,0.0,0.3942914812953266,0.0,0.0,0.0,0.0,0.0,0.0,-41.248,0.0,0.0,0.0,0.0,0.0
245,0.0,0.4071083984375,0.0,0.0,0.0,0.0,0.0,0.0,-0.415,0.0,0.0,0.0,0.0,0.0,0.0,0.3897274392415662,0.0,0.0,0.0,0.0,0.0,0.0,-41.516,0.0,0.0,0.0,0.0,0.0
246,0.0,0.4030947265625,0.0,0.0,0.0,0.0,0.0,0.0,-0.405,0.0,0.0,0.0,0.0,0.0,0.0,0.38516628065881864,0.0,0.0,0.0,0.0,0.0,0.0,-40.708,0.0,0.0,0.0,0.0,0.0
247,0.0,0.3990810546875,0.0,0.0,0.0,0.0,0.0,0.0,-0.408,0.0,0.0,0.0,0.0,0.0,0.0,0.38054847361034777,0.0,0.0,0.0,0.0,0.0,0.0,-40.652,0.0,0.0,0.0,0.0,0.0
248,0.0,0.3949580078125,0.0,0.0,0.0,0.0,0.0,0.0,-0.41,0.0,0.0,0.0,0.0,0.0,0.0,0.3758705658161393,0.0,0.0,0.0,0.0,0.0,0.0,-41.032,0.0,0.0,0.0,0.0,0.0
249,0.0,0.3907392578125,0.0,0.0,0.0,0.0,0.0,0.0,-0.422,0.0,0.0,0.0,0.0,0.0,0.0,0.3711930724502522,0.0,0.0,0.0,0.0,0.0,0.0,-41.408,0.0,0.0,0.0,0.0,0.0
250,0.0,0.3866162109375,0.0,0.0,0.0,0.0,0.0,0.0,-0.416,0.0,0.0,0.0,0.0,0.0,0.0,0.3664634517138335,0.0,0.0,0.0,0.0,0.0,0.0,-41.248,0.0,0.0,0.0,0.0,0.0
251,0.0,0.3827060546875,0.0,0.0,0.0,0.0,0.0,0.0,-0.408,0.0,0.0,0.0,0.0,0.0,0.0,0.3616732596013455,0.0,0.0,0.0,0.0,0.0,0.0,-41.408,0.0,0.0,0.0,0.0,0.0
252,0.0,0.378794921875,0.0,0.0,0.0,0.0,0.0,0.0,-0.398,0.0,0.0,0.0,0.0,0.0,0.0,0.35686256572224734,0.0,0.0,0.0,0.0,0.0,0.0,-40.544,0.0,0.0,0.0,0.0,0.0
253,0.0,0.374775390625,0.0,0.0,0.0,0.0,0.0,0.0,-0.398,0.0,0.0,0.0,0.0,0.0,0.0,0.3520083460337476,0.0,0.0,0.0,0.0,0.0,0.0,-40.708,0.0,0.0,0.0,0.0,0.0
254,0.0,0.370556640625,0.0,0.0,0.0,0.0,0.0,0.0,-0.413,0.0,0.0,0.0,0.0,0.0,0.0,0.34710450070271237,0.0,0.0,0.0,0.0,0.0,0.0,-41.248,0.0,0.0,0.0,0.0,0.0
255,0.0,0.36654296875,0.0,0.0,0.0,0.0,0.0,0.0,-0.417,0.0,0.0,0.0,0.0,0.0,0.0,0.3422508622461472,0.0,0.0,0.0,0.0,0.0,0.0,-41.68,0.0,0.0,0.0,0.0,0.0
256,0.0,0.3625234375,0.0,0.0,0.0,0.0,0.0,0.0,-0.405,0.0,0.0,0.0,0.0,0.0,0.0,0.33731801351395796,0.0,0.0,0.0,0.0,0.0,0.0,-41.624,0.0,0.0,0.0,0.0,0.0
257,0.0,0.3586123046875,0.0,0.0,0.0,0.0,0.0,0.0,-0.399,0.0,0.0,0.0,0.0,0.0,0.0,0.33222141265617183,0.0,0.0,0.0,0.0,0.0,0.0,-41.896,0.0,0.0,0.0,0.0,0.0
258,0.0,0.3548046875,0.0,0.0,0.0,0.0,0.0,0.0,-0.39,0.0,0.0,0.0,0.0,0.0,0.0,0.32731519171855467,0.0,0.0,0.0,0.0,0.0,0.0,-41.3,0.0,0.0,0.0,0.0,0.0
259,0.0,0.35078515625,0.0,0.0,0.0,0.0,0.0,0.0,-0.391,0.0,0.0,0.0,0.0,0.0,0.0,0.3222789158297839,0.0,0.0,0.0,0.0,0.0,0.0,-41.732,0.0,0.0,0.0,0.0,0.0
260,0.0,0.346662109375,0.0,0.0,0.0,0.0,0.0,0.0,-0.41,0.0,0.0,0.0,0.0,0.0,0.0,0.317159642956569,0.0,0.0,0.0,0.0,0.0,0.0,-42.112,0.0,0.0,0.0,0.0,0.0
261,0.0,0.3427451171875,0.0,0.0,0.0,0.0,0.0,0.0,-0.409,0.0,0.0,0.0,0.0,0.0,0.0,0.31206139838339725,0.0,0.0,0.0,0.0,0.0,0.0,-41.948,0.0,0.0,0.0,0.0,0.0
262,0.0,0.3388349609375,0.0,0.0,0.0,0.0,0.0,0.0,-0.397,0.0,0.0,0.0,0.0,0.0,0.0,0.3069701821988798,0.0,0.0,0.0,0.0,0.0,0.0,-42.328,0.0,0.0,0.0,0.0,0.0
263,0.0,0.33502734375,0.0,0.0,0.0,0.0,0.0,0.0,-0.388,0.0,0.0,0.0,0.0,0.0,0.0,0.3017509284631314,0.0,0.0,0.0,0.0,0.0,0.0,-42.436,0.0,0.0,0.0,0.0,0.0
264,0.0,0.331212890625,0.0,0.0,0.0,0.0,0.0,0.0,-0.382,0.0,0.0,0.0,0.0,0.0,0.0,0.29653425928577654,0.0,0.0,0.0,0.0,0.0,0.0,-41.896,0.0,0.0,0.0,0.0,0.0
265,0.0,0.32719921875,0.0,0.0,0.0,0.0,0.0,0.0,-0.392,0.0,0.0,0.0,0.0,0.0,0.0,0.29131664748112845,0.0,0.0,0.0,0.0,0.0,0.0,-42.328,0.0,0.0,0.0,0.0,0.0
266,0.0,0.3230830078125,0.0,0.0,0.0,0.0,0.0,0.0,-0.409,0.0,0.0,0.0,0.0,0.0,0.0,0.2860467868898928,0.0,0.0,0.0,0.0,0.0,0.0,-42.488,0.0,0.0,0.0,0.0,0.0
267,0.0,0.3190634765625,0.0,0.0,0.0,0.0,0.0,0.0,-0.412,0.0,0.0,0.0,0.0,0.0,0.0,0.28074290283232417,0.0,0.0,0.0,0.0,0.0,0.0,-42.76,0.0,0.0,0.0,0.0,0.0
268,0.0,0.3151533203125,0.0,0.0,0.0,0.0,0.0,0.0,-0.402,0.0,0.0,0.0,0.0,0.0,0.0,0.2754706391061731,0.0,0.0,0.0,0.0,0.0,0.0,-42.76,0.0,0.0,0.0,0.0,0.0
269,0.0,0.3113388671875,0.0,0.0,0.0,0.0,0.0,0.0,-0.387,0.0,0.0,0.0,0.0,0.0,0.0,0.27010039360953736,0.0,0.0,0.0,0.0,0.0,0.0,-42.92,0.0,0.0,0.0,0.0,0.0
270,0.0,0.30753125,0.0,0.0,0.0,0.0,0.0,0.0,-0.381,0.0,0.0,0.0,0.0,0.0,0.0,0.26470184536845315,0.0,0.0,0.0,0.0,0.0,0.0,-42.544,0.0,0.0,0.0,0.0,0.0
271,0.0,0.303517578125,0.0,0.0,0.0,0.0,0.0,0.0,-0.396,0.0,0.0,0.0,0.0,0.0,0.0,0.25937395122713003,0.0,0.0,0.0,0.0,0.0,0.0,-42.868,0.0,0.0,0.0,0.0,0.0
272,0.0,0.2992919921875,0.0,0.0,0.0,0.0,0.0,0.0,-0.415,0.0,0.0,0.0,0.0,0.0,0.0,0.2539278590381149,0.0,0.0,0.0,0.0,0.0,0.0,-42.868,0.0,0.0,0.0,0.0,0.0
273,0.0,0.29517578125,0.0,0.0,0.0,0.0,0.0,0.0,-0.417,0.0,0.0,0.0,0.0,0.0,0.0,0.24842009204625845,0.0,0.0,0.0,0.0,0.0,0.0,-42.76,0.0,0.0,0.0,0.0,0.0
274,0.0,0.291361328125,0.0,0.0,0.0,0.0,0.0,0.0,-0.403,0.0,0.0,0.0,0.0,0.0,0.0,0.24303121440977465,0.0,0.0,0.0,0.0,0.0,0.0,-42.868,0.0,0.0,0.0,0.0,0.0
275,0.0,0.2875537109375,0.0,0.0,0.0,0.0,0.0,0.0,-0.386,0.0,0.0,0.0,0.0,0.0,0.0,0.23748216495651012,0.0,0.0,0.0,0.0,0.0,0.0,-43.028,0.0,0.0,0.0,0.0,0.0
276,0.0,0.28374609375,0.0,0.0,0.0,0.0,0.0,0.0,-0.383,0.0,0.0,0.0,0.0,0.0,0.0,0.23192831795385133,0.0,0.0,0.0,0.0,0.0,0.0,-42.596,0.0,0.0,0.0,0.0,0.0
277,0.0,0.2796240234375,0.0,0.0,0.0,0.0,0.0,0.0,-0.397,0.0,0.0,0.0,0.0,0.0,0.0,0.22642373908915747,0.0,0.0,0.0,0.0,0.0,0.0,-42.976,0.0,0.0,0.0,0.0,0.0
278,0.0,0.275404296875,0.0,0.0,0.0,0.0,0.0,0.0,-0.421,0.0,0.0,0.0,0.0,0.0,0.0,0.22085548255390658,0.0,0.0,0.0,0.0,0.0,0.0,-43.084,0.0,0.0,0.0,0.0,0.0
279,0.0,0.27128125,0.0,0.0,0.0,0.0,0.0,0.0,-0.418,0.0,0.0,0.0,0.0,0.0,0.0,0.215221604857217,0.0,0.0,0.0,0.0,0.0,0.0,-42.976,0.0,0.0,0.0,0.0,0.0
280,0.0,0.2674736328125,0.0,0.0,0.0,0.0,0.0,0.0,-0.405,0.0,0.0,0.0,0.0,0.0,0.0,0.209629934789277,0.0,0.0,0.0,0.0,0.0,0.0,-43.084,0.0,0.0,0.0,0.0,0.0
281,0.0,0.263666015625,0.0,0.0,0.0,0.0,0.0,0.0,-0.384,0.0,0.0,0.0,0.0,0.0,0.0,0.20401112582050798,0.0,0.0,0.0,0.0,0.0,0.0,-43.404,0.0,0.0,0.0,0.0,0.0
282,0.0,0.2598525390625,0.0,0.0,0.0,0.0,0.0,0.0,-0.38,0.0,0.0,0.0,0.0,0.0,0.0,0.19833245571714064,0.0,0.0,0.0,0.0,0.0,0.0,-43.244,0.0,0.0,0.0,0.0,0.0
283,0.0,0.2556328125,0.0,0.0,0.0,0.0,0.0,0.0,-0.401,0.0,0.0,0.0,0.0,0.0,0.0,0.1926906694394611,0.0,0.0,0.0,0.0,0.0,0.0,-43.62,0.0,0.0,0.0,0.0,0.0
284,0.0,0.2514072265625,0.0,0.0,0.0,0.0,0.0,0.0,-0.427,0.0,0.0,0.0,0.0,0.0,0.0,0.18700521994122873,0.0,0.0,0.0,0.0,0.0,0.0,-43.352,0.0,0.0,0.0,0.0,0.0
285,0.0,0.2473935546875,0.0,0.0,0.0,0.0,0.0,0.0,-0.419,0.0,0.0,0.0,0.0,0.0,0.0,0.18126047413269458,0.0,0.0,0.0,0.0,0.0,0.0,-43.136,0.0,0.0,0.0,0.0,0.0
286,0.0,0.2434833984375,0.0,0.0,0.0,0.0,0.0,0.0,-0.399,0.0,0.0,0.0,0.0,0.0,0.0,0.1755869826352156,0.0,0.0,0.0,0.0,0.0,0.0,-43.296,0.0,0.0,0.0,0.0,0.0
287,0.0,0.2397724609375,0.0,0.0,0.0,0.0,0.0,0.0,-0.387,0.0,0.0,0.0,0.0,0.0,0.0,0.16982314134147725,0.0,0.0,0.0,0.0,0.0,0.0,-43.404,0.0,0.0,0.0,0.0,0.0
288,0.0,0.235861328125,0.0,0.0,0.0,0.0,0.0,0.0,-0.379,0.0,0.0,0.0,0.0,0.0,0.0,0.1640127656878986,0.0,0.0,0.0,0.0,0.0,0.0,-43.084,0.0,0.0,0.0,0.0,0.0
289,0.0,0.2317392578125,0.0,0.0,0.0,0.0,0.0,0.0,-0.404,0.0,0.0,0.0,0.0,0.0,0.0,0.15831818509673556,0.0,0.0,0.0,0.0,0.0,0.0,-43.512,0.0,0.0,0.0,0.0,0.0
290,0.0,0.22751953125,0.0,0.0,0.0,0.0,0.0,0.0,-0.421,0.0,0.0,0.0,0.0,0.0,0.0,0.1524986612093007,0.0,0.0,0.0,0.0,0.0,0.0,-43.512,0.0,0.0,0.0,0.0,0.0
291,0.0,0.223505859375,0.0,0.0,0.0,0.0,0.0,0.0,-0.421,0.0,0.0,0.0,0.0,0.0,0.0,0.14662186807361224,0.0,0.0,0.0,0.0,0.0,0.0,-43.46,0.0,0.0,0.0,0.0,0.0
292,0.0,0.21958984375,0.0,0.0,0.0,0.0,0.0,0.0,-0.4,0.0,0.0,0.0,0.0,0.0,0.0,0.14088234336588057,0.0,0.0,0.0,0.0,0.0,0.0,-43.728,0.0,0.0,0.0,0.0,0.0
293,0.0,0.215884765625,0.0,0.0,0.0,0.0,0.0,0.0,-0.38,0.0,0.0,0.0,0.0,0.0,0.0,0.1350325525704422,0.0,0.0,0.0,0.0,0.0,0.0,-44.0,0.0,0.0,0.0,0.0,0.0
294,0.0,0.2120703125,0.0,0.0,0.0,0.0,0.0,0.0,-0.376,0.0,0.0,0.0,0.0,0.0,0.0,0.12910299253687454,0.0,0.0,0.0,0.0,0.0,0.0,-43.892,0.0,0.0,0.0,0.0,0.0
295,0.0,0.2078515625,0.0,0.0,0.0,0.0,0.0,0.0,-0.4,0.0,0.0,0.0,0.0,0.0,0.0,0.12333644230417566,0.0,0.0,0.0,0.0,0.0,0.0,-44.16,0.0,0.0,0.0,0.0,0.0
296,0.0,0.2036259765625,0.0,0.0,0.0,0.0,0.0,0.0,-0.425,0.0,0.0,0.0,0.0,0.0,0.0,0.11747801215615711,0.0,0.0,0.0,0.0,0.0,0.0,-44.052,0.0,0.0,0.0,0.0,0.0
297,0.0,0.1996123046875,0.0,0.0,0.0,0.0,0.0,0.0,-0.417,0.0,0.0,0.0,0.0,0.0,0.0,0.11145456331597874,0.0,0.0,0.0,0.0,0.0,0.0,-43.836,0.0,0.0,0.0,0.0,0.0
298,0.0,0.1958046875,0.0,0.0,0.0,0.0,0.0,0.0,-0.401,0.0,0.0,0.0,0.0,0.0,0.0,0.10564434866098081,0.0,0.0,0.0,0.0,0.0,0.0,-43.836,0.0,0.0,0.0,0.0,0.0
299,0.0,0.191990234375,0.0,0.0,0.0,0.0,0.0,0.0,-0.38,0.0,0.0,0.0,0.0,0.0,0.0,0.09973234463208817,0.0,0.0,0.0,0.0,0.0,0.0,-43.676,0.0,0.0,0.0,0.0,0.0
300,0.0,0.188080078125,0.0,0.0,0.0,0.0,0.0,0.0,-0.385,0.0,0.0,0.0,0.0,0.0,0.0,0.09380330096940527,0.0,0.0,0.0,0.0,0.0,0.0,-43.46,0.0,0.0,0.0,0.0,0.0
301,0.0,0.1838544921875,0.0,0.0,0.0,0.0,0.0,0.0,-0.406,0.0,0.0,0.0,0.0,0.0,0.0,0.08790037149612247,0.0,0.0,0.0,0.0,0.0,0.0,-43.836,0.0,0.0,0.0,0.0,0.0
302,0.0,0.179634765625,0.0,0.0,0.0,0.0,0.0,0.0,-0.428,0.0,0.0,0.0,0.0,0.0,0.0,0.08198632539278017,0.0,0.0,0.0,0.0,0.0,0.0,-43.784,0.0,0.0,0.0,0.0,0.0
303,0.0,0.1756220703125,0.0,0.0,0.0,0.0,0.0,0.0,-0.42,0.0,0.0,0.0,0.0,0.0,0.0,0.07598383658351057,0.0,0.0,0.0,0.0,0.0,0.0,-43.676,0.0,0.0,0.0,0.0,0.0
304,0.0,0.171705078125,0.0,0.0,0.0,0.0,0.0,0.0,-0.398,0.0,0.0,0.0,0.0,0.0,0.0,0.07006950869629393,0.0,0.0,0.0,0.0,0.0,0.0,-44.0,0.0,0.0,0.0,0.0,0.0
305,0.0,0.1681025390625,0.0,0.0,0.0,0.0,0.0,0.0,-0.381,0.0,0.0,0.0,0.0,0.0,0.0,0.06409649774978951,0.0,0.0,0.0,0.0,0.0,0.0,-44.052,0.0,0.0,0.0,0.0,0.0
306,0.0,0.1640830078125,0.0,0.0,0.0,0.0,0.0,0.0,-0.381,0.0,0.0,0.0,0.0,0.0,0.0,0.05807519485498634,0.0,0.0,0.0,0.0,0.0,0.0,-44.108,0.0,0.0,0.0,0.0,0.0
307,0.0,0.1598642578125,0.0,0.0,0.0,0.0,0.0,0.0,-0.409,0.0,0.0,0.0,0.0,0.0,0.0,0.05216085036583116,0.0,0.0,0.0,0.0,0.0,0.0,-44.268,0.0,0.0,0.0,0.0,0.0
308,0.0,0.1557412109375,0.0,0.0,0.0,0.0,0.0,0.0,-0.422,0.0,0.0,0.0,0.0,0.0,0.0,0.04617692744679685,0.0,0.0,0.0,0.0,0.0,0.0,-44.16,0.0,0.0,0.0,0.0,0.0
309,0.0,0.151625,0.0,0.0,0.0,0.0,0.0,0.0,-0.416,0.0,0.0,0.0,0.0,0.0,0.0,0.04016083358265438,0.0,0.0,0.0,0.0,0.0,0.0,-44.108,0.0,0.0,0.0,0.0,0.0
310,0.0,0.147919921875,0.0,0.0,0.0,0.0,0.0,0.0,-0.4,0.0,0.0,0.0,0.0,0.0,0.0,0.03418724006537011,0.0,0.0,0.0,0.0,0.0,0.0,-44.108,0.0,0.0,0.0,0.0,0.0
311,0.0,0.144208984375,0.0,0.0,0.0,0.0,0.0,0.0,-0.376,0.0,0.0,0.0,0.0,0.0,0.0,0.028209244540933327,0.0,0.0,0.0,0.0,0.0,0.0,-44.0,0.0,0.0,0.0,0.0,0.0
312,0.0,0.1401884765625,0.0,0.0,0.0,0.0,0.0,0.0,-0.384,0.0,0.0,0.0,0.0,0.0,0.0,0.022180408892773045,0.0,0.0,0.0,0.0,0.0,0.0,-43.944,0.0,0.0,0.0,0.0,0.0
313,0.0,0.135962890625,0.0,0.0,0.0,0.0,0.0,0.0,-0.413,0.0,0.0,0.0,0.0,0.0,0.0,0.01620209656427378,0.0,0.0,0.0,0.0,0.0,0.0,-44.16,0.0,0.0,0.0,0.0,0.0
314,0.0,0.131744140625,0.0,0.0,0.0,0.0,0.0,0.0,-0.425,0.0,0.0,0.0,0.0,0.0,0.0,0.010221601948914416,0.0,0.0,0.0,0.0,0.0,0.0,-44.16,0.0,0.0,0.0,0.0,0.0
315,0.0,0.127724609375,0.0,0.0,0.0,0.0,0.0,0.0,-0.418,0.0,0.0,0.0,0.0,0.0,0.0,0.004196747889402599,0.0,0.0,0.0,0.0,0.0,0.0,-43.944,0.0,0.0,0.0,0.0,0.0
316,0.0,0.12401953125,0.0,0.0,0.0,0.0,0.0,0.0,-0.393,0.0,0.0,0.0,0.0,0.0,0.0,-0.0017972013317833456,0.0,0.0,0.0,0.0,0.0,0.0,-44.376,0.0,0.0,0.0,0.0,0.0
317,0.0,0.120314453125,0.0,0.0,0.0,0.0,0.0,0.0,-0.375,0.0,0.0,0.0,0.0,0.0,0.0,-0.007781959731052672,0.0,0.0,0.0,0.0,0.0,0.0,-44.376,0.0,0.0,0.0,0.0,0.0
318,0.0,0.116294921875,0.0,0.0,0.0,0.0,0.0,0.0,-0.385,0.0,0.0,0.0,0.0,0.0,0.0,-0.013786966808501432,0.0,0.0,0.0,0.0,0.0,0.0,-44.324,0.0,0.0,0.0,0.0,0.0
319,0.0,0.1120751953125,0.0,0.0,0.0,0.0,0.0,0.0,-0.408,0.0,0.0,0.0,0.0,0.0,0.0,-0.019822904379990278,0.0,0.0,0.0,0.0,0.0,0.0,-44.648,0.0,0.0,0.0,0.0,0.0
320,0.0,0.107953125,0.0,0.0,0.0,0.0,0.0,0.0,-0.423,0.0,0.0,0.0,0.0,0.0,0.0,-0.025752646473230095,0.0,0.0,0.0,0.0,0.0,0.0,-44.54,0.0,0.0,0.0,0.0,0.0
321,0.0,0.1039462890625,0.0,0.0,0.0,0.0,0.0,0.0,-0.414,0.0,0.0,0.0,0.0,0.0,0.0,-0.03182300603200777,0.0,0.0,0.0,0.0,0.0,0.0,-44.324,0.0,0.0,0.0,0.0,0.0
322,0.0,0.1001318359375,0.0,0.0,0.0,0.0,0.0,0.0,-0.392,0.0,0.0,0.0,0.0,0.0,0.0,-0.03786497391842603,0.0,0.0,0.0,0.0,0.0,0.0,-44.484,0.0,0.0,0.0,0.0,0.0
323,0.0,0.0964267578125,0.0,0.0,0.0,0.0,0.0,0.0,-0.377,0.0,0.0,0.0,0.0,0.0,0.0,-0.04378096471305636,0.0,0.0,0.0,0.0,0.0,0.0,-44.324,0.0,0.0,0.0,0.0,0.0
324,0.0,0.0924140625,0.0,0.0,0.0,0.0,0.0,0.0,-0.387,0.0,0.0,0.0,0.0,0.0,0.0,-0.04977051652413407,0.0,0.0,0.0,0.0,0.0,0.0,-44.324,0.0,0.0,0.0,0.0,0.0
325,0.0,0.0881875,0.0,0.0,0.0,0.0,0.0,0.0,-0.412,0.0,0.0,0.0,0.0,0.0,0.0,-0.0557878375907595,0.0,0.0,0.0,0.0,0.0,0.0,-44.592,0.0,0.0,0.0,0.0,0.0
326,0.0,0.0840712890625,0.0,0.0,0.0,0.0,0.0,0.0,-0.423,0.0,0.0,0.0,0.0,0.0,0.0,-0.0616765637114811,0.0,0.0,0.0,0.0,0.0,0.0,-44.484,0.0,0.0,0.0,0.0,0.0
327,0.0,0.0800517578125,0.0,0.0,0.0,0.0,0.0,0.0,-0.415,0.0,0.0,0.0,0.0,0.0,0.0,-0.06767868877839407,0.0,0.0,0.0,0.0,0.0,0.0,-44.376,0.0,0.0,0.0,0.0,0.0
328,0.0,0.076244140625,0.0,0.0,0.0,0.0,0.0,0.0,-0.395,0.0,0.0,0.0,0.0,0.0,0.0,-0.07370420078006061,0.0,0.0,0.0,0.0,0.0,0.0,-44.648,0.0,0.0,0.0,0.0,0.0
329,0.0,0.0724296875,0.0,0.0,0.0,0.0,0.0,0.0,-0.381,0.0,0.0,0.0,0.0,0.0,0.0,-0.07954125640449981,0.0,0.0,0.0,0.0,0.0,0.0,-44.54,0.0,0.0,0.0,0.0,0.0
330,0.0,0.06851953125,0.0,0.0,0.0,0.0,0.0,0.0,-0.385,0.0,0.0,0.0,0.0,0.0,0.0,-0.08548365109317424,0.0,0.0,0.0,0.0,0.0,0.0,-44.376,0.0,0.0,0.0,0.0,0.0
331,0.0,0.0642939453125,0.0,0.0,0.0,0.0,0.0,0.0,-0.412,0.0,0.0,0.0,0.0,0.0,0.0,-0.09142174056168353,0.0,0.0,0.0,0.0,0.0,0.0,-44.756,0.0,0.0,0.0,0.0,0.0
332,0.0,0.06007421875,0.0,0.0,0.0,0.0,0.0,0.0,-0.429,0.0,0.0,0.0,0.0,0.0,0.0,-0.09735222932398396,0.0,0.0,0.0,0.0,0.0,0.0,-44.54,0.0,0.0,0.0,0.0,0.0
333,0.0,0.0560546875,0.0,0.0,0.0,0.0,0.0,0.0,-0.416,0.0,0.0,0.0,0.0,0.0,0.0,-0.10326479262986543,0.0,0.0,0.0,0.0,0.0,0.0,-44.16,0.0,0.0,0.0,0.0,0.0
334,0.0,0.0522470703125,0.0,0.0,0.0,0.0,0.0,0.0,-0.396,0.0,0.0,0.0,0.0,0.0,0.0,-0.10927689615137033,0.0,0.0,0.0,0.0,0.0,0.0,-44.432,0.0,0.0,0.0,0.0,0.0
335,0.0,0.0485419921875,0.0,0.0,0.0,0.0,0.0,0.0,-0.377,0.0,0.0,0.0,0.0,0.0,0.0,-0.11508491628499601,0.0,0.0,0.0,0.0,0.0,0.0,-44.268,0.0,0.0,0.0,0.0,0.0
336,0.0,0.0445224609375,0.0,0.0,0.0,0.0,0.0,0.0,-0.385,0.0,0.0,0.0,0.0,0.0,0.0,-0.1209354266080403,0.0,0.0,0.0,0.0,0.0,0.0,-44.376,0.0,0.0,0.0,0.0,0.0
337,0.0,0.0403037109375,0.0,0.0,0.0,0.0,0.0,0.0,-0.413,0.0,0.0,0.0,0.0,0.0,0.0,-0.12686765459494817,0.0,0.0,0.0,0.0,0.0,0.0,-44.592,0.0,0.0,0.0,0.0,0.0
338,0.0,0.0360771484375,0.0,0.0,0.0,0.0,0.0,0.0,-0.429,0.0,0.0,0.0,0.0,0.0,0.0,-0.13269624922683815,0.0,0.0,0.0,0.0,0.0,0.0,-44.484,0.0,0.0,0.0,0.0,0.0
339,0.0,0.032064453125,0.0,0.0,0.0,0.0,0.0,0.0,-0.415,0.0,0.0,0.0,0.0,0.0,0.0,-0.13852576477282896,0.0,0.0,0.0,0.0,0.0,0.0,-44.268,0.0,0.0,0.0,0.0,0.0
340,0.0,0.028353515625,0.0,0.0,0.0,0.0,0.0,0.0,-0.39,0.0,0.0,0.0,0.0,0.0,0.0,-0.14440509223750295,0.0,0.0,0.0,0.0,0.0,0.0,-44.592,0.0,0.0,0.0,0.0,0.0
341,0.0,0.0246484375,0.0,0.0,0.0,0.0,0.0,0.0,-0.374,0.0,0.0,0.0,0.0,0.0,0.0,-0.15019231963762286,0.0,0.0,0.0,0.0,0.0,0.0,-44.592,0.0,0.0,0.0,0.0,0.0
342,0.0,0.02062890625,0.0,0.0,0.0,0.0,0.0,0.0,-0.386,0.0,0.0,0.0,0.0,0.0,0.0,-0.15600349319297802,0.0,0.0,0.0,0.0,0.0,0.0,-44.756,0.0,0.0,0.0,0.0,0.0
343,0.0,0.0164091796875,0.0,0.0,0.0,0.0,0.0,0.0,-0.413,0.0,0.0,0.0,0.0,0.0,0.0,-0.16187656644976173,0.0,0.0,0.0,0.0,0.0,0.0,-45.024,0.0,0.0,0.0,0.0,0.0
344,0.0,0.0121904296875,0.0,0.0,0.0,0.0,0.0,0.0,-0.426,0.0,0.0,0.0,0.0,0.0,0.0,-0.16758530491215948,0.0,0.0,0.0,0.0,0.0,0.0,-44.484,0.0,0.0,0.0,0.0,0.0
345,0.0,0.0082734375,0.0,0.0,0.0,0.0,0.0,0.0,-0.417,0.0,0.0,0.0,0.0,0.0,0.0,-0.17331105249316517,0.0,0.0,0.0,0.0,0.0,0.0,-44.376,0.0,0.0,0.0,0.0,0.0
346,0.0,0.004568359375,0.0,0.0,0.0,0.0,0.0,0.0,-0.388,0.0,0.0,0.0,0.0,0.0,0.0,-0.1791410074992149,0.0,0.0,0.0,0.0,0.0,0.0,-44.54,0.0,0.0,0.0,0.0,0.0
347,0.0,0.000857421875,0.0,0.0,0.0,0.0,0.0,0.0,-0.372,0.0,0.0,0.0,0.0,0.0,0.0,-0.1847835628594621,0.0,0.0,0.0,0.0,0.0,0.0,-44.592,0.0,0.0,0.0,0.0,0.0
348,0.0,-0.00315625,0.0,0.0,0.0,0.0,0.0,0.0,-0.384,0.0,0.0,0.0,0.0,0.0,0.0,-0.19048422235410056,0.0,0.0,0.0,0.0,0.0,0.0,-44.592,0.0,0.0,0.0,0.0,0.0
349,0.0,-0.0074853515625,0.0,0.0,0.0,0.0,0.0,0.0,-0.416,0.0,0.0,0.0,0.0,0.0,0.0,-0.1961902918619304,0.0,0.0,0.0,0.0,0.0,0.0,-44.808,0.0,0.0,0.0,0.0,0.0
350,0.0,-0.0117041015625,0.0,0.0,0.0,0.0,0.0,0.0,-0.431,0.0,0.0,0.0,0.0,0.0,0.0,-0.20180772280973133,0.0,0.0,0.0,0.0,0.0,0.0,-44.484,0.0,0.0,0.0,0.0,0.0
351,0.0,-0.01562109375,0.0,0.0,0.0,0.0,0.0,0.0,-0.418,0.0,0.0,0.0,0.0,0.0,0.0,-0.207453601020702,0.0,0.0,0.0,0.0,0.0,0.0,-44.432,0.0,0.0,0.0,0.0,0.0
352,0.0,-0.019326171875,0.0,0.0,0.0,0.0,0.0,0.0,-0.387,0.0,0.0,0.0,0.0,0.0,0.0,-0.2131240251284497,0.0,0.0,0.0,0.0,0.0,0.0,-44.7,0.0,0.0,0.0,0.0,0.0
353,0.0,-0.023037109375,0.0,0.0,0.0,0.0,0.0,0.0,-0.371,0.0,0.0,0.0,0.0,0.0,0.0,-0.21864553364628683,0.0,0.0,0.0,0.0,0.0,0.0,-44.756,0.0,0.0,0.0,0.0,0.0
354,0.0,-0.02705078125,0.0,0.0,0.0,0.0,0.0,0.0,-0.384,0.0,0.0,0.0,0.0,0.0,0.0,-0.2242614766409182,0.0,0.0,0.0,0.0,0.0,0.0,-44.756,0.0,0.0,0.0,0.0,0.0
355,0.0,-0.0313720703125,0.0,0.0,0.0,0.0,0.0,0.0,-0.419,0.0,0.0,0.0,0.0,0.0,0.0,-0.22981476769328157,0.0,0.0,0.0,0.0,0.0,0.0,-44.916,0.0,0.0,0.0,0.0,0.0
356,0.0,-0.0355986328125,0.0,0.0,0.0,0.0,0.0,0.0,-0.432,0.0,0.0,0.0,0.0,0.0,0.0,-0.2353494242620903,0.0,0.0,0.0,0.0,0.0,0.0,-44.376,0.0,0.0,0.0,0.0,0.0
357,0.0,-0.039611328125,0.0,0.0,0.0,0.0,0.0,0.0,-0.415,0.0,0.0,0.0,0.0,0.0,0.0,-0.24083195114795136,0.0,0.0,0.0,0.0,0.0,0.0,-44.16,0.0,0.0,0.0,0.0,0.0
358,0.0,-0.0432197265625,0.0,0.0,0.0,0.0,0.0,0.0,-0.388,0.0,0.0,0.0,0.0,0.0,0.0,-0.2463820492378465,0.0,0.0,0.0,0.0,0.0,0.0,-44.54,0.0,0.0,0.0,0.0,0.0
359,0.0,-0.04702734375,0.0,0.0,0.0,0.0,0.0,0.0,-0.372,0.0,0.0,0.0,0.0,0.0,0.0,-0.2517892699531989,0.0,0.0,0.0,0.0,0.0,0.0,-44.484,0.0,0.0,0.0,0.0,0.0
360,0.0,-0.0510478515625,0.0,0.0,0.0,0.0,0.0,0.0,-0.389,0.0,0.0,0.0,0.0,0.0,0.0,-0.25723459395035886,0.0,0.0,0.0,0.0,0.0,0.0,-44.484,0.0,0.0,0.0,0.0,0.0
361,0.0,-0.055369140625,0.0,0.0,0.0,0.0,0.0,0.0,-0.417,0.0,0.0,0.0,0.0,0.0,0.0,-0.2626821197920667,0.0,0.0,0.0,0.0,0.0,0.0,-44.592,0.0,0.0,0.0,0.0,0.0
362,0.0,-0.059595703125,0.0,0.0,0.0,0.0,0.0,0.0,-0.433,0.0,0.0,0.0,0.0,0.0,0.0,-0.2679527340371355,0.0,0.0,0.0,0.0,0.0,0.0,-44.324,0.0,0.0,0.0,0.0,0.0
363,0.0,-0.063505859375,0.0,0.0,0.0,0.0,0.0,0.0,-0.415,0.0,0.0,0.0,0.0,0.0,0.0,-0.2733740269286299,0.0,0.0,0.0,0.0,0.0,0.0,-44.216,0.0,0.0,0.0,0.0,0.0
364,0.0,-0.067216796875,0.0,0.0,0.0,0.0,0.0,0.0,-0.383,0.0,0.0,0.0,0.0,0.0,0.0,-0.27868153752624564,0.0,0.0,0.0,0.0,0.0,0.0,-44.7,0.0,0.0,0.0,0.0,0.0
365,0.0,-0.070921875,0.0,0.0,0.0,0.0,0.0,0.0,-0.373,0.0,0.0,0.0,0.0,0.0,0.0,-0.28397524886634823,0.0,0.0,0.0,0.0,0.0,0.0,-44.592,0.0,0.0,0.0,0.0,0.0
366,0.0,-0.07494140625,0.0,0.0,0.0,0.0,0.0,0.0,-0.387,0.0,0.0,0.0,0.0,0.0,0.0,-0.2892353612684985,0.0,0.0,0.0,0.0,0.0,0.0,-44.592,0.0,0.0,0.0,0.0,0.0
367,0.0,-0.079263671875,0.0,0.0,0.0,0.0,0.0,0.0,-0.419,0.0,0.0,0.0,0.0,0.0,0.0,-0.2945336000159083,0.0,0.0,0.0,0.0,0.0,0.0,-44.648,0.0,0.0,0.0,0.0,0.0
368,0.0,-0.0834892578125,0.0,0.0,0.0,0.0,0.0,0.0,-0.434,0.0,0.0,0.0,0.0,0.0,0.0,-0.2997285160648839,0.0,0.0,0.0,0.0,0.0,0.0,-44.108,0.0,0.0,0.0,0.0,0.0
369,0.0,-0.0873994140625,0.0,0.0,0.0,0.0,0.0,0.0,-0.411,0.0,0.0,0.0,0.0,0.0,0.0,-0.3048707457514536,0.0,0.0,0.0,0.0,0.0,0.0,-44.108,0.0,0.0,0.0,0.0,0.0
370,0.0,-0.0911044921875,0.0,0.0,0.0,0.0,0.0,0.0,-0.384,0.0,0.0,0.0,0.0,0.0,0.0,-0.31074359729159495,0.0,0.0,0.0,0.0,0.0,0.0,-44.54,0.0,0.0,0.0,0.0,0.0
371,0.0,-0.0948154296875,0.0,0.0,0.0,0.0,0.0,0.0,-0.371,0.0,0.0,0.0,0.0,0.0,0.0,-0.31516911417711313,0.0,0.0,0.0,0.0,0.0,0.0,-44.268,0.0,0.0,0.0,0.0,0.0
372,0.0,-0.0988291015625,0.0,0.0,0.0,0.0,0.0,0.0,-0.386,0.0,0.0,0.0,0.0,0.0,0.0,-0.320257867967282,0.0,0.0,0.0,0.0,0.0,0.0,-44.324,0.0,0.0,0.0,0.0,0.0
373,0.0,-0.1031513671875,0.0,0.0,0.0,0.0,0.0,0.0,-0.423,0.0,0.0,0.0,0.0,0.0,0.0,-0.3253543935287083,0.0,0.0,0.0,0.0,0.0,0.0,-44.376,0.0,0.0,0.0,0.0,0.0
374,0.0,-0.1073701171875,0.0,0.0,0.0,0.0,0.0,0.0,-0.432,0.0,0.0,0.0,0.0,0.0,0.0,-0.33039125304408007,0.0,0.0,0.0,0.0,0.0,0.0,-44.108,0.0,0.0,0.0,0.0,0.0
375,0.0,-0.111287109375,0.0,0.0,0.0,0.0,0.0,0.0,-0.411,0.0,0.0,0.0,0.0,0.0,0.0,-0.33533287820993307,0.0,0.0,0.0,0.0,0.0,0.0,-44.16,0.0,0.0,0.0,0.0,0.0
376,0.0,-0.1149921875,0.0,0.0,0.0,0.0,0.0,0.0,-0.385,0.0,0.0,0.0,0.0,0.0,0.0,-0.3402944279108236,0.0,0.0,0.0,0.0,0.0,0.0,-44.54,0.0,0.0,0.0,0.0,0.0
377,0.0,-0.118703125,0.0,0.0,0.0,0.0,0.0,0.0,-0.371,0.0,0.0,0.0,0.0,0.0,0.0,-0.34526706870278795,0.0,0.0,0.0,0.0,0.0,0.0,-44.432,0.0,0.0,0.0,0.0,0.0
378,0.0,-0.122716796875,0.0,0.0,0.0,0.0,0.0,0.0,-0.386,0.0,0.0,0.0,0.0,0.0,0.0,-0.3500710270183939,0.0,0.0,0.0,0.0,0.0,0.0,-44.484,0.0,0.0,0.0,0.0,0.0
379,0.0,-0.127044921875,0.0,0.0,0.0,0.0,0.0,0.0,-0.422,0.0,0.0,0.0,0.0,0.0,0.0,-0.3549417799181085,0.0,0.0,0.0,0.0,0.0,0.0,-44.484,0.0,0.0,0.0,0.0,0.0
380,0.0,-0.1312646484375,0.0,0.0,0.0,0.0,0.0,0.0,-0.431,0.0,0.0,0.0,0.0,0.0,0.0,-0.35980760644816095,0.0,0.0,0.0,0.0,0.0,0.0,-44.052,0.0,0.0,0.0,0.0,0.0
381,0.0,-0.135181640625,0.0,0.0,0.0,0.0,0.0,0.0,-0.411,0.0,0.0,0.0,0.0,0.0,0.0,-0.3645580257202133,0.0,0.0,0.0,0.0,0.0,0.0,-43.944,0.0,0.0,0.0,0.0,0.0
382,0.0,-0.13888671875,0.0,0.0,0.0,0.0,0.0,0.0,-0.383,0.0,0.0,0.0,0.0,0.0,0.0,-0.3692773401203138,0.0,0.0,0.0,0.0,0.0,0.0,-44.268,0.0,0.0,0.0,0.0,0.0
383,0.0,-0.14259765625,0.0,0.0,0.0,0.0,0.0,0.0,-0.371,0.0,0.0,0.0,0.0,0.0,0.0,-0.37404550937443415,0.0,0.0,0.0,0.0,0.0,0.0,-44.052,0.0,0.0,0.0,0.0,0.0
384,0.0,-0.146611328125,0.0,0.0,0.0,0.0,0.0,0.0,-0.389,0.0,0.0,0.0,0.0,0.0,0.0,-0.3786757133431091,0.0,0.0,0.0,0.0,0.0,0.0,-44.052,0.0,0.0,0.0,0.0,0.0
385,0.0,-0.1510419921875,0.0,0.0,0.0,0.0,0.0,0.0,-0.422,0.0,0.0,0.0,0.0,0.0,0.0,-0.38332464537196237,0.0,0.0,0.0,0.0,0.0,0.0,-44.16,0.0,0.0,0.0,0.0,0.0
386,0.0,-0.1551591796875,0.0,0.0,0.0,0.0,0.0,0.0,-0.431,0.0,0.0,0.0,0.0,0.0,0.0,-0.38792770301105056,0.0,0.0,0.0,0.0,0.0,0.0,-43.892,0.0,0.0,0.0,0.0,0.0
387,0.0,-0.159076171875,0.0,0.0,0.0,0.0,0.0,0.0,-0.409,0.0,0.0,0.0,0.0,0.0,0.0,-0.39247324859724175,0.0,0.0,0.0,0.0,0.0,0.0,-43.836,0.0,0.0,0.0,0.0,0.0
388,0.0,-0.1627802734375,0.0,0.0,0.0,0.0,0.0,0.0,-0.384,0.0,0.0,0.0,0.0,0.0,0.0,-0.39699992363104436,0.0,0.0,0.0,0.0,0.0,0.0,-44.268,0.0,0.0,0.0,0.0,0.0
389,0.0,-0.1664853515625,0.0,0.0,0.0,0.0,0.0,0.0,-0.371,0.0,0.0,0.0,0.0,0.0,0.0,-0.40152162408986725,0.0,0.0,0.0,0.0,0.0,0.0,-44.108,0.0,0.0,0.0,0.0,0.0
390,0.0,-0.170607421875,0.0,0.0,0.0,0.0,0.0,0.0,-0.394,0.0,0.0,0.0,0.0,0.0,0.0,-0.40589716479825627,0.0,0.0,0.0,0.0,0.0,0.0,-44.216,0.0,0.0,0.0,0.0,0.0
391,0.0,-0.1749296875,0.0,0.0,0.0,0.0,0.0,0.0,-0.424,0.0,0.0,0.0,0.0,0.0,0.0,-0.41029683101879044,0.0,0.0,0.0,0.0,0.0,0.0,-43.944,0.0,0.0,0.0,0.0,0.0
392,0.0,-0.179052734375,0.0,0.0,0.0,0.0,0.0,0.0,-0.429,0.0,0.0,0.0,0.0,0.0,0.0,-0.4146974179777057,0.0,0.0,0.0,0.0,0.0,0.0,-43.728,0.0,0.0,0.0,0.0,0.0
393,0.0,-0.182962890625,0.0,0.0,0.0,0.0,0.0,0.0,-0.41,0.0,0.0,0.0,0.0,0.0,0.0,-0.4189600704395036,0.0,0.0,0.0,0.0,0.0,0.0,-43.62,0.0,0.0,0.0,0.0,0.0
394,0.0,-0.1866748046875,0.0,0.0,0.0,0.0,0.0,0.0,-0.386,0.0,0.0,0.0,0.0,0.0,0.0,-0.42323407269151164,0.0,0.0,0.0,0.0,0.0,0.0,-43.892,0.0,0.0,0.0,0.0,0.0
395,0.0,-0.190482421875,0.0,0.0,0.0,0.0,0.0,0.0,-0.371,0.0,0.0,0.0,0.0,0.0,0.0,-0.4275617072915146,0.0,0.0,0.0,0.0,0.0,0.0,-43.568,0.0,0.0,0.0,0.0,0.0
396,0.0,-0.1945986328125,0.0,0.0,0.0,0.0,0.0,0.0,-0.391,0.0,0.0,0.0,0.0,0.0,0.0,-0.4316604478987794,0.0,0.0,0.0,0.0,0.0,0.0,-43.676,0.0,0.0,0.0,0.0,0.0
397,0.0,-0.1989208984375,0.0,0.0,0.0,0.0,0.0,0.0,-0.426,0.0,0.0,0.0,0.0,0.0,0.0,-0.4358070409465328,0.0,0.0,0.0,0.0,0.0,0.0,-43.728,0.0,0.0,0.0,0.0,0.0
398,0.0,-0.20304296875,0.0,0.0,0.0,0.0,0.0,0.0,-0.43,0.0,0.0,0.0,0.0,0.0,0.0,-0.43995118190058136,0.0,0.0,0.0,0.0,0.0,0.0,-43.352,0.0,0.0,0.0,0.0,0.0
399,0.0,-0.2068505859375,0.0,0.0,0.0,0.0,0.0,0.0,-0.405,0.0,0.0,0.0,0.0,0.0,0.0,-0.4439753704993754,0.0,0.0,0.0,0.0,0.0,0.0,-43.404,0.0,0.0,0.0,0.0,0.0
400,0.0,-0.2106650390625,0.0,0.0,0.0,0.0,0.0,0.0,-0.385,0.0,0.0,0.0,0.0,0.0,0.0,-0.447968267456424,0.0,0.0,0.0,0.0,0.0,0.0,-43.892,0.0,0.0,0.0,0.0,0.0
401,0.0,-0.2143701171875,0.0,0.0,0.0,0.0,0.0,0.0,-0.375,0.0,0.0,0.0,0.0,0.0,0.0,-0.4519697119075561,0.0,0.0,0.0,0.0,0.0,0.0,-43.676,0.0,0.0,0.0,0.0,0.0
402,0.0,-0.2184921875,0.0,0.0,0.0,0.0,0.0,0.0,-0.391,0.0,0.0,0.0,0.0,0.0,0.0,-0.4559049423396472,0.0,0.0,0.0,0.0,0.0,0.0,-43.676,0.0,0.0,0.0,0.0,0.0
403,0.0,-0.222814453125,0.0,0.0,0.0,0.0,0.0,0.0,-0.427,0.0,0.0,0.0,0.0,0.0,0.0,-0.4597444926974144,0.0,0.0,0.0,0.0,0.0,0.0,-43.568,0.0,0.0,0.0,0.0,0.0
404,0.0,-0.2269375,0.0,0.0,0.0,0.0,0.0,0.0,-0.427,0.0,0.0,0.0,0.0,0.0,0.0,-0.4636118123170608,0.0,0.0,0.0,0.0,0.0,0.0,-43.352,0.0,0.0,0.0,0.0,0.0
405,0.0,-0.23084765625,0.0,0.0,0.0,0.0,0.0,0.0,-0.41,0.0,0.0,0.0,0.0,0.0,0.0,-0.4673626676884951,0.0,0.0,0.0,0.0,0.0,0.0,-43.296,0.0,0.0,0.0,0.0,0.0
406,0.0,-0.2345595703125,0.0,0.0,0.0,0.0,0.0,0.0,-0.383,0.0,0.0,0.0,0.0,0.0,0.0,-0.4711011320840164,0.0,0.0,0.0,0.0,0.0,0.0,-43.46,0.0,0.0,0.0,0.0,0.0
407,0.0,-0.2383671875,0.0,0.0,0.0,0.0,0.0,0.0,-0.372,0.0,0.0,0.0,0.0,0.0,0.0,-0.47480055117368586,0.0,0.0,0.0,0.0,0.0,0.0,-43.244,0.0,0.0,0.0,0.0,0.0
408,0.0,-0.2424892578125,0.0,0.0,0.0,0.0,0.0,0.0,-0.394,0.0,0.0,0.0,0.0,0.0,0.0,-0.4784519550470389,0.0,0.0,0.0,0.0,0.0,0.0,-43.192,0.0,0.0,0.0,0.0,0.0
409,0.0,-0.246708984375,0.0,0.0,0.0,0.0,0.0,0.0,-0.425,0.0,0.0,0.0,0.0,0.0,0.0,-0.482035315023324,0.0,0.0,0.0,0.0,0.0,0.0,-43.244,0.0,0.0,0.0,0.0,0.0
410,0.0,-0.2509345703125,0.0,0.0,0.0,0.0,0.0,0.0,-0.43,0.0,0.0,0.0,0.0,0.0,0.0,-0.48560141288459663,0.0,0.0,0.0,0.0,0.0,0.0,-42.92,0.0,0.0,0.0,0.0,0.0
411,0.0,-0.2547421875,0.0,0.0,0.0,0.0,0.0,0.0,-0.408,0.0,0.0,0.0,0.0,0.0,0.0,-0.4891004862438913,0.0,0.0,0.0,0.0,0.0,0.0,-42.976,0.0,0.0,0.0,0.0,0.0
412,0.0,-0.258447265625,0.0,0.0,0.0,0.0,0.0,0.0,-0.38,0.0,0.0,0.0,0.0,0.0,0.0,-0.4925266509810355,0.0,0.0,0.0,0.0,0.0,0.0,-43.404,0.0,0.0,0.0,0.0,0.0
413,0.0,-0.2622607421875,0.0,0.0,0.0,0.0,0.0,0.0,-0.372,0.0,0.0,0.0,0.0,0.0,0.0,-0.495943483681123,0.0,0.0,0.0,0.0,0.0,0.0,-43.192,0.0,0.0,0.0,0.0,0.0
414,0.0,-0.266267578125,0.0,0.0,0.0,0.0,0.0,0.0,-0.393,0.0,0.0,0.0,0.0,0.0,0.0,-0.49930020998471064,0.0,0.0,0.0,0.0,0.0,0.0,-43.192,0.0,0.0,0.0,0.0,0.0
415,0.0,-0.2705966796875,0.0,0.0,0.0,0.0,0.0,0.0,-0.421,0.0,0.0,0.0,0.0,0.0,0.0,-0.5025800685242867,0.0,0.0,0.0,0.0,0.0,0.0,-43.136,0.0,0.0,0.0,0.0,0.0
416,0.0,-0.274712890625,0.0,0.0,0.0,0.0,0.0,0.0,-0.425,0.0,0.0,0.0,0.0,0.0,0.0,-0.5058452035024065,0.0,0.0,0.0,0.0,0.0,0.0,-42.92,0.0,0.0,0.0,0.0,0.0
417,0.0,-0.2786298828125,0.0,0.0,0.0,0.0,0.0,0.0,-0.41,0.0,0.0,0.0,0.0,0.0,0.0,-0.509061241377657,0.0,0.0,0.0,0.0,0.0,0.0,-42.76,0.0,0.0,0.0,0.0,0.0
418,0.0,-0.2822314453125,0.0,0.0,0.0,0.0,0.0,0.0,-0.38,0.0,0.0,0.0,0.0,0.0,0.0,-0.5121955827298088,0.0,0.0,0.0,0.0,0.0,0.0,-43.028,0.0,0.0,0.0,0.0,0.0
419,0.0,-0.2860458984375,0.0,0.0,0.0,0.0,0.0,0.0,-0.371,0.0,0.0,0.0,0.0,0.0,0.0,-0.515298279992441,0.0,0.0,0.0,0.0,0.0,0.0,-42.812,0.0,0.0,0.0,0.0,0.0
420,0.0,-0.290162109375,0.0,0.0,0.0,0.0,0.0,0.0,-0.394,0.0,0.0,0.0,0.0,0.0,0.0,-0.5183635993585337,0.0,0.0,0.0,0.0,0.0,0.0,-42.812,0.0,0.0,0.0,0.0,0.0
421,0.0,-0.294490234375,0.0,0.0,0.0,0.0,0.0,0.0,-0.422,0.0,0.0,0.0,0.0,0.0,0.0,-0.5213398739560088,0.0,0.0,0.0,0.0,0.0,0.0,-42.704,0.0,0.0,0.0,0.0,0.0
422,0.0,-0.2986064453125,0.0,0.0,0.0,0.0,0.0,0.0,-0.428,0.0,0.0,0.0,0.0,0.0,0.0,-0.5242802049670511,0.0,0.0,0.0,0.0,0.0,0.0,-42.544,0.0,0.0,0.0,0.0,0.0
423,0.0,-0.3024208984375,0.0,0.0,0.0,0.0,0.0,0.0,-0.406,0.0,0.0,0.0,0.0,0.0,0.0,-0.527196580177522,0.0,0.0,0.0,0.0,0.0,0.0,-42.544,0.0,0.0,0.0,0.0,0.0
424,0.0,-0.3061259765625,0.0,0.0,0.0,0.0,0.0,0.0,-0.377,0.0,0.0,0.0,0.0,0.0,0.0,-0.5300165447950049,0.0,0.0,0.0,0.0,0.0,0.0,-43.136,0.0,0.0,0.0,0.0,0.0
425,0.0,-0.309939453125,0.0,0.0,0.0,0.0,0.0,0.0,-0.374,0.0,0.0,0.0,0.0,0.0,0.0,-0.5327969583820178,0.0,0.0,0.0,0.0,0.0,0.0,-42.76,0.0,0.0,0.0,0.0,0.0
426,0.0,-0.3140556640625,0.0,0.0,0.0,0.0,0.0,0.0,-0.393,0.0,0.0,0.0,0.0,0.0,0.0,-0.5355531913772011,0.0,0.0,0.0,0.0,0.0,0.0,-42.76,0.0,0.0,0.0,0.0,0.0
427,0.0,-0.31828125,0.0,0.0,0.0,0.0,0.0,0.0,-0.424,0.0,0.0,0.0,0.0,0.0,0.0,-0.538213516399084,0.0,0.0,0.0,0.0,0.0,0.0,-42.596,0.0,0.0,0.0,0.0,0.0
428,0.0,-0.3225009765625,0.0,0.0,0.0,0.0,0.0,0.0,-0.431,0.0,0.0,0.0,0.0,0.0,0.0,-0.5408333270872538,0.0,0.0,0.0,0.0,0.0,0.0,-42.328,0.0,0.0,0.0,0.0,0.0
429,0.0,-0.32630859375,0.0,0.0,0.0,0.0,0.0,0.0,-0.406,0.0,0.0,0.0,0.0,0.0,0.0,-0.5434251647121251,0.0,0.0,0.0,0.0,0.0,0.0,-42.056,0.0,0.0,0.0,0.0,0.0
430,0.0,-0.3300068359375,0.0,0.0,0.0,0.0,0.0,0.0,-0.377,0.0,0.0,0.0,0.0,0.0,0.0,-0.5459228974151921,0.0,0.0,0.0,0.0,0.0,0.0,-42.488,0.0,0.0,0.0,0.0,0.0
431,0.0,-0.3338212890625,0.0,0.0,0.0,0.0,0.0,0.0,-0.374,0.0,0.0,0.0,0.0,0.0,0.0,-0.5483832154193538,0.0,0.0,0.0,0.0,0.0,0.0,-42.112,0.0,0.0,0.0,0.0,0.0
432,0.0,-0.3379375,0.0,0.0,0.0,0.0,0.0,0.0,-0.4,0.0,0.0,0.0,0.0,0.0,0.0,-0.5508099323682443,0.0,0.0,0.0,0.0,0.0,0.0,-42.112,0.0,0.0,0.0,0.0,0.0
433,0.0,-0.342265625,0.0,0.0,0.0,0.0,0.0,0.0,-0.424,0.0,0.0,0.0,0.0,0.0,0.0,-0.55314647456716,0.0,0.0,0.0,0.0,0.0,0.0,-41.948,0.0,0.0,0.0,0.0,0.0
434,0.0,-0.3463818359375,0.0,0.0,0.0,0.0,0.0,0.0,-0.426,0.0,0.0,0.0,0.0,0.0,0.0,-0.555439781834393,0.0,0.0,0.0,0.0,0.0,0.0,-41.896,0.0,0.0,0.0,0.0,0.0
435,0.0,-0.350298828125,0.0,0.0,0.0,0.0,0.0,0.0,-0.408,0.0,0.0,0.0,0.0,0.0,0.0,-0.5576925933778584,0.0,0.0,0.0,0.0,0.0,0.0,-41.948,0.0,0.0,0.0,0.0,0.0
436,0.0,-0.35400390625,0.0,0.0,0.0,0.0,0.0,0.0,-0.382,0.0,0.0,0.0,0.0,0.0,0.0,-0.5598665762920179,0.0,0.0,0.0,0.0,0.0,0.0,-42.328,0.0,0.0,0.0,0.0,0.0
437,0.0,-0.3578115234375,0.0,0.0,0.0,0.0,0.0,0.0,-0.376,0.0,0.0,0.0,0.0,0.0,0.0,-0.5619964774346534,0.0,0.0,0.0,0.0,0.0,0.0,-41.896,0.0,0.0,0.0,0.0,0.0
438,0.0,-0.3619345703125,0.0,0.0,0.0,0.0,0.0,0.0,-0.4,0.0,0.0,0.0,0.0,0.0,0.0,-0.5640900004381525,0.0,0.0,0.0,0.0,0.0,0.0,-41.84,0.0,0.0,0.0,0.0,0.0
439,0.0,-0.3662568359375,0.0,0.0,0.0,0.0,0.0,0.0,-0.422,0.0,0.0,0.0,0.0,0.0,0.0,-0.5660910139390224,0.0,0.0,0.0,0.0,0.0,0.0,-41.732,0.0,0.0,0.0,0.0,0.0
440,0.0,-0.37037890625,0.0,0.0,0.0,0.0,0.0,0.0,-0.428,0.0,0.0,0.0,0.0,0.0,0.0,-0.5680469282157624,0.0,0.0,0.0,0.0,0.0,0.0,-41.464,0.0,0.0,0.0,0.0,0.0
441,0.0,-0.3741865234375,0.0,0.0,0.0,0.0,0.0,0.0,-0.402,0.0,0.0,0.0,0.0,0.0,0.0,-0.5699811486312902,0.0,0.0,0.0,0.0,0.0,0.0,-41.3,0.0,0.0,0.0,0.0,0.0
442,0.0,-0.3778984375,0.0,0.0,0.0,0.0,0.0,0.0,-0.38,0.0,0.0,0.0,0.0,0.0,0.0,-0.5718035953888227,0.0,0.0,0.0,0.0,0.0,0.0,-41.788,0.0,0.0,0.0,0.0,0.0
443,0.0,-0.38169921875,0.0,0.0,0.0,0.0,0.0,0.0,-0.378,0.0,0.0,0.0,0.0,0.0,0.0,-0.5735926821492158,0.0,0.0,0.0,0.0,0.0,0.0,-41.408,0.0,0.0,0.0,0.0,0.0
444,0.0,-0.385822265625,0.0,0.0,0.0,0.0,0.0,0.0,-0.398,0.0,0.0,0.0,0.0,0.0,0.0,-0.5753385785086126,0.0,0.0,0.0,0.0,0.0,0.0,-41.356,0.0,0.0,0.0,0.0,0.0
445,0.0,-0.39014453125,0.0,0.0,0.0,0.0,0.0,0.0,-0.426,0.0,0.0,0.0,0.0,0.0,0.0,-0.5769958211282638,0.0,0.0,0.0,0.0,0.0,0.0,-41.192,0.0,0.0,0.0,0.0,0.0
446,0.0,-0.3942666015625,0.0,0.0,0.0,0.0,0.0,0.0,-0.425,0.0,0.0,0.0,0.0,0.0,0.0,-0.578610182480298,0.0,0.0,0.0,0.0,0.0,0.0,-41.14,0.0,0.0,0.0,0.0,0.0
447,0.0,-0.39807421875,0.0,0.0,0.0,0.0,0.0,0.0,-0.405,0.0,0.0,0.0,0.0,0.0,0.0,-0.5801832569511316,0.0,0.0,0.0,0.0,0.0,0.0,-41.084,0.0,0.0,0.0,0.0,0.0
448,0.0,-0.40178515625,0.0,0.0,0.0,0.0,0.0,0.0,-0.38,0.0,0.0,0.0,0.0,0.0,0.0,-0.5816930541988955,0.0,0.0,0.0,0.0,0.0,0.0,-41.516,0.0,0.0,0.0,0.0,0.0
449,0.0,-0.4055927734375,0.0,0.0,0.0,0.0,0.0,0.0,-0.376,0.0,0.0,0.0,0.0,0.0,0.0,-0.5831164067780982,0.0,0.0,0.0,0.0,0.0,0.0,-41.14,0.0,0.0,0.0,0.0,0.0
450,0.0,-0.4098193359375,0.0,0.0,0.0,0.0,0.0,0.0,-0.397,0.0,0.0,0.0,0.0,0.0,0.0,-0.5845021800105973,0.0,0.0,0.0,0.0,0.0,0.0,-41.14,0.0,0.0,0.0,0.0,0.0
451,0.0,-0.4140380859375,0.0,0.0,0.0,0.0,0.0,0.0,-0.425,0.0,0.0,0.0,0.0,0.0,0.0,-0.5858415695451229,0.0,0.0,0.0,0.0,0.0,0.0,-41.032,0.0,0.0,0.0,0.0,0.0
452,0.0,-0.4181611328125,0.0,0.0,0.0,0.0,0.0,0.0,-0.423,0.0,0.0,0.0,0.0,0.0,0.0,-0.5870979738043743,0.0,0.0,0.0,0.0,0.0,0.0,-40.76,0.0,0.0,0.0,0.0,0.0
453,0.0,-0.42196875,0.0,0.0,0.0,0.0,0.0,0.0,-0.405,0.0,0.0,0.0,0.0,0.0,0.0,-0.5883155034293234,0.0,0.0,0.0,0.0,0.0,0.0,-40.6,0.0,0.0,0.0,0.0,0.0
454,0.0,-0.4256796875,0.0,0.0,0.0,0.0,0.0,0.0,-0.38,0.0,0.0,0.0,0.0,0.0,0.0,-0.5894617120680087,0.0,0.0,0.0,0.0,0.0,0.0,-41.084,0.0,0.0,0.0,0.0,0.0
455,0.0,-0.4294873046875,0.0,0.0,0.0,0.0,0.0,0.0,-0.376,0.0,0.0,0.0,0.0,0.0,0.0,-0.5905388617056724,0.0,0.0,0.0,0.0,0.0,0.0,-40.544,0.0,0.0,0.0,0.0,0.0
456,0.0,-0.433603515625,0.0,0.0,0.0,0.0,0.0,0.0,-0.396,0.0,0.0,0.0,0.0,0.0,0.0,-0.5915725408139708,0.0,0.0,0.0,0.0,0.0,0.0,-40.384,0.0,0.0,0.0,0.0,0.0
457,0.0,-0.43792578125,0.0,0.0,0.0,0.0,0.0,0.0,-0.423,0.0,0.0,0.0,0.0,0.0,0.0,-0.5925631471882046,0.0,0.0,0.0,0.0,0.0,0.0,-40.328,0.0,0.0,0.0,0.0,0.0
458,0.0,-0.442048828125,0.0,0.0,0.0,0.0,0.0,0.0,-0.427,0.0,0.0,0.0,0.0,0.0,0.0,-0.5934541327357138,0.0,0.0,0.0,0.0,0.0,0.0,-40.384,0.0,0.0,0.0,0.0,0.0
459,0.0,-0.4458564453125,0.0,0.0,0.0,0.0,0.0,0.0,-0.407,0.0,0.0,0.0,0.0,0.0,0.0,-0.594307563838143,0.0,0.0,0.0,0.0,0.0,0.0,-40.328,0.0,0.0,0.0,0.0,0.0
460,0.0,-0.4495673828125,0.0,0.0,0.0,0.0,0.0,0.0,-0.378,0.0,0.0,0.0,0.0,0.0,0.0,-0.5951200247174423,0.0,0.0,0.0,0.0,0.0,0.0,-40.708,0.0,0.0,0.0,0.0,0.0
461,0.0,-0.453375,0.0,0.0,0.0,0.0,0.0,0.0,-0.376,0.0,0.0,0.0,0.0,0.0,0.0,-0.5958411220715725,0.0,0.0,0.0,0.0,0.0,0.0,-40.328,0.0,0.0,0.0,0.0,0.0
462,0.0,-0.4575947265625,0.0,0.0,0.0,0.0,0.0,0.0,-0.399,0.0,0.0,0.0,0.0,0.0,0.0,-0.596512920093342,0.0,0.0,0.0,0.0,0.0,0.0,-40.384,0.0,0.0,0.0,0.0,0.0
463,0.0,-0.4619228515625,0.0,0.0,0.0,0.0,0.0,0.0,-0.431,0.0,0.0,0.0,0.0,0.0,0.0,-0.5971439002019675,0.0,0.0,0.0,0.0,0.0,0.0,-40.06,0.0,0.0,0.0,0.0,0.0
464,0.0,-0.4659365234375,0.0,0.0,0.0,0.0,0.0,0.0,-0.423,0.0,0.0,0.0,0.0,0.0,0.0,-0.5976878289266115,0.0,0.0,0.0,0.0,0.0,0.0,-39.736,0.0,0.0,0.0,0.0,0.0
465,0.0,-0.46975,0.0,0.0,0.0,0.0,0.0,0.0,-0.399,0.0,0.0,0.0,0.0,0.0,0.0,-0.5981846401241561,0.0,0.0,0.0,0.0,0.0,0.0,-39.736,0.0,0.0,0.0,0.0,0.0
466,0.0,-0.473455078125,0.0,0.0,0.0,0.0,0.0,0.0,-0.38,0.0,0.0,0.0,0.0,0.0,0.0,-0.5986219206179,0.0,0.0,0.0,0.0,0.0,0.0,-40.112,0.0,0.0,0.0,0.0,0.0
467,0.0,-0.477365234375,0.0,0.0,0.0,0.0,0.0,0.0,-0.378,0.0,0.0,0.0,0.0,0.0,0.0,-0.5990007259506753,0.0,0.0,0.0,0.0,0.0,0.0,-39.52,0.0,0.0,0.0,0.0,0.0
468,0.0,-0.4814814453125,0.0,0.0,0.0,0.0,0.0,0.0,-0.402,0.0,0.0,0.0,0.0,0.0,0.0,-0.599313357169486,0.0,0.0,0.0,0.0,0.0,0.0,-39.464,0.0,0.0,0.0,0.0,0.0
469,0.0,-0.485810546875,0.0,0.0,0.0,0.0,0.0,0.0,-0.422,0.0,0.0,0.0,0.0,0.0,0.0,-0.5995742041786986,0.0,0.0,0.0,0.0,0.0,0.0,-39.356,0.0,0.0,0.0,0.0,0.0
470,0.0,-0.4899267578125,0.0,0.0,0.0,0.0,0.0,0.0,-0.427,0.0,0.0,0.0,0.0,0.0,0.0,-0.5997688292842184,0.0,0.0,0.0,0.0,0.0,0.0,-39.304,0.0,0.0,0.0,0.0,0.0
471,0.0,-0.4937412109375,0.0,0.0,0.0,0.0,0.0,0.0,-0.404,0.0,0.0,0.0,0.0,0.0,0.0,-0.5999049929273191,0.0,0.0,0.0,0.0,0.0,0.0,-39.304,0.0,0.0,0.0,0.0,0.0
472,0.0,-0.4974453125,0.0,0.0,0.0,0.0,0.0,0.0,-0.379,0.0,0.0,0.0,0.0,0.0,0.0,-0.599981976801167,0.0,0.0,0.0,0.0,0.0,0.0,-39.788,0.0,0.0,0.0,0.0,0.0
473,0.0,-0.5013623046875,0.0,0.0,0.0,0.0,0.0,0.0,-0.379,0.0,0.0,0.0,0.0,0.0,0.0,-0.599998557244279,0.0,0.0,0.0,0.0,0.0,0.0,-39.248,0.0,0.0,0.0,0.0,0.0
474,0.0,-0.505478515625,0.0,0.0,0.0,0.0,0.0,0.0,-0.405,0.0,0.0,0.0,0.0,0.0,0.0,-0.5999549751082623,0.0,0.0,0.0,0.0,0.0,0.0,-39.196,0.0,0.0,0.0,0.0,0.0
475,0.0,-0.5097041015625,0.0,0.0,0.0,0.0,0.0,0.0,-0.421,0.0,0.0,0.0,0.0,0.0,0.0,-0.5998507136751816,0.0,0.0,0.0,0.0,0.0,0.0,-38.98,0.0,0.0,0.0,0.0,0.0
476,0.0,-0.5138212890625,0.0,0.0,0.0,0.0,0.0,0.0,-0.425,0.0,0.0,0.0,0.0,0.0,0.0,-0.5996894009118767,0.0,0.0,0.0,0.0,0.0,0.0,-38.656,0.0,0.0,0.0,0.0,0.0
477,0.0,-0.517634765625,0.0,0.0,0.0,0.0,0.0,0.0,-0.401,0.0,0.0,0.0,0.0,0.0,0.0,-0.5994665125044715,0.0,0.0,0.0,0.0,0.0,0.0,-38.816,0.0,0.0,0.0,0.0,0.0
478,0.0,-0.5214365234375,0.0,0.0,0.0,0.0,0.0,0.0,-0.381,0.0,0.0,0.0,0.0,0.0,0.0,-0.5991822007344197,0.0,0.0,0.0,0.0,0.0,0.0,-39.032,0.0,0.0,0.0,0.0,0.0
479,0.0,-0.52525,0.0,0.0,0.0,0.0,0.0,0.0,-0.381,0.0,0.0,0.0,0.0,0.0,0.0,-0.5988408036933014,0.0,0.0,0.0,0.0,0.0,0.0,-38.492,0.0,0.0,0.0,0.0,0.0
480,0.0,-0.5294697265625,0.0,0.0,0.0,0.0,0.0,0.0,-0.399,0.0,0.0,0.0,0.0,0.0,0.0,-0.5984394647504881,0.0,0.0,0.0,0.0,0.0,0.0,-38.332,0.0,0.0,0.0,0.0,0.0
481,0.0,-0.5336953125,0.0,0.0,0.0,0.0,0.0,0.0,-0.428,0.0,0.0,0.0,0.0,0.0,0.0,-0.5979739450976391,0.0,0.0,0.0,0.0,0.0,0.0,-38.168,0.0,0.0,0.0,0.0,0.0
482,0.0,-0.5378115234375,0.0,0.0,0.0,0.0,0.0,0.0,-0.423,0.0,0.0,0.0,0.0,0.0,0.0,-0.5974528285743584,0.0,0.0,0.0,0.0,0.0,0.0,-38.276,0.0,0.0,0.0,0.0,0.0
483,0.0,-0.541619140625,0.0,0.0,0.0,0.0,0.0,0.0,-0.405,0.0,0.0,0.0,0.0,0.0,0.0,-0.5968695782477765,0.0,0.0,0.0,0.0,0.0,0.0,-38.276,0.0,0.0,0.0,0.0,0.0
484,0.0,-0.54543359375,0.0,0.0,0.0,0.0,0.0,0.0,-0.381,0.0,0.0,0.0,0.0,0.0,0.0,-0.5962287153857029,0.0,0.0,0.0,0.0,0.0,0.0,-38.44,0.0,0.0,0.0,0.0,0.0
485,0.0,-0.5492412109375,0.0,0.0,0.0,0.0,0.0,0.0,-0.38,0.0,0.0,0.0,0.0,0.0,0.0,-0.5955252822585883,0.0,0.0,0.0,0.0,0.0,0.0,-38.06,0.0,0.0,0.0,0.0,0.0
486,0.0,-0.55336328125,0.0,0.0,0.0,0.0,0.0,0.0,-0.4,0.0,0.0,0.0,0.0,0.0,0.0,-0.594766482713601,0.0,0.0,0.0,0.0,0.0,0.0,-38.008,0.0,0.0,0.0,0.0,0.0
487,0.0,-0.557685546875,0.0,0.0,0.0,0.0,0.0,0.0,-0.426,0.0,0.0,0.0,0.0,0.0,0.0,-0.5939396234635075,0.0,0.0,0.0,0.0,0.0,0.0,-37.792,0.0,0.0,0.0,0.0,0.0
488,0.0,-0.56169921875,0.0,0.0,0.0,0.0,0.0,0.0,-0.425,0.0,0.0,0.0,0.0,0.0,0.0,-0.5930479380621673,0.0,0.0,0.0,0.0,0.0,0.0,-37.576,0.0,0.0,0.0,0.0,0.0
489,0.0,-0.565609375,0.0,0.0,0.0,0.0,0.0,0.0,-0.399,0.0,0.0,0.0,0.0,0.0,0.0,-0.5921245456614029,0.0,0.0,0.0,0.0,0.0,0.0,-37.684,0.0,0.0,0.0,0.0,0.0
490,0.0,-0.5693212890625,0.0,0.0,0.0,0.0,0.0,0.0,-0.384,0.0,0.0,0.0,0.0,0.0,0.0,-0.5911228260893499,0.0,0.0,0.0,0.0,0.0,0.0,-37.9,0.0,0.0,0.0,0.0,0.0
491,0.0,-0.57312890625,0.0,0.0,0.0,0.0,0.0,0.0,-0.379,0.0,0.0,0.0,0.0,0.0,0.0,-0.5900597608878552,0.0,0.0,0.0,0.0,0.0,0.0,-37.252,0.0,0.0,0.0,0.0,0.0
492,0.0,-0.5773544921875,0.0,0.0,0.0,0.0,0.0,0.0,-0.399,0.0,0.0,0.0,0.0,0.0,0.0,-0.5889387611518593,0.0,0.0,0.0,0.0,0.0,0.0,-37.196,0.0,0.0,0.0,0.0,0.0
493,0.0,-0.5816767578125,0.0,0.0,0.0,0.0,0.0,0.0,-0.431,0.0,0.0,0.0,0.0,0.0,0.0,-0.5877720632167359,0.0,0.0,0.0,0.0,0.0,0.0,-37.144,0.0,0.0,0.0,0.0,0.0
494,0.0,-0.5856962890625,0.0,0.0,0.0,0.0,0.0,0.0,-0.424,0.0,0.0,0.0,0.0,0.0,0.0,-0.5865365460787135,0.0,0.0,0.0,0.0,0.0,0.0,-36.98,0.0,0.0,0.0,0.0,0.0
495,0.0,-0.58950390625,0.0,0.0,0.0,0.0,0.0,0.0,-0.396,0.0,0.0,0.0,0.0,0.0,0.0,-0.5852508590643261,0.0,0.0,0.0,0.0,0.0,0.0,-35.576,0.0,0.0,0.0,0.0,0.0
496,0.0,-0.5922822265625,0.0,0.0,0.0,0.0,0.0,0.0,-0.347,0.0,0.0,0.0,0.0,0.0,0.0,-0.583889339425865,0.0,0.0,0.0,0.0,0.0,0.0,-30.34,0.0,0.0,0.0,0.0,0.0
497,0.0,-0.5947587890625,0.0,0.0,0.0,0.0,0.0,0.0,-0.263,0.0,0.0,0.0,0.0,0.0,0.0,-0.582459406937508,0.0,0.0,0.0,0.0,0.0,0.0,-26.02,0.0,0.0,0.0,0.0,0.0
498,0.0,-0.596919921875,0.0,0.0,0.0,0.0,0.0,0.0,-0.238,0.0,0.0,0.0,0.0,0.0,0.0,-0.5810182744607686,0.0,0.0,0.0,0.0,0.0,0.0,-21.216,0.0,0.0,0.0,0.0,0.0
499,0.0,-0.5982578125,0.0,0.0,0.0,0.0,0.0,0.0,-0.188,0.0,0.0,0.0,0.0,0.0,0.0,-0.5794801634538933,0.0,0.0,0.0,0.0,0.0,0.0,-17.112,0.0,0.0,0.0,0.0,0.0
500,0.0,-0.5992802734375,0.0,0.0,0.0,0.0,0.0,0.0,-0.119,0.0,0.0,0.0,0.0,0.0,0.0,-0.5778909928302515,0.0,0.0,0.0,0.0,0.0,0.0,-15.06,0.0,0.0,0.0,0.0,0.0
501,0.0,-0.5993828125,0.0,0.0,0.0,0.0,0.0,0.0,-0.071,0.0,0.0,0.0,0.0,0.0,0.0,-0.5762635941989737,0.0,0.0,0.0,0.0,0.0,0.0,-12.524,0.0,0.0,0.0,0.0,0.0
502,0.0,-0.5986689453125,0.0,0.0,0.0,0.0,0.0,0.0,0.027,0.0,0.0,0.0,0.0,0.0,0.0,-0.5745709212445058,0.0,0.0,0.0,0.0,0.0,0.0,-14.088,0.0,0.0,0.0,0.0,0.0
503,0.0,-0.5976396484375,0.0,0.0,0.0,0.0,0.0,0.0,0.078,0.0,0.0,0.0,0.0,0.0,0.0,-0.5728013345101842,0.0,0.0,0.0,0.0,0.0,0.0,-14.36,0.0,0.0,0.0,0.0,0.0
504,0.0,-0.595890625,0.0,0.0,0.0,0.0,0.0,0.0,0.138,0.0,0.0,0.0,0.0,0.0,0.0,-0.5710040194315319,0.0,0.0,0.0,0.0,0.0,0.0,-16.844,0.0,0.0,0.0,0.0,0.0
505,0.0,-0.5940380859375,0.0,0.0,0.0,0.0,0.0,0.0,0.178,0.0,0.0,0.0,0.0,0.0,0.0,-0.5691362265531645,0.0,0.0,0.0,0.0,0.0,0.0,-19.272,0.0,0.0,0.0,0.0,0.0
506,0.0,-0.5916650390625,0.0,0.0,0.0,0.0,0.0,0.0,0.202,0.0,0.0,0.0,0.0,0.0,0.0,-0.5671890523230637,0.0,0.0,0.0,0.0,0.0,0.0,-20.192,0.0,0.0,0.0,0.0,0.0
507,0.0,-0.5886806640625,0.0,0.0,0.0,0.0,0.0,0.0,0.268,0.0,0.0,0.0,0.0,0.0,0.0,-0.5652187051801045,0.0,0.0,0.0,0.0,0.0,0.0,-21.432,0.0,0.0,0.0,0.0,0.0
508,0.0,-0.5855927734375,0.0,0.0,0.0,0.0,0.0,0.0,0.299,0.0,0.0,0.0,0.0,0.0,0.0,-0.563177722606816,0.0,0.0,0.0,0.0,0.0,0.0,-23.916,0.0,0.0,0.0,0.0,0.0
509,0.0,-0.5819853515625,0.0,0.0,0.0,0.0,0.0,0.0,0.33,0.0,0.0,0.0,0.0,0.0,0.0,-0.5610536796885296,0.0,0.0,0.0,0.0,0.0,0.0,-25.372,0.0,0.0,0.0,0.0,0.0
510,0.0,-0.578177734375,0.0,0.0,0.0,0.0,0.0,0.0,0.373,0.0,0.0,0.0,0.0,0.0,0.0,-0.558928640460623,0.0,0.0,0.0,0.0,0.0,0.0,-26.236,0.0,0.0,0.0,0.0,0.0
511,0.0,-0.5741572265625,0.0,0.0,0.0,0.0,0.0,0.0,0.39,0.0,0.0,0.0,0.0,0.0,0.0,-0.5567212589189349,0.0,0.0,0.0,0.0,0.0,0.0,-27.316,0.0,0.0,0.0,0.0,0.0
512,0.0,-0.5698349609375,0.0,0.0,0.0,0.0,0.0,0.0,0.422,0.0,0.0,0.0,0.0,0.0,0.0,-0.554428737219822,0.0,0.0,0.0,0.0,0.0,0.0,-30.072,0.0,0.0,0.0,0.0,0.0
513,0.0,-0.56591796875,0.0,0.0,0.0,0.0,0.0,0.0,0.421,0.0,0.0,0.0,0.0,0.0,0.0,-0.552124532013689,0.0,0.0,0.0,0.0,0.0,0.0,-36.064,0.0,0.0,0.0,0.0,0.0
514,0.0,-0.56231640625,0.0,0.0,0.0,0.0,0.0,0.0,0.376,0.0,0.0,0.0,0.0,0.0,0.0,-0.5495561676453479,0.0,0.0,0.0,0.0,0.0,0.0,-40.328,0.0,0.0,0.0,0.0,0.0
515,0.0,-0.55840625,0.0,0.0,0.0,0.0,0.0,0.0,0.375,0.0,0.0,0.0,0.0,0.0,0.0,-0.5473024869913309,0.0,0.0,0.0,0.0,0.0,0.0,-41.464,0.0,0.0,0.0,0.0,0.0
516,0.0,-0.5548046875,0.0,0.0,0.0,0.0,0.0,0.0,0.381,0.0,0.0,0.0,0.0,0.0,0.0,-0.5448308652370645,0.0,0.0,0.0,0.0,0.0,0.0,-41.948,0.0,0.0,0.0,0.0,0.0
517,0.0,-0.5502763671875,0.0,0.0,0.0,0.0,0.0,0.0,0.391,0.0,0.0,0.0,0.0,0.0,0.0,-0.5422946175645028,0.0,0.0,0.0,0.0,0.0,0.0,-38.276,0.0,0.0,0.0,0.0,0.0
518,0.0,-0.545638671875,0.0,0.0,0.0,0.0,0.0,0.0,0.475,0.0,0.0,0.0,0.0,0.0,0.0,-0.5396553047483997,0.0,0.0,0.0,0.0,0.0,0.0,-39.572,0.0,0.0,0.0,0.0,0.0
519,0.0,-0.542037109375,0.0,0.0,0.0,0.0,0.0,0.0,0.419,0.0,0.0,0.0,0.0,0.0,0.0,-0.5370476474948498,0.0,0.0,0.0,0.0,0.0,0.0,-41.572,0.0,0.0,0.0,0.0,0.0
520,0.0,-0.538634765625,0.0,0.0,0.0,0.0,0.0,0.0,0.346,0.0,0.0,0.0,0.0,0.0,0.0,-0.5343495009389007,0.0,0.0,0.0,0.0,0.0,0.0,-45.78,0.0,0.0,0.0,0.0,0.0
521,0.0,-0.5358564453125,0.0,0.0,0.0,0.0,0.0,0.0,0.324,0.0,0.0,0.0,0.0,0.0,0.0,-0.53154998204244,0.0,0.0,0.0,0.0,0.0,0.0,-47.78,0.0,0.0,0.0,0.0,0.0
522,0.0,-0.5327626953125,0.0,0.0,0.0,0.0,0.0,0.0,0.284,0.0,0.0,0.0,0.0,0.0,0.0,-0.5287839939118977,0.0,0.0,0.0,0.0,0.0,0.0,-46.376,0.0,0.0,0.0,0.0,0.0
523,0.0,-0.5287490234375,0.0,0.0,0.0,0.0,0.0,0.0,0.352,0.0,0.0,0.0,0.0,0.0,0.0,-0.5259235067470964,0.0,0.0,0.0,0.0,0.0,0.0,-44.432,0.0,0.0,0.0,0.0,0.0
524,0.0,-0.5251474609375,0.0,0.0,0.0,0.0,0.0,0.0,0.386,0.0,0.0,0.0,0.0,0.0,0.0,-0.522990769767386,0.0,0.0,0.0,0.0,0.0,0.0,-42.38,0.0,0.0,0.0,0.0,0.0
525,0.0,-0.5215390625,0.0,0.0,0.0,0.0,0.0,0.0,0.363,0.0,0.0,0.0,0.0,0.0,0.0,-0.5200475303745513,0.0,0.0,0.0,0.0,0.0,0.0,-40.708,0.0,0.0,0.0,0.0,0.0
526,0.0,-0.5188701171875,0.0,0.0,0.0,0.0,0.0,0.0,0.333,0.0,0.0,0.0,0.0,0.0,0.0,-0.5170254517419457,0.0,0.0,0.0,0.0,0.0,0.0,-44.432,0.0,0.0,0.0,0.0,0.0
527,0.0,-0.5169150390625,0.0,0.0,0.0,0.0,0.0,0.0,0.23,0.0,0.0,0.0,0.0,0.0,0.0,-0.513939146417203,0.0,0.0,0.0,0.0,0.0,0.0,-45.24,0.0,0.0,0.0,0.0,0.0
528,0.0,-0.5140263671875,0.0,0.0,0.0,0.0,0.0,0.0,0.232,0.0,0.0,0.0,0.0,0.0,0.0,-0.5108379821916179,0.0,0.0,0.0,0.0,0.0,0.0,-44.376,0.0,0.0,0.0,0.0,0.0
529,0.0,-0.5113515625,0.0,0.0,0.0,0.0,0.0,0.0,0.284,0.0,0.0,0.0,0.0,0.0,0.0,-0.5076711562431976,0.0,0.0,0.0,0.0,0.0,0.0,-43.892,0.0,0.0,0.0,0.0,0.0
530,0.0,-0.508263671875,0.0,0.0,0.0,0.0,0.0,0.0,0.278,0.0,0.0,0.0,0.0,0.0,0.0,-0.5043968141079349,0.0,0.0,0.0,0.0,0.0,0.0,-42.868,0.0,0.0,0.0,0.0,0.0
531,0.0,-0.504861328125,0.0,0.0,0.0,0.0,0.0,0.0,0.333,0.0,0.0,0.0,0.0,0.0,0.0,-0.5011566607646751,0.0,0.0,0.0,0.0,0.0,0.0,-39.68,0.0,0.0,0.0,0.0,0.0
532,0.0,-0.5020830078125,0.0,0.0,0.0,0.0,0.0,0.0,0.316,0.0,0.0,0.0,0.0,0.0,0.0,-0.4978391674962238,0.0,0.0,0.0,0.0,0.0,0.0,-36.548,0.0,0.0,0.0,0.0,0.0
533,0.0,-0.499400390625,0.0,0.0,0.0,0.0,0.0,0.0,0.27,0.0,0.0,0.0,0.0,0.0,0.0,-0.4944657675161983,0.0,0.0,0.0,0.0,0.0,0.0,-37.304,0.0,0.0,0.0,0.0,0.0
534,0.0,-0.49713671875,0.0,0.0,0.0,0.0,0.0,0.0,0.257,0.0,0.0,0.0,0.0,0.0,0.0,-0.49101769555651004,0.0,0.0,0.0,0.0,0.0,0.0,-40.004,0.0,0.0,0.0,0.0,0.0
535,0.0,-0.4949755859375,0.0,0.0,0.0,0.0,0.0,0.0,0.22,0.0,0.0,0.0,0.0,0.0,0.0,-0.487579260368732,0.0,0.0,0.0,0.0,0.0,0.0,-40.112,0.0,0.0,0.0,0.0,0.0
536,0.0,-0.4920947265625,0.0,0.0,0.0,0.0,0.0,0.0,0.248,0.0,0.0,0.0,0.0,0.0,0.0,-0.48403731797597443,0.0,0.0,0.0,0.0,0.0,0.0,-39.412,0.0,0.0,0.0,0.0,0.0
537,0.0,-0.4893095703125,0.0,0.0,0.0,0.0,0.0,0.0,0.289,0.0,0.0,0.0,0.0,0.0,0.0,-0.48046225018713096,0.0,0.0,0.0,0.0,0.0,0.0,-38.384,0.0,0.0,0.0,0.0,0.0
538,0.0,-0.4862216796875,0.0,0.0,0.0,0.0,0.0,0.0,0.286,0.0,0.0,0.0,0.0,0.0,0.0,-0.47687215795535814,0.0,0.0,0.0,0.0,0.0,0.0,-36.332,0.0,0.0,0.0,0.0,0.0
539,0.0,-0.4830322265625,0.0,0.0,0.0,0.0,0.0,0.0,0.315,0.0,0.0,0.0,0.0,0.0,0.0,-0.4731900727349739,0.0,0.0,0.0,0.0,0.0,0.0,-34.552,0.0,0.0,0.0,0.0,0.0
540,0.0,-0.48014453125,0.0,0.0,0.0,0.0,0.0,0.0,0.314,0.0,0.0,0.0,0.0,0.0,0.0,-0.46946842802707556,0.0,0.0,0.0,0.0,0.0,0.0,-34.228,0.0,0.0,0.0,0.0,0.0
541,0.0,-0.477365234375,0.0,0.0,0.0,0.0,0.0,0.0,0.281,0.0,0.0,0.0,0.0,0.0,0.0,-0.4657189123218028,0.0,0.0,0.0,0.0,0.0,0.0,-36.28,0.0,0.0,0.0,0.0,0.0
542,0.0,-0.474380859375,0.0,0.0,0.0,0.0,0.0,0.0,0.284,0.0,0.0,0.0,0.0,0.0,0.0,-0.4619055466698584,0.0,0.0,0.0,0.0,0.0,0.0,-37.468,0.0,0.0,0.0,0.0,0.0
543,0.0,-0.4712939453125,0.0,0.0,0.0,0.0,0.0,0.0,0.306,0.0,0.0,0.0,0.0,0.0,0.0,-0.4580391639924231,0.0,0.0,0.0,0.0,0.0,0.0,-38.548,0.0,0.0,0.0,0.0,0.0
544,0.0,-0.4678984375,0.0,0.0,0.0,0.0,0.0,0.0,0.318,0.0,0.0,0.0,0.0,0.0,0.0,-0.45416385525398806,0.0,0.0,0.0,0.0,0.0,0.0,-37.736,0.0,0.0,0.0,0.0,0.0
545,0.0,-0.4642900390625,0.0,0.0,0.0,0.0,0.0,0.0,0.354,0.0,0.0,0.0,0.0,0.0,0.0,-0.4502293860450335,0.0,0.0,0.0,0.0,0.0,0.0,-35.9,0.0,0.0,0.0,0.0,0.0
546,0.0,-0.4605849609375,0.0,0.0,0.0,0.0,0.0,0.0,0.366,0.0,0.0,0.0,0.0,0.0,0.0,-0.44616670675996795,0.0,0.0,0.0,0.0,0.0,0.0,-33.74,0.0,0.0,0.0,0.0,0.0
547,0.0,-0.45666796875,0.0,0.0,0.0,0.0,0.0,0.0,0.376,0.0,0.0,0.0,0.0,0.0,0.0,-0.4422147920516569,0.0,0.0,0.0,0.0,0.0,0.0,-33.416,0.0,0.0,0.0,0.0,0.0
548,0.0,-0.452962890625,0.0,0.0,0.0,0.0,0.0,0.0,0.393,0.0,0.0,0.0,0.0,0.0,0.0,-0.43812768668840846,0.0,0.0,0.0,0.0,0.0,0.0,-34.228,0.0,0.0,0.0,0.0,0.0
549,0.0,-0.4491494140625,0.0,0.0,0.0,0.0,0.0,0.0,0.373,0.0,0.0,0.0,0.0,0.0,0.0,-0.4339372867881249,0.0,0.0,0.0,0.0,0.0,0.0,-35.576,0.0,0.0,0.0,0.0,0.0
550,0.0,-0.4451357421875,0.0,0.0,0.0,0.0,0.0,0.0,0.388,0.0,0.0,0.0,0.0,0.0,0.0,-0.42984786985650464,0.0,0.0,0.0,0.0,0.0,0.0,-36.224,0.0,0.0,0.0,0.0,0.0
551,0.0,-0.4411220703125,0.0,0.0,0.0,0.0,0.0,0.0,0.405,0.0,0.0,0.0,0.0,0.0,0.0,-0.4256475519142396,0.0,0.0,0.0,0.0,0.0,0.0,-36.44,0.0,0.0,0.0,0.0,0.0
552,0.0,-0.43669140625,0.0,0.0,0.0,0.0,0.0,0.0,0.422,0.0,0.0,0.0,0.0,0.0,0.0,-0.42135226638482187,0.0,0.0,0.0,0.0,0.0,0.0,-36.388,0.0,0.0,0.0,0.0,0.0
553,0.0,-0.432259765625,0.0,0.0,0.0,0.0,0.0,0.0,0.442,0.0,0.0,0.0,0.0,0.0,0.0,-0.41709467873455175,0.0,0.0,0.0,0.0,0.0,0.0,-37.036,0.0,0.0,0.0,0.0,0.0
554,0.0,-0.428046875,0.0,0.0,0.0,0.0,0.0,0.0,0.436,0.0,0.0,0.0,0.0,0.0,0.0,-0.4127703087524276,0.0,0.0,0.0,0.0,0.0,0.0,-38.44,0.0,0.0,0.0,0.0,0.0
555,0.0,-0.4238212890625,0.0,0.0,0.0,0.0,0.0,0.0,0.428,0.0,0.0,0.0,0.0,0.0,0.0,-0.4083543280752257,0.0,0.0,0.0,0.0,0.0,0.0,-39.896,0.0,0.0,0.0,0.0,0.0
556,0.0,-0.4194990234375,0.0,0.0,0.0,0.0,0.0,0.0,0.428,0.0,0.0,0.0,0.0,0.0,0.0,-0.40397174576348305,0.0,0.0,0.0,0.0,0.0,0.0,-40.004,0.0,0.0,0.0,0.0,0.0
557,0.0,-0.4150673828125,0.0,0.0,0.0,0.0,0.0,0.0,0.436,0.0,0.0,0.0,0.0,0.0,0.0,-0.3995184290663118,0.0,0.0,0.0,0.0,0.0,0.0,-39.896,0.0,0.0,0.0,0.0,0.0
558,0.0,-0.4104365234375,0.0,0.0,0.0,0.0,0.0,0.0,0.455,0.0,0.0,0.0,0.0,0.0,0.0,-0.3949774070767383,0.0,0.0,0.0,0.0,0.0,0.0,-40.384,0.0,0.0,0.0,0.0,0.0
559,0.0,-0.40590234375,0.0,0.0,0.0,0.0,0.0,0.0,0.463,0.0,0.0,0.0,0.0,0.0,0.0,-0.39048126029946323,0.0,0.0,0.0,0.0,0.0,0.0,-40.924,0.0,0.0,0.0,0.0,0.0
560,0.0,-0.4013740234375,0.0,0.0,0.0,0.0,0.0,0.0,0.457,0.0,0.0,0.0,0.0,0.0,0.0,-0.385877851963884,0.0,0.0,0.0,0.0,0.0,0.0,-41.896,0.0,0.0,0.0,0.0,0.0
561,0.0,-0.3972509765625,0.0,0.0,0.0,0.0,0.0,0.0,0.436,0.0,0.0,0.0,0.0,0.0,0.0,-0.3812571370723287,0.0,0.0,0.0,0.0,0.0,0.0,-42.868,0.0,0.0,0.0,0.0,0.0
562,0.0,-0.3930322265625,0.0,0.0,0.0,0.0,0.0,0.0,0.42,0.0,0.0,0.0,0.0,0.0,0.0,-0.37664250306852887,0.0,0.0,0.0,0.0,0.0,0.0,-42.328,0.0,0.0,0.0,0.0,0.0
563,0.0,-0.388703125,0.0,0.0,0.0,0.0,0.0,0.0,0.427,0.0,0.0,0.0,0.0,0.0,0.0,-0.37195701926310404,0.0,0.0,0.0,0.0,0.0,0.0,-41.896,0.0,0.0,0.0,0.0,0.0
564,0.0,-0.384380859375,0.0,0.0,0.0,0.0,0.0,0.0,0.435,0.0,0.0,0.0,0.0,0.0,0.0,-0.36718405693821604,0.0,0.0,0.0,0.0,0.0,0.0,-42.004,0.0,0.0,0.0,0.0,0.0
565,0.0,-0.38005859375,0.0,0.0,0.0,0.0,0.0,0.0,0.438,0.0,0.0,0.0,0.0,0.0,0.0,-0.3624567644002753,0.0,0.0,0.0,0.0,0.0,0.0,-42.596,0.0,0.0,0.0,0.0,0.0
566,0.0,-0.3759423828125,0.0,0.0,0.0,0.0,0.0,0.0,0.429,0.0,0.0,0.0,0.0,0.0,0.0,-0.357671722258338,0.0,0.0,0.0,0.0,0.0,0.0,-43.404,0.0,0.0,0.0,0.0,0.0
567,0.0,-0.3719228515625,0.0,0.0,0.0,0.0,0.0,0.0,0.406,0.0,0.0,0.0,0.0,0.0,0.0,-0.3527845972805317,0.0,0.0,0.0,0.0,0.0,0.0,-43.244,0.0,0.0,0.0,0.0,0.0
568,0.0,-0.3679091796875,0.0,0.0,0.0,0.0,0.0,0.0,0.4,0.0,0.0,0.0,0.0,0.0,0.0,-0.3479084050582052,0.0,0.0,0.0,0.0,0.0,0.0,-42.488,0.0,0.0,0.0,0.0,0.0
569,0.0,-0.3638896484375,0.0,0.0,0.0,0.0,0.0,0.0,0.404,0.0,0.0,0.0,0.0,0.0,0.0,-0.34305344753980893,0.0,0.0,0.0,0.0,0.0,0.0,-42.112,0.0,0.0,0.0,0.0,0.0
570,0.0,-0.3597734375,0.0,0.0,0.0,0.0,0.0,0.0,0.412,0.0,0.0,0.0,0.0,0.0,0.0,-0.33803158423449925,0.0,0.0,0.0,0.0,0.0,0.0,-42.164,0.0,0.0,0.0,0.0,0.0
571,0.0,-0.355650390625,0.0,0.0,0.0,0.0,0.0,0.0,0.414,0.0,0.0,0.0,0.0,0.0,0.0,-0.3331224528333815,0.0,0.0,0.0,0.0,0.0,0.0,-42.596,0.0,0.0,0.0,0.0,0.0
572,0.0,-0.3518427734375,0.0,0.0,0.0,0.0,0.0,0.0,0.404,0.0,0.0,0.0,0.0,0.0,0.0,-0.3281215882083402,0.0,0.0,0.0,0.0,0.0,0.0,-42.868,0.0,0.0,0.0,0.0,0.0
573,0.0,-0.3480283203125,0.0,0.0,0.0,0.0,0.0,0.0,0.381,0.0,0.0,0.0,0.0,0.0,0.0,-0.3230314544867237,0.0,0.0,0.0,0.0,0.0,0.0,-42.436,0.0,0.0,0.0,0.0,0.0
574,0.0,-0.34432421875,0.0,0.0,0.0,0.0,0.0,0.0,0.377,0.0,0.0,0.0,0.0,0.0,0.0,-0.31800190221643615,0.0,0.0,0.0,0.0,0.0,0.0,-42.112,0.0,0.0,0.0,0.0,0.0
575,0.0,-0.3404072265625,0.0,0.0,0.0,0.0,0.0,0.0,0.383,0.0,0.0,0.0,0.0,0.0,0.0,-0.3129165486586721,0.0,0.0,0.0,0.0,0.0,0.0,-41.84,0.0,0.0,0.0,0.0,0.0
576,0.0,-0.33649609375,0.0,0.0,0.0,0.0,0.0,0.0,0.392,0.0,0.0,0.0,0.0,0.0,0.0,-0.30777802555876893,0.0,0.0,0.0,0.0,0.0,0.0,-42.112,0.0,0.0,0.0,0.0,0.0
577,0.0,-0.3324765625,0.0,0.0,0.0,0.0,0.0,0.0,0.397,0.0,0.0,0.0,0.0,0.0,0.0,-0.30257705949693664,0.0,0.0,0.0,0.0,0.0,0.0,-42.272,0.0,0.0,0.0,0.0,0.0
578,0.0,-0.328771484375,0.0,0.0,0.0,0.0,0.0,0.0,0.391,0.0,0.0,0.0,0.0,0.0,0.0,-0.2974281696588246,0.0,0.0,0.0,0.0,0.0,0.0,-42.328,0.0,0.0,0.0,0.0,0.0
579,0.0,-0.3250732421875,0.0,0.0,0.0,0.0,0.0,0.0,0.377,0.0,0.0,0.0,0.0,0.0,0.0,-0.29216948899189976,0.0,0.0,0.0,0.0,0.0,0.0,-42.112,0.0,0.0,0.0,0.0,0.0
580,0.0,-0.321369140625,0.0,0.0,0.0,0.0,0.0,0.0,0.371,0.0,0.0,0.0,0.0,0.0,0.0,-0.2869132603562198,0.0,0.0,0.0,0.0,0.0,0.0,-41.516,0.0,0.0,0.0,0.0,0.0
581,0.0,-0.3174580078125,0.0,0.0,0.0,0.0,0.0,0.0,0.377,0.0,0.0,0.0,0.0,0.0,0.0,-0.28164803309920167,0.0,0.0,0.0,0.0,0.0,0.0,-41.248,0.0,0.0,0.0,0.0,0.0
582,0.0,-0.313541015625,0.0,0.0,0.0,0.0,0.0,0.0,0.393,0.0,0.0,0.0,0.0,0.0,0.0,-0.2763276656130621,0.0,0.0,0.0,0.0,0.0,0.0,-41.3,0.0,0.0,0.0,0.0,0.0
583,0.0,-0.3095283203125,0.0,0.0,0.0,0.0,0.0,0.0,0.398,0.0,0.0,0.0,0.0,0.0,0.0,-0.2709634956892456,0.0,0.0,0.0,0.0,0.0,0.0,-41.3,0.0,0.0,0.0,0.0,0.0
584,0.0,-0.3057138671875,0.0,0.0,0.0,0.0,0.0,0.0,0.394,0.0,0.0,0.0,0.0,0.0,0.0,-0.2656268802005764,0.0,0.0,0.0,0.0,0.0,0.0,-41.624,0.0,0.0,0.0,0.0,0.0
585,0.0,-0.30190625,0.0,0.0,0.0,0.0,0.0,0.0,0.385,0.0,0.0,0.0,0.0,0.0,0.0,-0.26022455739310213,0.0,0.0,0.0,0.0,0.0,0.0,-41.732,0.0,0.0,0.0,0.0,0.0
586,0.0,-0.2980927734375,0.0,0.0,0.0,0.0,0.0,0.0,0.383,0.0,0.0,0.0,0.0,0.0,0.0,-0.2547840795670573,0.0,0.0,0.0,0.0,0.0,0.0,-41.516,0.0,0.0,0.0,0.0,0.0
587,0.0,-0.294181640625,0.0,0.0,0.0,0.0,0.0,0.0,0.387,0.0,0.0,0.0,0.0,0.0,0.0,-0.24936866827999174,0.0,0.0,0.0,0.0,0.0,0.0,-41.572,0.0,0.0,0.0,0.0,0.0
588,0.0,-0.290162109375,0.0,0.0,0.0,0.0,0.0,0.0,0.396,0.0,0.0,0.0,0.0,0.0,0.0,-0.24389800519800023,0.0,0.0,0.0,0.0,0.0,0.0,-41.896,0.0,0.0,0.0,0.0,0.0
589,0.0,-0.2861484375,0.0,0.0,0.0,0.0,0.0,0.0,0.404,0.0,0.0,0.0,0.0,0.0,0.0,-0.23836657982449472,0.0,0.0,0.0,0.0,0.0,0.0,-42.004,0.0,0.0,0.0,0.0,0.0
590,0.0,-0.28212890625,0.0,0.0,0.0,0.0,0.0,0.0,0.403,0.0,0.0,0.0,0.0,0.0,0.0,-0.23291158561166547,0.0,0.0,0.0,0.0,0.0,0.0,-42.38,0.0,0.0,0.0,0.0,0.0
591,0.0,-0.2782177734375,0.0,0.0,0.0,0.0,0.0,0.0,0.4,0.0,0.0,0.0,0.0,0.0,0.0,-0.22735109094577868,0.0,0.0,0.0,0.0,0.0,0.0,-42.488,0.0,0.0,0.0,0.0,0.0
592,0.0,-0.2741982421875,0.0,0.0,0.0,0.0,0.0,0.0,0.396,0.0,0.0,0.0,0.0,0.0,0.0,-0.22168967490648364,0.0,0.0,0.0,0.0,0.0,0.0,-42.328,0.0,0.0,0.0,0.0,0.0
593,0.0,-0.2702880859375,0.0,0.0,0.0,0.0,0.0,0.0,0.4,0.0,0.0,0.0,0.0,0.0,0.0,-0.2161861336656055,0.0,0.0,0.0,0.0,0.0,0.0,-42.272,0.0,0.0,0.0,0.0,0.0
594,0.0,-0.2661650390625,0.0,0.0,0.0,0.0,0.0,0.0,0.402,0.0,0.0,0.0,0.0,0.0,0.0,-0.21059128715370024,0.0,0.0,0.0,0.0,0.0,0.0,-42.272,0.0,0.0,0.0,0.0,0.0
595,0.0,-0.2620546875,0.0,0.0,0.0,0.0,0.0,0.0,0.414,0.0,0.0,0.0,0.0,0.0,0.0,-0.2049147078564991,0.0,0.0,0.0,0.0,0.0,0.0,-42.38,0.0,0.0,0.0,0.0,0.0
596,0.0,-0.25803515625,0.0,0.0,0.0,0.0,0.0,0.0,0.414,0.0,0.0,0.0,0.0,0.0,0.0,-0.1993037794648884,0.0,0.0,0.0,0.0,0.0,0.0,-42.704,0.0,0.0,0.0,0.0,0.0
597,0.0,-0.254021484375,0.0,0.0,0.0,0.0,0.0,0.0,0.404,0.0,0.0,0.0,0.0,0.0,0.0,-0.19363622791537852,0.0,0.0,0.0,0.0,0.0,0.0,-43.028,0.0,0.0,0.0,0.0,0.0
598,0.0,-0.250001953125,0.0,0.0,0.0,0.0,0.0,0.0,0.401,0.0,0.0,0.0,0.0,0.0,0.0,-0.18790612269081305,0.0,0.0,0.0,0.0,0.0,0.0,-42.812,0.0,0.0,0.0,0.0,0.0
599,0.0,-0.24598828125,0.0,0.0,0.0,0.0,0.0,0.0,0.401,0.0,0.0,0.0,0.0,0.0,0.0,-0.18224445389272328,0.0,0.0,0.0,0.0,0.0,0.0,-42.868,0.0,0.0,0.0,0.0,0.0
600,0.0,-0.24196875,0.0,0.0,0.0,0.0,0.0,0.0,0.402,0.0,0.0,0.0,0.0,0.0,0.0,-0.17652055482455012,0.0,0.0,0.0,0.0,0.0,0.0,-43.084,0.0,0.0,0.0,0.0,0.0
601,0.0,-0.2378525390625,0.0,0.0,0.0,0.0,0.0,0.0,0.411,0.0,0.0,0.0,0.0,0.0,0.0,-0.17067094928418597,0.0,0.0,0.0,0.0,0.0,0.0,-43.192,0.0,0.0,0.0,0.0,0.0
602,0.0,-0.2337294921875,0.0,0.0,0.0,0.0,0.0,0.0,0.414,0.0,0.0,0.0,0.0,0.0,0.0,-0.16501311584917058,0.0,0.0,0.0,0.0,0.0,0.0,-43.568,0.0,0.0,0.0,0.0,0.0
603,0.0,-0.2297158203125,0.0,0.0,0.0,0.0,0.0,0.0,0.407,0.0,0.0,0.0,0.0,0.0,0.0,-0.15922130560178868,0.0,0.0,0.0,0.0,0.0,0.0,-43.728,0.0,0.0,0.0,0.0,0.0
604,0.0,-0.2258056640625,0.0,0.0,0.0,0.0,0.0,0.0,0.398,0.0,0.0,0.0,0.0,0.0,0.0,-0.15322609145473645,0.0,0.0,0.0,0.0,0.0,0.0,-43.46,0.0,0.0,0.0,0.0,0.0
605,0.0,-0.221888671875,0.0,0.0,0.0,0.0,0.0,0.0,0.397,0.0,0.0,0.0,0.0,0.0,0.0,-0.14764308164941267,0.0,0.0,0.0,0.0,0.0,0.0,-43.352,0.0,0.0,0.0,0.0,0.0
606,0.0,-0.2177724609375,0.0,0.0,0.0,0.0,0.0,0.0,0.402,0.0,0.0,0.0,0.0,0.0,0.0,-0.14180750461421182,0.0,0.0,0.0,0.0,0.0,0.0,-43.244,0.0,0.0,0.0,0.0,0.0
607,0.0,-0.213751953125,0.0,0.0,0.0,0.0,0.0,0.0,0.408,0.0,0.0,0.0,0.0,0.0,0.0,-0.13593079382148357,0.0,0.0,0.0,0.0,0.0,0.0,-43.296,0.0,0.0,0.0,0.0,0.0
608,0.0,-0.2097392578125,0.0,0.0,0.0,0.0,0.0,0.0,0.403,0.0,0.0,0.0,0.0,0.0,0.0,-0.1301134808066394,0.0,0.0,0.0,0.0,0.0,0.0,-43.512,0.0,0.0,0.0,0.0,0.0
609,0.0,-0.20571875,0.0,0.0,0.0,0.0,0.0,0.0,0.403,0.0,0.0,0.0,0.0,0.0,0.0,-0.1242651110580471,0.0,0.0,0.0,0.0,0.0,0.0,-43.62,0.0,0.0,0.0,0.0,0.0
610,0.0,-0.20180859375,0.0,0.0,0.0,0.0,0.0,0.0,0.397,0.0,0.0,0.0,0.0,0.0,0.0,-0.11835249089076433,0.0,0.0,0.0,0.0,0.0,0.0,-43.512,0.0,0.0,0.0,0.0,0.0
611,0.0,-0.197994140625,0.0,0.0,0.0,0.0,0.0,0.0,0.39,0.0,0.0,0.0,0.0,0.0,0.0,-0.11250699810514725,0.0,0.0,0.0,0.0,0.0,0.0,-43.512,0.0,0.0,0.0,0.0,0.0
612,0.0,-0.1939814453125,0.0,0.0,0.0,0.0,0.0,0.0,0.393,0.0,0.0,0.0,0.0,0.0,0.0,-0.10660438302451944,0.0,0.0,0.0,0.0,0.0,0.0,-43.512,0.0,0.0,0.0,0.0,0.0
613,0.0,-0.1899677734375,0.0,0.0,0.0,0.0,0.0,0.0,0.401,0.0,0.0,0.0,0.0,0.0,0.0,-0.1006544288898501,0.0,0.0,0.0,0.0,0.0,0.0,-43.512,0.0,0.0,0.0,0.0,0.0
614,0.0,-0.1859541015625,0.0,0.0,0.0,0.0,0.0,0.0,0.405,0.0,0.0,0.0,0.0,0.0,0.0,-0.09476179303137877,0.0,0.0,0.0,0.0,0.0,0.0,-43.836,0.0,0.0,0.0,0.0,0.0
615,0.0,-0.1819345703125,0.0,0.0,0.0,0.0,0.0,0.0,0.402,0.0,0.0,0.0,0.0,0.0,0.0,-0.08884307417223762,0.0,0.0,0.0,0.0,0.0,0.0,-43.944,0.0,0.0,0.0,0.0,0.0
616,0.0,-0.178126953125,0.0,0.0,0.0,0.0,0.0,0.0,0.396,0.0,0.0,0.0,0.0,0.0,0.0,-0.0828633647865942,0.0,0.0,0.0,0.0,0.0,0.0,-43.62,0.0,0.0,0.0,0.0,0.0
617,0.0,-0.1742099609375,0.0,0.0,0.0,0.0,0.0,0.0,0.391,0.0,0.0,0.0,0.0,0.0,0.0,-0.0769673270585081,0.0,0.0,0.0,0.0,0.0,0.0,-43.244,0.0,0.0,0.0,0.0,0.0
618,0.0,-0.1701962890625,0.0,0.0,0.0,0.0,0.0,0.0,0.394,0.0,0.0,0.0,0.0,0.0,0.0,-0.07103048431019499,0.0,0.0,0.0,0.0,0.0,0.0,-43.192,0.0,0.0,0.0,0.0,0.0
619,0.0,-0.1661767578125,0.0,0.0,0.0,0.0,0.0,0.0,0.401,0.0,0.0,0.0,0.0,0.0,0.0,-0.06503225650787453,0.0,0.0,0.0,0.0,0.0,0.0,-43.244,0.0,0.0,0.0,0.0,0.0
620,0.0,-0.1621630859375,0.0,0.0,0.0,0.0,0.0,0.0,0.405,0.0,0.0,0.0,0.0,0.0,0.0,-0.059045951081276735,0.0,0.0,0.0,0.0,0.0,0.0,-43.568,0.0,0.0,0.0,0.0,0.0
621,0.0,-0.15824609375,0.0,0.0,0.0,0.0,0.0,0.0,0.399,0.0,0.0,0.0,0.0,0.0,0.0,-0.053124094559159986,0.0,0.0,0.0,0.0,0.0,0.0,-43.784,0.0,0.0,0.0,0.0,0.0
622,0.0,-0.1543359375,0.0,0.0,0.0,0.0,0.0,0.0,0.397,0.0,0.0,0.0,0.0,0.0,0.0,-0.04712300363384631,0.0,0.0,0.0,0.0,0.0,0.0,-43.568,0.0,0.0,0.0,0.0,0.0
623,0.0,-0.1504189453125,0.0,0.0,0.0,0.0,0.0,0.0,0.392,0.0,0.0,0.0,0.0,0.0,0.0,-0.04111602384526823,0.0,0.0,0.0,0.0,0.0,0.0,-43.62,0.0,0.0,0.0,0.0,0.0
624,0.0,-0.1464052734375,0.0,0.0,0.0,0.0,0.0,0.0,0.393,0.0,0.0,0.0,0.0,0.0,0.0,-0.035171876314661926,0.0,0.0,0.0,0.0,0.0,0.0,-43.728,0.0,0.0,0.0,0.0,0.0
625,0.0,-0.1423916015625,0.0,0.0,0.0,0.0,0.0,0.0,0.403,0.0,0.0,0.0,0.0,0.0,0.0,-0.02912353099272959,0.0,0.0,0.0,0.0,0.0,0.0,-43.728,0.0,0.0,0.0,0.0,0.0
626,0.0,-0.1383720703125,0.0,0.0,0.0,0.0,0.0,0.0,0.404,0.0,0.0,0.0,0.0,0.0,0.0,-0.023119103677474762,0.0,0.0,0.0,0.0,0.0,0.0,-44.216,0.0,0.0,0.0,0.0,0.0
627,0.0,-0.1343583984375,0.0,0.0,0.0,0.0,0.0,0.0,0.403,0.0,0.0,0.0,0.0,0.0,0.0,-0.017172270604619875,0.0,0.0,0.0,0.0,0.0,0.0,-44.376,0.0,0.0,0.0,0.0,0.0
628,0.0,-0.13044140625,0.0,0.0,0.0,0.0,0.0,0.0,0.4,0.0,0.0,0.0,0.0,0.0,0.0,-0.011154810036885699,0.0,0.0,0.0,0.0,0.0,0.0,-44.0,0.0,0.0,0.0,0.0,0.0
629,0.0,-0.12653125,0.0,0.0,0.0,0.0,0.0,0.0,0.395,0.0,0.0,0.0,0.0,0.0,0.0,-0.005138515595272376,0.0,0.0,0.0,0.0,0.0,0.0,-43.676,0.0,0.0,0.0,0.0,0.0
630,0.0,-0.1225107421875,0.0,0.0,0.0,0.0,0.0,0.0,0.397,0.0,0.0,0.0,0.0,0.0,0.0,0.0008242223086317764,0.0,0.0,0.0,0.0,0.0,0.0,-43.728,0.0,0.0,0.0,0.0,0.0
631,0.0,-0.1184970703125,0.0,0.0,0.0,0.0,0.0,0.0,0.404,0.0,0.0,0.0,0.0,0.0,0.0,6.008148193258967e-06,0.0,0.0,0.0,0.0,0.0,0.0,-43.728,0.0,0.0,0.0,0.0,0.0
632,0.0,-0.1144775390625,0.0,0.0,0.0,0.0,0.0,0.0,0.405,0.0,0.0,0.0,0.0,0.0,0.0,0.006057540980931996,0.0,0.0,0.0,0.0,0.0,0.0,-43.892,0.0,0.0,0.0,0.0,0.0
633,0.0,-0.1104638671875,0.0,0.0,0.0,0.0,0.0,0.0,0.405,0.0,0.0,0.0,0.0,0.0,0.0,0.011998616484038375,0.0,0.0,0.0,0.0,0.0,0.0,-43.944,0.0,0.0,0.0,0.0,0.0
634,0.0,-0.1064443359375,0.0,0.0,0.0,0.0,0.0,0.0,0.402,0.0,0.0,0.0,0.0,0.0,0.0,0.017994995174482612,0.0,0.0,0.0,0.0,0.0,0.0,-43.892,0.0,0.0,0.0,0.0,0.0
635,0.0,-0.1025341796875,0.0,0.0,0.0,0.0,0.0,0.0,0.397,0.0,0.0,0.0,0.0,0.0,0.0,0.02405060928553933,0.0,0.0,0.0,0.0,0.0,0.0,-43.892,0.0,0.0,0.0,0.0,0.0
636,0.0,-0.0985205078125,0.0,0.0,0.0,0.0,0.0,0.0,0.396,0.0,0.0,0.0,0.0,0.0,0.0,0.02999290213680448,0.0,0.0,0.0,0.0,0.0,0.0,-44.0,0.0,0.0,0.0,0.0,0.0
637,0.0,-0.0945068359375,0.0,0.0,0.0,0.0,0.0,0.0,0.403,0.0,0.0,0.0,0.0,0.0,0.0,0.0359742285980503,0.0,0.0,0.0,0.0,0.0,0.0,-44.216,0.0,0.0,0.0,0.0,0.0
638,0.0,-0.0904873046875,0.0,0.0,0.0,0.0,0.0,0.0,0.402,0.0,0.0,0.0,0.0,0.0,0.0,0.04201604168562064,0.0,0.0,0.0,0.0,0.0,0.0,-44.7,0.0,0.0,0.0,0.0,0.0
639,0.0,-0.086576171875,0.0,0.0,0.0,0.0,0.0,0.0,0.403,0.0,0.0,0.0,0.0,0.0,0.0,0.047956613397001135,0.0,0.0,0.0,0.0,0.0,0.0,-44.808,0.0,0.0,0.0,0.0,0.0
640,0.0,-0.082556640625,0.0,0.0,0.0,0.0,0.0,0.0,0.4,0.0,0.0,0.0,0.0,0.0,0.0,0.053921806755974994,0.0,0.0,0.0,0.0,0.0,0.0,-44.324,0.0,0.0,0.0,0.0,0.0
641,0.0,-0.078646484375,0.0,0.0,0.0,0.0,0.0,0.0,0.399,0.0,0.0,0.0,0.0,0.0,0.0,0.05994966828072067,0.0,0.0,0.0,0.0,0.0,0.0,-44.052,0.0,0.0,0.0,0.0,0.0
642,0.0,-0.0746328125,0.0,0.0,0.0,0.0,0.0,0.0,0.398,0.0,0.0,0.0,0.0,0.0,0.0,0.06587061478956407,0.0,0.0,0.0,0.0,0.0,0.0,-44.108,0.0,0.0,0.0,0.0,0.0
643,0.0,-0.07061328125,0.0,0.0,0.0,0.0,0.0,0.0,0.401,0.0,0.0,0.0,0.0,0.0,0.0,0.07183861798284838,0.0,0.0,0.0,0.0,0.0,0.0,-44.108,0.0,0.0,0.0,0.0,0.0
644,0.0,-0.066599609375,0.0,0.0,0.0,0.0,0.0,0.0,0.402,0.0,0.0,0.0,0.0,0.0,0.0,0.07782509247523432,0.0,0.0,0.0,0.0,0.0,0.0,-44.268,0.0,0.0,0.0,0.0,0.0
645,0.0,-0.0626826171875,0.0,0.0,0.0,0.0,0.0,0.0,0.402,0.0,0.0,0.0,0.0,0.0,0.0,0.08373244707867149,0.0,0.0,0.0,0.0,0.0,0.0,-44.324,0.0,0.0,0.0,0.0,0.0
646,0.0,-0.0586689453125,0.0,0.0,0.0,0.0,0.0,0.0,0.397,0.0,0.0,0.0,0.0,0.0,0.0,0.08966109727880528,0.0,0.0,0.0,0.0,0.0,0.0,-44.108,0.0,0.0,0.0,0.0,0.0
647,0.0,-0.054751953125,0.0,0.0,0.0,0.0,0.0,0.0,0.397,0.0,0.0,0.0,0.0,0.0,0.0,0.09564492197826313,0.0,0.0,0.0,0.0,0.0,0.0,-44.052,0.0,0.0,0.0,0.0,0.0
648,0.0,-0.05073828125,0.0,0.0,0.0,0.0,0.0,0.0,0.396,0.0,0.0,0.0,0.0,0.0,0.0,0.1015148121356606,0.0,0.0,0.0,0.0,0.0,0.0,-44.052,0.0,0.0,0.0,0.0,0.0
649,0.0,-0.04671875,0.0,0.0,0.0,0.0,0.0,0.0,0.402,0.0,0.0,0.0,0.0,0.0,0.0,0.10742017604125023,0.0,0.0,0.0,0.0,0.0,0.0,-44.216,0.0,0.0,0.0,0.0,0.0
650,0.0,-0.04280859375,0.0,0.0,0.0,0.0,0.0,0.0,0.402,0.0,0.0,0.0,0.0,0.0,0.0,0.11334725877502877,0.0,0.0,0.0,0.0,0.0,0.0,-44.648,0.0,0.0,0.0,0.0,0.0
651,0.0,-0.0387880859375,0.0,0.0,0.0,0.0,0.0,0.0,0.4,0.0,0.0,0.0,0.0,0.0,0.0,0.11920807569356823,0.0,0.0,0.0,0.0,0.0,0.0,-44.648,0.0,0.0,0.0,0.0,0.0
652,0.0,-0.034775390625,0.0,0.0,0.0,0.0,0.0,0.0,0.402,0.0,0.0,0.0,0.0,0.0,0.0,0.12505721449775822,0.0,0.0,0.0,0.0,0.0,0.0,-44.216,0.0,0.0,0.0,0.0,0.0
653,0.0,-0.0308583984375,0.0,0.0,0.0,0.0,0.0,0.0,0.397,0.0,0.0,0.0,0.0,0.0,0.0,0.1310589634163622,0.0,0.0,0.0,0.0,0.0,0.0,-43.892,0.0,0.0,0.0,0.0,0.0
654,0.0,-0.0268447265625,0.0,0.0,0.0,0.0,0.0,0.0,0.398,0.0,0.0,0.0,0.0,0.0,0.0,0.13679293232395776,0.0,0.0,0.0,0.0,0.0,0.0,-44.108,0.0,0.0,0.0,0.0,0.0
655,0.0,-0.0228310546875,0.0,0.0,0.0,0.0,0.0,0.0,0.402,0.0,0.0,0.0,0.0,0.0,0.0,0.14261866344129104,0.0,0.0,0.0,0.0,0.0,0.0,-44.052,0.0,0.0,0.0,0.0,0.0
656,0.0,-0.0189140625,0.0,0.0,0.0,0.0,0.0,0.0,0.402,0.0,0.0,0.0,0.0,0.0,0.0,0.148502944709642,0.0,0.0,0.0,0.0,0.0,0.0,-44.216,0.0,0.0,0.0,0.0,0.0
657,0.0,-0.014900390625,0.0,0.0,0.0,0.0,0.0,0.0,0.399,0.0,0.0,0.0,0.0,0.0,0.0,0.15425758787999141,0.0,0.0,0.0,0.0,0.0,0.0,-44.376,0.0,0.0,0.0,0.0,0.0
658,0.0,-0.0109833984375,0.0,0.0,0.0,0.0,0.0,0.0,0.4,0.0,0.0,0.0,0.0,0.0,0.0,0.16004298703572256,0.0,0.0,0.0,0.0,0.0,0.0,-44.16,0.0,0.0,0.0,0.0,0.0
659,0.0,-0.006970703125,0.0,0.0,0.0,0.0,0.0,0.0,0.399,0.0,0.0,0.0,0.0,0.0,0.0,0.16587166334929515,0.0,0.0,0.0,0.0,0.0,0.0,-44.108,0.0,0.0,0.0,0.0,0.0
660,0.0,-0.0030537109375,0.0,0.0,0.0,0.0,0.0,0.0,0.397,0.0,0.0,0.0,0.0,0.0,0.0,0.17159434207790317,0.0,0.0,0.0,0.0,0.0,0.0,-44.268,0.0,0.0,0.0,0.0,0.0
661,0.0,0.0009599609375,0.0,0.0,0.0,0.0,0.0,0.0,0.401,0.0,0.0,0.0,0.0,0.0,0.0,0.17732767606497354,0.0,0.0,0.0,0.0,0.0,0.0,-44.324,0.0,0.0,0.0,0.0,0.0
662,0.0,0.0049794921875,0.0,0.0,0.0,0.0,0.0,0.0,0.403,0.0,0.0,0.0,0.0,0.0,0.0,0.18314317820132403,0.0,0.0,0.0,0.0,0.0,0.0,-44.592,0.0,0.0,0.0,0.0,0.0
663,0.0,0.0089931640625,0.0,0.0,0.0,0.0,0.0,0.0,0.402,0.0,0.0,0.0,0.0,0.0,0.0,0.188745058331257,0.0,0.0,0.0,0.0,0.0,0.0,-44.7,0.0,0.0,0.0,0.0,0.0
664,0.0,0.013013671875,0.0,0.0,0.0,0.0,0.0,0.0,0.401,0.0,0.0,0.0,0.0,0.0,0.0,0.19443998357647818,0.0,0.0,0.0,0.0,0.0,0.0,-44.268,0.0,0.0,0.0,0.0,0.0
665,0.0,0.016923828125,0.0,0.0,0.0,0.0,0.0,0.0,0.403,0.0,0.0,0.0,0.0,0.0,0.0,0.2001766282053448,0.0,0.0,0.0,0.0,0.0,0.0,-44.0,0.0,0.0,0.0,0.0,0.0
666,0.0,0.020943359375,0.0,0.0,0.0,0.0,0.0,0.0,0.397,0.0,0.0,0.0,0.0,0.0,0.0,0.2057950685969893,0.0,0.0,0.0,0.0,0.0,0.0,-44.108,0.0,0.0,0.0,0.0,0.0
667,0.0,0.02495703125,0.0,0.0,0.0,0.0,0.0,0.0,0.4,0.0,0.0,0.0,0.0,0.0,0.0,0.21139380073447134,0.0,0.0,0.0,0.0,0.0,0.0,-44.052,0.0,0.0,0.0,0.0,0.0
668,0.0,0.0288671875,0.0,0.0,0.0,0.0,0.0,0.0,0.403,0.0,0.0,0.0,0.0,0.0,0.0,0.21701734110884488,0.0,0.0,0.0,0.0,0.0,0.0,-44.216,0.0,0.0,0.0,0.0,0.0
