EmanuelSamir/lab201_ws_projsamir/sawyer_dev/data/sawyer/vel_sin_motion_incrf/test_joint2/training_data_4.csv
,j1,j2,j3,j4,j5,j6,j7,v1,v2,v3,v4,v5,v6,v7,jd1,jd2,jd3,jd4,jd5,jd6,jd7,e1,e2,e3,e4,e5,e6,e7
0,0.0,0.0,0.0,0.0,0.0,0.0,0.0,0.0,0.0,0.0,0.0,0.0,0.0,0.0,0.0,0.0,0.0,0.0,0.0,0.0,0.0,0.0,0.0,0.0,0.0,0.0,0.0,0.0
1,0.0,0.0022978515625,0.0,0.0,0.0,0.0,0.0,0.0,-0.001,0.0,0.0,0.0,0.0,0.0,0.0,9.098052943650467e-05,0.0,0.0,0.0,0.0,0.0,0.0,-44.54,0.0,0.0,0.0,0.0,0.0
2,0.0,0.0022978515625,0.0,0.0,0.0,0.0,0.0,0.0,-0.001,0.0,0.0,0.0,0.0,0.0,0.0,0.013597277944739689,0.0,0.0,0.0,0.0,0.0,0.0,-44.54,0.0,0.0,0.0,0.0,0.0
3,0.0,0.0022978515625,0.0,0.0,0.0,0.0,0.0,0.0,-0.001,0.0,0.0,0.0,0.0,0.0,0.0,0.038397851988521706,0.0,0.0,0.0,0.0,0.0,0.0,-44.54,0.0,0.0,0.0,0.0,0.0
4,0.0,0.0022978515625,0.0,0.0,0.0,0.0,0.0,0.0,-0.001,0.0,0.0,0.0,0.0,0.0,0.0,0.06191029477994846,0.0,0.0,0.0,0.0,0.0,0.0,-44.216,0.0,0.0,0.0,0.0,0.0
5,0.0,0.0030185546875,0.0,0.0,0.0,0.0,0.0,0.0,0.025,0.0,0.0,0.0,0.0,0.0,0.0,0.0857455357642228,0.0,0.0,0.0,0.0,0.0,0.0,-39.304,0.0,0.0,0.0,0.0,0.0
6,0.0,0.004568359375,0.0,0.0,0.0,0.0,0.0,0.0,0.104,0.0,0.0,0.0,0.0,0.0,0.0,0.10960821895772276,0.0,0.0,0.0,0.0,0.0,0.0,-32.232,0.0,0.0,0.0,0.0,0.0
7,0.0,0.0063173828125,0.0,0.0,0.0,0.0,0.0,0.0,0.165,0.0,0.0,0.0,0.0,0.0,0.0,0.13349643589603272,0.0,0.0,0.0,0.0,0.0,0.0,-28.56,0.0,0.0,0.0,0.0,0.0
8,0.0,0.008787109375,0.0,0.0,0.0,0.0,0.0,0.0,0.209,0.0,0.0,0.0,0.0,0.0,0.0,0.15663819975161877,0.0,0.0,0.0,0.0,0.0,0.0,-26.616,0.0,0.0,0.0,0.0,0.0
9,0.0,0.011462890625,0.0,0.0,0.0,0.0,0.0,0.0,0.257,0.0,0.0,0.0,0.0,0.0,0.0,0.1791819148814364,0.0,0.0,0.0,0.0,0.0,0.0,-26.508,0.0,0.0,0.0,0.0,0.0
10,0.0,0.014248046875,0.0,0.0,0.0,0.0,0.0,0.0,0.263,0.0,0.0,0.0,0.0,0.0,0.0,0.2020574185692969,0.0,0.0,0.0,0.0,0.0,0.0,-25.32,0.0,0.0,0.0,0.0,0.0
11,0.0,0.018158203125,0.0,0.0,0.0,0.0,0.0,0.0,0.322,0.0,0.0,0.0,0.0,0.0,0.0,0.22615364614947983,0.0,0.0,0.0,0.0,0.0,0.0,-24.508,0.0,0.0,0.0,0.0,0.0
12,0.0,0.0224873046875,0.0,0.0,0.0,0.0,0.0,0.0,0.416,0.0,0.0,0.0,0.0,0.0,0.0,0.2464324782817974,0.0,0.0,0.0,0.0,0.0,0.0,-26.292,0.0,0.0,0.0,0.0,0.0
13,0.0,0.027220703125,0.0,0.0,0.0,0.0,0.0,0.0,0.45,0.0,0.0,0.0,0.0,0.0,0.0,0.26820800392956506,0.0,0.0,0.0,0.0,0.0,0.0,-29.856,0.0,0.0,0.0,0.0,0.0
14,0.0,0.0321669921875,0.0,0.0,0.0,0.0,0.0,0.0,0.489,0.0,0.0,0.0,0.0,0.0,0.0,0.28945637654742995,0.0,0.0,0.0,0.0,0.0,0.0,-33.956,0.0,0.0,0.0,0.0,0.0
15,0.0,0.036591796875,0.0,0.0,0.0,0.0,0.0,0.0,0.472,0.0,0.0,0.0,0.0,0.0,0.0,0.31013686333399043,0.0,0.0,0.0,0.0,0.0,0.0,-35.9,0.0,0.0,0.0,0.0,0.0
16,0.0,0.04133203125,0.0,0.0,0.0,0.0,0.0,0.0,0.454,0.0,0.0,0.0,0.0,0.0,0.0,0.3302985416114221,0.0,0.0,0.0,0.0,0.0,0.0,-37.736,0.0,0.0,0.0,0.0,0.0
17,0.0,0.0464775390625,0.0,0.0,0.0,0.0,0.0,0.0,0.499,0.0,0.0,0.0,0.0,0.0,0.0,0.35027368592351227,0.0,0.0,0.0,0.0,0.0,0.0,-39.736,0.0,0.0,0.0,0.0,0.0
18,0.0,0.052041015625,0.0,0.0,0.0,0.0,0.0,0.0,0.534,0.0,0.0,0.0,0.0,0.0,0.0,0.36936805420670366,0.0,0.0,0.0,0.0,0.0,0.0,-41.084,0.0,0.0,0.0,0.0,0.0
19,0.0,0.057810546875,0.0,0.0,0.0,0.0,0.0,0.0,0.57,0.0,0.0,0.0,0.0,0.0,0.0,0.38804834743295435,0.0,0.0,0.0,0.0,0.0,0.0,-43.136,0.0,0.0,0.0,0.0,0.0
20,0.0,0.06305859375,0.0,0.0,0.0,0.0,0.0,0.0,0.56,0.0,0.0,0.0,0.0,0.0,0.0,0.4060042547720073,0.0,0.0,0.0,0.0,0.0,0.0,-45.188,0.0,0.0,0.0,0.0,0.0
21,0.0,0.0680048828125,0.0,0.0,0.0,0.0,0.0,0.0,0.509,0.0,0.0,0.0,0.0,0.0,0.0,0.4234562408495225,0.0,0.0,0.0,0.0,0.0,0.0,-46.104,0.0,0.0,0.0,0.0,0.0
22,0.0,0.0729443359375,0.0,0.0,0.0,0.0,0.0,0.0,0.498,0.0,0.0,0.0,0.0,0.0,0.0,0.44001310128466276,0.0,0.0,0.0,0.0,0.0,0.0,-45.944,0.0,0.0,0.0,0.0,0.0
23,0.0,0.0780966796875,0.0,0.0,0.0,0.0,0.0,0.0,0.507,0.0,0.0,0.0,0.0,0.0,0.0,0.4561351866184219,0.0,0.0,0.0,0.0,0.0,0.0,-45.564,0.0,0.0,0.0,0.0,0.0
24,0.0,0.08366015625,0.0,0.0,0.0,0.0,0.0,0.0,0.535,0.0,0.0,0.0,0.0,0.0,0.0,0.4713016850468203,0.0,0.0,0.0,0.0,0.0,0.0,-46.104,0.0,0.0,0.0,0.0,0.0
25,0.0,0.0888056640625,0.0,0.0,0.0,0.0,0.0,0.0,0.54,0.0,0.0,0.0,0.0,0.0,0.0,0.4857266260769595,0.0,0.0,0.0,0.0,0.0,0.0,-47.888,0.0,0.0,0.0,0.0,0.0
26,0.0,0.0935458984375,0.0,0.0,0.0,0.0,0.0,0.0,0.498,0.0,0.0,0.0,0.0,0.0,0.0,0.4995144146660867,0.0,0.0,0.0,0.0,0.0,0.0,-48.86,0.0,0.0,0.0,0.0,0.0
27,0.0,0.098279296875,0.0,0.0,0.0,0.0,0.0,0.0,0.479,0.0,0.0,0.0,0.0,0.0,0.0,0.5123046004071277,0.0,0.0,0.0,0.0,0.0,0.0,-48.48,0.0,0.0,0.0,0.0,0.0
28,0.0,0.10301953125,0.0,0.0,0.0,0.0,0.0,0.0,0.478,0.0,0.0,0.0,0.0,0.0,0.0,0.5243492414384383,0.0,0.0,0.0,0.0,0.0,0.0,-48.104,0.0,0.0,0.0,0.0,0.0
29,0.0,0.107953125,0.0,0.0,0.0,0.0,0.0,0.0,0.48,0.0,0.0,0.0,0.0,0.0,0.0,0.5357438833048085,0.0,0.0,0.0,0.0,0.0,0.0,-48.264,0.0,0.0,0.0,0.0,0.0
30,0.0,0.1127958984375,0.0,0.0,0.0,0.0,0.0,0.0,0.499,0.0,0.0,0.0,0.0,0.0,0.0,0.5460488068846636,0.0,0.0,0.0,0.0,0.0,0.0,-49.776,0.0,0.0,0.0,0.0,0.0
31,0.0,0.1171181640625,0.0,0.0,0.0,0.0,0.0,0.0,0.463,0.0,0.0,0.0,0.0,0.0,0.0,0.555462264359586,0.0,0.0,0.0,0.0,0.0,0.0,-49.668,0.0,0.0,0.0,0.0,0.0
32,0.0,0.1214462890625,0.0,0.0,0.0,0.0,0.0,0.0,0.433,0.0,0.0,0.0,0.0,0.0,0.0,0.564163065859126,0.0,0.0,0.0,0.0,0.0,0.0,-48.536,0.0,0.0,0.0,0.0,0.0
33,0.0,0.1255634765625,0.0,0.0,0.0,0.0,0.0,0.0,0.427,0.0,0.0,0.0,0.0,0.0,0.0,0.5720697495681032,0.0,0.0,0.0,0.0,0.0,0.0,-47.832,0.0,0.0,0.0,0.0,0.0
34,0.0,0.1297890625,0.0,0.0,0.0,0.0,0.0,0.0,0.417,0.0,0.0,0.0,0.0,0.0,0.0,0.5786278056865224,0.0,0.0,0.0,0.0,0.0,0.0,-47.724,0.0,0.0,0.0,0.0,0.0
35,0.0,0.134111328125,0.0,0.0,0.0,0.0,0.0,0.0,0.435,0.0,0.0,0.0,0.0,0.0,0.0,0.5845507788765785,0.0,0.0,0.0,0.0,0.0,0.0,-48.752,0.0,0.0,0.0,0.0,0.0
36,0.0,0.1379248046875,0.0,0.0,0.0,0.0,0.0,0.0,0.41,0.0,0.0,0.0,0.0,0.0,0.0,0.5895139033251083,0.0,0.0,0.0,0.0,0.0,0.0,-48.912,0.0,0.0,0.0,0.0,0.0
37,0.0,0.1415263671875,0.0,0.0,0.0,0.0,0.0,0.0,0.374,0.0,0.0,0.0,0.0,0.0,0.0,0.5935306701677713,0.0,0.0,0.0,0.0,0.0,0.0,-47.832,0.0,0.0,0.0,0.0,0.0
38,0.0,0.145134765625,0.0,0.0,0.0,0.0,0.0,0.0,0.363,0.0,0.0,0.0,0.0,0.0,0.0,0.5965294963025494,0.0,0.0,0.0,0.0,0.0,0.0,-46.592,0.0,0.0,0.0,0.0,0.0
39,0.0,0.1487431640625,0.0,0.0,0.0,0.0,0.0,0.0,0.359,0.0,0.0,0.0,0.0,0.0,0.0,0.5986373676987046,0.0,0.0,0.0,0.0,0.0,0.0,-45.944,0.0,0.0,0.0,0.0,0.0
40,0.0,0.15255078125,0.0,0.0,0.0,0.0,0.0,0.0,0.374,0.0,0.0,0.0,0.0,0.0,0.0,0.5997720762047656,0.0,0.0,0.0,0.0,0.0,0.0,-45.944,0.0,0.0,0.0,0.0,0.0
41,0.0,0.15615234375,0.0,0.0,0.0,0.0,0.0,0.0,0.375,0.0,0.0,0.0,0.0,0.0,0.0,0.599953607359856,0.0,0.0,0.0,0.0,0.0,0.0,-45.728,0.0,0.0,0.0,0.0,0.0
42,0.0,0.1594521484375,0.0,0.0,0.0,0.0,0.0,0.0,0.35,0.0,0.0,0.0,0.0,0.0,0.0,0.5991738423696205,0.0,0.0,0.0,0.0,0.0,0.0,-44.7,0.0,0.0,0.0,0.0,0.0
43,0.0,0.1627451171875,0.0,0.0,0.0,0.0,0.0,0.0,0.333,0.0,0.0,0.0,0.0,0.0,0.0,0.5974331895887742,0.0,0.0,0.0,0.0,0.0,0.0,-43.296,0.0,0.0,0.0,0.0,0.0
44,0.0,0.1661474609375,0.0,0.0,0.0,0.0,0.0,0.0,0.331,0.0,0.0,0.0,0.0,0.0,0.0,0.594741177489851,0.0,0.0,0.0,0.0,0.0,0.0,-42.22,0.0,0.0,0.0,0.0,0.0
45,0.0,0.1697490234375,0.0,0.0,0.0,0.0,0.0,0.0,0.348,0.0,0.0,0.0,0.0,0.0,0.0,0.5910738827121508,0.0,0.0,0.0,0.0,0.0,0.0,-42.112,0.0,0.0,0.0,0.0,0.0
46,0.0,0.1733515625,0.0,0.0,0.0,0.0,0.0,0.0,0.367,0.0,0.0,0.0,0.0,0.0,0.0,0.5865248625744203,0.0,0.0,0.0,0.0,0.0,0.0,-42.812,0.0,0.0,0.0,0.0,0.0
47,0.0,0.1769599609375,0.0,0.0,0.0,0.0,0.0,0.0,0.362,0.0,0.0,0.0,0.0,0.0,0.0,0.5809835026556647,0.0,0.0,0.0,0.0,0.0,0.0,-42.544,0.0,0.0,0.0,0.0,0.0
48,0.0,0.18035546875,0.0,0.0,0.0,0.0,0.0,0.0,0.354,0.0,0.0,0.0,0.0,0.0,0.0,0.5745059987196653,0.0,0.0,0.0,0.0,0.0,0.0,-42.056,0.0,0.0,0.0,0.0,0.0
49,0.0,0.18395703125,0.0,0.0,0.0,0.0,0.0,0.0,0.351,0.0,0.0,0.0,0.0,0.0,0.0,0.5671627495637446,0.0,0.0,0.0,0.0,0.0,0.0,-41.408,0.0,0.0,0.0,0.0,0.0
50,0.0,0.1875654296875,0.0,0.0,0.0,0.0,0.0,0.0,0.36,0.0,0.0,0.0,0.0,0.0,0.0,0.5588522135863839,0.0,0.0,0.0,0.0,0.0,0.0,-41.464,0.0,0.0,0.0,0.0,0.0
51,0.0,0.191373046875,0.0,0.0,0.0,0.0,0.0,0.0,0.374,0.0,0.0,0.0,0.0,0.0,0.0,0.54967880863326,0.0,0.0,0.0,0.0,0.0,0.0,-41.84,0.0,0.0,0.0,0.0,0.0
52,0.0,0.1952900390625,0.0,0.0,0.0,0.0,0.0,0.0,0.384,0.0,0.0,0.0,0.0,0.0,0.0,0.5396078631698699,0.0,0.0,0.0,0.0,0.0,0.0,-42.488,0.0,0.0,0.0,0.0,0.0
53,0.0,0.19909765625,0.0,0.0,0.0,0.0,0.0,0.0,0.387,0.0,0.0,0.0,0.0,0.0,0.0,0.5286921251756402,0.0,0.0,0.0,0.0,0.0,0.0,-42.164,0.0,0.0,0.0,0.0,0.0
54,0.0,0.202802734375,0.0,0.0,0.0,0.0,0.0,0.0,0.381,0.0,0.0,0.0,0.0,0.0,0.0,0.5169109760257727,0.0,0.0,0.0,0.0,0.0,0.0,-41.516,0.0,0.0,0.0,0.0,0.0
55,0.0,0.2067197265625,0.0,0.0,0.0,0.0,0.0,0.0,0.379,0.0,0.0,0.0,0.0,0.0,0.0,0.5041084522935538,0.0,0.0,0.0,0.0,0.0,0.0,-40.868,0.0,0.0,0.0,0.0,0.0
56,0.0,0.2106298828125,0.0,0.0,0.0,0.0,0.0,0.0,0.395,0.0,0.0,0.0,0.0,0.0,0.0,0.4910467447130747,0.0,0.0,0.0,0.0,0.0,0.0,-41.248,0.0,0.0,0.0,0.0,0.0
57,0.0,0.2147529296875,0.0,0.0,0.0,0.0,0.0,0.0,0.404,0.0,0.0,0.0,0.0,0.0,0.0,0.4767542685372056,0.0,0.0,0.0,0.0,0.0,0.0,-41.896,0.0,0.0,0.0,0.0,0.0
58,0.0,0.218869140625,0.0,0.0,0.0,0.0,0.0,0.0,0.414,0.0,0.0,0.0,0.0,0.0,0.0,0.4617103205964387,0.0,0.0,0.0,0.0,0.0,0.0,-42.38,0.0,0.0,0.0,0.0,0.0
59,0.0,0.2228828125,0.0,0.0,0.0,0.0,0.0,0.0,0.409,0.0,0.0,0.0,0.0,0.0,0.0,0.44608696445734425,0.0,0.0,0.0,0.0,0.0,0.0,-42.38,0.0,0.0,0.0,0.0,0.0
60,0.0,0.2270048828125,0.0,0.0,0.0,0.0,0.0,0.0,0.408,0.0,0.0,0.0,0.0,0.0,0.0,0.4297109532076969,0.0,0.0,0.0,0.0,0.0,0.0,-42.164,0.0,0.0,0.0,0.0,0.0
61,0.0,0.23112109375,0.0,0.0,0.0,0.0,0.0,0.0,0.414,0.0,0.0,0.0,0.0,0.0,0.0,0.4126147974668125,0.0,0.0,0.0,0.0,0.0,0.0,-42.436,0.0,0.0,0.0,0.0,0.0
62,0.0,0.235244140625,0.0,0.0,0.0,0.0,0.0,0.0,0.414,0.0,0.0,0.0,0.0,0.0,0.0,0.39485844303508394,0.0,0.0,0.0,0.0,0.0,0.0,-43.028,0.0,0.0,0.0,0.0,0.0
63,0.0,0.2394638671875,0.0,0.0,0.0,0.0,0.0,0.0,0.415,0.0,0.0,0.0,0.0,0.0,0.0,0.3764431848817229,0.0,0.0,0.0,0.0,0.0,0.0,-43.352,0.0,0.0,0.0,0.0,0.0
64,0.0,0.243689453125,0.0,0.0,0.0,0.0,0.0,0.0,0.424,0.0,0.0,0.0,0.0,0.0,0.0,0.35734859643958006,0.0,0.0,0.0,0.0,0.0,0.0,-43.836,0.0,0.0,0.0,0.0,0.0
65,0.0,0.2478056640625,0.0,0.0,0.0,0.0,0.0,0.0,0.422,0.0,0.0,0.0,0.0,0.0,0.0,0.33787205630732303,0.0,0.0,0.0,0.0,0.0,0.0,-43.62,0.0,0.0,0.0,0.0,0.0
66,0.0,0.251921875,0.0,0.0,0.0,0.0,0.0,0.0,0.414,0.0,0.0,0.0,0.0,0.0,0.0,0.31800607111581936,0.0,0.0,0.0,0.0,0.0,0.0,-43.192,0.0,0.0,0.0,0.0,0.0
67,0.0,0.2561474609375,0.0,0.0,0.0,0.0,0.0,0.0,0.421,0.0,0.0,0.0,0.0,0.0,0.0,0.2969883070977489,0.0,0.0,0.0,0.0,0.0,0.0,-42.976,0.0,0.0,0.0,0.0,0.0
68,0.0,0.260263671875,0.0,0.0,0.0,0.0,0.0,0.0,0.417,0.0,0.0,0.0,0.0,0.0,0.0,0.27609874655659133,0.0,0.0,0.0,0.0,0.0,0.0,-43.244,0.0,0.0,0.0,0.0,0.0
69,0.0,0.26438671875,0.0,0.0,0.0,0.0,0.0,0.0,0.414,0.0,0.0,0.0,0.0,0.0,0.0,0.25474086887352015,0.0,0.0,0.0,0.0,0.0,0.0,-43.352,0.0,0.0,0.0,0.0,0.0
70,0.0,0.2685029296875,0.0,0.0,0.0,0.0,0.0,0.0,0.414,0.0,0.0,0.0,0.0,0.0,0.0,0.23238406333747202,0.0,0.0,0.0,0.0,0.0,0.0,-43.404,0.0,0.0,0.0,0.0,0.0
71,0.0,0.2725234375,0.0,0.0,0.0,0.0,0.0,0.0,0.414,0.0,0.0,0.0,0.0,0.0,0.0,0.21056066132444037,0.0,0.0,0.0,0.0,0.0,0.0,-44.216,0.0,0.0,0.0,0.0,0.0
72,0.0,0.2753017578125,0.0,0.0,0.0,0.0,0.0,0.0,0.362,0.0,0.0,0.0,0.0,0.0,0.0,0.1878333527294171,0.0,0.0,0.0,0.0,0.0,0.0,-54.256,0.0,0.0,0.0,0.0,0.0
73,0.0,0.27643359375,0.0,0.0,0.0,0.0,0.0,0.0,0.207,0.0,0.0,0.0,0.0,0.0,0.0,0.16382685579220552,0.0,0.0,0.0,0.0,0.0,0.0,-66.244,0.0,0.0,0.0,0.0,0.0
74,0.0,0.2768447265625,0.0,0.0,0.0,0.0,0.0,0.0,0.084,0.0,0.0,0.0,0.0,0.0,0.0,0.14178239674620738,0.0,0.0,0.0,0.0,0.0,0.0,-74.18,0.0,0.0,0.0,0.0,0.0
75,0.0,0.276021484375,0.0,0.0,0.0,0.0,0.0,0.0,-0.012,0.0,0.0,0.0,0.0,0.0,0.0,0.11827975657226769,0.0,0.0,0.0,0.0,0.0,0.0,-76.34,0.0,0.0,0.0,0.0,0.0
76,0.0,0.275095703125,0.0,0.0,0.0,0.0,0.0,0.0,-0.089,0.0,0.0,0.0,0.0,0.0,0.0,0.09008337713855279,0.0,0.0,0.0,0.0,0.0,0.0,-76.716,0.0,0.0,0.0,0.0,0.0
77,0.0,0.27344921875,0.0,0.0,0.0,0.0,0.0,0.0,-0.116,0.0,0.0,0.0,0.0,0.0,0.0,0.07104360453558063,0.0,0.0,0.0,0.0,0.0,0.0,-78.768,0.0,0.0,0.0,0.0,0.0
78,0.0,0.2701494140625,0.0,0.0,0.0,0.0,0.0,0.0,-0.235,0.0,0.0,0.0,0.0,0.0,0.0,0.04694693143074217,0.0,0.0,0.0,0.0,0.0,0.0,-77.472,0.0,0.0,0.0,0.0,0.0
79,0.0,0.265724609375,0.0,0.0,0.0,0.0,0.0,0.0,-0.38,0.0,0.0,0.0,0.0,0.0,0.0,0.022442154388307843,0.0,0.0,0.0,0.0,0.0,0.0,-73.372,0.0,0.0,0.0,0.0,0.0
80,0.0,0.26067578125,0.0,0.0,0.0,0.0,0.0,0.0,-0.471,0.0,0.0,0.0,0.0,0.0,0.0,-0.0010147137589069082,0.0,0.0,0.0,0.0,0.0,0.0,-67.54,0.0,0.0,0.0,0.0,0.0
81,0.0,0.255427734375,0.0,0.0,0.0,0.0,0.0,0.0,-0.523,0.0,0.0,0.0,0.0,0.0,0.0,-0.02479419699982976,0.0,0.0,0.0,0.0,0.0,0.0,-61.708,0.0,0.0,0.0,0.0,0.0
82,0.0,0.2507900390625,0.0,0.0,0.0,0.0,0.0,0.0,-0.503,0.0,0.0,0.0,0.0,0.0,0.0,-0.04898184182402609,0.0,0.0,0.0,0.0,0.0,0.0,-58.092,0.0,0.0,0.0,0.0,0.0
83,0.0,0.2457470703125,0.0,0.0,0.0,0.0,0.0,0.0,-0.483,0.0,0.0,0.0,0.0,0.0,0.0,-0.07288227958069415,0.0,0.0,0.0,0.0,0.0,0.0,-54.852,0.0,0.0,0.0,0.0,0.0
84,0.0,0.240287109375,0.0,0.0,0.0,0.0,0.0,0.0,-0.526,0.0,0.0,0.0,0.0,0.0,0.0,-0.09648345336504459,0.0,0.0,0.0,0.0,0.0,0.0,-50.316,0.0,0.0,0.0,0.0,0.0
85,0.0,0.2287548828125,0.0,0.0,0.0,0.0,0.0,0.0,-0.58,0.0,0.0,0.0,0.0,0.0,0.0,-0.13728391019093095,0.0,0.0,0.0,0.0,0.0,0.0,-43.676,0.0,0.0,0.0,0.0,0.0
86,0.0,0.2287548828125,0.0,0.0,0.0,0.0,0.0,0.0,-0.58,0.0,0.0,0.0,0.0,0.0,0.0,-0.14595243848308984,0.0,0.0,0.0,0.0,0.0,0.0,-43.676,0.0,0.0,0.0,0.0,0.0
87,0.0,0.2234033203125,0.0,0.0,0.0,0.0,0.0,0.0,-0.568,0.0,0.0,0.0,0.0,0.0,0.0,-0.1666337360453349,0.0,0.0,0.0,0.0,0.0,0.0,-42.596,0.0,0.0,0.0,0.0,0.0
88,0.0,0.218251953125,0.0,0.0,0.0,0.0,0.0,0.0,-0.53,0.0,0.0,0.0,0.0,0.0,0.0,-0.18978737775717117,0.0,0.0,0.0,0.0,0.0,0.0,-43.512,0.0,0.0,0.0,0.0,0.0
89,0.0,0.2126884765625,0.0,0.0,0.0,0.0,0.0,0.0,-0.534,0.0,0.0,0.0,0.0,0.0,0.0,-0.21210765270980095,0.0,0.0,0.0,0.0,0.0,0.0,-43.512,0.0,0.0,0.0,0.0,0.0
90,0.0,0.2069248046875,0.0,0.0,0.0,0.0,0.0,0.0,-0.564,0.0,0.0,0.0,0.0,0.0,0.0,-0.23448131812060494,0.0,0.0,0.0,0.0,0.0,0.0,-44.756,0.0,0.0,0.0,0.0,0.0
91,0.0,0.200744140625,0.0,0.0,0.0,0.0,0.0,0.0,-0.596,0.0,0.0,0.0,0.0,0.0,0.0,-0.2564009671331916,0.0,0.0,0.0,0.0,0.0,0.0,-46.376,0.0,0.0,0.0,0.0,0.0
92,0.0,0.1943642578125,0.0,0.0,0.0,0.0,0.0,0.0,-0.635,0.0,0.0,0.0,0.0,0.0,0.0,-0.277930907258834,0.0,0.0,0.0,0.0,0.0,0.0,-47.292,0.0,0.0,0.0,0.0,0.0
93,0.0,0.1884912109375,0.0,0.0,0.0,0.0,0.0,0.0,-0.623,0.0,0.0,0.0,0.0,0.0,0.0,-0.2990000490060742,0.0,0.0,0.0,0.0,0.0,0.0,-44.268,0.0,0.0,0.0,0.0,0.0
94,0.0,0.1824140625,0.0,0.0,0.0,0.0,0.0,0.0,-0.596,0.0,0.0,0.0,0.0,0.0,0.0,-0.3194714279015897,0.0,0.0,0.0,0.0,0.0,0.0,-43.676,0.0,0.0,0.0,0.0,0.0
95,0.0,0.1759306640625,0.0,0.0,0.0,0.0,0.0,0.0,-0.633,0.0,0.0,0.0,0.0,0.0,0.0,-0.3395056731668759,0.0,0.0,0.0,0.0,0.0,0.0,-45.512,0.0,0.0,0.0,0.0,0.0
96,0.0,0.1695439453125,0.0,0.0,0.0,0.0,0.0,0.0,-0.653,0.0,0.0,0.0,0.0,0.0,0.0,-0.35891350422978163,0.0,0.0,0.0,0.0,0.0,0.0,-43.244,0.0,0.0,0.0,0.0,0.0
97,0.0,0.163568359375,0.0,0.0,0.0,0.0,0.0,0.0,-0.62,0.0,0.0,0.0,0.0,0.0,0.0,-0.3779542285109744,0.0,0.0,0.0,0.0,0.0,0.0,-36.172,0.0,0.0,0.0,0.0,0.0
98,0.0,0.1578056640625,0.0,0.0,0.0,0.0,0.0,0.0,-0.595,0.0,0.0,0.0,0.0,0.0,0.0,-0.39640052755894983,0.0,0.0,0.0,0.0,0.0,0.0,-34.064,0.0,0.0,0.0,0.0,0.0
99,0.0,0.1523447265625,0.0,0.0,0.0,0.0,0.0,0.0,-0.57,0.0,0.0,0.0,0.0,0.0,0.0,-0.4139628049127726,0.0,0.0,0.0,0.0,0.0,0.0,-36.332,0.0,0.0,0.0,0.0,0.0
100,0.0,0.1469873046875,0.0,0.0,0.0,0.0,0.0,0.0,-0.545,0.0,0.0,0.0,0.0,0.0,0.0,-0.4311117191689694,0.0,0.0,0.0,0.0,0.0,0.0,-37.412,0.0,0.0,0.0,0.0,0.0
101,0.0,0.1419384765625,0.0,0.0,0.0,0.0,0.0,0.0,-0.532,0.0,0.0,0.0,0.0,0.0,0.0,-0.4473825159256062,0.0,0.0,0.0,0.0,0.0,0.0,-33.2,0.0,0.0,0.0,0.0,0.0
102,0.0,0.1371982421875,0.0,0.0,0.0,0.0,0.0,0.0,-0.495,0.0,0.0,0.0,0.0,0.0,0.0,-0.4632645549535012,0.0,0.0,0.0,0.0,0.0,0.0,-31.636,0.0,0.0,0.0,0.0,0.0
103,0.0,0.13246484375,0.0,0.0,0.0,0.0,0.0,0.0,-0.474,0.0,0.0,0.0,0.0,0.0,0.0,-0.48304701366399727,0.0,0.0,0.0,0.0,0.0,0.0,-33.904,0.0,0.0,0.0,0.0,0.0
104,0.0,0.1281357421875,0.0,0.0,0.0,0.0,0.0,0.0,-0.46,0.0,0.0,0.0,0.0,0.0,0.0,-0.4922101100823764,0.0,0.0,0.0,0.0,0.0,0.0,-37.844,0.0,0.0,0.0,0.0,0.0
105,0.0,0.12401953125,0.0,0.0,0.0,0.0,0.0,0.0,-0.429,0.0,0.0,0.0,0.0,0.0,0.0,-0.5054600287182208,0.0,0.0,0.0,0.0,0.0,0.0,-36.548,0.0,0.0,0.0,0.0,0.0
106,0.0,0.120005859375,0.0,0.0,0.0,0.0,0.0,0.0,-0.412,0.0,0.0,0.0,0.0,0.0,0.0,-0.5179808683952132,0.0,0.0,0.0,0.0,0.0,0.0,-34.228,0.0,0.0,0.0,0.0,0.0
107,0.0,0.1161923828125,0.0,0.0,0.0,0.0,0.0,0.0,-0.394,0.0,0.0,0.0,0.0,0.0,0.0,-0.529766115133677,0.0,0.0,0.0,0.0,0.0,0.0,-36.172,0.0,0.0,0.0,0.0,0.0
108,0.0,0.112384765625,0.0,0.0,0.0,0.0,0.0,0.0,-0.385,0.0,0.0,0.0,0.0,0.0,0.0,-0.5404744745573522,0.0,0.0,0.0,0.0,0.0,0.0,-39.788,0.0,0.0,0.0,0.0,0.0
109,0.0,0.1085703125,0.0,0.0,0.0,0.0,0.0,0.0,-0.381,0.0,0.0,0.0,0.0,0.0,0.0,-0.55048534703826,0.0,0.0,0.0,0.0,0.0,0.0,-42.056,0.0,0.0,0.0,0.0,0.0
110,0.0,0.1050712890625,0.0,0.0,0.0,0.0,0.0,0.0,-0.374,0.0,0.0,0.0,0.0,0.0,0.0,-0.5596084647722948,0.0,0.0,0.0,0.0,0.0,0.0,-40.112,0.0,0.0,0.0,0.0,0.0
111,0.0,0.1018876953125,0.0,0.0,0.0,0.0,0.0,0.0,-0.342,0.0,0.0,0.0,0.0,0.0,0.0,-0.5677876520920563,0.0,0.0,0.0,0.0,0.0,0.0,-39.304,0.0,0.0,0.0,0.0,0.0
112,0.0,0.098896484375,0.0,0.0,0.0,0.0,0.0,0.0,-0.311,0.0,0.0,0.0,0.0,0.0,0.0,-0.5750894671251578,0.0,0.0,0.0,0.0,0.0,0.0,-41.192,0.0,0.0,0.0,0.0,0.0
113,0.0,0.095912109375,0.0,0.0,0.0,0.0,0.0,0.0,-0.298,0.0,0.0,0.0,0.0,0.0,0.0,-0.581541607725783,0.0,0.0,0.0,0.0,0.0,0.0,-43.568,0.0,0.0,0.0,0.0,0.0
114,0.0,0.0925166015625,0.0,0.0,0.0,0.0,0.0,0.0,-0.313,0.0,0.0,0.0,0.0,0.0,0.0,-0.5868803808879809,0.0,0.0,0.0,0.0,0.0,0.0,-45.404,0.0,0.0,0.0,0.0,0.0
115,0.0,0.0888056640625,0.0,0.0,0.0,0.0,0.0,0.0,-0.361,0.0,0.0,0.0,0.0,0.0,0.0,-0.59140227879897,0.0,0.0,0.0,0.0,0.0,0.0,-45.404,0.0,0.0,0.0,0.0,0.0
116,0.0,0.0855126953125,0.0,0.0,0.0,0.0,0.0,0.0,-0.358,0.0,0.0,0.0,0.0,0.0,0.0,-0.595072698474108,0.0,0.0,0.0,0.0,0.0,0.0,-44.592,0.0,0.0,0.0,0.0,0.0
117,0.0,0.0824189453125,0.0,0.0,0.0,0.0,0.0,0.0,-0.323,0.0,0.0,0.0,0.0,0.0,0.0,-0.5976079077343015,0.0,0.0,0.0,0.0,0.0,0.0,-44.54,0.0,0.0,0.0,0.0,0.0
118,0.0,0.0794345703125,0.0,0.0,0.0,0.0,0.0,0.0,-0.308,0.0,0.0,0.0,0.0,0.0,0.0,-0.5992703747968611,0.0,0.0,0.0,0.0,0.0,0.0,-45.944,0.0,0.0,0.0,0.0,0.0
119,0.0,0.076244140625,0.0,0.0,0.0,0.0,0.0,0.0,-0.3,0.0,0.0,0.0,0.0,0.0,0.0,-0.5999746445507119,0.0,0.0,0.0,0.0,0.0,0.0,-47.4,0.0,0.0,0.0,0.0,0.0
120,0.0,0.0724296875,0.0,0.0,0.0,0.0,0.0,0.0,-0.351,0.0,0.0,0.0,0.0,0.0,0.0,-0.5997158202889418,0.0,0.0,0.0,0.0,0.0,0.0,-46.916,0.0,0.0,0.0,0.0,0.0
121,0.0,0.0687255859375,0.0,0.0,0.0,0.0,0.0,0.0,-0.383,0.0,0.0,0.0,0.0,0.0,0.0,-0.5984995941275029,0.0,0.0,0.0,0.0,0.0,0.0,-46.484,0.0,0.0,0.0,0.0,0.0
122,0.0,0.0650146484375,0.0,0.0,0.0,0.0,0.0,0.0,-0.375,0.0,0.0,0.0,0.0,0.0,0.0,-0.5963080592061909,0.0,0.0,0.0,0.0,0.0,0.0,-46.7,0.0,0.0,0.0,0.0,0.0
123,0.0,0.061515625,0.0,0.0,0.0,0.0,0.0,0.0,-0.362,0.0,0.0,0.0,0.0,0.0,0.0,-0.5931370028658507,0.0,0.0,0.0,0.0,0.0,0.0,-46.808,0.0,0.0,0.0,0.0,0.0
124,0.0,0.05822265625,0.0,0.0,0.0,0.0,0.0,0.0,-0.343,0.0,0.0,0.0,0.0,0.0,0.0,-0.5891186754297042,0.0,0.0,0.0,0.0,0.0,0.0,-47.076,0.0,0.0,0.0,0.0,0.0
125,0.0,0.0545107421875,0.0,0.0,0.0,0.0,0.0,0.0,-0.351,0.0,0.0,0.0,0.0,0.0,0.0,-0.5840881694396195,0.0,0.0,0.0,0.0,0.0,0.0,-47.292,0.0,0.0,0.0,0.0,0.0
126,0.0,0.0506005859375,0.0,0.0,0.0,0.0,0.0,0.0,-0.384,0.0,0.0,0.0,0.0,0.0,0.0,-0.578152436187331,0.0,0.0,0.0,0.0,0.0,0.0,-46.7,0.0,0.0,0.0,0.0,0.0
127,0.0,0.0465810546875,0.0,0.0,0.0,0.0,0.0,0.0,-0.398,0.0,0.0,0.0,0.0,0.0,0.0,-0.5712404765686175,0.0,0.0,0.0,0.0,0.0,0.0,-46.16,0.0,0.0,0.0,0.0,0.0
128,0.0,0.04246484375,0.0,0.0,0.0,0.0,0.0,0.0,-0.409,0.0,0.0,0.0,0.0,0.0,0.0,-0.5633798549227542,0.0,0.0,0.0,0.0,0.0,0.0,-46.592,0.0,0.0,0.0,0.0,0.0
129,0.0,0.0386572265625,0.0,0.0,0.0,0.0,0.0,0.0,-0.404,0.0,0.0,0.0,0.0,0.0,0.0,-0.554522148068512,0.0,0.0,0.0,0.0,0.0,0.0,-46.752,0.0,0.0,0.0,0.0,0.0
130,0.0,0.034740234375,0.0,0.0,0.0,0.0,0.0,0.0,-0.389,0.0,0.0,0.0,0.0,0.0,0.0,-0.5452043906929813,0.0,0.0,0.0,0.0,0.0,0.0,-46.644,0.0,0.0,0.0,0.0,0.0
131,0.0,0.0307265625,0.0,0.0,0.0,0.0,0.0,0.0,-0.394,0.0,0.0,0.0,0.0,0.0,0.0,-0.5347149983840286,0.0,0.0,0.0,0.0,0.0,0.0,-46.484,0.0,0.0,0.0,0.0,0.0
132,0.0,0.026603515625,0.0,0.0,0.0,0.0,0.0,0.0,-0.411,0.0,0.0,0.0,0.0,0.0,0.0,-0.5232576151226191,0.0,0.0,0.0,0.0,0.0,0.0,-45.944,0.0,0.0,0.0,0.0,0.0
133,0.0,0.02228125,0.0,0.0,0.0,0.0,0.0,0.0,-0.423,0.0,0.0,0.0,0.0,0.0,0.0,-0.51123630029006,0.0,0.0,0.0,0.0,0.0,0.0,-45.24,0.0,0.0,0.0,0.0,0.0
134,0.0,0.017953125,0.0,0.0,0.0,0.0,0.0,0.0,-0.439,0.0,0.0,0.0,0.0,0.0,0.0,-0.4983187680855198,0.0,0.0,0.0,0.0,0.0,0.0,-45.24,0.0,0.0,0.0,0.0,0.0
135,0.0,0.013630859375,0.0,0.0,0.0,0.0,0.0,0.0,-0.433,0.0,0.0,0.0,0.0,0.0,0.0,-0.4843808821687745,0.0,0.0,0.0,0.0,0.0,0.0,-44.972,0.0,0.0,0.0,0.0,0.0
136,0.0,0.0095078125,0.0,0.0,0.0,0.0,0.0,0.0,-0.425,0.0,0.0,0.0,0.0,0.0,0.0,-0.46990113217226137,0.0,0.0,0.0,0.0,0.0,0.0,-44.324,0.0,0.0,0.0,0.0,0.0
137,0.0,0.005494140625,0.0,0.0,0.0,0.0,0.0,0.0,-0.409,0.0,0.0,0.0,0.0,0.0,0.0,-0.45464802418317696,0.0,0.0,0.0,0.0,0.0,0.0,-44.376,0.0,0.0,0.0,0.0,0.0
138,0.0,0.0013720703125,0.0,0.0,0.0,0.0,0.0,0.0,-0.411,0.0,0.0,0.0,0.0,0.0,0.0,-0.4385816915839209,0.0,0.0,0.0,0.0,0.0,0.0,-44.16,0.0,0.0,0.0,0.0,0.0
139,0.0,-0.0029501953125,0.0,0.0,0.0,0.0,0.0,0.0,-0.427,0.0,0.0,0.0,0.0,0.0,0.0,-0.42188955606894063,0.0,0.0,0.0,0.0,0.0,0.0,-43.784,0.0,0.0,0.0,0.0,0.0
140,0.0,-0.0074853515625,0.0,0.0,0.0,0.0,0.0,0.0,-0.444,0.0,0.0,0.0,0.0,0.0,0.0,-0.40450939197056174,0.0,0.0,0.0,0.0,0.0,0.0,-43.728,0.0,0.0,0.0,0.0,0.0
141,0.0,-0.0117041015625,0.0,0.0,0.0,0.0,0.0,0.0,-0.442,0.0,0.0,0.0,0.0,0.0,0.0,-0.3863328114253418,0.0,0.0,0.0,0.0,0.0,0.0,-43.244,0.0,0.0,0.0,0.0,0.0
142,0.0,-0.0157236328125,0.0,0.0,0.0,0.0,0.0,0.0,-0.419,0.0,0.0,0.0,0.0,0.0,0.0,-0.3677910703804217,0.0,0.0,0.0,0.0,0.0,0.0,-43.192,0.0,0.0,0.0,0.0,0.0
143,0.0,-0.019634765625,0.0,0.0,0.0,0.0,0.0,0.0,-0.396,0.0,0.0,0.0,0.0,0.0,0.0,-0.34712604403601505,0.0,0.0,0.0,0.0,0.0,0.0,-43.784,0.0,0.0,0.0,0.0,0.0
144,0.0,-0.0235517578125,0.0,0.0,0.0,0.0,0.0,0.0,-0.396,0.0,0.0,0.0,0.0,0.0,0.0,-0.3286747033127545,0.0,0.0,0.0,0.0,0.0,0.0,-43.836,0.0,0.0,0.0,0.0,0.0
145,0.0,-0.0278740234375,0.0,0.0,0.0,0.0,0.0,0.0,-0.413,0.0,0.0,0.0,0.0,0.0,0.0,-0.3084699518577531,0.0,0.0,0.0,0.0,0.0,0.0,-44.108,0.0,0.0,0.0,0.0,0.0
146,0.0,-0.0322021484375,0.0,0.0,0.0,0.0,0.0,0.0,-0.439,0.0,0.0,0.0,0.0,0.0,0.0,-0.28744555783067793,0.0,0.0,0.0,0.0,0.0,0.0,-43.676,0.0,0.0,0.0,0.0,0.0
147,0.0,-0.036318359375,0.0,0.0,0.0,0.0,0.0,0.0,-0.428,0.0,0.0,0.0,0.0,0.0,0.0,-0.26569819533727207,0.0,0.0,0.0,0.0,0.0,0.0,-43.028,0.0,0.0,0.0,0.0,0.0
148,0.0,-0.0401328125,0.0,0.0,0.0,0.0,0.0,0.0,-0.398,0.0,0.0,0.0,0.0,0.0,0.0,-0.2445274213164574,0.0,0.0,0.0,0.0,0.0,0.0,-43.296,0.0,0.0,0.0,0.0,0.0
149,0.0,-0.0438369140625,0.0,0.0,0.0,0.0,0.0,0.0,-0.379,0.0,0.0,0.0,0.0,0.0,0.0,-0.2224573923331534,0.0,0.0,0.0,0.0,0.0,0.0,-44.052,0.0,0.0,0.0,0.0,0.0
150,0.0,-0.04764453125,0.0,0.0,0.0,0.0,0.0,0.0,-0.378,0.0,0.0,0.0,0.0,0.0,0.0,-0.1997920114105234,0.0,0.0,0.0,0.0,0.0,0.0,-44.0,0.0,0.0,0.0,0.0,0.0
151,0.0,-0.05187109375,0.0,0.0,0.0,0.0,0.0,0.0,-0.403,0.0,0.0,0.0,0.0,0.0,0.0,-0.17733809869890582,0.0,0.0,0.0,0.0,0.0,0.0,-44.0,0.0,0.0,0.0,0.0,0.0
152,0.0,-0.05608984375,0.0,0.0,0.0,0.0,0.0,0.0,-0.429,0.0,0.0,0.0,0.0,0.0,0.0,-0.15433932459005195,0.0,0.0,0.0,0.0,0.0,0.0,-43.62,0.0,0.0,0.0,0.0,0.0
153,0.0,-0.063814453125,0.0,0.0,0.0,0.0,0.0,0.0,-0.39,0.0,0.0,0.0,0.0,0.0,0.0,-0.10982610643096159,0.0,0.0,0.0,0.0,0.0,0.0,-43.944,0.0,0.0,0.0,0.0,0.0
154,0.0,-0.063814453125,0.0,0.0,0.0,0.0,0.0,0.0,-0.39,0.0,0.0,0.0,0.0,0.0,0.0,-0.09491137985417081,0.0,0.0,0.0,0.0,0.0,0.0,-43.944,0.0,0.0,0.0,0.0,0.0
155,0.0,-0.0674228515625,0.0,0.0,0.0,0.0,0.0,0.0,-0.367,0.0,0.0,0.0,0.0,0.0,0.0,-0.07939689913416513,0.0,0.0,0.0,0.0,0.0,0.0,-44.756,0.0,0.0,0.0,0.0,0.0
156,0.0,-0.07123046875,0.0,0.0,0.0,0.0,0.0,0.0,-0.369,0.0,0.0,0.0,0.0,0.0,0.0,-0.05972395816856455,0.0,0.0,0.0,0.0,0.0,0.0,-44.648,0.0,0.0,0.0,0.0,0.0
157,0.0,-0.075353515625,0.0,0.0,0.0,0.0,0.0,0.0,-0.401,0.0,0.0,0.0,0.0,0.0,0.0,-0.035732656656787425,0.0,0.0,0.0,0.0,0.0,0.0,-44.648,0.0,0.0,0.0,0.0,0.0
158,0.0,-0.079572265625,0.0,0.0,0.0,0.0,0.0,0.0,-0.423,0.0,0.0,0.0,0.0,0.0,0.0,-0.011805716595435356,0.0,0.0,0.0,0.0,0.0,0.0,-43.46,0.0,0.0,0.0,0.0,0.0
159,0.0,-0.0826591796875,0.0,0.0,0.0,0.0,0.0,0.0,-0.387,0.0,0.0,0.0,0.0,0.0,0.0,0.015777685868629755,0.0,0.0,0.0,0.0,0.0,0.0,-35.092,0.0,0.0,0.0,0.0,0.0
160,0.0,-0.08400390625,0.0,0.0,0.0,0.0,0.0,0.0,-0.237,0.0,0.0,0.0,0.0,0.0,0.0,7.209777814680754e-05,0.0,0.0,0.0,0.0,0.0,0.0,-23.752,0.0,0.0,0.0,0.0,0.0
161,0.0,-0.0841064453125,0.0,0.0,0.0,0.0,0.0,0.0,-0.084,0.0,0.0,0.0,0.0,0.0,0.0,0.024022164959220448,0.0,0.0,0.0,0.0,0.0,0.0,-16.196,0.0,0.0,0.0,0.0,0.0
162,0.0,-0.083591796875,0.0,0.0,0.0,0.0,0.0,0.0,0.009,0.0,0.0,0.0,0.0,0.0,0.0,0.048001245022301214,0.0,0.0,0.0,0.0,0.0,0.0,-13.548,0.0,0.0,0.0,0.0,0.0
163,0.0,-0.0826591796875,0.0,0.0,0.0,0.0,0.0,0.0,0.077,0.0,0.0,0.0,0.0,0.0,0.0,0.0722629617222116,0.0,0.0,0.0,0.0,0.0,0.0,-12.144,0.0,0.0,0.0,0.0,0.0
164,0.0,-0.081322265625,0.0,0.0,0.0,0.0,0.0,0.0,0.103,0.0,0.0,0.0,0.0,0.0,0.0,0.0956806509493597,0.0,0.0,0.0,0.0,0.0,0.0,-9.88,0.0,0.0,0.0,0.0,0.0
165,0.0,-0.078646484375,0.0,0.0,0.0,0.0,0.0,0.0,0.186,0.0,0.0,0.0,0.0,0.0,0.0,0.12058632690888679,0.0,0.0,0.0,0.0,0.0,0.0,-9.392,0.0,0.0,0.0,0.0,0.0
166,0.0,-0.0746328125,0.0,0.0,0.0,0.0,0.0,0.0,0.326,0.0,0.0,0.0,0.0,0.0,0.0,0.15017371020153306,0.0,0.0,0.0,0.0,0.0,0.0,-11.388,0.0,0.0,0.0,0.0,0.0
167,0.0,-0.06948046875,0.0,0.0,0.0,0.0,0.0,0.0,0.451,0.0,0.0,0.0,0.0,0.0,0.0,0.165714247050672,0.0,0.0,0.0,0.0,0.0,0.0,-13.928,0.0,0.0,0.0,0.0,0.0
168,0.0,-0.0637119140625,0.0,0.0,0.0,0.0,0.0,0.0,0.549,0.0,0.0,0.0,0.0,0.0,0.0,0.18877832626795066,0.0,0.0,0.0,0.0,0.0,0.0,-18.408,0.0,0.0,0.0,0.0,0.0
169,0.0,-0.0582578125,0.0,0.0,0.0,0.0,0.0,0.0,0.563,0.0,0.0,0.0,0.0,0.0,0.0,0.2113552432314944,0.0,0.0,0.0,0.0,0.0,0.0,-21.38,0.0,0.0,0.0,0.0,0.0
170,0.0,-0.05248828125,0.0,0.0,0.0,0.0,0.0,0.0,0.565,0.0,0.0,0.0,0.0,0.0,0.0,0.23345208712300827,0.0,0.0,0.0,0.0,0.0,0.0,-27.208,0.0,0.0,0.0,0.0,0.0
171,0.0,-0.0469248046875,0.0,0.0,0.0,0.0,0.0,0.0,0.565,0.0,0.0,0.0,0.0,0.0,0.0,0.255502878390141,0.0,0.0,0.0,0.0,0.0,0.0,-32.768,0.0,0.0,0.0,0.0,0.0
172,0.0,-0.0406474609375,0.0,0.0,0.0,0.0,0.0,0.0,0.587,0.0,0.0,0.0,0.0,0.0,0.0,0.27703731624732475,0.0,0.0,0.0,0.0,0.0,0.0,-36.332,0.0,0.0,0.0,0.0,0.0
173,0.0,-0.0335400390625,0.0,0.0,0.0,0.0,0.0,0.0,0.674,0.0,0.0,0.0,0.0,0.0,0.0,0.29799672049393144,0.0,0.0,0.0,0.0,0.0,0.0,-35.632,0.0,0.0,0.0,0.0,0.0
174,0.0,-0.026330078125,0.0,0.0,0.0,0.0,0.0,0.0,0.716,0.0,0.0,0.0,0.0,0.0,0.0,0.3186484203681177,0.0,0.0,0.0,0.0,0.0,0.0,-35.9,0.0,0.0,0.0,0.0,0.0
175,0.0,-0.019634765625,0.0,0.0,0.0,0.0,0.0,0.0,0.707,0.0,0.0,0.0,0.0,0.0,0.0,0.33868412976921897,0.0,0.0,0.0,0.0,0.0,0.0,-42.596,0.0,0.0,0.0,0.0,0.0
176,0.0,-0.013556640625,0.0,0.0,0.0,0.0,0.0,0.0,0.647,0.0,0.0,0.0,0.0,0.0,0.0,0.3585615521031765,0.0,0.0,0.0,0.0,0.0,0.0,-47.132,0.0,0.0,0.0,0.0,0.0
177,0.0,-0.0070732421875,0.0,0.0,0.0,0.0,0.0,0.0,0.625,0.0,0.0,0.0,0.0,0.0,0.0,0.37955702859175694,0.0,0.0,0.0,0.0,0.0,0.0,-44.376,0.0,0.0,0.0,0.0,0.0
178,0.0,-0.0003779296875,0.0,0.0,0.0,0.0,0.0,0.0,0.664,0.0,0.0,0.0,0.0,0.0,0.0,0.39593712525699426,0.0,0.0,0.0,0.0,0.0,0.0,-42.488,0.0,0.0,0.0,0.0,0.0
179,0.0,0.0060087890625,0.0,0.0,0.0,0.0,0.0,0.0,0.661,0.0,0.0,0.0,0.0,0.0,0.0,0.41366931475721946,0.0,0.0,0.0,0.0,0.0,0.0,-49.128,0.0,0.0,0.0,0.0,0.0
180,0.0,0.0124990234375,0.0,0.0,0.0,0.0,0.0,0.0,0.645,0.0,0.0,0.0,0.0,0.0,0.0,0.4345985165998401,0.0,0.0,0.0,0.0,0.0,0.0,-54.688,0.0,0.0,0.0,0.0,0.0
181,0.0,0.0186728515625,0.0,0.0,0.0,0.0,0.0,0.0,0.646,0.0,0.0,0.0,0.0,0.0,0.0,0.4496862746317148,0.0,0.0,0.0,0.0,0.0,0.0,-52.964,0.0,0.0,0.0,0.0,0.0
182,0.0,0.024236328125,0.0,0.0,0.0,0.0,0.0,0.0,0.592,0.0,0.0,0.0,0.0,0.0,0.0,0.46264637731832103,0.0,0.0,0.0,0.0,0.0,0.0,-50.532,0.0,0.0,0.0,0.0,0.0
183,0.0,0.0297998046875,0.0,0.0,0.0,0.0,0.0,0.0,0.555,0.0,0.0,0.0,0.0,0.0,0.0,0.4774989332743537,0.0,0.0,0.0,0.0,0.0,0.0,-55.12,0.0,0.0,0.0,0.0,0.0
184,0.0,0.03525390625,0.0,0.0,0.0,0.0,0.0,0.0,0.559,0.0,0.0,0.0,0.0,0.0,0.0,0.4915727052356446,0.0,0.0,0.0,0.0,0.0,0.0,-58.2,0.0,0.0,0.0,0.0,0.0
185,0.0,0.04071484375,0.0,0.0,0.0,0.0,0.0,0.0,0.551,0.0,0.0,0.0,0.0,0.0,0.0,0.5051130990331947,0.0,0.0,0.0,0.0,0.0,0.0,-56.58,0.0,0.0,0.0,0.0,0.0
186,0.0,0.0458603515625,0.0,0.0,0.0,0.0,0.0,0.0,0.537,0.0,0.0,0.0,0.0,0.0,0.0,0.5173926960078431,0.0,0.0,0.0,0.0,0.0,0.0,-54.256,0.0,0.0,0.0,0.0,0.0
187,0.0,0.0500859375,0.0,0.0,0.0,0.0,0.0,0.0,0.48,0.0,0.0,0.0,0.0,0.0,0.0,0.5296781528571074,0.0,0.0,0.0,0.0,0.0,0.0,-57.228,0.0,0.0,0.0,0.0,0.0
188,0.0,0.054099609375,0.0,0.0,0.0,0.0,0.0,0.0,0.411,0.0,0.0,0.0,0.0,0.0,0.0,0.5399587297919638,0.0,0.0,0.0,0.0,0.0,0.0,-58.092,0.0,0.0,0.0,0.0,0.0
189,0.0,0.058427734375,0.0,0.0,0.0,0.0,0.0,0.0,0.424,0.0,0.0,0.0,0.0,0.0,0.0,0.5500310884883474,0.0,0.0,0.0,0.0,0.0,0.0,-56.364,0.0,0.0,0.0,0.0,0.0
190,0.0,0.058427734375,0.0,0.0,0.0,0.0,0.0,0.0,0.424,0.0,0.0,0.0,0.0,0.0,0.0,0.562741911478425,0.0,0.0,0.0,0.0,0.0,0.0,-56.364,0.0,0.0,0.0,0.0,0.0
191,0.0,0.0726357421875,0.0,0.0,0.0,0.0,0.0,0.0,0.305,0.0,0.0,0.0,0.0,0.0,0.0,0.580808654852132,0.0,0.0,0.0,0.0,0.0,0.0,-52.8,0.0,0.0,0.0,0.0,0.0
192,0.0,0.0757294921875,0.0,0.0,0.0,0.0,0.0,0.0,0.299,0.0,0.0,0.0,0.0,0.0,0.0,0.5866497868267853,0.0,0.0,0.0,0.0,0.0,0.0,-49.076,0.0,0.0,0.0,0.0,0.0
193,0.0,0.078611328125,0.0,0.0,0.0,0.0,0.0,0.0,0.297,0.0,0.0,0.0,0.0,0.0,0.0,0.5917334615373255,0.0,0.0,0.0,0.0,0.0,0.0,-45.944,0.0,0.0,0.0,0.0,0.0
194,0.0,0.0851005859375,0.0,0.0,0.0,0.0,0.0,0.0,0.335,0.0,0.0,0.0,0.0,0.0,0.0,0.5975293637509568,0.0,0.0,0.0,0.0,0.0,0.0,-45.888,0.0,0.0,0.0,0.0,0.0
195,0.0,0.0877763671875,0.0,0.0,0.0,0.0,0.0,0.0,0.296,0.0,0.0,0.0,0.0,0.0,0.0,0.5989038341576823,0.0,0.0,0.0,0.0,0.0,0.0,-45.888,0.0,0.0,0.0,0.0,0.0
196,0.0,0.09303125,0.0,0.0,0.0,0.0,0.0,0.0,0.263,0.0,0.0,0.0,0.0,0.0,0.0,0.5991228297722152,0.0,0.0,0.0,0.0,0.0,0.0,-42.704,0.0,0.0,0.0,0.0,0.0
197,0.0,0.0997197265625,0.0,0.0,0.0,0.0,0.0,0.0,0.337,0.0,0.0,0.0,0.0,0.0,0.0,0.5953631051153582,0.0,0.0,0.0,0.0,0.0,0.0,-41.896,0.0,0.0,0.0,0.0,0.0
198,0.0,0.1029169921875,0.0,0.0,0.0,0.0,0.0,0.0,0.339,0.0,0.0,0.0,0.0,0.0,0.0,0.5915559581914437,0.0,0.0,0.0,0.0,0.0,0.0,-41.516,0.0,0.0,0.0,0.0,0.0
199,0.0,0.1090849609375,0.0,0.0,0.0,0.0,0.0,0.0,0.31,0.0,0.0,0.0,0.0,0.0,0.0,0.5836553302720833,0.0,0.0,0.0,0.0,0.0,0.0,-40.168,0.0,0.0,0.0,0.0,0.0
200,0.0,0.11228125,0.0,0.0,0.0,0.0,0.0,0.0,0.306,0.0,0.0,0.0,0.0,0.0,0.0,0.5792049489234302,0.0,0.0,0.0,0.0,0.0,0.0,-39.412,0.0,0.0,0.0,0.0,0.0
201,0.0,0.11228125,0.0,0.0,0.0,0.0,0.0,0.0,0.306,0.0,0.0,0.0,0.0,0.0,0.0,0.5759573670402698,0.0,0.0,0.0,0.0,0.0,0.0,-39.412,0.0,0.0,0.0,0.0,0.0
202,0.0,0.115986328125,0.0,0.0,0.0,0.0,0.0,0.0,0.344,0.0,0.0,0.0,0.0,0.0,0.0,0.568693863373126,0.0,0.0,0.0,0.0,0.0,0.0,-39.896,0.0,0.0,0.0,0.0,0.0
203,0.0,0.1195947265625,0.0,0.0,0.0,0.0,0.0,0.0,0.365,0.0,0.0,0.0,0.0,0.0,0.0,0.5603140860806988,0.0,0.0,0.0,0.0,0.0,0.0,-39.952,0.0,0.0,0.0,0.0,0.0
204,0.0,0.1231962890625,0.0,0.0,0.0,0.0,0.0,0.0,0.365,0.0,0.0,0.0,0.0,0.0,0.0,0.5515882044084696,0.0,0.0,0.0,0.0,0.0,0.0,-40.06,0.0,0.0,0.0,0.0,0.0
205,0.0,0.1269013671875,0.0,0.0,0.0,0.0,0.0,0.0,0.369,0.0,0.0,0.0,0.0,0.0,0.0,0.5417120421124041,0.0,0.0,0.0,0.0,0.0,0.0,-39.464,0.0,0.0,0.0,0.0,0.0
206,0.0,0.13431640625,0.0,0.0,0.0,0.0,0.0,0.0,0.376,0.0,0.0,0.0,0.0,0.0,0.0,0.5261232917029006,0.0,0.0,0.0,0.0,0.0,0.0,-39.572,0.0,0.0,0.0,0.0,0.0
207,0.0,0.13431640625,0.0,0.0,0.0,0.0,0.0,0.0,0.376,0.0,0.0,0.0,0.0,0.0,0.0,0.517974028866546,0.0,0.0,0.0,0.0,0.0,0.0,-39.572,0.0,0.0,0.0,0.0,0.0
208,0.0,0.1383369140625,0.0,0.0,0.0,0.0,0.0,0.0,0.392,0.0,0.0,0.0,0.0,0.0,0.0,0.5028894526495445,0.0,0.0,0.0,0.0,0.0,0.0,-40.436,0.0,0.0,0.0,0.0,0.0
209,0.0,0.146576171875,0.0,0.0,0.0,0.0,0.0,0.0,0.418,0.0,0.0,0.0,0.0,0.0,0.0,0.4808344042647811,0.0,0.0,0.0,0.0,0.0,0.0,-41.14,0.0,0.0,0.0,0.0,0.0
210,0.0,0.146576171875,0.0,0.0,0.0,0.0,0.0,0.0,0.418,0.0,0.0,0.0,0.0,0.0,0.0,0.4710581868862284,0.0,0.0,0.0,0.0,0.0,0.0,-41.14,0.0,0.0,0.0,0.0,0.0
211,0.0,0.1506982421875,0.0,0.0,0.0,0.0,0.0,0.0,0.416,0.0,0.0,0.0,0.0,0.0,0.0,0.440107875135809,0.0,0.0,0.0,0.0,0.0,0.0,-40.976,0.0,0.0,0.0,0.0,0.0
212,0.0,0.1506982421875,0.0,0.0,0.0,0.0,0.0,0.0,0.416,0.0,0.0,0.0,0.0,0.0,0.0,0.42995887271267186,0.0,0.0,0.0,0.0,0.0,0.0,-40.976,0.0,0.0,0.0,0.0,0.0
213,0.0,0.159349609375,0.0,0.0,0.0,0.0,0.0,0.0,0.439,0.0,0.0,0.0,0.0,0.0,0.0,0.4060879431337283,0.0,0.0,0.0,0.0,0.0,0.0,-42.22,0.0,0.0,0.0,0.0,0.0
214,0.0,0.1682060546875,0.0,0.0,0.0,0.0,0.0,0.0,0.442,0.0,0.0,0.0,0.0,0.0,0.0,0.3783257729921229,0.0,0.0,0.0,0.0,0.0,0.0,-43.404,0.0,0.0,0.0,0.0,0.0
215,0.0,0.1770625,0.0,0.0,0.0,0.0,0.0,0.0,0.446,0.0,0.0,0.0,0.0,0.0,0.0,0.35927166869424204,0.0,0.0,0.0,0.0,0.0,0.0,-43.892,0.0,0.0,0.0,0.0,0.0
216,0.0,0.1770625,0.0,0.0,0.0,0.0,0.0,0.0,0.446,0.0,0.0,0.0,0.0,0.0,0.0,0.3293246858915064,0.0,0.0,0.0,0.0,0.0,0.0,-43.892,0.0,0.0,0.0,0.0,0.0
217,0.0,0.1770625,0.0,0.0,0.0,0.0,0.0,0.0,0.446,0.0,0.0,0.0,0.0,0.0,0.0,0.3173080194332553,0.0,0.0,0.0,0.0,0.0,0.0,-43.892,0.0,0.0,0.0,0.0,0.0
218,0.0,0.1770625,0.0,0.0,0.0,0.0,0.0,0.0,0.446,0.0,0.0,0.0,0.0,0.0,0.0,0.29920258939611666,0.0,0.0,0.0,0.0,0.0,0.0,-43.892,0.0,0.0,0.0,0.0,0.0
219,0.0,0.194466796875,0.0,0.0,0.0,0.0,0.0,0.0,0.435,0.0,0.0,0.0,0.0,0.0,0.0,0.26800921183882875,0.0,0.0,0.0,0.0,0.0,0.0,-45.08,0.0,0.0,0.0,0.0,0.0
220,0.0,0.194466796875,0.0,0.0,0.0,0.0,0.0,0.0,0.435,0.0,0.0,0.0,0.0,0.0,0.0,0.19012949497075315,0.0,0.0,0.0,0.0,0.0,0.0,-45.08,0.0,0.0,0.0,0.0,0.0
221,0.0,0.21114453125,0.0,0.0,0.0,0.0,0.0,0.0,0.41,0.0,0.0,0.0,0.0,0.0,0.0,0.1675615784790325,0.0,0.0,0.0,0.0,0.0,0.0,-44.648,0.0,0.0,0.0,0.0,0.0
222,0.0,0.215267578125,0.0,0.0,0.0,0.0,0.0,0.0,0.408,0.0,0.0,0.0,0.0,0.0,0.0,0.14428141398484517,0.0,0.0,0.0,0.0,0.0,0.0,-44.432,0.0,0.0,0.0,0.0,0.0
223,0.0,0.2230947265625,0.0,0.0,0.0,0.0,0.0,0.0,0.406,0.0,0.0,0.0,0.0,0.0,0.0,0.12091850997751517,0.0,0.0,0.0,0.0,0.0,0.0,-48.696,0.0,0.0,0.0,0.0,0.0
224,0.0,0.2250498046875,0.0,0.0,0.0,0.0,0.0,0.0,0.306,0.0,0.0,0.0,0.0,0.0,0.0,0.09731598979413061,0.0,0.0,0.0,0.0,0.0,0.0,-61.548,0.0,0.0,0.0,0.0,0.0
225,0.0,0.2257705078125,0.0,0.0,0.0,0.0,0.0,0.0,0.141,0.0,0.0,0.0,0.0,0.0,0.0,0.07352649174246316,0.0,0.0,0.0,0.0,0.0,0.0,-70.996,0.0,0.0,0.0,0.0,0.0
226,0.0,0.2254619140625,0.0,0.0,0.0,0.0,0.0,0.0,0.035,0.0,0.0,0.0,0.0,0.0,0.0,0.047657679201878314,0.0,0.0,0.0,0.0,0.0,0.0,-76.016,0.0,0.0,0.0,0.0,0.0
227,0.0,0.224330078125,0.0,0.0,0.0,0.0,0.0,0.0,-0.073,0.0,0.0,0.0,0.0,0.0,0.0,0.02234437557477945,0.0,0.0,0.0,0.0,0.0,0.0,-76.232,0.0,0.0,0.0,0.0,0.0
228,0.0,0.2230947265625,0.0,0.0,0.0,0.0,0.0,0.0,-0.116,0.0,0.0,0.0,0.0,0.0,0.0,0.001632302176519231,0.0,0.0,0.0,0.0,0.0,0.0,-77.636,0.0,0.0,0.0,0.0,0.0
229,0.0,0.2206181640625,0.0,0.0,0.0,0.0,0.0,0.0,-0.168,0.0,0.0,0.0,0.0,0.0,0.0,-0.022359633305286987,0.0,0.0,0.0,0.0,0.0,0.0,-78.932,0.0,0.0,0.0,0.0,0.0
230,0.0,0.2167080078125,0.0,0.0,0.0,0.0,0.0,0.0,-0.315,0.0,0.0,0.0,0.0,0.0,0.0,-0.04661303006471954,0.0,0.0,0.0,0.0,0.0,0.0,-77.04,0.0,0.0,0.0,0.0,0.0
231,0.0,0.211865234375,0.0,0.0,0.0,0.0,0.0,0.0,-0.43,0.0,0.0,0.0,0.0,0.0,0.0,-0.07014164303935952,0.0,0.0,0.0,0.0,0.0,0.0,-71.86,0.0,0.0,0.0,0.0,0.0
232,0.0,0.206513671875,0.0,0.0,0.0,0.0,0.0,0.0,-0.509,0.0,0.0,0.0,0.0,0.0,0.0,-0.0939694191360177,0.0,0.0,0.0,0.0,0.0,0.0,-65.108,0.0,0.0,0.0,0.0,0.0
233,0.0,0.2015673828125,0.0,0.0,0.0,0.0,0.0,0.0,-0.532,0.0,0.0,0.0,0.0,0.0,0.0,-0.11899641838806102,0.0,0.0,0.0,0.0,0.0,0.0,-60.684,0.0,0.0,0.0,0.0,0.0
234,0.0,0.196833984375,0.0,0.0,0.0,0.0,0.0,0.0,-0.484,0.0,0.0,0.0,0.0,0.0,0.0,-0.14450394869528752,0.0,0.0,0.0,0.0,0.0,0.0,-57.444,0.0,0.0,0.0,0.0,0.0
235,0.0,0.1914755859375,0.0,0.0,0.0,0.0,0.0,0.0,-0.5,0.0,0.0,0.0,0.0,0.0,0.0,-0.16681622635150462,0.0,0.0,0.0,0.0,0.0,0.0,-54.096,0.0,0.0,0.0,0.0,0.0
236,0.0,0.185712890625,0.0,0.0,0.0,0.0,0.0,0.0,-0.561,0.0,0.0,0.0,0.0,0.0,0.0,-0.18789621884228572,0.0,0.0,0.0,0.0,0.0,0.0,-50.424,0.0,0.0,0.0,0.0,0.0
237,0.0,0.1795322265625,0.0,0.0,0.0,0.0,0.0,0.0,-0.598,0.0,0.0,0.0,0.0,0.0,0.0,-0.21330560906146512,0.0,0.0,0.0,0.0,0.0,0.0,-47.348,0.0,0.0,0.0,0.0,0.0
238,0.0,0.173556640625,0.0,0.0,0.0,0.0,0.0,0.0,-0.618,0.0,0.0,0.0,0.0,0.0,0.0,-0.23287442130305022,0.0,0.0,0.0,0.0,0.0,0.0,-44.648,0.0,0.0,0.0,0.0,0.0
239,0.0,0.1681025390625,0.0,0.0,0.0,0.0,0.0,0.0,-0.579,0.0,0.0,0.0,0.0,0.0,0.0,-0.2542639807579352,0.0,0.0,0.0,0.0,0.0,0.0,-43.836,0.0,0.0,0.0,0.0,0.0
240,0.0,0.1625390625,0.0,0.0,0.0,0.0,0.0,0.0,-0.547,0.0,0.0,0.0,0.0,0.0,0.0,-0.2812035843033824,0.0,0.0,0.0,0.0,0.0,0.0,-43.892,0.0,0.0,0.0,0.0,0.0
241,0.0,0.1565703125,0.0,0.0,0.0,0.0,0.0,0.0,-0.58,0.0,0.0,0.0,0.0,0.0,0.0,-0.29967795395058994,0.0,0.0,0.0,0.0,0.0,0.0,-44.864,0.0,0.0,0.0,0.0,0.0
242,0.0,0.1503896484375,0.0,0.0,0.0,0.0,0.0,0.0,-0.606,0.0,0.0,0.0,0.0,0.0,0.0,-0.3172233599104745,0.0,0.0,0.0,0.0,0.0,0.0,-46.16,0.0,0.0,0.0,0.0,0.0
243,0.0,0.1436943359375,0.0,0.0,0.0,0.0,0.0,0.0,-0.645,0.0,0.0,0.0,0.0,0.0,0.0,-0.33727018566379857,0.0,0.0,0.0,0.0,0.0,0.0,-45.728,0.0,0.0,0.0,0.0,0.0
244,0.0,0.137609375,0.0,0.0,0.0,0.0,0.0,0.0,-0.652,0.0,0.0,0.0,0.0,0.0,0.0,-0.3570758216986763,0.0,0.0,0.0,0.0,0.0,0.0,-42.92,0.0,0.0,0.0,0.0,0.0
245,0.0,0.131744140625,0.0,0.0,0.0,0.0,0.0,0.0,-0.601,0.0,0.0,0.0,0.0,0.0,0.0,-0.3758719856187956,0.0,0.0,0.0,0.0,0.0,0.0,-42.488,0.0,0.0,0.0,0.0,0.0
246,0.0,0.125357421875,0.0,0.0,0.0,0.0,0.0,0.0,-0.611,0.0,0.0,0.0,0.0,0.0,0.0,-0.39428627687481316,0.0,0.0,0.0,0.0,0.0,0.0,-44.916,0.0,0.0,0.0,0.0,0.0
247,0.0,0.1132080078125,0.0,0.0,0.0,0.0,0.0,0.0,-0.614,0.0,0.0,0.0,0.0,0.0,0.0,-0.4203929864742998,0.0,0.0,0.0,0.0,0.0,0.0,-36.28,0.0,0.0,0.0,0.0,0.0
248,0.0,0.1132080078125,0.0,0.0,0.0,0.0,0.0,0.0,-0.614,0.0,0.0,0.0,0.0,0.0,0.0,-0.42909536799785736,0.0,0.0,0.0,0.0,0.0,0.0,-36.28,0.0,0.0,0.0,0.0,0.0
249,0.0,0.107232421875,0.0,0.0,0.0,0.0,0.0,0.0,-0.597,0.0,0.0,0.0,0.0,0.0,0.0,-0.4455675729967819,0.0,0.0,0.0,0.0,0.0,0.0,-34.064,0.0,0.0,0.0,0.0,0.0
250,0.0,0.1018876953125,0.0,0.0,0.0,0.0,0.0,0.0,-0.573,0.0,0.0,0.0,0.0,0.0,0.0,-0.4617127628446751,0.0,0.0,0.0,0.0,0.0,0.0,-36.44,0.0,0.0,0.0,0.0,0.0
251,0.0,0.0914814453125,0.0,0.0,0.0,0.0,0.0,0.0,-0.532,0.0,0.0,0.0,0.0,0.0,0.0,-0.480726120105848,0.0,0.0,0.0,0.0,0.0,0.0,-32.5,0.0,0.0,0.0,0.0,0.0
252,0.0,0.086953125,0.0,0.0,0.0,0.0,0.0,0.0,-0.484,0.0,0.0,0.0,0.0,0.0,0.0,-0.4980036774069228,0.0,0.0,0.0,0.0,0.0,0.0,-31.312,0.0,0.0,0.0,0.0,0.0
253,0.0,0.086953125,0.0,0.0,0.0,0.0,0.0,0.0,-0.484,0.0,0.0,0.0,0.0,0.0,0.0,-0.506512351938638,0.0,0.0,0.0,0.0,0.0,0.0,-31.312,0.0,0.0,0.0,0.0,0.0
254,0.0,0.0776845703125,0.0,0.0,0.0,0.0,0.0,0.0,-0.478,0.0,0.0,0.0,0.0,0.0,0.0,-0.5212817301029895,0.0,0.0,0.0,0.0,0.0,0.0,-38.764,0.0,0.0,0.0,0.0,0.0
255,0.0,0.0733564453125,0.0,0.0,0.0,0.0,0.0,0.0,-0.442,0.0,0.0,0.0,0.0,0.0,0.0,-0.5343633651278056,0.0,0.0,0.0,0.0,0.0,0.0,-36.82,0.0,0.0,0.0,0.0,0.0
256,0.0,0.069548828125,0.0,0.0,0.0,0.0,0.0,0.0,-0.413,0.0,0.0,0.0,0.0,0.0,0.0,-0.5463475244903745,0.0,0.0,0.0,0.0,0.0,0.0,-33.148,0.0,0.0,0.0,0.0,0.0
257,0.0,0.065947265625,0.0,0.0,0.0,0.0,0.0,0.0,-0.378,0.0,0.0,0.0,0.0,0.0,0.0,-0.5584097223569476,0.0,0.0,0.0,0.0,0.0,0.0,-34.66,0.0,0.0,0.0,0.0,0.0
258,0.0,0.0622353515625,0.0,0.0,0.0,0.0,0.0,0.0,-0.367,0.0,0.0,0.0,0.0,0.0,0.0,-0.5655660845491195,0.0,0.0,0.0,0.0,0.0,0.0,-38.924,0.0,0.0,0.0,0.0,0.0
259,0.0,0.05853125,0.0,0.0,0.0,0.0,0.0,0.0,-0.375,0.0,0.0,0.0,0.0,0.0,0.0,-0.5713214644153577,0.0,0.0,0.0,0.0,0.0,0.0,-41.356,0.0,0.0,0.0,0.0,0.0
260,0.0,0.0549228515625,0.0,0.0,0.0,0.0,0.0,0.0,-0.368,0.0,0.0,0.0,0.0,0.0,0.0,-0.579296645909439,0.0,0.0,0.0,0.0,0.0,0.0,-40.76,0.0,0.0,0.0,0.0,0.0
261,0.0,0.051732421875,0.0,0.0,0.0,0.0,0.0,0.0,-0.35,0.0,0.0,0.0,0.0,0.0,0.0,-0.5838271503646075,0.0,0.0,0.0,0.0,0.0,0.0,-39.248,0.0,0.0,0.0,0.0,0.0
262,0.0,0.0489541015625,0.0,0.0,0.0,0.0,0.0,0.0,-0.306,0.0,0.0,0.0,0.0,0.0,0.0,-0.5887495039909258,0.0,0.0,0.0,0.0,0.0,0.0,-40.328,0.0,0.0,0.0,0.0,0.0
263,0.0,0.0461689453125,0.0,0.0,0.0,0.0,0.0,0.0,-0.279,0.0,0.0,0.0,0.0,0.0,0.0,-0.5962655385375175,0.0,0.0,0.0,0.0,0.0,0.0,-42.652,0.0,0.0,0.0,0.0,0.0
264,0.0,0.042978515625,0.0,0.0,0.0,0.0,0.0,0.0,-0.294,0.0,0.0,0.0,0.0,0.0,0.0,-0.5977379416065445,0.0,0.0,0.0,0.0,0.0,0.0,-45.24,0.0,0.0,0.0,0.0,0.0
265,0.0,0.039376953125,0.0,0.0,0.0,0.0,0.0,0.0,-0.342,0.0,0.0,0.0,0.0,0.0,0.0,-0.5989353538056746,0.0,0.0,0.0,0.0,0.0,0.0,-46.376,0.0,0.0,0.0,0.0,0.0
266,0.0,0.039376953125,0.0,0.0,0.0,0.0,0.0,0.0,-0.342,0.0,0.0,0.0,0.0,0.0,0.0,-0.599656621207319,0.0,0.0,0.0,0.0,0.0,0.0,-46.376,0.0,0.0,0.0,0.0,0.0
267,0.0,0.035974609375,0.0,0.0,0.0,0.0,0.0,0.0,-0.356,0.0,0.0,0.0,0.0,0.0,0.0,-0.59997222761064,0.0,0.0,0.0,0.0,0.0,0.0,-45.836,0.0,0.0,0.0,0.0,0.0
268,0.0,0.030109375,0.0,0.0,0.0,0.0,0.0,0.0,-0.297,0.0,0.0,0.0,0.0,0.0,0.0,-0.5993072468946388,0.0,0.0,0.0,0.0,0.0,0.0,-46.376,0.0,0.0,0.0,0.0,0.0
269,0.0,0.030109375,0.0,0.0,0.0,0.0,0.0,0.0,-0.297,0.0,0.0,0.0,0.0,0.0,0.0,-0.5983688295966236,0.0,0.0,0.0,0.0,0.0,0.0,-46.376,0.0,0.0,0.0,0.0,0.0
270,0.0,0.0271181640625,0.0,0.0,0.0,0.0,0.0,0.0,-0.29,0.0,0.0,0.0,0.0,0.0,0.0,-0.5965197991097387,0.0,0.0,0.0,0.0,0.0,0.0,-47.184,0.0,0.0,0.0,0.0,0.0
271,0.0,0.0197021484375,0.0,0.0,0.0,0.0,0.0,0.0,-0.371,0.0,0.0,0.0,0.0,0.0,0.0,-0.5911015577890335,0.0,0.0,0.0,0.0,0.0,0.0,-47.184,0.0,0.0,0.0,0.0,0.0
272,0.0,0.0197021484375,0.0,0.0,0.0,0.0,0.0,0.0,-0.371,0.0,0.0,0.0,0.0,0.0,0.0,-0.5886278596923791,0.0,0.0,0.0,0.0,0.0,0.0,-47.184,0.0,0.0,0.0,0.0,0.0
273,0.0,0.0161005859375,0.0,0.0,0.0,0.0,0.0,0.0,-0.38,0.0,0.0,0.0,0.0,0.0,0.0,-0.5846875305008592,0.0,0.0,0.0,0.0,0.0,0.0,-47.456,0.0,0.0,0.0,0.0,0.0
274,0.0,0.0126015625,0.0,0.0,0.0,0.0,0.0,0.0,-0.357,0.0,0.0,0.0,0.0,0.0,0.0,-0.5726245951331301,0.0,0.0,0.0,0.0,0.0,0.0,-47.78,0.0,0.0,0.0,0.0,0.0
275,0.0,0.00919921875,0.0,0.0,0.0,0.0,0.0,0.0,-0.344,0.0,0.0,0.0,0.0,0.0,0.0,-0.5681230631425521,0.0,0.0,0.0,0.0,0.0,0.0,-47.996,0.0,0.0,0.0,0.0,0.0
276,0.0,0.00919921875,0.0,0.0,0.0,0.0,0.0,0.0,-0.344,0.0,0.0,0.0,0.0,0.0,0.0,-0.5635061227914786,0.0,0.0,0.0,0.0,0.0,0.0,-47.996,0.0,0.0,0.0,0.0,0.0
277,0.0,-0.0023330078125,0.0,0.0,0.0,0.0,0.0,0.0,-0.402,0.0,0.0,0.0,0.0,0.0,0.0,-0.5515194250615402,0.0,0.0,0.0,0.0,0.0,0.0,-46.376,0.0,0.0,0.0,0.0,0.0
278,0.0,-0.0023330078125,0.0,0.0,0.0,0.0,0.0,0.0,-0.402,0.0,0.0,0.0,0.0,0.0,0.0,-0.544333440435809,0.0,0.0,0.0,0.0,0.0,0.0,-46.376,0.0,0.0,0.0,0.0,0.0
279,0.0,-0.0103662109375,0.0,0.0,0.0,0.0,0.0,0.0,-0.404,0.0,0.0,0.0,0.0,0.0,0.0,-0.532080768291746,0.0,0.0,0.0,0.0,0.0,0.0,-47.348,0.0,0.0,0.0,0.0,0.0
280,0.0,-0.0103662109375,0.0,0.0,0.0,0.0,0.0,0.0,-0.404,0.0,0.0,0.0,0.0,0.0,0.0,-0.5245327953539702,0.0,0.0,0.0,0.0,0.0,0.0,-47.348,0.0,0.0,0.0,0.0,0.0
281,0.0,-0.018296875,0.0,0.0,0.0,0.0,0.0,0.0,-0.394,0.0,0.0,0.0,0.0,0.0,0.0,-0.500832430243833,0.0,0.0,0.0,0.0,0.0,0.0,-46.484,0.0,0.0,0.0,0.0,0.0
282,0.0,-0.0224130859375,0.0,0.0,0.0,0.0,0.0,0.0,-0.409,0.0,0.0,0.0,0.0,0.0,0.0,-0.4877242768548587,0.0,0.0,0.0,0.0,0.0,0.0,-45.564,0.0,0.0,0.0,0.0,0.0
283,0.0,-0.03126953125,0.0,0.0,0.0,0.0,0.0,0.0,-0.447,0.0,0.0,0.0,0.0,0.0,0.0,-0.45643181915565084,0.0,0.0,0.0,0.0,0.0,0.0,-45.564,0.0,0.0,0.0,0.0,0.0
284,0.0,-0.03126953125,0.0,0.0,0.0,0.0,0.0,0.0,-0.447,0.0,0.0,0.0,0.0,0.0,0.0,-0.43377800149642753,0.0,0.0,0.0,0.0,0.0,0.0,-45.564,0.0,0.0,0.0,0.0,0.0
285,0.0,-0.0438369140625,0.0,0.0,0.0,0.0,0.0,0.0,-0.415,0.0,0.0,0.0,0.0,0.0,0.0,-0.41669324259334845,0.0,0.0,0.0,0.0,0.0,0.0,-44.052,0.0,0.0,0.0,0.0,0.0
286,0.0,-0.0479541015625,0.0,0.0,0.0,0.0,0.0,0.0,-0.411,0.0,0.0,0.0,0.0,0.0,0.0,-0.3991900305960419,0.0,0.0,0.0,0.0,0.0,0.0,-43.512,0.0,0.0,0.0,0.0,0.0
287,0.0,-0.052384765625,0.0,0.0,0.0,0.0,0.0,0.0,-0.428,0.0,0.0,0.0,0.0,0.0,0.0,-0.3795190556755053,0.0,0.0,0.0,0.0,0.0,0.0,-43.784,0.0,0.0,0.0,0.0,0.0
288,0.0,-0.0569130859375,0.0,0.0,0.0,0.0,0.0,0.0,-0.453,0.0,0.0,0.0,0.0,0.0,0.0,-0.36245505440901166,0.0,0.0,0.0,0.0,0.0,0.0,-43.728,0.0,0.0,0.0,0.0,0.0
289,0.0,-0.061138671875,0.0,0.0,0.0,0.0,0.0,0.0,-0.446,0.0,0.0,0.0,0.0,0.0,0.0,-0.3426817799169323,0.0,0.0,0.0,0.0,0.0,0.0,-43.244,0.0,0.0,0.0,0.0,0.0
290,0.0,-0.061138671875,0.0,0.0,0.0,0.0,0.0,0.0,-0.446,0.0,0.0,0.0,0.0,0.0,0.0,-0.32187454632482976,0.0,0.0,0.0,0.0,0.0,0.0,-43.244,0.0,0.0,0.0,0.0,0.0
291,0.0,-0.0690693359375,0.0,0.0,0.0,0.0,0.0,0.0,-0.399,0.0,0.0,0.0,0.0,0.0,0.0,-0.2865792631203602,0.0,0.0,0.0,0.0,0.0,0.0,-43.296,0.0,0.0,0.0,0.0,0.0
292,0.0,-0.0730830078125,0.0,0.0,0.0,0.0,0.0,0.0,-0.395,0.0,0.0,0.0,0.0,0.0,0.0,-0.2737335609803255,0.0,0.0,0.0,0.0,0.0,0.0,-43.512,0.0,0.0,0.0,0.0,0.0
293,0.0,-0.0730830078125,0.0,0.0,0.0,0.0,0.0,0.0,-0.395,0.0,0.0,0.0,0.0,0.0,0.0,-0.26020212913262736,0.0,0.0,0.0,0.0,0.0,0.0,-43.512,0.0,0.0,0.0,0.0,0.0
294,0.0,-0.0817333984375,0.0,0.0,0.0,0.0,0.0,0.0,-0.44,0.0,0.0,0.0,0.0,0.0,0.0,-0.23836040975202735,0.0,0.0,0.0,0.0,0.0,0.0,-43.46,0.0,0.0,0.0,0.0,0.0
295,0.0,-0.0858564453125,0.0,0.0,0.0,0.0,0.0,0.0,-0.428,0.0,0.0,0.0,0.0,0.0,0.0,-0.21520833622911617,0.0,0.0,0.0,0.0,0.0,0.0,-42.868,0.0,0.0,0.0,0.0,0.0
296,0.0,-0.0896640625,0.0,0.0,0.0,0.0,0.0,0.0,-0.401,0.0,0.0,0.0,0.0,0.0,0.0,-0.19330934804090127,0.0,0.0,0.0,0.0,0.0,0.0,-43.084,0.0,0.0,0.0,0.0,0.0
297,0.0,-0.0932724609375,0.0,0.0,0.0,0.0,0.0,0.0,-0.372,0.0,0.0,0.0,0.0,0.0,0.0,-0.1706638178994014,0.0,0.0,0.0,0.0,0.0,0.0,-43.568,0.0,0.0,0.0,0.0,0.0
298,0.0,-0.097080078125,0.0,0.0,0.0,0.0,0.0,0.0,-0.373,0.0,0.0,0.0,0.0,0.0,0.0,-0.14761743078334366,0.0,0.0,0.0,0.0,0.0,0.0,-43.676,0.0,0.0,0.0,0.0,0.0
299,0.0,-0.097080078125,0.0,0.0,0.0,0.0,0.0,0.0,-0.373,0.0,0.0,0.0,0.0,0.0,0.0,-0.12421304935201653,0.0,0.0,0.0,0.0,0.0,0.0,-43.676,0.0,0.0,0.0,0.0,0.0
300,0.0,-0.10562109375,0.0,0.0,0.0,0.0,0.0,0.0,-0.43,0.0,0.0,0.0,0.0,0.0,0.0,-0.09386654749458423,0.0,0.0,0.0,0.0,0.0,0.0,-43.676,0.0,0.0,0.0,0.0,0.0
301,0.0,-0.1095380859375,0.0,0.0,0.0,0.0,0.0,0.0,-0.413,0.0,0.0,0.0,0.0,0.0,0.0,-0.07694604661755393,0.0,0.0,0.0,0.0,0.0,0.0,-43.404,0.0,0.0,0.0,0.0,0.0
302,0.0,-0.1095380859375,0.0,0.0,0.0,0.0,0.0,0.0,-0.413,0.0,0.0,0.0,0.0,0.0,0.0,-0.0530936017735064,0.0,0.0,0.0,0.0,0.0,0.0,-43.404,0.0,0.0,0.0,0.0,0.0
303,0.0,-0.1162275390625,0.0,0.0,0.0,0.0,0.0,0.0,-0.349,0.0,0.0,0.0,0.0,0.0,0.0,-0.016024009685181695,0.0,0.0,0.0,0.0,0.0,0.0,-39.788,0.0,0.0,0.0,0.0,0.0
304,0.0,-0.1178798828125,0.0,0.0,0.0,0.0,0.0,0.0,-0.251,0.0,0.0,0.0,0.0,0.0,0.0,-0.0033801758270501814,0.0,0.0,0.0,0.0,0.0,0.0,-26.94,0.0,0.0,0.0,0.0,0.0
305,0.0,-0.1184970703125,0.0,0.0,0.0,0.0,0.0,0.0,-0.118,0.0,0.0,0.0,0.0,0.0,0.0,0.02111724468389797,0.0,0.0,0.0,0.0,0.0,0.0,-16.788,0.0,0.0,0.0,0.0,0.0
306,0.0,-0.1182919921875,0.0,0.0,0.0,0.0,0.0,0.0,-0.038,0.0,0.0,0.0,0.0,0.0,0.0,7.438659648912813e-05,0.0,0.0,0.0,0.0,0.0,0.0,-11.82,0.0,0.0,0.0,0.0,0.0
307,0.0,-0.11716015625,0.0,0.0,0.0,0.0,0.0,0.0,0.066,0.0,0.0,0.0,0.0,0.0,0.0,0.023616791729219017,0.0,0.0,0.0,0.0,0.0,0.0,-11.12,0.0,0.0,0.0,0.0,0.0
308,0.0,-0.1158154296875,0.0,0.0,0.0,0.0,0.0,0.0,0.122,0.0,0.0,0.0,0.0,0.0,0.0,0.04732646631438275,0.0,0.0,0.0,0.0,0.0,0.0,-10.04,0.0,0.0,0.0,0.0,0.0
309,0.0,-0.1132431640625,0.0,0.0,0.0,0.0,0.0,0.0,0.181,0.0,0.0,0.0,0.0,0.0,0.0,0.07111709325181229,0.0,0.0,0.0,0.0,0.0,0.0,-9.664,0.0,0.0,0.0,0.0,0.0
310,0.0,-0.1095380859375,0.0,0.0,0.0,0.0,0.0,0.0,0.308,0.0,0.0,0.0,0.0,0.0,0.0,0.09482305985731312,0.0,0.0,0.0,0.0,0.0,0.0,-11.66,0.0,0.0,0.0,0.0,0.0
311,0.0,-0.104900390625,0.0,0.0,0.0,0.0,0.0,0.0,0.403,0.0,0.0,0.0,0.0,0.0,0.0,0.11836409343765633,0.0,0.0,0.0,0.0,0.0,0.0,-13.98,0.0,0.0,0.0,0.0,0.0
312,0.0,-0.0991376953125,0.0,0.0,0.0,0.0,0.0,0.0,0.519,0.0,0.0,0.0,0.0,0.0,0.0,0.14201720690535494,0.0,0.0,0.0,0.0,0.0,0.0,-17.868,0.0,0.0,0.0,0.0,0.0
313,0.0,-0.093375,0.0,0.0,0.0,0.0,0.0,0.0,0.585,0.0,0.0,0.0,0.0,0.0,0.0,0.16502394439680748,0.0,0.0,0.0,0.0,0.0,0.0,-21.324,0.0,0.0,0.0,0.0,0.0
314,0.0,-0.08760546875,0.0,0.0,0.0,0.0,0.0,0.0,0.571,0.0,0.0,0.0,0.0,0.0,0.0,0.18806285594817043,0.0,0.0,0.0,0.0,0.0,0.0,-25.428,0.0,0.0,0.0,0.0,0.0
315,0.0,-0.081939453125,0.0,0.0,0.0,0.0,0.0,0.0,0.582,0.0,0.0,0.0,0.0,0.0,0.0,0.21101835824214527,0.0,0.0,0.0,0.0,0.0,0.0,-31.852,0.0,0.0,0.0,0.0,0.0
316,0.0,-0.075970703125,0.0,0.0,0.0,0.0,0.0,0.0,0.579,0.0,0.0,0.0,0.0,0.0,0.0,0.23309359952351183,0.0,0.0,0.0,0.0,0.0,0.0,-34.552,0.0,0.0,0.0,0.0,0.0
317,0.0,-0.06886328125,0.0,0.0,0.0,0.0,0.0,0.0,0.642,0.0,0.0,0.0,0.0,0.0,0.0,0.2549140688938017,0.0,0.0,0.0,0.0,0.0,0.0,-35.632,0.0,0.0,0.0,0.0,0.0
318,0.0,-0.061755859375,0.0,0.0,0.0,0.0,0.0,0.0,0.72,0.0,0.0,0.0,0.0,0.0,0.0,0.27684138026524213,0.0,0.0,0.0,0.0,0.0,0.0,-36.712,0.0,0.0,0.0,0.0,0.0
319,0.0,-0.0549580078125,0.0,0.0,0.0,0.0,0.0,0.0,0.702,0.0,0.0,0.0,0.0,0.0,0.0,0.2975446642709841,0.0,0.0,0.0,0.0,0.0,0.0,-41.572,0.0,0.0,0.0,0.0,0.0
320,0.0,-0.0484677734375,0.0,0.0,0.0,0.0,0.0,0.0,0.672,0.0,0.0,0.0,0.0,0.0,0.0,0.31815033579839347,0.0,0.0,0.0,0.0,0.0,0.0,-46.052,0.0,0.0,0.0,0.0,0.0
321,0.0,-0.0421904296875,0.0,0.0,0.0,0.0,0.0,0.0,0.638,0.0,0.0,0.0,0.0,0.0,0.0,0.3466510791294486,0.0,0.0,0.0,0.0,0.0,0.0,-45.188,0.0,0.0,0.0,0.0,0.0
322,0.0,-0.035701171875,0.0,0.0,0.0,0.0,0.0,0.0,0.641,0.0,0.0,0.0,0.0,0.0,0.0,0.3588945471845201,0.0,0.0,0.0,0.0,0.0,0.0,-43.892,0.0,0.0,0.0,0.0,0.0
323,0.0,-0.0291083984375,0.0,0.0,0.0,0.0,0.0,0.0,0.664,0.0,0.0,0.0,0.0,0.0,0.0,0.3767511452760951,0.0,0.0,0.0,0.0,0.0,0.0,-48.372,0.0,0.0,0.0,0.0,0.0
324,0.0,-0.0227216796875,0.0,0.0,0.0,0.0,0.0,0.0,0.651,0.0,0.0,0.0,0.0,0.0,0.0,0.4025210542625838,0.0,0.0,0.0,0.0,0.0,0.0,-52.584,0.0,0.0,0.0,0.0,0.0
325,0.0,-0.01623828125,0.0,0.0,0.0,0.0,0.0,0.0,0.65,0.0,0.0,0.0,0.0,0.0,0.0,0.4127885531073974,0.0,0.0,0.0,0.0,0.0,0.0,-52.152,0.0,0.0,0.0,0.0,0.0
326,0.0,-0.010572265625,0.0,0.0,0.0,0.0,0.0,0.0,0.619,0.0,0.0,0.0,0.0,0.0,0.0,0.42988796223872267,0.0,0.0,0.0,0.0,0.0,0.0,-52.26,0.0,0.0,0.0,0.0,0.0
327,0.0,-0.0053173828125,0.0,0.0,0.0,0.0,0.0,0.0,0.546,0.0,0.0,0.0,0.0,0.0,0.0,0.4524617624775281,0.0,0.0,0.0,0.0,0.0,0.0,-55.716,0.0,0.0,0.0,0.0,0.0
328,0.0,0.0003427734375,0.0,0.0,0.0,0.0,0.0,0.0,0.548,0.0,0.0,0.0,0.0,0.0,0.0,0.46200265075428865,0.0,0.0,0.0,0.0,0.0,0.0,-57.768,0.0,0.0,0.0,0.0,0.0
329,0.0,0.00559765625,0.0,0.0,0.0,0.0,0.0,0.0,0.552,0.0,0.0,0.0,0.0,0.0,0.0,0.4769082479639539,0.0,0.0,0.0,0.0,0.0,0.0,-55.824,0.0,0.0,0.0,0.0,0.0
330,0.0,0.010845703125,0.0,0.0,0.0,0.0,0.0,0.0,0.53,0.0,0.0,0.0,0.0,0.0,0.0,0.49201522200173464,0.0,0.0,0.0,0.0,0.0,0.0,-54.96,0.0,0.0,0.0,0.0,0.0
331,0.0,0.0154833984375,0.0,0.0,0.0,0.0,0.0,0.0,0.511,0.0,0.0,0.0,0.0,0.0,0.0,0.5044685192591591,0.0,0.0,0.0,0.0,0.0,0.0,-58.36,0.0,0.0,0.0,0.0,0.0
332,0.0,0.019291015625,0.0,0.0,0.0,0.0,0.0,0.0,0.422,0.0,0.0,0.0,0.0,0.0,0.0,0.517121290919636,0.0,0.0,0.0,0.0,0.0,0.0,-59.28,0.0,0.0,0.0,0.0,0.0
333,0.0,0.0235166015625,0.0,0.0,0.0,0.0,0.0,0.0,0.397,0.0,0.0,0.0,0.0,0.0,0.0,0.5329793641991911,0.0,0.0,0.0,0.0,0.0,0.0,-56.416,0.0,0.0,0.0,0.0,0.0
334,0.0,0.027529296875,0.0,0.0,0.0,0.0,0.0,0.0,0.417,0.0,0.0,0.0,0.0,0.0,0.0,0.5398528978863952,0.0,0.0,0.0,0.0,0.0,0.0,-52.476,0.0,0.0,0.0,0.0,0.0
335,0.0,0.0315498046875,0.0,0.0,0.0,0.0,0.0,0.0,0.401,0.0,0.0,0.0,0.0,0.0,0.0,0.550009825125171,0.0,0.0,0.0,0.0,0.0,0.0,-51.396,0.0,0.0,0.0,0.0,0.0
336,0.0,0.03525390625,0.0,0.0,0.0,0.0,0.0,0.0,0.398,0.0,0.0,0.0,0.0,0.0,0.0,0.5592198852094534,0.0,0.0,0.0,0.0,0.0,0.0,-53.936,0.0,0.0,0.0,0.0,0.0
337,0.0,0.038033203125,0.0,0.0,0.0,0.0,0.0,0.0,0.332,0.0,0.0,0.0,0.0,0.0,0.0,0.5672540489154247,0.0,0.0,0.0,0.0,0.0,0.0,-53.664,0.0,0.0,0.0,0.0,0.0
338,0.0,0.0409208984375,0.0,0.0,0.0,0.0,0.0,0.0,0.284,0.0,0.0,0.0,0.0,0.0,0.0,0.5748465344241818,0.0,0.0,0.0,0.0,0.0,0.0,-50.64,0.0,0.0,0.0,0.0,0.0
339,0.0,0.0409208984375,0.0,0.0,0.0,0.0,0.0,0.0,0.284,0.0,0.0,0.0,0.0,0.0,0.0,0.581458796154553,0.0,0.0,0.0,0.0,0.0,0.0,-50.64,0.0,0.0,0.0,0.0,0.0
340,0.0,0.04668359375,0.0,0.0,0.0,0.0,0.0,0.0,0.287,0.0,0.0,0.0,0.0,0.0,0.0,0.5865746611655557,0.0,0.0,0.0,0.0,0.0,0.0,-44.484,0.0,0.0,0.0,0.0,0.0
341,0.0,0.0501884765625,0.0,0.0,0.0,0.0,0.0,0.0,0.329,0.0,0.0,0.0,0.0,0.0,0.0,0.5911387970731895,0.0,0.0,0.0,0.0,0.0,0.0,-45.08,0.0,0.0,0.0,0.0,0.0
342,0.0,0.0530703125,0.0,0.0,0.0,0.0,0.0,0.0,0.326,0.0,0.0,0.0,0.0,0.0,0.0,0.5948432846305155,0.0,0.0,0.0,0.0,0.0,0.0,-45.944,0.0,0.0,0.0,0.0,0.0
343,0.0,0.0556435546875,0.0,0.0,0.0,0.0,0.0,0.0,0.276,0.0,0.0,0.0,0.0,0.0,0.0,0.5974700320404842,0.0,0.0,0.0,0.0,0.0,0.0,-44.916,0.0,0.0,0.0,0.0,0.0
344,0.0,0.0583251953125,0.0,0.0,0.0,0.0,0.0,0.0,0.269,0.0,0.0,0.0,0.0,0.0,0.0,0.5991944347557638,0.0,0.0,0.0,0.0,0.0,0.0,-43.404,0.0,0.0,0.0,0.0,0.0
345,0.0,0.06120703125,0.0,0.0,0.0,0.0,0.0,0.0,0.271,0.0,0.0,0.0,0.0,0.0,0.0,0.5999699549675199,0.0,0.0,0.0,0.0,0.0,0.0,-41.788,0.0,0.0,0.0,0.0,0.0
346,0.0,0.0646025390625,0.0,0.0,0.0,0.0,0.0,0.0,0.312,0.0,0.0,0.0,0.0,0.0,0.0,0.5994201660533447,0.0,0.0,0.0,0.0,0.0,0.0,-41.3,0.0,0.0,0.0,0.0,0.0
347,0.0,0.0681083984375,0.0,0.0,0.0,0.0,0.0,0.0,0.349,0.0,0.0,0.0,0.0,0.0,0.0,0.5985602116730155,0.0,0.0,0.0,0.0,0.0,0.0,-41.572,0.0,0.0,0.0,0.0,0.0
348,0.0,0.0711953125,0.0,0.0,0.0,0.0,0.0,0.0,0.33,0.0,0.0,0.0,0.0,0.0,0.0,0.5948628535064191,0.0,0.0,0.0,0.0,0.0,0.0,-40.868,0.0,0.0,0.0,0.0,0.0
349,0.0,0.0743916015625,0.0,0.0,0.0,0.0,0.0,0.0,0.319,0.0,0.0,0.0,0.0,0.0,0.0,0.5918813772179362,0.0,0.0,0.0,0.0,0.0,0.0,-40.816,0.0,0.0,0.0,0.0,0.0
350,0.0,0.0774794921875,0.0,0.0,0.0,0.0,0.0,0.0,0.313,0.0,0.0,0.0,0.0,0.0,0.0,0.5894177903287297,0.0,0.0,0.0,0.0,0.0,0.0,-40.384,0.0,0.0,0.0,0.0,0.0
351,0.0,0.0845859375,0.0,0.0,0.0,0.0,0.0,0.0,0.357,0.0,0.0,0.0,0.0,0.0,0.0,0.5793961179035544,0.0,0.0,0.0,0.0,0.0,0.0,-40.384,0.0,0.0,0.0,0.0,0.0
352,0.0,0.0845859375,0.0,0.0,0.0,0.0,0.0,0.0,0.357,0.0,0.0,0.0,0.0,0.0,0.0,0.5737286374403798,0.0,0.0,0.0,0.0,0.0,0.0,-40.384,0.0,0.0,0.0,0.0,0.0
353,0.0,0.0880849609375,0.0,0.0,0.0,0.0,0.0,0.0,0.356,0.0,0.0,0.0,0.0,0.0,0.0,0.5685084437621591,0.0,0.0,0.0,0.0,0.0,0.0,-40.004,0.0,0.0,0.0,0.0,0.0
354,0.0,0.0955009765625,0.0,0.0,0.0,0.0,0.0,0.0,0.372,0.0,0.0,0.0,0.0,0.0,0.0,0.5500399259908102,0.0,0.0,0.0,0.0,0.0,0.0,-39.248,0.0,0.0,0.0,0.0,0.0
355,0.0,0.09930859375,0.0,0.0,0.0,0.0,0.0,0.0,0.373,0.0,0.0,0.0,0.0,0.0,0.0,0.54406869617139,0.0,0.0,0.0,0.0,0.0,0.0,-39.788,0.0,0.0,0.0,0.0,0.0
356,0.0,0.107232421875,0.0,0.0,0.0,0.0,0.0,0.0,0.399,0.0,0.0,0.0,0.0,0.0,0.0,0.5225371037509996,0.0,0.0,0.0,0.0,0.0,0.0,-40.6,0.0,0.0,0.0,0.0,0.0
357,0.0,0.11135546875,0.0,0.0,0.0,0.0,0.0,0.0,0.404,0.0,0.0,0.0,0.0,0.0,0.0,0.5101918738910712,0.0,0.0,0.0,0.0,0.0,0.0,-40.6,0.0,0.0,0.0,0.0,0.0
358,0.0,0.1199033203125,0.0,0.0,0.0,0.0,0.0,0.0,0.43,0.0,0.0,0.0,0.0,0.0,0.0,0.486026980789368,0.0,0.0,0.0,0.0,0.0,0.0,-41.084,0.0,0.0,0.0,0.0,0.0
359,0.0,0.1199033203125,0.0,0.0,0.0,0.0,0.0,0.0,0.43,0.0,0.0,0.0,0.0,0.0,0.0,0.4756668404070738,0.0,0.0,0.0,0.0,0.0,0.0,-41.084,0.0,0.0,0.0,0.0,0.0
360,0.0,0.124328125,0.0,0.0,0.0,0.0,0.0,0.0,0.442,0.0,0.0,0.0,0.0,0.0,0.0,0.4645467471529338,0.0,0.0,0.0,0.0,0.0,0.0,-42.488,0.0,0.0,0.0,0.0,0.0
361,0.0,0.13308203125,0.0,0.0,0.0,0.0,0.0,0.0,0.437,0.0,0.0,0.0,0.0,0.0,0.0,0.4306881810607784,0.0,0.0,0.0,0.0,0.0,0.0,-43.836,0.0,0.0,0.0,0.0,0.0
362,0.0,0.137404296875,0.0,0.0,0.0,0.0,0.0,0.0,0.436,0.0,0.0,0.0,0.0,0.0,0.0,0.4219885511014963,0.0,0.0,0.0,0.0,0.0,0.0,-43.892,0.0,0.0,0.0,0.0,0.0
363,0.0,0.1419384765625,0.0,0.0,0.0,0.0,0.0,0.0,0.447,0.0,0.0,0.0,0.0,0.0,0.0,0.3842520677590631,0.0,0.0,0.0,0.0,0.0,0.0,-44.16,0.0,0.0,0.0,0.0,0.0
364,0.0,0.1508017578125,0.0,0.0,0.0,0.0,0.0,0.0,0.449,0.0,0.0,0.0,0.0,0.0,0.0,0.3614936909654918,0.0,0.0,0.0,0.0,0.0,0.0,-45.672,0.0,0.0,0.0,0.0,0.0
365,0.0,0.1594521484375,0.0,0.0,0.0,0.0,0.0,0.0,0.431,0.0,0.0,0.0,0.0,0.0,0.0,0.3331248760091706,0.0,0.0,0.0,0.0,0.0,0.0,-45.188,0.0,0.0,0.0,0.0,0.0
366,0.0,0.1594521484375,0.0,0.0,0.0,0.0,0.0,0.0,0.431,0.0,0.0,0.0,0.0,0.0,0.0,0.31977521045453655,0.0,0.0,0.0,0.0,0.0,0.0,-45.188,0.0,0.0,0.0,0.0,0.0
367,0.0,0.163671875,0.0,0.0,0.0,0.0,0.0,0.0,0.428,0.0,0.0,0.0,0.0,0.0,0.0,0.3060663118340586,0.0,0.0,0.0,0.0,0.0,0.0,-44.864,0.0,0.0,0.0,0.0,0.0
368,0.0,0.168,0.0,0.0,0.0,0.0,0.0,0.0,0.433,0.0,0.0,0.0,0.0,0.0,0.0,0.2780360348088772,0.0,0.0,0.0,0.0,0.0,0.0,-44.808,0.0,0.0,0.0,0.0,0.0
369,0.0,0.172322265625,0.0,0.0,0.0,0.0,0.0,0.0,0.434,0.0,0.0,0.0,0.0,0.0,0.0,0.2507142129323789,0.0,0.0,0.0,0.0,0.0,0.0,-45.404,0.0,0.0,0.0,0.0,0.0
370,0.0,0.1764453125,0.0,0.0,0.0,0.0,0.0,0.0,0.424,0.0,0.0,0.0,0.0,0.0,0.0,0.23497964739718374,0.0,0.0,0.0,0.0,0.0,0.0,-45.62,0.0,0.0,0.0,0.0,0.0
371,0.0,0.18035546875,0.0,0.0,0.0,0.0,0.0,0.0,0.408,0.0,0.0,0.0,0.0,0.0,0.0,0.21327529313847374,0.0,0.0,0.0,0.0,0.0,0.0,-45.188,0.0,0.0,0.0,0.0,0.0
372,0.0,0.1884912109375,0.0,0.0,0.0,0.0,0.0,0.0,0.406,0.0,0.0,0.0,0.0,0.0,0.0,0.17636774548847053,0.0,0.0,0.0,0.0,0.0,0.0,-44.7,0.0,0.0,0.0,0.0,0.0
373,0.0,0.1925048828125,0.0,0.0,0.0,0.0,0.0,0.0,0.406,0.0,0.0,0.0,0.0,0.0,0.0,0.15034691370930997,0.0,0.0,0.0,0.0,0.0,0.0,-44.916,0.0,0.0,0.0,0.0,0.0
374,0.0,0.196525390625,0.0,0.0,0.0,0.0,0.0,0.0,0.406,0.0,0.0,0.0,0.0,0.0,0.0,0.12410687496679686,0.0,0.0,0.0,0.0,0.0,0.0,-45.78,0.0,0.0,0.0,0.0,0.0
375,0.0,0.1992001953125,0.0,0.0,0.0,0.0,0.0,0.0,0.356,0.0,0.0,0.0,0.0,0.0,0.0,0.10145794147813808,0.0,0.0,0.0,0.0,0.0,0.0,-54.42,0.0,0.0,0.0,0.0,0.0
376,0.0,0.1992001953125,0.0,0.0,0.0,0.0,0.0,0.0,0.356,0.0,0.0,0.0,0.0,0.0,0.0,0.06723196739255893,0.0,0.0,0.0,0.0,0.0,0.0,-54.42,0.0,0.0,0.0,0.0,0.0
377,0.0,0.1992001953125,0.0,0.0,0.0,0.0,0.0,0.0,0.356,0.0,0.0,0.0,0.0,0.0,0.0,0.055003457717175366,0.0,0.0,0.0,0.0,0.0,0.0,-54.42,0.0,0.0,0.0,0.0,0.0
378,0.0,0.200435546875,0.0,0.0,0.0,0.0,0.0,0.0,0.071,0.0,0.0,0.0,0.0,0.0,0.0,0.018948069599780588,0.0,0.0,0.0,0.0,0.0,0.0,-73.316,0.0,0.0,0.0,0.0,0.0
379,0.0,0.199509765625,0.0,0.0,0.0,0.0,0.0,0.0,-0.027,0.0,0.0,0.0,0.0,0.0,0.0,-0.005346232241181882,0.0,0.0,0.0,0.0,0.0,0.0,-76.284,0.0,0.0,0.0,0.0,0.0
380,0.0,0.198376953125,0.0,0.0,0.0,0.0,0.0,0.0,-0.111,0.0,0.0,0.0,0.0,0.0,0.0,-0.02365701031026881,0.0,0.0,0.0,0.0,0.0,0.0,-76.556,0.0,0.0,0.0,0.0,0.0
381,0.0,0.1932255859375,0.0,0.0,0.0,0.0,0.0,0.0,-0.246,0.0,0.0,0.0,0.0,0.0,0.0,-0.04553875066240106,0.0,0.0,0.0,0.0,0.0,0.0,-78.012,0.0,0.0,0.0,0.0,0.0
382,0.0,0.18880078125,0.0,0.0,0.0,0.0,0.0,0.0,-0.384,0.0,0.0,0.0,0.0,0.0,0.0,-0.057888636954292985,0.0,0.0,0.0,0.0,0.0,0.0,-74.02,0.0,0.0,0.0,0.0,0.0
383,0.0,0.1837509765625,0.0,0.0,0.0,0.0,0.0,0.0,-0.471,0.0,0.0,0.0,0.0,0.0,0.0,-0.09017031769336,0.0,0.0,0.0,0.0,0.0,0.0,-67.808,0.0,0.0,0.0,0.0,0.0
384,0.0,0.178400390625,0.0,0.0,0.0,0.0,0.0,0.0,-0.53,0.0,0.0,0.0,0.0,0.0,0.0,-0.10832604327608744,0.0,0.0,0.0,0.0,0.0,0.0,-61.98,0.0,0.0,0.0,0.0,0.0
385,0.0,0.178400390625,0.0,0.0,0.0,0.0,0.0,0.0,-0.53,0.0,0.0,0.0,0.0,0.0,0.0,-0.12127028232753301,0.0,0.0,0.0,0.0,0.0,0.0,-61.98,0.0,0.0,0.0,0.0,0.0
386,0.0,0.1737626953125,0.0,0.0,0.0,0.0,0.0,0.0,-0.506,0.0,0.0,0.0,0.0,0.0,0.0,-0.13415314547706028,0.0,0.0,0.0,0.0,0.0,0.0,-58.416,0.0,0.0,0.0,0.0,0.0
387,0.0,0.168720703125,0.0,0.0,0.0,0.0,0.0,0.0,-0.478,0.0,0.0,0.0,0.0,0.0,0.0,-0.15715644072195015,0.0,0.0,0.0,0.0,0.0,0.0,-55.5,0.0,0.0,0.0,0.0,0.0
388,0.0,0.1631572265625,0.0,0.0,0.0,0.0,0.0,0.0,-0.526,0.0,0.0,0.0,0.0,0.0,0.0,-0.18017080829863505,0.0,0.0,0.0,0.0,0.0,0.0,-52.152,0.0,0.0,0.0,0.0,0.0
389,0.0,0.1573935546875,0.0,0.0,0.0,0.0,0.0,0.0,-0.569,0.0,0.0,0.0,0.0,0.0,0.0,-0.2032290177056228,0.0,0.0,0.0,0.0,0.0,0.0,-49.184,0.0,0.0,0.0,0.0,0.0
390,0.0,0.1514189453125,0.0,0.0,0.0,0.0,0.0,0.0,-0.594,0.0,0.0,0.0,0.0,0.0,0.0,-0.22528593970245725,0.0,0.0,0.0,0.0,0.0,0.0,-46.484,0.0,0.0,0.0,0.0,0.0
391,0.0,0.14585546875,0.0,0.0,0.0,0.0,0.0,0.0,-0.591,0.0,0.0,0.0,0.0,0.0,0.0,-0.2473833679745326,0.0,0.0,0.0,0.0,0.0,0.0,-44.7,0.0,0.0,0.0,0.0,0.0
392,0.0,0.140498046875,0.0,0.0,0.0,0.0,0.0,0.0,-0.548,0.0,0.0,0.0,0.0,0.0,0.0,-0.2689071415983953,0.0,0.0,0.0,0.0,0.0,0.0,-43.944,0.0,0.0,0.0,0.0,0.0
393,0.0,0.134625,0.0,0.0,0.0,0.0,0.0,0.0,-0.563,0.0,0.0,0.0,0.0,0.0,0.0,-0.2902145837794199,0.0,0.0,0.0,0.0,0.0,0.0,-44.54,0.0,0.0,0.0,0.0,0.0
394,0.0,0.1286572265625,0.0,0.0,0.0,0.0,0.0,0.0,-0.591,0.0,0.0,0.0,0.0,0.0,0.0,-0.31100114977782334,0.0,0.0,0.0,0.0,0.0,0.0,-45.836,0.0,0.0,0.0,0.0,0.0
395,0.0,0.12226953125,0.0,0.0,0.0,0.0,0.0,0.0,-0.617,0.0,0.0,0.0,0.0,0.0,0.0,-0.33123489113112664,0.0,0.0,0.0,0.0,0.0,0.0,-46.808,0.0,0.0,0.0,0.0,0.0
396,0.0,0.1157802734375,0.0,0.0,0.0,0.0,0.0,0.0,-0.654,0.0,0.0,0.0,0.0,0.0,0.0,-0.3509527136435099,0.0,0.0,0.0,0.0,0.0,0.0,-45.348,0.0,0.0,0.0,0.0,0.0
397,0.0,0.1100107421875,0.0,0.0,0.0,0.0,0.0,0.0,-0.624,0.0,0.0,0.0,0.0,0.0,0.0,-0.37011582979991786,0.0,0.0,0.0,0.0,0.0,0.0,-43.136,0.0,0.0,0.0,0.0,0.0
398,0.0,0.1038427734375,0.0,0.0,0.0,0.0,0.0,0.0,-0.59,0.0,0.0,0.0,0.0,0.0,0.0,-0.38872670711404045,0.0,0.0,0.0,0.0,0.0,0.0,-43.892,0.0,0.0,0.0,0.0,0.0
399,0.0,0.0974560546875,0.0,0.0,0.0,0.0,0.0,0.0,-0.632,0.0,0.0,0.0,0.0,0.0,0.0,-0.40835706357063506,0.0,0.0,0.0,0.0,0.0,0.0,-44.7,0.0,0.0,0.0,0.0,0.0
400,0.0,0.0914814453125,0.0,0.0,0.0,0.0,0.0,0.0,-0.627,0.0,0.0,0.0,0.0,0.0,0.0,-0.42401300578969725,0.0,0.0,0.0,0.0,0.0,0.0,-39.68,0.0,0.0,0.0,0.0,0.0
401,0.0,0.0855126953125,0.0,0.0,0.0,0.0,0.0,0.0,-0.599,0.0,0.0,0.0,0.0,0.0,0.0,-0.44079666605307816,0.0,0.0,0.0,0.0,0.0,0.0,-34.552,0.0,0.0,0.0,0.0,0.0
402,0.0,0.07994921875,0.0,0.0,0.0,0.0,0.0,0.0,-0.589,0.0,0.0,0.0,0.0,0.0,0.0,-0.45658184293052595,0.0,0.0,0.0,0.0,0.0,0.0,-34.984,0.0,0.0,0.0,0.0,0.0
403,0.0,0.07459765625,0.0,0.0,0.0,0.0,0.0,0.0,-0.55,0.0,0.0,0.0,0.0,0.0,0.0,-0.4721377314108277,0.0,0.0,0.0,0.0,0.0,0.0,-37.844,0.0,0.0,0.0,0.0,0.0
404,0.0,0.0693427734375,0.0,0.0,0.0,0.0,0.0,0.0,-0.538,0.0,0.0,0.0,0.0,0.0,0.0,-0.4863018543210532,0.0,0.0,0.0,0.0,0.0,0.0,-35.792,0.0,0.0,0.0,0.0,0.0
405,0.0,0.0646025390625,0.0,0.0,0.0,0.0,0.0,0.0,-0.506,0.0,0.0,0.0,0.0,0.0,0.0,-0.5008103801546658,0.0,0.0,0.0,0.0,0.0,0.0,-32.016,0.0,0.0,0.0,0.0,0.0
406,0.0,0.0599716796875,0.0,0.0,0.0,0.0,0.0,0.0,-0.467,0.0,0.0,0.0,0.0,0.0,0.0,-0.5128118619027517,0.0,0.0,0.0,0.0,0.0,0.0,-33.092,0.0,0.0,0.0,0.0,0.0
407,0.0,0.05512890625,0.0,0.0,0.0,0.0,0.0,0.0,-0.482,0.0,0.0,0.0,0.0,0.0,0.0,-0.5247951302144828,0.0,0.0,0.0,0.0,0.0,0.0,-37.304,0.0,0.0,0.0,0.0,0.0
408,0.0,0.0509091796875,0.0,0.0,0.0,0.0,0.0,0.0,-0.458,0.0,0.0,0.0,0.0,0.0,0.0,-0.5362182132770491,0.0,0.0,0.0,0.0,0.0,0.0,-39.412,0.0,0.0,0.0,0.0,0.0
409,0.0,0.0467861328125,0.0,0.0,0.0,0.0,0.0,0.0,-0.423,0.0,0.0,0.0,0.0,0.0,0.0,-0.5492724030100234,0.0,0.0,0.0,0.0,0.0,0.0,-35.036,0.0,0.0,0.0,0.0,0.0
410,0.0,0.04308203125,0.0,0.0,0.0,0.0,0.0,0.0,-0.402,0.0,0.0,0.0,0.0,0.0,0.0,-0.5557990020636366,0.0,0.0,0.0,0.0,0.0,0.0,-33.364,0.0,0.0,0.0,0.0,0.0
411,0.0,0.039376953125,0.0,0.0,0.0,0.0,0.0,0.0,-0.369,0.0,0.0,0.0,0.0,0.0,0.0,-0.5644613401565352,0.0,0.0,0.0,0.0,0.0,0.0,-36.712,0.0,0.0,0.0,0.0,0.0
412,0.0,0.035666015625,0.0,0.0,0.0,0.0,0.0,0.0,-0.377,0.0,0.0,0.0,0.0,0.0,0.0,-0.5721577411159943,0.0,0.0,0.0,0.0,0.0,0.0,-40.544,0.0,0.0,0.0,0.0,0.0
413,0.0,0.0319609375,0.0,0.0,0.0,0.0,0.0,0.0,-0.374,0.0,0.0,0.0,0.0,0.0,0.0,-0.5788959939377766,0.0,0.0,0.0,0.0,0.0,0.0,-41.732,0.0,0.0,0.0,0.0,0.0
414,0.0,0.028353515625,0.0,0.0,0.0,0.0,0.0,0.0,-0.367,0.0,0.0,0.0,0.0,0.0,0.0,-0.5847432297059035,0.0,0.0,0.0,0.0,0.0,0.0,-40.004,0.0,0.0,0.0,0.0,0.0
415,0.0,0.025369140625,0.0,0.0,0.0,0.0,0.0,0.0,-0.336,0.0,0.0,0.0,0.0,0.0,0.0,-0.589807020586706,0.0,0.0,0.0,0.0,0.0,0.0,-39.844,0.0,0.0,0.0,0.0,0.0
416,0.0,0.02258984375,0.0,0.0,0.0,0.0,0.0,0.0,-0.291,0.0,0.0,0.0,0.0,0.0,0.0,-0.593619889642117,0.0,0.0,0.0,0.0,0.0,0.0,-41.516,0.0,0.0,0.0,0.0,0.0
417,0.0,0.019599609375,0.0,0.0,0.0,0.0,0.0,0.0,-0.289,0.0,0.0,0.0,0.0,0.0,0.0,-0.5966272112865635,0.0,0.0,0.0,0.0,0.0,0.0,-44.376,0.0,0.0,0.0,0.0,0.0
418,0.0,0.0161005859375,0.0,0.0,0.0,0.0,0.0,0.0,-0.32,0.0,0.0,0.0,0.0,0.0,0.0,-0.5986993299608201,0.0,0.0,0.0,0.0,0.0,0.0,-46.212,0.0,0.0,0.0,0.0,0.0
419,0.0,0.0126015625,0.0,0.0,0.0,0.0,0.0,0.0,-0.356,0.0,0.0,0.0,0.0,0.0,0.0,-0.5998005444659606,0.0,0.0,0.0,0.0,0.0,0.0,-45.944,0.0,0.0,0.0,0.0,0.0
420,0.0,0.0094052734375,0.0,0.0,0.0,0.0,0.0,0.0,-0.344,0.0,0.0,0.0,0.0,0.0,0.0,-0.5999410089619731,0.0,0.0,0.0,0.0,0.0,0.0,-45.24,0.0,0.0,0.0,0.0,0.0
421,0.0,0.0065234375,0.0,0.0,0.0,0.0,0.0,0.0,-0.31,0.0,0.0,0.0,0.0,0.0,0.0,-0.5991151939973135,0.0,0.0,0.0,0.0,0.0,0.0,-45.728,0.0,0.0,0.0,0.0,0.0
422,0.0,0.003642578125,0.0,0.0,0.0,0.0,0.0,0.0,-0.292,0.0,0.0,0.0,0.0,0.0,0.0,-0.5973568483541203,0.0,0.0,0.0,0.0,0.0,0.0,-46.536,0.0,0.0,0.0,0.0,0.0
423,0.0,0.0003427734375,0.0,0.0,0.0,0.0,0.0,0.0,-0.303,0.0,0.0,0.0,0.0,0.0,0.0,-0.5945924867877294,0.0,0.0,0.0,0.0,0.0,0.0,-46.916,0.0,0.0,0.0,0.0,0.0
424,0.0,-0.003568359375,0.0,0.0,0.0,0.0,0.0,0.0,-0.356,0.0,0.0,0.0,0.0,0.0,0.0,-0.5905178962230576,0.0,0.0,0.0,0.0,0.0,0.0,-47.076,0.0,0.0,0.0,0.0,0.0
425,0.0,-0.007279296875,0.0,0.0,0.0,0.0,0.0,0.0,-0.388,0.0,0.0,0.0,0.0,0.0,0.0,-0.5863141900175453,0.0,0.0,0.0,0.0,0.0,0.0,-47.024,0.0,0.0,0.0,0.0,0.0
426,0.0,-0.0107783203125,0.0,0.0,0.0,0.0,0.0,0.0,-0.367,0.0,0.0,0.0,0.0,0.0,0.0,-0.5807467756655734,0.0,0.0,0.0,0.0,0.0,0.0,-47.456,0.0,0.0,0.0,0.0,0.0
427,0.0,-0.014283203125,0.0,0.0,0.0,0.0,0.0,0.0,-0.352,0.0,0.0,0.0,0.0,0.0,0.0,-0.5741750155329834,0.0,0.0,0.0,0.0,0.0,0.0,-47.616,0.0,0.0,0.0,0.0,0.0
428,0.0,-0.0176796875,0.0,0.0,0.0,0.0,0.0,0.0,-0.342,0.0,0.0,0.0,0.0,0.0,0.0,-0.5668057067918286,0.0,0.0,0.0,0.0,0.0,0.0,-47.888,0.0,0.0,0.0,0.0,0.0
429,0.0,-0.0214873046875,0.0,0.0,0.0,0.0,0.0,0.0,-0.358,0.0,0.0,0.0,0.0,0.0,0.0,-0.5584883885109471,0.0,0.0,0.0,0.0,0.0,0.0,-47.184,0.0,0.0,0.0,0.0,0.0
430,0.0,-0.0255068359375,0.0,0.0,0.0,0.0,0.0,0.0,-0.395,0.0,0.0,0.0,0.0,0.0,0.0,-0.5492751604324342,0.0,0.0,0.0,0.0,0.0,0.0,-46.536,0.0,0.0,0.0,0.0,0.0
431,0.0,-0.029623046875,0.0,0.0,0.0,0.0,0.0,0.0,-0.411,0.0,0.0,0.0,0.0,0.0,0.0,-0.5388091928053742,0.0,0.0,0.0,0.0,0.0,0.0,-46.808,0.0,0.0,0.0,0.0,0.0
432,0.0,-0.033642578125,0.0,0.0,0.0,0.0,0.0,0.0,-0.413,0.0,0.0,0.0,0.0,0.0,0.0,-0.5282037107308836,0.0,0.0,0.0,0.0,0.0,0.0,-47.132,0.0,0.0,0.0,0.0,0.0
433,0.0,-0.0374501953125,0.0,0.0,0.0,0.0,0.0,0.0,-0.396,0.0,0.0,0.0,0.0,0.0,0.0,-0.5164282513299079,0.0,0.0,0.0,0.0,0.0,0.0,-47.076,0.0,0.0,0.0,0.0,0.0
434,0.0,-0.0413671875,0.0,0.0,0.0,0.0,0.0,0.0,-0.389,0.0,0.0,0.0,0.0,0.0,0.0,-0.503199663156052,0.0,0.0,0.0,0.0,0.0,0.0,-46.7,0.0,0.0,0.0,0.0,0.0
435,0.0,-0.045484375,0.0,0.0,0.0,0.0,0.0,0.0,-0.402,0.0,0.0,0.0,0.0,0.0,0.0,-0.4903079936589489,0.0,0.0,0.0,0.0,0.0,0.0,-45.62,0.0,0.0,0.0,0.0,0.0
436,0.0,-0.0498125,0.0,0.0,0.0,0.0,0.0,0.0,-0.421,0.0,0.0,0.0,0.0,0.0,0.0,-0.4761841597917398,0.0,0.0,0.0,0.0,0.0,0.0,-44.972,0.0,0.0,0.0,0.0,0.0
437,0.0,-0.0542373046875,0.0,0.0,0.0,0.0,0.0,0.0,-0.441,0.0,0.0,0.0,0.0,0.0,0.0,-0.46106456698395215,0.0,0.0,0.0,0.0,0.0,0.0,-45.132,0.0,0.0,0.0,0.0,0.0
438,0.0,-0.05856640625,0.0,0.0,0.0,0.0,0.0,0.0,-0.445,0.0,0.0,0.0,0.0,0.0,0.0,-0.4454786460345153,0.0,0.0,0.0,0.0,0.0,0.0,-45.08,0.0,0.0,0.0,0.0,0.0
439,0.0,-0.0626826171875,0.0,0.0,0.0,0.0,0.0,0.0,-0.431,0.0,0.0,0.0,0.0,0.0,0.0,-0.42903936128428893,0.0,0.0,0.0,0.0,0.0,0.0,-44.54,0.0,0.0,0.0,0.0,0.0
440,0.0,-0.0667021484375,0.0,0.0,0.0,0.0,0.0,0.0,-0.413,0.0,0.0,0.0,0.0,0.0,0.0,-0.4119041507900248,0.0,0.0,0.0,0.0,0.0,0.0,-44.324,0.0,0.0,0.0,0.0,0.0
441,0.0,-0.070818359375,0.0,0.0,0.0,0.0,0.0,0.0,-0.406,0.0,0.0,0.0,0.0,0.0,0.0,-0.39422760489287173,0.0,0.0,0.0,0.0,0.0,0.0,-43.944,0.0,0.0,0.0,0.0,0.0
442,0.0,-0.07525,0.0,0.0,0.0,0.0,0.0,0.0,-0.424,0.0,0.0,0.0,0.0,0.0,0.0,-0.3758773265601886,0.0,0.0,0.0,0.0,0.0,0.0,-44.16,0.0,0.0,0.0,0.0,0.0
443,0.0,-0.0797783203125,0.0,0.0,0.0,0.0,0.0,0.0,-0.449,0.0,0.0,0.0,0.0,0.0,0.0,-0.3566604405160369,0.0,0.0,0.0,0.0,0.0,0.0,-44.0,0.0,0.0,0.0,0.0,0.0
444,0.0,-0.0841064453125,0.0,0.0,0.0,0.0,0.0,0.0,-0.452,0.0,0.0,0.0,0.0,0.0,0.0,-0.3372517169919868,0.0,0.0,0.0,0.0,0.0,0.0,-43.296,0.0,0.0,0.0,0.0,0.0
445,0.0,-0.0881201171875,0.0,0.0,0.0,0.0,0.0,0.0,-0.427,0.0,0.0,0.0,0.0,0.0,0.0,-0.31697415069698326,0.0,0.0,0.0,0.0,0.0,0.0,-42.92,0.0,0.0,0.0,0.0,0.0
446,0.0,-0.092037109375,0.0,0.0,0.0,0.0,0.0,0.0,-0.4,0.0,0.0,0.0,0.0,0.0,0.0,-0.2962087076024646,0.0,0.0,0.0,0.0,0.0,0.0,-42.976,0.0,0.0,0.0,0.0,0.0
447,0.0,-0.095947265625,0.0,0.0,0.0,0.0,0.0,0.0,-0.389,0.0,0.0,0.0,0.0,0.0,0.0,-0.27531287028692925,0.0,0.0,0.0,0.0,0.0,0.0,-42.976,0.0,0.0,0.0,0.0,0.0
448,0.0,-0.1002763671875,0.0,0.0,0.0,0.0,0.0,0.0,-0.409,0.0,0.0,0.0,0.0,0.0,0.0,-0.25378497400619804,0.0,0.0,0.0,0.0,0.0,0.0,-43.568,0.0,0.0,0.0,0.0,0.0
449,0.0,-0.104591796875,0.0,0.0,0.0,0.0,0.0,0.0,-0.438,0.0,0.0,0.0,0.0,0.0,0.0,-0.23172270394107383,0.0,0.0,0.0,0.0,0.0,0.0,-43.512,0.0,0.0,0.0,0.0,0.0
450,0.0,-0.10871484375,0.0,0.0,0.0,0.0,0.0,0.0,-0.429,0.0,0.0,0.0,0.0,0.0,0.0,-0.20959248911774073,0.0,0.0,0.0,0.0,0.0,0.0,-43.084,0.0,0.0,0.0,0.0,0.0
451,0.0,-0.112625,0.0,0.0,0.0,0.0,0.0,0.0,-0.408,0.0,0.0,0.0,0.0,0.0,0.0,-0.1869813829610428,0.0,0.0,0.0,0.0,0.0,0.0,-43.028,0.0,0.0,0.0,0.0,0.0
452,0.0,-0.1162275390625,0.0,0.0,0.0,0.0,0.0,0.0,-0.379,0.0,0.0,0.0,0.0,0.0,0.0,-0.16359876383949848,0.0,0.0,0.0,0.0,0.0,0.0,-43.676,0.0,0.0,0.0,0.0,0.0
453,0.0,-0.120041015625,0.0,0.0,0.0,0.0,0.0,0.0,-0.369,0.0,0.0,0.0,0.0,0.0,0.0,-0.14080344870116768,0.0,0.0,0.0,0.0,0.0,0.0,-44.0,0.0,0.0,0.0,0.0,0.0
454,0.0,-0.1242607421875,0.0,0.0,0.0,0.0,0.0,0.0,-0.401,0.0,0.0,0.0,0.0,0.0,0.0,-0.11717198909818702,0.0,0.0,0.0,0.0,0.0,0.0,-44.108,0.0,0.0,0.0,0.0,0.0
455,0.0,-0.128486328125,0.0,0.0,0.0,0.0,0.0,0.0,-0.428,0.0,0.0,0.0,0.0,0.0,0.0,-0.09369586561140512,0.0,0.0,0.0,0.0,0.0,0.0,-43.784,0.0,0.0,0.0,0.0,0.0
456,0.0,-0.1325,0.0,0.0,0.0,0.0,0.0,0.0,-0.42,0.0,0.0,0.0,0.0,0.0,0.0,-0.06979780704857959,0.0,0.0,0.0,0.0,0.0,0.0,-42.704,0.0,0.0,0.0,0.0,0.0
457,0.0,-0.1350791015625,0.0,0.0,0.0,0.0,0.0,0.0,-0.353,0.0,0.0,0.0,0.0,0.0,0.0,-0.04593069727241456,0.0,0.0,0.0,0.0,0.0,0.0,-33.632,0.0,0.0,0.0,0.0,0.0
458,0.0,-0.135798828125,0.0,0.0,0.0,0.0,0.0,0.0,-0.18,0.0,0.0,0.0,0.0,0.0,0.0,-0.021951343565931525,0.0,0.0,0.0,0.0,0.0,0.0,-21.54,0.0,0.0,0.0,0.0,0.0
459,0.0,-0.1360048828125,0.0,0.0,0.0,0.0,0.0,0.0,-0.05,0.0,0.0,0.0,0.0,0.0,0.0,0.0018131323907166303,0.0,0.0,0.0,0.0,0.0,0.0,-14.792,0.0,0.0,0.0,0.0,0.0
460,0.0,-0.1353876953125,0.0,0.0,0.0,0.0,0.0,0.0,0.009,0.0,0.0,0.0,0.0,0.0,0.0,4.3487548790049895e-05,0.0,0.0,0.0,0.0,0.0,0.0,-12.632,0.0,0.0,0.0,0.0,0.0
461,0.0,-0.1344609375,0.0,0.0,0.0,0.0,0.0,0.0,0.077,0.0,0.0,0.0,0.0,0.0,0.0,0.024157096357590013,0.0,0.0,0.0,0.0,0.0,0.0,-10.688,0.0,0.0,0.0,0.0,0.0
462,0.0,-0.1329111328125,0.0,0.0,0.0,0.0,0.0,0.0,0.11,0.0,0.0,0.0,0.0,0.0,0.0,0.04809022228887492,0.0,0.0,0.0,0.0,0.0,0.0,-8.476,0.0,0.0,0.0,0.0,0.0
463,0.0,-0.129720703125,0.0,0.0,0.0,0.0,0.0,0.0,0.217,0.0,0.0,0.0,0.0,0.0,0.0,0.07187043082851585,0.0,0.0,0.0,0.0,0.0,0.0,-9.284,0.0,0.0,0.0,0.0,0.0
464,0.0,-0.125501953125,0.0,0.0,0.0,0.0,0.0,0.0,0.371,0.0,0.0,0.0,0.0,0.0,0.0,0.09567895630246763,0.0,0.0,0.0,0.0,0.0,0.0,-12.36,0.0,0.0,0.0,0.0,0.0
465,0.0,-0.1202470703125,0.0,0.0,0.0,0.0,0.0,0.0,0.467,0.0,0.0,0.0,0.0,0.0,0.0,0.11941121741300952,0.0,0.0,0.0,0.0,0.0,0.0,-15.384,0.0,0.0,0.0,0.0,0.0
466,0.0,-0.1144775390625,0.0,0.0,0.0,0.0,0.0,0.0,0.552,0.0,0.0,0.0,0.0,0.0,0.0,0.14271259258744307,0.0,0.0,0.0,0.0,0.0,0.0,-18.68,0.0,0.0,0.0,0.0,0.0
467,0.0,-0.1089208984375,0.0,0.0,0.0,0.0,0.0,0.0,0.566,0.0,0.0,0.0,0.0,0.0,0.0,0.16600019936843244,0.0,0.0,0.0,0.0,0.0,0.0,-21.272,0.0,0.0,0.0,0.0,0.0
468,0.0,-0.10325390625,0.0,0.0,0.0,0.0,0.0,0.0,0.565,0.0,0.0,0.0,0.0,0.0,0.0,0.18894723597305474,0.0,0.0,0.0,0.0,0.0,0.0,-27.316,0.0,0.0,0.0,0.0,0.0
469,0.0,-0.097388671875,0.0,0.0,0.0,0.0,0.0,0.0,0.581,0.0,0.0,0.0,0.0,0.0,0.0,0.21147948050578075,0.0,0.0,0.0,0.0,0.0,0.0,-33.092,0.0,0.0,0.0,0.0,0.0
470,0.0,-0.0908984375,0.0,0.0,0.0,0.0,0.0,0.0,0.607,0.0,0.0,0.0,0.0,0.0,0.0,0.23379941010620958,0.0,0.0,0.0,0.0,0.0,0.0,-36.764,0.0,0.0,0.0,0.0,0.0
471,0.0,-0.0837978515625,0.0,0.0,0.0,0.0,0.0,0.0,0.679,0.0,0.0,0.0,0.0,0.0,0.0,0.2556768226668379,0.0,0.0,0.0,0.0,0.0,0.0,-36.712,0.0,0.0,0.0,0.0,0.0
472,0.0,-0.07669140625,0.0,0.0,0.0,0.0,0.0,0.0,0.723,0.0,0.0,0.0,0.0,0.0,0.0,0.2771124320055011,0.0,0.0,0.0,0.0,0.0,0.0,-36.332,0.0,0.0,0.0,0.0,0.0
473,0.0,-0.0700986328125,0.0,0.0,0.0,0.0,0.0,0.0,0.696,0.0,0.0,0.0,0.0,0.0,0.0,0.2984986867908028,0.0,0.0,0.0,0.0,0.0,0.0,-42.976,0.0,0.0,0.0,0.0,0.0
474,0.0,-0.063814453125,0.0,0.0,0.0,0.0,0.0,0.0,0.648,0.0,0.0,0.0,0.0,0.0,0.0,0.3189271560801865,0.0,0.0,0.0,0.0,0.0,0.0,-46.536,0.0,0.0,0.0,0.0,0.0
475,0.0,-0.0572216796875,0.0,0.0,0.0,0.0,0.0,0.0,0.638,0.0,0.0,0.0,0.0,0.0,0.0,0.3388848408943255,0.0,0.0,0.0,0.0,0.0,0.0,-44.16,0.0,0.0,0.0,0.0,0.0
476,0.0,-0.0506357421875,0.0,0.0,0.0,0.0,0.0,0.0,0.664,0.0,0.0,0.0,0.0,0.0,0.0,0.3583541460217191,0.0,0.0,0.0,0.0,0.0,0.0,-43.512,0.0,0.0,0.0,0.0,0.0
477,0.0,-0.0442490234375,0.0,0.0,0.0,0.0,0.0,0.0,0.654,0.0,0.0,0.0,0.0,0.0,0.0,0.3774027480640421,0.0,0.0,0.0,0.0,0.0,0.0,-49.94,0.0,0.0,0.0,0.0,0.0
478,0.0,-0.037759765625,0.0,0.0,0.0,0.0,0.0,0.0,0.646,0.0,0.0,0.0,0.0,0.0,0.0,0.39723086891511333,0.0,0.0,0.0,0.0,0.0,0.0,-53.828,0.0,0.0,0.0,0.0,0.0
479,0.0,-0.0316875,0.0,0.0,0.0,0.0,0.0,0.0,0.638,0.0,0.0,0.0,0.0,0.0,0.0,0.41339983145452996,0.0,0.0,0.0,0.0,0.0,0.0,-52.692,0.0,0.0,0.0,0.0,0.0
480,0.0,-0.0261240234375,0.0,0.0,0.0,0.0,0.0,0.0,0.589,0.0,0.0,0.0,0.0,0.0,0.0,0.4308014438267198,0.0,0.0,0.0,0.0,0.0,0.0,-52.208,0.0,0.0,0.0,0.0,0.0
481,0.0,-0.0206640625,0.0,0.0,0.0,0.0,0.0,0.0,0.554,0.0,0.0,0.0,0.0,0.0,0.0,0.4468149582342831,0.0,0.0,0.0,0.0,0.0,0.0,-56.256,0.0,0.0,0.0,0.0,0.0
482,0.0,-0.0151064453125,0.0,0.0,0.0,0.0,0.0,0.0,0.555,0.0,0.0,0.0,0.0,0.0,0.0,0.46466671621757805,0.0,0.0,0.0,0.0,0.0,0.0,-57.444,0.0,0.0,0.0,0.0,0.0
483,0.0,-0.0097490234375,0.0,0.0,0.0,0.0,0.0,0.0,0.551,0.0,0.0,0.0,0.0,0.0,0.0,0.4779465690576669,0.0,0.0,0.0,0.0,0.0,0.0,-55.876,0.0,0.0,0.0,0.0,0.0
484,0.0,-0.0047001953125,0.0,0.0,0.0,0.0,0.0,0.0,0.528,0.0,0.0,0.0,0.0,0.0,0.0,0.49154547205400506,0.0,0.0,0.0,0.0,0.0,0.0,-55.608,0.0,0.0,0.0,0.0,0.0
485,0.0,-0.000583984375,0.0,0.0,0.0,0.0,0.0,0.0,0.466,0.0,0.0,0.0,0.0,0.0,0.0,0.5052455408902042,0.0,0.0,0.0,0.0,0.0,0.0,-57.984,0.0,0.0,0.0,0.0,0.0
486,0.0,0.0034365234375,0.0,0.0,0.0,0.0,0.0,0.0,0.411,0.0,0.0,0.0,0.0,0.0,0.0,0.5175531411414276,0.0,0.0,0.0,0.0,0.0,0.0,-57.712,0.0,0.0,0.0,0.0,0.0
487,0.0,0.0077587890625,0.0,0.0,0.0,0.0,0.0,0.0,0.417,0.0,0.0,0.0,0.0,0.0,0.0,0.5293002887665239,0.0,0.0,0.0,0.0,0.0,0.0,-55.068,0.0,0.0,0.0,0.0,0.0
488,0.0,0.011875,0.0,0.0,0.0,0.0,0.0,0.0,0.416,0.0,0.0,0.0,0.0,0.0,0.0,0.540158670393296,0.0,0.0,0.0,0.0,0.0,0.0,-52.26,0.0,0.0,0.0,0.0,0.0
489,0.0,0.0157919921875,0.0,0.0,0.0,0.0,0.0,0.0,0.413,0.0,0.0,0.0,0.0,0.0,0.0,0.5501729619690562,0.0,0.0,0.0,0.0,0.0,0.0,-53.396,0.0,0.0,0.0,0.0,0.0
490,0.0,0.01887890625,0.0,0.0,0.0,0.0,0.0,0.0,0.364,0.0,0.0,0.0,0.0,0.0,0.0,0.5594058817786172,0.0,0.0,0.0,0.0,0.0,0.0,-55.392,0.0,0.0,0.0,0.0,0.0
491,0.0,0.0217666015625,0.0,0.0,0.0,0.0,0.0,0.0,0.298,0.0,0.0,0.0,0.0,0.0,0.0,0.5675171728899543,0.0,0.0,0.0,0.0,0.0,0.0,-53.072,0.0,0.0,0.0,0.0,0.0
492,0.0,0.0245458984375,0.0,0.0,0.0,0.0,0.0,0.0,0.288,0.0,0.0,0.0,0.0,0.0,0.0,0.5748789846425352,0.0,0.0,0.0,0.0,0.0,0.0,-48.912,0.0,0.0,0.0,0.0,0.0
493,0.0,0.027529296875,0.0,0.0,0.0,0.0,0.0,0.0,0.285,0.0,0.0,0.0,0.0,0.0,0.0,0.5813059049372811,0.0,0.0,0.0,0.0,0.0,0.0,-45.456,0.0,0.0,0.0,0.0,0.0
494,0.0,0.03103515625,0.0,0.0,0.0,0.0,0.0,0.0,0.319,0.0,0.0,0.0,0.0,0.0,0.0,0.5867343980853117,0.0,0.0,0.0,0.0,0.0,0.0,-44.808,0.0,0.0,0.0,0.0,0.0
495,0.0,0.0342255859375,0.0,0.0,0.0,0.0,0.0,0.0,0.342,0.0,0.0,0.0,0.0,0.0,0.0,0.5913167111045059,0.0,0.0,0.0,0.0,0.0,0.0,-45.996,0.0,0.0,0.0,0.0,0.0
496,0.0,0.0367978515625,0.0,0.0,0.0,0.0,0.0,0.0,0.295,0.0,0.0,0.0,0.0,0.0,0.0,0.5948753492178309,0.0,0.0,0.0,0.0,0.0,0.0,-46.212,0.0,0.0,0.0,0.0,0.0
497,0.0,0.039376953125,0.0,0.0,0.0,0.0,0.0,0.0,0.257,0.0,0.0,0.0,0.0,0.0,0.0,0.597547434590183,0.0,0.0,0.0,0.0,0.0,0.0,-44.484,0.0,0.0,0.0,0.0,0.0
498,0.0,0.042052734375,0.0,0.0,0.0,0.0,0.0,0.0,0.258,0.0,0.0,0.0,0.0,0.0,0.0,0.5993061657085712,0.0,0.0,0.0,0.0,0.0,0.0,-42.164,0.0,0.0,0.0,0.0,0.0
499,0.0,0.0452431640625,0.0,0.0,0.0,0.0,0.0,0.0,0.291,0.0,0.0,0.0,0.0,0.0,0.0,0.5999671754773551,0.0,0.0,0.0,0.0,0.0,0.0,-41.408,0.0,0.0,0.0,0.0,0.0
500,0.0,0.048748046875,0.0,0.0,0.0,0.0,0.0,0.0,0.334,0.0,0.0,0.0,0.0,0.0,0.0,0.5997405670713687,0.0,0.0,0.0,0.0,0.0,0.0,-41.68,0.0,0.0,0.0,0.0,0.0
501,0.0,0.0519384765625,0.0,0.0,0.0,0.0,0.0,0.0,0.341,0.0,0.0,0.0,0.0,0.0,0.0,0.5985373020928731,0.0,0.0,0.0,0.0,0.0,0.0,-42.056,0.0,0.0,0.0,0.0,0.0
502,0.0,0.055025390625,0.0,0.0,0.0,0.0,0.0,0.0,0.317,0.0,0.0,0.0,0.0,0.0,0.0,0.5964177896029498,0.0,0.0,0.0,0.0,0.0,0.0,-41.14,0.0,0.0,0.0,0.0,0.0
503,0.0,0.058119140625,0.0,0.0,0.0,0.0,0.0,0.0,0.311,0.0,0.0,0.0,0.0,0.0,0.0,0.5933255825475764,0.0,0.0,0.0,0.0,0.0,0.0,-40.06,0.0,0.0,0.0,0.0,0.0
504,0.0,0.0613095703125,0.0,0.0,0.0,0.0,0.0,0.0,0.313,0.0,0.0,0.0,0.0,0.0,0.0,0.5892319981871899,0.0,0.0,0.0,0.0,0.0,0.0,-39.844,0.0,0.0,0.0,0.0,0.0
505,0.0,0.0649111328125,0.0,0.0,0.0,0.0,0.0,0.0,0.342,0.0,0.0,0.0,0.0,0.0,0.0,0.5841478509730588,0.0,0.0,0.0,0.0,0.0,0.0,-40.276,0.0,0.0,0.0,0.0,0.0
506,0.0,0.0686220703125,0.0,0.0,0.0,0.0,0.0,0.0,0.366,0.0,0.0,0.0,0.0,0.0,0.0,0.5783520150782754,0.0,0.0,0.0,0.0,0.0,0.0,-40.328,0.0,0.0,0.0,0.0,0.0
507,0.0,0.072224609375,0.0,0.0,0.0,0.0,0.0,0.0,0.366,0.0,0.0,0.0,0.0,0.0,0.0,0.5714221125164527,0.0,0.0,0.0,0.0,0.0,0.0,-39.788,0.0,0.0,0.0,0.0,0.0
508,0.0,0.075935546875,0.0,0.0,0.0,0.0,0.0,0.0,0.365,0.0,0.0,0.0,0.0,0.0,0.0,0.5635996726515587,0.0,0.0,0.0,0.0,0.0,0.0,-39.68,0.0,0.0,0.0,0.0,0.0
509,0.0,0.0796396484375,0.0,0.0,0.0,0.0,0.0,0.0,0.369,0.0,0.0,0.0,0.0,0.0,0.0,0.5550858583230146,0.0,0.0,0.0,0.0,0.0,0.0,-39.248,0.0,0.0,0.0,0.0,0.0
510,0.0,0.0834541015625,0.0,0.0,0.0,0.0,0.0,0.0,0.38,0.0,0.0,0.0,0.0,0.0,0.0,0.545401395147134,0.0,0.0,0.0,0.0,0.0,0.0,-39.896,0.0,0.0,0.0,0.0,0.0
511,0.0,0.0873642578125,0.0,0.0,0.0,0.0,0.0,0.0,0.39,0.0,0.0,0.0,0.0,0.0,0.0,0.5349474640957077,0.0,0.0,0.0,0.0,0.0,0.0,-40.6,0.0,0.0,0.0,0.0,0.0
512,0.0,0.0914814453125,0.0,0.0,0.0,0.0,0.0,0.0,0.4,0.0,0.0,0.0,0.0,0.0,0.0,0.5238187108528526,0.0,0.0,0.0,0.0,0.0,0.0,-40.868,0.0,0.0,0.0,0.0,0.0
513,0.0,0.095603515625,0.0,0.0,0.0,0.0,0.0,0.0,0.414,0.0,0.0,0.0,0.0,0.0,0.0,0.5116439127283409,0.0,0.0,0.0,0.0,0.0,0.0,-41.032,0.0,0.0,0.0,0.0,0.0
514,0.0,0.0998232421875,0.0,0.0,0.0,0.0,0.0,0.0,0.418,0.0,0.0,0.0,0.0,0.0,0.0,0.49865390039451163,0.0,0.0,0.0,0.0,0.0,0.0,-41.516,0.0,0.0,0.0,0.0,0.0
515,0.0,0.1042548828125,0.0,0.0,0.0,0.0,0.0,0.0,0.432,0.0,0.0,0.0,0.0,0.0,0.0,0.48500730982459106,0.0,0.0,0.0,0.0,0.0,0.0,-41.896,0.0,0.0,0.0,0.0,0.0
516,0.0,0.1085703125,0.0,0.0,0.0,0.0,0.0,0.0,0.44,0.0,0.0,0.0,0.0,0.0,0.0,0.4703673428857619,0.0,0.0,0.0,0.0,0.0,0.0,-42.812,0.0,0.0,0.0,0.0,0.0
517,0.0,0.1128984375,0.0,0.0,0.0,0.0,0.0,0.0,0.434,0.0,0.0,0.0,0.0,0.0,0.0,0.455162665013062,0.0,0.0,0.0,0.0,0.0,0.0,-43.244,0.0,0.0,0.0,0.0,0.0
518,0.0,0.117220703125,0.0,0.0,0.0,0.0,0.0,0.0,0.435,0.0,0.0,0.0,0.0,0.0,0.0,0.43927000740274474,0.0,0.0,0.0,0.0,0.0,0.0,-43.46,0.0,0.0,0.0,0.0,0.0
519,0.0,0.121755859375,0.0,0.0,0.0,0.0,0.0,0.0,0.449,0.0,0.0,0.0,0.0,0.0,0.0,0.4225678060362293,0.0,0.0,0.0,0.0,0.0,0.0,-43.568,0.0,0.0,0.0,0.0,0.0
520,0.0,0.126283203125,0.0,0.0,0.0,0.0,0.0,0.0,0.451,0.0,0.0,0.0,0.0,0.0,0.0,0.4048669328424699,0.0,0.0,0.0,0.0,0.0,0.0,-44.324,0.0,0.0,0.0,0.0,0.0
521,0.0,0.13071484375,0.0,0.0,0.0,0.0,0.0,0.0,0.449,0.0,0.0,0.0,0.0,0.0,0.0,0.3872314705202209,0.0,0.0,0.0,0.0,0.0,0.0,-44.808,0.0,0.0,0.0,0.0,0.0
522,0.0,0.1349345703125,0.0,0.0,0.0,0.0,0.0,0.0,0.44,0.0,0.0,0.0,0.0,0.0,0.0,0.36841208821627436,0.0,0.0,0.0,0.0,0.0,0.0,-45.188,0.0,0.0,0.0,0.0,0.0
523,0.0,0.1392626953125,0.0,0.0,0.0,0.0,0.0,0.0,0.429,0.0,0.0,0.0,0.0,0.0,0.0,0.3492399885523737,0.0,0.0,0.0,0.0,0.0,0.0,-45.188,0.0,0.0,0.0,0.0,0.0
524,0.0,0.1435849609375,0.0,0.0,0.0,0.0,0.0,0.0,0.432,0.0,0.0,0.0,0.0,0.0,0.0,0.3295590211174047,0.0,0.0,0.0,0.0,0.0,0.0,-45.188,0.0,0.0,0.0,0.0,0.0
525,0.0,0.1478173828125,0.0,0.0,0.0,0.0,0.0,0.0,0.432,0.0,0.0,0.0,0.0,0.0,0.0,0.3091834334594685,0.0,0.0,0.0,0.0,0.0,0.0,-45.348,0.0,0.0,0.0,0.0,0.0
526,0.0,0.1521396484375,0.0,0.0,0.0,0.0,0.0,0.0,0.431,0.0,0.0,0.0,0.0,0.0,0.0,0.2881923095722241,0.0,0.0,0.0,0.0,0.0,0.0,-45.564,0.0,0.0,0.0,0.0,0.0
527,0.0,0.156255859375,0.0,0.0,0.0,0.0,0.0,0.0,0.429,0.0,0.0,0.0,0.0,0.0,0.0,0.2669904670798459,0.0,0.0,0.0,0.0,0.0,0.0,-45.512,0.0,0.0,0.0,0.0,0.0
528,0.0,0.1603779296875,0.0,0.0,0.0,0.0,0.0,0.0,0.413,0.0,0.0,0.0,0.0,0.0,0.0,0.24540774421576514,0.0,0.0,0.0,0.0,0.0,0.0,-45.08,0.0,0.0,0.0,0.0,0.0
529,0.0,0.1643916015625,0.0,0.0,0.0,0.0,0.0,0.0,0.406,0.0,0.0,0.0,0.0,0.0,0.0,0.22314984514169606,0.0,0.0,0.0,0.0,0.0,0.0,-44.7,0.0,0.0,0.0,0.0,0.0
530,0.0,0.1685146484375,0.0,0.0,0.0,0.0,0.0,0.0,0.41,0.0,0.0,0.0,0.0,0.0,0.0,0.20100410424811654,0.0,0.0,0.0,0.0,0.0,0.0,-44.592,0.0,0.0,0.0,0.0,0.0
531,0.0,0.172630859375,0.0,0.0,0.0,0.0,0.0,0.0,0.414,0.0,0.0,0.0,0.0,0.0,0.0,0.17796572201852712,0.0,0.0,0.0,0.0,0.0,0.0,-45.132,0.0,0.0,0.0,0.0,0.0
532,0.0,0.176650390625,0.0,0.0,0.0,0.0,0.0,0.0,0.414,0.0,0.0,0.0,0.0,0.0,0.0,0.15497199592556118,0.0,0.0,0.0,0.0,0.0,0.0,-44.972,0.0,0.0,0.0,0.0,0.0
533,0.0,0.1805615234375,0.0,0.0,0.0,0.0,0.0,0.0,0.4,0.0,0.0,0.0,0.0,0.0,0.0,0.13158430169645163,0.0,0.0,0.0,0.0,0.0,0.0,-44.916,0.0,0.0,0.0,0.0,0.0
534,0.0,0.184060546875,0.0,0.0,0.0,0.0,0.0,0.0,0.38,0.0,0.0,0.0,0.0,0.0,0.0,0.10826543835365973,0.0,0.0,0.0,0.0,0.0,0.0,-48.912,0.0,0.0,0.0,0.0,0.0
535,0.0,0.186021484375,0.0,0.0,0.0,0.0,0.0,0.0,0.29,0.0,0.0,0.0,0.0,0.0,0.0,0.08436043016487892,0.0,0.0,0.0,0.0,0.0,0.0,-58.848,0.0,0.0,0.0,0.0,0.0
536,0.0,0.1867421875,0.0,0.0,0.0,0.0,0.0,0.0,0.148,0.0,0.0,0.0,0.0,0.0,0.0,0.0606640961936257,0.0,0.0,0.0,0.0,0.0,0.0,-69.212,0.0,0.0,0.0,0.0,0.0
537,0.0,0.1865361328125,0.0,0.0,0.0,0.0,0.0,0.0,0.039,0.0,0.0,0.0,0.0,0.0,0.0,0.03691514254569417,0.0,0.0,0.0,0.0,0.0,0.0,-75.744,0.0,0.0,0.0,0.0,0.0
538,0.0,0.1855078125,0.0,0.0,0.0,0.0,0.0,0.0,-0.065,0.0,0.0,0.0,0.0,0.0,0.0,0.01258223325994298,0.0,0.0,0.0,0.0,0.0,0.0,-76.284,0.0,0.0,0.0,0.0,0.0
539,0.0,0.184265625,0.0,0.0,0.0,0.0,0.0,0.0,-0.11,0.0,0.0,0.0,0.0,0.0,0.0,-0.01321819649617669,0.0,0.0,0.0,0.0,0.0,0.0,-77.148,0.0,0.0,0.0,0.0,0.0
540,0.0,0.1818994140625,0.0,0.0,0.0,0.0,0.0,0.0,-0.168,0.0,0.0,0.0,0.0,0.0,0.0,-0.035134618386686356,0.0,0.0,0.0,0.0,0.0,0.0,-77.904,0.0,0.0,0.0,0.0,0.0
541,0.0,0.178296875,0.0,0.0,0.0,0.0,0.0,0.0,-0.289,0.0,0.0,0.0,0.0,0.0,0.0,-0.05927188128615242,0.0,0.0,0.0,0.0,0.0,0.0,-75.424,0.0,0.0,0.0,0.0,0.0
542,0.0,0.1737626953125,0.0,0.0,0.0,0.0,0.0,0.0,-0.399,0.0,0.0,0.0,0.0,0.0,0.0,-0.08304571767958335,0.0,0.0,0.0,0.0,0.0,0.0,-71.104,0.0,0.0,0.0,0.0,0.0
543,0.0,0.1686171875,0.0,0.0,0.0,0.0,0.0,0.0,-0.488,0.0,0.0,0.0,0.0,0.0,0.0,-0.10675150379497278,0.0,0.0,0.0,0.0,0.0,0.0,-64.788,0.0,0.0,0.0,0.0,0.0
544,0.0,0.1637744140625,0.0,0.0,0.0,0.0,0.0,0.0,-0.51,0.0,0.0,0.0,0.0,0.0,0.0,-0.13024448045519524,0.0,0.0,0.0,0.0,0.0,0.0,-60.844,0.0,0.0,0.0,0.0,0.0
545,0.0,0.1589375,0.0,0.0,0.0,0.0,0.0,0.0,-0.483,0.0,0.0,0.0,0.0,0.0,0.0,-0.1537122033420087,0.0,0.0,0.0,0.0,0.0,0.0,-58.144,0.0,0.0,0.0,0.0,0.0
546,0.0,0.153888671875,0.0,0.0,0.0,0.0,0.0,0.0,-0.492,0.0,0.0,0.0,0.0,0.0,0.0,-0.17663773404123967,0.0,0.0,0.0,0.0,0.0,0.0,-55.284,0.0,0.0,0.0,0.0,0.0
547,0.0,0.14833203125,0.0,0.0,0.0,0.0,0.0,0.0,-0.531,0.0,0.0,0.0,0.0,0.0,0.0,-0.19943102548646086,0.0,0.0,0.0,0.0,0.0,0.0,-51.992,0.0,0.0,0.0,0.0,0.0
548,0.0,0.1425556640625,0.0,0.0,0.0,0.0,0.0,0.0,-0.568,0.0,0.0,0.0,0.0,0.0,0.0,-0.22187431373031904,0.0,0.0,0.0,0.0,0.0,0.0,-47.78,0.0,0.0,0.0,0.0,0.0
549,0.0,0.13668359375,0.0,0.0,0.0,0.0,0.0,0.0,-0.589,0.0,0.0,0.0,0.0,0.0,0.0,-0.24376169167270328,0.0,0.0,0.0,0.0,0.0,0.0,-45.188,0.0,0.0,0.0,0.0,0.0
550,0.0,0.1312294921875,0.0,0.0,0.0,0.0,0.0,0.0,-0.572,0.0,0.0,0.0,0.0,0.0,0.0,-0.26574489396511797,0.0,0.0,0.0,0.0,0.0,0.0,-44.648,0.0,0.0,0.0,0.0,0.0
551,0.0,0.125666015625,0.0,0.0,0.0,0.0,0.0,0.0,-0.551,0.0,0.0,0.0,0.0,0.0,0.0,-0.2872928694499994,0.0,0.0,0.0,0.0,0.0,0.0,-45.188,0.0,0.0,0.0,0.0,0.0
552,0.0,0.120005859375,0.0,0.0,0.0,0.0,0.0,0.0,-0.565,0.0,0.0,0.0,0.0,0.0,0.0,-0.30786165827287826,0.0,0.0,0.0,0.0,0.0,0.0,-45.296,0.0,0.0,0.0,0.0,0.0
553,0.0,0.113927734375,0.0,0.0,0.0,0.0,0.0,0.0,-0.589,0.0,0.0,0.0,0.0,0.0,0.0,-0.32826003605486825,0.0,0.0,0.0,0.0,0.0,0.0,-45.728,0.0,0.0,0.0,0.0,0.0
554,0.0,0.1074384765625,0.0,0.0,0.0,0.0,0.0,0.0,-0.632,0.0,0.0,0.0,0.0,0.0,0.0,-0.34813250072565505,0.0,0.0,0.0,0.0,0.0,0.0,-47.184,0.0,0.0,0.0,0.0,0.0
555,0.0,0.1011611328125,0.0,0.0,0.0,0.0,0.0,0.0,-0.648,0.0,0.0,0.0,0.0,0.0,0.0,-0.36729538402267853,0.0,0.0,0.0,0.0,0.0,0.0,-46.104,0.0,0.0,0.0,0.0,0.0
556,0.0,0.095294921875,0.0,0.0,0.0,0.0,0.0,0.0,-0.613,0.0,0.0,0.0,0.0,0.0,0.0,-0.38585628263410854,0.0,0.0,0.0,0.0,0.0,0.0,-42.76,0.0,0.0,0.0,0.0,0.0
557,0.0,0.0890107421875,0.0,0.0,0.0,0.0,0.0,0.0,-0.604,0.0,0.0,0.0,0.0,0.0,0.0,-0.4041648530358991,0.0,0.0,0.0,0.0,0.0,0.0,-43.136,0.0,0.0,0.0,0.0,0.0
558,0.0,0.0826240234375,0.0,0.0,0.0,0.0,0.0,0.0,-0.636,0.0,0.0,0.0,0.0,0.0,0.0,-0.42162095400517746,0.0,0.0,0.0,0.0,0.0,0.0,-44.484,0.0,0.0,0.0,0.0,0.0
559,0.0,0.0766552734375,0.0,0.0,0.0,0.0,0.0,0.0,-0.627,0.0,0.0,0.0,0.0,0.0,0.0,-0.4381073669696641,0.0,0.0,0.0,0.0,0.0,0.0,-39.356,0.0,0.0,0.0,0.0,0.0
560,0.0,0.070783203125,0.0,0.0,0.0,0.0,0.0,0.0,-0.597,0.0,0.0,0.0,0.0,0.0,0.0,-0.454323026547378,0.0,0.0,0.0,0.0,0.0,0.0,-35.092,0.0,0.0,0.0,0.0,0.0
561,0.0,0.0652265625,0.0,0.0,0.0,0.0,0.0,0.0,-0.576,0.0,0.0,0.0,0.0,0.0,0.0,-0.46939725323111,0.0,0.0,0.0,0.0,0.0,0.0,-35.092,0.0,0.0,0.0,0.0,0.0
562,0.0,0.0599716796875,0.0,0.0,0.0,0.0,0.0,0.0,-0.547,0.0,0.0,0.0,0.0,0.0,0.0,-0.48397231316208944,0.0,0.0,0.0,0.0,0.0,0.0,-37.576,0.0,0.0,0.0,0.0,0.0
563,0.0,0.054716796875,0.0,0.0,0.0,0.0,0.0,0.0,-0.534,0.0,0.0,0.0,0.0,0.0,0.0,-0.4980027199562245,0.0,0.0,0.0,0.0,0.0,0.0,-35.36,0.0,0.0,0.0,0.0,0.0
564,0.0,0.0499833984375,0.0,0.0,0.0,0.0,0.0,0.0,-0.506,0.0,0.0,0.0,0.0,0.0,0.0,-0.5108735523289345,0.0,0.0,0.0,0.0,0.0,0.0,-32.66,0.0,0.0,0.0,0.0,0.0
565,0.0,0.0452431640625,0.0,0.0,0.0,0.0,0.0,0.0,-0.471,0.0,0.0,0.0,0.0,0.0,0.0,-0.52298551821017,0.0,0.0,0.0,0.0,0.0,0.0,-33.904,0.0,0.0,0.0,0.0,0.0
566,0.0,0.0408173828125,0.0,0.0,0.0,0.0,0.0,0.0,-0.469,0.0,0.0,0.0,0.0,0.0,0.0,-0.5344606553573613,0.0,0.0,0.0,0.0,0.0,0.0,-35.956,0.0,0.0,0.0,0.0,0.0
567,0.0,0.0364892578125,0.0,0.0,0.0,0.0,0.0,0.0,-0.446,0.0,0.0,0.0,0.0,0.0,0.0,-0.5448819103040301,0.0,0.0,0.0,0.0,0.0,0.0,-37.576,0.0,0.0,0.0,0.0,0.0
568,0.0,0.032373046875,0.0,0.0,0.0,0.0,0.0,0.0,-0.424,0.0,0.0,0.0,0.0,0.0,0.0,-0.5544347031809662,0.0,0.0,0.0,0.0,0.0,0.0,-34.66,0.0,0.0,0.0,0.0,0.0
569,0.0,0.02855859375,0.0,0.0,0.0,0.0,0.0,0.0,-0.4,0.0,0.0,0.0,0.0,0.0,0.0,-0.5631752603931174,0.0,0.0,0.0,0.0,0.0,0.0,-35.144,0.0,0.0,0.0,0.0,0.0
570,0.0,0.0247509765625,0.0,0.0,0.0,0.0,0.0,0.0,-0.383,0.0,0.0,0.0,0.0,0.0,0.0,-0.5710151377672481,0.0,0.0,0.0,0.0,0.0,0.0,-38.384,0.0,0.0,0.0,0.0,0.0
571,0.0,0.0211494140625,0.0,0.0,0.0,0.0,0.0,0.0,-0.375,0.0,0.0,0.0,0.0,0.0,0.0,-0.5778940360917132,0.0,0.0,0.0,0.0,0.0,0.0,-40.708,0.0,0.0,0.0,0.0,0.0
572,0.0,0.017541015625,0.0,0.0,0.0,0.0,0.0,0.0,-0.363,0.0,0.0,0.0,0.0,0.0,0.0,-0.5839382027307846,0.0,0.0,0.0,0.0,0.0,0.0,-41.084,0.0,0.0,0.0,0.0,0.0
573,0.0,0.0141455078125,0.0,0.0,0.0,0.0,0.0,0.0,-0.362,0.0,0.0,0.0,0.0,0.0,0.0,-0.5889906249510076,0.0,0.0,0.0,0.0,0.0,0.0,-39.412,0.0,0.0,0.0,0.0,0.0
574,0.0,0.0110517578125,0.0,0.0,0.0,0.0,0.0,0.0,-0.326,0.0,0.0,0.0,0.0,0.0,0.0,-0.5930802772897596,0.0,0.0,0.0,0.0,0.0,0.0,-40.22,0.0,0.0,0.0,0.0,0.0
575,0.0,0.0080673828125,0.0,0.0,0.0,0.0,0.0,0.0,-0.312,0.0,0.0,0.0,0.0,0.0,0.0,-0.5962310386182538,0.0,0.0,0.0,0.0,0.0,0.0,-42.76,0.0,0.0,0.0,0.0,0.0
576,0.0,0.0049794921875,0.0,0.0,0.0,0.0,0.0,0.0,-0.304,0.0,0.0,0.0,0.0,0.0,0.0,-0.5984705405962608,0.0,0.0,0.0,0.0,0.0,0.0,-45.24,0.0,0.0,0.0,0.0,0.0
577,0.0,0.0015771484375,0.0,0.0,0.0,0.0,0.0,0.0,-0.321,0.0,0.0,0.0,0.0,0.0,0.0,-0.5996900453592252,0.0,0.0,0.0,0.0,0.0,0.0,-45.728,0.0,0.0,0.0,0.0,0.0
578,0.0,-0.001921875,0.0,0.0,0.0,0.0,0.0,0.0,-0.353,0.0,0.0,0.0,0.0,0.0,0.0,-0.5999438308120909,0.0,0.0,0.0,0.0,0.0,0.0,-44.972,0.0,0.0,0.0,0.0,0.0
579,0.0,-0.005111328125,0.0,0.0,0.0,0.0,0.0,0.0,-0.339,0.0,0.0,0.0,0.0,0.0,0.0,-0.5993067520093339,0.0,0.0,0.0,0.0,0.0,0.0,-44.54,0.0,0.0,0.0,0.0,0.0
580,0.0,-0.008205078125,0.0,0.0,0.0,0.0,0.0,0.0,-0.315,0.0,0.0,0.0,0.0,0.0,0.0,-0.5976867736470878,0.0,0.0,0.0,0.0,0.0,0.0,-45.188,0.0,0.0,0.0,0.0,0.0
581,0.0,-0.01129296875,0.0,0.0,0.0,0.0,0.0,0.0,-0.308,0.0,0.0,0.0,0.0,0.0,0.0,-0.5950995178426666,0.0,0.0,0.0,0.0,0.0,0.0,-46.808,0.0,0.0,0.0,0.0,0.0
582,0.0,-0.0146953125,0.0,0.0,0.0,0.0,0.0,0.0,-0.322,0.0,0.0,0.0,0.0,0.0,0.0,-0.5915262448541979,0.0,0.0,0.0,0.0,0.0,0.0,-47.78,0.0,0.0,0.0,0.0,0.0
583,0.0,-0.0183994140625,0.0,0.0,0.0,0.0,0.0,0.0,-0.356,0.0,0.0,0.0,0.0,0.0,0.0,-0.5870904161876123,0.0,0.0,0.0,0.0,0.0,0.0,-47.616,0.0,0.0,0.0,0.0,0.0
584,0.0,-0.0220009765625,0.0,0.0,0.0,0.0,0.0,0.0,-0.373,0.0,0.0,0.0,0.0,0.0,0.0,-0.5816456799134191,0.0,0.0,0.0,0.0,0.0,0.0,-46.86,0.0,0.0,0.0,0.0,0.0
585,0.0,-0.025609375,0.0,0.0,0.0,0.0,0.0,0.0,-0.362,0.0,0.0,0.0,0.0,0.0,0.0,-0.5752590344130554,0.0,0.0,0.0,0.0,0.0,0.0,-46.752,0.0,0.0,0.0,0.0,0.0
586,0.0,-0.0291083984375,0.0,0.0,0.0,0.0,0.0,0.0,-0.357,0.0,0.0,0.0,0.0,0.0,0.0,-0.5679915358255412,0.0,0.0,0.0,0.0,0.0,0.0,-47.076,0.0,0.0,0.0,0.0,0.0
587,0.0,-0.032716796875,0.0,0.0,0.0,0.0,0.0,0.0,-0.356,0.0,0.0,0.0,0.0,0.0,0.0,-0.5598853958936958,0.0,0.0,0.0,0.0,0.0,0.0,-47.4,0.0,0.0,0.0,0.0,0.0
588,0.0,-0.0365244140625,0.0,0.0,0.0,0.0,0.0,0.0,-0.372,0.0,0.0,0.0,0.0,0.0,0.0,-0.550555424090461,0.0,0.0,0.0,0.0,0.0,0.0,-47.24,0.0,0.0,0.0,0.0,0.0
589,0.0,-0.04044140625,0.0,0.0,0.0,0.0,0.0,0.0,-0.391,0.0,0.0,0.0,0.0,0.0,0.0,-0.5408453991234582,0.0,0.0,0.0,0.0,0.0,0.0,-47.184,0.0,0.0,0.0,0.0,0.0
590,0.0,-0.044455078125,0.0,0.0,0.0,0.0,0.0,0.0,-0.397,0.0,0.0,0.0,0.0,0.0,0.0,-0.5299242527141108,0.0,0.0,0.0,0.0,0.0,0.0,-46.752,0.0,0.0,0.0,0.0,0.0
591,0.0,-0.048365234375,0.0,0.0,0.0,0.0,0.0,0.0,-0.4,0.0,0.0,0.0,0.0,0.0,0.0,-0.5181569324631908,0.0,0.0,0.0,0.0,0.0,0.0,-46.16,0.0,0.0,0.0,0.0,0.0
592,0.0,-0.052384765625,0.0,0.0,0.0,0.0,0.0,0.0,-0.399,0.0,0.0,0.0,0.0,0.0,0.0,-0.5058905808367947,0.0,0.0,0.0,0.0,0.0,0.0,-46.268,0.0,0.0,0.0,0.0,0.0
593,0.0,-0.0563984375,0.0,0.0,0.0,0.0,0.0,0.0,-0.402,0.0,0.0,0.0,0.0,0.0,0.0,-0.49250703470370494,0.0,0.0,0.0,0.0,0.0,0.0,-46.16,0.0,0.0,0.0,0.0,0.0
594,0.0,-0.0606240234375,0.0,0.0,0.0,0.0,0.0,0.0,-0.416,0.0,0.0,0.0,0.0,0.0,0.0,-0.4782032302850673,0.0,0.0,0.0,0.0,0.0,0.0,-45.888,0.0,0.0,0.0,0.0,0.0
595,0.0,-0.064740234375,0.0,0.0,0.0,0.0,0.0,0.0,-0.422,0.0,0.0,0.0,0.0,0.0,0.0,-0.46349245988457755,0.0,0.0,0.0,0.0,0.0,0.0,-45.728,0.0,0.0,0.0,0.0,0.0
596,0.0,-0.068966796875,0.0,0.0,0.0,0.0,0.0,0.0,-0.42,0.0,0.0,0.0,0.0,0.0,0.0,-0.4479475111684511,0.0,0.0,0.0,0.0,0.0,0.0,-45.404,0.0,0.0,0.0,0.0,0.0
597,0.0,-0.0732880859375,0.0,0.0,0.0,0.0,0.0,0.0,-0.428,0.0,0.0,0.0,0.0,0.0,0.0,-0.4314275755037157,0.0,0.0,0.0,0.0,0.0,0.0,-44.648,0.0,0.0,0.0,0.0,0.0
598,0.0,-0.0775146484375,0.0,0.0,0.0,0.0,0.0,0.0,-0.433,0.0,0.0,0.0,0.0,0.0,0.0,-0.41360561357314846,0.0,0.0,0.0,0.0,0.0,0.0,-44.324,0.0,0.0,0.0,0.0,0.0
599,0.0,-0.0818359375,0.0,0.0,0.0,0.0,0.0,0.0,-0.433,0.0,0.0,0.0,0.0,0.0,0.0,-0.39691270347068225,0.0,0.0,0.0,0.0,0.0,0.0,-43.944,0.0,0.0,0.0,0.0,0.0
600,0.0,-0.085958984375,0.0,0.0,0.0,0.0,0.0,0.0,-0.425,0.0,0.0,0.0,0.0,0.0,0.0,-0.37858492817436484,0.0,0.0,0.0,0.0,0.0,0.0,-43.836,0.0,0.0,0.0,0.0,0.0
601,0.0,-0.0901787109375,0.0,0.0,0.0,0.0,0.0,0.0,-0.422,0.0,0.0,0.0,0.0,0.0,0.0,-0.3597598570151026,0.0,0.0,0.0,0.0,0.0,0.0,-44.052,0.0,0.0,0.0,0.0,0.0
602,0.0,-0.094404296875,0.0,0.0,0.0,0.0,0.0,0.0,-0.423,0.0,0.0,0.0,0.0,0.0,0.0,-0.3401988591416368,0.0,0.0,0.0,0.0,0.0,0.0,-43.404,0.0,0.0,0.0,0.0,0.0
603,0.0,-0.098623046875,0.0,0.0,0.0,0.0,0.0,0.0,-0.425,0.0,0.0,0.0,0.0,0.0,0.0,-0.32013421612176873,0.0,0.0,0.0,0.0,0.0,0.0,-43.028,0.0,0.0,0.0,0.0,0.0
604,0.0,-0.1029453125,0.0,0.0,0.0,0.0,0.0,0.0,-0.433,0.0,0.0,0.0,0.0,0.0,0.0,-0.29934227606011365,0.0,0.0,0.0,0.0,0.0,0.0,-42.92,0.0,0.0,0.0,0.0,0.0
605,0.0,-0.1070615234375,0.0,0.0,0.0,0.0,0.0,0.0,-0.425,0.0,0.0,0.0,0.0,0.0,0.0,-0.2785975295081986,0.0,0.0,0.0,0.0,0.0,0.0,-42.92,0.0,0.0,0.0,0.0,0.0
606,0.0,-0.11108203125,0.0,0.0,0.0,0.0,0.0,0.0,-0.414,0.0,0.0,0.0,0.0,0.0,0.0,-0.2570008957908465,0.0,0.0,0.0,0.0,0.0,0.0,-43.296,0.0,0.0,0.0,0.0,0.0
607,0.0,-0.1150947265625,0.0,0.0,0.0,0.0,0.0,0.0,-0.405,0.0,0.0,0.0,0.0,0.0,0.0,-0.2337463513788934,0.0,0.0,0.0,0.0,0.0,0.0,-43.676,0.0,0.0,0.0,0.0,0.0
608,0.0,-0.119115234375,0.0,0.0,0.0,0.0,0.0,0.0,-0.403,0.0,0.0,0.0,0.0,0.0,0.0,-0.21294989483563184,0.0,0.0,0.0,0.0,0.0,0.0,-43.404,0.0,0.0,0.0,0.0,0.0
609,0.0,-0.123333984375,0.0,0.0,0.0,0.0,0.0,0.0,-0.413,0.0,0.0,0.0,0.0,0.0,0.0,-0.19028886056220598,0.0,0.0,0.0,0.0,0.0,0.0,-43.192,0.0,0.0,0.0,0.0,0.0
610,0.0,-0.1273544921875,0.0,0.0,0.0,0.0,0.0,0.0,-0.422,0.0,0.0,0.0,0.0,0.0,0.0,-0.1673817163051263,0.0,0.0,0.0,0.0,0.0,0.0,-42.976,0.0,0.0,0.0,0.0,0.0
611,0.0,-0.1313671875,0.0,0.0,0.0,0.0,0.0,0.0,-0.404,0.0,0.0,0.0,0.0,0.0,0.0,-0.1442345689502611,0.0,0.0,0.0,0.0,0.0,0.0,-43.084,0.0,0.0,0.0,0.0,0.0
612,0.0,-0.135181640625,0.0,0.0,0.0,0.0,0.0,0.0,-0.394,0.0,0.0,0.0,0.0,0.0,0.0,-0.12089533935819079,0.0,0.0,0.0,0.0,0.0,0.0,-43.512,0.0,0.0,0.0,0.0,0.0
613,0.0,-0.1389892578125,0.0,0.0,0.0,0.0,0.0,0.0,-0.387,0.0,0.0,0.0,0.0,0.0,0.0,-0.09717124919575452,0.0,0.0,0.0,0.0,0.0,0.0,-43.892,0.0,0.0,0.0,0.0,0.0
614,0.0,-0.1430087890625,0.0,0.0,0.0,0.0,0.0,0.0,-0.39,0.0,0.0,0.0,0.0,0.0,0.0,-0.07357911137254833,0.0,0.0,0.0,0.0,0.0,0.0,-43.244,0.0,0.0,0.0,0.0,0.0
615,0.0,-0.1465078125,0.0,0.0,0.0,0.0,0.0,0.0,-0.388,0.0,0.0,0.0,0.0,0.0,0.0,-0.04964562024678721,0.0,0.0,0.0,0.0,0.0,0.0,-37.9,0.0,0.0,0.0,0.0,0.0
616,0.0,-0.1483603515625,0.0,0.0,0.0,0.0,0.0,0.0,-0.29,0.0,0.0,0.0,0.0,0.0,0.0,-0.02519323482216618,0.0,0.0,0.0,0.0,0.0,0.0,-26.02,0.0,0.0,0.0,0.0,0.0
617,0.0,-0.1489775390625,0.0,0.0,0.0,0.0,0.0,0.0,-0.135,0.0,0.0,0.0,0.0,0.0,0.0,-0.0017070651834405139,0.0,0.0,0.0,0.0,0.0,0.0,-17.384,0.0,0.0,0.0,0.0,0.0
618,0.0,-0.1486689453125,0.0,0.0,0.0,0.0,0.0,0.0,-0.027,0.0,0.0,0.0,0.0,0.0,0.0,0.022309509569255495,0.0,0.0,0.0,0.0,0.0,0.0,-12.9,0.0,0.0,0.0,0.0,0.0
619,0.0,-0.1473310546875,0.0,0.0,0.0,0.0,0.0,0.0,0.082,0.0,0.0,0.0,0.0,0.0,0.0,8.411407443151179e-05,0.0,0.0,0.0,0.0,0.0,0.0,-11.984,0.0,0.0,0.0,0.0,0.0
620,0.0,-0.1460966796875,0.0,0.0,0.0,0.0,0.0,0.0,0.124,0.0,0.0,0.0,0.0,0.0,0.0,0.023861503529804852,0.0,0.0,0.0,0.0,0.0,0.0,-10.204,0.0,0.0,0.0,0.0,0.0
621,0.0,-0.1437294921875,0.0,0.0,0.0,0.0,0.0,0.0,0.163,0.0,0.0,0.0,0.0,0.0,0.0,0.04735555776936977,0.0,0.0,0.0,0.0,0.0,0.0,-8.692,0.0,0.0,0.0,0.0,0.0
622,0.0,-0.1400185546875,0.0,0.0,0.0,0.0,0.0,0.0,0.297,0.0,0.0,0.0,0.0,0.0,0.0,0.07140287503151231,0.0,0.0,0.0,0.0,0.0,0.0,-10.472,0.0,0.0,0.0,0.0,0.0
623,0.0,-0.1353876953125,0.0,0.0,0.0,0.0,0.0,0.0,0.406,0.0,0.0,0.0,0.0,0.0,0.0,0.0950790021944052,0.0,0.0,0.0,0.0,0.0,0.0,-12.576,0.0,0.0,0.0,0.0,0.0
624,0.0,-0.129515625,0.0,0.0,0.0,0.0,0.0,0.0,0.525,0.0,0.0,0.0,0.0,0.0,0.0,0.118724207491152,0.0,0.0,0.0,0.0,0.0,0.0,-17.168,0.0,0.0,0.0,0.0,0.0
625,0.0,-0.1238486328125,0.0,0.0,0.0,0.0,0.0,0.0,0.584,0.0,0.0,0.0,0.0,0.0,0.0,0.1423023895693715,0.0,0.0,0.0,0.0,0.0,0.0,-20.892,0.0,0.0,0.0,0.0,0.0
626,0.0,-0.1180859375,0.0,0.0,0.0,0.0,0.0,0.0,0.566,0.0,0.0,0.0,0.0,0.0,0.0,0.1653105450100877,0.0,0.0,0.0,0.0,0.0,0.0,-25.968,0.0,0.0,0.0,0.0,0.0
627,0.0,-0.112419921875,0.0,0.0,0.0,0.0,0.0,0.0,0.582,0.0,0.0,0.0,0.0,0.0,0.0,0.1881861966257572,0.0,0.0,0.0,0.0,0.0,0.0,-32.068,0.0,0.0,0.0,0.0,0.0
628,0.0,-0.106546875,0.0,0.0,0.0,0.0,0.0,0.0,0.575,0.0,0.0,0.0,0.0,0.0,0.0,0.211079420936394,0.0,0.0,0.0,0.0,0.0,0.0,-34.064,0.0,0.0,0.0,0.0,0.0
629,0.0,-0.0994462890625,0.0,0.0,0.0,0.0,0.0,0.0,0.642,0.0,0.0,0.0,0.0,0.0,0.0,0.23309623581967379,0.0,0.0,0.0,0.0,0.0,0.0,-34.388,0.0,0.0,0.0,0.0,0.0
630,0.0,-0.0921396484375,0.0,0.0,0.0,0.0,0.0,0.0,0.727,0.0,0.0,0.0,0.0,0.0,0.0,0.25494877398869903,0.0,0.0,0.0,0.0,0.0,0.0,-35.848,0.0,0.0,0.0,0.0,0.0
631,0.0,-0.0854443359375,0.0,0.0,0.0,0.0,0.0,0.0,0.707,0.0,0.0,0.0,0.0,0.0,0.0,0.27702056671086384,0.0,0.0,0.0,0.0,0.0,0.0,-42.056,0.0,0.0,0.0,0.0,0.0
632,0.0,-0.078955078125,0.0,0.0,0.0,0.0,0.0,0.0,0.668,0.0,0.0,0.0,0.0,0.0,0.0,0.2975446642709841,0.0,0.0,0.0,0.0,0.0,0.0,-46.536,0.0,0.0,0.0,0.0,0.0
633,0.0,-0.0726708984375,0.0,0.0,0.0,0.0,0.0,0.0,0.639,0.0,0.0,0.0,0.0,0.0,0.0,0.31817071136042036,0.0,0.0,0.0,0.0,0.0,0.0,-44.864,0.0,0.0,0.0,0.0,0.0
634,0.0,-0.065982421875,0.0,0.0,0.0,0.0,0.0,0.0,0.653,0.0,0.0,0.0,0.0,0.0,0.0,0.3383378313991244,0.0,0.0,0.0,0.0,0.0,0.0,-42.652,0.0,0.0,0.0,0.0,0.0
635,0.0,-0.0593896484375,0.0,0.0,0.0,0.0,0.0,0.0,0.67,0.0,0.0,0.0,0.0,0.0,0.0,0.3578068620668238,0.0,0.0,0.0,0.0,0.0,0.0,-48.48,0.0,0.0,0.0,0.0,0.0
636,0.0,-0.05310546875,0.0,0.0,0.0,0.0,0.0,0.0,0.644,0.0,0.0,0.0,0.0,0.0,0.0,0.37690788190818764,0.0,0.0,0.0,0.0,0.0,0.0,-53.88,0.0,0.0,0.0,0.0,0.0
637,0.0,-0.04671875,0.0,0.0,0.0,0.0,0.0,0.0,0.641,0.0,0.0,0.0,0.0,0.0,0.0,0.39518677953715475,0.0,0.0,0.0,0.0,0.0,0.0,-52.316,0.0,0.0,0.0,0.0,0.0
638,0.0,-0.0409560546875,0.0,0.0,0.0,0.0,0.0,0.0,0.621,0.0,0.0,0.0,0.0,0.0,0.0,0.412863709982869,0.0,0.0,0.0,0.0,0.0,0.0,-50.856,0.0,0.0,0.0,0.0,0.0
639,0.0,-0.0355986328125,0.0,0.0,0.0,0.0,0.0,0.0,0.557,0.0,0.0,0.0,0.0,0.0,0.0,0.4299151051889573,0.0,0.0,0.0,0.0,0.0,0.0,-55.608,0.0,0.0,0.0,0.0,0.0
640,0.0,-0.03003515625,0.0,0.0,0.0,0.0,0.0,0.0,0.552,0.0,0.0,0.0,0.0,0.0,0.0,0.4464703242640568,0.0,0.0,0.0,0.0,0.0,0.0,-59.116,0.0,0.0,0.0,0.0,0.0
641,0.0,-0.02468359375,0.0,0.0,0.0,0.0,0.0,0.0,0.552,0.0,0.0,0.0,0.0,0.0,0.0,0.46207602507221923,0.0,0.0,0.0,0.0,0.0,0.0,-56.796,0.0,0.0,0.0,0.0,0.0
642,0.0,-0.0194287109375,0.0,0.0,0.0,0.0,0.0,0.0,0.532,0.0,0.0,0.0,0.0,0.0,0.0,0.47690408130057005,0.0,0.0,0.0,0.0,0.0,0.0,-53.556,0.0,0.0,0.0,0.0,0.0
643,0.0,-0.0147978515625,0.0,0.0,0.0,0.0,0.0,0.0,0.509,0.0,0.0,0.0,0.0,0.0,0.0,0.49139941031099954,0.0,0.0,0.0,0.0,0.0,0.0,-57.012,0.0,0.0,0.0,0.0,0.0
644,0.0,-0.0109833984375,0.0,0.0,0.0,0.0,0.0,0.0,0.421,0.0,0.0,0.0,0.0,0.0,0.0,0.5045360398734264,0.0,0.0,0.0,0.0,0.0,0.0,-59.332,0.0,0.0,0.0,0.0,0.0
645,0.0,-0.0067646484375,0.0,0.0,0.0,0.0,0.0,0.0,0.404,0.0,0.0,0.0,0.0,0.0,0.0,0.5171505969884697,0.0,0.0,0.0,0.0,0.0,0.0,-57.444,0.0,0.0,0.0,0.0,0.0
646,0.0,-0.00284765625,0.0,0.0,0.0,0.0,0.0,0.0,0.417,0.0,0.0,0.0,0.0,0.0,0.0,0.5289935880094754,0.0,0.0,0.0,0.0,0.0,0.0,-53.396,0.0,0.0,0.0,0.0,0.0
647,0.0,0.001166015625,0.0,0.0,0.0,0.0,0.0,0.0,0.393,0.0,0.0,0.0,0.0,0.0,0.0,0.5399420122267975,0.0,0.0,0.0,0.0,0.0,0.0,-51.02,0.0,0.0,0.0,0.0,0.0
648,0.0,0.004876953125,0.0,0.0,0.0,0.0,0.0,0.0,0.398,0.0,0.0,0.0,0.0,0.0,0.0,0.5498707064368052,0.0,0.0,0.0,0.0,0.0,0.0,-53.772,0.0,0.0,0.0,0.0,0.0
649,0.0,0.0077587890625,0.0,0.0,0.0,0.0,0.0,0.0,0.335,0.0,0.0,0.0,0.0,0.0,0.0,0.5590345175316778,0.0,0.0,0.0,0.0,0.0,0.0,-53.556,0.0,0.0,0.0,0.0,0.0
650,0.0,0.010845703125,0.0,0.0,0.0,0.0,0.0,0.0,0.297,0.0,0.0,0.0,0.0,0.0,0.0,0.5673557735216237,0.0,0.0,0.0,0.0,0.0,0.0,-50.964,0.0,0.0,0.0,0.0,0.0
651,0.0,0.01352734375,0.0,0.0,0.0,0.0,0.0,0.0,0.292,0.0,0.0,0.0,0.0,0.0,0.0,0.5746005278831413,0.0,0.0,0.0,0.0,0.0,0.0,-47.184,0.0,0.0,0.0,0.0,0.0
652,0.0,0.016615234375,0.0,0.0,0.0,0.0,0.0,0.0,0.281,0.0,0.0,0.0,0.0,0.0,0.0,0.5811169487622939,0.0,0.0,0.0,0.0,0.0,0.0,-44.54,0.0,0.0,0.0,0.0,0.0
653,0.0,0.019908203125,0.0,0.0,0.0,0.0,0.0,0.0,0.324,0.0,0.0,0.0,0.0,0.0,0.0,0.5866005279077882,0.0,0.0,0.0,0.0,0.0,0.0,-45.188,0.0,0.0,0.0,0.0,0.0
654,0.0,0.0228984375,0.0,0.0,0.0,0.0,0.0,0.0,0.32,0.0,0.0,0.0,0.0,0.0,0.0,0.591156913762831,0.0,0.0,0.0,0.0,0.0,0.0,-45.78,0.0,0.0,0.0,0.0,0.0
655,0.0,0.02557421875,0.0,0.0,0.0,0.0,0.0,0.0,0.286,0.0,0.0,0.0,0.0,0.0,0.0,0.5948093932451637,0.0,0.0,0.0,0.0,0.0,0.0,-44.864,0.0,0.0,0.0,0.0,0.0
656,0.0,0.02825,0.0,0.0,0.0,0.0,0.0,0.0,0.272,0.0,0.0,0.0,0.0,0.0,0.0,0.5975097687306935,0.0,0.0,0.0,0.0,0.0,0.0,-43.62,0.0,0.0,0.0,0.0,0.0
657,0.0,0.0311376953125,0.0,0.0,0.0,0.0,0.0,0.0,0.271,0.0,0.0,0.0,0.0,0.0,0.0,0.5991959457463835,0.0,0.0,0.0,0.0,0.0,0.0,-42.004,0.0,0.0,0.0,0.0,0.0
658,0.0,0.0345341796875,0.0,0.0,0.0,0.0,0.0,0.0,0.309,0.0,0.0,0.0,0.0,0.0,0.0,0.5999575973018134,0.0,0.0,0.0,0.0,0.0,0.0,-41.464,0.0,0.0,0.0,0.0,0.0
659,0.0,0.037724609375,0.0,0.0,0.0,0.0,0.0,0.0,0.337,0.0,0.0,0.0,0.0,0.0,0.0,0.5997599599600308,0.0,0.0,0.0,0.0,0.0,0.0,-41.68,0.0,0.0,0.0,0.0,0.0
660,0.0,0.0408173828125,0.0,0.0,0.0,0.0,0.0,0.0,0.317,0.0,0.0,0.0,0.0,0.0,0.0,0.5986158021199617,0.0,0.0,0.0,0.0,0.0,0.0,-40.976,0.0,0.0,0.0,0.0,0.0
661,0.0,0.0440078125,0.0,0.0,0.0,0.0,0.0,0.0,0.318,0.0,0.0,0.0,0.0,0.0,0.0,0.5965083642223168,0.0,0.0,0.0,0.0,0.0,0.0,-40.6,0.0,0.0,0.0,0.0,0.0
662,0.0,0.047095703125,0.0,0.0,0.0,0.0,0.0,0.0,0.31,0.0,0.0,0.0,0.0,0.0,0.0,0.5933996789039779,0.0,0.0,0.0,0.0,0.0,0.0,-40.06,0.0,0.0,0.0,0.0,0.0
663,0.0,0.0506005859375,0.0,0.0,0.0,0.0,0.0,0.0,0.326,0.0,0.0,0.0,0.0,0.0,0.0,0.5894387506654212,0.0,0.0,0.0,0.0,0.0,0.0,-40.168,0.0,0.0,0.0,0.0,0.0
664,0.0,0.0542021484375,0.0,0.0,0.0,0.0,0.0,0.0,0.357,0.0,0.0,0.0,0.0,0.0,0.0,0.5844918499544094,0.0,0.0,0.0,0.0,0.0,0.0,-40.436,0.0,0.0,0.0,0.0,0.0
665,0.0,0.057810546875,0.0,0.0,0.0,0.0,0.0,0.0,0.362,0.0,0.0,0.0,0.0,0.0,0.0,0.5785312303585491,0.0,0.0,0.0,0.0,0.0,0.0,-39.952,0.0,0.0,0.0,0.0,0.0
666,0.0,0.061515625,0.0,0.0,0.0,0.0,0.0,0.0,0.369,0.0,0.0,0.0,0.0,0.0,0.0,0.5717761244097521,0.0,0.0,0.0,0.0,0.0,0.0,-39.628,0.0,0.0,0.0,0.0,0.0
667,0.0,0.0651171875,0.0,0.0,0.0,0.0,0.0,0.0,0.37,0.0,0.0,0.0,0.0,0.0,0.0,0.5640553955337776,0.0,0.0,0.0,0.0,0.0,0.0,-39.14,0.0,0.0,0.0,0.0,0.0
668,0.0,0.0690341796875,0.0,0.0,0.0,0.0,0.0,0.0,0.374,0.0,0.0,0.0,0.0,0.0,0.0,0.5552596891552962,0.0,0.0,0.0,0.0,0.0,0.0,-39.248,0.0,0.0,0.0,0.0,0.0
669,0.0,0.0729443359375,0.0,0.0,0.0,0.0,0.0,0.0,0.394,0.0,0.0,0.0,0.0,0.0,0.0,0.5458317736535703,0.0,0.0,0.0,0.0,0.0,0.0,-40.06,0.0,0.0,0.0,0.0,0.0
