EmanuelSamir/lab201_ws_projsamir/sawyer_dev/data/sawyer/static/test_joint2/training_data_05.csv
,j1,j2,j3,j4,j5,j6,j7,v1,v2,v3,v4,v5,v6,v7,jd1,jd2,jd3,jd4,jd5,jd6,jd7,e1,e2,e3,e4,e5,e6,e7
0,0.0,0.0,0.0,0.0,0.0,0.0,0.0,0.0,0.0,0.0,0.0,0.0,0.0,0.0,0.0,0.0,0.0,0.0,0.0,0.0,0.0,0.0,0.0,0.0,0.0,0.0,0.0,0.0
1,0.0,-0.0014072265625,0.0,0.0,0.0,0.0,0.0,0.0,-0.001,0.0,0.0,0.0,0.0,0.0,0.0,2.5820732108729336e-05,0.0,0.0,0.0,0.0,0.0,0.0,-44.54,0.0,0.0,0.0,0.0,0.0
2,0.0,-0.0014072265625,0.0,0.0,0.0,0.0,0.0,0.0,-0.001,0.0,0.0,0.0,0.0,0.0,0.0,0.0024845767538822874,0.0,0.0,0.0,0.0,0.0,0.0,-44.484,0.0,0.0,0.0,0.0,0.0
3,0.0,-0.0014072265625,0.0,0.0,0.0,0.0,0.0,0.0,-0.001,0.0,0.0,0.0,0.0,0.0,0.0,0.005488724446915846,0.0,0.0,0.0,0.0,0.0,0.0,-44.484,0.0,0.0,0.0,0.0,0.0
4,0.0,-0.0014072265625,0.0,0.0,0.0,0.0,0.0,0.0,-0.001,0.0,0.0,0.0,0.0,0.0,0.0,0.008490946575831392,0.0,0.0,0.0,0.0,0.0,0.0,-44.432,0.0,0.0,0.0,0.0,0.0
5,0.0,-0.0013037109375,0.0,0.0,0.0,0.0,0.0,0.0,0.001,0.0,0.0,0.0,0.0,0.0,0.0,0.011502824804293125,0.0,0.0,0.0,0.0,0.0,0.0,-42.868,0.0,0.0,0.0,0.0,0.0
6,0.0,-0.000583984375,0.0,0.0,0.0,0.0,0.0,0.0,0.034,0.0,0.0,0.0,0.0,0.0,0.0,0.014470294696174984,0.0,0.0,0.0,0.0,0.0,0.0,-38.276,0.0,0.0,0.0,0.0,0.0
7,0.0,0.0004453125,0.0,0.0,0.0,0.0,0.0,0.0,0.088,0.0,0.0,0.0,0.0,0.0,0.0,0.017495321628928497,0.0,0.0,0.0,0.0,0.0,0.0,-36.008,0.0,0.0,0.0,0.0,0.0
8,0.0,0.0015771484375,0.0,0.0,0.0,0.0,0.0,0.0,0.103,0.0,0.0,0.0,0.0,0.0,0.0,0.020504320074276883,0.0,0.0,0.0,0.0,0.0,0.0,-34.66,0.0,0.0,0.0,0.0,0.0
9,0.0,0.0035390625,0.0,0.0,0.0,0.0,0.0,0.0,0.149,0.0,0.0,0.0,0.0,0.0,0.0,0.023493862585124457,0.0,0.0,0.0,0.0,0.0,0.0,-31.42,0.0,0.0,0.0,0.0,0.0
10,0.0,0.0053916015625,0.0,0.0,0.0,0.0,0.0,0.0,0.199,0.0,0.0,0.0,0.0,0.0,0.0,0.026466100368502745,0.0,0.0,0.0,0.0,0.0,0.0,-31.152,0.0,0.0,0.0,0.0,0.0
11,0.0,0.0077587890625,0.0,0.0,0.0,0.0,0.0,0.0,0.197,0.0,0.0,0.0,0.0,0.0,0.0,0.029507483689277483,0.0,0.0,0.0,0.0,0.0,0.0,-30.396,0.0,0.0,0.0,0.0,0.0
12,0.0,0.0107431640625,0.0,0.0,0.0,0.0,0.0,0.0,0.27,0.0,0.0,0.0,0.0,0.0,0.0,0.032506183407318624,0.0,0.0,0.0,0.0,0.0,0.0,-31.26,0.0,0.0,0.0,0.0,0.0
13,0.0,0.0134248046875,0.0,0.0,0.0,0.0,0.0,0.0,0.288,0.0,0.0,0.0,0.0,0.0,0.0,0.035451375485927826,0.0,0.0,0.0,0.0,0.0,0.0,-33.092,0.0,0.0,0.0,0.0,0.0
14,0.0,0.017232421875,0.0,0.0,0.0,0.0,0.0,0.0,0.304,0.0,0.0,0.0,0.0,0.0,0.0,0.038469302049397226,0.0,0.0,0.0,0.0,0.0,0.0,-31.584,0.0,0.0,0.0,0.0,0.0
15,0.0,0.020943359375,0.0,0.0,0.0,0.0,0.0,0.0,0.388,0.0,0.0,0.0,0.0,0.0,0.0,0.041458137968791976,0.0,0.0,0.0,0.0,0.0,0.0,-33.58,0.0,0.0,0.0,0.0,0.0
16,0.0,0.02433984375,0.0,0.0,0.0,0.0,0.0,0.0,0.351,0.0,0.0,0.0,0.0,0.0,0.0,0.044423828510760675,0.0,0.0,0.0,0.0,0.0,0.0,-36.172,0.0,0.0,0.0,0.0,0.0
17,0.0,0.028662109375,0.0,0.0,0.0,0.0,0.0,0.0,0.382,0.0,0.0,0.0,0.0,0.0,0.0,0.04745630745680996,0.0,0.0,0.0,0.0,0.0,0.0,-38.332,0.0,0.0,0.0,0.0,0.0
18,0.0,0.032373046875,0.0,0.0,0.0,0.0,0.0,0.0,0.412,0.0,0.0,0.0,0.0,0.0,0.0,0.0505231316093943,0.0,0.0,0.0,0.0,0.0,0.0,-39.736,0.0,0.0,0.0,0.0,0.0
19,0.0,0.0360771484375,0.0,0.0,0.0,0.0,0.0,0.0,0.364,0.0,0.0,0.0,0.0,0.0,0.0,0.053407818067584885,0.0,0.0,0.0,0.0,0.0,0.0,-42.92,0.0,0.0,0.0,0.0,0.0
20,0.0,0.0403037109375,0.0,0.0,0.0,0.0,0.0,0.0,0.4,0.0,0.0,0.0,0.0,0.0,0.0,0.05641822699877208,0.0,0.0,0.0,0.0,0.0,0.0,-44.54,0.0,0.0,0.0,0.0,0.0
21,0.0,0.04431640625,0.0,0.0,0.0,0.0,0.0,0.0,0.418,0.0,0.0,0.0,0.0,0.0,0.0,0.05943617157454825,0.0,0.0,0.0,0.0,0.0,0.0,-44.808,0.0,0.0,0.0,0.0,0.0
22,0.0,0.0483369140625,0.0,0.0,0.0,0.0,0.0,0.0,0.4,0.0,0.0,0.0,0.0,0.0,0.0,0.06237769045699371,0.0,0.0,0.0,0.0,0.0,0.0,-45.78,0.0,0.0,0.0,0.0,0.0
23,0.0,0.05276171875,0.0,0.0,0.0,0.0,0.0,0.0,0.425,0.0,0.0,0.0,0.0,0.0,0.0,0.06539761084800878,0.0,0.0,0.0,0.0,0.0,0.0,-45.08,0.0,0.0,0.0,0.0,0.0
24,0.0,0.056576171875,0.0,0.0,0.0,0.0,0.0,0.0,0.421,0.0,0.0,0.0,0.0,0.0,0.0,0.06888674253195537,0.0,0.0,0.0,0.0,0.0,0.0,-46.104,0.0,0.0,0.0,0.0,0.0
25,0.0,0.0603837890625,0.0,0.0,0.0,0.0,0.0,0.0,0.377,0.0,0.0,0.0,0.0,0.0,0.0,0.07131857679359925,0.0,0.0,0.0,0.0,0.0,0.0,-47.616,0.0,0.0,0.0,0.0,0.0
26,0.0,0.064087890625,0.0,0.0,0.0,0.0,0.0,0.0,0.378,0.0,0.0,0.0,0.0,0.0,0.0,0.07429462721298435,0.0,0.0,0.0,0.0,0.0,0.0,-48.32,0.0,0.0,0.0,0.0,0.0
27,0.0,0.067490234375,0.0,0.0,0.0,0.0,0.0,0.0,0.36,0.0,0.0,0.0,0.0,0.0,0.0,0.07730031529089192,0.0,0.0,0.0,0.0,0.0,0.0,-47.184,0.0,0.0,0.0,0.0,0.0
28,0.0,0.07150390625,0.0,0.0,0.0,0.0,0.0,0.0,0.367,0.0,0.0,0.0,0.0,0.0,0.0,0.08024165541592151,0.0,0.0,0.0,0.0,0.0,0.0,-45.62,0.0,0.0,0.0,0.0,0.0
29,0.0,0.0757294921875,0.0,0.0,0.0,0.0,0.0,0.0,0.4,0.0,0.0,0.0,0.0,0.0,0.0,0.08322587161050013,0.0,0.0,0.0,0.0,0.0,0.0,-46.16,0.0,0.0,0.0,0.0,0.0
30,0.0,0.07881640625,0.0,0.0,0.0,0.0,0.0,0.0,0.369,0.0,0.0,0.0,0.0,0.0,0.0,0.08620827320080494,0.0,0.0,0.0,0.0,0.0,0.0,-48.86,0.0,0.0,0.0,0.0,0.0
31,0.0,0.0820068359375,0.0,0.0,0.0,0.0,0.0,0.0,0.334,0.0,0.0,0.0,0.0,0.0,0.0,0.08917011137998741,0.0,0.0,0.0,0.0,0.0,0.0,-50.912,0.0,0.0,0.0,0.0,0.0
32,0.0,0.084998046875,0.0,0.0,0.0,0.0,0.0,0.0,0.313,0.0,0.0,0.0,0.0,0.0,0.0,0.09211170646902486,0.0,0.0,0.0,0.0,0.0,0.0,-48.212,0.0,0.0,0.0,0.0,0.0
33,0.0,0.0880849609375,0.0,0.0,0.0,0.0,0.0,0.0,0.305,0.0,0.0,0.0,0.0,0.0,0.0,0.09511614908431573,0.0,0.0,0.0,0.0,0.0,0.0,-46.484,0.0,0.0,0.0,0.0,0.0
34,0.0,0.0914814453125,0.0,0.0,0.0,0.0,0.0,0.0,0.321,0.0,0.0,0.0,0.0,0.0,0.0,0.09803819878569521,0.0,0.0,0.0,0.0,0.0,0.0,-46.86,0.0,0.0,0.0,0.0,0.0
35,0.0,0.0948837890625,0.0,0.0,0.0,0.0,0.0,0.0,0.342,0.0,0.0,0.0,0.0,0.0,0.0,0.10102773191310431,0.0,0.0,0.0,0.0,0.0,0.0,-46.428,0.0,0.0,0.0,0.0,0.0
36,0.0,0.0978681640625,0.0,0.0,0.0,0.0,0.0,0.0,0.333,0.0,0.0,0.0,0.0,0.0,0.0,0.10397770339888499,0.0,0.0,0.0,0.0,0.0,0.0,-47.78,0.0,0.0,0.0,0.0,0.0
37,0.0,0.1004404296875,0.0,0.0,0.0,0.0,0.0,0.0,0.277,0.0,0.0,0.0,0.0,0.0,0.0,0.1069307163007026,0.0,0.0,0.0,0.0,0.0,0.0,-47.184,0.0,0.0,0.0,0.0,0.0
38,0.0,0.1029169921875,0.0,0.0,0.0,0.0,0.0,0.0,0.255,0.0,0.0,0.0,0.0,0.0,0.0,0.10984385911720713,0.0,0.0,0.0,0.0,0.0,0.0,-46.808,0.0,0.0,0.0,0.0,0.0
39,0.0,0.10527734375,0.0,0.0,0.0,0.0,0.0,0.0,0.247,0.0,0.0,0.0,0.0,0.0,0.0,0.11285899777377056,0.0,0.0,0.0,0.0,0.0,0.0,-47.832,0.0,0.0,0.0,0.0,0.0
40,0.0,0.10826171875,0.0,0.0,0.0,0.0,0.0,0.0,0.259,0.0,0.0,0.0,0.0,0.0,0.0,0.11575805384196283,0.0,0.0,0.0,0.0,0.0,0.0,-45.78,0.0,0.0,0.0,0.0,0.0
41,0.0,0.1111494140625,0.0,0.0,0.0,0.0,0.0,0.0,0.3,0.0,0.0,0.0,0.0,0.0,0.0,0.11869525136536438,0.0,0.0,0.0,0.0,0.0,0.0,-45.78,0.0,0.0,0.0,0.0,0.0
42,0.0,0.1135166015625,0.0,0.0,0.0,0.0,0.0,0.0,0.265,0.0,0.0,0.0,0.0,0.0,0.0,0.12163621544006295,0.0,0.0,0.0,0.0,0.0,0.0,-45.944,0.0,0.0,0.0,0.0,0.0
43,0.0,0.1158828125,0.0,0.0,0.0,0.0,0.0,0.0,0.239,0.0,0.0,0.0,0.0,0.0,0.0,0.12456797789733051,0.0,0.0,0.0,0.0,0.0,0.0,-45.62,0.0,0.0,0.0,0.0,0.0
44,0.0,0.118353515625,0.0,0.0,0.0,0.0,0.0,0.0,0.241,0.0,0.0,0.0,0.0,0.0,0.0,0.12748580221959085,0.0,0.0,0.0,0.0,0.0,0.0,-41.032,0.0,0.0,0.0,0.0,0.0
45,0.0,0.1208291015625,0.0,0.0,0.0,0.0,0.0,0.0,0.253,0.0,0.0,0.0,0.0,0.0,0.0,0.13044794684900948,0.0,0.0,0.0,0.0,0.0,0.0,-42.004,0.0,0.0,0.0,0.0,0.0
46,0.0,0.12340234375,0.0,0.0,0.0,0.0,0.0,0.0,0.246,0.0,0.0,0.0,0.0,0.0,0.0,0.1333490864315937,0.0,0.0,0.0,0.0,0.0,0.0,-43.62,0.0,0.0,0.0,0.0,0.0
47,0.0,0.1261806640625,0.0,0.0,0.0,0.0,0.0,0.0,0.266,0.0,0.0,0.0,0.0,0.0,0.0,0.13626889195265487,0.0,0.0,0.0,0.0,0.0,0.0,-43.028,0.0,0.0,0.0,0.0,0.0
48,0.0,0.1285478515625,0.0,0.0,0.0,0.0,0.0,0.0,0.268,0.0,0.0,0.0,0.0,0.0,0.0,0.13920450136149268,0.0,0.0,0.0,0.0,0.0,0.0,-42.976,0.0,0.0,0.0,0.0,0.0
49,0.0,0.131126953125,0.0,0.0,0.0,0.0,0.0,0.0,0.239,0.0,0.0,0.0,0.0,0.0,0.0,0.14210893603518202,0.0,0.0,0.0,0.0,0.0,0.0,-41.14,0.0,0.0,0.0,0.0,0.0
50,0.0,0.1340078125,0.0,0.0,0.0,0.0,0.0,0.0,0.279,0.0,0.0,0.0,0.0,0.0,0.0,0.14502733712655974,0.0,0.0,0.0,0.0,0.0,0.0,-41.624,0.0,0.0,0.0,0.0,0.0
51,0.0,0.1365810546875,0.0,0.0,0.0,0.0,0.0,0.0,0.272,0.0,0.0,0.0,0.0,0.0,0.0,0.14796594370340121,0.0,0.0,0.0,0.0,0.0,0.0,-42.272,0.0,0.0,0.0,0.0,0.0
52,0.0,0.1398798828125,0.0,0.0,0.0,0.0,0.0,0.0,0.286,0.0,0.0,0.0,0.0,0.0,0.0,0.1508632548885408,0.0,0.0,0.0,0.0,0.0,0.0,-41.356,0.0,0.0,0.0,0.0,0.0
53,0.0,0.1428642578125,0.0,0.0,0.0,0.0,0.0,0.0,0.311,0.0,0.0,0.0,0.0,0.0,0.0,0.15374616855061798,0.0,0.0,0.0,0.0,0.0,0.0,-43.084,0.0,0.0,0.0,0.0,0.0
54,0.0,0.14523828125,0.0,0.0,0.0,0.0,0.0,0.0,0.262,0.0,0.0,0.0,0.0,0.0,0.0,0.15665822276026825,0.0,0.0,0.0,0.0,0.0,0.0,-42.596,0.0,0.0,0.0,0.0,0.0
55,0.0,0.14833203125,0.0,0.0,0.0,0.0,0.0,0.0,0.288,0.0,0.0,0.0,0.0,0.0,0.0,0.15957101073593982,0.0,0.0,0.0,0.0,0.0,0.0,-43.352,0.0,0.0,0.0,0.0,0.0
56,0.0,0.150904296875,0.0,0.0,0.0,0.0,0.0,0.0,0.285,0.0,0.0,0.0,0.0,0.0,0.0,0.16242832346208722,0.0,0.0,0.0,0.0,0.0,0.0,-44.324,0.0,0.0,0.0,0.0,0.0
57,0.0,0.154609375,0.0,0.0,0.0,0.0,0.0,0.0,0.294,0.0,0.0,0.0,0.0,0.0,0.0,0.16532580906178324,0.0,0.0,0.0,0.0,0.0,0.0,-41.408,0.0,0.0,0.0,0.0,0.0
58,0.0,0.1574970703125,0.0,0.0,0.0,0.0,0.0,0.0,0.344,0.0,0.0,0.0,0.0,0.0,0.0,0.16821796118844687,0.0,0.0,0.0,0.0,0.0,0.0,-43.136,0.0,0.0,0.0,0.0,0.0
59,0.0,0.160583984375,0.0,0.0,0.0,0.0,0.0,0.0,0.292,0.0,0.0,0.0,0.0,0.0,0.0,0.17106906290681512,0.0,0.0,0.0,0.0,0.0,0.0,-43.404,0.0,0.0,0.0,0.0,0.0
60,0.0,0.163568359375,0.0,0.0,0.0,0.0,0.0,0.0,0.305,0.0,0.0,0.0,0.0,0.0,0.0,0.17397511039379046,0.0,0.0,0.0,0.0,0.0,0.0,-44.108,0.0,0.0,0.0,0.0,0.0
61,0.0,0.1664560546875,0.0,0.0,0.0,0.0,0.0,0.0,0.297,0.0,0.0,0.0,0.0,0.0,0.0,0.17689133502724744,0.0,0.0,0.0,0.0,0.0,0.0,-44.052,0.0,0.0,0.0,0.0,0.0
62,0.0,0.1692353515625,0.0,0.0,0.0,0.0,0.0,0.0,0.275,0.0,0.0,0.0,0.0,0.0,0.0,0.1796896427129969,0.0,0.0,0.0,0.0,0.0,0.0,-42.056,0.0,0.0,0.0,0.0,0.0
63,0.0,0.172939453125,0.0,0.0,0.0,0.0,0.0,0.0,0.334,0.0,0.0,0.0,0.0,0.0,0.0,0.1825654261521606,0.0,0.0,0.0,0.0,0.0,0.0,-43.892,0.0,0.0,0.0,0.0,0.0
64,0.0,0.1758271484375,0.0,0.0,0.0,0.0,0.0,0.0,0.309,0.0,0.0,0.0,0.0,0.0,0.0,0.18543428224993377,0.0,0.0,0.0,0.0,0.0,0.0,-45.188,0.0,0.0,0.0,0.0,0.0
65,0.0,0.1786064453125,0.0,0.0,0.0,0.0,0.0,0.0,0.3,0.0,0.0,0.0,0.0,0.0,0.0,0.18825091978577635,0.0,0.0,0.0,0.0,0.0,0.0,-45.944,0.0,0.0,0.0,0.0,0.0
66,0.0,0.1815908203125,0.0,0.0,0.0,0.0,0.0,0.0,0.294,0.0,0.0,0.0,0.0,0.0,0.0,0.19108940592483104,0.0,0.0,0.0,0.0,0.0,0.0,-45.348,0.0,0.0,0.0,0.0,0.0
67,0.0,0.1838544921875,0.0,0.0,0.0,0.0,0.0,0.0,0.26,0.0,0.0,0.0,0.0,0.0,0.0,0.1939679485568054,0.0,0.0,0.0,0.0,0.0,0.0,-44.916,0.0,0.0,0.0,0.0,0.0
68,0.0,0.187462890625,0.0,0.0,0.0,0.0,0.0,0.0,0.289,0.0,0.0,0.0,0.0,0.0,0.0,0.19676164820841227,0.0,0.0,0.0,0.0,0.0,0.0,-43.192,0.0,0.0,0.0,0.0,0.0
69,0.0,0.1905498046875,0.0,0.0,0.0,0.0,0.0,0.0,0.329,0.0,0.0,0.0,0.0,0.0,0.0,0.19959698378775456,0.0,0.0,0.0,0.0,0.0,0.0,-42.92,0.0,0.0,0.0,0.0,0.0
70,0.0,0.19363671875,0.0,0.0,0.0,0.0,0.0,0.0,0.309,0.0,0.0,0.0,0.0,0.0,0.0,0.20245350827990935,0.0,0.0,0.0,0.0,0.0,0.0,-43.62,0.0,0.0,0.0,0.0,0.0
71,0.0,0.1963193359375,0.0,0.0,0.0,0.0,0.0,0.0,0.311,0.0,0.0,0.0,0.0,0.0,0.0,0.2052494161161625,0.0,0.0,0.0,0.0,0.0,0.0,-44.432,0.0,0.0,0.0,0.0,0.0
72,0.0,0.1989951171875,0.0,0.0,0.0,0.0,0.0,0.0,0.27,0.0,0.0,0.0,0.0,0.0,0.0,0.20805175760553798,0.0,0.0,0.0,0.0,0.0,0.0,-44.376,0.0,0.0,0.0,0.0,0.0
73,0.0,0.2015673828125,0.0,0.0,0.0,0.0,0.0,0.0,0.245,0.0,0.0,0.0,0.0,0.0,0.0,0.21088490882800343,0.0,0.0,0.0,0.0,0.0,0.0,-43.892,0.0,0.0,0.0,0.0,0.0
74,0.0,0.20455859375,0.0,0.0,0.0,0.0,0.0,0.0,0.279,0.0,0.0,0.0,0.0,0.0,0.0,0.2136698638689235,0.0,0.0,0.0,0.0,0.0,0.0,-42.868,0.0,0.0,0.0,0.0,0.0
75,0.0,0.20754296875,0.0,0.0,0.0,0.0,0.0,0.0,0.298,0.0,0.0,0.0,0.0,0.0,0.0,0.2164693693750631,0.0,0.0,0.0,0.0,0.0,0.0,-43.728,0.0,0.0,0.0,0.0,0.0
76,0.0,0.210423828125,0.0,0.0,0.0,0.0,0.0,0.0,0.297,0.0,0.0,0.0,0.0,0.0,0.0,0.21928916663304565,0.0,0.0,0.0,0.0,0.0,0.0,-46.268,0.0,0.0,0.0,0.0,0.0
77,0.0,0.2132021484375,0.0,0.0,0.0,0.0,0.0,0.0,0.284,0.0,0.0,0.0,0.0,0.0,0.0,0.2220730192778063,0.0,0.0,0.0,0.0,0.0,0.0,-44.648,0.0,0.0,0.0,0.0,0.0
78,0.0,0.2156787109375,0.0,0.0,0.0,0.0,0.0,0.0,0.271,0.0,0.0,0.0,0.0,0.0,0.0,0.22483934065906735,0.0,0.0,0.0,0.0,0.0,0.0,-44.108,0.0,0.0,0.0,0.0,0.0
79,0.0,0.2180458984375,0.0,0.0,0.0,0.0,0.0,0.0,0.24,0.0,0.0,0.0,0.0,0.0,0.0,0.22764345999180208,0.0,0.0,0.0,0.0,0.0,0.0,-44.592,0.0,0.0,0.0,0.0,0.0
80,0.0,0.2210302734375,0.0,0.0,0.0,0.0,0.0,0.0,0.263,0.0,0.0,0.0,0.0,0.0,0.0,0.23040387561198947,0.0,0.0,0.0,0.0,0.0,0.0,-43.136,0.0,0.0,0.0,0.0,0.0
81,0.0,0.2241240234375,0.0,0.0,0.0,0.0,0.0,0.0,0.307,0.0,0.0,0.0,0.0,0.0,0.0,0.23317617898319307,0.0,0.0,0.0,0.0,0.0,0.0,-42.164,0.0,0.0,0.0,0.0,0.0
82,0.0,0.2266962890625,0.0,0.0,0.0,0.0,0.0,0.0,0.287,0.0,0.0,0.0,0.0,0.0,0.0,0.23594795780520075,0.0,0.0,0.0,0.0,0.0,0.0,-43.944,0.0,0.0,0.0,0.0,0.0
83,0.0,0.22926953125,0.0,0.0,0.0,0.0,0.0,0.0,0.261,0.0,0.0,0.0,0.0,0.0,0.0,0.2386779633043605,0.0,0.0,0.0,0.0,0.0,0.0,-44.268,0.0,0.0,0.0,0.0,0.0
84,0.0,0.231841796875,0.0,0.0,0.0,0.0,0.0,0.0,0.258,0.0,0.0,0.0,0.0,0.0,0.0,0.2414370121220914,0.0,0.0,0.0,0.0,0.0,0.0,-41.572,0.0,0.0,0.0,0.0,0.0
85,0.0,0.234318359375,0.0,0.0,0.0,0.0,0.0,0.0,0.253,0.0,0.0,0.0,0.0,0.0,0.0,0.24423545428285692,0.0,0.0,0.0,0.0,0.0,0.0,-41.3,0.0,0.0,0.0,0.0,0.0
86,0.0,0.2370966796875,0.0,0.0,0.0,0.0,0.0,0.0,0.258,0.0,0.0,0.0,0.0,0.0,0.0,0.24693132986744806,0.0,0.0,0.0,0.0,0.0,0.0,-43.244,0.0,0.0,0.0,0.0,0.0
87,0.0,0.239978515625,0.0,0.0,0.0,0.0,0.0,0.0,0.283,0.0,0.0,0.0,0.0,0.0,0.0,0.24964515221336656,0.0,0.0,0.0,0.0,0.0,0.0,-44.54,0.0,0.0,0.0,0.0,0.0
88,0.0,0.2424541015625,0.0,0.0,0.0,0.0,0.0,0.0,0.269,0.0,0.0,0.0,0.0,0.0,0.0,0.25239641848329325,0.0,0.0,0.0,0.0,0.0,0.0,-45.404,0.0,0.0,0.0,0.0,0.0
89,0.0,0.24502734375,0.0,0.0,0.0,0.0,0.0,0.0,0.257,0.0,0.0,0.0,0.0,0.0,0.0,0.2550975538088983,0.0,0.0,0.0,0.0,0.0,0.0,-43.568,0.0,0.0,0.0,0.0,0.0
90,0.0,0.247703125,0.0,0.0,0.0,0.0,0.0,0.0,0.27,0.0,0.0,0.0,0.0,0.0,0.0,0.2578159024337932,0.0,0.0,0.0,0.0,0.0,0.0,-42.004,0.0,0.0,0.0,0.0,0.0
91,0.0,0.2506875,0.0,0.0,0.0,0.0,0.0,0.0,0.276,0.0,0.0,0.0,0.0,0.0,0.0,0.26052242836529194,0.0,0.0,0.0,0.0,0.0,0.0,-39.356,0.0,0.0,0.0,0.0,0.0
92,0.0,0.253677734375,0.0,0.0,0.0,0.0,0.0,0.0,0.305,0.0,0.0,0.0,0.0,0.0,0.0,0.26320868225837957,0.0,0.0,0.0,0.0,0.0,0.0,-42.164,0.0,0.0,0.0,0.0,0.0
93,0.0,0.2562509765625,0.0,0.0,0.0,0.0,0.0,0.0,0.283,0.0,0.0,0.0,0.0,0.0,0.0,0.26589835727850186,0.0,0.0,0.0,0.0,0.0,0.0,-42.92,0.0,0.0,0.0,0.0,0.0
94,0.0,0.259029296875,0.0,0.0,0.0,0.0,0.0,0.0,0.266,0.0,0.0,0.0,0.0,0.0,0.0,0.2686270014601748,0.0,0.0,0.0,0.0,0.0,0.0,-42.976,0.0,0.0,0.0,0.0,0.0
95,0.0,0.26129296875,0.0,0.0,0.0,0.0,0.0,0.0,0.251,0.0,0.0,0.0,0.0,0.0,0.0,0.2712566572343439,0.0,0.0,0.0,0.0,0.0,0.0,-43.192,0.0,0.0,0.0,0.0,0.0
96,0.0,0.2642841796875,0.0,0.0,0.0,0.0,0.0,0.0,0.252,0.0,0.0,0.0,0.0,0.0,0.0,0.2739238176306928,0.0,0.0,0.0,0.0,0.0,0.0,-41.192,0.0,0.0,0.0,0.0,0.0
97,0.0,0.26737109375,0.0,0.0,0.0,0.0,0.0,0.0,0.313,0.0,0.0,0.0,0.0,0.0,0.0,0.2766233193209898,0.0,0.0,0.0,0.0,0.0,0.0,-42.328,0.0,0.0,0.0,0.0,0.0
98,0.0,0.27035546875,0.0,0.0,0.0,0.0,0.0,0.0,0.305,0.0,0.0,0.0,0.0,0.0,0.0,0.2792540699905961,0.0,0.0,0.0,0.0,0.0,0.0,-42.596,0.0,0.0,0.0,0.0,0.0
99,0.0,0.2733466796875,0.0,0.0,0.0,0.0,0.0,0.0,0.307,0.0,0.0,0.0,0.0,0.0,0.0,0.2819008421379929,0.0,0.0,0.0,0.0,0.0,0.0,-43.728,0.0,0.0,0.0,0.0,0.0
100,0.0,0.2756103515625,0.0,0.0,0.0,0.0,0.0,0.0,0.27,0.0,0.0,0.0,0.0,0.0,0.0,0.2845650887360914,0.0,0.0,0.0,0.0,0.0,0.0,-44.324,0.0,0.0,0.0,0.0,0.0
101,0.0,0.278080078125,0.0,0.0,0.0,0.0,0.0,0.0,0.226,0.0,0.0,0.0,0.0,0.0,0.0,0.2872216133042198,0.0,0.0,0.0,0.0,0.0,0.0,-42.704,0.0,0.0,0.0,0.0,0.0
102,0.0,0.281064453125,0.0,0.0,0.0,0.0,0.0,0.0,0.276,0.0,0.0,0.0,0.0,0.0,0.0,0.2898356579166497,0.0,0.0,0.0,0.0,0.0,0.0,-42.004,0.0,0.0,0.0,0.0,0.0
103,0.0,0.2839521484375,0.0,0.0,0.0,0.0,0.0,0.0,0.294,0.0,0.0,0.0,0.0,0.0,0.0,0.2924556615625825,0.0,0.0,0.0,0.0,0.0,0.0,-42.488,0.0,0.0,0.0,0.0,0.0
104,0.0,0.287142578125,0.0,0.0,0.0,0.0,0.0,0.0,0.306,0.0,0.0,0.0,0.0,0.0,0.0,0.29507123608251623,0.0,0.0,0.0,0.0,0.0,0.0,-43.084,0.0,0.0,0.0,0.0,0.0
105,0.0,0.289818359375,0.0,0.0,0.0,0.0,0.0,0.0,0.307,0.0,0.0,0.0,0.0,0.0,0.0,0.29767601964941903,0.0,0.0,0.0,0.0,0.0,0.0,-44.756,0.0,0.0,0.0,0.0,0.0
106,0.0,0.2921845703125,0.0,0.0,0.0,0.0,0.0,0.0,0.246,0.0,0.0,0.0,0.0,0.0,0.0,0.3002941885363616,0.0,0.0,0.0,0.0,0.0,0.0,-43.568,0.0,0.0,0.0,0.0,0.0
107,0.0,0.2948671875,0.0,0.0,0.0,0.0,0.0,0.0,0.249,0.0,0.0,0.0,0.0,0.0,0.0,0.3029588347313154,0.0,0.0,0.0,0.0,0.0,0.0,-42.328,0.0,0.0,0.0,0.0,0.0
108,0.0,0.297439453125,0.0,0.0,0.0,0.0,0.0,0.0,0.267,0.0,0.0,0.0,0.0,0.0,0.0,0.30545285031272623,0.0,0.0,0.0,0.0,0.0,0.0,-42.056,0.0,0.0,0.0,0.0,0.0
109,0.0,0.300115234375,0.0,0.0,0.0,0.0,0.0,0.0,0.267,0.0,0.0,0.0,0.0,0.0,0.0,0.30806025597517894,0.0,0.0,0.0,0.0,0.0,0.0,-45.24,0.0,0.0,0.0,0.0,0.0
110,0.0,0.3027978515625,0.0,0.0,0.0,0.0,0.0,0.0,0.267,0.0,0.0,0.0,0.0,0.0,0.0,0.31062747527178275,0.0,0.0,0.0,0.0,0.0,0.0,-46.428,0.0,0.0,0.0,0.0,0.0
111,0.0,0.30547265625,0.0,0.0,0.0,0.0,0.0,0.0,0.268,0.0,0.0,0.0,0.0,0.0,0.0,0.31316516862481847,0.0,0.0,0.0,0.0,0.0,0.0,-41.896,0.0,0.0,0.0,0.0,0.0
112,0.0,0.30783984375,0.0,0.0,0.0,0.0,0.0,0.0,0.26,0.0,0.0,0.0,0.0,0.0,0.0,0.31572857746976274,0.0,0.0,0.0,0.0,0.0,0.0,-42.488,0.0,0.0,0.0,0.0,0.0
113,0.0,0.31020703125,0.0,0.0,0.0,0.0,0.0,0.0,0.229,0.0,0.0,0.0,0.0,0.0,0.0,0.3183369714172604,0.0,0.0,0.0,0.0,0.0,0.0,-43.676,0.0,0.0,0.0,0.0,0.0
114,0.0,0.3129921875,0.0,0.0,0.0,0.0,0.0,0.0,0.259,0.0,0.0,0.0,0.0,0.0,0.0,0.3208039335463224,0.0,0.0,0.0,0.0,0.0,0.0,-42.436,0.0,0.0,0.0,0.0,0.0
115,0.0,0.3154619140625,0.0,0.0,0.0,0.0,0.0,0.0,0.27,0.0,0.0,0.0,0.0,0.0,0.0,0.32335659667387096,0.0,0.0,0.0,0.0,0.0,0.0,-42.112,0.0,0.0,0.0,0.0,0.0
116,0.0,0.3177255859375,0.0,0.0,0.0,0.0,0.0,0.0,0.237,0.0,0.0,0.0,0.0,0.0,0.0,0.32588764543578774,0.0,0.0,0.0,0.0,0.0,0.0,-43.512,0.0,0.0,0.0,0.0,0.0
117,0.0,0.3199892578125,0.0,0.0,0.0,0.0,0.0,0.0,0.229,0.0,0.0,0.0,0.0,0.0,0.0,0.3283711060175751,0.0,0.0,0.0,0.0,0.0,0.0,-43.676,0.0,0.0,0.0,0.0,0.0
118,0.0,0.3225625,0.0,0.0,0.0,0.0,0.0,0.0,0.24,0.0,0.0,0.0,0.0,0.0,0.0,0.33087132344177256,0.0,0.0,0.0,0.0,0.0,0.0,-40.112,0.0,0.0,0.0,0.0,0.0
119,0.0,0.3251416015625,0.0,0.0,0.0,0.0,0.0,0.0,0.259,0.0,0.0,0.0,0.0,0.0,0.0,0.33342610936623607,0.0,0.0,0.0,0.0,0.0,0.0,-40.112,0.0,0.0,0.0,0.0,0.0
120,0.0,0.3277138671875,0.0,0.0,0.0,0.0,0.0,0.0,0.255,0.0,0.0,0.0,0.0,0.0,0.0,0.3358626571810373,0.0,0.0,0.0,0.0,0.0,0.0,-41.624,0.0,0.0,0.0,0.0,0.0
121,0.0,0.3303896484375,0.0,0.0,0.0,0.0,0.0,0.0,0.264,0.0,0.0,0.0,0.0,0.0,0.0,0.3383423797037618,0.0,0.0,0.0,0.0,0.0,0.0,-41.516,0.0,0.0,0.0,0.0,0.0
122,0.0,0.33255078125,0.0,0.0,0.0,0.0,0.0,0.0,0.25,0.0,0.0,0.0,0.0,0.0,0.0,0.3408662820934551,0.0,0.0,0.0,0.0,0.0,0.0,-42.76,0.0,0.0,0.0,0.0,0.0
123,0.0,0.33471875,0.0,0.0,0.0,0.0,0.0,0.0,0.215,0.0,0.0,0.0,0.0,0.0,0.0,0.3432871051545932,0.0,0.0,0.0,0.0,0.0,0.0,-42.596,0.0,0.0,0.0,0.0,0.0
124,0.0,0.3371884765625,0.0,0.0,0.0,0.0,0.0,0.0,0.232,0.0,0.0,0.0,0.0,0.0,0.0,0.34576184749862804,0.0,0.0,0.0,0.0,0.0,0.0,-42.488,0.0,0.0,0.0,0.0,0.0
125,0.0,0.339658203125,0.0,0.0,0.0,0.0,0.0,0.0,0.247,0.0,0.0,0.0,0.0,0.0,0.0,0.3482056219609518,0.0,0.0,0.0,0.0,0.0,0.0,-42.596,0.0,0.0,0.0,0.0,0.0
126,0.0,0.3425390625,0.0,0.0,0.0,0.0,0.0,0.0,0.263,0.0,0.0,0.0,0.0,0.0,0.0,0.35063444904652336,0.0,0.0,0.0,0.0,0.0,0.0,-42.112,0.0,0.0,0.0,0.0,0.0
127,0.0,0.3451181640625,0.0,0.0,0.0,0.0,0.0,0.0,0.281,0.0,0.0,0.0,0.0,0.0,0.0,0.35306782507077994,0.0,0.0,0.0,0.0,0.0,0.0,-41.84,0.0,0.0,0.0,0.0,0.0
128,0.0,0.3474853515625,0.0,0.0,0.0,0.0,0.0,0.0,0.25,0.0,0.0,0.0,0.0,0.0,0.0,0.355523118130672,0.0,0.0,0.0,0.0,0.0,0.0,-41.408,0.0,0.0,0.0,0.0,0.0
129,0.0,0.349755859375,0.0,0.0,0.0,0.0,0.0,0.0,0.23,0.0,0.0,0.0,0.0,0.0,0.0,0.3578984334975488,0.0,0.0,0.0,0.0,0.0,0.0,-41.624,0.0,0.0,0.0,0.0,0.0
130,0.0,0.352123046875,0.0,0.0,0.0,0.0,0.0,0.0,0.23,0.0,0.0,0.0,0.0,0.0,0.0,0.3603094563830873,0.0,0.0,0.0,0.0,0.0,0.0,-40.76,0.0,0.0,0.0,0.0,0.0
131,0.0,0.3547021484375,0.0,0.0,0.0,0.0,0.0,0.0,0.246,0.0,0.0,0.0,0.0,0.0,0.0,0.36273249491235027,0.0,0.0,0.0,0.0,0.0,0.0,-40.6,0.0,0.0,0.0,0.0,0.0
132,0.0,0.3572744140625,0.0,0.0,0.0,0.0,0.0,0.0,0.262,0.0,0.0,0.0,0.0,0.0,0.0,0.3651312056203168,0.0,0.0,0.0,0.0,0.0,0.0,-41.732,0.0,0.0,0.0,0.0,0.0
133,0.0,0.3596416015625,0.0,0.0,0.0,0.0,0.0,0.0,0.264,0.0,0.0,0.0,0.0,0.0,0.0,0.36744740748391763,0.0,0.0,0.0,0.0,0.0,0.0,-42.544,0.0,0.0,0.0,0.0,0.0
134,0.0,0.3623173828125,0.0,0.0,0.0,0.0,0.0,0.0,0.254,0.0,0.0,0.0,0.0,0.0,0.0,0.3698332860083268,0.0,0.0,0.0,0.0,0.0,0.0,-43.136,0.0,0.0,0.0,0.0,0.0
135,0.0,0.364478515625,0.0,0.0,0.0,0.0,0.0,0.0,0.229,0.0,0.0,0.0,0.0,0.0,0.0,0.37222867562728995,0.0,0.0,0.0,0.0,0.0,0.0,-42.704,0.0,0.0,0.0,0.0,0.0
136,0.0,0.3669541015625,0.0,0.0,0.0,0.0,0.0,0.0,0.232,0.0,0.0,0.0,0.0,0.0,0.0,0.3745300312304638,0.0,0.0,0.0,0.0,0.0,0.0,-41.248,0.0,0.0,0.0,0.0,0.0
137,0.0,0.36952734375,0.0,0.0,0.0,0.0,0.0,0.0,0.251,0.0,0.0,0.0,0.0,0.0,0.0,0.3768992001661276,0.0,0.0,0.0,0.0,0.0,0.0,-40.976,0.0,0.0,0.0,0.0,0.0
138,0.0,0.3719970703125,0.0,0.0,0.0,0.0,0.0,0.0,0.255,0.0,0.0,0.0,0.0,0.0,0.0,0.37925127511094864,0.0,0.0,0.0,0.0,0.0,0.0,-42.328,0.0,0.0,0.0,0.0,0.0
139,0.0,0.3745693359375,0.0,0.0,0.0,0.0,0.0,0.0,0.256,0.0,0.0,0.0,0.0,0.0,0.0,0.38151518954485186,0.0,0.0,0.0,0.0,0.0,0.0,-42.436,0.0,0.0,0.0,0.0,0.0
140,0.0,0.37653125,0.0,0.0,0.0,0.0,0.0,0.0,0.235,0.0,0.0,0.0,0.0,0.0,0.0,0.3838430874769559,0.0,0.0,0.0,0.0,0.0,0.0,-44.0,0.0,0.0,0.0,0.0,0.0
141,0.0,0.37858984375,0.0,0.0,0.0,0.0,0.0,0.0,0.192,0.0,0.0,0.0,0.0,0.0,0.0,0.3861511723797545,0.0,0.0,0.0,0.0,0.0,0.0,-41.788,0.0,0.0,0.0,0.0,0.0
142,0.0,0.381162109375,0.0,0.0,0.0,0.0,0.0,0.0,0.231,0.0,0.0,0.0,0.0,0.0,0.0,0.3884424569638273,0.0,0.0,0.0,0.0,0.0,0.0,-39.896,0.0,0.0,0.0,0.0,0.0
143,0.0,0.383529296875,0.0,0.0,0.0,0.0,0.0,0.0,0.255,0.0,0.0,0.0,0.0,0.0,0.0,0.39071702825760685,0.0,0.0,0.0,0.0,0.0,0.0,-41.3,0.0,0.0,0.0,0.0,0.0
144,0.0,0.3859990234375,0.0,0.0,0.0,0.0,0.0,0.0,0.236,0.0,0.0,0.0,0.0,0.0,0.0,0.3930215078239403,0.0,0.0,0.0,0.0,0.0,0.0,-43.404,0.0,0.0,0.0,0.0,0.0
145,0.0,0.3881669921875,0.0,0.0,0.0,0.0,0.0,0.0,0.237,0.0,0.0,0.0,0.0,0.0,0.0,0.39523257808082846,0.0,0.0,0.0,0.0,0.0,0.0,-42.868,0.0,0.0,0.0,0.0,0.0
146,0.0,0.390224609375,0.0,0.0,0.0,0.0,0.0,0.0,0.213,0.0,0.0,0.0,0.0,0.0,0.0,0.3974964681413371,0.0,0.0,0.0,0.0,0.0,0.0,-39.952,0.0,0.0,0.0,0.0,0.0
147,0.0,0.3923857421875,0.0,0.0,0.0,0.0,0.0,0.0,0.212,0.0,0.0,0.0,0.0,0.0,0.0,0.39976439846028916,0.0,0.0,0.0,0.0,0.0,0.0,-39.572,0.0,0.0,0.0,0.0,0.0
148,0.0,0.39485546875,0.0,0.0,0.0,0.0,0.0,0.0,0.232,0.0,0.0,0.0,0.0,0.0,0.0,0.4019640138765586,0.0,0.0,0.0,0.0,0.0,0.0,-39.952,0.0,0.0,0.0,0.0,0.0
149,0.0,0.3973251953125,0.0,0.0,0.0,0.0,0.0,0.0,0.247,0.0,0.0,0.0,0.0,0.0,0.0,0.4041957385785074,0.0,0.0,0.0,0.0,0.0,0.0,-41.572,0.0,0.0,0.0,0.0,0.0
150,0.0,0.399595703125,0.0,0.0,0.0,0.0,0.0,0.0,0.236,0.0,0.0,0.0,0.0,0.0,0.0,0.4064199550094555,0.0,0.0,0.0,0.0,0.0,0.0,-41.408,0.0,0.0,0.0,0.0,0.0
151,0.0,0.4017568359375,0.0,0.0,0.0,0.0,0.0,0.0,0.231,0.0,0.0,0.0,0.0,0.0,0.0,0.40859194593467346,0.0,0.0,0.0,0.0,0.0,0.0,-41.14,0.0,0.0,0.0,0.0,0.0
152,0.0,0.403609375,0.0,0.0,0.0,0.0,0.0,0.0,0.202,0.0,0.0,0.0,0.0,0.0,0.0,0.41079898992249814,0.0,0.0,0.0,0.0,0.0,0.0,-42.436,0.0,0.0,0.0,0.0,0.0
153,0.0,0.4059765625,0.0,0.0,0.0,0.0,0.0,0.0,0.201,0.0,0.0,0.0,0.0,0.0,0.0,0.4129832712529546,0.0,0.0,0.0,0.0,0.0,0.0,-41.14,0.0,0.0,0.0,0.0,0.0
154,0.0,0.4084462890625,0.0,0.0,0.0,0.0,0.0,0.0,0.248,0.0,0.0,0.0,0.0,0.0,0.0,0.4151387654407265,0.0,0.0,0.0,0.0,0.0,0.0,-41.248,0.0,0.0,0.0,0.0,0.0
155,0.0,0.4105107421875,0.0,0.0,0.0,0.0,0.0,0.0,0.231,0.0,0.0,0.0,0.0,0.0,0.0,0.41730386808103553,0.0,0.0,0.0,0.0,0.0,0.0,-43.084,0.0,0.0,0.0,0.0,0.0
156,0.0,0.412671875,0.0,0.0,0.0,0.0,0.0,0.0,0.209,0.0,0.0,0.0,0.0,0.0,0.0,0.41948529427858816,0.0,0.0,0.0,0.0,0.0,0.0,-43.028,0.0,0.0,0.0,0.0,0.0
157,0.0,0.4147294921875,0.0,0.0,0.0,0.0,0.0,0.0,0.219,0.0,0.0,0.0,0.0,0.0,0.0,0.4215936391299225,0.0,0.0,0.0,0.0,0.0,0.0,-40.708,0.0,0.0,0.0,0.0,0.0
158,0.0,0.41658203125,0.0,0.0,0.0,0.0,0.0,0.0,0.198,0.0,0.0,0.0,0.0,0.0,0.0,0.42371849087438046,0.0,0.0,0.0,0.0,0.0,0.0,-41.192,0.0,0.0,0.0,0.0,0.0
159,0.0,0.4187431640625,0.0,0.0,0.0,0.0,0.0,0.0,0.195,0.0,0.0,0.0,0.0,0.0,0.0,0.4258634292019589,0.0,0.0,0.0,0.0,0.0,0.0,-39.844,0.0,0.0,0.0,0.0,0.0
160,0.0,0.4211162109375,0.0,0.0,0.0,0.0,0.0,0.0,0.229,0.0,0.0,0.0,0.0,0.0,0.0,0.4279650719150789,0.0,0.0,0.0,0.0,0.0,0.0,-40.76,0.0,0.0,0.0,0.0,0.0
161,0.0,0.4228662109375,0.0,0.0,0.0,0.0,0.0,0.0,0.207,0.0,0.0,0.0,0.0,0.0,0.0,0.4300487478618417,0.0,0.0,0.0,0.0,0.0,0.0,-41.732,0.0,0.0,0.0,0.0,0.0
162,0.0,0.4251298828125,0.0,0.0,0.0,0.0,0.0,0.0,0.198,0.0,0.0,0.0,0.0,0.0,0.0,0.4321526757181831,0.0,0.0,0.0,0.0,0.0,0.0,-39.628,0.0,0.0,0.0,0.0,0.0
163,0.0,0.426982421875,0.0,0.0,0.0,0.0,0.0,0.0,0.217,0.0,0.0,0.0,0.0,0.0,0.0,0.43421012951706395,0.0,0.0,0.0,0.0,0.0,0.0,-40.868,0.0,0.0,0.0,0.0,0.0
164,0.0,0.42862890625,0.0,0.0,0.0,0.0,0.0,0.0,0.168,0.0,0.0,0.0,0.0,0.0,0.0,0.43627881897174786,0.0,0.0,0.0,0.0,0.0,0.0,-41.032,0.0,0.0,0.0,0.0,0.0
165,0.0,0.4310986328125,0.0,0.0,0.0,0.0,0.0,0.0,0.202,0.0,0.0,0.0,0.0,0.0,0.0,0.4384616722869313,0.0,0.0,0.0,0.0,0.0,0.0,-40.6,0.0,0.0,0.0,0.0,0.0
166,0.0,0.433060546875,0.0,0.0,0.0,0.0,0.0,0.0,0.225,0.0,0.0,0.0,0.0,0.0,0.0,0.44037470825514075,0.0,0.0,0.0,0.0,0.0,0.0,-40.276,0.0,0.0,0.0,0.0,0.0
167,0.0,0.4351181640625,0.0,0.0,0.0,0.0,0.0,0.0,0.2,0.0,0.0,0.0,0.0,0.0,0.0,0.4424152818739356,0.0,0.0,0.0,0.0,0.0,0.0,-39.896,0.0,0.0,0.0,0.0,0.0
168,0.0,0.4373828125,0.0,0.0,0.0,0.0,0.0,0.0,0.222,0.0,0.0,0.0,0.0,0.0,0.0,0.44446041421690063,0.0,0.0,0.0,0.0,0.0,0.0,-40.76,0.0,0.0,0.0,0.0,0.0
169,0.0,0.439029296875,0.0,0.0,0.0,0.0,0.0,0.0,0.195,0.0,0.0,0.0,0.0,0.0,0.0,0.44643587136455826,0.0,0.0,0.0,0.0,0.0,0.0,-41.14,0.0,0.0,0.0,0.0,0.0
170,0.0,0.4410869140625,0.0,0.0,0.0,0.0,0.0,0.0,0.185,0.0,0.0,0.0,0.0,0.0,0.0,0.4484268738760599,0.0,0.0,0.0,0.0,0.0,0.0,-39.736,0.0,0.0,0.0,0.0,0.0
171,0.0,0.4430556640625,0.0,0.0,0.0,0.0,0.0,0.0,0.203,0.0,0.0,0.0,0.0,0.0,0.0,0.45043982943439714,0.0,0.0,0.0,0.0,0.0,0.0,-40.328,0.0,0.0,0.0,0.0,0.0
172,0.0,0.445421875,0.0,0.0,0.0,0.0,0.0,0.0,0.209,0.0,0.0,0.0,0.0,0.0,0.0,0.45239429993946073,0.0,0.0,0.0,0.0,0.0,0.0,-37.736,0.0,0.0,0.0,0.0,0.0
173,0.0,0.4477890625,0.0,0.0,0.0,0.0,0.0,0.0,0.241,0.0,0.0,0.0,0.0,0.0,0.0,0.45435676835027583,0.0,0.0,0.0,0.0,0.0,0.0,-39.412,0.0,0.0,0.0,0.0,0.0
174,0.0,0.4495390625,0.0,0.0,0.0,0.0,0.0,0.0,0.212,0.0,0.0,0.0,0.0,0.0,0.0,0.45633321767795737,0.0,0.0,0.0,0.0,0.0,0.0,-42.004,0.0,0.0,0.0,0.0,0.0
175,0.0,0.451494140625,0.0,0.0,0.0,0.0,0.0,0.0,0.183,0.0,0.0,0.0,0.0,0.0,0.0,0.45826368851517935,0.0,0.0,0.0,0.0,0.0,0.0,-41.3,0.0,0.0,0.0,0.0,0.0
176,0.0,0.45344921875,0.0,0.0,0.0,0.0,0.0,0.0,0.202,0.0,0.0,0.0,0.0,0.0,0.0,0.46018247288427183,0.0,0.0,0.0,0.0,0.0,0.0,-39.248,0.0,0.0,0.0,0.0,0.0
177,0.0,0.4553076171875,0.0,0.0,0.0,0.0,0.0,0.0,0.191,0.0,0.0,0.0,0.0,0.0,0.0,0.4621277601845837,0.0,0.0,0.0,0.0,0.0,0.0,-40.384,0.0,0.0,0.0,0.0,0.0
178,0.0,0.4576748046875,0.0,0.0,0.0,0.0,0.0,0.0,0.203,0.0,0.0,0.0,0.0,0.0,0.0,0.46401198226459484,0.0,0.0,0.0,0.0,0.0,0.0,-40.436,0.0,0.0,0.0,0.0,0.0
179,0.0,0.4599384765625,0.0,0.0,0.0,0.0,0.0,0.0,0.241,0.0,0.0,0.0,0.0,0.0,0.0,0.46590354633472,0.0,0.0,0.0,0.0,0.0,0.0,-41.68,0.0,0.0,0.0,0.0,0.0
180,0.0,0.4615849609375,0.0,0.0,0.0,0.0,0.0,0.0,0.197,0.0,0.0,0.0,0.0,0.0,0.0,0.46781379634844295,0.0,0.0,0.0,0.0,0.0,0.0,-40.652,0.0,0.0,0.0,0.0,0.0
181,0.0,0.4636435546875,0.0,0.0,0.0,0.0,0.0,0.0,0.185,0.0,0.0,0.0,0.0,0.0,0.0,0.46966587432164975,0.0,0.0,0.0,0.0,0.0,0.0,-39.032,0.0,0.0,0.0,0.0,0.0
182,0.0,0.465392578125,0.0,0.0,0.0,0.0,0.0,0.0,0.196,0.0,0.0,0.0,0.0,0.0,0.0,0.4715311932349351,0.0,0.0,0.0,0.0,0.0,0.0,-39.52,0.0,0.0,0.0,0.0,0.0
183,0.0,0.4673544921875,0.0,0.0,0.0,0.0,0.0,0.0,0.176,0.0,0.0,0.0,0.0,0.0,0.0,0.47343678594353816,0.0,0.0,0.0,0.0,0.0,0.0,-39.088,0.0,0.0,0.0,0.0,0.0
184,0.0,0.469619140625,0.0,0.0,0.0,0.0,0.0,0.0,0.22,0.0,0.0,0.0,0.0,0.0,0.0,0.475232412579984,0.0,0.0,0.0,0.0,0.0,0.0,-40.112,0.0,0.0,0.0,0.0,0.0
185,0.0,0.4713681640625,0.0,0.0,0.0,0.0,0.0,0.0,0.202,0.0,0.0,0.0,0.0,0.0,0.0,0.47714807296218253,0.0,0.0,0.0,0.0,0.0,0.0,-40.868,0.0,0.0,0.0,0.0,0.0
186,0.0,0.4733232421875,0.0,0.0,0.0,0.0,0.0,0.0,0.182,0.0,0.0,0.0,0.0,0.0,0.0,0.4788881419849127,0.0,0.0,0.0,0.0,0.0,0.0,-40.22,0.0,0.0,0.0,0.0,0.0
187,0.0,0.4749697265625,0.0,0.0,0.0,0.0,0.0,0.0,0.19,0.0,0.0,0.0,0.0,0.0,0.0,0.4806802035229696,0.0,0.0,0.0,0.0,0.0,0.0,-41.356,0.0,0.0,0.0,0.0,0.0
188,0.0,0.4766162109375,0.0,0.0,0.0,0.0,0.0,0.0,0.159,0.0,0.0,0.0,0.0,0.0,0.0,0.4824931547105893,0.0,0.0,0.0,0.0,0.0,0.0,-40.816,0.0,0.0,0.0,0.0,0.0
189,0.0,0.4787841796875,0.0,0.0,0.0,0.0,0.0,0.0,0.188,0.0,0.0,0.0,0.0,0.0,0.0,0.4842296613309658,0.0,0.0,0.0,0.0,0.0,0.0,-39.68,0.0,0.0,0.0,0.0,0.0
190,0.0,0.48063671875,0.0,0.0,0.0,0.0,0.0,0.0,0.207,0.0,0.0,0.0,0.0,0.0,0.0,0.48600436278539716,0.0,0.0,0.0,0.0,0.0,0.0,-40.436,0.0,0.0,0.0,0.0,0.0
191,0.0,0.4823857421875,0.0,0.0,0.0,0.0,0.0,0.0,0.176,0.0,0.0,0.0,0.0,0.0,0.0,0.48776820139433447,0.0,0.0,0.0,0.0,0.0,0.0,-40.544,0.0,0.0,0.0,0.0,0.0
192,0.0,0.484134765625,0.0,0.0,0.0,0.0,0.0,0.0,0.181,0.0,0.0,0.0,0.0,0.0,0.0,0.4895031937420147,0.0,0.0,0.0,0.0,0.0,0.0,-41.68,0.0,0.0,0.0,0.0,0.0
193,0.0,0.48547265625,0.0,0.0,0.0,0.0,0.0,0.0,0.156,0.0,0.0,0.0,0.0,0.0,0.0,0.4912296871077432,0.0,0.0,0.0,0.0,0.0,0.0,-40.6,0.0,0.0,0.0,0.0,0.0
194,0.0,0.48722265625,0.0,0.0,0.0,0.0,0.0,0.0,0.152,0.0,0.0,0.0,0.0,0.0,0.0,0.4929425449615385,0.0,0.0,0.0,0.0,0.0,0.0,-38.816,0.0,0.0,0.0,0.0,0.0
195,0.0,0.489177734375,0.0,0.0,0.0,0.0,0.0,0.0,0.184,0.0,0.0,0.0,0.0,0.0,0.0,0.4946579069589736,0.0,0.0,0.0,0.0,0.0,0.0,-38.384,0.0,0.0,0.0,0.0,0.0
196,0.0,0.49093359375,0.0,0.0,0.0,0.0,0.0,0.0,0.188,0.0,0.0,0.0,0.0,0.0,0.0,0.4963381141862301,0.0,0.0,0.0,0.0,0.0,0.0,-38.872,0.0,0.0,0.0,0.0,0.0
197,0.0,0.4927861328125,0.0,0.0,0.0,0.0,0.0,0.0,0.183,0.0,0.0,0.0,0.0,0.0,0.0,0.49801916626425485,0.0,0.0,0.0,0.0,0.0,0.0,-40.112,0.0,0.0,0.0,0.0,0.0
198,0.0,0.494330078125,0.0,0.0,0.0,0.0,0.0,0.0,0.172,0.0,0.0,0.0,0.0,0.0,0.0,0.49969538434195154,0.0,0.0,0.0,0.0,0.0,0.0,-39.088,0.0,0.0,0.0,0.0,0.0
199,0.0,0.4957705078125,0.0,0.0,0.0,0.0,0.0,0.0,0.149,0.0,0.0,0.0,0.0,0.0,0.0,0.5013461208663075,0.0,0.0,0.0,0.0,0.0,0.0,-38.548,0.0,0.0,0.0,0.0,0.0
200,0.0,0.4973134765625,0.0,0.0,0.0,0.0,0.0,0.0,0.149,0.0,0.0,0.0,0.0,0.0,0.0,0.5029838717675684,0.0,0.0,0.0,0.0,0.0,0.0,-39.464,0.0,0.0,0.0,0.0,0.0
201,0.0,0.499166015625,0.0,0.0,0.0,0.0,0.0,0.0,0.169,0.0,0.0,0.0,0.0,0.0,0.0,0.5045977727190778,0.0,0.0,0.0,0.0,0.0,0.0,-39.304,0.0,0.0,0.0,0.0,0.0
202,0.0,0.5010185546875,0.0,0.0,0.0,0.0,0.0,0.0,0.187,0.0,0.0,0.0,0.0,0.0,0.0,0.5062345451035396,0.0,0.0,0.0,0.0,0.0,0.0,-39.304,0.0,0.0,0.0,0.0,0.0
203,0.0,0.5024658203125,0.0,0.0,0.0,0.0,0.0,0.0,0.171,0.0,0.0,0.0,0.0,0.0,0.0,0.5078243310833952,0.0,0.0,0.0,0.0,0.0,0.0,-41.788,0.0,0.0,0.0,0.0,0.0
204,0.0,0.50390625,0.0,0.0,0.0,0.0,0.0,0.0,0.139,0.0,0.0,0.0,0.0,0.0,0.0,0.5094184258103776,0.0,0.0,0.0,0.0,0.0,0.0,-40.436,0.0,0.0,0.0,0.0,0.0
205,0.0,0.5054501953125,0.0,0.0,0.0,0.0,0.0,0.0,0.155,0.0,0.0,0.0,0.0,0.0,0.0,0.5110227191903595,0.0,0.0,0.0,0.0,0.0,0.0,-38.98,0.0,0.0,0.0,0.0,0.0
206,0.0,0.506890625,0.0,0.0,0.0,0.0,0.0,0.0,0.148,0.0,0.0,0.0,0.0,0.0,0.0,0.5125509504760767,0.0,0.0,0.0,0.0,0.0,0.0,-38.44,0.0,0.0,0.0,0.0,0.0
207,0.0,0.508640625,0.0,0.0,0.0,0.0,0.0,0.0,0.156,0.0,0.0,0.0,0.0,0.0,0.0,0.5141027137422336,0.0,0.0,0.0,0.0,0.0,0.0,-39.52,0.0,0.0,0.0,0.0,0.0
208,0.0,0.51018359375,0.0,0.0,0.0,0.0,0.0,0.0,0.172,0.0,0.0,0.0,0.0,0.0,0.0,0.5156697321151834,0.0,0.0,0.0,0.0,0.0,0.0,-40.544,0.0,0.0,0.0,0.0,0.0
209,0.0,0.5117275390625,0.0,0.0,0.0,0.0,0.0,0.0,0.152,0.0,0.0,0.0,0.0,0.0,0.0,0.517170941573081,0.0,0.0,0.0,0.0,0.0,0.0,-37.628,0.0,0.0,0.0,0.0,0.0
210,0.0,0.5130654296875,0.0,0.0,0.0,0.0,0.0,0.0,0.152,0.0,0.0,0.0,0.0,0.0,0.0,0.518683499513029,0.0,0.0,0.0,0.0,0.0,0.0,-38.492,0.0,0.0,0.0,0.0,0.0
211,0.0,0.5144091796875,0.0,0.0,0.0,0.0,0.0,0.0,0.126,0.0,0.0,0.0,0.0,0.0,0.0,0.52021762494806,0.0,0.0,0.0,0.0,0.0,0.0,-38.332,0.0,0.0,0.0,0.0,0.0
212,0.0,0.5162685546875,0.0,0.0,0.0,0.0,0.0,0.0,0.154,0.0,0.0,0.0,0.0,0.0,0.0,0.5216771265511636,0.0,0.0,0.0,0.0,0.0,0.0,-37.36,0.0,0.0,0.0,0.0,0.0
213,0.0,0.5176064453125,0.0,0.0,0.0,0.0,0.0,0.0,0.165,0.0,0.0,0.0,0.0,0.0,0.0,0.5232035826760331,0.0,0.0,0.0,0.0,0.0,0.0,-39.412,0.0,0.0,0.0,0.0,0.0
214,0.0,0.519046875,0.0,0.0,0.0,0.0,0.0,0.0,0.138,0.0,0.0,0.0,0.0,0.0,0.0,0.5246215510549362,0.0,0.0,0.0,0.0,0.0,0.0,-38.548,0.0,0.0,0.0,0.0,0.0
215,0.0,0.520693359375,0.0,0.0,0.0,0.0,0.0,0.0,0.164,0.0,0.0,0.0,0.0,0.0,0.0,0.5260658851640971,0.0,0.0,0.0,0.0,0.0,0.0,-37.952,0.0,0.0,0.0,0.0,0.0
216,0.0,0.52203125,0.0,0.0,0.0,0.0,0.0,0.0,0.148,0.0,0.0,0.0,0.0,0.0,0.0,0.5274998491586792,0.0,0.0,0.0,0.0,0.0,0.0,-38.116,0.0,0.0,0.0,0.0,0.0
217,0.0,0.5234716796875,0.0,0.0,0.0,0.0,0.0,0.0,0.138,0.0,0.0,0.0,0.0,0.0,0.0,0.5289434574112665,0.0,0.0,0.0,0.0,0.0,0.0,-38.708,0.0,0.0,0.0,0.0,0.0
218,0.0,0.5251181640625,0.0,0.0,0.0,0.0,0.0,0.0,0.153,0.0,0.0,0.0,0.0,0.0,0.0,0.5303398056950348,0.0,0.0,0.0,0.0,0.0,0.0,-39.088,0.0,0.0,0.0,0.0,0.0
219,0.0,0.5265595703125,0.0,0.0,0.0,0.0,0.0,0.0,0.152,0.0,0.0,0.0,0.0,0.0,0.0,0.5317335481936047,0.0,0.0,0.0,0.0,0.0,0.0,-39.196,0.0,0.0,0.0,0.0,0.0
220,0.0,0.5279033203125,0.0,0.0,0.0,0.0,0.0,0.0,0.14,0.0,0.0,0.0,0.0,0.0,0.0,0.5331246807575736,0.0,0.0,0.0,0.0,0.0,0.0,-40.276,0.0,0.0,0.0,0.0,0.0
221,0.0,0.529447265625,0.0,0.0,0.0,0.0,0.0,0.0,0.143,0.0,0.0,0.0,0.0,0.0,0.0,0.5344875759124653,0.0,0.0,0.0,0.0,0.0,0.0,-39.14,0.0,0.0,0.0,0.0,0.0
222,0.0,0.5309912109375,0.0,0.0,0.0,0.0,0.0,0.0,0.159,0.0,0.0,0.0,0.0,0.0,0.0,0.535842101756498,0.0,0.0,0.0,0.0,0.0,0.0,-38.116,0.0,0.0,0.0,0.0,0.0
223,0.0,0.532328125,0.0,0.0,0.0,0.0,0.0,0.0,0.141,0.0,0.0,0.0,0.0,0.0,0.0,0.5371938467811789,0.0,0.0,0.0,0.0,0.0,0.0,-39.788,0.0,0.0,0.0,0.0,0.0
224,0.0,0.53376953125,0.0,0.0,0.0,0.0,0.0,0.0,0.141,0.0,0.0,0.0,0.0,0.0,0.0,0.5385401857346725,0.0,0.0,0.0,0.0,0.0,0.0,-38.924,0.0,0.0,0.0,0.0,0.0
225,0.0,0.5353125,0.0,0.0,0.0,0.0,0.0,0.0,0.152,0.0,0.0,0.0,0.0,0.0,0.0,0.5398393193071815,0.0,0.0,0.0,0.0,0.0,0.0,-37.468,0.0,0.0,0.0,0.0,0.0
226,0.0,0.5365478515625,0.0,0.0,0.0,0.0,0.0,0.0,0.139,0.0,0.0,0.0,0.0,0.0,0.0,0.5411553611748503,0.0,0.0,0.0,0.0,0.0,0.0,-38.332,0.0,0.0,0.0,0.0,0.0
227,0.0,0.53798828125,0.0,0.0,0.0,0.0,0.0,0.0,0.135,0.0,0.0,0.0,0.0,0.0,0.0,0.5424295295824696,0.0,0.0,0.0,0.0,0.0,0.0,-38.116,0.0,0.0,0.0,0.0,0.0
228,0.0,0.539326171875,0.0,0.0,0.0,0.0,0.0,0.0,0.145,0.0,0.0,0.0,0.0,0.0,0.0,0.543697162961086,0.0,0.0,0.0,0.0,0.0,0.0,-39.304,0.0,0.0,0.0,0.0,0.0
229,0.0,0.5406708984375,0.0,0.0,0.0,0.0,0.0,0.0,0.126,0.0,0.0,0.0,0.0,0.0,0.0,0.5449949089171995,0.0,0.0,0.0,0.0,0.0,0.0,-38.708,0.0,0.0,0.0,0.0,0.0
230,0.0,0.542111328125,0.0,0.0,0.0,0.0,0.0,0.0,0.138,0.0,0.0,0.0,0.0,0.0,0.0,0.5462173164548231,0.0,0.0,0.0,0.0,0.0,0.0,-38.44,0.0,0.0,0.0,0.0,0.0
231,0.0,0.5433466796875,0.0,0.0,0.0,0.0,0.0,0.0,0.137,0.0,0.0,0.0,0.0,0.0,0.0,0.5474506900713901,0.0,0.0,0.0,0.0,0.0,0.0,-38.816,0.0,0.0,0.0,0.0,0.0
232,0.0,0.5445810546875,0.0,0.0,0.0,0.0,0.0,0.0,0.125,0.0,0.0,0.0,0.0,0.0,0.0,0.5486721126840896,0.0,0.0,0.0,0.0,0.0,0.0,-39.68,0.0,0.0,0.0,0.0,0.0
233,0.0,0.54581640625,0.0,0.0,0.0,0.0,0.0,0.0,0.124,0.0,0.0,0.0,0.0,0.0,0.0,0.5498835277305346,0.0,0.0,0.0,0.0,0.0,0.0,-39.196,0.0,0.0,0.0,0.0,0.0
234,0.0,0.54705078125,0.0,0.0,0.0,0.0,0.0,0.0,0.129,0.0,0.0,0.0,0.0,0.0,0.0,0.5510783552474298,0.0,0.0,0.0,0.0,0.0,0.0,-38.332,0.0,0.0,0.0,0.0,0.0
235,0.0,0.548080078125,0.0,0.0,0.0,0.0,0.0,0.0,0.111,0.0,0.0,0.0,0.0,0.0,0.0,0.5522572760101752,0.0,0.0,0.0,0.0,0.0,0.0,-39.088,0.0,0.0,0.0,0.0,0.0
236,0.0,0.54941796875,0.0,0.0,0.0,0.0,0.0,0.0,0.117,0.0,0.0,0.0,0.0,0.0,0.0,0.5534236778562658,0.0,0.0,0.0,0.0,0.0,0.0,-38.224,0.0,0.0,0.0,0.0,0.0
237,0.0,0.55065234375,0.0,0.0,0.0,0.0,0.0,0.0,0.133,0.0,0.0,0.0,0.0,0.0,0.0,0.5545688044104059,0.0,0.0,0.0,0.0,0.0,0.0,-38.872,0.0,0.0,0.0,0.0,0.0
238,0.0,0.5514755859375,0.0,0.0,0.0,0.0,0.0,0.0,0.099,0.0,0.0,0.0,0.0,0.0,0.0,0.5557750795761514,0.0,0.0,0.0,0.0,0.0,0.0,-40.22,0.0,0.0,0.0,0.0,0.0
239,0.0,0.5526142578125,0.0,0.0,0.0,0.0,0.0,0.0,0.097,0.0,0.0,0.0,0.0,0.0,0.0,0.5568329858106381,0.0,0.0,0.0,0.0,0.0,0.0,-38.708,0.0,0.0,0.0,0.0,0.0
240,0.0,0.55374609375,0.0,0.0,0.0,0.0,0.0,0.0,0.118,0.0,0.0,0.0,0.0,0.0,0.0,0.5579338520615563,0.0,0.0,0.0,0.0,0.0,0.0,-36.98,0.0,0.0,0.0,0.0,0.0
241,0.0,0.554775390625,0.0,0.0,0.0,0.0,0.0,0.0,0.106,0.0,0.0,0.0,0.0,0.0,0.0,0.5590362578859946,0.0,0.0,0.0,0.0,0.0,0.0,-37.952,0.0,0.0,0.0,0.0,0.0
242,0.0,0.5560107421875,0.0,0.0,0.0,0.0,0.0,0.0,0.112,0.0,0.0,0.0,0.0,0.0,0.0,0.5601182292021506,0.0,0.0,0.0,0.0,0.0,0.0,-38.008,0.0,0.0,0.0,0.0,0.0
243,0.0,0.5570390625,0.0,0.0,0.0,0.0,0.0,0.0,0.12,0.0,0.0,0.0,0.0,0.0,0.0,0.5611810733257501,0.0,0.0,0.0,0.0,0.0,0.0,-37.9,0.0,0.0,0.0,0.0,0.0
244,0.0,0.55786328125,0.0,0.0,0.0,0.0,0.0,0.0,0.091,0.0,0.0,0.0,0.0,0.0,0.0,0.5622386531380147,0.0,0.0,0.0,0.0,0.0,0.0,-37.412,0.0,0.0,0.0,0.0,0.0
245,0.0,0.5588916015625,0.0,0.0,0.0,0.0,0.0,0.0,0.091,0.0,0.0,0.0,0.0,0.0,0.0,0.563284140013233,0.0,0.0,0.0,0.0,0.0,0.0,-36.82,0.0,0.0,0.0,0.0,0.0
246,0.0,0.5599208984375,0.0,0.0,0.0,0.0,0.0,0.0,0.103,0.0,0.0,0.0,0.0,0.0,0.0,0.5643028918771953,0.0,0.0,0.0,0.0,0.0,0.0,-36.604,0.0,0.0,0.0,0.0,0.0
247,0.0,0.5609501953125,0.0,0.0,0.0,0.0,0.0,0.0,0.103,0.0,0.0,0.0,0.0,0.0,0.0,0.5653146706449355,0.0,0.0,0.0,0.0,0.0,0.0,-38.06,0.0,0.0,0.0,0.0,0.0
248,0.0,0.5619794921875,0.0,0.0,0.0,0.0,0.0,0.0,0.103,0.0,0.0,0.0,0.0,0.0,0.0,0.5663221598920665,0.0,0.0,0.0,0.0,0.0,0.0,-38.98,0.0,0.0,0.0,0.0,0.0
249,0.0,0.5629052734375,0.0,0.0,0.0,0.0,0.0,0.0,0.096,0.0,0.0,0.0,0.0,0.0,0.0,0.5673079578954991,0.0,0.0,0.0,0.0,0.0,0.0,-37.52,0.0,0.0,0.0,0.0,0.0
250,0.0,0.5638310546875,0.0,0.0,0.0,0.0,0.0,0.0,0.097,0.0,0.0,0.0,0.0,0.0,0.0,0.5682717600320416,0.0,0.0,0.0,0.0,0.0,0.0,-37.088,0.0,0.0,0.0,0.0,0.0
251,0.0,0.5648603515625,0.0,0.0,0.0,0.0,0.0,0.0,0.096,0.0,0.0,0.0,0.0,0.0,0.0,0.5692601861771249,0.0,0.0,0.0,0.0,0.0,0.0,-37.036,0.0,0.0,0.0,0.0,0.0
252,0.0,0.565896484375,0.0,0.0,0.0,0.0,0.0,0.0,0.103,0.0,0.0,0.0,0.0,0.0,0.0,0.5701682187453931,0.0,0.0,0.0,0.0,0.0,0.0,-37.576,0.0,0.0,0.0,0.0,0.0
253,0.0,0.566822265625,0.0,0.0,0.0,0.0,0.0,0.0,0.098,0.0,0.0,0.0,0.0,0.0,0.0,0.5710984977395466,0.0,0.0,0.0,0.0,0.0,0.0,-38.224,0.0,0.0,0.0,0.0,0.0
254,0.0,0.567748046875,0.0,0.0,0.0,0.0,0.0,0.0,0.09,0.0,0.0,0.0,0.0,0.0,0.0,0.5720219117518103,0.0,0.0,0.0,0.0,0.0,0.0,-36.872,0.0,0.0,0.0,0.0,0.0
255,0.0,0.5686748046875,0.0,0.0,0.0,0.0,0.0,0.0,0.098,0.0,0.0,0.0,0.0,0.0,0.0,0.5729071451767774,0.0,0.0,0.0,0.0,0.0,0.0,-37.304,0.0,0.0,0.0,0.0,0.0
256,0.0,0.569498046875,0.0,0.0,0.0,0.0,0.0,0.0,0.085,0.0,0.0,0.0,0.0,0.0,0.0,0.5737894501740044,0.0,0.0,0.0,0.0,0.0,0.0,-37.412,0.0,0.0,0.0,0.0,0.0
257,0.0,0.570732421875,0.0,0.0,0.0,0.0,0.0,0.0,0.1,0.0,0.0,0.0,0.0,0.0,0.0,0.5746676507492592,0.0,0.0,0.0,0.0,0.0,0.0,-36.872,0.0,0.0,0.0,0.0,0.0
258,0.0,0.5715556640625,0.0,0.0,0.0,0.0,0.0,0.0,0.106,0.0,0.0,0.0,0.0,0.0,0.0,0.5755117916829777,0.0,0.0,0.0,0.0,0.0,0.0,-38.168,0.0,0.0,0.0,0.0,0.0
259,0.0,0.57237890625,0.0,0.0,0.0,0.0,0.0,0.0,0.083,0.0,0.0,0.0,0.0,0.0,0.0,0.5763520033641703,0.0,0.0,0.0,0.0,0.0,0.0,-38.708,0.0,0.0,0.0,0.0,0.0
260,0.0,0.5733056640625,0.0,0.0,0.0,0.0,0.0,0.0,0.086,0.0,0.0,0.0,0.0,0.0,0.0,0.5771946972723768,0.0,0.0,0.0,0.0,0.0,0.0,-37.628,0.0,0.0,0.0,0.0,0.0
261,0.0,0.5743349609375,0.0,0.0,0.0,0.0,0.0,0.0,0.099,0.0,0.0,0.0,0.0,0.0,0.0,0.5779923266310412,0.0,0.0,0.0,0.0,0.0,0.0,-36.872,0.0,0.0,0.0,0.0,0.0
262,0.0,0.5752607421875,0.0,0.0,0.0,0.0,0.0,0.0,0.099,0.0,0.0,0.0,0.0,0.0,0.0,0.5787893660488546,0.0,0.0,0.0,0.0,0.0,0.0,-37.736,0.0,0.0,0.0,0.0,0.0
263,0.0,0.5762958984375,0.0,0.0,0.0,0.0,0.0,0.0,0.097,0.0,0.0,0.0,0.0,0.0,0.0,0.5795841391640956,0.0,0.0,0.0,0.0,0.0,0.0,-38.384,0.0,0.0,0.0,0.0,0.0
264,0.0,0.57722265625,0.0,0.0,0.0,0.0,0.0,0.0,0.101,0.0,0.0,0.0,0.0,0.0,0.0,0.5803439891697056,0.0,0.0,0.0,0.0,0.0,0.0,-37.952,0.0,0.0,0.0,0.0,0.0
265,0.0,0.5779423828125,0.0,0.0,0.0,0.0,0.0,0.0,0.084,0.0,0.0,0.0,0.0,0.0,0.0,0.5811001212614747,0.0,0.0,0.0,0.0,0.0,0.0,-37.952,0.0,0.0,0.0,0.0,0.0
266,0.0,0.5787724609375,0.0,0.0,0.0,0.0,0.0,0.0,0.077,0.0,0.0,0.0,0.0,0.0,0.0,0.5818442752703954,0.0,0.0,0.0,0.0,0.0,0.0,-38.492,0.0,0.0,0.0,0.0,0.0
267,0.0,0.5796982421875,0.0,0.0,0.0,0.0,0.0,0.0,0.082,0.0,0.0,0.0,0.0,0.0,0.0,0.5825630969492367,0.0,0.0,0.0,0.0,0.0,0.0,-37.576,0.0,0.0,0.0,0.0,0.0
268,0.0,0.580625,0.0,0.0,0.0,0.0,0.0,0.0,0.096,0.0,0.0,0.0,0.0,0.0,0.0,0.583271618432768,0.0,0.0,0.0,0.0,0.0,0.0,-37.952,0.0,0.0,0.0,0.0,0.0
269,0.0,0.581345703125,0.0,0.0,0.0,0.0,0.0,0.0,0.086,0.0,0.0,0.0,0.0,0.0,0.0,0.5839756332998225,0.0,0.0,0.0,0.0,0.0,0.0,-38.816,0.0,0.0,0.0,0.0,0.0
270,0.0,0.5821689453125,0.0,0.0,0.0,0.0,0.0,0.0,0.075,0.0,0.0,0.0,0.0,0.0,0.0,0.5846528539521219,0.0,0.0,0.0,0.0,0.0,0.0,-38.224,0.0,0.0,0.0,0.0,0.0
271,0.0,0.582888671875,0.0,0.0,0.0,0.0,0.0,0.0,0.076,0.0,0.0,0.0,0.0,0.0,0.0,0.5853159692603827,0.0,0.0,0.0,0.0,0.0,0.0,-37.684,0.0,0.0,0.0,0.0,0.0
272,0.0,0.583505859375,0.0,0.0,0.0,0.0,0.0,0.0,0.064,0.0,0.0,0.0,0.0,0.0,0.0,0.5859723685079352,0.0,0.0,0.0,0.0,0.0,0.0,-38.008,0.0,0.0,0.0,0.0,0.0
273,0.0,0.5842265625,0.0,0.0,0.0,0.0,0.0,0.0,0.067,0.0,0.0,0.0,0.0,0.0,0.0,0.586609951104148,0.0,0.0,0.0,0.0,0.0,0.0,-37.952,0.0,0.0,0.0,0.0,0.0
274,0.0,0.584947265625,0.0,0.0,0.0,0.0,0.0,0.0,0.074,0.0,0.0,0.0,0.0,0.0,0.0,0.5872311366161475,0.0,0.0,0.0,0.0,0.0,0.0,-37.844,0.0,0.0,0.0,0.0,0.0
275,0.0,0.585564453125,0.0,0.0,0.0,0.0,0.0,0.0,0.068,0.0,0.0,0.0,0.0,0.0,0.0,0.5878400879592336,0.0,0.0,0.0,0.0,0.0,0.0,-37.628,0.0,0.0,0.0,0.0,0.0
276,0.0,0.586181640625,0.0,0.0,0.0,0.0,0.0,0.0,0.064,0.0,0.0,0.0,0.0,0.0,0.0,0.5884355262866979,0.0,0.0,0.0,0.0,0.0,0.0,-37.844,0.0,0.0,0.0,0.0,0.0
277,0.0,0.5866962890625,0.0,0.0,0.0,0.0,0.0,0.0,0.052,0.0,0.0,0.0,0.0,0.0,0.0,0.58900987842522,0.0,0.0,0.0,0.0,0.0,0.0,-37.736,0.0,0.0,0.0,0.0,0.0
278,0.0,0.5872109375,0.0,0.0,0.0,0.0,0.0,0.0,0.051,0.0,0.0,0.0,0.0,0.0,0.0,0.5895780315811616,0.0,0.0,0.0,0.0,0.0,0.0,-37.52,0.0,0.0,0.0,0.0,0.0
279,0.0,0.5877255859375,0.0,0.0,0.0,0.0,0.0,0.0,0.051,0.0,0.0,0.0,0.0,0.0,0.0,0.5901279792288512,0.0,0.0,0.0,0.0,0.0,0.0,-37.252,0.0,0.0,0.0,0.0,0.0
280,0.0,0.588240234375,0.0,0.0,0.0,0.0,0.0,0.0,0.055,0.0,0.0,0.0,0.0,0.0,0.0,0.5906611301909538,0.0,0.0,0.0,0.0,0.0,0.0,-37.144,0.0,0.0,0.0,0.0,0.0
281,0.0,0.5887548828125,0.0,0.0,0.0,0.0,0.0,0.0,0.054,0.0,0.0,0.0,0.0,0.0,0.0,0.5911823806048736,0.0,0.0,0.0,0.0,0.0,0.0,-37.252,0.0,0.0,0.0,0.0,0.0
282,0.0,0.58926953125,0.0,0.0,0.0,0.0,0.0,0.0,0.05,0.0,0.0,0.0,0.0,0.0,0.0,0.5916892100238142,0.0,0.0,0.0,0.0,0.0,0.0,-37.036,0.0,0.0,0.0,0.0,0.0
283,0.0,0.589578125,0.0,0.0,0.0,0.0,0.0,0.0,0.04,0.0,0.0,0.0,0.0,0.0,0.0,0.592175638115083,0.0,0.0,0.0,0.0,0.0,0.0,-37.736,0.0,0.0,0.0,0.0,0.0
284,0.0,0.5899892578125,0.0,0.0,0.0,0.0,0.0,0.0,0.031,0.0,0.0,0.0,0.0,0.0,0.0,0.5926512756111004,0.0,0.0,0.0,0.0,0.0,0.0,-36.872,0.0,0.0,0.0,0.0,0.0
285,0.0,0.59050390625,0.0,0.0,0.0,0.0,0.0,0.0,0.047,0.0,0.0,0.0,0.0,0.0,0.0,0.5931165400647345,0.0,0.0,0.0,0.0,0.0,0.0,-36.172,0.0,0.0,0.0,0.0,0.0
286,0.0,0.590916015625,0.0,0.0,0.0,0.0,0.0,0.0,0.046,0.0,0.0,0.0,0.0,0.0,0.0,0.5935563714774809,0.0,0.0,0.0,0.0,0.0,0.0,-36.82,0.0,0.0,0.0,0.0,0.0
287,0.0,0.5913271484375,0.0,0.0,0.0,0.0,0.0,0.0,0.042,0.0,0.0,0.0,0.0,0.0,0.0,0.5939869721760853,0.0,0.0,0.0,0.0,0.0,0.0,-37.252,0.0,0.0,0.0,0.0,0.0
288,0.0,0.5916357421875,0.0,0.0,0.0,0.0,0.0,0.0,0.038,0.0,0.0,0.0,0.0,0.0,0.0,0.5944077841603306,0.0,0.0,0.0,0.0,0.0,0.0,-37.576,0.0,0.0,0.0,0.0,0.0
289,0.0,0.591841796875,0.0,0.0,0.0,0.0,0.0,0.0,0.027,0.0,0.0,0.0,0.0,0.0,0.0,0.5948052054008524,0.0,0.0,0.0,0.0,0.0,0.0,-36.82,0.0,0.0,0.0,0.0,0.0
290,0.0,0.59236328125,0.0,0.0,0.0,0.0,0.0,0.0,0.038,0.0,0.0,0.0,0.0,0.0,0.0,0.5951912316942466,0.0,0.0,0.0,0.0,0.0,0.0,-35.468,0.0,0.0,0.0,0.0,0.0
291,0.0,0.5928779296875,0.0,0.0,0.0,0.0,0.0,0.0,0.047,0.0,0.0,0.0,0.0,0.0,0.0,0.5955661205890473,0.0,0.0,0.0,0.0,0.0,0.0,-36.008,0.0,0.0,0.0,0.0,0.0
292,0.0,0.5932890625,0.0,0.0,0.0,0.0,0.0,0.0,0.047,0.0,0.0,0.0,0.0,0.0,0.0,0.595919849816952,0.0,0.0,0.0,0.0,0.0,0.0,-36.872,0.0,0.0,0.0,0.0,0.0
293,0.0,0.59359765625,0.0,0.0,0.0,0.0,0.0,0.0,0.043,0.0,0.0,0.0,0.0,0.0,0.0,0.5962616673164817,0.0,0.0,0.0,0.0,0.0,0.0,-37.36,0.0,0.0,0.0,0.0,0.0
294,0.0,0.5938037109375,0.0,0.0,0.0,0.0,0.0,0.0,0.027,0.0,0.0,0.0,0.0,0.0,0.0,0.5965914262776497,0.0,0.0,0.0,0.0,0.0,0.0,-37.304,0.0,0.0,0.0,0.0,0.0
295,0.0,0.5941123046875,0.0,0.0,0.0,0.0,0.0,0.0,0.019,0.0,0.0,0.0,0.0,0.0,0.0,0.596900581956927,0.0,0.0,0.0,0.0,0.0,0.0,-36.764,0.0,0.0,0.0,0.0,0.0
296,0.0,0.5945244140625,0.0,0.0,0.0,0.0,0.0,0.0,0.034,0.0,0.0,0.0,0.0,0.0,0.0,0.5971975381250839,0.0,0.0,0.0,0.0,0.0,0.0,-36.548,0.0,0.0,0.0,0.0,0.0
297,0.0,0.5950380859375,0.0,0.0,0.0,0.0,0.0,0.0,0.046,0.0,0.0,0.0,0.0,0.0,0.0,0.597482188925197,0.0,0.0,0.0,0.0,0.0,0.0,-36.656,0.0,0.0,0.0,0.0,0.0
298,0.0,0.5954501953125,0.0,0.0,0.0,0.0,0.0,0.0,0.049,0.0,0.0,0.0,0.0,0.0,0.0,0.5977473403008104,0.0,0.0,0.0,0.0,0.0,0.0,-37.252,0.0,0.0,0.0,0.0,0.0
299,0.0,0.59565625,0.0,0.0,0.0,0.0,0.0,0.0,0.035,0.0,0.0,0.0,0.0,0.0,0.0,0.5979992456870826,0.0,0.0,0.0,0.0,0.0,0.0,-37.36,0.0,0.0,0.0,0.0,0.0
300,0.0,0.595861328125,0.0,0.0,0.0,0.0,0.0,0.0,0.022,0.0,0.0,0.0,0.0,0.0,0.0,0.598240071090895,0.0,0.0,0.0,0.0,0.0,0.0,-36.98,0.0,0.0,0.0,0.0,0.0
301,0.0,0.5960673828125,0.0,0.0,0.0,0.0,0.0,0.0,0.016,0.0,0.0,0.0,0.0,0.0,0.0,0.5984598001292911,0.0,0.0,0.0,0.0,0.0,0.0,-36.82,0.0,0.0,0.0,0.0,0.0
302,0.0,0.5964794921875,0.0,0.0,0.0,0.0,0.0,0.0,0.026,0.0,0.0,0.0,0.0,0.0,0.0,0.5986667930262572,0.0,0.0,0.0,0.0,0.0,0.0,-36.496,0.0,0.0,0.0,0.0,0.0
303,0.0,0.596890625,0.0,0.0,0.0,0.0,0.0,0.0,0.041,0.0,0.0,0.0,0.0,0.0,0.0,0.598861369311339,0.0,0.0,0.0,0.0,0.0,0.0,-37.036,0.0,0.0,0.0,0.0,0.0
304,0.0,0.59719921875,0.0,0.0,0.0,0.0,0.0,0.0,0.035,0.0,0.0,0.0,0.0,0.0,0.0,0.5990366482066309,0.0,0.0,0.0,0.0,0.0,0.0,-37.684,0.0,0.0,0.0,0.0,0.0
305,0.0,0.597302734375,0.0,0.0,0.0,0.0,0.0,0.0,0.025,0.0,0.0,0.0,0.0,0.0,0.0,0.5991990299788874,0.0,0.0,0.0,0.0,0.0,0.0,-37.684,0.0,0.0,0.0,0.0,0.0
306,0.0,0.5974052734375,0.0,0.0,0.0,0.0,0.0,0.0,0.013,0.0,0.0,0.0,0.0,0.0,0.0,0.5993490746277239,0.0,0.0,0.0,0.0,0.0,0.0,-37.468,0.0,0.0,0.0,0.0,0.0
307,0.0,0.597611328125,0.0,0.0,0.0,0.0,0.0,0.0,0.013,0.0,0.0,0.0,0.0,0.0,0.0,0.5994790742623526,0.0,0.0,0.0,0.0,0.0,0.0,-36.656,0.0,0.0,0.0,0.0,0.0
308,0.0,0.597919921875,0.0,0.0,0.0,0.0,0.0,0.0,0.023,0.0,0.0,0.0,0.0,0.0,0.0,0.5995965536249396,0.0,0.0,0.0,0.0,0.0,0.0,-36.98,0.0,0.0,0.0,0.0,0.0
309,0.0,0.5981259765625,0.0,0.0,0.0,0.0,0.0,0.0,0.027,0.0,0.0,0.0,0.0,0.0,0.0,0.599703806480885,0.0,0.0,0.0,0.0,0.0,0.0,-37.252,0.0,0.0,0.0,0.0,0.0
310,0.0,0.59833203125,0.0,0.0,0.0,0.0,0.0,0.0,0.026,0.0,0.0,0.0,0.0,0.0,0.0,0.5997863331779165,0.0,0.0,0.0,0.0,0.0,0.0,-37.9,0.0,0.0,0.0,0.0,0.0
311,0.0,0.59833203125,0.0,0.0,0.0,0.0,0.0,0.0,0.008,0.0,0.0,0.0,0.0,0.0,0.0,0.5998588194836232,0.0,0.0,0.0,0.0,0.0,0.0,-37.628,0.0,0.0,0.0,0.0,0.0
312,0.0,0.5984345703125,0.0,0.0,0.0,0.0,0.0,0.0,0.005,0.0,0.0,0.0,0.0,0.0,0.0,0.5999168621892407,0.0,0.0,0.0,0.0,0.0,0.0,-36.604,0.0,0.0,0.0,0.0,0.0
313,0.0,0.598537109375,0.0,0.0,0.0,0.0,0.0,0.0,0.008,0.0,0.0,0.0,0.0,0.0,0.0,0.5999590506082153,0.0,0.0,0.0,0.0,0.0,0.0,-36.712,0.0,0.0,0.0,0.0,0.0
314,0.0,0.598640625,0.0,0.0,0.0,0.0,0.0,0.0,0.012,0.0,0.0,0.0,0.0,0.0,0.0,0.5999865618073771,0.0,0.0,0.0,0.0,0.0,0.0,-37.144,0.0,0.0,0.0,0.0,0.0
315,0.0,0.598845703125,0.0,0.0,0.0,0.0,0.0,0.0,0.015,0.0,0.0,0.0,0.0,0.0,0.0,0.5999991879134339,0.0,0.0,0.0,0.0,0.0,0.0,-37.628,0.0,0.0,0.0,0.0,0.0
316,0.0,0.598845703125,0.0,0.0,0.0,0.0,0.0,0.0,0.009,0.0,0.0,0.0,0.0,0.0,0.0,0.5999967048639674,0.0,0.0,0.0,0.0,0.0,0.0,-37.736,0.0,0.0,0.0,0.0,0.0
317,0.0,0.5987431640625,0.0,0.0,0.0,0.0,0.0,0.0,-0.007,0.0,0.0,0.0,0.0,0.0,0.0,0.5999792077150196,0.0,0.0,0.0,0.0,0.0,0.0,-37.576,0.0,0.0,0.0,0.0,0.0
318,0.0,0.5987431640625,0.0,0.0,0.0,0.0,0.0,0.0,-0.006,0.0,0.0,0.0,0.0,0.0,0.0,0.5999463807306848,0.0,0.0,0.0,0.0,0.0,0.0,-37.252,0.0,0.0,0.0,0.0,0.0
319,0.0,0.598845703125,0.0,0.0,0.0,0.0,0.0,0.0,0.003,0.0,0.0,0.0,0.0,0.0,0.0,0.5998991770696471,0.0,0.0,0.0,0.0,0.0,0.0,-36.496,0.0,0.0,0.0,0.0,0.0
320,0.0,0.59894921875,0.0,0.0,0.0,0.0,0.0,0.0,0.009,0.0,0.0,0.0,0.0,0.0,0.0,0.5998369356700547,0.0,0.0,0.0,0.0,0.0,0.0,-36.82,0.0,0.0,0.0,0.0,0.0
321,0.0,0.59894921875,0.0,0.0,0.0,0.0,0.0,0.0,0.007,0.0,0.0,0.0,0.0,0.0,0.0,0.5997586492853313,0.0,0.0,0.0,0.0,0.0,0.0,-37.088,0.0,0.0,0.0,0.0,0.0
322,0.0,0.598845703125,0.0,0.0,0.0,0.0,0.0,0.0,-0.001,0.0,0.0,0.0,0.0,0.0,0.0,0.5996669594517302,0.0,0.0,0.0,0.0,0.0,0.0,-37.036,0.0,0.0,0.0,0.0,0.0
323,0.0,0.598845703125,0.0,0.0,0.0,0.0,0.0,0.0,-0.008,0.0,0.0,0.0,0.0,0.0,0.0,0.5995597521025536,0.0,0.0,0.0,0.0,0.0,0.0,-36.712,0.0,0.0,0.0,0.0,0.0
324,0.0,0.5987431640625,0.0,0.0,0.0,0.0,0.0,0.0,-0.008,0.0,0.0,0.0,0.0,0.0,0.0,0.599433962675788,0.0,0.0,0.0,0.0,0.0,0.0,-36.656,0.0,0.0,0.0,0.0,0.0
325,0.0,0.598845703125,0.0,0.0,0.0,0.0,0.0,0.0,0.001,0.0,0.0,0.0,0.0,0.0,0.0,0.5992984666260606,0.0,0.0,0.0,0.0,0.0,0.0,-36.764,0.0,0.0,0.0,0.0,0.0
326,0.0,0.598845703125,0.0,0.0,0.0,0.0,0.0,0.0,0.004,0.0,0.0,0.0,0.0,0.0,0.0,0.5991471284045624,0.0,0.0,0.0,0.0,0.0,0.0,-36.872,0.0,0.0,0.0,0.0,0.0
327,0.0,0.598845703125,0.0,0.0,0.0,0.0,0.0,0.0,-0.001,0.0,0.0,0.0,0.0,0.0,0.0,0.5989790061180468,0.0,0.0,0.0,0.0,0.0,0.0,-36.98,0.0,0.0,0.0,0.0,0.0
328,0.0,0.598845703125,0.0,0.0,0.0,0.0,0.0,0.0,-0.001,0.0,0.0,0.0,0.0,0.0,0.0,0.598796163916919,0.0,0.0,0.0,0.0,0.0,0.0,-36.98,0.0,0.0,0.0,0.0,0.0
329,0.0,0.598845703125,0.0,0.0,0.0,0.0,0.0,0.0,-0.001,0.0,0.0,0.0,0.0,0.0,0.0,0.5985995758045655,0.0,0.0,0.0,0.0,0.0,0.0,-36.764,0.0,0.0,0.0,0.0,0.0
330,0.0,0.598845703125,0.0,0.0,0.0,0.0,0.0,0.0,-0.001,0.0,0.0,0.0,0.0,0.0,0.0,0.5983860540965465,0.0,0.0,0.0,0.0,0.0,0.0,-36.764,0.0,0.0,0.0,0.0,0.0
331,0.0,0.598845703125,0.0,0.0,0.0,0.0,0.0,0.0,-0.001,0.0,0.0,0.0,0.0,0.0,0.0,0.5981566373862103,0.0,0.0,0.0,0.0,0.0,0.0,-36.872,0.0,0.0,0.0,0.0,0.0
332,0.0,0.598845703125,0.0,0.0,0.0,0.0,0.0,0.0,-0.001,0.0,0.0,0.0,0.0,0.0,0.0,0.5979167067442661,0.0,0.0,0.0,0.0,0.0,0.0,-36.98,0.0,0.0,0.0,0.0,0.0
333,0.0,0.598845703125,0.0,0.0,0.0,0.0,0.0,0.0,-0.001,0.0,0.0,0.0,0.0,0.0,0.0,0.5976561704512244,0.0,0.0,0.0,0.0,0.0,0.0,-36.98,0.0,0.0,0.0,0.0,0.0
334,0.0,0.598845703125,0.0,0.0,0.0,0.0,0.0,0.0,-0.001,0.0,0.0,0.0,0.0,0.0,0.0,0.5973778558243119,0.0,0.0,0.0,0.0,0.0,0.0,-36.928,0.0,0.0,0.0,0.0,0.0
335,0.0,0.598845703125,0.0,0.0,0.0,0.0,0.0,0.0,-0.001,0.0,0.0,0.0,0.0,0.0,0.0,0.597102075071865,0.0,0.0,0.0,0.0,0.0,0.0,-36.82,0.0,0.0,0.0,0.0,0.0
336,0.0,0.598845703125,0.0,0.0,0.0,0.0,0.0,0.0,-0.001,0.0,0.0,0.0,0.0,0.0,0.0,0.5967986930498237,0.0,0.0,0.0,0.0,0.0,0.0,-36.928,0.0,0.0,0.0,0.0,0.0
337,0.0,0.598845703125,0.0,0.0,0.0,0.0,0.0,0.0,-0.001,0.0,0.0,0.0,0.0,0.0,0.0,0.5964801219831137,0.0,0.0,0.0,0.0,0.0,0.0,-36.928,0.0,0.0,0.0,0.0,0.0
338,0.0,0.598845703125,0.0,0.0,0.0,0.0,0.0,0.0,-0.001,0.0,0.0,0.0,0.0,0.0,0.0,0.5961520555258758,0.0,0.0,0.0,0.0,0.0,0.0,-36.98,0.0,0.0,0.0,0.0,0.0
339,0.0,0.598845703125,0.0,0.0,0.0,0.0,0.0,0.0,-0.001,0.0,0.0,0.0,0.0,0.0,0.0,0.5958055319266302,0.0,0.0,0.0,0.0,0.0,0.0,-36.872,0.0,0.0,0.0,0.0,0.0
340,0.0,0.598845703125,0.0,0.0,0.0,0.0,0.0,0.0,-0.001,0.0,0.0,0.0,0.0,0.0,0.0,0.5954406496369395,0.0,0.0,0.0,0.0,0.0,0.0,-36.928,0.0,0.0,0.0,0.0,0.0
341,0.0,0.598845703125,0.0,0.0,0.0,0.0,0.0,0.0,-0.001,0.0,0.0,0.0,0.0,0.0,0.0,0.5950673779624926,0.0,0.0,0.0,0.0,0.0,0.0,-37.252,0.0,0.0,0.0,0.0,0.0
342,0.0,0.5987431640625,0.0,0.0,0.0,0.0,0.0,0.0,-0.004,0.0,0.0,0.0,0.0,0.0,0.0,0.5946760150715457,0.0,0.0,0.0,0.0,0.0,0.0,-38.06,0.0,0.0,0.0,0.0,0.0
343,0.0,0.598640625,0.0,0.0,0.0,0.0,0.0,0.0,-0.013,0.0,0.0,0.0,0.0,0.0,0.0,0.5942669617441074,0.0,0.0,0.0,0.0,0.0,0.0,-38.6,0.0,0.0,0.0,0.0,0.0
344,0.0,0.5984345703125,0.0,0.0,0.0,0.0,0.0,0.0,-0.016,0.0,0.0,0.0,0.0,0.0,0.0,0.5938465858017249,0.0,0.0,0.0,0.0,0.0,0.0,-38.6,0.0,0.0,0.0,0.0,0.0
345,0.0,0.59833203125,0.0,0.0,0.0,0.0,0.0,0.0,-0.016,0.0,0.0,0.0,0.0,0.0,0.0,0.5934120728701964,0.0,0.0,0.0,0.0,0.0,0.0,-38.6,0.0,0.0,0.0,0.0,0.0
346,0.0,0.5981259765625,0.0,0.0,0.0,0.0,0.0,0.0,-0.016,0.0,0.0,0.0,0.0,0.0,0.0,0.5929569555486836,0.0,0.0,0.0,0.0,0.0,0.0,-39.196,0.0,0.0,0.0,0.0,0.0
347,0.0,0.5978173828125,0.0,0.0,0.0,0.0,0.0,0.0,-0.024,0.0,0.0,0.0,0.0,0.0,0.0,0.592494029773863,0.0,0.0,0.0,0.0,0.0,0.0,-39.304,0.0,0.0,0.0,0.0,0.0
348,0.0,0.597611328125,0.0,0.0,0.0,0.0,0.0,0.0,-0.027,0.0,0.0,0.0,0.0,0.0,0.0,0.5920123142023834,0.0,0.0,0.0,0.0,0.0,0.0,-39.032,0.0,0.0,0.0,0.0,0.0
349,0.0,0.59719921875,0.0,0.0,0.0,0.0,0.0,0.0,-0.034,0.0,0.0,0.0,0.0,0.0,0.0,0.591515469653683,0.0,0.0,0.0,0.0,0.0,0.0,-39.088,0.0,0.0,0.0,0.0,0.0
350,0.0,0.5967880859375,0.0,0.0,0.0,0.0,0.0,0.0,-0.042,0.0,0.0,0.0,0.0,0.0,0.0,0.5910096921302413,0.0,0.0,0.0,0.0,0.0,0.0,-38.816,0.0,0.0,0.0,0.0,0.0
351,0.0,0.5963759765625,0.0,0.0,0.0,0.0,0.0,0.0,-0.041,0.0,0.0,0.0,0.0,0.0,0.0,0.5904873186761289,0.0,0.0,0.0,0.0,0.0,0.0,-38.816,0.0,0.0,0.0,0.0,0.0
352,0.0,0.595861328125,0.0,0.0,0.0,0.0,0.0,0.0,-0.045,0.0,0.0,0.0,0.0,0.0,0.0,0.5899276071231115,0.0,0.0,0.0,0.0,0.0,0.0,-38.764,0.0,0.0,0.0,0.0,0.0
353,0.0,0.595244140625,0.0,0.0,0.0,0.0,0.0,0.0,-0.052,0.0,0.0,0.0,0.0,0.0,0.0,0.5893925652153365,0.0,0.0,0.0,0.0,0.0,0.0,-39.464,0.0,0.0,0.0,0.0,0.0
354,0.0,0.594626953125,0.0,0.0,0.0,0.0,0.0,0.0,-0.064,0.0,0.0,0.0,0.0,0.0,0.0,0.588823765509472,0.0,0.0,0.0,0.0,0.0,0.0,-38.98,0.0,0.0,0.0,0.0,0.0
355,0.0,0.594009765625,0.0,0.0,0.0,0.0,0.0,0.0,-0.061,0.0,0.0,0.0,0.0,0.0,0.0,0.5882337431672562,0.0,0.0,0.0,0.0,0.0,0.0,-38.44,0.0,0.0,0.0,0.0,0.0
356,0.0,0.5932890625,0.0,0.0,0.0,0.0,0.0,0.0,-0.067,0.0,0.0,0.0,0.0,0.0,0.0,0.5876412376783353,0.0,0.0,0.0,0.0,0.0,0.0,-38.816,0.0,0.0,0.0,0.0,0.0
357,0.0,0.592671875,0.0,0.0,0.0,0.0,0.0,0.0,-0.071,0.0,0.0,0.0,0.0,0.0,0.0,0.5870288163867659,0.0,0.0,0.0,0.0,0.0,0.0,-38.384,0.0,0.0,0.0,0.0,0.0
358,0.0,0.5920537109375,0.0,0.0,0.0,0.0,0.0,0.0,-0.065,0.0,0.0,0.0,0.0,0.0,0.0,0.5863866968876961,0.0,0.0,0.0,0.0,0.0,0.0,-38.116,0.0,0.0,0.0,0.0,0.0
359,0.0,0.59112109375,0.0,0.0,0.0,0.0,0.0,0.0,-0.078,0.0,0.0,0.0,0.0,0.0,0.0,0.5857558452818057,0.0,0.0,0.0,0.0,0.0,0.0,-38.44,0.0,0.0,0.0,0.0,0.0
360,0.0,0.5902978515625,0.0,0.0,0.0,0.0,0.0,0.0,-0.085,0.0,0.0,0.0,0.0,0.0,0.0,0.5851003014194486,0.0,0.0,0.0,0.0,0.0,0.0,-38.332,0.0,0.0,0.0,0.0,0.0
361,0.0,0.589474609375,0.0,0.0,0.0,0.0,0.0,0.0,-0.084,0.0,0.0,0.0,0.0,0.0,0.0,0.5844215215498577,0.0,0.0,0.0,0.0,0.0,0.0,-37.628,0.0,0.0,0.0,0.0,0.0
362,0.0,0.5887548828125,0.0,0.0,0.0,0.0,0.0,0.0,-0.081,0.0,0.0,0.0,0.0,0.0,0.0,0.5837423158405959,0.0,0.0,0.0,0.0,0.0,0.0,-37.412,0.0,0.0,0.0,0.0,0.0
363,0.0,0.587931640625,0.0,0.0,0.0,0.0,0.0,0.0,-0.081,0.0,0.0,0.0,0.0,0.0,0.0,0.5830403456452752,0.0,0.0,0.0,0.0,0.0,0.0,-37.792,0.0,0.0,0.0,0.0,0.0
364,0.0,0.5871083984375,0.0,0.0,0.0,0.0,0.0,0.0,-0.081,0.0,0.0,0.0,0.0,0.0,0.0,0.5823183101787136,0.0,0.0,0.0,0.0,0.0,0.0,-37.196,0.0,0.0,0.0,0.0,0.0
365,0.0,0.58628515625,0.0,0.0,0.0,0.0,0.0,0.0,-0.083,0.0,0.0,0.0,0.0,0.0,0.0,0.581476493278236,0.0,0.0,0.0,0.0,0.0,0.0,-37.304,0.0,0.0,0.0,0.0,0.0
366,0.0,0.585255859375,0.0,0.0,0.0,0.0,0.0,0.0,-0.093,0.0,0.0,0.0,0.0,0.0,0.0,0.58085297745798,0.0,0.0,0.0,0.0,0.0,0.0,-37.628,0.0,0.0,0.0,0.0,0.0
367,0.0,0.58453515625,0.0,0.0,0.0,0.0,0.0,0.0,-0.094,0.0,0.0,0.0,0.0,0.0,0.0,0.5800863825285942,0.0,0.0,0.0,0.0,0.0,0.0,-36.388,0.0,0.0,0.0,0.0,0.0
368,0.0,0.5837119140625,0.0,0.0,0.0,0.0,0.0,0.0,-0.076,0.0,0.0,0.0,0.0,0.0,0.0,0.5793155393439188,0.0,0.0,0.0,0.0,0.0,0.0,-36.548,0.0,0.0,0.0,0.0,0.0
369,0.0,0.582888671875,0.0,0.0,0.0,0.0,0.0,0.0,-0.084,0.0,0.0,0.0,0.0,0.0,0.0,0.578532387025475,0.0,0.0,0.0,0.0,0.0,0.0,-37.684,0.0,0.0,0.0,0.0,0.0
370,0.0,0.5821689453125,0.0,0.0,0.0,0.0,0.0,0.0,-0.079,0.0,0.0,0.0,0.0,0.0,0.0,0.5777249137999434,0.0,0.0,0.0,0.0,0.0,0.0,-36.712,0.0,0.0,0.0,0.0,0.0
371,0.0,0.581345703125,0.0,0.0,0.0,0.0,0.0,0.0,-0.073,0.0,0.0,0.0,0.0,0.0,0.0,0.576907026519106,0.0,0.0,0.0,0.0,0.0,0.0,-37.36,0.0,0.0,0.0,0.0,0.0
372,0.0,0.5804189453125,0.0,0.0,0.0,0.0,0.0,0.0,-0.092,0.0,0.0,0.0,0.0,0.0,0.0,0.576080726323973,0.0,0.0,0.0,0.0,0.0,0.0,-37.736,0.0,0.0,0.0,0.0,0.0
373,0.0,0.5796982421875,0.0,0.0,0.0,0.0,0.0,0.0,-0.084,0.0,0.0,0.0,0.0,0.0,0.0,0.5752294640782425,0.0,0.0,0.0,0.0,0.0,0.0,-37.52,0.0,0.0,0.0,0.0,0.0
374,0.0,0.578978515625,0.0,0.0,0.0,0.0,0.0,0.0,-0.072,0.0,0.0,0.0,0.0,0.0,0.0,0.5743678768903501,0.0,0.0,0.0,0.0,0.0,0.0,-37.684,0.0,0.0,0.0,0.0,0.0
375,0.0,0.578251953125,0.0,0.0,0.0,0.0,0.0,0.0,-0.073,0.0,0.0,0.0,0.0,0.0,0.0,0.5735006121389792,0.0,0.0,0.0,0.0,0.0,0.0,-37.684,0.0,0.0,0.0,0.0,0.0
376,0.0,0.5776337890625,0.0,0.0,0.0,0.0,0.0,0.0,-0.065,0.0,0.0,0.0,0.0,0.0,0.0,0.5726116447175807,0.0,0.0,0.0,0.0,0.0,0.0,-38.008,0.0,0.0,0.0,0.0,0.0
377,0.0,0.576810546875,0.0,0.0,0.0,0.0,0.0,0.0,-0.075,0.0,0.0,0.0,0.0,0.0,0.0,0.5716946839112816,0.0,0.0,0.0,0.0,0.0,0.0,-38.872,0.0,0.0,0.0,0.0,0.0
378,0.0,0.575884765625,0.0,0.0,0.0,0.0,0.0,0.0,-0.091,0.0,0.0,0.0,0.0,0.0,0.0,0.5707909549271324,0.0,0.0,0.0,0.0,0.0,0.0,-38.816,0.0,0.0,0.0,0.0,0.0
379,0.0,0.575158203125,0.0,0.0,0.0,0.0,0.0,0.0,-0.084,0.0,0.0,0.0,0.0,0.0,0.0,0.5698597536068206,0.0,0.0,0.0,0.0,0.0,0.0,-38.224,0.0,0.0,0.0,0.0,0.0
380,0.0,0.5743349609375,0.0,0.0,0.0,0.0,0.0,0.0,-0.078,0.0,0.0,0.0,0.0,0.0,0.0,0.5689026871648851,0.0,0.0,0.0,0.0,0.0,0.0,-38.384,0.0,0.0,0.0,0.0,0.0
381,0.0,0.573716796875,0.0,0.0,0.0,0.0,0.0,0.0,-0.074,0.0,0.0,0.0,0.0,0.0,0.0,0.5679528411752478,0.0,0.0,0.0,0.0,0.0,0.0,-38.548,0.0,0.0,0.0,0.0,0.0
382,0.0,0.5729970703125,0.0,0.0,0.0,0.0,0.0,0.0,-0.066,0.0,0.0,0.0,0.0,0.0,0.0,0.5669789020078075,0.0,0.0,0.0,0.0,0.0,0.0,-39.304,0.0,0.0,0.0,0.0,0.0
383,0.0,0.5720703125,0.0,0.0,0.0,0.0,0.0,0.0,-0.087,0.0,0.0,0.0,0.0,0.0,0.0,0.565978172519241,0.0,0.0,0.0,0.0,0.0,0.0,-39.088,0.0,0.0,0.0,0.0,0.0
384,0.0,0.57114453125,0.0,0.0,0.0,0.0,0.0,0.0,-0.092,0.0,0.0,0.0,0.0,0.0,0.0,0.5649827170818873,0.0,0.0,0.0,0.0,0.0,0.0,-38.384,0.0,0.0,0.0,0.0,0.0
385,0.0,0.5703212890625,0.0,0.0,0.0,0.0,0.0,0.0,-0.09,0.0,0.0,0.0,0.0,0.0,0.0,0.5639634090248421,0.0,0.0,0.0,0.0,0.0,0.0,-38.276,0.0,0.0,0.0,0.0,0.0
386,0.0,0.569498046875,0.0,0.0,0.0,0.0,0.0,0.0,-0.09,0.0,0.0,0.0,0.0,0.0,0.0,0.5629186492128249,0.0,0.0,0.0,0.0,0.0,0.0,-38.708,0.0,0.0,0.0,0.0,0.0
387,0.0,0.5685712890625,0.0,0.0,0.0,0.0,0.0,0.0,-0.083,0.0,0.0,0.0,0.0,0.0,0.0,0.5618906795533886,0.0,0.0,0.0,0.0,0.0,0.0,-39.736,0.0,0.0,0.0,0.0,0.0
388,0.0,0.567439453125,0.0,0.0,0.0,0.0,0.0,0.0,-0.1,0.0,0.0,0.0,0.0,0.0,0.0,0.5608321696329062,0.0,0.0,0.0,0.0,0.0,0.0,-40.112,0.0,0.0,0.0,0.0,0.0
389,0.0,0.5664111328125,0.0,0.0,0.0,0.0,0.0,0.0,-0.111,0.0,0.0,0.0,0.0,0.0,0.0,0.5597384841604343,0.0,0.0,0.0,0.0,0.0,0.0,-39.196,0.0,0.0,0.0,0.0,0.0
390,0.0,0.5653818359375,0.0,0.0,0.0,0.0,0.0,0.0,-0.104,0.0,0.0,0.0,0.0,0.0,0.0,0.5586731644549677,0.0,0.0,0.0,0.0,0.0,0.0,-38.384,0.0,0.0,0.0,0.0,0.0
391,0.0,0.564140625,0.0,0.0,0.0,0.0,0.0,0.0,-0.115,0.0,0.0,0.0,0.0,0.0,0.0,0.5575750478982793,0.0,0.0,0.0,0.0,0.0,0.0,-39.844,0.0,0.0,0.0,0.0,0.0
392,0.0,0.563111328125,0.0,0.0,0.0,0.0,0.0,0.0,-0.114,0.0,0.0,0.0,0.0,0.0,0.0,0.5564480596866961,0.0,0.0,0.0,0.0,0.0,0.0,-39.088,0.0,0.0,0.0,0.0,0.0
393,0.0,0.5619794921875,0.0,0.0,0.0,0.0,0.0,0.0,-0.106,0.0,0.0,0.0,0.0,0.0,0.0,0.5553203504839598,0.0,0.0,0.0,0.0,0.0,0.0,-38.924,0.0,0.0,0.0,0.0,0.0
394,0.0,0.560435546875,0.0,0.0,0.0,0.0,0.0,0.0,-0.134,0.0,0.0,0.0,0.0,0.0,0.0,0.5541812038508404,0.0,0.0,0.0,0.0,0.0,0.0,-39.196,0.0,0.0,0.0,0.0,0.0
395,0.0,0.5593037109375,0.0,0.0,0.0,0.0,0.0,0.0,-0.137,0.0,0.0,0.0,0.0,0.0,0.0,0.5529887247229287,0.0,0.0,0.0,0.0,0.0,0.0,-37.952,0.0,0.0,0.0,0.0,0.0
396,0.0,0.5579658203125,0.0,0.0,0.0,0.0,0.0,0.0,-0.121,0.0,0.0,0.0,0.0,0.0,0.0,0.5518544905185357,0.0,0.0,0.0,0.0,0.0,0.0,-37.792,0.0,0.0,0.0,0.0,0.0
397,0.0,0.55673046875,0.0,0.0,0.0,0.0,0.0,0.0,-0.135,0.0,0.0,0.0,0.0,0.0,0.0,0.5506741982428269,0.0,0.0,0.0,0.0,0.0,0.0,-38.168,0.0,0.0,0.0,0.0,0.0
398,0.0,0.5555986328125,0.0,0.0,0.0,0.0,0.0,0.0,-0.122,0.0,0.0,0.0,0.0,0.0,0.0,0.5494639433686177,0.0,0.0,0.0,0.0,0.0,0.0,-37.468,0.0,0.0,0.0,0.0,0.0
399,0.0,0.5543642578125,0.0,0.0,0.0,0.0,0.0,0.0,-0.117,0.0,0.0,0.0,0.0,0.0,0.0,0.5482540575382366,0.0,0.0,0.0,0.0,0.0,0.0,-37.684,0.0,0.0,0.0,0.0,0.0
400,0.0,0.5528203125,0.0,0.0,0.0,0.0,0.0,0.0,-0.14,0.0,0.0,0.0,0.0,0.0,0.0,0.5470311288367139,0.0,0.0,0.0,0.0,0.0,0.0,-38.708,0.0,0.0,0.0,0.0,0.0
401,0.0,0.551681640625,0.0,0.0,0.0,0.0,0.0,0.0,-0.136,0.0,0.0,0.0,0.0,0.0,0.0,0.5457866221080839,0.0,0.0,0.0,0.0,0.0,0.0,-37.36,0.0,0.0,0.0,0.0,0.0
402,0.0,0.550447265625,0.0,0.0,0.0,0.0,0.0,0.0,-0.117,0.0,0.0,0.0,0.0,0.0,0.0,0.544538808481904,0.0,0.0,0.0,0.0,0.0,0.0,-37.468,0.0,0.0,0.0,0.0,0.0
403,0.0,0.549109375,0.0,0.0,0.0,0.0,0.0,0.0,-0.134,0.0,0.0,0.0,0.0,0.0,0.0,0.5432744267324022,0.0,0.0,0.0,0.0,0.0,0.0,-38.98,0.0,0.0,0.0,0.0,0.0
404,0.0,0.5481826171875,0.0,0.0,0.0,0.0,0.0,0.0,-0.118,0.0,0.0,0.0,0.0,0.0,0.0,0.5419842974700217,0.0,0.0,0.0,0.0,0.0,0.0,-38.168,0.0,0.0,0.0,0.0,0.0
405,0.0,0.5469482421875,0.0,0.0,0.0,0.0,0.0,0.0,-0.103,0.0,0.0,0.0,0.0,0.0,0.0,0.5406929026597752,0.0,0.0,0.0,0.0,0.0,0.0,-38.656,0.0,0.0,0.0,0.0,0.0
406,0.0,0.545712890625,0.0,0.0,0.0,0.0,0.0,0.0,-0.132,0.0,0.0,0.0,0.0,0.0,0.0,0.5394019481563345,0.0,0.0,0.0,0.0,0.0,0.0,-38.168,0.0,0.0,0.0,0.0,0.0
407,0.0,0.544478515625,0.0,0.0,0.0,0.0,0.0,0.0,-0.119,0.0,0.0,0.0,0.0,0.0,0.0,0.5380682214498399,0.0,0.0,0.0,0.0,0.0,0.0,-39.356,0.0,0.0,0.0,0.0,0.0
408,0.0,0.543037109375,0.0,0.0,0.0,0.0,0.0,0.0,-0.134,0.0,0.0,0.0,0.0,0.0,0.0,0.5367350336160432,0.0,0.0,0.0,0.0,0.0,0.0,-39.572,0.0,0.0,0.0,0.0,0.0
409,0.0,0.5420087890625,0.0,0.0,0.0,0.0,0.0,0.0,-0.128,0.0,0.0,0.0,0.0,0.0,0.0,0.5353996500301469,0.0,0.0,0.0,0.0,0.0,0.0,-38.872,0.0,0.0,0.0,0.0,0.0
410,0.0,0.5406708984375,0.0,0.0,0.0,0.0,0.0,0.0,-0.117,0.0,0.0,0.0,0.0,0.0,0.0,0.5340319829832162,0.0,0.0,0.0,0.0,0.0,0.0,-39.844,0.0,0.0,0.0,0.0,0.0
411,0.0,0.539435546875,0.0,0.0,0.0,0.0,0.0,0.0,-0.132,0.0,0.0,0.0,0.0,0.0,0.0,0.532654321161799,0.0,0.0,0.0,0.0,0.0,0.0,-39.628,0.0,0.0,0.0,0.0,0.0
412,0.0,0.5381943359375,0.0,0.0,0.0,0.0,0.0,0.0,-0.126,0.0,0.0,0.0,0.0,0.0,0.0,0.5312773043429989,0.0,0.0,0.0,0.0,0.0,0.0,-39.572,0.0,0.0,0.0,0.0,0.0
413,0.0,0.53675390625,0.0,0.0,0.0,0.0,0.0,0.0,-0.136,0.0,0.0,0.0,0.0,0.0,0.0,0.5298630464501757,0.0,0.0,0.0,0.0,0.0,0.0,-39.68,0.0,0.0,0.0,0.0,0.0
414,0.0,0.5353125,0.0,0.0,0.0,0.0,0.0,0.0,-0.148,0.0,0.0,0.0,0.0,0.0,0.0,0.5284349820084849,0.0,0.0,0.0,0.0,0.0,0.0,-39.304,0.0,0.0,0.0,0.0,0.0
415,0.0,0.5339755859375,0.0,0.0,0.0,0.0,0.0,0.0,-0.137,0.0,0.0,0.0,0.0,0.0,0.0,0.5270321495419458,0.0,0.0,0.0,0.0,0.0,0.0,-38.548,0.0,0.0,0.0,0.0,0.0
416,0.0,0.5325341796875,0.0,0.0,0.0,0.0,0.0,0.0,-0.136,0.0,0.0,0.0,0.0,0.0,0.0,0.5255885443330299,0.0,0.0,0.0,0.0,0.0,0.0,-39.68,0.0,0.0,0.0,0.0,0.0
417,0.0,0.5311962890625,0.0,0.0,0.0,0.0,0.0,0.0,-0.145,0.0,0.0,0.0,0.0,0.0,0.0,0.5241161097064191,0.0,0.0,0.0,0.0,0.0,0.0,-38.816,0.0,0.0,0.0,0.0,0.0
418,0.0,0.5298583984375,0.0,0.0,0.0,0.0,0.0,0.0,-0.131,0.0,0.0,0.0,0.0,0.0,0.0,0.5226676443733121,0.0,0.0,0.0,0.0,0.0,0.0,-39.196,0.0,0.0,0.0,0.0,0.0
419,0.0,0.52841796875,0.0,0.0,0.0,0.0,0.0,0.0,-0.144,0.0,0.0,0.0,0.0,0.0,0.0,0.5211894994046905,0.0,0.0,0.0,0.0,0.0,0.0,-38.6,0.0,0.0,0.0,0.0,0.0
420,0.0,0.5269775390625,0.0,0.0,0.0,0.0,0.0,0.0,-0.148,0.0,0.0,0.0,0.0,0.0,0.0,0.5196643201371471,0.0,0.0,0.0,0.0,0.0,0.0,-39.788,0.0,0.0,0.0,0.0,0.0
421,0.0,0.525427734375,0.0,0.0,0.0,0.0,0.0,0.0,-0.15,0.0,0.0,0.0,0.0,0.0,0.0,0.5181780540437452,0.0,0.0,0.0,0.0,0.0,0.0,-39.896,0.0,0.0,0.0,0.0,0.0
422,0.0,0.52408984375,0.0,0.0,0.0,0.0,0.0,0.0,-0.144,0.0,0.0,0.0,0.0,0.0,0.0,0.5166753887390592,0.0,0.0,0.0,0.0,0.0,0.0,-38.6,0.0,0.0,0.0,0.0,0.0
423,0.0,0.522751953125,0.0,0.0,0.0,0.0,0.0,0.0,-0.131,0.0,0.0,0.0,0.0,0.0,0.0,0.5151280658971447,0.0,0.0,0.0,0.0,0.0,0.0,-38.816,0.0,0.0,0.0,0.0,0.0
424,0.0,0.521310546875,0.0,0.0,0.0,0.0,0.0,0.0,-0.143,0.0,0.0,0.0,0.0,0.0,0.0,0.513598146526478,0.0,0.0,0.0,0.0,0.0,0.0,-39.356,0.0,0.0,0.0,0.0,0.0
425,0.0,0.519767578125,0.0,0.0,0.0,0.0,0.0,0.0,-0.15,0.0,0.0,0.0,0.0,0.0,0.0,0.5120414255178245,0.0,0.0,0.0,0.0,0.0,0.0,-40.76,0.0,0.0,0.0,0.0,0.0
426,0.0,0.5182236328125,0.0,0.0,0.0,0.0,0.0,0.0,-0.159,0.0,0.0,0.0,0.0,0.0,0.0,0.5104580436147726,0.0,0.0,0.0,0.0,0.0,0.0,-39.248,0.0,0.0,0.0,0.0,0.0
427,0.0,0.5165771484375,0.0,0.0,0.0,0.0,0.0,0.0,-0.156,0.0,0.0,0.0,0.0,0.0,0.0,0.5088898024413303,0.0,0.0,0.0,0.0,0.0,0.0,-40.22,0.0,0.0,0.0,0.0,0.0
428,0.0,0.5149306640625,0.0,0.0,0.0,0.0,0.0,0.0,-0.171,0.0,0.0,0.0,0.0,0.0,0.0,0.5072952870758938,0.0,0.0,0.0,0.0,0.0,0.0,-40.492,0.0,0.0,0.0,0.0,0.0
429,0.0,0.5134765625,0.0,0.0,0.0,0.0,0.0,0.0,-0.155,0.0,0.0,0.0,0.0,0.0,0.0,0.505661466323009,0.0,0.0,0.0,0.0,0.0,0.0,-40.6,0.0,0.0,0.0,0.0,0.0
430,0.0,0.5117275390625,0.0,0.0,0.0,0.0,0.0,0.0,-0.155,0.0,0.0,0.0,0.0,0.0,0.0,0.5040644224129796,0.0,0.0,0.0,0.0,0.0,0.0,-40.816,0.0,0.0,0.0,0.0,0.0
431,0.0,0.5100810546875,0.0,0.0,0.0,0.0,0.0,0.0,-0.175,0.0,0.0,0.0,0.0,0.0,0.0,0.5024326680005357,0.0,0.0,0.0,0.0,0.0,0.0,-40.112,0.0,0.0,0.0,0.0,0.0
432,0.0,0.50833203125,0.0,0.0,0.0,0.0,0.0,0.0,-0.169,0.0,0.0,0.0,0.0,0.0,0.0,0.5007507152965025,0.0,0.0,0.0,0.0,0.0,0.0,-39.196,0.0,0.0,0.0,0.0,0.0
433,0.0,0.50658203125,0.0,0.0,0.0,0.0,0.0,0.0,-0.181,0.0,0.0,0.0,0.0,0.0,0.0,0.4991221137029656,0.0,0.0,0.0,0.0,0.0,0.0,-39.464,0.0,0.0,0.0,0.0,0.0
434,0.0,0.5048330078125,0.0,0.0,0.0,0.0,0.0,0.0,-0.176,0.0,0.0,0.0,0.0,0.0,0.0,0.4974462933889543,0.0,0.0,0.0,0.0,0.0,0.0,-39.464,0.0,0.0,0.0,0.0,0.0
435,0.0,0.5032890625,0.0,0.0,0.0,0.0,0.0,0.0,-0.164,0.0,0.0,0.0,0.0,0.0,0.0,0.4957616740679422,0.0,0.0,0.0,0.0,0.0,0.0,-38.332,0.0,0.0,0.0,0.0,0.0
436,0.0,0.501533203125,0.0,0.0,0.0,0.0,0.0,0.0,-0.165,0.0,0.0,0.0,0.0,0.0,0.0,0.4940600193835282,0.0,0.0,0.0,0.0,0.0,0.0,-39.52,0.0,0.0,0.0,0.0,0.0
437,0.0,0.4997841796875,0.0,0.0,0.0,0.0,0.0,0.0,-0.183,0.0,0.0,0.0,0.0,0.0,0.0,0.49235864442813077,0.0,0.0,0.0,0.0,0.0,0.0,-38.872,0.0,0.0,0.0,0.0,0.0
438,0.0,0.498240234375,0.0,0.0,0.0,0.0,0.0,0.0,-0.162,0.0,0.0,0.0,0.0,0.0,0.0,0.49062624630998486,0.0,0.0,0.0,0.0,0.0,0.0,-38.008,0.0,0.0,0.0,0.0,0.0
439,0.0,0.4963876953125,0.0,0.0,0.0,0.0,0.0,0.0,-0.171,0.0,0.0,0.0,0.0,0.0,0.0,0.4888688922356943,0.0,0.0,0.0,0.0,0.0,0.0,-39.628,0.0,0.0,0.0,0.0,0.0
440,0.0,0.4947412109375,0.0,0.0,0.0,0.0,0.0,0.0,-0.185,0.0,0.0,0.0,0.0,0.0,0.0,0.4871516716301063,0.0,0.0,0.0,0.0,0.0,0.0,-39.464,0.0,0.0,0.0,0.0,0.0
441,0.0,0.493197265625,0.0,0.0,0.0,0.0,0.0,0.0,-0.156,0.0,0.0,0.0,0.0,0.0,0.0,0.48538776584715976,0.0,0.0,0.0,0.0,0.0,0.0,-39.628,0.0,0.0,0.0,0.0,0.0
442,0.0,0.491345703125,0.0,0.0,0.0,0.0,0.0,0.0,-0.172,0.0,0.0,0.0,0.0,0.0,0.0,0.4836100268230831,0.0,0.0,0.0,0.0,0.0,0.0,-39.736,0.0,0.0,0.0,0.0,0.0
443,0.0,0.4896923828125,0.0,0.0,0.0,0.0,0.0,0.0,-0.176,0.0,0.0,0.0,0.0,0.0,0.0,0.4818538425438062,0.0,0.0,0.0,0.0,0.0,0.0,-41.084,0.0,0.0,0.0,0.0,0.0
444,0.0,0.4879423828125,0.0,0.0,0.0,0.0,0.0,0.0,-0.174,0.0,0.0,0.0,0.0,0.0,0.0,0.4800518016844662,0.0,0.0,0.0,0.0,0.0,0.0,-41.356,0.0,0.0,0.0,0.0,0.0
445,0.0,0.4862958984375,0.0,0.0,0.0,0.0,0.0,0.0,-0.174,0.0,0.0,0.0,0.0,0.0,0.0,0.47822857567833055,0.0,0.0,0.0,0.0,0.0,0.0,-39.896,0.0,0.0,0.0,0.0,0.0
446,0.0,0.484546875,0.0,0.0,0.0,0.0,0.0,0.0,-0.168,0.0,0.0,0.0,0.0,0.0,0.0,0.4764409442862505,0.0,0.0,0.0,0.0,0.0,0.0,-40.76,0.0,0.0,0.0,0.0,0.0
447,0.0,0.4827978515625,0.0,0.0,0.0,0.0,0.0,0.0,-0.177,0.0,0.0,0.0,0.0,0.0,0.0,0.47461352517384925,0.0,0.0,0.0,0.0,0.0,0.0,-40.6,0.0,0.0,0.0,0.0,0.0
448,0.0,0.4810478515625,0.0,0.0,0.0,0.0,0.0,0.0,-0.175,0.0,0.0,0.0,0.0,0.0,0.0,0.4727406619628191,0.0,0.0,0.0,0.0,0.0,0.0,-40.924,0.0,0.0,0.0,0.0,0.0
449,0.0,0.4791953125,0.0,0.0,0.0,0.0,0.0,0.0,-0.185,0.0,0.0,0.0,0.0,0.0,0.0,0.4709215750962064,0.0,0.0,0.0,0.0,0.0,0.0,-40.652,0.0,0.0,0.0,0.0,0.0
450,0.0,0.4773369140625,0.0,0.0,0.0,0.0,0.0,0.0,-0.185,0.0,0.0,0.0,0.0,0.0,0.0,0.4690572492746877,0.0,0.0,0.0,0.0,0.0,0.0,-39.952,0.0,0.0,0.0,0.0,0.0
451,0.0,0.4755869140625,0.0,0.0,0.0,0.0,0.0,0.0,-0.182,0.0,0.0,0.0,0.0,0.0,0.0,0.46714489317474805,0.0,0.0,0.0,0.0,0.0,0.0,-39.52,0.0,0.0,0.0,0.0,0.0
452,0.0,0.473837890625,0.0,0.0,0.0,0.0,0.0,0.0,-0.176,0.0,0.0,0.0,0.0,0.0,0.0,0.46528937603282894,0.0,0.0,0.0,0.0,0.0,0.0,-39.572,0.0,0.0,0.0,0.0,0.0
453,0.0,0.4719853515625,0.0,0.0,0.0,0.0,0.0,0.0,-0.179,0.0,0.0,0.0,0.0,0.0,0.0,0.4633919606507577,0.0,0.0,0.0,0.0,0.0,0.0,-40.168,0.0,0.0,0.0,0.0,0.0
454,0.0,0.4701328125,0.0,0.0,0.0,0.0,0.0,0.0,-0.188,0.0,0.0,0.0,0.0,0.0,0.0,0.46145839755548695,0.0,0.0,0.0,0.0,0.0,0.0,-40.652,0.0,0.0,0.0,0.0,0.0
455,0.0,0.4680751953125,0.0,0.0,0.0,0.0,0.0,0.0,-0.198,0.0,0.0,0.0,0.0,0.0,0.0,0.45955087993420407,0.0,0.0,0.0,0.0,0.0,0.0,-41.032,0.0,0.0,0.0,0.0,0.0
456,0.0,0.4661201171875,0.0,0.0,0.0,0.0,0.0,0.0,-0.205,0.0,0.0,0.0,0.0,0.0,0.0,0.4576204019595224,0.0,0.0,0.0,0.0,0.0,0.0,-41.084,0.0,0.0,0.0,0.0,0.0
457,0.0,0.4642607421875,0.0,0.0,0.0,0.0,0.0,0.0,-0.193,0.0,0.0,0.0,0.0,0.0,0.0,0.4556414442954994,0.0,0.0,0.0,0.0,0.0,0.0,-41.516,0.0,0.0,0.0,0.0,0.0
458,0.0,0.4623056640625,0.0,0.0,0.0,0.0,0.0,0.0,-0.191,0.0,0.0,0.0,0.0,0.0,0.0,0.4537094039950797,0.0,0.0,0.0,0.0,0.0,0.0,-41.516,0.0,0.0,0.0,0.0,0.0
459,0.0,0.460453125,0.0,0.0,0.0,0.0,0.0,0.0,-0.19,0.0,0.0,0.0,0.0,0.0,0.0,0.4517412717690753,0.0,0.0,0.0,0.0,0.0,0.0,-41.84,0.0,0.0,0.0,0.0,0.0
460,0.0,0.4583955078125,0.0,0.0,0.0,0.0,0.0,0.0,-0.198,0.0,0.0,0.0,0.0,0.0,0.0,0.44973642953887605,0.0,0.0,0.0,0.0,0.0,0.0,-41.248,0.0,0.0,0.0,0.0,0.0
461,0.0,0.4564404296875,0.0,0.0,0.0,0.0,0.0,0.0,-0.206,0.0,0.0,0.0,0.0,0.0,0.0,0.4477677694246351,0.0,0.0,0.0,0.0,0.0,0.0,-40.384,0.0,0.0,0.0,0.0,0.0
462,0.0,0.454484375,0.0,0.0,0.0,0.0,0.0,0.0,-0.197,0.0,0.0,0.0,0.0,0.0,0.0,0.44576408792331873,0.0,0.0,0.0,0.0,0.0,0.0,-39.088,0.0,0.0,0.0,0.0,0.0
463,0.0,0.4525234375,0.0,0.0,0.0,0.0,0.0,0.0,-0.194,0.0,0.0,0.0,0.0,0.0,0.0,0.4437215666944462,0.0,0.0,0.0,0.0,0.0,0.0,-39.52,0.0,0.0,0.0,0.0,0.0
464,0.0,0.4505673828125,0.0,0.0,0.0,0.0,0.0,0.0,-0.201,0.0,0.0,0.0,0.0,0.0,0.0,0.4417291603327171,0.0,0.0,0.0,0.0,0.0,0.0,-39.844,0.0,0.0,0.0,0.0,0.0
465,0.0,0.448509765625,0.0,0.0,0.0,0.0,0.0,0.0,-0.201,0.0,0.0,0.0,0.0,0.0,0.0,0.4397005608990446,0.0,0.0,0.0,0.0,0.0,0.0,-40.384,0.0,0.0,0.0,0.0,0.0
466,0.0,0.446451171875,0.0,0.0,0.0,0.0,0.0,0.0,-0.208,0.0,0.0,0.0,0.0,0.0,0.0,0.43764563357559105,0.0,0.0,0.0,0.0,0.0,0.0,-39.248,0.0,0.0,0.0,0.0,0.0
467,0.0,0.4443935546875,0.0,0.0,0.0,0.0,0.0,0.0,-0.208,0.0,0.0,0.0,0.0,0.0,0.0,0.4355926633594436,0.0,0.0,0.0,0.0,0.0,0.0,-40.384,0.0,0.0,0.0,0.0,0.0
468,0.0,0.442322265625,0.0,0.0,0.0,0.0,0.0,0.0,-0.208,0.0,0.0,0.0,0.0,0.0,0.0,0.43352890260959515,0.0,0.0,0.0,0.0,0.0,0.0,-42.004,0.0,0.0,0.0,0.0,0.0
469,0.0,0.4403671875,0.0,0.0,0.0,0.0,0.0,0.0,-0.204,0.0,0.0,0.0,0.0,0.0,0.0,0.43142989849964086,0.0,0.0,0.0,0.0,0.0,0.0,-42.164,0.0,0.0,0.0,0.0,0.0
470,0.0,0.43830859375,0.0,0.0,0.0,0.0,0.0,0.0,-0.2,0.0,0.0,0.0,0.0,0.0,0.0,0.4293583268187919,0.0,0.0,0.0,0.0,0.0,0.0,-42.704,0.0,0.0,0.0,0.0,0.0
471,0.0,0.4362509765625,0.0,0.0,0.0,0.0,0.0,0.0,-0.211,0.0,0.0,0.0,0.0,0.0,0.0,0.42725657743144924,0.0,0.0,0.0,0.0,0.0,0.0,-41.68,0.0,0.0,0.0,0.0,0.0
472,0.0,0.4341923828125,0.0,0.0,0.0,0.0,0.0,0.0,-0.207,0.0,0.0,0.0,0.0,0.0,0.0,0.42513015728890885,0.0,0.0,0.0,0.0,0.0,0.0,-41.516,0.0,0.0,0.0,0.0,0.0
473,0.0,0.4321337890625,0.0,0.0,0.0,0.0,0.0,0.0,-0.207,0.0,0.0,0.0,0.0,0.0,0.0,0.42302192372049907,0.0,0.0,0.0,0.0,0.0,0.0,-41.408,0.0,0.0,0.0,0.0,0.0
474,0.0,0.4300693359375,0.0,0.0,0.0,0.0,0.0,0.0,-0.209,0.0,0.0,0.0,0.0,0.0,0.0,0.4208948941013569,0.0,0.0,0.0,0.0,0.0,0.0,-41.248,0.0,0.0,0.0,0.0,0.0
475,0.0,0.427908203125,0.0,0.0,0.0,0.0,0.0,0.0,-0.212,0.0,0.0,0.0,0.0,0.0,0.0,0.4187266631497333,0.0,0.0,0.0,0.0,0.0,0.0,-40.492,0.0,0.0,0.0,0.0,0.0
476,0.0,0.42564453125,0.0,0.0,0.0,0.0,0.0,0.0,-0.22,0.0,0.0,0.0,0.0,0.0,0.0,0.4165946150718836,0.0,0.0,0.0,0.0,0.0,0.0,-40.436,0.0,0.0,0.0,0.0,0.0
477,0.0,0.423380859375,0.0,0.0,0.0,0.0,0.0,0.0,-0.23,0.0,0.0,0.0,0.0,0.0,0.0,0.4144347767283674,0.0,0.0,0.0,0.0,0.0,0.0,-40.976,0.0,0.0,0.0,0.0,0.0
478,0.0,0.4212197265625,0.0,0.0,0.0,0.0,0.0,0.0,-0.228,0.0,0.0,0.0,0.0,0.0,0.0,0.4122412851044152,0.0,0.0,0.0,0.0,0.0,0.0,-41.084,0.0,0.0,0.0,0.0,0.0
479,0.0,0.41894921875,0.0,0.0,0.0,0.0,0.0,0.0,-0.221,0.0,0.0,0.0,0.0,0.0,0.0,0.41006926312793673,0.0,0.0,0.0,0.0,0.0,0.0,-41.464,0.0,0.0,0.0,0.0,0.0
480,0.0,0.4167880859375,0.0,0.0,0.0,0.0,0.0,0.0,-0.226,0.0,0.0,0.0,0.0,0.0,0.0,0.40786733356411786,0.0,0.0,0.0,0.0,0.0,0.0,-41.896,0.0,0.0,0.0,0.0,0.0
481,0.0,0.414626953125,0.0,0.0,0.0,0.0,0.0,0.0,-0.218,0.0,0.0,0.0,0.0,0.0,0.0,0.40565514405197395,0.0,0.0,0.0,0.0,0.0,0.0,-41.68,0.0,0.0,0.0,0.0,0.0
482,0.0,0.412259765625,0.0,0.0,0.0,0.0,0.0,0.0,-0.225,0.0,0.0,0.0,0.0,0.0,0.0,0.40343476207511997,0.0,0.0,0.0,0.0,0.0,0.0,-41.68,0.0,0.0,0.0,0.0,0.0
483,0.0,0.4100986328125,0.0,0.0,0.0,0.0,0.0,0.0,-0.229,0.0,0.0,0.0,0.0,0.0,0.0,0.40123232994421953,0.0,0.0,0.0,0.0,0.0,0.0,-41.084,0.0,0.0,0.0,0.0,0.0
484,0.0,0.407828125,0.0,0.0,0.0,0.0,0.0,0.0,-0.224,0.0,0.0,0.0,0.0,0.0,0.0,0.3989838035481097,0.0,0.0,0.0,0.0,0.0,0.0,-41.14,0.0,0.0,0.0,0.0,0.0
485,0.0,0.4056669921875,0.0,0.0,0.0,0.0,0.0,0.0,-0.227,0.0,0.0,0.0,0.0,0.0,0.0,0.39671772808105027,0.0,0.0,0.0,0.0,0.0,0.0,-40.436,0.0,0.0,0.0,0.0,0.0
486,0.0,0.4034033203125,0.0,0.0,0.0,0.0,0.0,0.0,-0.222,0.0,0.0,0.0,0.0,0.0,0.0,0.39448585495763694,0.0,0.0,0.0,0.0,0.0,0.0,-40.328,0.0,0.0,0.0,0.0,0.0
487,0.0,0.4011396484375,0.0,0.0,0.0,0.0,0.0,0.0,-0.228,0.0,0.0,0.0,0.0,0.0,0.0,0.39221531389318204,0.0,0.0,0.0,0.0,0.0,0.0,-40.384,0.0,0.0,0.0,0.0,0.0
488,0.0,0.398978515625,0.0,0.0,0.0,0.0,0.0,0.0,-0.226,0.0,0.0,0.0,0.0,0.0,0.0,0.38993100851576307,0.0,0.0,0.0,0.0,0.0,0.0,-40.328,0.0,0.0,0.0,0.0,0.0
489,0.0,0.3967080078125,0.0,0.0,0.0,0.0,0.0,0.0,-0.224,0.0,0.0,0.0,0.0,0.0,0.0,0.38767034200175876,0.0,0.0,0.0,0.0,0.0,0.0,-40.76,0.0,0.0,0.0,0.0,0.0
490,0.0,0.3944443359375,0.0,0.0,0.0,0.0,0.0,0.0,-0.227,0.0,0.0,0.0,0.0,0.0,0.0,0.3853683923880952,0.0,0.0,0.0,0.0,0.0,0.0,-41.464,0.0,0.0,0.0,0.0,0.0
491,0.0,0.392283203125,0.0,0.0,0.0,0.0,0.0,0.0,-0.221,0.0,0.0,0.0,0.0,0.0,0.0,0.3830528928375454,0.0,0.0,0.0,0.0,0.0,0.0,-41.68,0.0,0.0,0.0,0.0,0.0
492,0.0,0.3900185546875,0.0,0.0,0.0,0.0,0.0,0.0,-0.22,0.0,0.0,0.0,0.0,0.0,0.0,0.38075691079836266,0.0,0.0,0.0,0.0,0.0,0.0,-42.76,0.0,0.0,0.0,0.0,0.0
493,0.0,0.3879609375,0.0,0.0,0.0,0.0,0.0,0.0,-0.222,0.0,0.0,0.0,0.0,0.0,0.0,0.3784361814636461,0.0,0.0,0.0,0.0,0.0,0.0,-41.408,0.0,0.0,0.0,0.0,0.0
494,0.0,0.385896484375,0.0,0.0,0.0,0.0,0.0,0.0,-0.206,0.0,0.0,0.0,0.0,0.0,0.0,0.3760814908066638,0.0,0.0,0.0,0.0,0.0,0.0,-41.572,0.0,0.0,0.0,0.0,0.0
495,0.0,0.383529296875,0.0,0.0,0.0,0.0,0.0,0.0,-0.223,0.0,0.0,0.0,0.0,0.0,0.0,0.37375963435220527,0.0,0.0,0.0,0.0,0.0,0.0,-42.436,0.0,0.0,0.0,0.0,0.0
496,0.0,0.38157421875,0.0,0.0,0.0,0.0,0.0,0.0,-0.225,0.0,0.0,0.0,0.0,0.0,0.0,0.3714081481535349,0.0,0.0,0.0,0.0,0.0,0.0,-40.976,0.0,0.0,0.0,0.0,0.0
497,0.0,0.3793095703125,0.0,0.0,0.0,0.0,0.0,0.0,-0.208,0.0,0.0,0.0,0.0,0.0,0.0,0.36902588974171086,0.0,0.0,0.0,0.0,0.0,0.0,-41.3,0.0,0.0,0.0,0.0,0.0
498,0.0,0.3767373046875,0.0,0.0,0.0,0.0,0.0,0.0,-0.248,0.0,0.0,0.0,0.0,0.0,0.0,0.3666764734392385,0.0,0.0,0.0,0.0,0.0,0.0,-42.704,0.0,0.0,0.0,0.0,0.0
499,0.0,0.3745693359375,0.0,0.0,0.0,0.0,0.0,0.0,-0.241,0.0,0.0,0.0,0.0,0.0,0.0,0.3642967940488623,0.0,0.0,0.0,0.0,0.0,0.0,-42.164,0.0,0.0,0.0,0.0,0.0
500,0.0,0.3723056640625,0.0,0.0,0.0,0.0,0.0,0.0,-0.219,0.0,0.0,0.0,0.0,0.0,0.0,0.361886495466649,0.0,0.0,0.0,0.0,0.0,0.0,-42.112,0.0,0.0,0.0,0.0,0.0
501,0.0,0.3698359375,0.0,0.0,0.0,0.0,0.0,0.0,-0.245,0.0,0.0,0.0,0.0,0.0,0.0,0.3595102184003158,0.0,0.0,0.0,0.0,0.0,0.0,-43.676,0.0,0.0,0.0,0.0,0.0
502,0.0,0.3676748046875,0.0,0.0,0.0,0.0,0.0,0.0,-0.235,0.0,0.0,0.0,0.0,0.0,0.0,0.3571085003137788,0.0,0.0,0.0,0.0,0.0,0.0,-43.676,0.0,0.0,0.0,0.0,0.0
503,0.0,0.365205078125,0.0,0.0,0.0,0.0,0.0,0.0,-0.225,0.0,0.0,0.0,0.0,0.0,0.0,0.3546630434416042,0.0,0.0,0.0,0.0,0.0,0.0,-43.46,0.0,0.0,0.0,0.0,0.0
504,0.0,0.3626259765625,0.0,0.0,0.0,0.0,0.0,0.0,-0.254,0.0,0.0,0.0,0.0,0.0,0.0,0.3522635629088878,0.0,0.0,0.0,0.0,0.0,0.0,-43.136,0.0,0.0,0.0,0.0,0.0
505,0.0,0.36046484375,0.0,0.0,0.0,0.0,0.0,0.0,-0.242,0.0,0.0,0.0,0.0,0.0,0.0,0.34983697568961364,0.0,0.0,0.0,0.0,0.0,0.0,-41.788,0.0,0.0,0.0,0.0,0.0
506,0.0,0.357892578125,0.0,0.0,0.0,0.0,0.0,0.0,-0.236,0.0,0.0,0.0,0.0,0.0,0.0,0.3473349122044897,0.0,0.0,0.0,0.0,0.0,0.0,-41.68,0.0,0.0,0.0,0.0,0.0
507,0.0,0.355421875,0.0,0.0,0.0,0.0,0.0,0.0,-0.257,0.0,0.0,0.0,0.0,0.0,0.0,0.3449398522488752,0.0,0.0,0.0,0.0,0.0,0.0,-42.056,0.0,0.0,0.0,0.0,0.0
508,0.0,0.3528427734375,0.0,0.0,0.0,0.0,0.0,0.0,-0.253,0.0,0.0,0.0,0.0,0.0,0.0,0.34248434651913384,0.0,0.0,0.0,0.0,0.0,0.0,-42.92,0.0,0.0,0.0,0.0,0.0
509,0.0,0.350064453125,0.0,0.0,0.0,0.0,0.0,0.0,-0.27,0.0,0.0,0.0,0.0,0.0,0.0,0.33997132893537774,0.0,0.0,0.0,0.0,0.0,0.0,-42.704,0.0,0.0,0.0,0.0,0.0
510,0.0,0.3474853515625,0.0,0.0,0.0,0.0,0.0,0.0,-0.274,0.0,0.0,0.0,0.0,0.0,0.0,0.3375271446720713,0.0,0.0,0.0,0.0,0.0,0.0,-42.328,0.0,0.0,0.0,0.0,0.0
511,0.0,0.3451181640625,0.0,0.0,0.0,0.0,0.0,0.0,-0.25,0.0,0.0,0.0,0.0,0.0,0.0,0.3350530817432665,0.0,0.0,0.0,0.0,0.0,0.0,-42.488,0.0,0.0,0.0,0.0,0.0
512,0.0,0.342642578125,0.0,0.0,0.0,0.0,0.0,0.0,-0.243,0.0,0.0,0.0,0.0,0.0,0.0,0.33253630198863654,0.0,0.0,0.0,0.0,0.0,0.0,-42.544,0.0,0.0,0.0,0.0,0.0
513,0.0,0.340275390625,0.0,0.0,0.0,0.0,0.0,0.0,-0.242,0.0,0.0,0.0,0.0,0.0,0.0,0.330060865900106,0.0,0.0,0.0,0.0,0.0,0.0,-42.704,0.0,0.0,0.0,0.0,0.0
514,0.0,0.337599609375,0.0,0.0,0.0,0.0,0.0,0.0,-0.253,0.0,0.0,0.0,0.0,0.0,0.0,0.32754894253270367,0.0,0.0,0.0,0.0,0.0,0.0,-42.976,0.0,0.0,0.0,0.0,0.0
515,0.0,0.334923828125,0.0,0.0,0.0,0.0,0.0,0.0,-0.273,0.0,0.0,0.0,0.0,0.0,0.0,0.3250075908152384,0.0,0.0,0.0,0.0,0.0,0.0,-41.732,0.0,0.0,0.0,0.0,0.0
516,0.0,0.3323447265625,0.0,0.0,0.0,0.0,0.0,0.0,-0.265,0.0,0.0,0.0,0.0,0.0,0.0,0.3225058513228814,0.0,0.0,0.0,0.0,0.0,0.0,-40.544,0.0,0.0,0.0,0.0,0.0
517,0.0,0.3297724609375,0.0,0.0,0.0,0.0,0.0,0.0,-0.256,0.0,0.0,0.0,0.0,0.0,0.0,0.31996086669228535,0.0,0.0,0.0,0.0,0.0,0.0,-41.408,0.0,0.0,0.0,0.0,0.0
518,0.0,0.327302734375,0.0,0.0,0.0,0.0,0.0,0.0,-0.258,0.0,0.0,0.0,0.0,0.0,0.0,0.31740350281370827,0.0,0.0,0.0,0.0,0.0,0.0,-42.164,0.0,0.0,0.0,0.0,0.0
519,0.0,0.3248330078125,0.0,0.0,0.0,0.0,0.0,0.0,-0.249,0.0,0.0,0.0,0.0,0.0,0.0,0.3148710461897268,0.0,0.0,0.0,0.0,0.0,0.0,-43.192,0.0,0.0,0.0,0.0,0.0
520,0.0,0.3220478515625,0.0,0.0,0.0,0.0,0.0,0.0,-0.267,0.0,0.0,0.0,0.0,0.0,0.0,0.31231653376669927,0.0,0.0,0.0,0.0,0.0,0.0,-42.704,0.0,0.0,0.0,0.0,0.0
521,0.0,0.3196806640625,0.0,0.0,0.0,0.0,0.0,0.0,-0.26,0.0,0.0,0.0,0.0,0.0,0.0,0.30973695781386695,0.0,0.0,0.0,0.0,0.0,0.0,-41.3,0.0,0.0,0.0,0.0,0.0
522,0.0,0.3172109375,0.0,0.0,0.0,0.0,0.0,0.0,-0.239,0.0,0.0,0.0,0.0,0.0,0.0,0.30717535861989415,0.0,0.0,0.0,0.0,0.0,0.0,-42.652,0.0,0.0,0.0,0.0,0.0
523,0.0,0.3147412109375,0.0,0.0,0.0,0.0,0.0,0.0,-0.257,0.0,0.0,0.0,0.0,0.0,0.0,0.3045885248606883,0.0,0.0,0.0,0.0,0.0,0.0,-43.352,0.0,0.0,0.0,0.0,0.0
524,0.0,0.3123681640625,0.0,0.0,0.0,0.0,0.0,0.0,-0.243,0.0,0.0,0.0,0.0,0.0,0.0,0.3019292670422352,0.0,0.0,0.0,0.0,0.0,0.0,-43.352,0.0,0.0,0.0,0.0,0.0
525,0.0,0.30958984375,0.0,0.0,0.0,0.0,0.0,0.0,-0.257,0.0,0.0,0.0,0.0,0.0,0.0,0.2994005885130261,0.0,0.0,0.0,0.0,0.0,0.0,-42.812,0.0,0.0,0.0,0.0,0.0
526,0.0,0.3069140625,0.0,0.0,0.0,0.0,0.0,0.0,-0.279,0.0,0.0,0.0,0.0,0.0,0.0,0.2968093630350884,0.0,0.0,0.0,0.0,0.0,0.0,-42.488,0.0,0.0,0.0,0.0,0.0
527,0.0,0.3043408203125,0.0,0.0,0.0,0.0,0.0,0.0,-0.26,0.0,0.0,0.0,0.0,0.0,0.0,0.29415368542479853,0.0,0.0,0.0,0.0,0.0,0.0,-42.92,0.0,0.0,0.0,0.0,0.0
528,0.0,0.30176171875,0.0,0.0,0.0,0.0,0.0,0.0,-0.26,0.0,0.0,0.0,0.0,0.0,0.0,0.29158404689513256,0.0,0.0,0.0,0.0,0.0,0.0,-43.46,0.0,0.0,0.0,0.0,0.0
529,0.0,0.2992919921875,0.0,0.0,0.0,0.0,0.0,0.0,-0.258,0.0,0.0,0.0,0.0,0.0,0.0,0.28895749179946145,0.0,0.0,0.0,0.0,0.0,0.0,-43.352,0.0,0.0,0.0,0.0,0.0
530,0.0,0.2969248046875,0.0,0.0,0.0,0.0,0.0,0.0,-0.246,0.0,0.0,0.0,0.0,0.0,0.0,0.28630755314196726,0.0,0.0,0.0,0.0,0.0,0.0,-42.056,0.0,0.0,0.0,0.0,0.0
531,0.0,0.2943525390625,0.0,0.0,0.0,0.0,0.0,0.0,-0.249,0.0,0.0,0.0,0.0,0.0,0.0,0.2836818138495608,0.0,0.0,0.0,0.0,0.0,0.0,-42.488,0.0,0.0,0.0,0.0,0.0
532,0.0,0.2915673828125,0.0,0.0,0.0,0.0,0.0,0.0,-0.266,0.0,0.0,0.0,0.0,0.0,0.0,0.28104356091581917,0.0,0.0,0.0,0.0,0.0,0.0,-43.62,0.0,0.0,0.0,0.0,0.0
533,0.0,0.2889951171875,0.0,0.0,0.0,0.0,0.0,0.0,-0.269,0.0,0.0,0.0,0.0,0.0,0.0,0.2783629095686099,0.0,0.0,0.0,0.0,0.0,0.0,-43.296,0.0,0.0,0.0,0.0,0.0
534,0.0,0.2863193359375,0.0,0.0,0.0,0.0,0.0,0.0,-0.266,0.0,0.0,0.0,0.0,0.0,0.0,0.27572185183363684,0.0,0.0,0.0,0.0,0.0,0.0,-42.488,0.0,0.0,0.0,0.0,0.0
535,0.0,0.28374609375,0.0,0.0,0.0,0.0,0.0,0.0,-0.265,0.0,0.0,0.0,0.0,0.0,0.0,0.2730512672196753,0.0,0.0,0.0,0.0,0.0,0.0,-42.76,0.0,0.0,0.0,0.0,0.0
536,0.0,0.2812705078125,0.0,0.0,0.0,0.0,0.0,0.0,-0.26,0.0,0.0,0.0,0.0,0.0,0.0,0.27036956458723493,0.0,0.0,0.0,0.0,0.0,0.0,-42.596,0.0,0.0,0.0,0.0,0.0
537,0.0,0.278697265625,0.0,0.0,0.0,0.0,0.0,0.0,-0.25,0.0,0.0,0.0,0.0,0.0,0.0,0.26765847076477606,0.0,0.0,0.0,0.0,0.0,0.0,-42.976,0.0,0.0,0.0,0.0,0.0
538,0.0,0.2759189453125,0.0,0.0,0.0,0.0,0.0,0.0,-0.268,0.0,0.0,0.0,0.0,0.0,0.0,0.26500522351676986,0.0,0.0,0.0,0.0,0.0,0.0,-44.756,0.0,0.0,0.0,0.0,0.0
539,0.0,0.273140625,0.0,0.0,0.0,0.0,0.0,0.0,-0.286,0.0,0.0,0.0,0.0,0.0,0.0,0.2622982418606575,0.0,0.0,0.0,0.0,0.0,0.0,-44.268,0.0,0.0,0.0,0.0,0.0
540,0.0,0.2706640625,0.0,0.0,0.0,0.0,0.0,0.0,-0.263,0.0,0.0,0.0,0.0,0.0,0.0,0.25958735191313365,0.0,0.0,0.0,0.0,0.0,0.0,-42.38,0.0,0.0,0.0,0.0,0.0
541,0.0,0.268091796875,0.0,0.0,0.0,0.0,0.0,0.0,-0.25,0.0,0.0,0.0,0.0,0.0,0.0,0.25690845113953037,0.0,0.0,0.0,0.0,0.0,0.0,-42.544,0.0,0.0,0.0,0.0,0.0
542,0.0,0.2656220703125,0.0,0.0,0.0,0.0,0.0,0.0,-0.256,0.0,0.0,0.0,0.0,0.0,0.0,0.25416100164543715,0.0,0.0,0.0,0.0,0.0,0.0,-43.084,0.0,0.0,0.0,0.0,0.0
543,0.0,0.263048828125,0.0,0.0,0.0,0.0,0.0,0.0,-0.25,0.0,0.0,0.0,0.0,0.0,0.0,0.25141386116251624,0.0,0.0,0.0,0.0,0.0,0.0,-44.216,0.0,0.0,0.0,0.0,0.0
544,0.0,0.2598525390625,0.0,0.0,0.0,0.0,0.0,0.0,-0.287,0.0,0.0,0.0,0.0,0.0,0.0,0.24873542885505331,0.0,0.0,0.0,0.0,0.0,0.0,-44.484,0.0,0.0,0.0,0.0,0.0
545,0.0,0.256970703125,0.0,0.0,0.0,0.0,0.0,0.0,-0.31,0.0,0.0,0.0,0.0,0.0,0.0,0.24598360839253253,0.0,0.0,0.0,0.0,0.0,0.0,-43.568,0.0,0.0,0.0,0.0,0.0
546,0.0,0.2541923828125,0.0,0.0,0.0,0.0,0.0,0.0,-0.286,0.0,0.0,0.0,0.0,0.0,0.0,0.24321875414355834,0.0,0.0,0.0,0.0,0.0,0.0,-43.892,0.0,0.0,0.0,0.0,0.0
547,0.0,0.2517158203125,0.0,0.0,0.0,0.0,0.0,0.0,-0.275,0.0,0.0,0.0,0.0,0.0,0.0,0.24051782201135385,0.0,0.0,0.0,0.0,0.0,0.0,-43.028,0.0,0.0,0.0,0.0,0.0
548,0.0,0.24924609375,0.0,0.0,0.0,0.0,0.0,0.0,-0.243,0.0,0.0,0.0,0.0,0.0,0.0,0.23775564573996066,0.0,0.0,0.0,0.0,0.0,0.0,-45.024,0.0,0.0,0.0,0.0,0.0
549,0.0,0.2464677734375,0.0,0.0,0.0,0.0,0.0,0.0,-0.261,0.0,0.0,0.0,0.0,0.0,0.0,0.23498116107751352,0.0,0.0,0.0,0.0,0.0,0.0,-44.268,0.0,0.0,0.0,0.0,0.0
550,0.0,0.2437919921875,0.0,0.0,0.0,0.0,0.0,0.0,-0.276,0.0,0.0,0.0,0.0,0.0,0.0,0.2322574465626941,0.0,0.0,0.0,0.0,0.0,0.0,-42.76,0.0,0.0,0.0,0.0,0.0
551,0.0,0.2408017578125,0.0,0.0,0.0,0.0,0.0,0.0,-0.29,0.0,0.0,0.0,0.0,0.0,0.0,0.22948949633793378,0.0,0.0,0.0,0.0,0.0,0.0,-42.272,0.0,0.0,0.0,0.0,0.0
552,0.0,0.2380224609375,0.0,0.0,0.0,0.0,0.0,0.0,-0.294,0.0,0.0,0.0,0.0,0.0,0.0,0.226672569052014,0.0,0.0,0.0,0.0,0.0,0.0,-41.896,0.0,0.0,0.0,0.0,0.0
553,0.0,0.235244140625,0.0,0.0,0.0,0.0,0.0,0.0,-0.271,0.0,0.0,0.0,0.0,0.0,0.0,0.22393659937695018,0.0,0.0,0.0,0.0,0.0,0.0,-43.892,0.0,0.0,0.0,0.0,0.0
554,0.0,0.232458984375,0.0,0.0,0.0,0.0,0.0,0.0,-0.287,0.0,0.0,0.0,0.0,0.0,0.0,0.22114221733952052,0.0,0.0,0.0,0.0,0.0,0.0,-44.484,0.0,0.0,0.0,0.0,0.0
555,0.0,0.2296806640625,0.0,0.0,0.0,0.0,0.0,0.0,-0.283,0.0,0.0,0.0,0.0,0.0,0.0,0.2183291490003942,0.0,0.0,0.0,0.0,0.0,0.0,-44.592,0.0,0.0,0.0,0.0,0.0
556,0.0,0.2266962890625,0.0,0.0,0.0,0.0,0.0,0.0,-0.288,0.0,0.0,0.0,0.0,0.0,0.0,0.2155399088389857,0.0,0.0,0.0,0.0,0.0,0.0,-44.324,0.0,0.0,0.0,0.0,0.0
557,0.0,0.2240205078125,0.0,0.0,0.0,0.0,0.0,0.0,-0.286,0.0,0.0,0.0,0.0,0.0,0.0,0.2127532018482727,0.0,0.0,0.0,0.0,0.0,0.0,-43.084,0.0,0.0,0.0,0.0,0.0
558,0.0,0.22144140625,0.0,0.0,0.0,0.0,0.0,0.0,-0.263,0.0,0.0,0.0,0.0,0.0,0.0,0.20992244007977057,0.0,0.0,0.0,0.0,0.0,0.0,-44.592,0.0,0.0,0.0,0.0,0.0
559,0.0,0.218560546875,0.0,0.0,0.0,0.0,0.0,0.0,-0.275,0.0,0.0,0.0,0.0,0.0,0.0,0.2071291723732643,0.0,0.0,0.0,0.0,0.0,0.0,-44.54,0.0,0.0,0.0,0.0,0.0
560,0.0,0.2157822265625,0.0,0.0,0.0,0.0,0.0,0.0,-0.284,0.0,0.0,0.0,0.0,0.0,0.0,0.20431156512138876,0.0,0.0,0.0,0.0,0.0,0.0,-44.16,0.0,0.0,0.0,0.0,0.0
561,0.0,0.2125849609375,0.0,0.0,0.0,0.0,0.0,0.0,-0.302,0.0,0.0,0.0,0.0,0.0,0.0,0.20145247078172926,0.0,0.0,0.0,0.0,0.0,0.0,-43.512,0.0,0.0,0.0,0.0,0.0
562,0.0,0.2096005859375,0.0,0.0,0.0,0.0,0.0,0.0,-0.311,0.0,0.0,0.0,0.0,0.0,0.0,0.19865097998875234,0.0,0.0,0.0,0.0,0.0,0.0,-43.084,0.0,0.0,0.0,0.0,0.0
563,0.0,0.2069248046875,0.0,0.0,0.0,0.0,0.0,0.0,-0.288,0.0,0.0,0.0,0.0,0.0,0.0,0.19582933725308027,0.0,0.0,0.0,0.0,0.0,0.0,-42.92,0.0,0.0,0.0,0.0,0.0
564,0.0,0.204146484375,0.0,0.0,0.0,0.0,0.0,0.0,-0.277,0.0,0.0,0.0,0.0,0.0,0.0,0.19292583481396142,0.0,0.0,0.0,0.0,0.0,0.0,-44.108,0.0,0.0,0.0,0.0,0.0
565,0.0,0.201361328125,0.0,0.0,0.0,0.0,0.0,0.0,-0.278,0.0,0.0,0.0,0.0,0.0,0.0,0.19013878895543734,0.0,0.0,0.0,0.0,0.0,0.0,-43.892,0.0,0.0,0.0,0.0,0.0
566,0.0,0.1986865234375,0.0,0.0,0.0,0.0,0.0,0.0,-0.27,0.0,0.0,0.0,0.0,0.0,0.0,0.18728452454400418,0.0,0.0,0.0,0.0,0.0,0.0,-43.244,0.0,0.0,0.0,0.0,0.0
567,0.0,0.1958046875,0.0,0.0,0.0,0.0,0.0,0.0,-0.283,0.0,0.0,0.0,0.0,0.0,0.0,0.18439152480833457,0.0,0.0,0.0,0.0,0.0,0.0,-42.22,0.0,0.0,0.0,0.0,0.0
568,0.0,0.19301953125,0.0,0.0,0.0,0.0,0.0,0.0,-0.285,0.0,0.0,0.0,0.0,0.0,0.0,0.18157961338342815,0.0,0.0,0.0,0.0,0.0,0.0,-42.488,0.0,0.0,0.0,0.0,0.0
569,0.0,0.190138671875,0.0,0.0,0.0,0.0,0.0,0.0,-0.282,0.0,0.0,0.0,0.0,0.0,0.0,0.1787257519996028,0.0,0.0,0.0,0.0,0.0,0.0,-44.268,0.0,0.0,0.0,0.0,0.0
570,0.0,0.187154296875,0.0,0.0,0.0,0.0,0.0,0.0,-0.301,0.0,0.0,0.0,0.0,0.0,0.0,0.1758390669465934,0.0,0.0,0.0,0.0,0.0,0.0,-44.592,0.0,0.0,0.0,0.0,0.0
571,0.0,0.184369140625,0.0,0.0,0.0,0.0,0.0,0.0,-0.289,0.0,0.0,0.0,0.0,0.0,0.0,0.17298785151432436,0.0,0.0,0.0,0.0,0.0,0.0,-44.592,0.0,0.0,0.0,0.0,0.0
572,0.0,0.1814873046875,0.0,0.0,0.0,0.0,0.0,0.0,-0.286,0.0,0.0,0.0,0.0,0.0,0.0,0.17011542737707774,0.0,0.0,0.0,0.0,0.0,0.0,-43.296,0.0,0.0,0.0,0.0,0.0
573,0.0,0.1789150390625,0.0,0.0,0.0,0.0,0.0,0.0,-0.279,0.0,0.0,0.0,0.0,0.0,0.0,0.16721622650262227,0.0,0.0,0.0,0.0,0.0,0.0,-44.216,0.0,0.0,0.0,0.0,0.0
574,0.0,0.176033203125,0.0,0.0,0.0,0.0,0.0,0.0,-0.269,0.0,0.0,0.0,0.0,0.0,0.0,0.16434945182238048,0.0,0.0,0.0,0.0,0.0,0.0,-46.32,0.0,0.0,0.0,0.0,0.0
575,0.0,0.173248046875,0.0,0.0,0.0,0.0,0.0,0.0,-0.29,0.0,0.0,0.0,0.0,0.0,0.0,0.1614664910476259,0.0,0.0,0.0,0.0,0.0,0.0,-45.78,0.0,0.0,0.0,0.0,0.0
576,0.0,0.170263671875,0.0,0.0,0.0,0.0,0.0,0.0,-0.291,0.0,0.0,0.0,0.0,0.0,0.0,0.1585297000245596,0.0,0.0,0.0,0.0,0.0,0.0,-44.972,0.0,0.0,0.0,0.0,0.0
577,0.0,0.1671767578125,0.0,0.0,0.0,0.0,0.0,0.0,-0.307,0.0,0.0,0.0,0.0,0.0,0.0,0.15567344023861032,0.0,0.0,0.0,0.0,0.0,0.0,-43.404,0.0,0.0,0.0,0.0,0.0
578,0.0,0.1642890625,0.0,0.0,0.0,0.0,0.0,0.0,-0.298,0.0,0.0,0.0,0.0,0.0,0.0,0.152780953455869,0.0,0.0,0.0,0.0,0.0,0.0,-43.728,0.0,0.0,0.0,0.0,0.0
579,0.0,0.1614072265625,0.0,0.0,0.0,0.0,0.0,0.0,-0.29,0.0,0.0,0.0,0.0,0.0,0.0,0.14986894321519842,0.0,0.0,0.0,0.0,0.0,0.0,-44.808,0.0,0.0,0.0,0.0,0.0
580,0.0,0.1584228515625,0.0,0.0,0.0,0.0,0.0,0.0,-0.296,0.0,0.0,0.0,0.0,0.0,0.0,0.14696363439359195,0.0,0.0,0.0,0.0,0.0,0.0,-45.24,0.0,0.0,0.0,0.0,0.0
581,0.0,0.1553291015625,0.0,0.0,0.0,0.0,0.0,0.0,-0.305,0.0,0.0,0.0,0.0,0.0,0.0,0.14407180518021723,0.0,0.0,0.0,0.0,0.0,0.0,-44.916,0.0,0.0,0.0,0.0,0.0
582,0.0,0.1523447265625,0.0,0.0,0.0,0.0,0.0,0.0,-0.31,0.0,0.0,0.0,0.0,0.0,0.0,0.14113533491049918,0.0,0.0,0.0,0.0,0.0,0.0,-43.676,0.0,0.0,0.0,0.0,0.0
583,0.0,0.1494638671875,0.0,0.0,0.0,0.0,0.0,0.0,-0.295,0.0,0.0,0.0,0.0,0.0,0.0,0.13822653304893065,0.0,0.0,0.0,0.0,0.0,0.0,-43.62,0.0,0.0,0.0,0.0,0.0
584,0.0,0.1466787109375,0.0,0.0,0.0,0.0,0.0,0.0,-0.287,0.0,0.0,0.0,0.0,0.0,0.0,0.13531778041162057,0.0,0.0,0.0,0.0,0.0,0.0,-44.16,0.0,0.0,0.0,0.0,0.0
585,0.0,0.1436943359375,0.0,0.0,0.0,0.0,0.0,0.0,-0.288,0.0,0.0,0.0,0.0,0.0,0.0,0.1323691174897653,0.0,0.0,0.0,0.0,0.0,0.0,-43.784,0.0,0.0,0.0,0.0,0.0
586,0.0,0.140703125,0.0,0.0,0.0,0.0,0.0,0.0,-0.298,0.0,0.0,0.0,0.0,0.0,0.0,0.12944809984177466,0.0,0.0,0.0,0.0,0.0,0.0,-42.812,0.0,0.0,0.0,0.0,0.0
587,0.0,0.1375068359375,0.0,0.0,0.0,0.0,0.0,0.0,-0.312,0.0,0.0,0.0,0.0,0.0,0.0,0.12653448819647892,0.0,0.0,0.0,0.0,0.0,0.0,-43.676,0.0,0.0,0.0,0.0,0.0
588,0.0,0.134419921875,0.0,0.0,0.0,0.0,0.0,0.0,-0.323,0.0,0.0,0.0,0.0,0.0,0.0,0.12358128492540087,0.0,0.0,0.0,0.0,0.0,0.0,-44.0,0.0,0.0,0.0,0.0,0.0
589,0.0,0.131744140625,0.0,0.0,0.0,0.0,0.0,0.0,-0.292,0.0,0.0,0.0,0.0,0.0,0.0,0.12063966544277208,0.0,0.0,0.0,0.0,0.0,0.0,-43.728,0.0,0.0,0.0,0.0,0.0
590,0.0,0.1288623046875,0.0,0.0,0.0,0.0,0.0,0.0,-0.28,0.0,0.0,0.0,0.0,0.0,0.0,0.1177235661234027,0.0,0.0,0.0,0.0,0.0,0.0,-44.808,0.0,0.0,0.0,0.0,0.0
591,0.0,0.1260771484375,0.0,0.0,0.0,0.0,0.0,0.0,-0.286,0.0,0.0,0.0,0.0,0.0,0.0,0.1147736818685802,0.0,0.0,0.0,0.0,0.0,0.0,-45.024,0.0,0.0,0.0,0.0,0.0
592,0.0,0.1231962890625,0.0,0.0,0.0,0.0,0.0,0.0,-0.28,0.0,0.0,0.0,0.0,0.0,0.0,0.11179575749671093,0.0,0.0,0.0,0.0,0.0,0.0,-45.08,0.0,0.0,0.0,0.0,0.0
593,0.0,0.120109375,0.0,0.0,0.0,0.0,0.0,0.0,-0.302,0.0,0.0,0.0,0.0,0.0,0.0,0.10887821196971564,0.0,0.0,0.0,0.0,0.0,0.0,-43.568,0.0,0.0,0.0,0.0,0.0
594,0.0,0.11732421875,0.0,0.0,0.0,0.0,0.0,0.0,-0.299,0.0,0.0,0.0,0.0,0.0,0.0,0.10593406537697825,0.0,0.0,0.0,0.0,0.0,0.0,-42.112,0.0,0.0,0.0,0.0,0.0
595,0.0,0.11433984375,0.0,0.0,0.0,0.0,0.0,0.0,-0.286,0.0,0.0,0.0,0.0,0.0,0.0,0.10294528685415213,0.0,0.0,0.0,0.0,0.0,0.0,-43.512,0.0,0.0,0.0,0.0,0.0
596,0.0,0.11135546875,0.0,0.0,0.0,0.0,0.0,0.0,-0.307,0.0,0.0,0.0,0.0,0.0,0.0,0.10001332709548054,0.0,0.0,0.0,0.0,0.0,0.0,-45.564,0.0,0.0,0.0,0.0,0.0
597,0.0,0.1086728515625,0.0,0.0,0.0,0.0,0.0,0.0,-0.289,0.0,0.0,0.0,0.0,0.0,0.0,0.0970537811180922,0.0,0.0,0.0,0.0,0.0,0.0,-44.648,0.0,0.0,0.0,0.0,0.0
598,0.0,0.1055859375,0.0,0.0,0.0,0.0,0.0,0.0,-0.282,0.0,0.0,0.0,0.0,0.0,0.0,0.09406630699724,0.0,0.0,0.0,0.0,0.0,0.0,-45.132,0.0,0.0,0.0,0.0,0.0
599,0.0,0.1028134765625,0.0,0.0,0.0,0.0,0.0,0.0,-0.305,0.0,0.0,0.0,0.0,0.0,0.0,0.09111235390034794,0.0,0.0,0.0,0.0,0.0,0.0,-43.784,0.0,0.0,0.0,0.0,0.0
600,0.0,0.100337890625,0.0,0.0,0.0,0.0,0.0,0.0,-0.261,0.0,0.0,0.0,0.0,0.0,0.0,0.08814333285939543,0.0,0.0,0.0,0.0,0.0,0.0,-44.108,0.0,0.0,0.0,0.0,0.0
601,0.0,0.097353515625,0.0,0.0,0.0,0.0,0.0,0.0,-0.269,0.0,0.0,0.0,0.0,0.0,0.0,0.08516828097960173,0.0,0.0,0.0,0.0,0.0,0.0,-44.484,0.0,0.0,0.0,0.0,0.0
602,0.0,0.094369140625,0.0,0.0,0.0,0.0,0.0,0.0,-0.304,0.0,0.0,0.0,0.0,0.0,0.0,0.0822260909547535,0.0,0.0,0.0,0.0,0.0,0.0,-44.808,0.0,0.0,0.0,0.0,0.0
603,0.0,0.091275390625,0.0,0.0,0.0,0.0,0.0,0.0,-0.304,0.0,0.0,0.0,0.0,0.0,0.0,0.07925366684724165,0.0,0.0,0.0,0.0,0.0,0.0,-44.54,0.0,0.0,0.0,0.0,0.0
604,0.0,0.088291015625,0.0,0.0,0.0,0.0,0.0,0.0,-0.312,0.0,0.0,0.0,0.0,0.0,0.0,0.07624776200800525,0.0,0.0,0.0,0.0,0.0,0.0,-43.512,0.0,0.0,0.0,0.0,0.0
605,0.0,0.0854091796875,0.0,0.0,0.0,0.0,0.0,0.0,-0.293,0.0,0.0,0.0,0.0,0.0,0.0,0.07328932005419526,0.0,0.0,0.0,0.0,0.0,0.0,-45.728,0.0,0.0,0.0,0.0,0.0
606,0.0,0.082521484375,0.0,0.0,0.0,0.0,0.0,0.0,-0.288,0.0,0.0,0.0,0.0,0.0,0.0,0.07032189388327109,0.0,0.0,0.0,0.0,0.0,0.0,-46.16,0.0,0.0,0.0,0.0,0.0
607,0.0,0.0797431640625,0.0,0.0,0.0,0.0,0.0,0.0,-0.282,0.0,0.0,0.0,0.0,0.0,0.0,0.06730858581655168,0.0,0.0,0.0,0.0,0.0,0.0,-46.32,0.0,0.0,0.0,0.0,0.0
608,0.0,0.0766552734375,0.0,0.0,0.0,0.0,0.0,0.0,-0.295,0.0,0.0,0.0,0.0,0.0,0.0,0.0643380744692089,0.0,0.0,0.0,0.0,0.0,0.0,-45.996,0.0,0.0,0.0,0.0,0.0
609,0.0,0.0735625,0.0,0.0,0.0,0.0,0.0,0.0,-0.314,0.0,0.0,0.0,0.0,0.0,0.0,0.061362907452443924,0.0,0.0,0.0,0.0,0.0,0.0,-44.216,0.0,0.0,0.0,0.0,0.0
610,0.0,0.070578125,0.0,0.0,0.0,0.0,0.0,0.0,-0.305,0.0,0.0,0.0,0.0,0.0,0.0,0.05836087260462159,0.0,0.0,0.0,0.0,0.0,0.0,-44.324,0.0,0.0,0.0,0.0,0.0
611,0.0,0.0672841796875,0.0,0.0,0.0,0.0,0.0,0.0,-0.318,0.0,0.0,0.0,0.0,0.0,0.0,0.05538748826642625,0.0,0.0,0.0,0.0,0.0,0.0,-45.404,0.0,0.0,0.0,0.0,0.0
612,0.0,0.0642939453125,0.0,0.0,0.0,0.0,0.0,0.0,-0.319,0.0,0.0,0.0,0.0,0.0,0.0,0.052414013907425734,0.0,0.0,0.0,0.0,0.0,0.0,-45.296,0.0,0.0,0.0,0.0,0.0
613,0.0,0.06120703125,0.0,0.0,0.0,0.0,0.0,0.0,-0.305,0.0,0.0,0.0,0.0,0.0,0.0,0.0493910547673174,0.0,0.0,0.0,0.0,0.0,0.0,-44.484,0.0,0.0,0.0,0.0,0.0
614,0.0,0.05822265625,0.0,0.0,0.0,0.0,0.0,0.0,-0.309,0.0,0.0,0.0,0.0,0.0,0.0,0.046394002492788085,0.0,0.0,0.0,0.0,0.0,0.0,-43.244,0.0,0.0,0.0,0.0,0.0
615,0.0,0.0554375,0.0,0.0,0.0,0.0,0.0,0.0,-0.29,0.0,0.0,0.0,0.0,0.0,0.0,0.04341112293316814,0.0,0.0,0.0,0.0,0.0,0.0,-43.512,0.0,0.0,0.0,0.0,0.0
616,0.0,0.052453125,0.0,0.0,0.0,0.0,0.0,0.0,-0.288,0.0,0.0,0.0,0.0,0.0,0.0,0.040422383079776796,0.0,0.0,0.0,0.0,0.0,0.0,-43.244,0.0,0.0,0.0,0.0,0.0
617,0.0,0.04946875,0.0,0.0,0.0,0.0,0.0,0.0,-0.299,0.0,0.0,0.0,0.0,0.0,0.0,0.03741071971831082,0.0,0.0,0.0,0.0,0.0,0.0,-43.568,0.0,0.0,0.0,0.0,0.0
618,0.0,0.0461689453125,0.0,0.0,0.0,0.0,0.0,0.0,-0.317,0.0,0.0,0.0,0.0,0.0,0.0,0.03444152575369517,0.0,0.0,0.0,0.0,0.0,0.0,-44.864,0.0,0.0,0.0,0.0,0.0
619,0.0,0.0428759765625,0.0,0.0,0.0,0.0,0.0,0.0,-0.338,0.0,0.0,0.0,0.0,0.0,0.0,0.031448771464145,0.0,0.0,0.0,0.0,0.0,0.0,-44.756,0.0,0.0,0.0,0.0,0.0
620,0.0,0.04009765625,0.0,0.0,0.0,0.0,0.0,0.0,-0.308,0.0,0.0,0.0,0.0,0.0,0.0,0.02843544207642543,0.0,0.0,0.0,0.0,0.0,0.0,-43.084,0.0,0.0,0.0,0.0,0.0
621,0.0,0.0372099609375,0.0,0.0,0.0,0.0,0.0,0.0,-0.28,0.0,0.0,0.0,0.0,0.0,0.0,0.025446262207427513,0.0,0.0,0.0,0.0,0.0,0.0,-44.268,0.0,0.0,0.0,0.0,0.0
622,0.0,0.0344306640625,0.0,0.0,0.0,0.0,0.0,0.0,-0.289,0.0,0.0,0.0,0.0,0.0,0.0,0.02245702129020333,0.0,0.0,0.0,0.0,0.0,0.0,-46.428,0.0,0.0,0.0,0.0,0.0
623,0.0,0.0314462890625,0.0,0.0,0.0,0.0,0.0,0.0,-0.289,0.0,0.0,0.0,0.0,0.0,0.0,0.019412104811910285,0.0,0.0,0.0,0.0,0.0,0.0,-46.752,0.0,0.0,0.0,0.0,0.0
624,0.0,0.02825,0.0,0.0,0.0,0.0,0.0,0.0,-0.307,0.0,0.0,0.0,0.0,0.0,0.0,0.016440403083135473,0.0,0.0,0.0,0.0,0.0,0.0,-44.7,0.0,0.0,0.0,0.0,0.0
625,0.0,0.0251630859375,0.0,0.0,0.0,0.0,0.0,0.0,-0.319,0.0,0.0,0.0,0.0,0.0,0.0,0.013457571566435478,0.0,0.0,0.0,0.0,0.0,0.0,-43.892,0.0,0.0,0.0,0.0,0.0
626,0.0,0.02228125,0.0,0.0,0.0,0.0,0.0,0.0,-0.308,0.0,0.0,0.0,0.0,0.0,0.0,0.010450664363680391,0.0,0.0,0.0,0.0,0.0,0.0,-43.028,0.0,0.0,0.0,0.0,0.0
627,0.0,0.019599609375,0.0,0.0,0.0,0.0,0.0,0.0,-0.281,0.0,0.0,0.0,0.0,0.0,0.0,0.007478610926958134,0.0,0.0,0.0,0.0,0.0,0.0,-43.192,0.0,0.0,0.0,0.0,0.0
628,0.0,0.01651171875,0.0,0.0,0.0,0.0,0.0,0.0,-0.281,0.0,0.0,0.0,0.0,0.0,0.0,0.00444722394822466,0.0,0.0,0.0,0.0,0.0,0.0,-45.188,0.0,0.0,0.0,0.0,0.0
629,0.0,0.013322265625,0.0,0.0,0.0,0.0,0.0,0.0,-0.316,0.0,0.0,0.0,0.0,0.0,0.0,0.0013977705694324363,0.0,0.0,0.0,0.0,0.0,0.0,-46.16,0.0,0.0,0.0,0.0,0.0
630,0.0,0.0100224609375,0.0,0.0,0.0,0.0,0.0,0.0,-0.326,0.0,0.0,0.0,0.0,0.0,0.0,-0.001518181136085048,0.0,0.0,0.0,0.0,0.0,0.0,-45.296,0.0,0.0,0.0,0.0,0.0
631,0.0,0.007244140625,0.0,0.0,0.0,0.0,0.0,0.0,-0.313,0.0,0.0,0.0,0.0,0.0,0.0,-0.004546675083968423,0.0,0.0,0.0,0.0,0.0,0.0,-42.328,0.0,0.0,0.0,0.0,0.0
632,0.0,0.0047744140625,0.0,0.0,0.0,0.0,0.0,0.0,-0.266,0.0,0.0,0.0,0.0,0.0,0.0,-0.007554312424807773,0.0,0.0,0.0,0.0,0.0,0.0,-43.296,0.0,0.0,0.0,0.0,0.0
633,0.0,0.0019892578125,0.0,0.0,0.0,0.0,0.0,0.0,-0.265,0.0,0.0,0.0,0.0,0.0,0.0,-0.010517349397730157,0.0,0.0,0.0,0.0,0.0,0.0,-44.376,0.0,0.0,0.0,0.0,0.0
634,0.0,-0.000892578125,0.0,0.0,0.0,0.0,0.0,0.0,-0.283,0.0,0.0,0.0,0.0,0.0,0.0,-0.013520674550936583,0.0,0.0,0.0,0.0,0.0,0.0,-44.432,0.0,0.0,0.0,0.0,0.0
635,0.0,-0.0042880859375,0.0,0.0,0.0,0.0,0.0,0.0,-0.307,0.0,0.0,0.0,0.0,0.0,0.0,-0.016554190616314177,0.0,0.0,0.0,0.0,0.0,0.0,-44.808,0.0,0.0,0.0,0.0,0.0
636,0.0,-0.0076904296875,0.0,0.0,0.0,0.0,0.0,0.0,-0.35,0.0,0.0,0.0,0.0,0.0,0.0,-0.01952108576402263,0.0,0.0,0.0,0.0,0.0,0.0,-45.456,0.0,0.0,0.0,0.0,0.0
637,0.0,-0.0103662109375,0.0,0.0,0.0,0.0,0.0,0.0,-0.314,0.0,0.0,0.0,0.0,0.0,0.0,-0.022516808018632102,0.0,0.0,0.0,0.0,0.0,0.0,-43.62,0.0,0.0,0.0,0.0,0.0
638,0.0,-0.012939453125,0.0,0.0,0.0,0.0,0.0,0.0,-0.26,0.0,0.0,0.0,0.0,0.0,0.0,-0.02553840877101985,0.0,0.0,0.0,0.0,0.0,0.0,-44.592,0.0,0.0,0.0,0.0,0.0
639,0.0,-0.0157236328125,0.0,0.0,0.0,0.0,0.0,0.0,-0.271,0.0,0.0,0.0,0.0,0.0,0.0,-0.02851256456007236,0.0,0.0,0.0,0.0,0.0,0.0,-46.32,0.0,0.0,0.0,0.0,0.0
640,0.0,-0.0183994140625,0.0,0.0,0.0,0.0,0.0,0.0,-0.272,0.0,0.0,0.0,0.0,0.0,0.0,-0.03151358913646106,0.0,0.0,0.0,0.0,0.0,0.0,-45.62,0.0,0.0,0.0,0.0,0.0
641,0.0,-0.0217958984375,0.0,0.0,0.0,0.0,0.0,0.0,-0.298,0.0,0.0,0.0,0.0,0.0,0.0,-0.03455609629828311,0.0,0.0,0.0,0.0,0.0,0.0,-44.324,0.0,0.0,0.0,0.0,0.0
642,0.0,-0.0250947265625,0.0,0.0,0.0,0.0,0.0,0.0,-0.342,0.0,0.0,0.0,0.0,0.0,0.0,-0.03748870667119957,0.0,0.0,0.0,0.0,0.0,0.0,-44.376,0.0,0.0,0.0,0.0,0.0
643,0.0,-0.0280791015625,0.0,0.0,0.0,0.0,0.0,0.0,-0.319,0.0,0.0,0.0,0.0,0.0,0.0,-0.040478436217487236,0.0,0.0,0.0,0.0,0.0,0.0,-45.836,0.0,0.0,0.0,0.0,0.0
644,0.0,-0.0310634765625,0.0,0.0,0.0,0.0,0.0,0.0,-0.304,0.0,0.0,0.0,0.0,0.0,0.0,-0.043537780412345295,0.0,0.0,0.0,0.0,0.0,0.0,-44.7,0.0,0.0,0.0,0.0,0.0
645,0.0,-0.033642578125,0.0,0.0,0.0,0.0,0.0,0.0,-0.281,0.0,0.0,0.0,0.0,0.0,0.0,-0.04646506163248519,0.0,0.0,0.0,0.0,0.0,0.0,-45.24,0.0,0.0,0.0,0.0,0.0
646,0.0,-0.0369365234375,0.0,0.0,0.0,0.0,0.0,0.0,-0.287,0.0,0.0,0.0,0.0,0.0,0.0,-0.04944975355988714,0.0,0.0,0.0,0.0,0.0,0.0,-46.808,0.0,0.0,0.0,0.0,0.0
647,0.0,-0.0400234375,0.0,0.0,0.0,0.0,0.0,0.0,-0.327,0.0,0.0,0.0,0.0,0.0,0.0,-0.05246520600464218,0.0,0.0,0.0,0.0,0.0,0.0,-45.348,0.0,0.0,0.0,0.0,0.0
648,0.0,-0.0431171875,0.0,0.0,0.0,0.0,0.0,0.0,-0.308,0.0,0.0,0.0,0.0,0.0,0.0,-0.05543694811081885,0.0,0.0,0.0,0.0,0.0,0.0,-44.432,0.0,0.0,0.0,0.0,0.0
649,0.0,-0.0465126953125,0.0,0.0,0.0,0.0,0.0,0.0,-0.327,0.0,0.0,0.0,0.0,0.0,0.0,-0.05841799706561939,0.0,0.0,0.0,0.0,0.0,0.0,-44.216,0.0,0.0,0.0,0.0,0.0
650,0.0,-0.0492978515625,0.0,0.0,0.0,0.0,0.0,0.0,-0.321,0.0,0.0,0.0,0.0,0.0,0.0,-0.06142391634350913,0.0,0.0,0.0,0.0,0.0,0.0,-43.244,0.0,0.0,0.0,0.0,0.0
651,0.0,-0.052384765625,0.0,0.0,0.0,0.0,0.0,0.0,-0.284,0.0,0.0,0.0,0.0,0.0,0.0,-0.06439336231797604,0.0,0.0,0.0,0.0,0.0,0.0,-44.648,0.0,0.0,0.0,0.0,0.0
652,0.0,-0.05578125,0.0,0.0,0.0,0.0,0.0,0.0,-0.328,0.0,0.0,0.0,0.0,0.0,0.0,-0.06737045308293321,0.0,0.0,0.0,0.0,0.0,0.0,-45.728,0.0,0.0,0.0,0.0,0.0
653,0.0,-0.058771484375,0.0,0.0,0.0,0.0,0.0,0.0,-0.327,0.0,0.0,0.0,0.0,0.0,0.0,-0.07038756074554628,0.0,0.0,0.0,0.0,0.0,0.0,-44.756,0.0,0.0,0.0,0.0,0.0
654,0.0,-0.0620654296875,0.0,0.0,0.0,0.0,0.0,0.0,-0.309,0.0,0.0,0.0,0.0,0.0,0.0,-0.07334749362592866,0.0,0.0,0.0,0.0,0.0,0.0,-43.784,0.0,0.0,0.0,0.0,0.0
655,0.0,-0.0649462890625,0.0,0.0,0.0,0.0,0.0,0.0,-0.322,0.0,0.0,0.0,0.0,0.0,0.0,-0.07631093634611956,0.0,0.0,0.0,0.0,0.0,0.0,-43.084,0.0,0.0,0.0,0.0,0.0
656,0.0,-0.067525390625,0.0,0.0,0.0,0.0,0.0,0.0,-0.272,0.0,0.0,0.0,0.0,0.0,0.0,-0.07930467591985052,0.0,0.0,0.0,0.0,0.0,0.0,-43.192,0.0,0.0,0.0,0.0,0.0
657,0.0,-0.07061328125,0.0,0.0,0.0,0.0,0.0,0.0,-0.28,0.0,0.0,0.0,0.0,0.0,0.0,-0.08227883664247716,0.0,0.0,0.0,0.0,0.0,0.0,-43.836,0.0,0.0,0.0,0.0,0.0
658,0.0,-0.07390625,0.0,0.0,0.0,0.0,0.0,0.0,-0.326,0.0,0.0,0.0,0.0,0.0,0.0,-0.08522537949595627,0.0,0.0,0.0,0.0,0.0,0.0,-44.756,0.0,0.0,0.0,0.0,0.0
659,0.0,-0.077,0.0,0.0,0.0,0.0,0.0,0.0,-0.321,0.0,0.0,0.0,0.0,0.0,0.0,-0.08821942092997796,0.0,0.0,0.0,0.0,0.0,0.0,-43.136,0.0,0.0,0.0,0.0,0.0
660,0.0,-0.0800869140625,0.0,0.0,0.0,0.0,0.0,0.0,-0.315,0.0,0.0,0.0,0.0,0.0,0.0,-0.09125299885008072,0.0,0.0,0.0,0.0,0.0,0.0,-42.328,0.0,0.0,0.0,0.0,0.0
661,0.0,-0.082974609375,0.0,0.0,0.0,0.0,0.0,0.0,-0.304,0.0,0.0,0.0,0.0,0.0,0.0,-0.09411946168618816,0.0,0.0,0.0,0.0,0.0,0.0,-44.432,0.0,0.0,0.0,0.0,0.0
662,0.0,-0.0854443359375,0.0,0.0,0.0,0.0,0.0,0.0,-0.274,0.0,0.0,0.0,0.0,0.0,0.0,-0.09709270543308497,0.0,0.0,0.0,0.0,0.0,0.0,-44.0,0.0,0.0,0.0,0.0,0.0
663,0.0,-0.08822265625,0.0,0.0,0.0,0.0,0.0,0.0,-0.257,0.0,0.0,0.0,0.0,0.0,0.0,-0.10006286813804328,0.0,0.0,0.0,0.0,0.0,0.0,-44.756,0.0,0.0,0.0,0.0,0.0
664,0.0,-0.091419921875,0.0,0.0,0.0,0.0,0.0,0.0,-0.299,0.0,0.0,0.0,0.0,0.0,0.0,-0.102995067608862,0.0,0.0,0.0,0.0,0.0,0.0,-45.024,0.0,0.0,0.0,0.0,0.0
665,0.0,-0.094404296875,0.0,0.0,0.0,0.0,0.0,0.0,-0.318,0.0,0.0,0.0,0.0,0.0,0.0,-0.10597464950142828,0.0,0.0,0.0,0.0,0.0,0.0,-43.836,0.0,0.0,0.0,0.0,0.0
666,0.0,-0.09759375,0.0,0.0,0.0,0.0,0.0,0.0,-0.306,0.0,0.0,0.0,0.0,0.0,0.0,-0.10893057590057507,0.0,0.0,0.0,0.0,0.0,0.0,-43.836,0.0,0.0,0.0,0.0,0.0
667,0.0,-0.100482421875,0.0,0.0,0.0,0.0,0.0,0.0,-0.31,0.0,0.0,0.0,0.0,0.0,0.0,-0.11185924617571312,0.0,0.0,0.0,0.0,0.0,0.0,-44.052,0.0,0.0,0.0,0.0,0.0
668,0.0,-0.103048828125,0.0,0.0,0.0,0.0,0.0,0.0,-0.275,0.0,0.0,0.0,0.0,0.0,0.0,-0.11480734252579743,0.0,0.0,0.0,0.0,0.0,0.0,-45.024,0.0,0.0,0.0,0.0,0.0
669,0.0,-0.1059296875,0.0,0.0,0.0,0.0,0.0,0.0,-0.274,0.0,0.0,0.0,0.0,0.0,0.0,-0.11778812263303343,0.0,0.0,0.0,0.0,0.0,0.0,-44.648,0.0,0.0,0.0,0.0,0.0
670,0.0,-0.1088173828125,0.0,0.0,0.0,0.0,0.0,0.0,-0.291,0.0,0.0,0.0,0.0,0.0,0.0,-0.12068033546993659,0.0,0.0,0.0,0.0,0.0,0.0,-45.348,0.0,0.0,0.0,0.0,0.0
671,0.0,-0.1118017578125,0.0,0.0,0.0,0.0,0.0,0.0,-0.301,0.0,0.0,0.0,0.0,0.0,0.0,-0.12363073147843785,0.0,0.0,0.0,0.0,0.0,0.0,-44.108,0.0,0.0,0.0,0.0,0.0
