EmanuelSamir/lab201_ws_projsamir/sawyer_dev/data/sawyer/static/test_joint2/validation_data_4.csv
,j1,j2,j3,j4,j5,j6,j7,v1,v2,v3,v4,v5,v6,v7,jd1,jd2,jd3,jd4,jd5,jd6,jd7,e1,e2,e3,e4,e5,e6,e7
0,0.0,0.0,0.0,0.0,0.0,0.0,0.0,0.0,0.0,0.0,0.0,0.0,0.0,0.0,0.0,0.0,0.0,0.0,0.0,0.0,0.0,0.0,0.0,0.0,0.0,0.0,0.0,0.0
1,0.0,-0.001921875,0.0,0.0,0.0,0.0,0.0,0.0,-0.001,0.0,0.0,0.0,0.0,0.0,0.0,0.0001413345323843595,0.0,0.0,0.0,0.0,0.0,0.0,-44.108,0.0,0.0,0.0,0.0,0.0
2,0.0,-0.001921875,0.0,0.0,0.0,0.0,0.0,0.0,-0.001,0.0,0.0,0.0,0.0,0.0,0.0,0.026525623049223714,0.0,0.0,0.0,0.0,0.0,0.0,-44.052,0.0,0.0,0.0,0.0,0.0
3,0.0,-0.001921875,0.0,0.0,0.0,0.0,0.0,0.0,-0.001,0.0,0.0,0.0,0.0,0.0,0.0,0.05037645324892872,0.0,0.0,0.0,0.0,0.0,0.0,-44.108,0.0,0.0,0.0,0.0,0.0
4,0.0,-0.001818359375,0.0,0.0,0.0,0.0,0.0,0.0,0.006,0.0,0.0,0.0,0.0,0.0,0.0,0.07448064938230796,0.0,0.0,0.0,0.0,0.0,0.0,-43.46,0.0,0.0,0.0,0.0,0.0
5,0.0,-0.0013037109375,0.0,0.0,0.0,0.0,0.0,0.0,0.02,0.0,0.0,0.0,0.0,0.0,0.0,0.09815568641089288,0.0,0.0,0.0,0.0,0.0,0.0,-39.736,0.0,0.0,0.0,0.0,0.0
6,0.0,-6.93359375e-05,0.0,0.0,0.0,0.0,0.0,0.0,0.082,0.0,0.0,0.0,0.0,0.0,0.0,0.12164889271798054,0.0,0.0,0.0,0.0,0.0,0.0,-33.58,0.0,0.0,0.0,0.0,0.0
7,0.0,0.001783203125,0.0,0.0,0.0,0.0,0.0,0.0,0.15,0.0,0.0,0.0,0.0,0.0,0.0,0.14513289928441273,0.0,0.0,0.0,0.0,0.0,0.0,-29.748,0.0,0.0,0.0,0.0,0.0
8,0.0,0.00415625,0.0,0.0,0.0,0.0,0.0,0.0,0.202,0.0,0.0,0.0,0.0,0.0,0.0,0.16823800892091512,0.0,0.0,0.0,0.0,0.0,0.0,-27.316,0.0,0.0,0.0,0.0,0.0
9,0.0,0.00683203125,0.0,0.0,0.0,0.0,0.0,0.0,0.254,0.0,0.0,0.0,0.0,0.0,0.0,0.1910005162828728,0.0,0.0,0.0,0.0,0.0,0.0,-26.668,0.0,0.0,0.0,0.0,0.0
10,0.0,0.0097138671875,0.0,0.0,0.0,0.0,0.0,0.0,0.276,0.0,0.0,0.0,0.0,0.0,0.0,0.21371878735191502,0.0,0.0,0.0,0.0,0.0,0.0,-25.696,0.0,0.0,0.0,0.0,0.0
11,0.0,0.01352734375,0.0,0.0,0.0,0.0,0.0,0.0,0.322,0.0,0.0,0.0,0.0,0.0,0.0,0.2361197192568053,0.0,0.0,0.0,0.0,0.0,0.0,-24.24,0.0,0.0,0.0,0.0,0.0
12,0.0,0.017953125,0.0,0.0,0.0,0.0,0.0,0.0,0.41,0.0,0.0,0.0,0.0,0.0,0.0,0.2577786358161186,0.0,0.0,0.0,0.0,0.0,0.0,-24.78,0.0,0.0,0.0,0.0,0.0
13,0.0,0.0224873046875,0.0,0.0,0.0,0.0,0.0,0.0,0.449,0.0,0.0,0.0,0.0,0.0,0.0,0.2791491024643851,0.0,0.0,0.0,0.0,0.0,0.0,-28.828,0.0,0.0,0.0,0.0,0.0
14,0.0,0.02732421875,0.0,0.0,0.0,0.0,0.0,0.0,0.472,0.0,0.0,0.0,0.0,0.0,0.0,0.3005844971619097,0.0,0.0,0.0,0.0,0.0,0.0,-33.58,0.0,0.0,0.0,0.0,0.0
15,0.0,0.0318583984375,0.0,0.0,0.0,0.0,0.0,0.0,0.478,0.0,0.0,0.0,0.0,0.0,0.0,0.32080743925137,0.0,0.0,0.0,0.0,0.0,0.0,-36.548,0.0,0.0,0.0,0.0,0.0
16,0.0,0.03638671875,0.0,0.0,0.0,0.0,0.0,0.0,0.453,0.0,0.0,0.0,0.0,0.0,0.0,0.3407179341331637,0.0,0.0,0.0,0.0,0.0,0.0,-38.224,0.0,0.0,0.0,0.0,0.0
17,0.0,0.0415380859375,0.0,0.0,0.0,0.0,0.0,0.0,0.481,0.0,0.0,0.0,0.0,0.0,0.0,0.36047140577969067,0.0,0.0,0.0,0.0,0.0,0.0,-39.14,0.0,0.0,0.0,0.0,0.0
18,0.0,0.047095703125,0.0,0.0,0.0,0.0,0.0,0.0,0.535,0.0,0.0,0.0,0.0,0.0,0.0,0.37916292069809376,0.0,0.0,0.0,0.0,0.0,0.0,-39.788,0.0,0.0,0.0,0.0,0.0
19,0.0,0.0526591796875,0.0,0.0,0.0,0.0,0.0,0.0,0.56,0.0,0.0,0.0,0.0,0.0,0.0,0.3973346384697764,0.0,0.0,0.0,0.0,0.0,0.0,-42.38,0.0,0.0,0.0,0.0,0.0
20,0.0,0.0579130859375,0.0,0.0,0.0,0.0,0.0,0.0,0.546,0.0,0.0,0.0,0.0,0.0,0.0,0.41527089577213744,0.0,0.0,0.0,0.0,0.0,0.0,-45.08,0.0,0.0,0.0,0.0,0.0
21,0.0,0.06275,0.0,0.0,0.0,0.0,0.0,0.0,0.51,0.0,0.0,0.0,0.0,0.0,0.0,0.432073924214069,0.0,0.0,0.0,0.0,0.0,0.0,-46.32,0.0,0.0,0.0,0.0,0.0
22,0.0,0.06759375,0.0,0.0,0.0,0.0,0.0,0.0,0.485,0.0,0.0,0.0,0.0,0.0,0.0,0.4485369641190473,0.0,0.0,0.0,0.0,0.0,0.0,-45.456,0.0,0.0,0.0,0.0,0.0
23,0.0,0.072841796875,0.0,0.0,0.0,0.0,0.0,0.0,0.502,0.0,0.0,0.0,0.0,0.0,0.0,0.4640144309090811,0.0,0.0,0.0,0.0,0.0,0.0,-44.108,0.0,0.0,0.0,0.0,0.0
24,0.0,0.078302734375,0.0,0.0,0.0,0.0,0.0,0.0,0.536,0.0,0.0,0.0,0.0,0.0,0.0,0.47892377633069494,0.0,0.0,0.0,0.0,0.0,0.0,-45.512,0.0,0.0,0.0,0.0,0.0
25,0.0,0.0834541015625,0.0,0.0,0.0,0.0,0.0,0.0,0.536,0.0,0.0,0.0,0.0,0.0,0.0,0.4929297813600278,0.0,0.0,0.0,0.0,0.0,0.0,-47.508,0.0,0.0,0.0,0.0,0.0
26,0.0,0.088291015625,0.0,0.0,0.0,0.0,0.0,0.0,0.506,0.0,0.0,0.0,0.0,0.0,0.0,0.5062562745438843,0.0,0.0,0.0,0.0,0.0,0.0,-48.48,0.0,0.0,0.0,0.0,0.0
27,0.0,0.0928251953125,0.0,0.0,0.0,0.0,0.0,0.0,0.476,0.0,0.0,0.0,0.0,0.0,0.0,0.5186943574309557,0.0,0.0,0.0,0.0,0.0,0.0,-47.78,0.0,0.0,0.0,0.0,0.0
28,0.0,0.097662109375,0.0,0.0,0.0,0.0,0.0,0.0,0.471,0.0,0.0,0.0,0.0,0.0,0.0,0.5303240160618333,0.0,0.0,0.0,0.0,0.0,0.0,-46.968,0.0,0.0,0.0,0.0,0.0
29,0.0,0.1027109375,0.0,0.0,0.0,0.0,0.0,0.0,0.493,0.0,0.0,0.0,0.0,0.0,0.0,0.5413657374957112,0.0,0.0,0.0,0.0,0.0,0.0,-48.104,0.0,0.0,0.0,0.0,0.0
30,0.0,0.1074384765625,0.0,0.0,0.0,0.0,0.0,0.0,0.494,0.0,0.0,0.0,0.0,0.0,0.0,0.5511231264551619,0.0,0.0,0.0,0.0,0.0,0.0,-49.344,0.0,0.0,0.0,0.0,0.0
31,0.0,0.1120751953125,0.0,0.0,0.0,0.0,0.0,0.0,0.474,0.0,0.0,0.0,0.0,0.0,0.0,0.5601418675548455,0.0,0.0,0.0,0.0,0.0,0.0,-49.56,0.0,0.0,0.0,0.0,0.0
32,0.0,0.1161923828125,0.0,0.0,0.0,0.0,0.0,0.0,0.44,0.0,0.0,0.0,0.0,0.0,0.0,0.5720378189686398,0.0,0.0,0.0,0.0,0.0,0.0,-48.372,0.0,0.0,0.0,0.0,0.0
33,0.0,0.1205205078125,0.0,0.0,0.0,0.0,0.0,0.0,0.425,0.0,0.0,0.0,0.0,0.0,0.0,0.576329789249837,0.0,0.0,0.0,0.0,0.0,0.0,-47.4,0.0,0.0,0.0,0.0,0.0
34,0.0,0.1205205078125,0.0,0.0,0.0,0.0,0.0,0.0,0.425,0.0,0.0,0.0,0.0,0.0,0.0,0.5819353671473345,0.0,0.0,0.0,0.0,0.0,0.0,-47.4,0.0,0.0,0.0,0.0,0.0
35,0.0,0.129068359375,0.0,0.0,0.0,0.0,0.0,0.0,0.431,0.0,0.0,0.0,0.0,0.0,0.0,0.587475553244267,0.0,0.0,0.0,0.0,0.0,0.0,-48.588,0.0,0.0,0.0,0.0,0.0
36,0.0,0.13308203125,0.0,0.0,0.0,0.0,0.0,0.0,0.416,0.0,0.0,0.0,0.0,0.0,0.0,0.5916952711734202,0.0,0.0,0.0,0.0,0.0,0.0,-48.32,0.0,0.0,0.0,0.0,0.0
37,0.0,0.13668359375,0.0,0.0,0.0,0.0,0.0,0.0,0.362,0.0,0.0,0.0,0.0,0.0,0.0,0.5952729519773485,0.0,0.0,0.0,0.0,0.0,0.0,-47.456,0.0,0.0,0.0,0.0,0.0
38,0.0,0.1402919921875,0.0,0.0,0.0,0.0,0.0,0.0,0.362,0.0,0.0,0.0,0.0,0.0,0.0,0.5984511529302993,0.0,0.0,0.0,0.0,0.0,0.0,-46.376,0.0,0.0,0.0,0.0,0.0
39,0.0,0.1402919921875,0.0,0.0,0.0,0.0,0.0,0.0,0.362,0.0,0.0,0.0,0.0,0.0,0.0,0.599365290005963,0.0,0.0,0.0,0.0,0.0,0.0,-46.376,0.0,0.0,0.0,0.0,0.0
40,0.0,0.1477138671875,0.0,0.0,0.0,0.0,0.0,0.0,0.375,0.0,0.0,0.0,0.0,0.0,0.0,0.5999903069434079,0.0,0.0,0.0,0.0,0.0,0.0,-46.104,0.0,0.0,0.0,0.0,0.0
41,0.0,0.1514189453125,0.0,0.0,0.0,0.0,0.0,0.0,0.367,0.0,0.0,0.0,0.0,0.0,0.0,0.5996644982477798,0.0,0.0,0.0,0.0,0.0,0.0,-46.052,0.0,0.0,0.0,0.0,0.0
42,0.0,0.15491796875,0.0,0.0,0.0,0.0,0.0,0.0,0.361,0.0,0.0,0.0,0.0,0.0,0.0,0.5980841050020047,0.0,0.0,0.0,0.0,0.0,0.0,-45.132,0.0,0.0,0.0,0.0,0.0
43,0.0,0.158216796875,0.0,0.0,0.0,0.0,0.0,0.0,0.343,0.0,0.0,0.0,0.0,0.0,0.0,0.5961413968578901,0.0,0.0,0.0,0.0,0.0,0.0,-43.784,0.0,0.0,0.0,0.0,0.0
44,0.0,0.16161328125,0.0,0.0,0.0,0.0,0.0,0.0,0.338,0.0,0.0,0.0,0.0,0.0,0.0,0.5929456087372941,0.0,0.0,0.0,0.0,0.0,0.0,-42.704,0.0,0.0,0.0,0.0,0.0
45,0.0,0.1651123046875,0.0,0.0,0.0,0.0,0.0,0.0,0.345,0.0,0.0,0.0,0.0,0.0,0.0,0.5888364997698757,0.0,0.0,0.0,0.0,0.0,0.0,-42.436,0.0,0.0,0.0,0.0,0.0
46,0.0,0.168720703125,0.0,0.0,0.0,0.0,0.0,0.0,0.355,0.0,0.0,0.0,0.0,0.0,0.0,0.5837641876009078,0.0,0.0,0.0,0.0,0.0,0.0,-42.328,0.0,0.0,0.0,0.0,0.0
47,0.0,0.1722197265625,0.0,0.0,0.0,0.0,0.0,0.0,0.36,0.0,0.0,0.0,0.0,0.0,0.0,0.5777488882486799,0.0,0.0,0.0,0.0,0.0,0.0,-42.652,0.0,0.0,0.0,0.0,0.0
48,0.0,0.175724609375,0.0,0.0,0.0,0.0,0.0,0.0,0.355,0.0,0.0,0.0,0.0,0.0,0.0,0.5707554741569184,0.0,0.0,0.0,0.0,0.0,0.0,-42.004,0.0,0.0,0.0,0.0,0.0
49,0.0,0.179326171875,0.0,0.0,0.0,0.0,0.0,0.0,0.357,0.0,0.0,0.0,0.0,0.0,0.0,0.5629733381777109,0.0,0.0,0.0,0.0,0.0,0.0,-41.408,0.0,0.0,0.0,0.0,0.0
50,0.0,0.1831337890625,0.0,0.0,0.0,0.0,0.0,0.0,0.369,0.0,0.0,0.0,0.0,0.0,0.0,0.554238591041061,0.0,0.0,0.0,0.0,0.0,0.0,-41.624,0.0,0.0,0.0,0.0,0.0
51,0.0,0.1868447265625,0.0,0.0,0.0,0.0,0.0,0.0,0.376,0.0,0.0,0.0,0.0,0.0,0.0,0.5444706403524852,0.0,0.0,0.0,0.0,0.0,0.0,-41.948,0.0,0.0,0.0,0.0,0.0
52,0.0,0.19065234375,0.0,0.0,0.0,0.0,0.0,0.0,0.377,0.0,0.0,0.0,0.0,0.0,0.0,0.534125659544337,0.0,0.0,0.0,0.0,0.0,0.0,-42.112,0.0,0.0,0.0,0.0,0.0
53,0.0,0.1943642578125,0.0,0.0,0.0,0.0,0.0,0.0,0.381,0.0,0.0,0.0,0.0,0.0,0.0,0.5227846747365213,0.0,0.0,0.0,0.0,0.0,0.0,-42.272,0.0,0.0,0.0,0.0,0.0
54,0.0,0.198171875,0.0,0.0,0.0,0.0,0.0,0.0,0.38,0.0,0.0,0.0,0.0,0.0,0.0,0.5104609004479044,0.0,0.0,0.0,0.0,0.0,0.0,-41.896,0.0,0.0,0.0,0.0,0.0
55,0.0,0.2021845703125,0.0,0.0,0.0,0.0,0.0,0.0,0.389,0.0,0.0,0.0,0.0,0.0,0.0,0.4974896809769625,0.0,0.0,0.0,0.0,0.0,0.0,-41.464,0.0,0.0,0.0,0.0,0.0
56,0.0,0.2061015625,0.0,0.0,0.0,0.0,0.0,0.0,0.396,0.0,0.0,0.0,0.0,0.0,0.0,0.4837355635968508,0.0,0.0,0.0,0.0,0.0,0.0,-41.248,0.0,0.0,0.0,0.0,0.0
57,0.0,0.210115234375,0.0,0.0,0.0,0.0,0.0,0.0,0.398,0.0,0.0,0.0,0.0,0.0,0.0,0.4690625122276555,0.0,0.0,0.0,0.0,0.0,0.0,-41.84,0.0,0.0,0.0,0.0,0.0
58,0.0,0.214134765625,0.0,0.0,0.0,0.0,0.0,0.0,0.408,0.0,0.0,0.0,0.0,0.0,0.0,0.4537556895459702,0.0,0.0,0.0,0.0,0.0,0.0,-42.004,0.0,0.0,0.0,0.0,0.0
59,0.0,0.218251953125,0.0,0.0,0.0,0.0,0.0,0.0,0.407,0.0,0.0,0.0,0.0,0.0,0.0,0.43752999691250566,0.0,0.0,0.0,0.0,0.0,0.0,-42.272,0.0,0.0,0.0,0.0,0.0
60,0.0,0.2222646484375,0.0,0.0,0.0,0.0,0.0,0.0,0.406,0.0,0.0,0.0,0.0,0.0,0.0,0.42086441016689907,0.0,0.0,0.0,0.0,0.0,0.0,-42.328,0.0,0.0,0.0,0.0,0.0
61,0.0,0.226490234375,0.0,0.0,0.0,0.0,0.0,0.0,0.417,0.0,0.0,0.0,0.0,0.0,0.0,0.4035386780132875,0.0,0.0,0.0,0.0,0.0,0.0,-42.38,0.0,0.0,0.0,0.0,0.0
62,0.0,0.230607421875,0.0,0.0,0.0,0.0,0.0,0.0,0.417,0.0,0.0,0.0,0.0,0.0,0.0,0.38524480929818566,0.0,0.0,0.0,0.0,0.0,0.0,-42.76,0.0,0.0,0.0,0.0,0.0
63,0.0,0.2347294921875,0.0,0.0,0.0,0.0,0.0,0.0,0.414,0.0,0.0,0.0,0.0,0.0,0.0,0.36659154538483557,0.0,0.0,0.0,0.0,0.0,0.0,-43.244,0.0,0.0,0.0,0.0,0.0
64,0.0,0.23894921875,0.0,0.0,0.0,0.0,0.0,0.0,0.421,0.0,0.0,0.0,0.0,0.0,0.0,0.3474640256322818,0.0,0.0,0.0,0.0,0.0,0.0,-43.244,0.0,0.0,0.0,0.0,0.0
65,0.0,0.243072265625,0.0,0.0,0.0,0.0,0.0,0.0,0.418,0.0,0.0,0.0,0.0,0.0,0.0,0.32767993190068595,0.0,0.0,0.0,0.0,0.0,0.0,-43.784,0.0,0.0,0.0,0.0,0.0
66,0.0,0.247291015625,0.0,0.0,0.0,0.0,0.0,0.0,0.419,0.0,0.0,0.0,0.0,0.0,0.0,0.30692863711626267,0.0,0.0,0.0,0.0,0.0,0.0,-43.728,0.0,0.0,0.0,0.0,0.0
67,0.0,0.2514072265625,0.0,0.0,0.0,0.0,0.0,0.0,0.42,0.0,0.0,0.0,0.0,0.0,0.0,0.28611280231889397,0.0,0.0,0.0,0.0,0.0,0.0,-43.46,0.0,0.0,0.0,0.0,0.0
68,0.0,0.2555302734375,0.0,0.0,0.0,0.0,0.0,0.0,0.415,0.0,0.0,0.0,0.0,0.0,0.0,0.2652118986125604,0.0,0.0,0.0,0.0,0.0,0.0,-43.136,0.0,0.0,0.0,0.0,0.0
69,0.0,0.2597490234375,0.0,0.0,0.0,0.0,0.0,0.0,0.417,0.0,0.0,0.0,0.0,0.0,0.0,0.2431944305102856,0.0,0.0,0.0,0.0,0.0,0.0,-43.244,0.0,0.0,0.0,0.0,0.0
70,0.0,0.26376953125,0.0,0.0,0.0,0.0,0.0,0.0,0.417,0.0,0.0,0.0,0.0,0.0,0.0,0.22115923871823753,0.0,0.0,0.0,0.0,0.0,0.0,-43.192,0.0,0.0,0.0,0.0,0.0
71,0.0,0.267783203125,0.0,0.0,0.0,0.0,0.0,0.0,0.406,0.0,0.0,0.0,0.0,0.0,0.0,0.1988093749944632,0.0,0.0,0.0,0.0,0.0,0.0,-44.648,0.0,0.0,0.0,0.0,0.0
72,0.0,0.2708701171875,0.0,0.0,0.0,0.0,0.0,0.0,0.373,0.0,0.0,0.0,0.0,0.0,0.0,0.17580323283025917,0.0,0.0,0.0,0.0,0.0,0.0,-52.1,0.0,0.0,0.0,0.0,0.0
73,0.0,0.2726259765625,0.0,0.0,0.0,0.0,0.0,0.0,0.252,0.0,0.0,0.0,0.0,0.0,0.0,0.1528012195557932,0.0,0.0,0.0,0.0,0.0,0.0,-62.52,0.0,0.0,0.0,0.0,0.0
74,0.0,0.273140625,0.0,0.0,0.0,0.0,0.0,0.0,0.126,0.0,0.0,0.0,0.0,0.0,0.0,0.1295117243194102,0.0,0.0,0.0,0.0,0.0,0.0,-71.752,0.0,0.0,0.0,0.0,0.0
75,0.0,0.2726259765625,0.0,0.0,0.0,0.0,0.0,0.0,0.011,0.0,0.0,0.0,0.0,0.0,0.0,0.10571996612224942,0.0,0.0,0.0,0.0,0.0,0.0,-75.8,0.0,0.0,0.0,0.0,0.0
76,0.0,0.271693359375,0.0,0.0,0.0,0.0,0.0,0.0,-0.073,0.0,0.0,0.0,0.0,0.0,0.0,0.08204839364592964,0.0,0.0,0.0,0.0,0.0,0.0,-76.232,0.0,0.0,0.0,0.0,0.0
77,0.0,0.2702529296875,0.0,0.0,0.0,0.0,0.0,0.0,-0.108,0.0,0.0,0.0,0.0,0.0,0.0,0.05839625215031212,0.0,0.0,0.0,0.0,0.0,0.0,-77.852,0.0,0.0,0.0,0.0,0.0
78,0.0,0.26737109375,0.0,0.0,0.0,0.0,0.0,0.0,-0.203,0.0,0.0,0.0,0.0,0.0,0.0,0.034265932898897664,0.0,0.0,0.0,0.0,0.0,0.0,-77.636,0.0,0.0,0.0,0.0,0.0
79,0.0,0.2634609375,0.0,0.0,0.0,0.0,0.0,0.0,-0.335,0.0,0.0,0.0,0.0,0.0,0.0,0.008558550490417144,0.0,0.0,0.0,0.0,0.0,0.0,-74.504,0.0,0.0,0.0,0.0,0.0
80,0.0,0.2585146484375,0.0,0.0,0.0,0.0,0.0,0.0,-0.439,0.0,0.0,0.0,0.0,0.0,0.0,-0.013448165937562316,0.0,0.0,0.0,0.0,0.0,0.0,-68.672,0.0,0.0,0.0,0.0,0.0
81,0.0,0.2534716796875,0.0,0.0,0.0,0.0,0.0,0.0,-0.508,0.0,0.0,0.0,0.0,0.0,0.0,-0.03754660039832002,0.0,0.0,0.0,0.0,0.0,0.0,-62.52,0.0,0.0,0.0,0.0,0.0
82,0.0,0.2487314453125,0.0,0.0,0.0,0.0,0.0,0.0,-0.498,0.0,0.0,0.0,0.0,0.0,0.0,-0.06149214858372285,0.0,0.0,0.0,0.0,0.0,0.0,-58.576,0.0,0.0,0.0,0.0,0.0
83,0.0,0.2438955078125,0.0,0.0,0.0,0.0,0.0,0.0,-0.479,0.0,0.0,0.0,0.0,0.0,0.0,-0.08521730824858256,0.0,0.0,0.0,0.0,0.0,0.0,-54.852,0.0,0.0,0.0,0.0,0.0
84,0.0,0.238537109375,0.0,0.0,0.0,0.0,0.0,0.0,-0.509,0.0,0.0,0.0,0.0,0.0,0.0,-0.10895856987557902,0.0,0.0,0.0,0.0,0.0,0.0,-50.64,0.0,0.0,0.0,0.0,0.0
85,0.0,0.23298046875,0.0,0.0,0.0,0.0,0.0,0.0,-0.545,0.0,0.0,0.0,0.0,0.0,0.0,-0.1325971960530579,0.0,0.0,0.0,0.0,0.0,0.0,-47.184,0.0,0.0,0.0,0.0,0.0
86,0.0,0.2272109375,0.0,0.0,0.0,0.0,0.0,0.0,-0.569,0.0,0.0,0.0,0.0,0.0,0.0,-0.15560632938583235,0.0,0.0,0.0,0.0,0.0,0.0,-44.756,0.0,0.0,0.0,0.0,0.0
87,0.0,0.221853515625,0.0,0.0,0.0,0.0,0.0,0.0,-0.564,0.0,0.0,0.0,0.0,0.0,0.0,-0.17878504876239928,0.0,0.0,0.0,0.0,0.0,0.0,-43.404,0.0,0.0,0.0,0.0,0.0
88,0.0,0.21660546875,0.0,0.0,0.0,0.0,0.0,0.0,-0.533,0.0,0.0,0.0,0.0,0.0,0.0,-0.20265553720597274,0.0,0.0,0.0,0.0,0.0,0.0,-43.676,0.0,0.0,0.0,0.0,0.0
89,0.0,0.2112470703125,0.0,0.0,0.0,0.0,0.0,0.0,-0.531,0.0,0.0,0.0,0.0,0.0,0.0,-0.22401519494452476,0.0,0.0,0.0,0.0,0.0,0.0,-43.676,0.0,0.0,0.0,0.0,0.0
90,0.0,0.2055869140625,0.0,0.0,0.0,0.0,0.0,0.0,-0.554,0.0,0.0,0.0,0.0,0.0,0.0,-0.24612532821738456,0.0,0.0,0.0,0.0,0.0,0.0,-45.024,0.0,0.0,0.0,0.0,0.0
91,0.0,0.199509765625,0.0,0.0,0.0,0.0,0.0,0.0,-0.588,0.0,0.0,0.0,0.0,0.0,0.0,-0.2678252449068538,0.0,0.0,0.0,0.0,0.0,0.0,-46.808,0.0,0.0,0.0,0.0,0.0
92,0.0,0.193123046875,0.0,0.0,0.0,0.0,0.0,0.0,-0.626,0.0,0.0,0.0,0.0,0.0,0.0,-0.2890374405079406,0.0,0.0,0.0,0.0,0.0,0.0,-47.456,0.0,0.0,0.0,0.0,0.0
93,0.0,0.1869482421875,0.0,0.0,0.0,0.0,0.0,0.0,-0.637,0.0,0.0,0.0,0.0,0.0,0.0,-0.30986953873224693,0.0,0.0,0.0,0.0,0.0,0.0,-45.404,0.0,0.0,0.0,0.0,0.0
94,0.0,0.1869482421875,0.0,0.0,0.0,0.0,0.0,0.0,-0.637,0.0,0.0,0.0,0.0,0.0,0.0,-0.3301176359678925,0.0,0.0,0.0,0.0,0.0,0.0,-45.404,0.0,0.0,0.0,0.0,0.0
95,0.0,0.1744833984375,0.0,0.0,0.0,0.0,0.0,0.0,-0.621,0.0,0.0,0.0,0.0,0.0,0.0,-0.3498830238727764,0.0,0.0,0.0,0.0,0.0,0.0,-45.728,0.0,0.0,0.0,0.0,0.0
96,0.0,0.168,0.0,0.0,0.0,0.0,0.0,0.0,-0.656,0.0,0.0,0.0,0.0,0.0,0.0,-0.3691043598339745,0.0,0.0,0.0,0.0,0.0,0.0,-44.648,0.0,0.0,0.0,0.0,0.0
97,0.0,0.161921875,0.0,0.0,0.0,0.0,0.0,0.0,-0.637,0.0,0.0,0.0,0.0,0.0,0.0,-0.3877145298333368,0.0,0.0,0.0,0.0,0.0,0.0,-37.412,0.0,0.0,0.0,0.0,0.0
98,0.0,0.1560498046875,0.0,0.0,0.0,0.0,0.0,0.0,-0.602,0.0,0.0,0.0,0.0,0.0,0.0,-0.4057528142176402,0.0,0.0,0.0,0.0,0.0,0.0,-34.28,0.0,0.0,0.0,0.0,0.0
99,0.0,0.1503896484375,0.0,0.0,0.0,0.0,0.0,0.0,-0.589,0.0,0.0,0.0,0.0,0.0,0.0,-0.4232211950261886,0.0,0.0,0.0,0.0,0.0,0.0,-35.848,0.0,0.0,0.0,0.0,0.0
100,0.0,0.1450322265625,0.0,0.0,0.0,0.0,0.0,0.0,-0.554,0.0,0.0,0.0,0.0,0.0,0.0,-0.4398136190569004,0.0,0.0,0.0,0.0,0.0,0.0,-38.116,0.0,0.0,0.0,0.0,0.0
101,0.0,0.1396748046875,0.0,0.0,0.0,0.0,0.0,0.0,-0.54,0.0,0.0,0.0,0.0,0.0,0.0,-0.4556870682375673,0.0,0.0,0.0,0.0,0.0,0.0,-33.416,0.0,0.0,0.0,0.0,0.0
102,0.0,0.1349345703125,0.0,0.0,0.0,0.0,0.0,0.0,-0.513,0.0,0.0,0.0,0.0,0.0,0.0,-0.47341313396648493,0.0,0.0,0.0,0.0,0.0,0.0,-30.828,0.0,0.0,0.0,0.0,0.0
103,0.0,0.1212412109375,0.0,0.0,0.0,0.0,0.0,0.0,-0.453,0.0,0.0,0.0,0.0,0.0,0.0,-0.505110425143169,0.0,0.0,0.0,0.0,0.0,0.0,-37.576,0.0,0.0,0.0,0.0,0.0
104,0.0,0.1171181640625,0.0,0.0,0.0,0.0,0.0,0.0,-0.417,0.0,0.0,0.0,0.0,0.0,0.0,-0.5202814670886746,0.0,0.0,0.0,0.0,0.0,0.0,-33.688,0.0,0.0,0.0,0.0,0.0
105,0.0,0.113310546875,0.0,0.0,0.0,0.0,0.0,0.0,-0.404,0.0,0.0,0.0,0.0,0.0,0.0,-0.5354755140257511,0.0,0.0,0.0,0.0,0.0,0.0,-33.848,0.0,0.0,0.0,0.0,0.0
106,0.0,0.109599609375,0.0,0.0,0.0,0.0,0.0,0.0,-0.379,0.0,0.0,0.0,0.0,0.0,0.0,-0.5493527361414761,0.0,0.0,0.0,0.0,0.0,0.0,-38.6,0.0,0.0,0.0,0.0,0.0
107,0.0,0.1018876953125,0.0,0.0,0.0,0.0,0.0,0.0,-0.39,0.0,0.0,0.0,0.0,0.0,0.0,-0.5612643671943895,0.0,0.0,0.0,0.0,0.0,0.0,-39.844,0.0,0.0,0.0,0.0,0.0
108,0.0,0.098587890625,0.0,0.0,0.0,0.0,0.0,0.0,-0.356,0.0,0.0,0.0,0.0,0.0,0.0,-0.570060585531228,0.0,0.0,0.0,0.0,0.0,0.0,-38.276,0.0,0.0,0.0,0.0,0.0
109,0.0,0.098587890625,0.0,0.0,0.0,0.0,0.0,0.0,-0.322,0.0,0.0,0.0,0.0,0.0,0.0,-0.5742656150851878,0.0,0.0,0.0,0.0,0.0,0.0,-38.276,0.0,0.0,0.0,0.0,0.0
110,0.0,0.0928251953125,0.0,0.0,0.0,0.0,0.0,0.0,-0.288,0.0,0.0,0.0,0.0,0.0,0.0,-0.5845463072155477,0.0,0.0,0.0,0.0,0.0,0.0,-41.84,0.0,0.0,0.0,0.0,0.0
111,0.0,0.08602734375,0.0,0.0,0.0,0.0,0.0,0.0,-0.349,0.0,0.0,0.0,0.0,0.0,0.0,-0.5920674311666431,0.0,0.0,0.0,0.0,0.0,0.0,-45.672,0.0,0.0,0.0,0.0,0.0
112,0.0,0.0826240234375,0.0,0.0,0.0,0.0,0.0,0.0,-0.355,0.0,0.0,0.0,0.0,0.0,0.0,-0.5949727449459644,0.0,0.0,0.0,0.0,0.0,0.0,-44.916,0.0,0.0,0.0,0.0,0.0
113,0.0,0.0826240234375,0.0,0.0,0.0,0.0,0.0,0.0,-0.355,0.0,0.0,0.0,0.0,0.0,0.0,-0.5965705703277773,0.0,0.0,0.0,0.0,0.0,0.0,-44.916,0.0,0.0,0.0,0.0,0.0
114,0.0,0.079537109375,0.0,0.0,0.0,0.0,0.0,0.0,-0.334,0.0,0.0,0.0,0.0,0.0,0.0,-0.5986005205396264,0.0,0.0,0.0,0.0,0.0,0.0,-44.54,0.0,0.0,0.0,0.0,0.0
115,0.0,0.0766552734375,0.0,0.0,0.0,0.0,0.0,0.0,-0.302,0.0,0.0,0.0,0.0,0.0,0.0,-0.5996782764310091,0.0,0.0,0.0,0.0,0.0,0.0,-45.62,0.0,0.0,0.0,0.0,0.0
116,0.0,0.0700634765625,0.0,0.0,0.0,0.0,0.0,0.0,-0.329,0.0,0.0,0.0,0.0,0.0,0.0,-0.5996492456297715,0.0,0.0,0.0,0.0,0.0,0.0,-46.7,0.0,0.0,0.0,0.0,0.0
117,0.0,0.0663583984375,0.0,0.0,0.0,0.0,0.0,0.0,-0.37,0.0,0.0,0.0,0.0,0.0,0.0,-0.5985807646989099,0.0,0.0,0.0,0.0,0.0,0.0,-47.024,0.0,0.0,0.0,0.0,0.0
118,0.0,0.0663583984375,0.0,0.0,0.0,0.0,0.0,0.0,-0.37,0.0,0.0,0.0,0.0,0.0,0.0,-0.5972011864551928,0.0,0.0,0.0,0.0,0.0,0.0,-47.024,0.0,0.0,0.0,0.0,0.0
119,0.0,0.0625439453125,0.0,0.0,0.0,0.0,0.0,0.0,-0.378,0.0,0.0,0.0,0.0,0.0,0.0,-0.5935508769028579,0.0,0.0,0.0,0.0,0.0,0.0,-47.024,0.0,0.0,0.0,0.0,0.0
120,0.0,0.0591484375,0.0,0.0,0.0,0.0,0.0,0.0,-0.362,0.0,0.0,0.0,0.0,0.0,0.0,-0.5896001404715476,0.0,0.0,0.0,0.0,0.0,0.0,-46.968,0.0,0.0,0.0,0.0,0.0
121,0.0,0.0558486328125,0.0,0.0,0.0,0.0,0.0,0.0,-0.336,0.0,0.0,0.0,0.0,0.0,0.0,-0.5852454050742388,0.0,0.0,0.0,0.0,0.0,0.0,-47.292,0.0,0.0,0.0,0.0,0.0
122,0.0,0.0558486328125,0.0,0.0,0.0,0.0,0.0,0.0,-0.336,0.0,0.0,0.0,0.0,0.0,0.0,-0.5796449306267529,0.0,0.0,0.0,0.0,0.0,0.0,-47.292,0.0,0.0,0.0,0.0,0.0
123,0.0,0.0485419921875,0.0,0.0,0.0,0.0,0.0,0.0,-0.368,0.0,0.0,0.0,0.0,0.0,0.0,-0.5748387165397112,0.0,0.0,0.0,0.0,0.0,0.0,-46.7,0.0,0.0,0.0,0.0,0.0
124,0.0,0.044419921875,0.0,0.0,0.0,0.0,0.0,0.0,-0.396,0.0,0.0,0.0,0.0,0.0,0.0,-0.5675532516320686,0.0,0.0,0.0,0.0,0.0,0.0,-46.484,0.0,0.0,0.0,0.0,0.0
125,0.0,0.044419921875,0.0,0.0,0.0,0.0,0.0,0.0,-0.396,0.0,0.0,0.0,0.0,0.0,0.0,-0.5594044990197807,0.0,0.0,0.0,0.0,0.0,0.0,-46.484,0.0,0.0,0.0,0.0,0.0
126,0.0,0.044419921875,0.0,0.0,0.0,0.0,0.0,0.0,-0.396,0.0,0.0,0.0,0.0,0.0,0.0,-0.5546789190309368,0.0,0.0,0.0,0.0,0.0,0.0,-46.484,0.0,0.0,0.0,0.0,0.0
127,0.0,0.0364892578125,0.0,0.0,0.0,0.0,0.0,0.0,-0.4,0.0,0.0,0.0,0.0,0.0,0.0,-0.5493145279453975,0.0,0.0,0.0,0.0,0.0,0.0,-47.132,0.0,0.0,0.0,0.0,0.0
128,0.0,0.032681640625,0.0,0.0,0.0,0.0,0.0,0.0,-0.386,0.0,0.0,0.0,0.0,0.0,0.0,-0.5373278258654318,0.0,0.0,0.0,0.0,0.0,0.0,-46.968,0.0,0.0,0.0,0.0,0.0
129,0.0,0.0287646484375,0.0,0.0,0.0,0.0,0.0,0.0,-0.39,0.0,0.0,0.0,0.0,0.0,0.0,-0.5258569789820197,0.0,0.0,0.0,0.0,0.0,0.0,-46.644,0.0,0.0,0.0,0.0,0.0
130,0.0,0.0246484375,0.0,0.0,0.0,0.0,0.0,0.0,-0.402,0.0,0.0,0.0,0.0,0.0,0.0,-0.5136059954217734,0.0,0.0,0.0,0.0,0.0,0.0,-45.888,0.0,0.0,0.0,0.0,0.0
131,0.0,0.0246484375,0.0,0.0,0.0,0.0,0.0,0.0,-0.402,0.0,0.0,0.0,0.0,0.0,0.0,-0.4988691260323337,0.0,0.0,0.0,0.0,0.0,0.0,-45.888,0.0,0.0,0.0,0.0,0.0
132,0.0,0.01589453125,0.0,0.0,0.0,0.0,0.0,0.0,-0.44,0.0,0.0,0.0,0.0,0.0,0.0,-0.4836392902797126,0.0,0.0,0.0,0.0,0.0,0.0,-45.672,0.0,0.0,0.0,0.0,0.0
133,0.0,0.0116689453125,0.0,0.0,0.0,0.0,0.0,0.0,-0.434,0.0,0.0,0.0,0.0,0.0,0.0,-0.4702293555449797,0.0,0.0,0.0,0.0,0.0,0.0,-45.188,0.0,0.0,0.0,0.0,0.0
134,0.0,0.0116689453125,0.0,0.0,0.0,0.0,0.0,0.0,-0.434,0.0,0.0,0.0,0.0,0.0,0.0,-0.4605361204270395,0.0,0.0,0.0,0.0,0.0,0.0,-45.188,0.0,0.0,0.0,0.0,0.0
135,0.0,0.007552734375,0.0,0.0,0.0,0.0,0.0,0.0,-0.422,0.0,0.0,0.0,0.0,0.0,0.0,-0.44527121519572194,0.0,0.0,0.0,0.0,0.0,0.0,-44.54,0.0,0.0,0.0,0.0,0.0
136,0.0,0.007552734375,0.0,0.0,0.0,0.0,0.0,0.0,-0.422,0.0,0.0,0.0,0.0,0.0,0.0,-0.42013201488820046,0.0,0.0,0.0,0.0,0.0,0.0,-44.54,0.0,0.0,0.0,0.0,0.0
137,0.0,0.007552734375,0.0,0.0,0.0,0.0,0.0,0.0,-0.422,0.0,0.0,0.0,0.0,0.0,0.0,-0.4114849851944778,0.0,0.0,0.0,0.0,0.0,0.0,-44.54,0.0,0.0,0.0,0.0,0.0
138,0.0,0.007552734375,0.0,0.0,0.0,0.0,0.0,0.0,-0.422,0.0,0.0,0.0,0.0,0.0,0.0,-0.39375894016157964,0.0,0.0,0.0,0.0,0.0,0.0,-44.54,0.0,0.0,0.0,0.0,0.0
139,0.0,-0.013865234375,0.0,0.0,0.0,0.0,0.0,0.0,-0.445,0.0,0.0,0.0,0.0,0.0,0.0,-0.37653347665353537,0.0,0.0,0.0,0.0,0.0,0.0,-43.46,0.0,0.0,0.0,0.0,0.0
140,0.0,-0.0177822265625,0.0,0.0,0.0,0.0,0.0,0.0,-0.418,0.0,0.0,0.0,0.0,0.0,0.0,-0.35759016997737203,0.0,0.0,0.0,0.0,0.0,0.0,-43.296,0.0,0.0,0.0,0.0,0.0
141,0.0,-0.0216923828125,0.0,0.0,0.0,0.0,0.0,0.0,-0.399,0.0,0.0,0.0,0.0,0.0,0.0,-0.3323042724757183,0.0,0.0,0.0,0.0,0.0,0.0,-43.568,0.0,0.0,0.0,0.0,0.0
142,0.0,-0.0216923828125,0.0,0.0,0.0,0.0,0.0,0.0,-0.399,0.0,0.0,0.0,0.0,0.0,0.0,-0.3096200855855293,0.0,0.0,0.0,0.0,0.0,0.0,-43.568,0.0,0.0,0.0,0.0,0.0
143,0.0,-0.0344658203125,0.0,0.0,0.0,0.0,0.0,0.0,-0.443,0.0,0.0,0.0,0.0,0.0,0.0,-0.2850558462071839,0.0,0.0,0.0,0.0,0.0,0.0,-43.676,0.0,0.0,0.0,0.0,0.0
144,0.0,-0.0385830078125,0.0,0.0,0.0,0.0,0.0,0.0,-0.426,0.0,0.0,0.0,0.0,0.0,0.0,-0.2538197128709982,0.0,0.0,0.0,0.0,0.0,0.0,-42.92,0.0,0.0,0.0,0.0,0.0
145,0.0,-0.042396484375,0.0,0.0,0.0,0.0,0.0,0.0,-0.399,0.0,0.0,0.0,0.0,0.0,0.0,-0.2423475963363791,0.0,0.0,0.0,0.0,0.0,0.0,-43.296,0.0,0.0,0.0,0.0,0.0
146,0.0,-0.042396484375,0.0,0.0,0.0,0.0,0.0,0.0,-0.399,0.0,0.0,0.0,0.0,0.0,0.0,-0.22938985111020635,0.0,0.0,0.0,0.0,0.0,0.0,-43.296,0.0,0.0,0.0,0.0,0.0
147,0.0,-0.0461015625,0.0,0.0,0.0,0.0,0.0,0.0,-0.379,0.0,0.0,0.0,0.0,0.0,0.0,-0.20253487773445586,0.0,0.0,0.0,0.0,0.0,0.0,-43.62,0.0,0.0,0.0,0.0,0.0
148,0.0,-0.0461015625,0.0,0.0,0.0,0.0,0.0,0.0,-0.379,0.0,0.0,0.0,0.0,0.0,0.0,-0.18784512274913504,0.0,0.0,0.0,0.0,0.0,0.0,-43.62,0.0,0.0,0.0,0.0,0.0
149,0.0,-0.0542373046875,0.0,0.0,0.0,0.0,0.0,0.0,-0.411,0.0,0.0,0.0,0.0,0.0,0.0,-0.1647781927263662,0.0,0.0,0.0,0.0,0.0,0.0,-43.944,0.0,0.0,0.0,0.0,0.0
150,0.0,-0.058462890625,0.0,0.0,0.0,0.0,0.0,0.0,-0.429,0.0,0.0,0.0,0.0,0.0,0.0,-0.14145192044550556,0.0,0.0,0.0,0.0,0.0,0.0,-43.784,0.0,0.0,0.0,0.0,0.0
151,0.0,-0.0623740234375,0.0,0.0,0.0,0.0,0.0,0.0,-0.411,0.0,0.0,0.0,0.0,0.0,0.0,-0.11768486987866209,0.0,0.0,0.0,0.0,0.0,0.0,-43.512,0.0,0.0,0.0,0.0,0.0
152,0.0,-0.065982421875,0.0,0.0,0.0,0.0,0.0,0.0,-0.383,0.0,0.0,0.0,0.0,0.0,0.0,-0.09361786931518981,0.0,0.0,0.0,0.0,0.0,0.0,-44.052,0.0,0.0,0.0,0.0,0.0
153,0.0,-0.0696865234375,0.0,0.0,0.0,0.0,0.0,0.0,-0.364,0.0,0.0,0.0,0.0,0.0,0.0,-0.07076783585399271,0.0,0.0,0.0,0.0,0.0,0.0,-44.54,0.0,0.0,0.0,0.0,0.0
154,0.0,-0.073494140625,0.0,0.0,0.0,0.0,0.0,0.0,-0.375,0.0,0.0,0.0,0.0,0.0,0.0,-0.045767525260410086,0.0,0.0,0.0,0.0,0.0,0.0,-44.592,0.0,0.0,0.0,0.0,0.0
155,0.0,-0.0778232421875,0.0,0.0,0.0,0.0,0.0,0.0,-0.407,0.0,0.0,0.0,0.0,0.0,0.0,-0.022999458325080317,0.0,0.0,0.0,0.0,0.0,0.0,-44.648,0.0,0.0,0.0,0.0,0.0
156,0.0,-0.0818359375,0.0,0.0,0.0,0.0,0.0,0.0,-0.428,0.0,0.0,0.0,0.0,0.0,0.0,0.0008821579647568323,0.0,0.0,0.0,0.0,0.0,0.0,-42.76,0.0,0.0,0.0,0.0,0.0
157,0.0,-0.0842099609375,0.0,0.0,0.0,0.0,0.0,0.0,-0.346,0.0,0.0,0.0,0.0,0.0,0.0,2.6321411124369948e-05,0.0,0.0,0.0,0.0,0.0,0.0,-31.096,0.0,0.0,0.0,0.0,0.0
158,0.0,-0.0848271484375,0.0,0.0,0.0,0.0,0.0,0.0,-0.162,0.0,0.0,0.0,0.0,0.0,0.0,0.023722567174942998,0.0,0.0,0.0,0.0,0.0,0.0,-19.544,0.0,0.0,0.0,0.0,0.0
159,0.0,-0.084724609375,0.0,0.0,0.0,0.0,0.0,0.0,-0.032,0.0,0.0,0.0,0.0,0.0,0.0,0.04765673329552849,0.0,0.0,0.0,0.0,0.0,0.0,-14.468,0.0,0.0,0.0,0.0,0.0
160,0.0,-0.0836953125,0.0,0.0,0.0,0.0,0.0,0.0,0.049,0.0,0.0,0.0,0.0,0.0,0.0,0.07245381925035123,0.0,0.0,0.0,0.0,0.0,0.0,-12.848,0.0,0.0,0.0,0.0,0.0
161,0.0,-0.0827626953125,0.0,0.0,0.0,0.0,0.0,0.0,0.099,0.0,0.0,0.0,0.0,0.0,0.0,0.09520724918894806,0.0,0.0,0.0,0.0,0.0,0.0,-11.444,0.0,0.0,0.0,0.0,0.0
162,0.0,-0.0811162109375,0.0,0.0,0.0,0.0,0.0,0.0,0.112,0.0,0.0,0.0,0.0,0.0,0.0,0.11885320949294316,0.0,0.0,0.0,0.0,0.0,0.0,-8.96,0.0,0.0,0.0,0.0,0.0
163,0.0,-0.0777197265625,0.0,0.0,0.0,0.0,0.0,0.0,0.238,0.0,0.0,0.0,0.0,0.0,0.0,0.14234408008914828,0.0,0.0,0.0,0.0,0.0,0.0,-9.664,0.0,0.0,0.0,0.0,0.0
164,0.0,-0.0732880859375,0.0,0.0,0.0,0.0,0.0,0.0,0.384,0.0,0.0,0.0,0.0,0.0,0.0,0.1653980023317602,0.0,0.0,0.0,0.0,0.0,0.0,-12.252,0.0,0.0,0.0,0.0,0.0
165,0.0,-0.06762890625,0.0,0.0,0.0,0.0,0.0,0.0,0.497,0.0,0.0,0.0,0.0,0.0,0.0,0.1885599682190928,0.0,0.0,0.0,0.0,0.0,0.0,-15.872,0.0,0.0,0.0,0.0,0.0
166,0.0,-0.0619619140625,0.0,0.0,0.0,0.0,0.0,0.0,0.578,0.0,0.0,0.0,0.0,0.0,0.0,0.21110138147085195,0.0,0.0,0.0,0.0,0.0,0.0,-20.244,0.0,0.0,0.0,0.0,0.0
167,0.0,-0.0563984375,0.0,0.0,0.0,0.0,0.0,0.0,0.559,0.0,0.0,0.0,0.0,0.0,0.0,0.23338145174085867,0.0,0.0,0.0,0.0,0.0,0.0,-23.052,0.0,0.0,0.0,0.0,0.0
168,0.0,-0.05073828125,0.0,0.0,0.0,0.0,0.0,0.0,0.564,0.0,0.0,0.0,0.0,0.0,0.0,0.2552615908246541,0.0,0.0,0.0,0.0,0.0,0.0,-29.8,0.0,0.0,0.0,0.0,0.0
169,0.0,-0.0449697265625,0.0,0.0,0.0,0.0,0.0,0.0,0.57,0.0,0.0,0.0,0.0,0.0,0.0,0.27695458101920317,0.0,0.0,0.0,0.0,0.0,0.0,-34.768,0.0,0.0,0.0,0.0,0.0
170,0.0,-0.038376953125,0.0,0.0,0.0,0.0,0.0,0.0,0.611,0.0,0.0,0.0,0.0,0.0,0.0,0.29793016805622274,0.0,0.0,0.0,0.0,0.0,0.0,-36.98,0.0,0.0,0.0,0.0,0.0
171,0.0,-0.03126953125,0.0,0.0,0.0,0.0,0.0,0.0,0.695,0.0,0.0,0.0,0.0,0.0,0.0,0.31841469329917144,0.0,0.0,0.0,0.0,0.0,0.0,-35.416,0.0,0.0,0.0,0.0,0.0
172,0.0,-0.0241689453125,0.0,0.0,0.0,0.0,0.0,0.0,0.718,0.0,0.0,0.0,0.0,0.0,0.0,0.33866051303716627,0.0,0.0,0.0,0.0,0.0,0.0,-37.844,0.0,0.0,0.0,0.0,0.0
173,0.0,-0.0177822265625,0.0,0.0,0.0,0.0,0.0,0.0,0.678,0.0,0.0,0.0,0.0,0.0,0.0,0.35795520702708006,0.0,0.0,0.0,0.0,0.0,0.0,-44.7,0.0,0.0,0.0,0.0,0.0
174,0.0,-0.0117041015625,0.0,0.0,0.0,0.0,0.0,0.0,0.629,0.0,0.0,0.0,0.0,0.0,0.0,0.37712065512641685,0.0,0.0,0.0,0.0,0.0,0.0,-46.428,0.0,0.0,0.0,0.0,0.0
175,0.0,-0.0050087890625,0.0,0.0,0.0,0.0,0.0,0.0,0.638,0.0,0.0,0.0,0.0,0.0,0.0,0.3992804505691689,0.0,0.0,0.0,0.0,0.0,0.0,-42.544,0.0,0.0,0.0,0.0,0.0
176,0.0,0.0015771484375,0.0,0.0,0.0,0.0,0.0,0.0,0.668,0.0,0.0,0.0,0.0,0.0,0.0,0.41312313498802056,0.0,0.0,0.0,0.0,0.0,0.0,-44.7,0.0,0.0,0.0,0.0,0.0
177,0.0,0.007861328125,0.0,0.0,0.0,0.0,0.0,0.0,0.648,0.0,0.0,0.0,0.0,0.0,0.0,0.43027497734327924,0.0,0.0,0.0,0.0,0.0,0.0,-51.828,0.0,0.0,0.0,0.0,0.0
178,0.0,0.0143505859375,0.0,0.0,0.0,0.0,0.0,0.0,0.642,0.0,0.0,0.0,0.0,0.0,0.0,0.4466866187978188,0.0,0.0,0.0,0.0,0.0,0.0,-54.364,0.0,0.0,0.0,0.0,0.0
179,0.0,0.020216796875,0.0,0.0,0.0,0.0,0.0,0.0,0.628,0.0,0.0,0.0,0.0,0.0,0.0,0.4622369510204618,0.0,0.0,0.0,0.0,0.0,0.0,-51.02,0.0,0.0,0.0,0.0,0.0
180,0.0,0.025677734375,0.0,0.0,0.0,0.0,0.0,0.0,0.572,0.0,0.0,0.0,0.0,0.0,0.0,0.47721259249193504,0.0,0.0,0.0,0.0,0.0,0.0,-52.26,0.0,0.0,0.0,0.0,0.0
181,0.0,0.03134375,0.0,0.0,0.0,0.0,0.0,0.0,0.555,0.0,0.0,0.0,0.0,0.0,0.0,0.4915051087837516,0.0,0.0,0.0,0.0,0.0,0.0,-56.796,0.0,0.0,0.0,0.0,0.0
182,0.0,0.0366953125,0.0,0.0,0.0,0.0,0.0,0.0,0.557,0.0,0.0,0.0,0.0,0.0,0.0,0.5046827754893951,0.0,0.0,0.0,0.0,0.0,0.0,-57.768,0.0,0.0,0.0,0.0,0.0
183,0.0,0.0419501953125,0.0,0.0,0.0,0.0,0.0,0.0,0.539,0.0,0.0,0.0,0.0,0.0,0.0,0.5171836693614681,0.0,0.0,0.0,0.0,0.0,0.0,-55.068,0.0,0.0,0.0,0.0,0.0
184,0.0,0.0467861328125,0.0,0.0,0.0,0.0,0.0,0.0,0.516,0.0,0.0,0.0,0.0,0.0,0.0,0.5290375947436684,0.0,0.0,0.0,0.0,0.0,0.0,-55.176,0.0,0.0,0.0,0.0,0.0
185,0.0,0.0509091796875,0.0,0.0,0.0,0.0,0.0,0.0,0.45,0.0,0.0,0.0,0.0,0.0,0.0,0.5400131090016759,0.0,0.0,0.0,0.0,0.0,0.0,-57.768,0.0,0.0,0.0,0.0,0.0
186,0.0,0.05512890625,0.0,0.0,0.0,0.0,0.0,0.0,0.416,0.0,0.0,0.0,0.0,0.0,0.0,0.5499800948935752,0.0,0.0,0.0,0.0,0.0,0.0,-57.228,0.0,0.0,0.0,0.0,0.0
187,0.0,0.0593544921875,0.0,0.0,0.0,0.0,0.0,0.0,0.429,0.0,0.0,0.0,0.0,0.0,0.0,0.5591408473677109,0.0,0.0,0.0,0.0,0.0,0.0,-54.852,0.0,0.0,0.0,0.0,0.0
188,0.0,0.0633681640625,0.0,0.0,0.0,0.0,0.0,0.0,0.41,0.0,0.0,0.0,0.0,0.0,0.0,0.5674696116614033,0.0,0.0,0.0,0.0,0.0,0.0,-52.044,0.0,0.0,0.0,0.0,0.0
189,0.0,0.067181640625,0.0,0.0,0.0,0.0,0.0,0.0,0.401,0.0,0.0,0.0,0.0,0.0,0.0,0.574707488237653,0.0,0.0,0.0,0.0,0.0,0.0,-53.448,0.0,0.0,0.0,0.0,0.0
190,0.0,0.070166015625,0.0,0.0,0.0,0.0,0.0,0.0,0.349,0.0,0.0,0.0,0.0,0.0,0.0,0.5811681870874238,0.0,0.0,0.0,0.0,0.0,0.0,-54.04,0.0,0.0,0.0,0.0,0.0
191,0.0,0.0732529296875,0.0,0.0,0.0,0.0,0.0,0.0,0.303,0.0,0.0,0.0,0.0,0.0,0.0,0.5866875711689179,0.0,0.0,0.0,0.0,0.0,0.0,-51.396,0.0,0.0,0.0,0.0,0.0
192,0.0,0.0761416015625,0.0,0.0,0.0,0.0,0.0,0.0,0.3,0.0,0.0,0.0,0.0,0.0,0.0,0.5912085185687311,0.0,0.0,0.0,0.0,0.0,0.0,-47.94,0.0,0.0,0.0,0.0,0.0
193,0.0,0.0791259765625,0.0,0.0,0.0,0.0,0.0,0.0,0.294,0.0,0.0,0.0,0.0,0.0,0.0,0.5948593667416848,0.0,0.0,0.0,0.0,0.0,0.0,-45.296,0.0,0.0,0.0,0.0,0.0
194,0.0,0.082521484375,0.0,0.0,0.0,0.0,0.0,0.0,0.321,0.0,0.0,0.0,0.0,0.0,0.0,0.5975125801838007,0.0,0.0,0.0,0.0,0.0,0.0,-44.972,0.0,0.0,0.0,0.0,0.0
195,0.0,0.0854091796875,0.0,0.0,0.0,0.0,0.0,0.0,0.325,0.0,0.0,0.0,0.0,0.0,0.0,0.5992012673245956,0.0,0.0,0.0,0.0,0.0,0.0,-45.78,0.0,0.0,0.0,0.0,0.0
196,0.0,0.0880849609375,0.0,0.0,0.0,0.0,0.0,0.0,0.281,0.0,0.0,0.0,0.0,0.0,0.0,0.5999627947707702,0.0,0.0,0.0,0.0,0.0,0.0,-45.24,0.0,0.0,0.0,0.0,0.0
197,0.0,0.0907607421875,0.0,0.0,0.0,0.0,0.0,0.0,0.269,0.0,0.0,0.0,0.0,0.0,0.0,0.5997499531257583,0.0,0.0,0.0,0.0,0.0,0.0,-44.0,0.0,0.0,0.0,0.0,0.0
198,0.0,0.0936484375,0.0,0.0,0.0,0.0,0.0,0.0,0.272,0.0,0.0,0.0,0.0,0.0,0.0,0.598570454163813,0.0,0.0,0.0,0.0,0.0,0.0,-41.948,0.0,0.0,0.0,0.0,0.0
199,0.0,0.09694140625,0.0,0.0,0.0,0.0,0.0,0.0,0.303,0.0,0.0,0.0,0.0,0.0,0.0,0.5964470733927578,0.0,0.0,0.0,0.0,0.0,0.0,-41.464,0.0,0.0,0.0,0.0,0.0
200,0.0,0.100234375,0.0,0.0,0.0,0.0,0.0,0.0,0.334,0.0,0.0,0.0,0.0,0.0,0.0,0.5933617060325592,0.0,0.0,0.0,0.0,0.0,0.0,-41.84,0.0,0.0,0.0,0.0,0.0
201,0.0,0.103431640625,0.0,0.0,0.0,0.0,0.0,0.0,0.33,0.0,0.0,0.0,0.0,0.0,0.0,0.5893674443975746,0.0,0.0,0.0,0.0,0.0,0.0,-41.032,0.0,0.0,0.0,0.0,0.0
202,0.0,0.106615234375,0.0,0.0,0.0,0.0,0.0,0.0,0.321,0.0,0.0,0.0,0.0,0.0,0.0,0.5843968338615445,0.0,0.0,0.0,0.0,0.0,0.0,-40.492,0.0,0.0,0.0,0.0,0.0
203,0.0,0.1097021484375,0.0,0.0,0.0,0.0,0.0,0.0,0.311,0.0,0.0,0.0,0.0,0.0,0.0,0.5783629804876466,0.0,0.0,0.0,0.0,0.0,0.0,-40.06,0.0,0.0,0.0,0.0,0.0
204,0.0,0.1131044921875,0.0,0.0,0.0,0.0,0.0,0.0,0.321,0.0,0.0,0.0,0.0,0.0,0.0,0.5716756197724836,0.0,0.0,0.0,0.0,0.0,0.0,-39.844,0.0,0.0,0.0,0.0,0.0
205,0.0,0.1167060546875,0.0,0.0,0.0,0.0,0.0,0.0,0.352,0.0,0.0,0.0,0.0,0.0,0.0,0.5639185212463937,0.0,0.0,0.0,0.0,0.0,0.0,-39.952,0.0,0.0,0.0,0.0,0.0
206,0.0,0.120314453125,0.0,0.0,0.0,0.0,0.0,0.0,0.36,0.0,0.0,0.0,0.0,0.0,0.0,0.5552226064010286,0.0,0.0,0.0,0.0,0.0,0.0,-39.844,0.0,0.0,0.0,0.0,0.0
207,0.0,0.1239169921875,0.0,0.0,0.0,0.0,0.0,0.0,0.366,0.0,0.0,0.0,0.0,0.0,0.0,0.5457281361184763,0.0,0.0,0.0,0.0,0.0,0.0,-39.788,0.0,0.0,0.0,0.0,0.0
208,0.0,0.12762109375,0.0,0.0,0.0,0.0,0.0,0.0,0.366,0.0,0.0,0.0,0.0,0.0,0.0,0.535311321871915,0.0,0.0,0.0,0.0,0.0,0.0,-39.14,0.0,0.0,0.0,0.0,0.0
209,0.0,0.13133203125,0.0,0.0,0.0,0.0,0.0,0.0,0.37,0.0,0.0,0.0,0.0,0.0,0.0,0.5239512029074499,0.0,0.0,0.0,0.0,0.0,0.0,-39.032,0.0,0.0,0.0,0.0,0.0
210,0.0,0.1351396484375,0.0,0.0,0.0,0.0,0.0,0.0,0.381,0.0,0.0,0.0,0.0,0.0,0.0,0.5119497248711462,0.0,0.0,0.0,0.0,0.0,0.0,-39.736,0.0,0.0,0.0,0.0,0.0
211,0.0,0.13916015625,0.0,0.0,0.0,0.0,0.0,0.0,0.39,0.0,0.0,0.0,0.0,0.0,0.0,0.4989954122335376,0.0,0.0,0.0,0.0,0.0,0.0,-40.328,0.0,0.0,0.0,0.0,0.0
212,0.0,0.1432763671875,0.0,0.0,0.0,0.0,0.0,0.0,0.408,0.0,0.0,0.0,0.0,0.0,0.0,0.4850908379410747,0.0,0.0,0.0,0.0,0.0,0.0,-40.544,0.0,0.0,0.0,0.0,0.0
213,0.0,0.1475087890625,0.0,0.0,0.0,0.0,0.0,0.0,0.421,0.0,0.0,0.0,0.0,0.0,0.0,0.47066985336043077,0.0,0.0,0.0,0.0,0.0,0.0,-41.14,0.0,0.0,0.0,0.0,0.0
214,0.0,0.151830078125,0.0,0.0,0.0,0.0,0.0,0.0,0.424,0.0,0.0,0.0,0.0,0.0,0.0,0.4552987170028462,0.0,0.0,0.0,0.0,0.0,0.0,-41.248,0.0,0.0,0.0,0.0,0.0
215,0.0,0.15615234375,0.0,0.0,0.0,0.0,0.0,0.0,0.436,0.0,0.0,0.0,0.0,0.0,0.0,0.43941575489421475,0.0,0.0,0.0,0.0,0.0,0.0,-41.896,0.0,0.0,0.0,0.0,0.0
216,0.0,0.1604814453125,0.0,0.0,0.0,0.0,0.0,0.0,0.44,0.0,0.0,0.0,0.0,0.0,0.0,0.42281349938309126,0.0,0.0,0.0,0.0,0.0,0.0,-42.596,0.0,0.0,0.0,0.0,0.0
217,0.0,0.16490625,0.0,0.0,0.0,0.0,0.0,0.0,0.437,0.0,0.0,0.0,0.0,0.0,0.0,0.40553623529561833,0.0,0.0,0.0,0.0,0.0,0.0,-43.084,0.0,0.0,0.0,0.0,0.0
218,0.0,0.169337890625,0.0,0.0,0.0,0.0,0.0,0.0,0.446,0.0,0.0,0.0,0.0,0.0,0.0,0.3873324271478495,0.0,0.0,0.0,0.0,0.0,0.0,-43.46,0.0,0.0,0.0,0.0,0.0
219,0.0,0.1738662109375,0.0,0.0,0.0,0.0,0.0,0.0,0.448,0.0,0.0,0.0,0.0,0.0,0.0,0.3686319949930295,0.0,0.0,0.0,0.0,0.0,0.0,-44.0,0.0,0.0,0.0,0.0,0.0
220,0.0,0.178296875,0.0,0.0,0.0,0.0,0.0,0.0,0.451,0.0,0.0,0.0,0.0,0.0,0.0,0.34961490348827257,0.0,0.0,0.0,0.0,0.0,0.0,-44.324,0.0,0.0,0.0,0.0,0.0
221,0.0,0.18272265625,0.0,0.0,0.0,0.0,0.0,0.0,0.447,0.0,0.0,0.0,0.0,0.0,0.0,0.3295470669802917,0.0,0.0,0.0,0.0,0.0,0.0,-44.808,0.0,0.0,0.0,0.0,0.0
222,0.0,0.18705078125,0.0,0.0,0.0,0.0,0.0,0.0,0.437,0.0,0.0,0.0,0.0,0.0,0.0,0.3095330050417212,0.0,0.0,0.0,0.0,0.0,0.0,-45.08,0.0,0.0,0.0,0.0,0.0
223,0.0,0.191373046875,0.0,0.0,0.0,0.0,0.0,0.0,0.431,0.0,0.0,0.0,0.0,0.0,0.0,0.28880490545829024,0.0,0.0,0.0,0.0,0.0,0.0,-45.132,0.0,0.0,0.0,0.0,0.0
224,0.0,0.1957021484375,0.0,0.0,0.0,0.0,0.0,0.0,0.435,0.0,0.0,0.0,0.0,0.0,0.0,0.26713035175235683,0.0,0.0,0.0,0.0,0.0,0.0,-45.348,0.0,0.0,0.0,0.0,0.0
225,0.0,0.1999208984375,0.0,0.0,0.0,0.0,0.0,0.0,0.43,0.0,0.0,0.0,0.0,0.0,0.0,0.245824351244699,0.0,0.0,0.0,0.0,0.0,0.0,-45.188,0.0,0.0,0.0,0.0,0.0
226,0.0,0.204146484375,0.0,0.0,0.0,0.0,0.0,0.0,0.427,0.0,0.0,0.0,0.0,0.0,0.0,0.22376479012942732,0.0,0.0,0.0,0.0,0.0,0.0,-45.08,0.0,0.0,0.0,0.0,0.0
227,0.0,0.20816015625,0.0,0.0,0.0,0.0,0.0,0.0,0.419,0.0,0.0,0.0,0.0,0.0,0.0,0.20111031130879564,0.0,0.0,0.0,0.0,0.0,0.0,-44.916,0.0,0.0,0.0,0.0,0.0
228,0.0,0.2122763671875,0.0,0.0,0.0,0.0,0.0,0.0,0.406,0.0,0.0,0.0,0.0,0.0,0.0,0.17798867297396134,0.0,0.0,0.0,0.0,0.0,0.0,-44.54,0.0,0.0,0.0,0.0,0.0
229,0.0,0.2163994140625,0.0,0.0,0.0,0.0,0.0,0.0,0.414,0.0,0.0,0.0,0.0,0.0,0.0,0.15539207461643287,0.0,0.0,0.0,0.0,0.0,0.0,-44.324,0.0,0.0,0.0,0.0,0.0
230,0.0,0.219794921875,0.0,0.0,0.0,0.0,0.0,0.0,0.392,0.0,0.0,0.0,0.0,0.0,0.0,0.13219554070472322,0.0,0.0,0.0,0.0,0.0,0.0,-50.1,0.0,0.0,0.0,0.0,0.0
231,0.0,0.22144140625,0.0,0.0,0.0,0.0,0.0,0.0,0.273,0.0,0.0,0.0,0.0,0.0,0.0,0.10844497042252961,0.0,0.0,0.0,0.0,0.0,0.0,-62.464,0.0,0.0,0.0,0.0,0.0
232,0.0,0.2219560546875,0.0,0.0,0.0,0.0,0.0,0.0,0.118,0.0,0.0,0.0,0.0,0.0,0.0,0.08498072403176367,0.0,0.0,0.0,0.0,0.0,0.0,-72.508,0.0,0.0,0.0,0.0,0.0
233,0.0,0.2213388671875,0.0,0.0,0.0,0.0,0.0,0.0,0.005,0.0,0.0,0.0,0.0,0.0,0.0,0.06109672722300384,0.0,0.0,0.0,0.0,0.0,0.0,-76.556,0.0,0.0,0.0,0.0,0.0
234,0.0,0.220103515625,0.0,0.0,0.0,0.0,0.0,0.0,-0.096,0.0,0.0,0.0,0.0,0.0,0.0,0.03723153817138022,0.0,0.0,0.0,0.0,0.0,0.0,-76.716,0.0,0.0,0.0,0.0,0.0
235,0.0,0.2186630859375,0.0,0.0,0.0,0.0,0.0,0.0,-0.126,0.0,0.0,0.0,0.0,0.0,0.0,0.013151445876518413,0.0,0.0,0.0,0.0,0.0,0.0,-77.96,0.0,0.0,0.0,0.0,0.0
236,0.0,0.215884765625,0.0,0.0,0.0,0.0,0.0,0.0,-0.193,0.0,0.0,0.0,0.0,0.0,0.0,-0.010825146770757963,0.0,0.0,0.0,0.0,0.0,0.0,-78.608,0.0,0.0,0.0,0.0,0.0
237,0.0,0.2120703125,0.0,0.0,0.0,0.0,0.0,0.0,-0.327,0.0,0.0,0.0,0.0,0.0,0.0,-0.03479187903263031,0.0,0.0,0.0,0.0,0.0,0.0,-75.368,0.0,0.0,0.0,0.0,0.0
238,0.0,0.207234375,0.0,0.0,0.0,0.0,0.0,0.0,-0.429,0.0,0.0,0.0,0.0,0.0,0.0,-0.058569193722089456,0.0,0.0,0.0,0.0,0.0,0.0,-69.808,0.0,0.0,0.0,0.0,0.0
239,0.0,0.2019794921875,0.0,0.0,0.0,0.0,0.0,0.0,-0.509,0.0,0.0,0.0,0.0,0.0,0.0,-0.08260140392942013,0.0,0.0,0.0,0.0,0.0,0.0,-63.276,0.0,0.0,0.0,0.0,0.0
240,0.0,0.1972451171875,0.0,0.0,0.0,0.0,0.0,0.0,-0.509,0.0,0.0,0.0,0.0,0.0,0.0,-0.10614445250332537,0.0,0.0,0.0,0.0,0.0,0.0,-58.576,0.0,0.0,0.0,0.0,0.0
241,0.0,0.1926083984375,0.0,0.0,0.0,0.0,0.0,0.0,-0.469,0.0,0.0,0.0,0.0,0.0,0.0,-0.12968139143796314,0.0,0.0,0.0,0.0,0.0,0.0,-55.5,0.0,0.0,0.0,0.0,0.0
242,0.0,0.187359375,0.0,0.0,0.0,0.0,0.0,0.0,-0.489,0.0,0.0,0.0,0.0,0.0,0.0,-0.15317838858098676,0.0,0.0,0.0,0.0,0.0,0.0,-52.692,0.0,0.0,0.0,0.0,0.0
243,0.0,0.1817958984375,0.0,0.0,0.0,0.0,0.0,0.0,-0.538,0.0,0.0,0.0,0.0,0.0,0.0,-0.17620841011270383,0.0,0.0,0.0,0.0,0.0,0.0,-49.668,0.0,0.0,0.0,0.0,0.0
244,0.0,0.1759306640625,0.0,0.0,0.0,0.0,0.0,0.0,-0.578,0.0,0.0,0.0,0.0,0.0,0.0,-0.1989398496570163,0.0,0.0,0.0,0.0,0.0,0.0,-46.644,0.0,0.0,0.0,0.0,0.0
245,0.0,0.170263671875,0.0,0.0,0.0,0.0,0.0,0.0,-0.585,0.0,0.0,0.0,0.0,0.0,0.0,-0.22132554979930924,0.0,0.0,0.0,0.0,0.0,0.0,-44.376,0.0,0.0,0.0,0.0,0.0
246,0.0,0.1651123046875,0.0,0.0,0.0,0.0,0.0,0.0,-0.546,0.0,0.0,0.0,0.0,0.0,0.0,-0.24361685265646008,0.0,0.0,0.0,0.0,0.0,0.0,-43.512,0.0,0.0,0.0,0.0,0.0
247,0.0,0.1595546875,0.0,0.0,0.0,0.0,0.0,0.0,-0.534,0.0,0.0,0.0,0.0,0.0,0.0,-0.26530771346654247,0.0,0.0,0.0,0.0,0.0,0.0,-44.216,0.0,0.0,0.0,0.0,0.0
248,0.0,0.1537861328125,0.0,0.0,0.0,0.0,0.0,0.0,-0.569,0.0,0.0,0.0,0.0,0.0,0.0,-0.28649783227657233,0.0,0.0,0.0,0.0,0.0,0.0,-45.296,0.0,0.0,0.0,0.0,0.0
249,0.0,0.1477138671875,0.0,0.0,0.0,0.0,0.0,0.0,-0.593,0.0,0.0,0.0,0.0,0.0,0.0,-0.3080487618115773,0.0,0.0,0.0,0.0,0.0,0.0,-46.592,0.0,0.0,0.0,0.0,0.0
250,0.0,0.1412177734375,0.0,0.0,0.0,0.0,0.0,0.0,-0.634,0.0,0.0,0.0,0.0,0.0,0.0,-0.32775934560559594,0.0,0.0,0.0,0.0,0.0,0.0,-46.052,0.0,0.0,0.0,0.0,0.0
251,0.0,0.1349345703125,0.0,0.0,0.0,0.0,0.0,0.0,-0.647,0.0,0.0,0.0,0.0,0.0,0.0,-0.3477763558608547,0.0,0.0,0.0,0.0,0.0,0.0,-45.456,0.0,0.0,0.0,0.0,0.0
252,0.0,0.1289658203125,0.0,0.0,0.0,0.0,0.0,0.0,-0.611,0.0,0.0,0.0,0.0,0.0,0.0,-0.36714695850858026,0.0,0.0,0.0,0.0,0.0,0.0,-44.268,0.0,0.0,0.0,0.0,0.0
253,0.0,0.122681640625,0.0,0.0,0.0,0.0,0.0,0.0,-0.616,0.0,0.0,0.0,0.0,0.0,0.0,-0.3854920280451591,0.0,0.0,0.0,0.0,0.0,0.0,-45.78,0.0,0.0,0.0,0.0,0.0
254,0.0,0.1160888671875,0.0,0.0,0.0,0.0,0.0,0.0,-0.653,0.0,0.0,0.0,0.0,0.0,0.0,-0.40375657382892205,0.0,0.0,0.0,0.0,0.0,0.0,-44.376,0.0,0.0,0.0,0.0,0.0
255,0.0,0.1101142578125,0.0,0.0,0.0,0.0,0.0,0.0,-0.635,0.0,0.0,0.0,0.0,0.0,0.0,-0.4211578166933004,0.0,0.0,0.0,0.0,0.0,0.0,-38.384,0.0,0.0,0.0,0.0,0.0
256,0.0,0.1041513671875,0.0,0.0,0.0,0.0,0.0,0.0,-0.603,0.0,0.0,0.0,0.0,0.0,0.0,-0.43781364201996326,0.0,0.0,0.0,0.0,0.0,0.0,-35.36,0.0,0.0,0.0,0.0,0.0
257,0.0,0.0984853515625,0.0,0.0,0.0,0.0,0.0,0.0,-0.59,0.0,0.0,0.0,0.0,0.0,0.0,-0.45381771196737647,0.0,0.0,0.0,0.0,0.0,0.0,-36.872,0.0,0.0,0.0,0.0,0.0
258,0.0,0.09303125,0.0,0.0,0.0,0.0,0.0,0.0,-0.556,0.0,0.0,0.0,0.0,0.0,0.0,-0.46930421656073323,0.0,0.0,0.0,0.0,0.0,0.0,-37.736,0.0,0.0,0.0,0.0,0.0
259,0.0,0.08787890625,0.0,0.0,0.0,0.0,0.0,0.0,-0.539,0.0,0.0,0.0,0.0,0.0,0.0,-0.48389248269169466,0.0,0.0,0.0,0.0,0.0,0.0,-33.364,0.0,0.0,0.0,0.0,0.0
260,0.0,0.0830361328125,0.0,0.0,0.0,0.0,0.0,0.0,-0.508,0.0,0.0,0.0,0.0,0.0,0.0,-0.49771977450727545,0.0,0.0,0.0,0.0,0.0,0.0,-31.908,0.0,0.0,0.0,0.0,0.0
261,0.0,0.07819921875,0.0,0.0,0.0,0.0,0.0,0.0,-0.483,0.0,0.0,0.0,0.0,0.0,0.0,-0.5106618811355478,0.0,0.0,0.0,0.0,0.0,0.0,-34.496,0.0,0.0,0.0,0.0,0.0
262,0.0,0.0735625,0.0,0.0,0.0,0.0,0.0,0.0,-0.48,0.0,0.0,0.0,0.0,0.0,0.0,-0.5227935712403476,0.0,0.0,0.0,0.0,0.0,0.0,-38.116,0.0,0.0,0.0,0.0,0.0
263,0.0,0.0693427734375,0.0,0.0,0.0,0.0,0.0,0.0,-0.453,0.0,0.0,0.0,0.0,0.0,0.0,-0.5342071425414537,0.0,0.0,0.0,0.0,0.0,0.0,-36.28,0.0,0.0,0.0,0.0,0.0
264,0.0,0.0654326171875,0.0,0.0,0.0,0.0,0.0,0.0,-0.412,0.0,0.0,0.0,0.0,0.0,0.0,-0.5447591869037356,0.0,0.0,0.0,0.0,0.0,0.0,-32.768,0.0,0.0,0.0,0.0,0.0
265,0.0,0.061515625,0.0,0.0,0.0,0.0,0.0,0.0,-0.393,0.0,0.0,0.0,0.0,0.0,0.0,-0.5543051285975048,0.0,0.0,0.0,0.0,0.0,0.0,-34.66,0.0,0.0,0.0,0.0,0.0
266,0.0,0.0577080078125,0.0,0.0,0.0,0.0,0.0,0.0,-0.394,0.0,0.0,0.0,0.0,0.0,0.0,-0.5630899465291446,0.0,0.0,0.0,0.0,0.0,0.0,-38.98,0.0,0.0,0.0,0.0,0.0
267,0.0,0.053791015625,0.0,0.0,0.0,0.0,0.0,0.0,-0.385,0.0,0.0,0.0,0.0,0.0,0.0,-0.5708763503639178,0.0,0.0,0.0,0.0,0.0,0.0,-41.68,0.0,0.0,0.0,0.0,0.0
268,0.0,0.0500859375,0.0,0.0,0.0,0.0,0.0,0.0,-0.386,0.0,0.0,0.0,0.0,0.0,0.0,-0.5778345957358084,0.0,0.0,0.0,0.0,0.0,0.0,-40.06,0.0,0.0,0.0,0.0,0.0
269,0.0,0.0469921875,0.0,0.0,0.0,0.0,0.0,0.0,-0.347,0.0,0.0,0.0,0.0,0.0,0.0,-0.5838188359227078,0.0,0.0,0.0,0.0,0.0,0.0,-38.008,0.0,0.0,0.0,0.0,0.0
270,0.0,0.0440078125,0.0,0.0,0.0,0.0,0.0,0.0,-0.306,0.0,0.0,0.0,0.0,0.0,0.0,-0.5888961526590956,0.0,0.0,0.0,0.0,0.0,0.0,-39.248,0.0,0.0,0.0,0.0,0.0
271,0.0,0.0410234375,0.0,0.0,0.0,0.0,0.0,0.0,-0.3,0.0,0.0,0.0,0.0,0.0,0.0,-0.5930120891735227,0.0,0.0,0.0,0.0,0.0,0.0,-42.704,0.0,0.0,0.0,0.0,0.0
272,0.0,0.0378271484375,0.0,0.0,0.0,0.0,0.0,0.0,-0.309,0.0,0.0,0.0,0.0,0.0,0.0,-0.5961795080343132,0.0,0.0,0.0,0.0,0.0,0.0,-45.78,0.0,0.0,0.0,0.0,0.0
273,0.0,0.0341220703125,0.0,0.0,0.0,0.0,0.0,0.0,-0.348,0.0,0.0,0.0,0.0,0.0,0.0,-0.5984065164327047,0.0,0.0,0.0,0.0,0.0,0.0,-46.104,0.0,0.0,0.0,0.0,0.0
274,0.0,0.0308291015625,0.0,0.0,0.0,0.0,0.0,0.0,-0.355,0.0,0.0,0.0,0.0,0.0,0.0,-0.5996744241168586,0.0,0.0,0.0,0.0,0.0,0.0,-45.24,0.0,0.0,0.0,0.0,0.0
275,0.0,0.0278388671875,0.0,0.0,0.0,0.0,0.0,0.0,-0.315,0.0,0.0,0.0,0.0,0.0,0.0,-0.5999855712429301,0.0,0.0,0.0,0.0,0.0,0.0,-44.972,0.0,0.0,0.0,0.0,0.0
276,0.0,0.02495703125,0.0,0.0,0.0,0.0,0.0,0.0,-0.298,0.0,0.0,0.0,0.0,0.0,0.0,-0.599334624731609,0.0,0.0,0.0,0.0,0.0,0.0,-45.296,0.0,0.0,0.0,0.0,0.0
277,0.0,0.0218701171875,0.0,0.0,0.0,0.0,0.0,0.0,-0.293,0.0,0.0,0.0,0.0,0.0,0.0,-0.5977146991386875,0.0,0.0,0.0,0.0,0.0,0.0,-46.428,0.0,0.0,0.0,0.0,0.0
278,0.0,0.018158203125,0.0,0.0,0.0,0.0,0.0,0.0,-0.339,0.0,0.0,0.0,0.0,0.0,0.0,-0.5951709261427461,0.0,0.0,0.0,0.0,0.0,0.0,-47.4,0.0,0.0,0.0,0.0,0.0
279,0.0,0.0143505859375,0.0,0.0,0.0,0.0,0.0,0.0,-0.383,0.0,0.0,0.0,0.0,0.0,0.0,-0.5916024484418296,0.0,0.0,0.0,0.0,0.0,0.0,-47.184,0.0,0.0,0.0,0.0,0.0
280,0.0,0.010845703125,0.0,0.0,0.0,0.0,0.0,0.0,-0.369,0.0,0.0,0.0,0.0,0.0,0.0,-0.587130053779466,0.0,0.0,0.0,0.0,0.0,0.0,-47.184,0.0,0.0,0.0,0.0,0.0
281,0.0,0.0074501953125,0.0,0.0,0.0,0.0,0.0,0.0,-0.353,0.0,0.0,0.0,0.0,0.0,0.0,-0.5817932774358832,0.0,0.0,0.0,0.0,0.0,0.0,-47.184,0.0,0.0,0.0,0.0,0.0
282,0.0,0.00415625,0.0,0.0,0.0,0.0,0.0,0.0,-0.334,0.0,0.0,0.0,0.0,0.0,0.0,-0.5753960997285168,0.0,0.0,0.0,0.0,0.0,0.0,-47.24,0.0,0.0,0.0,0.0,0.0
283,0.0,0.000548828125,0.0,0.0,0.0,0.0,0.0,0.0,-0.341,0.0,0.0,0.0,0.0,0.0,0.0,-0.5681547082257266,0.0,0.0,0.0,0.0,0.0,0.0,-46.808,0.0,0.0,0.0,0.0,0.0
284,0.0,-0.00346484375,0.0,0.0,0.0,0.0,0.0,0.0,-0.382,0.0,0.0,0.0,0.0,0.0,0.0,-0.5600329655892605,0.0,0.0,0.0,0.0,0.0,0.0,-46.484,0.0,0.0,0.0,0.0,0.0
285,0.0,-0.0074853515625,0.0,0.0,0.0,0.0,0.0,0.0,-0.403,0.0,0.0,0.0,0.0,0.0,0.0,-0.5509506803297867,0.0,0.0,0.0,0.0,0.0,0.0,-47.076,0.0,0.0,0.0,0.0,0.0
286,0.0,-0.011498046875,0.0,0.0,0.0,0.0,0.0,0.0,-0.406,0.0,0.0,0.0,0.0,0.0,0.0,-0.5409692109447476,0.0,0.0,0.0,0.0,0.0,0.0,-47.292,0.0,0.0,0.0,0.0,0.0
287,0.0,-0.015208984375,0.0,0.0,0.0,0.0,0.0,0.0,-0.395,0.0,0.0,0.0,0.0,0.0,0.0,-0.5302413785779908,0.0,0.0,0.0,0.0,0.0,0.0,-47.292,0.0,0.0,0.0,0.0,0.0
288,0.0,-0.0190166015625,0.0,0.0,0.0,0.0,0.0,0.0,-0.378,0.0,0.0,0.0,0.0,0.0,0.0,-0.5186018110859414,0.0,0.0,0.0,0.0,0.0,0.0,-47.076,0.0,0.0,0.0,0.0,0.0
289,0.0,-0.023037109375,0.0,0.0,0.0,0.0,0.0,0.0,-0.389,0.0,0.0,0.0,0.0,0.0,0.0,-0.5060932296389857,0.0,0.0,0.0,0.0,0.0,0.0,-46.16,0.0,0.0,0.0,0.0,0.0
290,0.0,-0.027255859375,0.0,0.0,0.0,0.0,0.0,0.0,-0.413,0.0,0.0,0.0,0.0,0.0,0.0,-0.49279217363758554,0.0,0.0,0.0,0.0,0.0,0.0,-45.62,0.0,0.0,0.0,0.0,0.0
291,0.0,-0.031791015625,0.0,0.0,0.0,0.0,0.0,0.0,-0.441,0.0,0.0,0.0,0.0,0.0,0.0,-0.4787290678891083,0.0,0.0,0.0,0.0,0.0,0.0,-45.672,0.0,0.0,0.0,0.0,0.0
292,0.0,-0.036009765625,0.0,0.0,0.0,0.0,0.0,0.0,-0.443,0.0,0.0,0.0,0.0,0.0,0.0,-0.4637819295590028,0.0,0.0,0.0,0.0,0.0,0.0,-45.456,0.0,0.0,0.0,0.0,0.0
293,0.0,-0.0401328125,0.0,0.0,0.0,0.0,0.0,0.0,-0.42,0.0,0.0,0.0,0.0,0.0,0.0,-0.44835765361302976,0.0,0.0,0.0,0.0,0.0,0.0,-45.132,0.0,0.0,0.0,0.0,0.0
294,0.0,-0.0442490234375,0.0,0.0,0.0,0.0,0.0,0.0,-0.415,0.0,0.0,0.0,0.0,0.0,0.0,-0.43199979997662213,0.0,0.0,0.0,0.0,0.0,0.0,-44.592,0.0,0.0,0.0,0.0,0.0
295,0.0,-0.0482626953125,0.0,0.0,0.0,0.0,0.0,0.0,-0.407,0.0,0.0,0.0,0.0,0.0,0.0,-0.4148954461829813,0.0,0.0,0.0,0.0,0.0,0.0,-43.892,0.0,0.0,0.0,0.0,0.0
296,0.0,-0.0526943359375,0.0,0.0,0.0,0.0,0.0,0.0,-0.423,0.0,0.0,0.0,0.0,0.0,0.0,-0.3973159086274116,0.0,0.0,0.0,0.0,0.0,0.0,-43.784,0.0,0.0,0.0,0.0,0.0
297,0.0,-0.0572216796875,0.0,0.0,0.0,0.0,0.0,0.0,-0.449,0.0,0.0,0.0,0.0,0.0,0.0,-0.37902823055976276,0.0,0.0,0.0,0.0,0.0,0.0,-44.108,0.0,0.0,0.0,0.0,0.0
298,0.0,-0.06155078125,0.0,0.0,0.0,0.0,0.0,0.0,-0.451,0.0,0.0,0.0,0.0,0.0,0.0,-0.3600748390715735,0.0,0.0,0.0,0.0,0.0,0.0,-43.728,0.0,0.0,0.0,0.0,0.0
299,0.0,-0.0656669921875,0.0,0.0,0.0,0.0,0.0,0.0,-0.428,0.0,0.0,0.0,0.0,0.0,0.0,-0.3406455464329397,0.0,0.0,0.0,0.0,0.0,0.0,-43.296,0.0,0.0,0.0,0.0,0.0
300,0.0,-0.069583984375,0.0,0.0,0.0,0.0,0.0,0.0,-0.406,0.0,0.0,0.0,0.0,0.0,0.0,-0.32063785032573644,0.0,0.0,0.0,0.0,0.0,0.0,-43.244,0.0,0.0,0.0,0.0,0.0
301,0.0,-0.07359765625,0.0,0.0,0.0,0.0,0.0,0.0,-0.396,0.0,0.0,0.0,0.0,0.0,0.0,-0.30000158917723824,0.0,0.0,0.0,0.0,0.0,0.0,-43.244,0.0,0.0,0.0,0.0,0.0
302,0.0,-0.07792578125,0.0,0.0,0.0,0.0,0.0,0.0,-0.415,0.0,0.0,0.0,0.0,0.0,0.0,-0.27905048973991714,0.0,0.0,0.0,0.0,0.0,0.0,-43.728,0.0,0.0,0.0,0.0,0.0
303,0.0,-0.082248046875,0.0,0.0,0.0,0.0,0.0,0.0,-0.439,0.0,0.0,0.0,0.0,0.0,0.0,-0.2574930267018673,0.0,0.0,0.0,0.0,0.0,0.0,-43.676,0.0,0.0,0.0,0.0,0.0
304,0.0,-0.0864736328125,0.0,0.0,0.0,0.0,0.0,0.0,-0.435,0.0,0.0,0.0,0.0,0.0,0.0,-0.23563110796807263,0.0,0.0,0.0,0.0,0.0,0.0,-43.244,0.0,0.0,0.0,0.0,0.0
305,0.0,-0.0903837890625,0.0,0.0,0.0,0.0,0.0,0.0,-0.412,0.0,0.0,0.0,0.0,0.0,0.0,-0.21346389509791022,0.0,0.0,0.0,0.0,0.0,0.0,-43.084,0.0,0.0,0.0,0.0,0.0
306,0.0,-0.0939921875,0.0,0.0,0.0,0.0,0.0,0.0,-0.382,0.0,0.0,0.0,0.0,0.0,0.0,-0.19091715059789682,0.0,0.0,0.0,0.0,0.0,0.0,-43.028,0.0,0.0,0.0,0.0,0.0
307,0.0,-0.0979033203125,0.0,0.0,0.0,0.0,0.0,0.0,-0.374,0.0,0.0,0.0,0.0,0.0,0.0,-0.1677762094483963,0.0,0.0,0.0,0.0,0.0,0.0,-43.46,0.0,0.0,0.0,0.0,0.0
308,0.0,-0.1021220703125,0.0,0.0,0.0,0.0,0.0,0.0,-0.405,0.0,0.0,0.0,0.0,0.0,0.0,-0.14480547680322614,0.0,0.0,0.0,0.0,0.0,0.0,-43.892,0.0,0.0,0.0,0.0,0.0
309,0.0,-0.106341796875,0.0,0.0,0.0,0.0,0.0,0.0,-0.427,0.0,0.0,0.0,0.0,0.0,0.0,-0.12138234511943252,0.0,0.0,0.0,0.0,0.0,0.0,-43.892,0.0,0.0,0.0,0.0,0.0
310,0.0,-0.110361328125,0.0,0.0,0.0,0.0,0.0,0.0,-0.419,0.0,0.0,0.0,0.0,0.0,0.0,-0.09762181227277575,0.0,0.0,0.0,0.0,0.0,0.0,-43.46,0.0,0.0,0.0,0.0,0.0
311,0.0,-0.11406640625,0.0,0.0,0.0,0.0,0.0,0.0,-0.392,0.0,0.0,0.0,0.0,0.0,0.0,-0.07410097002458785,0.0,0.0,0.0,0.0,0.0,0.0,-43.62,0.0,0.0,0.0,0.0,0.0
312,0.0,-0.117673828125,0.0,0.0,0.0,0.0,0.0,0.0,-0.371,0.0,0.0,0.0,0.0,0.0,0.0,-0.0501479862792164,0.0,0.0,0.0,0.0,0.0,0.0,-43.944,0.0,0.0,0.0,0.0,0.0
313,0.0,-0.1212763671875,0.0,0.0,0.0,0.0,0.0,0.0,-0.366,0.0,0.0,0.0,0.0,0.0,0.0,-0.026174237769400113,0.0,0.0,0.0,0.0,0.0,0.0,-41.624,0.0,0.0,0.0,0.0,0.0
314,0.0,-0.12374609375,0.0,0.0,0.0,0.0,0.0,0.0,-0.321,0.0,0.0,0.0,0.0,0.0,0.0,-0.0021802758840101717,0.0,0.0,0.0,0.0,0.0,0.0,-30.18,0.0,0.0,0.0,0.0,0.0
315,0.0,-0.124775390625,0.0,0.0,0.0,0.0,0.0,0.0,-0.186,0.0,0.0,0.0,0.0,0.0,0.0,0.021784008684315573,0.0,0.0,0.0,0.0,0.0,0.0,-18.896,0.0,0.0,0.0,0.0,0.0
316,0.0,-0.1248779296875,0.0,0.0,0.0,0.0,0.0,0.0,-0.069,0.0,0.0,0.0,0.0,0.0,0.0,0.0001247405996873306,0.0,0.0,0.0,0.0,0.0,0.0,-13.008,0.0,0.0,0.0,0.0,0.0
317,0.0,-0.123642578125,0.0,0.0,0.0,0.0,0.0,0.0,0.046,0.0,0.0,0.0,0.0,0.0,0.0,0.023772881722594116,0.0,0.0,0.0,0.0,0.0,0.0,-11.336,0.0,0.0,0.0,0.0,0.0
318,0.0,-0.1223046875,0.0,0.0,0.0,0.0,0.0,0.0,0.132,0.0,0.0,0.0,0.0,0.0,0.0,0.047726321379345474,0.0,0.0,0.0,0.0,0.0,0.0,-10.956,0.0,0.0,0.0,0.0,0.0
319,0.0,-0.1202470703125,0.0,0.0,0.0,0.0,0.0,0.0,0.152,0.0,0.0,0.0,0.0,0.0,0.0,0.07185338825810944,0.0,0.0,0.0,0.0,0.0,0.0,-8.908,0.0,0.0,0.0,0.0,0.0
320,0.0,-0.1169541015625,0.0,0.0,0.0,0.0,0.0,0.0,0.256,0.0,0.0,0.0,0.0,0.0,0.0,0.0954795473874838,0.0,0.0,0.0,0.0,0.0,0.0,-9.772,0.0,0.0,0.0,0.0,0.0
321,0.0,-0.112728515625,0.0,0.0,0.0,0.0,0.0,0.0,0.369,0.0,0.0,0.0,0.0,0.0,0.0,0.11894743342855238,0.0,0.0,0.0,0.0,0.0,0.0,-11.66,0.0,0.0,0.0,0.0,0.0
322,0.0,-0.1070615234375,0.0,0.0,0.0,0.0,0.0,0.0,0.485,0.0,0.0,0.0,0.0,0.0,0.0,0.14267980117641896,0.0,0.0,0.0,0.0,0.0,0.0,-15.6,0.0,0.0,0.0,0.0,0.0
323,0.0,-0.1010927734375,0.0,0.0,0.0,0.0,0.0,0.0,0.591,0.0,0.0,0.0,0.0,0.0,0.0,0.1659078192341397,0.0,0.0,0.0,0.0,0.0,0.0,-20.46,0.0,0.0,0.0,0.0,0.0
324,0.0,-0.09543359375,0.0,0.0,0.0,0.0,0.0,0.0,0.581,0.0,0.0,0.0,0.0,0.0,0.0,0.18850727568253473,0.0,0.0,0.0,0.0,0.0,0.0,-24.832,0.0,0.0,0.0,0.0,0.0
325,0.0,-0.0896640625,0.0,0.0,0.0,0.0,0.0,0.0,0.576,0.0,0.0,0.0,0.0,0.0,0.0,0.21139380073447134,0.0,0.0,0.0,0.0,0.0,0.0,-31.26,0.0,0.0,0.0,0.0,0.0
326,0.0,-0.0839013671875,0.0,0.0,0.0,0.0,0.0,0.0,0.577,0.0,0.0,0.0,0.0,0.0,0.0,0.2337482924855185,0.0,0.0,0.0,0.0,0.0,0.0,-34.064,0.0,0.0,0.0,0.0,0.0
327,0.0,-0.0771025390625,0.0,0.0,0.0,0.0,0.0,0.0,0.613,0.0,0.0,0.0,0.0,0.0,0.0,0.255311820075174,0.0,0.0,0.0,0.0,0.0,0.0,-34.12,0.0,0.0,0.0,0.0,0.0
328,0.0,-0.0697900390625,0.0,0.0,0.0,0.0,0.0,0.0,0.715,0.0,0.0,0.0,0.0,0.0,0.0,0.2770099077720782,0.0,0.0,0.0,0.0,0.0,0.0,-35.308,0.0,0.0,0.0,0.0,0.0
329,0.0,-0.062888671875,0.0,0.0,0.0,0.0,0.0,0.0,0.725,0.0,0.0,0.0,0.0,0.0,0.0,0.2981114375235689,0.0,0.0,0.0,0.0,0.0,0.0,-40.76,0.0,0.0,0.0,0.0,0.0
330,0.0,-0.0562958984375,0.0,0.0,0.0,0.0,0.0,0.0,0.674,0.0,0.0,0.0,0.0,0.0,0.0,0.3185853885758053,0.0,0.0,0.0,0.0,0.0,0.0,-45.78,0.0,0.0,0.0,0.0,0.0
331,0.0,-0.05012109375,0.0,0.0,0.0,0.0,0.0,0.0,0.646,0.0,0.0,0.0,0.0,0.0,0.0,0.3390548114745092,0.0,0.0,0.0,0.0,0.0,0.0,-45.456,0.0,0.0,0.0,0.0,0.0
332,0.0,-0.0435283203125,0.0,0.0,0.0,0.0,0.0,0.0,0.637,0.0,0.0,0.0,0.0,0.0,0.0,0.3582747450984172,0.0,0.0,0.0,0.0,0.0,0.0,-42.76,0.0,0.0,0.0,0.0,0.0
333,0.0,-0.0368330078125,0.0,0.0,0.0,0.0,0.0,0.0,0.666,0.0,0.0,0.0,0.0,0.0,0.0,0.37714157211152305,0.0,0.0,0.0,0.0,0.0,0.0,-47.832,0.0,0.0,0.0,0.0,0.0
334,0.0,-0.030548828125,0.0,0.0,0.0,0.0,0.0,0.0,0.66,0.0,0.0,0.0,0.0,0.0,0.0,0.39556036819606005,0.0,0.0,0.0,0.0,0.0,0.0,-53.124,0.0,0.0,0.0,0.0,0.0
335,0.0,-0.02406640625,0.0,0.0,0.0,0.0,0.0,0.0,0.64,0.0,0.0,0.0,0.0,0.0,0.0,0.41336167636694426,0.0,0.0,0.0,0.0,0.0,0.0,-53.072,0.0,0.0,0.0,0.0,0.0
336,0.0,-0.0180908203125,0.0,0.0,0.0,0.0,0.0,0.0,0.634,0.0,0.0,0.0,0.0,0.0,0.0,0.4326614826207304,0.0,0.0,0.0,0.0,0.0,0.0,-50.588,0.0,0.0,0.0,0.0,0.0
337,0.0,-0.0128359375,0.0,0.0,0.0,0.0,0.0,0.0,0.57,0.0,0.0,0.0,0.0,0.0,0.0,0.4466625500470167,0.0,0.0,0.0,0.0,0.0,0.0,-54.204,0.0,0.0,0.0,0.0,0.0
338,0.0,-0.007279296875,0.0,0.0,0.0,0.0,0.0,0.0,0.538,0.0,0.0,0.0,0.0,0.0,0.0,0.4624018061496773,0.0,0.0,0.0,0.0,0.0,0.0,-58.252,0.0,0.0,0.0,0.0,0.0
339,0.0,-0.001818359375,0.0,0.0,0.0,0.0,0.0,0.0,0.56,0.0,0.0,0.0,0.0,0.0,0.0,0.4772226506354963,0.0,0.0,0.0,0.0,0.0,0.0,-57.984,0.0,0.0,0.0,0.0,0.0
340,0.0,0.0032236328125,0.0,0.0,0.0,0.0,0.0,0.0,0.53,0.0,0.0,0.0,0.0,0.0,0.0,0.491520532945592,0.0,0.0,0.0,0.0,0.0,0.0,-54.204,0.0,0.0,0.0,0.0,0.0
341,0.0,0.008169921875,0.0,0.0,0.0,0.0,0.0,0.0,0.506,0.0,0.0,0.0,0.0,0.0,0.0,0.504811161874846,0.0,0.0,0.0,0.0,0.0,0.0,-55.824,0.0,0.0,0.0,0.0,0.0
342,0.0,0.0120869140625,0.0,0.0,0.0,0.0,0.0,0.0,0.452,0.0,0.0,0.0,0.0,0.0,0.0,0.5174037058836515,0.0,0.0,0.0,0.0,0.0,0.0,-59.332,0.0,0.0,0.0,0.0,0.0
343,0.0,0.016203125,0.0,0.0,0.0,0.0,0.0,0.0,0.396,0.0,0.0,0.0,0.0,0.0,0.0,0.5291350120004945,0.0,0.0,0.0,0.0,0.0,0.0,-58.144,0.0,0.0,0.0,0.0,0.0
344,0.0,0.0203193359375,0.0,0.0,0.0,0.0,0.0,0.0,0.425,0.0,0.0,0.0,0.0,0.0,0.0,0.5400121114282117,0.0,0.0,0.0,0.0,0.0,0.0,-54.312,0.0,0.0,0.0,0.0,0.0
345,0.0,0.024236328125,0.0,0.0,0.0,0.0,0.0,0.0,0.399,0.0,0.0,0.0,0.0,0.0,0.0,0.5500347462651534,0.0,0.0,0.0,0.0,0.0,0.0,-50.856,0.0,0.0,0.0,0.0,0.0
346,0.0,0.0280439453125,0.0,0.0,0.0,0.0,0.0,0.0,0.392,0.0,0.0,0.0,0.0,0.0,0.0,0.5591537141979139,0.0,0.0,0.0,0.0,0.0,0.0,-52.532,0.0,0.0,0.0,0.0,0.0
347,0.0,0.0311376953125,0.0,0.0,0.0,0.0,0.0,0.0,0.359,0.0,0.0,0.0,0.0,0.0,0.0,0.5674735144419744,0.0,0.0,0.0,0.0,0.0,0.0,-53.772,0.0,0.0,0.0,0.0,0.0
348,0.0,0.0341220703125,0.0,0.0,0.0,0.0,0.0,0.0,0.299,0.0,0.0,0.0,0.0,0.0,0.0,0.574777140291222,0.0,0.0,0.0,0.0,0.0,0.0,-51.344,0.0,0.0,0.0,0.0,0.0
349,0.0,0.0369013671875,0.0,0.0,0.0,0.0,0.0,0.0,0.294,0.0,0.0,0.0,0.0,0.0,0.0,0.5811747292710915,0.0,0.0,0.0,0.0,0.0,0.0,-47.832,0.0,0.0,0.0,0.0,0.0
350,0.0,0.0398916015625,0.0,0.0,0.0,0.0,0.0,0.0,0.286,0.0,0.0,0.0,0.0,0.0,0.0,0.5873543089732748,0.0,0.0,0.0,0.0,0.0,0.0,-45.132,0.0,0.0,0.0,0.0,0.0
351,0.0,0.0431845703125,0.0,0.0,0.0,0.0,0.0,0.0,0.31,0.0,0.0,0.0,0.0,0.0,0.0,0.5912502397327329,0.0,0.0,0.0,0.0,0.0,0.0,-44.808,0.0,0.0,0.0,0.0,0.0
352,0.0,0.0462724609375,0.0,0.0,0.0,0.0,0.0,0.0,0.324,0.0,0.0,0.0,0.0,0.0,0.0,0.5948471017194016,0.0,0.0,0.0,0.0,0.0,0.0,-45.888,0.0,0.0,0.0,0.0,0.0
353,0.0,0.0489541015625,0.0,0.0,0.0,0.0,0.0,0.0,0.292,0.0,0.0,0.0,0.0,0.0,0.0,0.5975363099532606,0.0,0.0,0.0,0.0,0.0,0.0,-45.512,0.0,0.0,0.0,0.0,0.0
354,0.0,0.0516298828125,0.0,0.0,0.0,0.0,0.0,0.0,0.268,0.0,0.0,0.0,0.0,0.0,0.0,0.5992127368370558,0.0,0.0,0.0,0.0,0.0,0.0,-44.108,0.0,0.0,0.0,0.0,0.0
355,0.0,0.054408203125,0.0,0.0,0.0,0.0,0.0,0.0,0.275,0.0,0.0,0.0,0.0,0.0,0.0,0.5999654966224554,0.0,0.0,0.0,0.0,0.0,0.0,-42.544,0.0,0.0,0.0,0.0,0.0
356,0.0,0.0577080078125,0.0,0.0,0.0,0.0,0.0,0.0,0.3,0.0,0.0,0.0,0.0,0.0,0.0,0.5997520958501616,0.0,0.0,0.0,0.0,0.0,0.0,-41.356,0.0,0.0,0.0,0.0,0.0
357,0.0,0.061103515625,0.0,0.0,0.0,0.0,0.0,0.0,0.338,0.0,0.0,0.0,0.0,0.0,0.0,0.5985767633231193,0.0,0.0,0.0,0.0,0.0,0.0,-41.464,0.0,0.0,0.0,0.0,0.0
358,0.0,0.06419140625,0.0,0.0,0.0,0.0,0.0,0.0,0.327,0.0,0.0,0.0,0.0,0.0,0.0,0.5964504923874927,0.0,0.0,0.0,0.0,0.0,0.0,-41.3,0.0,0.0,0.0,0.0,0.0
359,0.0,0.0673876953125,0.0,0.0,0.0,0.0,0.0,0.0,0.312,0.0,0.0,0.0,0.0,0.0,0.0,0.5933516862277954,0.0,0.0,0.0,0.0,0.0,0.0,-40.6,0.0,0.0,0.0,0.0,0.0
360,0.0,0.070578125,0.0,0.0,0.0,0.0,0.0,0.0,0.319,0.0,0.0,0.0,0.0,0.0,0.0,0.5893300906904223,0.0,0.0,0.0,0.0,0.0,0.0,-39.844,0.0,0.0,0.0,0.0,0.0
361,0.0,0.07387109375,0.0,0.0,0.0,0.0,0.0,0.0,0.323,0.0,0.0,0.0,0.0,0.0,0.0,0.5843750460361368,0.0,0.0,0.0,0.0,0.0,0.0,-39.736,0.0,0.0,0.0,0.0,0.0
362,0.0,0.07758203125,0.0,0.0,0.0,0.0,0.0,0.0,0.351,0.0,0.0,0.0,0.0,0.0,0.0,0.5784255224872089,0.0,0.0,0.0,0.0,0.0,0.0,-40.384,0.0,0.0,0.0,0.0,0.0
363,0.0,0.08118359375,0.0,0.0,0.0,0.0,0.0,0.0,0.367,0.0,0.0,0.0,0.0,0.0,0.0,0.5715772032383549,0.0,0.0,0.0,0.0,0.0,0.0,-39.952,0.0,0.0,0.0,0.0,0.0
364,0.0,0.0847919921875,0.0,0.0,0.0,0.0,0.0,0.0,0.357,0.0,0.0,0.0,0.0,0.0,0.0,0.563907185122485,0.0,0.0,0.0,0.0,0.0,0.0,-39.464,0.0,0.0,0.0,0.0,0.0
365,0.0,0.0883935546875,0.0,0.0,0.0,0.0,0.0,0.0,0.365,0.0,0.0,0.0,0.0,0.0,0.0,0.5551707525474538,0.0,0.0,0.0,0.0,0.0,0.0,-39.196,0.0,0.0,0.0,0.0,0.0
366,0.0,0.0920986328125,0.0,0.0,0.0,0.0,0.0,0.0,0.369,0.0,0.0,0.0,0.0,0.0,0.0,0.5455315366045637,0.0,0.0,0.0,0.0,0.0,0.0,-39.412,0.0,0.0,0.0,0.0,0.0
367,0.0,0.0961181640625,0.0,0.0,0.0,0.0,0.0,0.0,0.384,0.0,0.0,0.0,0.0,0.0,0.0,0.5352818557358088,0.0,0.0,0.0,0.0,0.0,0.0,-40.004,0.0,0.0,0.0,0.0,0.0
368,0.0,0.1001318359375,0.0,0.0,0.0,0.0,0.0,0.0,0.402,0.0,0.0,0.0,0.0,0.0,0.0,0.5238563774242238,0.0,0.0,0.0,0.0,0.0,0.0,-41.084,0.0,0.0,0.0,0.0,0.0
369,0.0,0.1042548828125,0.0,0.0,0.0,0.0,0.0,0.0,0.407,0.0,0.0,0.0,0.0,0.0,0.0,0.5118368940189925,0.0,0.0,0.0,0.0,0.0,0.0,-40.868,0.0,0.0,0.0,0.0,0.0
370,0.0,0.1083642578125,0.0,0.0,0.0,0.0,0.0,0.0,0.414,0.0,0.0,0.0,0.0,0.0,0.0,0.4989261346586837,0.0,0.0,0.0,0.0,0.0,0.0,-40.708,0.0,0.0,0.0,0.0,0.0
371,0.0,0.11258984375,0.0,0.0,0.0,0.0,0.0,0.0,0.421,0.0,0.0,0.0,0.0,0.0,0.0,0.48488735913700465,0.0,0.0,0.0,0.0,0.0,0.0,-40.924,0.0,0.0,0.0,0.0,0.0
372,0.0,0.117015625,0.0,0.0,0.0,0.0,0.0,0.0,0.434,0.0,0.0,0.0,0.0,0.0,0.0,0.4706492697788867,0.0,0.0,0.0,0.0,0.0,0.0,-41.788,0.0,0.0,0.0,0.0,0.0
373,0.0,0.1214462890625,0.0,0.0,0.0,0.0,0.0,0.0,0.445,0.0,0.0,0.0,0.0,0.0,0.0,0.45538330233553015,0.0,0.0,0.0,0.0,0.0,0.0,-42.868,0.0,0.0,0.0,0.0,0.0
374,0.0,0.1258720703125,0.0,0.0,0.0,0.0,0.0,0.0,0.442,0.0,0.0,0.0,0.0,0.0,0.0,0.4392360955621861,0.0,0.0,0.0,0.0,0.0,0.0,-43.728,0.0,0.0,0.0,0.0,0.0
375,0.0,0.1303037109375,0.0,0.0,0.0,0.0,0.0,0.0,0.442,0.0,0.0,0.0,0.0,0.0,0.0,0.4224865541530875,0.0,0.0,0.0,0.0,0.0,0.0,-43.728,0.0,0.0,0.0,0.0,0.0
376,0.0,0.134728515625,0.0,0.0,0.0,0.0,0.0,0.0,0.448,0.0,0.0,0.0,0.0,0.0,0.0,0.4054426056402319,0.0,0.0,0.0,0.0,0.0,0.0,-43.944,0.0,0.0,0.0,0.0,0.0
377,0.0,0.13916015625,0.0,0.0,0.0,0.0,0.0,0.0,0.445,0.0,0.0,0.0,0.0,0.0,0.0,0.38725376126250177,0.0,0.0,0.0,0.0,0.0,0.0,-44.432,0.0,0.0,0.0,0.0,0.0
378,0.0,0.1435849609375,0.0,0.0,0.0,0.0,0.0,0.0,0.448,0.0,0.0,0.0,0.0,0.0,0.0,0.36841841108130363,0.0,0.0,0.0,0.0,0.0,0.0,-45.08,0.0,0.0,0.0,0.0,0.0
379,0.0,0.147919921875,0.0,0.0,0.0,0.0,0.0,0.0,0.444,0.0,0.0,0.0,0.0,0.0,0.0,0.3495856061619405,0.0,0.0,0.0,0.0,0.0,0.0,-45.672,0.0,0.0,0.0,0.0,0.0
380,0.0,0.1522421875,0.0,0.0,0.0,0.0,0.0,0.0,0.435,0.0,0.0,0.0,0.0,0.0,0.0,0.3297077149205174,0.0,0.0,0.0,0.0,0.0,0.0,-45.672,0.0,0.0,0.0,0.0,0.0
381,0.0,0.1565703125,0.0,0.0,0.0,0.0,0.0,0.0,0.435,0.0,0.0,0.0,0.0,0.0,0.0,0.30922266320037944,0.0,0.0,0.0,0.0,0.0,0.0,-45.348,0.0,0.0,0.0,0.0,0.0
382,0.0,0.1607900390625,0.0,0.0,0.0,0.0,0.0,0.0,0.43,0.0,0.0,0.0,0.0,0.0,0.0,0.28876277380346843,0.0,0.0,0.0,0.0,0.0,0.0,-44.972,0.0,0.0,0.0,0.0,0.0
383,0.0,0.1650087890625,0.0,0.0,0.0,0.0,0.0,0.0,0.424,0.0,0.0,0.0,0.0,0.0,0.0,0.26723333219093603,0.0,0.0,0.0,0.0,0.0,0.0,-44.972,0.0,0.0,0.0,0.0,0.0
384,0.0,0.1692353515625,0.0,0.0,0.0,0.0,0.0,0.0,0.425,0.0,0.0,0.0,0.0,0.0,0.0,0.24560510211952252,0.0,0.0,0.0,0.0,0.0,0.0,-44.972,0.0,0.0,0.0,0.0,0.0
385,0.0,0.173248046875,0.0,0.0,0.0,0.0,0.0,0.0,0.411,0.0,0.0,0.0,0.0,0.0,0.0,0.22363789375680473,0.0,0.0,0.0,0.0,0.0,0.0,-45.296,0.0,0.0,0.0,0.0,0.0
386,0.0,0.17737109375,0.0,0.0,0.0,0.0,0.0,0.0,0.408,0.0,0.0,0.0,0.0,0.0,0.0,0.20123052697917948,0.0,0.0,0.0,0.0,0.0,0.0,-44.808,0.0,0.0,0.0,0.0,0.0
387,0.0,0.181384765625,0.0,0.0,0.0,0.0,0.0,0.0,0.407,0.0,0.0,0.0,0.0,0.0,0.0,0.1782389291353361,0.0,0.0,0.0,0.0,0.0,0.0,-44.7,0.0,0.0,0.0,0.0,0.0
388,0.0,0.185404296875,0.0,0.0,0.0,0.0,0.0,0.0,0.408,0.0,0.0,0.0,0.0,0.0,0.0,0.15527821923703916,0.0,0.0,0.0,0.0,0.0,0.0,-44.808,0.0,0.0,0.0,0.0,0.0
389,0.0,0.1893154296875,0.0,0.0,0.0,0.0,0.0,0.0,0.399,0.0,0.0,0.0,0.0,0.0,0.0,0.13186342410828117,0.0,0.0,0.0,0.0,0.0,0.0,-44.864,0.0,0.0,0.0,0.0,0.0
390,0.0,0.1925048828125,0.0,0.0,0.0,0.0,0.0,0.0,0.375,0.0,0.0,0.0,0.0,0.0,0.0,0.10843090087342619,0.0,0.0,0.0,0.0,0.0,0.0,-51.344,0.0,0.0,0.0,0.0,0.0
391,0.0,0.194048828125,0.0,0.0,0.0,0.0,0.0,0.0,0.252,0.0,0.0,0.0,0.0,0.0,0.0,0.08475980803935526,0.0,0.0,0.0,0.0,0.0,0.0,-63.22,0.0,0.0,0.0,0.0,0.0
392,0.0,0.194466796875,0.0,0.0,0.0,0.0,0.0,0.0,0.106,0.0,0.0,0.0,0.0,0.0,0.0,0.06102272681611124,0.0,0.0,0.0,0.0,0.0,0.0,-72.4,0.0,0.0,0.0,0.0,0.0
393,0.0,0.1938427734375,0.0,0.0,0.0,0.0,0.0,0.0,0.003,0.0,0.0,0.0,0.0,0.0,0.0,0.03691342918385018,0.0,0.0,0.0,0.0,0.0,0.0,-76.716,0.0,0.0,0.0,0.0,0.0
394,0.0,0.1926083984375,0.0,0.0,0.0,0.0,0.0,0.0,-0.098,0.0,0.0,0.0,0.0,0.0,0.0,0.013113117352882004,0.0,0.0,0.0,0.0,0.0,0.0,-76.34,0.0,0.0,0.0,0.0,0.0
395,0.0,0.1912705078125,0.0,0.0,0.0,0.0,0.0,0.0,-0.122,0.0,0.0,0.0,0.0,0.0,0.0,-0.010870915655443824,0.0,0.0,0.0,0.0,0.0,0.0,-77.528,0.0,0.0,0.0,0.0,0.0
396,0.0,0.1884912109375,0.0,0.0,0.0,0.0,0.0,0.0,-0.193,0.0,0.0,0.0,0.0,0.0,0.0,-0.03504379357357079,0.0,0.0,0.0,0.0,0.0,0.0,-78.012,0.0,0.0,0.0,0.0,0.0
397,0.0,0.1845751953125,0.0,0.0,0.0,0.0,0.0,0.0,-0.332,0.0,0.0,0.0,0.0,0.0,0.0,-0.05875540817154767,0.0,0.0,0.0,0.0,0.0,0.0,-74.288,0.0,0.0,0.0,0.0,0.0
398,0.0,0.17973828125,0.0,0.0,0.0,0.0,0.0,0.0,-0.43,0.0,0.0,0.0,0.0,0.0,0.0,-0.08272495500026439,0.0,0.0,0.0,0.0,0.0,0.0,-68.728,0.0,0.0,0.0,0.0,0.0
399,0.0,0.1744833984375,0.0,0.0,0.0,0.0,0.0,0.0,-0.51,0.0,0.0,0.0,0.0,0.0,0.0,-0.10655047979205866,0.0,0.0,0.0,0.0,0.0,0.0,-62.248,0.0,0.0,0.0,0.0,0.0
400,0.0,0.1698525390625,0.0,0.0,0.0,0.0,0.0,0.0,-0.502,0.0,0.0,0.0,0.0,0.0,0.0,-0.13010092651141292,0.0,0.0,0.0,0.0,0.0,0.0,-58.36,0.0,0.0,0.0,0.0,0.0
401,0.0,0.1651123046875,0.0,0.0,0.0,0.0,0.0,0.0,-0.464,0.0,0.0,0.0,0.0,0.0,0.0,-0.15319941172259346,0.0,0.0,0.0,0.0,0.0,0.0,-55.768,0.0,0.0,0.0,0.0,0.0
402,0.0,0.1598642578125,0.0,0.0,0.0,0.0,0.0,0.0,-0.498,0.0,0.0,0.0,0.0,0.0,0.0,-0.17644468723570197,0.0,0.0,0.0,0.0,0.0,0.0,-53.124,0.0,0.0,0.0,0.0,0.0
403,0.0,0.1544033203125,0.0,0.0,0.0,0.0,0.0,0.0,-0.537,0.0,0.0,0.0,0.0,0.0,0.0,-0.199050512245038,0.0,0.0,0.0,0.0,0.0,0.0,-50.372,0.0,0.0,0.0,0.0,0.0
404,0.0,0.148537109375,0.0,0.0,0.0,0.0,0.0,0.0,-0.569,0.0,0.0,0.0,0.0,0.0,0.0,-0.2214925413853672,0.0,0.0,0.0,0.0,0.0,0.0,-47.4,0.0,0.0,0.0,0.0,0.0
405,0.0,0.1429677734375,0.0,0.0,0.0,0.0,0.0,0.0,-0.58,0.0,0.0,0.0,0.0,0.0,0.0,-0.244232692932676,0.0,0.0,0.0,0.0,0.0,0.0,-44.54,0.0,0.0,0.0,0.0,0.0
406,0.0,0.137712890625,0.0,0.0,0.0,0.0,0.0,0.0,-0.547,0.0,0.0,0.0,0.0,0.0,0.0,-0.2654755253013766,0.0,0.0,0.0,0.0,0.0,0.0,-44.324,0.0,0.0,0.0,0.0,0.0
407,0.0,0.132052734375,0.0,0.0,0.0,0.0,0.0,0.0,-0.543,0.0,0.0,0.0,0.0,0.0,0.0,-0.2867235444553406,0.0,0.0,0.0,0.0,0.0,0.0,-45.296,0.0,0.0,0.0,0.0,0.0
408,0.0,0.126283203125,0.0,0.0,0.0,0.0,0.0,0.0,-0.574,0.0,0.0,0.0,0.0,0.0,0.0,-0.30765732032888526,0.0,0.0,0.0,0.0,0.0,0.0,-46.268,0.0,0.0,0.0,0.0,0.0
409,0.0,0.120109375,0.0,0.0,0.0,0.0,0.0,0.0,-0.594,0.0,0.0,0.0,0.0,0.0,0.0,-0.3280324898734418,0.0,0.0,0.0,0.0,0.0,0.0,-46.752,0.0,0.0,0.0,0.0,0.0
410,0.0,0.1135166015625,0.0,0.0,0.0,0.0,0.0,0.0,-0.644,0.0,0.0,0.0,0.0,0.0,0.0,-0.34771946746075993,0.0,0.0,0.0,0.0,0.0,0.0,-47.132,0.0,0.0,0.0,0.0,0.0
411,0.0,0.1074384765625,0.0,0.0,0.0,0.0,0.0,0.0,-0.643,0.0,0.0,0.0,0.0,0.0,0.0,-0.3671641559875748,0.0,0.0,0.0,0.0,0.0,0.0,-45.944,0.0,0.0,0.0,0.0,0.0
412,0.0,0.1014755859375,0.0,0.0,0.0,0.0,0.0,0.0,-0.604,0.0,0.0,0.0,0.0,0.0,0.0,-0.38590404294007863,0.0,0.0,0.0,0.0,0.0,0.0,-44.432,0.0,0.0,0.0,0.0,0.0
413,0.0,0.094986328125,0.0,0.0,0.0,0.0,0.0,0.0,-0.625,0.0,0.0,0.0,0.0,0.0,0.0,-0.4037972055289167,0.0,0.0,0.0,0.0,0.0,0.0,-44.592,0.0,0.0,0.0,0.0,0.0
414,0.0,0.088599609375,0.0,0.0,0.0,0.0,0.0,0.0,-0.654,0.0,0.0,0.0,0.0,0.0,0.0,-0.421256840171025,0.0,0.0,0.0,0.0,0.0,0.0,-43.244,0.0,0.0,0.0,0.0,0.0
415,0.0,0.082521484375,0.0,0.0,0.0,0.0,0.0,0.0,-0.631,0.0,0.0,0.0,0.0,0.0,0.0,-0.43836101750419715,0.0,0.0,0.0,0.0,0.0,0.0,-37.52,0.0,0.0,0.0,0.0,0.0
416,0.0,0.076552734375,0.0,0.0,0.0,0.0,0.0,0.0,-0.605,0.0,0.0,0.0,0.0,0.0,0.0,-0.454109547364212,0.0,0.0,0.0,0.0,0.0,0.0,-35.792,0.0,0.0,0.0,0.0,0.0
417,0.0,0.0709892578125,0.0,0.0,0.0,0.0,0.0,0.0,-0.588,0.0,0.0,0.0,0.0,0.0,0.0,-0.46931312937843717,0.0,0.0,0.0,0.0,0.0,0.0,-37.36,0.0,0.0,0.0,0.0,0.0
418,0.0,0.06553515625,0.0,0.0,0.0,0.0,0.0,0.0,-0.558,0.0,0.0,0.0,0.0,0.0,0.0,-0.48398178294704075,0.0,0.0,0.0,0.0,0.0,0.0,-37.252,0.0,0.0,0.0,0.0,0.0
419,0.0,0.0603837890625,0.0,0.0,0.0,0.0,0.0,0.0,-0.538,0.0,0.0,0.0,0.0,0.0,0.0,-0.49771849629527454,0.0,0.0,0.0,0.0,0.0,0.0,-33.416,0.0,0.0,0.0,0.0,0.0
420,0.0,0.0554375,0.0,0.0,0.0,0.0,0.0,0.0,-0.507,0.0,0.0,0.0,0.0,0.0,0.0,-0.5107501805926574,0.0,0.0,0.0,0.0,0.0,0.0,-32.5,0.0,0.0,0.0,0.0,0.0
421,0.0,0.0506005859375,0.0,0.0,0.0,0.0,0.0,0.0,-0.488,0.0,0.0,0.0,0.0,0.0,0.0,-0.523171079532304,0.0,0.0,0.0,0.0,0.0,0.0,-36.172,0.0,0.0,0.0,0.0,0.0
422,0.0,0.04606640625,0.0,0.0,0.0,0.0,0.0,0.0,-0.48,0.0,0.0,0.0,0.0,0.0,0.0,-0.5341537263991386,0.0,0.0,0.0,0.0,0.0,0.0,-38.168,0.0,0.0,0.0,0.0,0.0
423,0.0,0.0418466796875,0.0,0.0,0.0,0.0,0.0,0.0,-0.447,0.0,0.0,0.0,0.0,0.0,0.0,-0.5447471952350527,0.0,0.0,0.0,0.0,0.0,0.0,-34.712,0.0,0.0,0.0,0.0,0.0
424,0.0,0.037724609375,0.0,0.0,0.0,0.0,0.0,0.0,-0.417,0.0,0.0,0.0,0.0,0.0,0.0,-0.5543088519534296,0.0,0.0,0.0,0.0,0.0,0.0,-32.876,0.0,0.0,0.0,0.0,0.0
425,0.0,0.0339169921875,0.0,0.0,0.0,0.0,0.0,0.0,-0.4,0.0,0.0,0.0,0.0,0.0,0.0,-0.5630518008819292,0.0,0.0,0.0,0.0,0.0,0.0,-35.144,0.0,0.0,0.0,0.0,0.0
426,0.0,0.0302119140625,0.0,0.0,0.0,0.0,0.0,0.0,-0.383,0.0,0.0,0.0,0.0,0.0,0.0,-0.5708592654682281,0.0,0.0,0.0,0.0,0.0,0.0,-39.304,0.0,0.0,0.0,0.0,0.0
427,0.0,0.026294921875,0.0,0.0,0.0,0.0,0.0,0.0,-0.384,0.0,0.0,0.0,0.0,0.0,0.0,-0.5778469214134009,0.0,0.0,0.0,0.0,0.0,0.0,-40.924,0.0,0.0,0.0,0.0,0.0
428,0.0,0.022693359375,0.0,0.0,0.0,0.0,0.0,0.0,-0.38,0.0,0.0,0.0,0.0,0.0,0.0,-0.5838004839060336,0.0,0.0,0.0,0.0,0.0,0.0,-38.708,0.0,0.0,0.0,0.0,0.0
429,0.0,0.019599609375,0.0,0.0,0.0,0.0,0.0,0.0,-0.34,0.0,0.0,0.0,0.0,0.0,0.0,-0.5889131302449412,0.0,0.0,0.0,0.0,0.0,0.0,-37.576,0.0,0.0,0.0,0.0,0.0
430,0.0,0.016615234375,0.0,0.0,0.0,0.0,0.0,0.0,-0.313,0.0,0.0,0.0,0.0,0.0,0.0,-0.5930525209896589,0.0,0.0,0.0,0.0,0.0,0.0,-39.788,0.0,0.0,0.0,0.0,0.0
431,0.0,0.0137333984375,0.0,0.0,0.0,0.0,0.0,0.0,-0.296,0.0,0.0,0.0,0.0,0.0,0.0,-0.5961830530661678,0.0,0.0,0.0,0.0,0.0,0.0,-43.568,0.0,0.0,0.0,0.0,0.0
432,0.0,0.01043359375,0.0,0.0,0.0,0.0,0.0,0.0,-0.303,0.0,0.0,0.0,0.0,0.0,0.0,-0.5984164612217494,0.0,0.0,0.0,0.0,0.0,0.0,-45.888,0.0,0.0,0.0,0.0,0.0
433,0.0,0.0070380859375,0.0,0.0,0.0,0.0,0.0,0.0,-0.341,0.0,0.0,0.0,0.0,0.0,0.0,-0.5996804647950715,0.0,0.0,0.0,0.0,0.0,0.0,-45.996,0.0,0.0,0.0,0.0,0.0
434,0.0,0.00384765625,0.0,0.0,0.0,0.0,0.0,0.0,-0.334,0.0,0.0,0.0,0.0,0.0,0.0,-0.5999835951432221,0.0,0.0,0.0,0.0,0.0,0.0,-45.296,0.0,0.0,0.0,0.0,0.0
435,0.0,0.0009599609375,0.0,0.0,0.0,0.0,0.0,0.0,-0.308,0.0,0.0,0.0,0.0,0.0,0.0,-0.5993272767862811,0.0,0.0,0.0,0.0,0.0,0.0,-44.756,0.0,0.0,0.0,0.0,0.0
436,0.0,-0.0020244140625,0.0,0.0,0.0,0.0,0.0,0.0,-0.297,0.0,0.0,0.0,0.0,0.0,0.0,-0.5977050594688971,0.0,0.0,0.0,0.0,0.0,0.0,-45.08,0.0,0.0,0.0,0.0,0.0
437,0.0,-0.00521484375,0.0,0.0,0.0,0.0,0.0,0.0,-0.305,0.0,0.0,0.0,0.0,0.0,0.0,-0.5950587823711311,0.0,0.0,0.0,0.0,0.0,0.0,-46.644,0.0,0.0,0.0,0.0,0.0
438,0.0,-0.00892578125,0.0,0.0,0.0,0.0,0.0,0.0,-0.342,0.0,0.0,0.0,0.0,0.0,0.0,-0.5916005403616982,0.0,0.0,0.0,0.0,0.0,0.0,-47.616,0.0,0.0,0.0,0.0,0.0
439,0.0,-0.0126298828125,0.0,0.0,0.0,0.0,0.0,0.0,-0.375,0.0,0.0,0.0,0.0,0.0,0.0,-0.5871235696094931,0.0,0.0,0.0,0.0,0.0,0.0,-47.4,0.0,0.0,0.0,0.0,0.0
440,0.0,-0.016033203125,0.0,0.0,0.0,0.0,0.0,0.0,-0.363,0.0,0.0,0.0,0.0,0.0,0.0,-0.5816987311348389,0.0,0.0,0.0,0.0,0.0,0.0,-47.456,0.0,0.0,0.0,0.0,0.0
441,0.0,-0.0194287109375,0.0,0.0,0.0,0.0,0.0,0.0,-0.348,0.0,0.0,0.0,0.0,0.0,0.0,-0.5753784191262649,0.0,0.0,0.0,0.0,0.0,0.0,-47.292,0.0,0.0,0.0,0.0,0.0
442,0.0,-0.026638671875,0.0,0.0,0.0,0.0,0.0,0.0,-0.355,0.0,0.0,0.0,0.0,0.0,0.0,-0.564647924158609,0.0,0.0,0.0,0.0,0.0,0.0,-46.916,0.0,0.0,0.0,0.0,0.0
443,0.0,-0.026638671875,0.0,0.0,0.0,0.0,0.0,0.0,-0.355,0.0,0.0,0.0,0.0,0.0,0.0,-0.5599838733522128,0.0,0.0,0.0,0.0,0.0,0.0,-46.916,0.0,0.0,0.0,0.0,0.0
444,0.0,-0.030548828125,0.0,0.0,0.0,0.0,0.0,0.0,-0.393,0.0,0.0,0.0,0.0,0.0,0.0,-0.5506490968694371,0.0,0.0,0.0,0.0,0.0,0.0,-46.916,0.0,0.0,0.0,0.0,0.0
445,0.0,-0.0345693359375,0.0,0.0,0.0,0.0,0.0,0.0,-0.398,0.0,0.0,0.0,0.0,0.0,0.0,-0.5395734971828384,0.0,0.0,0.0,0.0,0.0,0.0,-47.076,0.0,0.0,0.0,0.0,0.0
446,0.0,-0.038376953125,0.0,0.0,0.0,0.0,0.0,0.0,-0.397,0.0,0.0,0.0,0.0,0.0,0.0,-0.5301143947886654,0.0,0.0,0.0,0.0,0.0,0.0,-47.132,0.0,0.0,0.0,0.0,0.0
447,0.0,-0.0421904296875,0.0,0.0,0.0,0.0,0.0,0.0,-0.386,0.0,0.0,0.0,0.0,0.0,0.0,-0.5184653552188312,0.0,0.0,0.0,0.0,0.0,0.0,-47.184,0.0,0.0,0.0,0.0,0.0
448,0.0,-0.0461015625,0.0,0.0,0.0,0.0,0.0,0.0,-0.381,0.0,0.0,0.0,0.0,0.0,0.0,-0.5059474902827442,0.0,0.0,0.0,0.0,0.0,0.0,-46.536,0.0,0.0,0.0,0.0,0.0
449,0.0,-0.0502236328125,0.0,0.0,0.0,0.0,0.0,0.0,-0.403,0.0,0.0,0.0,0.0,0.0,0.0,-0.4926468705727072,0.0,0.0,0.0,0.0,0.0,0.0,-45.62,0.0,0.0,0.0,0.0,0.0
450,0.0,-0.0545458984375,0.0,0.0,0.0,0.0,0.0,0.0,-0.422,0.0,0.0,0.0,0.0,0.0,0.0,-0.47856552078206355,0.0,0.0,0.0,0.0,0.0,0.0,-45.672,0.0,0.0,0.0,0.0,0.0
451,0.0,-0.058771484375,0.0,0.0,0.0,0.0,0.0,0.0,-0.435,0.0,0.0,0.0,0.0,0.0,0.0,-0.4636192493313396,0.0,0.0,0.0,0.0,0.0,0.0,-45.672,0.0,0.0,0.0,0.0,0.0
452,0.0,-0.0629912109375,0.0,0.0,0.0,0.0,0.0,0.0,-0.43,0.0,0.0,0.0,0.0,0.0,0.0,-0.44809594762368793,0.0,0.0,0.0,0.0,0.0,0.0,-45.672,0.0,0.0,0.0,0.0,0.0
453,0.0,-0.0671142578125,0.0,0.0,0.0,0.0,0.0,0.0,-0.417,0.0,0.0,0.0,0.0,0.0,0.0,-0.4319013082502304,0.0,0.0,0.0,0.0,0.0,0.0,-45.348,0.0,0.0,0.0,0.0,0.0
454,0.0,-0.07123046875,0.0,0.0,0.0,0.0,0.0,0.0,-0.415,0.0,0.0,0.0,0.0,0.0,0.0,-0.41488345883709604,0.0,0.0,0.0,0.0,0.0,0.0,-44.432,0.0,0.0,0.0,0.0,0.0
455,0.0,-0.0754560546875,0.0,0.0,0.0,0.0,0.0,0.0,-0.416,0.0,0.0,0.0,0.0,0.0,0.0,-0.39708174533065255,0.0,0.0,0.0,0.0,0.0,0.0,-43.944,0.0,0.0,0.0,0.0,0.0
456,0.0,-0.079880859375,0.0,0.0,0.0,0.0,0.0,0.0,-0.435,0.0,0.0,0.0,0.0,0.0,0.0,-0.3790166975190151,0.0,0.0,0.0,0.0,0.0,0.0,-44.108,0.0,0.0,0.0,0.0,0.0
457,0.0,-0.0843125,0.0,0.0,0.0,0.0,0.0,0.0,-0.45,0.0,0.0,0.0,0.0,0.0,0.0,-0.36011923541385976,0.0,0.0,0.0,0.0,0.0,0.0,-43.892,0.0,0.0,0.0,0.0,0.0
458,0.0,-0.0885322265625,0.0,0.0,0.0,0.0,0.0,0.0,-0.437,0.0,0.0,0.0,0.0,0.0,0.0,-0.3404717107215843,0.0,0.0,0.0,0.0,0.0,0.0,-43.568,0.0,0.0,0.0,0.0,0.0
459,0.0,-0.092654296875,0.0,0.0,0.0,0.0,0.0,0.0,-0.419,0.0,0.0,0.0,0.0,0.0,0.0,-0.3205812616590807,0.0,0.0,0.0,0.0,0.0,0.0,-43.244,0.0,0.0,0.0,0.0,0.0
460,0.0,-0.0965654296875,0.0,0.0,0.0,0.0,0.0,0.0,-0.407,0.0,0.0,0.0,0.0,0.0,0.0,-0.2999951470973152,0.0,0.0,0.0,0.0,0.0,0.0,-42.76,0.0,0.0,0.0,0.0,0.0
461,0.0,-0.1007841796875,0.0,0.0,0.0,0.0,0.0,0.0,-0.408,0.0,0.0,0.0,0.0,0.0,0.0,-0.27892080371838324,0.0,0.0,0.0,0.0,0.0,0.0,-42.92,0.0,0.0,0.0,0.0,0.0
462,0.0,-0.105208984375,0.0,0.0,0.0,0.0,0.0,0.0,-0.433,0.0,0.0,0.0,0.0,0.0,0.0,-0.2575410911423881,0.0,0.0,0.0,0.0,0.0,0.0,-43.512,0.0,0.0,0.0,0.0,0.0
463,0.0,-0.109435546875,0.0,0.0,0.0,0.0,0.0,0.0,-0.434,0.0,0.0,0.0,0.0,0.0,0.0,-0.23559321864071428,0.0,0.0,0.0,0.0,0.0,0.0,-43.352,0.0,0.0,0.0,0.0,0.0
464,0.0,-0.1134482421875,0.0,0.0,0.0,0.0,0.0,0.0,-0.417,0.0,0.0,0.0,0.0,0.0,0.0,-0.21313230252136647,0.0,0.0,0.0,0.0,0.0,0.0,-43.192,0.0,0.0,0.0,0.0,0.0
465,0.0,-0.117365234375,0.0,0.0,0.0,0.0,0.0,0.0,-0.405,0.0,0.0,0.0,0.0,0.0,0.0,-0.1907988892397823,0.0,0.0,0.0,0.0,0.0,0.0,-42.976,0.0,0.0,0.0,0.0,0.0
466,0.0,-0.1210703125,0.0,0.0,0.0,0.0,0.0,0.0,-0.385,0.0,0.0,0.0,0.0,0.0,0.0,-0.167865756134319,0.0,0.0,0.0,0.0,0.0,0.0,-43.192,0.0,0.0,0.0,0.0,0.0
467,0.0,-0.1251865234375,0.0,0.0,0.0,0.0,0.0,0.0,-0.393,0.0,0.0,0.0,0.0,0.0,0.0,-0.1445261491681945,0.0,0.0,0.0,0.0,0.0,0.0,-43.62,0.0,0.0,0.0,0.0,0.0
468,0.0,-0.1293095703125,0.0,0.0,0.0,0.0,0.0,0.0,-0.414,0.0,0.0,0.0,0.0,0.0,0.0,-0.1213324714856371,0.0,0.0,0.0,0.0,0.0,0.0,-43.784,0.0,0.0,0.0,0.0,0.0
469,0.0,-0.13342578125,0.0,0.0,0.0,0.0,0.0,0.0,-0.415,0.0,0.0,0.0,0.0,0.0,0.0,-0.09770932110798848,0.0,0.0,0.0,0.0,0.0,0.0,-43.568,0.0,0.0,0.0,0.0,0.0
470,0.0,-0.1373427734375,0.0,0.0,0.0,0.0,0.0,0.0,-0.407,0.0,0.0,0.0,0.0,0.0,0.0,-0.07381761746674687,0.0,0.0,0.0,0.0,0.0,0.0,-43.244,0.0,0.0,0.0,0.0,0.0
471,0.0,-0.1402236328125,0.0,0.0,0.0,0.0,0.0,0.0,-0.36,0.0,0.0,0.0,0.0,0.0,0.0,-0.049973502185196236,0.0,0.0,0.0,0.0,0.0,0.0,-36.656,0.0,0.0,0.0,0.0,0.0
472,0.0,-0.1413564453125,0.0,0.0,0.0,0.0,0.0,0.0,-0.219,0.0,0.0,0.0,0.0,0.0,0.0,-0.02586267961922818,0.0,0.0,0.0,0.0,0.0,0.0,-24.24,0.0,0.0,0.0,0.0,0.0
473,0.0,-0.1416650390625,0.0,0.0,0.0,0.0,0.0,0.0,-0.077,0.0,0.0,0.0,0.0,0.0,0.0,-0.0017122150038430593,0.0,0.0,0.0,0.0,0.0,0.0,-15.224,0.0,0.0,0.0,0.0,0.0
474,0.0,-0.141150390625,0.0,0.0,0.0,0.0,0.0,0.0,-0.003,0.0,0.0,0.0,0.0,0.0,0.0,0.02184405044491796,0.0,0.0,0.0,0.0,0.0,0.0,-11.712,0.0,0.0,0.0,0.0,0.0
475,0.0,-0.14012109375,0.0,0.0,0.0,0.0,0.0,0.0,0.08,0.0,0.0,0.0,0.0,0.0,0.0,2.3460388177615803e-05,0.0,0.0,0.0,0.0,0.0,0.0,-11.172,0.0,0.0,0.0,0.0,0.0
476,0.0,-0.138783203125,0.0,0.0,0.0,0.0,0.0,0.0,0.111,0.0,0.0,0.0,0.0,0.0,0.0,0.024156524616953317,0.0,0.0,0.0,0.0,0.0,0.0,-9.176,0.0,0.0,0.0,0.0,0.0
477,0.0,-0.13590234375,0.0,0.0,0.0,0.0,0.0,0.0,0.196,0.0,0.0,0.0,0.0,0.0,0.0,0.04807311135867595,0.0,0.0,0.0,0.0,0.0,0.0,-9.34,0.0,0.0,0.0,0.0,0.0
478,0.0,-0.1318818359375,0.0,0.0,0.0,0.0,0.0,0.0,0.335,0.0,0.0,0.0,0.0,0.0,0.0,0.07203687683759928,0.0,0.0,0.0,0.0,0.0,0.0,-11.712,0.0,0.0,0.0,0.0,0.0
479,0.0,-0.12683984375,0.0,0.0,0.0,0.0,0.0,0.0,0.44,0.0,0.0,0.0,0.0,0.0,0.0,0.09567613188924047,0.0,0.0,0.0,0.0,0.0,0.0,-14.52,0.0,0.0,0.0,0.0,0.0
480,0.0,-0.1210703125,0.0,0.0,0.0,0.0,0.0,0.0,0.547,0.0,0.0,0.0,0.0,0.0,0.0,0.11916391256674436,0.0,0.0,0.0,0.0,0.0,0.0,-18.948,0.0,0.0,0.0,0.0,0.0
481,0.0,-0.1155068359375,0.0,0.0,0.0,0.0,0.0,0.0,0.569,0.0,0.0,0.0,0.0,0.0,0.0,0.14276594713795446,0.0,0.0,0.0,0.0,0.0,0.0,-21.272,0.0,0.0,0.0,0.0,0.0
482,0.0,-0.109640625,0.0,0.0,0.0,0.0,0.0,0.0,0.571,0.0,0.0,0.0,0.0,0.0,0.0,0.1661799984802176,0.0,0.0,0.0,0.0,0.0,0.0,-26.56,0.0,0.0,0.0,0.0,0.0
483,0.0,-0.103974609375,0.0,0.0,0.0,0.0,0.0,0.0,0.578,0.0,0.0,0.0,0.0,0.0,0.0,0.18877615368766093,0.0,0.0,0.0,0.0,0.0,0.0,-32.232,0.0,0.0,0.0,0.0,0.0
484,0.0,-0.097697265625,0.0,0.0,0.0,0.0,0.0,0.0,0.588,0.0,0.0,0.0,0.0,0.0,0.0,0.21143610573682034,0.0,0.0,0.0,0.0,0.0,0.0,-34.712,0.0,0.0,0.0,0.0,0.0
485,0.0,-0.09058984375,0.0,0.0,0.0,0.0,0.0,0.0,0.671,0.0,0.0,0.0,0.0,0.0,0.0,0.2338673881721529,0.0,0.0,0.0,0.0,0.0,0.0,-36.548,0.0,0.0,0.0,0.0,0.0
486,0.0,-0.083591796875,0.0,0.0,0.0,0.0,0.0,0.0,0.712,0.0,0.0,0.0,0.0,0.0,0.0,0.2557285867283142,0.0,0.0,0.0,0.0,0.0,0.0,-36.604,0.0,0.0,0.0,0.0,0.0
487,0.0,-0.0767939453125,0.0,0.0,0.0,0.0,0.0,0.0,0.701,0.0,0.0,0.0,0.0,0.0,0.0,0.2771225823602519,0.0,0.0,0.0,0.0,0.0,0.0,-42.272,0.0,0.0,0.0,0.0,0.0
488,0.0,-0.070509765625,0.0,0.0,0.0,0.0,0.0,0.0,0.669,0.0,0.0,0.0,0.0,0.0,0.0,0.2982966427025447,0.0,0.0,0.0,0.0,0.0,0.0,-45.888,0.0,0.0,0.0,0.0,0.0
489,0.0,-0.0639169921875,0.0,0.0,0.0,0.0,0.0,0.0,0.632,0.0,0.0,0.0,0.0,0.0,0.0,0.318790951126011,0.0,0.0,0.0,0.0,0.0,0.0,-44.376,0.0,0.0,0.0,0.0,0.0
490,0.0,-0.0573310546875,0.0,0.0,0.0,0.0,0.0,0.0,0.669,0.0,0.0,0.0,0.0,0.0,0.0,0.3387913400475875,0.0,0.0,0.0,0.0,0.0,0.0,-44.376,0.0,0.0,0.0,0.0,0.0
491,0.0,-0.0509443359375,0.0,0.0,0.0,0.0,0.0,0.0,0.656,0.0,0.0,0.0,0.0,0.0,0.0,0.35861522822208525,0.0,0.0,0.0,0.0,0.0,0.0,-49.4,0.0,0.0,0.0,0.0,0.0
492,0.0,-0.044455078125,0.0,0.0,0.0,0.0,0.0,0.0,0.641,0.0,0.0,0.0,0.0,0.0,0.0,0.3780980464369964,0.0,0.0,0.0,0.0,0.0,0.0,-52.908,0.0,0.0,0.0,0.0,0.0
493,0.0,-0.0381708984375,0.0,0.0,0.0,0.0,0.0,0.0,0.654,0.0,0.0,0.0,0.0,0.0,0.0,0.39557843819369676,0.0,0.0,0.0,0.0,0.0,0.0,-52.64,0.0,0.0,0.0,0.0,0.0
494,0.0,-0.0326142578125,0.0,0.0,0.0,0.0,0.0,0.0,0.598,0.0,0.0,0.0,0.0,0.0,0.0,0.41339444016782395,0.0,0.0,0.0,0.0,0.0,0.0,-52.8,0.0,0.0,0.0,0.0,0.0
495,0.0,-0.026947265625,0.0,0.0,0.0,0.0,0.0,0.0,0.56,0.0,0.0,0.0,0.0,0.0,0.0,0.43073771438979797,0.0,0.0,0.0,0.0,0.0,0.0,-56.524,0.0,0.0,0.0,0.0,0.0
496,0.0,-0.02158984375,0.0,0.0,0.0,0.0,0.0,0.0,0.56,0.0,0.0,0.0,0.0,0.0,0.0,0.4468225960398859,0.0,0.0,0.0,0.0,0.0,0.0,-57.604,0.0,0.0,0.0,0.0,0.0
497,0.0,-0.0161357421875,0.0,0.0,0.0,0.0,0.0,0.0,0.54,0.0,0.0,0.0,0.0,0.0,0.0,0.46250425021060065,0.0,0.0,0.0,0.0,0.0,0.0,-55.068,0.0,0.0,0.0,0.0,0.0
498,0.0,-0.0109833984375,0.0,0.0,0.0,0.0,0.0,0.0,0.542,0.0,0.0,0.0,0.0,0.0,0.0,0.4774829947247701,0.0,0.0,0.0,0.0,0.0,0.0,-55.228,0.0,0.0,0.0,0.0,0.0
499,0.0,-0.0067646484375,0.0,0.0,0.0,0.0,0.0,0.0,0.483,0.0,0.0,0.0,0.0,0.0,0.0,0.4915727052356446,0.0,0.0,0.0,0.0,0.0,0.0,-58.632,0.0,0.0,0.0,0.0,0.0
500,0.0,-0.0026416015625,0.0,0.0,0.0,0.0,0.0,0.0,0.414,0.0,0.0,0.0,0.0,0.0,0.0,0.5049292693319607,0.0,0.0,0.0,0.0,0.0,0.0,-59.064,0.0,0.0,0.0,0.0,0.0
501,0.0,0.001474609375,0.0,0.0,0.0,0.0,0.0,0.0,0.414,0.0,0.0,0.0,0.0,0.0,0.0,0.5175360608970969,0.0,0.0,0.0,0.0,0.0,0.0,-55.876,0.0,0.0,0.0,0.0,0.0
502,0.0,0.0053916015625,0.0,0.0,0.0,0.0,0.0,0.0,0.402,0.0,0.0,0.0,0.0,0.0,0.0,0.5291938097789002,0.0,0.0,0.0,0.0,0.0,0.0,-51.884,0.0,0.0,0.0,0.0,0.0
503,0.0,0.0095078125,0.0,0.0,0.0,0.0,0.0,0.0,0.411,0.0,0.0,0.0,0.0,0.0,0.0,0.5401188072219965,0.0,0.0,0.0,0.0,0.0,0.0,-52.64,0.0,0.0,0.0,0.0,0.0
504,0.0,0.01291015625,0.0,0.0,0.0,0.0,0.0,0.0,0.385,0.0,0.0,0.0,0.0,0.0,0.0,0.5501556093928562,0.0,0.0,0.0,0.0,0.0,0.0,-54.636,0.0,0.0,0.0,0.0,0.0
505,0.0,0.0157919921875,0.0,0.0,0.0,0.0,0.0,0.0,0.317,0.0,0.0,0.0,0.0,0.0,0.0,0.5592120054845431,0.0,0.0,0.0,0.0,0.0,0.0,-53.612,0.0,0.0,0.0,0.0,0.0
506,0.0,0.0185703125,0.0,0.0,0.0,0.0,0.0,0.0,0.29,0.0,0.0,0.0,0.0,0.0,0.0,0.5674632923912495,0.0,0.0,0.0,0.0,0.0,0.0,-50.264,0.0,0.0,0.0,0.0,0.0
507,0.0,0.021251953125,0.0,0.0,0.0,0.0,0.0,0.0,0.27,0.0,0.0,0.0,0.0,0.0,0.0,0.5748652203865696,0.0,0.0,0.0,0.0,0.0,0.0,-45.888,0.0,0.0,0.0,0.0,0.0
508,0.0,0.0246484375,0.0,0.0,0.0,0.0,0.0,0.0,0.302,0.0,0.0,0.0,0.0,0.0,0.0,0.5812189307778394,0.0,0.0,0.0,0.0,0.0,0.0,-44.324,0.0,0.0,0.0,0.0,0.0
509,0.0,0.02794140625,0.0,0.0,0.0,0.0,0.0,0.0,0.339,0.0,0.0,0.0,0.0,0.0,0.0,0.5867337997905799,0.0,0.0,0.0,0.0,0.0,0.0,-45.24,0.0,0.0,0.0,0.0,0.0
510,0.0,0.0308291015625,0.0,0.0,0.0,0.0,0.0,0.0,0.31,0.0,0.0,0.0,0.0,0.0,0.0,0.5912934164686682,0.0,0.0,0.0,0.0,0.0,0.0,-45.888,0.0,0.0,0.0,0.0,0.0
511,0.0,0.03340234375,0.0,0.0,0.0,0.0,0.0,0.0,0.274,0.0,0.0,0.0,0.0,0.0,0.0,0.5948743790266041,0.0,0.0,0.0,0.0,0.0,0.0,-45.024,0.0,0.0,0.0,0.0,0.0
512,0.0,0.0358720703125,0.0,0.0,0.0,0.0,0.0,0.0,0.252,0.0,0.0,0.0,0.0,0.0,0.0,0.5975263022543117,0.0,0.0,0.0,0.0,0.0,0.0,-42.92,0.0,0.0,0.0,0.0,0.0
513,0.0,0.0388623046875,0.0,0.0,0.0,0.0,0.0,0.0,0.27,0.0,0.0,0.0,0.0,0.0,0.0,0.5992323920288694,0.0,0.0,0.0,0.0,0.0,0.0,-41.464,0.0,0.0,0.0,0.0,0.0
514,0.0,0.0422587890625,0.0,0.0,0.0,0.0,0.0,0.0,0.326,0.0,0.0,0.0,0.0,0.0,0.0,0.5999662108491083,0.0,0.0,0.0,0.0,0.0,0.0,-41.464,0.0,0.0,0.0,0.0,0.0
515,0.0,0.0455517578125,0.0,0.0,0.0,0.0,0.0,0.0,0.334,0.0,0.0,0.0,0.0,0.0,0.0,0.5997442386763953,0.0,0.0,0.0,0.0,0.0,0.0,-41.3,0.0,0.0,0.0,0.0,0.0
516,0.0,0.048748046875,0.0,0.0,0.0,0.0,0.0,0.0,0.327,0.0,0.0,0.0,0.0,0.0,0.0,0.5985410132618814,0.0,0.0,0.0,0.0,0.0,0.0,-41.032,0.0,0.0,0.0,0.0,0.0
517,0.0,0.051732421875,0.0,0.0,0.0,0.0,0.0,0.0,0.315,0.0,0.0,0.0,0.0,0.0,0.0,0.596424092610739,0.0,0.0,0.0,0.0,0.0,0.0,-40.544,0.0,0.0,0.0,0.0,0.0
518,0.0,0.0549228515625,0.0,0.0,0.0,0.0,0.0,0.0,0.305,0.0,0.0,0.0,0.0,0.0,0.0,0.5933274548613672,0.0,0.0,0.0,0.0,0.0,0.0,-39.572,0.0,0.0,0.0,0.0,0.0
519,0.0,0.05853125,0.0,0.0,0.0,0.0,0.0,0.0,0.342,0.0,0.0,0.0,0.0,0.0,0.0,0.5892455918219426,0.0,0.0,0.0,0.0,0.0,0.0,-40.112,0.0,0.0,0.0,0.0,0.0
520,0.0,0.0620302734375,0.0,0.0,0.0,0.0,0.0,0.0,0.355,0.0,0.0,0.0,0.0,0.0,0.0,0.5842883951829223,0.0,0.0,0.0,0.0,0.0,0.0,-40.06,0.0,0.0,0.0,0.0,0.0
521,0.0,0.0657412109375,0.0,0.0,0.0,0.0,0.0,0.0,0.36,0.0,0.0,0.0,0.0,0.0,0.0,0.5783745521281007,0.0,0.0,0.0,0.0,0.0,0.0,-39.68,0.0,0.0,0.0,0.0,0.0
522,0.0,0.0694453125,0.0,0.0,0.0,0.0,0.0,0.0,0.379,0.0,0.0,0.0,0.0,0.0,0.0,0.5714039626910116,0.0,0.0,0.0,0.0,0.0,0.0,-39.248,0.0,0.0,0.0,0.0,0.0
523,0.0,0.073150390625,0.0,0.0,0.0,0.0,0.0,0.0,0.366,0.0,0.0,0.0,0.0,0.0,0.0,0.5637363485111331,0.0,0.0,0.0,0.0,0.0,0.0,-39.032,0.0,0.0,0.0,0.0,0.0
524,0.0,0.0770673828125,0.0,0.0,0.0,0.0,0.0,0.0,0.377,0.0,0.0,0.0,0.0,0.0,0.0,0.555098673393721,0.0,0.0,0.0,0.0,0.0,0.0,-39.788,0.0,0.0,0.0,0.0,0.0
525,0.0,0.0809775390625,0.0,0.0,0.0,0.0,0.0,0.0,0.396,0.0,0.0,0.0,0.0,0.0,0.0,0.5455586903324828,0.0,0.0,0.0,0.0,0.0,0.0,-40.22,0.0,0.0,0.0,0.0,0.0
526,0.0,0.084998046875,0.0,0.0,0.0,0.0,0.0,0.0,0.395,0.0,0.0,0.0,0.0,0.0,0.0,0.5351377942584331,0.0,0.0,0.0,0.0,0.0,0.0,-40.76,0.0,0.0,0.0,0.0,0.0
527,0.0,0.0891142578125,0.0,0.0,0.0,0.0,0.0,0.0,0.41,0.0,0.0,0.0,0.0,0.0,0.0,0.5238812047110037,0.0,0.0,0.0,0.0,0.0,0.0,-40.868,0.0,0.0,0.0,0.0,0.0
528,0.0,0.09333984375,0.0,0.0,0.0,0.0,0.0,0.0,0.417,0.0,0.0,0.0,0.0,0.0,0.0,0.5117266854578959,0.0,0.0,0.0,0.0,0.0,0.0,-40.924,0.0,0.0,0.0,0.0,0.0
529,0.0,0.0977646484375,0.0,0.0,0.0,0.0,0.0,0.0,0.434,0.0,0.0,0.0,0.0,0.0,0.0,0.4987941934376788,0.0,0.0,0.0,0.0,0.0,0.0,-41.68,0.0,0.0,0.0,0.0,0.0
530,0.0,0.1021962890625,0.0,0.0,0.0,0.0,0.0,0.0,0.446,0.0,0.0,0.0,0.0,0.0,0.0,0.485092184946414,0.0,0.0,0.0,0.0,0.0,0.0,-43.084,0.0,0.0,0.0,0.0,0.0
531,0.0,0.10651171875,0.0,0.0,0.0,0.0,0.0,0.0,0.44,0.0,0.0,0.0,0.0,0.0,0.0,0.4705197021288212,0.0,0.0,0.0,0.0,0.0,0.0,-43.676,0.0,0.0,0.0,0.0,0.0
532,0.0,0.1108408203125,0.0,0.0,0.0,0.0,0.0,0.0,0.436,0.0,0.0,0.0,0.0,0.0,0.0,0.4552692748112524,0.0,0.0,0.0,0.0,0.0,0.0,-43.892,0.0,0.0,0.0,0.0,0.0
533,0.0,0.115265625,0.0,0.0,0.0,0.0,0.0,0.0,0.44,0.0,0.0,0.0,0.0,0.0,0.0,0.43932924841899734,0.0,0.0,0.0,0.0,0.0,0.0,-43.568,0.0,0.0,0.0,0.0,0.0
534,0.0,0.1197998046875,0.0,0.0,0.0,0.0,0.0,0.0,0.451,0.0,0.0,0.0,0.0,0.0,0.0,0.42261776831016207,0.0,0.0,0.0,0.0,0.0,0.0,-43.784,0.0,0.0,0.0,0.0,0.0
535,0.0,0.124328125,0.0,0.0,0.0,0.0,0.0,0.0,0.456,0.0,0.0,0.0,0.0,0.0,0.0,0.405145147746455,0.0,0.0,0.0,0.0,0.0,0.0,-44.7,0.0,0.0,0.0,0.0,0.0
536,0.0,0.1286572265625,0.0,0.0,0.0,0.0,0.0,0.0,0.445,0.0,0.0,0.0,0.0,0.0,0.0,0.38725550951727206,0.0,0.0,0.0,0.0,0.0,0.0,-45.404,0.0,0.0,0.0,0.0,0.0
537,0.0,0.132978515625,0.0,0.0,0.0,0.0,0.0,0.0,0.438,0.0,0.0,0.0,0.0,0.0,0.0,0.3685999396122492,0.0,0.0,0.0,0.0,0.0,0.0,-45.404,0.0,0.0,0.0,0.0,0.0
538,0.0,0.1371982421875,0.0,0.0,0.0,0.0,0.0,0.0,0.425,0.0,0.0,0.0,0.0,0.0,0.0,0.34886160849105347,0.0,0.0,0.0,0.0,0.0,0.0,-45.132,0.0,0.0,0.0,0.0,0.0
539,0.0,0.1415263671875,0.0,0.0,0.0,0.0,0.0,0.0,0.426,0.0,0.0,0.0,0.0,0.0,0.0,0.3296594284726007,0.0,0.0,0.0,0.0,0.0,0.0,-44.972,0.0,0.0,0.0,0.0,0.0
540,0.0,0.1457529296875,0.0,0.0,0.0,0.0,0.0,0.0,0.434,0.0,0.0,0.0,0.0,0.0,0.0,0.3092025581829967,0.0,0.0,0.0,0.0,0.0,0.0,-45.24,0.0,0.0,0.0,0.0,0.0
541,0.0,0.149978515625,0.0,0.0,0.0,0.0,0.0,0.0,0.429,0.0,0.0,0.0,0.0,0.0,0.0,0.28850643298777623,0.0,0.0,0.0,0.0,0.0,0.0,-45.944,0.0,0.0,0.0,0.0,0.0
542,0.0,0.1540947265625,0.0,0.0,0.0,0.0,0.0,0.0,0.418,0.0,0.0,0.0,0.0,0.0,0.0,0.2672487015635825,0.0,0.0,0.0,0.0,0.0,0.0,-45.672,0.0,0.0,0.0,0.0,0.0
543,0.0,0.1581142578125,0.0,0.0,0.0,0.0,0.0,0.0,0.407,0.0,0.0,0.0,0.0,0.0,0.0,0.24550225026163786,0.0,0.0,0.0,0.0,0.0,0.0,-45.132,0.0,0.0,0.0,0.0,0.0
544,0.0,0.1621279296875,0.0,0.0,0.0,0.0,0.0,0.0,0.404,0.0,0.0,0.0,0.0,0.0,0.0,0.22333733133596623,0.0,0.0,0.0,0.0,0.0,0.0,-44.54,0.0,0.0,0.0,0.0,0.0
545,0.0,0.1662509765625,0.0,0.0,0.0,0.0,0.0,0.0,0.41,0.0,0.0,0.0,0.0,0.0,0.0,0.20083911880700547,0.0,0.0,0.0,0.0,0.0,0.0,-44.592,0.0,0.0,0.0,0.0,0.0
546,0.0,0.17427734375,0.0,0.0,0.0,0.0,0.0,0.0,0.402,0.0,0.0,0.0,0.0,0.0,0.0,0.1643398212016675,0.0,0.0,0.0,0.0,0.0,0.0,-45.132,0.0,0.0,0.0,0.0,0.0
547,0.0,0.17427734375,0.0,0.0,0.0,0.0,0.0,0.0,0.402,0.0,0.0,0.0,0.0,0.0,0.0,0.15259702835184055,0.0,0.0,0.0,0.0,0.0,0.0,-45.132,0.0,0.0,0.0,0.0,0.0
548,0.0,0.178091796875,0.0,0.0,0.0,0.0,0.0,0.0,0.392,0.0,0.0,0.0,0.0,0.0,0.0,0.13172498313560213,0.0,0.0,0.0,0.0,0.0,0.0,-44.592,0.0,0.0,0.0,0.0,0.0
549,0.0,0.1818994140625,0.0,0.0,0.0,0.0,0.0,0.0,0.383,0.0,0.0,0.0,0.0,0.0,0.0,0.10807013660668403,0.0,0.0,0.0,0.0,0.0,0.0,-44.108,0.0,0.0,0.0,0.0,0.0
550,0.0,0.185712890625,0.0,0.0,0.0,0.0,0.0,0.0,0.386,0.0,0.0,0.0,0.0,0.0,0.0,0.07864268972924059,0.0,0.0,0.0,0.0,0.0,0.0,-45.188,0.0,0.0,0.0,0.0,0.0
551,0.0,0.1881826171875,0.0,0.0,0.0,0.0,0.0,0.0,0.334,0.0,0.0,0.0,0.0,0.0,0.0,0.060614569288663205,0.0,0.0,0.0,0.0,0.0,0.0,-55.876,0.0,0.0,0.0,0.0,0.0
552,0.0,0.189109375,0.0,0.0,0.0,0.0,0.0,0.0,0.182,0.0,0.0,0.0,0.0,0.0,0.0,0.03677464587227836,0.0,0.0,0.0,0.0,0.0,0.0,-67.376,0.0,0.0,0.0,0.0,0.0
553,0.0,0.1892119140625,0.0,0.0,0.0,0.0,0.0,0.0,0.06,0.0,0.0,0.0,0.0,0.0,0.0,0.012832230578354078,0.0,0.0,0.0,0.0,0.0,0.0,-74.668,0.0,0.0,0.0,0.0,0.0
554,0.0,0.188080078125,0.0,0.0,0.0,0.0,0.0,0.0,-0.04,0.0,0.0,0.0,0.0,0.0,0.0,-0.01489486729203566,0.0,0.0,0.0,0.0,0.0,0.0,-76.124,0.0,0.0,0.0,0.0,0.0
555,0.0,0.1869482421875,0.0,0.0,0.0,0.0,0.0,0.0,-0.118,0.0,0.0,0.0,0.0,0.0,0.0,-0.035750377783390866,0.0,0.0,0.0,0.0,0.0,0.0,-76.284,0.0,0.0,0.0,0.0,0.0
556,0.0,0.181693359375,0.0,0.0,0.0,0.0,0.0,0.0,-0.254,0.0,0.0,0.0,0.0,0.0,0.0,-0.09051651438665508,0.0,0.0,0.0,0.0,0.0,0.0,-76.448,0.0,0.0,0.0,0.0,0.0
557,0.0,0.17737109375,0.0,0.0,0.0,0.0,0.0,0.0,-0.38,0.0,0.0,0.0,0.0,0.0,0.0,-0.1108531461706573,0.0,0.0,0.0,0.0,0.0,0.0,-72.292,0.0,0.0,0.0,0.0,0.0
558,0.0,0.172322265625,0.0,0.0,0.0,0.0,0.0,0.0,-0.465,0.0,0.0,0.0,0.0,0.0,0.0,-0.1241973886684183,0.0,0.0,0.0,0.0,0.0,0.0,-66.188,0.0,0.0,0.0,0.0,0.0
559,0.0,0.172322265625,0.0,0.0,0.0,0.0,0.0,0.0,-0.465,0.0,0.0,0.0,0.0,0.0,0.0,-0.13535753182262297,0.0,0.0,0.0,0.0,0.0,0.0,-66.188,0.0,0.0,0.0,0.0,0.0
560,0.0,0.1624365234375,0.0,0.0,0.0,0.0,0.0,0.0,-0.498,0.0,0.0,0.0,0.0,0.0,0.0,-0.16934791786350953,0.0,0.0,0.0,0.0,0.0,0.0,-58.416,0.0,0.0,0.0,0.0,0.0
561,0.0,0.1624365234375,0.0,0.0,0.0,0.0,0.0,0.0,-0.498,0.0,0.0,0.0,0.0,0.0,0.0,-0.1826824585704027,0.0,0.0,0.0,0.0,0.0,0.0,-58.416,0.0,0.0,0.0,0.0,0.0
562,0.0,0.1573935546875,0.0,0.0,0.0,0.0,0.0,0.0,-0.486,0.0,0.0,0.0,0.0,0.0,0.0,-0.19927451321397077,0.0,0.0,0.0,0.0,0.0,0.0,-55.984,0.0,0.0,0.0,0.0,0.0
563,0.0,0.15193359375,0.0,0.0,0.0,0.0,0.0,0.0,-0.523,0.0,0.0,0.0,0.0,0.0,0.0,-0.22184507300756465,0.0,0.0,0.0,0.0,0.0,0.0,-52.908,0.0,0.0,0.0,0.0,0.0
564,0.0,0.1461640625,0.0,0.0,0.0,0.0,0.0,0.0,-0.561,0.0,0.0,0.0,0.0,0.0,0.0,-0.2438798509769077,0.0,0.0,0.0,0.0,0.0,0.0,-49.128,0.0,0.0,0.0,0.0,0.0
565,0.0,0.1402919921875,0.0,0.0,0.0,0.0,0.0,0.0,-0.59,0.0,0.0,0.0,0.0,0.0,0.0,-0.26555916498454374,0.0,0.0,0.0,0.0,0.0,0.0,-45.672,0.0,0.0,0.0,0.0,0.0
566,0.0,0.134625,0.0,0.0,0.0,0.0,0.0,0.0,-0.588,0.0,0.0,0.0,0.0,0.0,0.0,-0.28695925449107196,0.0,0.0,0.0,0.0,0.0,0.0,-44.484,0.0,0.0,0.0,0.0,0.0
567,0.0,0.1291708984375,0.0,0.0,0.0,0.0,0.0,0.0,-0.556,0.0,0.0,0.0,0.0,0.0,0.0,-0.30763030086997356,0.0,0.0,0.0,0.0,0.0,0.0,-45.08,0.0,0.0,0.0,0.0,0.0
568,0.0,0.123298828125,0.0,0.0,0.0,0.0,0.0,0.0,-0.569,0.0,0.0,0.0,0.0,0.0,0.0,-0.32808662801616434,0.0,0.0,0.0,0.0,0.0,0.0,-45.672,0.0,0.0,0.0,0.0,0.0
569,0.0,0.11732421875,0.0,0.0,0.0,0.0,0.0,0.0,-0.593,0.0,0.0,0.0,0.0,0.0,0.0,-0.34820613066518497,0.0,0.0,0.0,0.0,0.0,0.0,-45.728,0.0,0.0,0.0,0.0,0.0
570,0.0,0.1108408203125,0.0,0.0,0.0,0.0,0.0,0.0,-0.625,0.0,0.0,0.0,0.0,0.0,0.0,-0.3672813575391162,0.0,0.0,0.0,0.0,0.0,0.0,-46.808,0.0,0.0,0.0,0.0,0.0
571,0.0,0.1044599609375,0.0,0.0,0.0,0.0,0.0,0.0,-0.659,0.0,0.0,0.0,0.0,0.0,0.0,-0.38586329358233085,0.0,0.0,0.0,0.0,0.0,0.0,-46.16,0.0,0.0,0.0,0.0,0.0
572,0.0,0.098587890625,0.0,0.0,0.0,0.0,0.0,0.0,-0.616,0.0,0.0,0.0,0.0,0.0,0.0,-0.404084493508886,0.0,0.0,0.0,0.0,0.0,0.0,-43.296,0.0,0.0,0.0,0.0,0.0
573,0.0,0.092310546875,0.0,0.0,0.0,0.0,0.0,0.0,-0.601,0.0,0.0,0.0,0.0,0.0,0.0,-0.42141897789816923,0.0,0.0,0.0,0.0,0.0,0.0,-42.76,0.0,0.0,0.0,0.0,0.0
574,0.0,0.08602734375,0.0,0.0,0.0,0.0,0.0,0.0,-0.637,0.0,0.0,0.0,0.0,0.0,0.0,-0.4380068765272282,0.0,0.0,0.0,0.0,0.0,0.0,-43.784,0.0,0.0,0.0,0.0,0.0
575,0.0,0.0800517578125,0.0,0.0,0.0,0.0,0.0,0.0,-0.623,0.0,0.0,0.0,0.0,0.0,0.0,-0.4543260165423226,0.0,0.0,0.0,0.0,0.0,0.0,-39.628,0.0,0.0,0.0,0.0,0.0
576,0.0,0.074076171875,0.0,0.0,0.0,0.0,0.0,0.0,-0.601,0.0,0.0,0.0,0.0,0.0,0.0,-0.46946567543479734,0.0,0.0,0.0,0.0,0.0,0.0,-35.036,0.0,0.0,0.0,0.0,0.0
577,0.0,0.06851953125,0.0,0.0,0.0,0.0,0.0,0.0,-0.587,0.0,0.0,0.0,0.0,0.0,0.0,-0.48396182835478646,0.0,0.0,0.0,0.0,0.0,0.0,-35.252,0.0,0.0,0.0,0.0,0.0
578,0.0,0.063162109375,0.0,0.0,0.0,0.0,0.0,0.0,-0.544,0.0,0.0,0.0,0.0,0.0,0.0,-0.49786991398905656,0.0,0.0,0.0,0.0,0.0,0.0,-37.196,0.0,0.0,0.0,0.0,0.0
579,0.0,0.0579130859375,0.0,0.0,0.0,0.0,0.0,0.0,-0.539,0.0,0.0,0.0,0.0,0.0,0.0,-0.5108720519277984,0.0,0.0,0.0,0.0,0.0,0.0,-35.308,0.0,0.0,0.0,0.0,0.0
580,0.0,0.0532763671875,0.0,0.0,0.0,0.0,0.0,0.0,-0.506,0.0,0.0,0.0,0.0,0.0,0.0,-0.5229594332270852,0.0,0.0,0.0,0.0,0.0,0.0,-32.716,0.0,0.0,0.0,0.0,0.0
581,0.0,0.0485419921875,0.0,0.0,0.0,0.0,0.0,0.0,-0.47,0.0,0.0,0.0,0.0,0.0,0.0,-0.534415660573473,0.0,0.0,0.0,0.0,0.0,0.0,-34.336,0.0,0.0,0.0,0.0,0.0
582,0.0,0.0439052734375,0.0,0.0,0.0,0.0,0.0,0.0,-0.475,0.0,0.0,0.0,0.0,0.0,0.0,-0.544955194690892,0.0,0.0,0.0,0.0,0.0,0.0,-35.9,0.0,0.0,0.0,0.0,0.0
583,0.0,0.039685546875,0.0,0.0,0.0,0.0,0.0,0.0,-0.446,0.0,0.0,0.0,0.0,0.0,0.0,-0.5544758148962118,0.0,0.0,0.0,0.0,0.0,0.0,-37.144,0.0,0.0,0.0,0.0,0.0
584,0.0,0.0355634765625,0.0,0.0,0.0,0.0,0.0,0.0,-0.426,0.0,0.0,0.0,0.0,0.0,0.0,-0.5632364220821027,0.0,0.0,0.0,0.0,0.0,0.0,-34.228,0.0,0.0,0.0,0.0,0.0
585,0.0,0.031755859375,0.0,0.0,0.0,0.0,0.0,0.0,-0.401,0.0,0.0,0.0,0.0,0.0,0.0,-0.5710156648590855,0.0,0.0,0.0,0.0,0.0,0.0,-34.388,0.0,0.0,0.0,0.0,0.0
586,0.0,0.02794140625,0.0,0.0,0.0,0.0,0.0,0.0,-0.379,0.0,0.0,0.0,0.0,0.0,0.0,-0.5778752577072186,0.0,0.0,0.0,0.0,0.0,0.0,-37.9,0.0,0.0,0.0,0.0,0.0
587,0.0,0.02433984375,0.0,0.0,0.0,0.0,0.0,0.0,-0.378,0.0,0.0,0.0,0.0,0.0,0.0,-0.583925443677228,0.0,0.0,0.0,0.0,0.0,0.0,-40.652,0.0,0.0,0.0,0.0,0.0
588,0.0,0.020833984375,0.0,0.0,0.0,0.0,0.0,0.0,-0.361,0.0,0.0,0.0,0.0,0.0,0.0,-0.5889727234567124,0.0,0.0,0.0,0.0,0.0,0.0,-40.652,0.0,0.0,0.0,0.0,0.0
589,0.0,0.0173349609375,0.0,0.0,0.0,0.0,0.0,0.0,-0.353,0.0,0.0,0.0,0.0,0.0,0.0,-0.5930412292157866,0.0,0.0,0.0,0.0,0.0,0.0,-39.304,0.0,0.0,0.0,0.0,0.0
590,0.0,0.014248046875,0.0,0.0,0.0,0.0,0.0,0.0,-0.332,0.0,0.0,0.0,0.0,0.0,0.0,-0.5962204654361147,0.0,0.0,0.0,0.0,0.0,0.0,-39.952,0.0,0.0,0.0,0.0,0.0
591,0.0,0.0113603515625,0.0,0.0,0.0,0.0,0.0,0.0,-0.305,0.0,0.0,0.0,0.0,0.0,0.0,-0.5984505916866611,0.0,0.0,0.0,0.0,0.0,0.0,-42.436,0.0,0.0,0.0,0.0,0.0
592,0.0,0.0082734375,0.0,0.0,0.0,0.0,0.0,0.0,-0.302,0.0,0.0,0.0,0.0,0.0,0.0,-0.5996877054202097,0.0,0.0,0.0,0.0,0.0,0.0,-44.972,0.0,0.0,0.0,0.0,0.0
593,0.0,0.0049794921875,0.0,0.0,0.0,0.0,0.0,0.0,-0.317,0.0,0.0,0.0,0.0,0.0,0.0,-0.5999819789077411,0.0,0.0,0.0,0.0,0.0,0.0,-46.376,0.0,0.0,0.0,0.0,0.0
594,0.0,0.001474609375,0.0,0.0,0.0,0.0,0.0,0.0,-0.342,0.0,0.0,0.0,0.0,0.0,0.0,-0.5993078240376231,0.0,0.0,0.0,0.0,0.0,0.0,-45.512,0.0,0.0,0.0,0.0,0.0
595,0.0,-0.0017158203125,0.0,0.0,0.0,0.0,0.0,0.0,-0.337,0.0,0.0,0.0,0.0,0.0,0.0,-0.5977017083201759,0.0,0.0,0.0,0.0,0.0,0.0,-44.54,0.0,0.0,0.0,0.0,0.0
596,0.0,-0.004802734375,0.0,0.0,0.0,0.0,0.0,0.0,-0.32,0.0,0.0,0.0,0.0,0.0,0.0,-0.5951084177369912,0.0,0.0,0.0,0.0,0.0,0.0,-45.08,0.0,0.0,0.0,0.0,0.0
597,0.0,-0.0077939453125,0.0,0.0,0.0,0.0,0.0,0.0,-0.306,0.0,0.0,0.0,0.0,0.0,0.0,-0.5915351544787911,0.0,0.0,0.0,0.0,0.0,0.0,-46.32,0.0,0.0,0.0,0.0,0.0
598,0.0,-0.011189453125,0.0,0.0,0.0,0.0,0.0,0.0,-0.317,0.0,0.0,0.0,0.0,0.0,0.0,-0.5870711655213764,0.0,0.0,0.0,0.0,0.0,0.0,-47.456,0.0,0.0,0.0,0.0,0.0
599,0.0,-0.014900390625,0.0,0.0,0.0,0.0,0.0,0.0,-0.355,0.0,0.0,0.0,0.0,0.0,0.0,-0.5816203908600415,0.0,0.0,0.0,0.0,0.0,0.0,-47.616,0.0,0.0,0.0,0.0,0.0
600,0.0,-0.0183994140625,0.0,0.0,0.0,0.0,0.0,0.0,-0.366,0.0,0.0,0.0,0.0,0.0,0.0,-0.5752647258090027,0.0,0.0,0.0,0.0,0.0,0.0,-47.456,0.0,0.0,0.0,0.0,0.0
601,0.0,-0.0218984375,0.0,0.0,0.0,0.0,0.0,0.0,-0.356,0.0,0.0,0.0,0.0,0.0,0.0,-0.5680512531319261,0.0,0.0,0.0,0.0,0.0,0.0,-47.076,0.0,0.0,0.0,0.0,0.0
602,0.0,-0.025404296875,0.0,0.0,0.0,0.0,0.0,0.0,-0.353,0.0,0.0,0.0,0.0,0.0,0.0,-0.5598821044421587,0.0,0.0,0.0,0.0,0.0,0.0,-46.916,0.0,0.0,0.0,0.0,0.0
603,0.0,-0.0291083984375,0.0,0.0,0.0,0.0,0.0,0.0,-0.359,0.0,0.0,0.0,0.0,0.0,0.0,-0.550692948326642,0.0,0.0,0.0,0.0,0.0,0.0,-47.24,0.0,0.0,0.0,0.0,0.0
604,0.0,-0.0329228515625,0.0,0.0,0.0,0.0,0.0,0.0,-0.375,0.0,0.0,0.0,0.0,0.0,0.0,-0.5408810695375079,0.0,0.0,0.0,0.0,0.0,0.0,-47.4,0.0,0.0,0.0,0.0,0.0
605,0.0,-0.0368330078125,0.0,0.0,0.0,0.0,0.0,0.0,-0.389,0.0,0.0,0.0,0.0,0.0,0.0,-0.5300739193948767,0.0,0.0,0.0,0.0,0.0,0.0,-47.292,0.0,0.0,0.0,0.0,0.0
606,0.0,-0.04075,0.0,0.0,0.0,0.0,0.0,0.0,-0.395,0.0,0.0,0.0,0.0,0.0,0.0,-0.5182587428020518,0.0,0.0,0.0,0.0,0.0,0.0,-47.348,0.0,0.0,0.0,0.0,0.0
607,0.0,-0.04466015625,0.0,0.0,0.0,0.0,0.0,0.0,-0.396,0.0,0.0,0.0,0.0,0.0,0.0,-0.5058521195938114,0.0,0.0,0.0,0.0,0.0,0.0,-46.916,0.0,0.0,0.0,0.0,0.0
608,0.0,-0.0485712890625,0.0,0.0,0.0,0.0,0.0,0.0,-0.394,0.0,0.0,0.0,0.0,0.0,0.0,-0.4925991787745599,0.0,0.0,0.0,0.0,0.0,0.0,-46.16,0.0,0.0,0.0,0.0,0.0
609,0.0,-0.0526943359375,0.0,0.0,0.0,0.0,0.0,0.0,-0.403,0.0,0.0,0.0,0.0,0.0,0.0,-0.47844400480093113,0.0,0.0,0.0,0.0,0.0,0.0,-45.996,0.0,0.0,0.0,0.0,0.0
610,0.0,-0.057015625,0.0,0.0,0.0,0.0,0.0,0.0,-0.422,0.0,0.0,0.0,0.0,0.0,0.0,-0.46356149202620434,0.0,0.0,0.0,0.0,0.0,0.0,-45.836,0.0,0.0,0.0,0.0,0.0
611,0.0,-0.0612421875,0.0,0.0,0.0,0.0,0.0,0.0,-0.429,0.0,0.0,0.0,0.0,0.0,0.0,-0.44806093743031206,0.0,0.0,0.0,0.0,0.0,0.0,-45.564,0.0,0.0,0.0,0.0,0.0
612,0.0,-0.0654609375,0.0,0.0,0.0,0.0,0.0,0.0,-0.424,0.0,0.0,0.0,0.0,0.0,0.0,-0.4315850183893826,0.0,0.0,0.0,0.0,0.0,0.0,-45.512,0.0,0.0,0.0,0.0,0.0
613,0.0,-0.069583984375,0.0,0.0,0.0,0.0,0.0,0.0,-0.423,0.0,0.0,0.0,0.0,0.0,0.0,-0.4145348604419449,0.0,0.0,0.0,0.0,0.0,0.0,-44.972,0.0,0.0,0.0,0.0,0.0
614,0.0,-0.07390625,0.0,0.0,0.0,0.0,0.0,0.0,-0.423,0.0,0.0,0.0,0.0,0.0,0.0,-0.3970461396498938,0.0,0.0,0.0,0.0,0.0,0.0,-44.16,0.0,0.0,0.0,0.0,0.0
615,0.0,-0.078234375,0.0,0.0,0.0,0.0,0.0,0.0,-0.431,0.0,0.0,0.0,0.0,0.0,0.0,-0.3785702786867133,0.0,0.0,0.0,0.0,0.0,0.0,-43.944,0.0,0.0,0.0,0.0,0.0
616,0.0,-0.082556640625,0.0,0.0,0.0,0.0,0.0,0.0,-0.437,0.0,0.0,0.0,0.0,0.0,0.0,-0.3597314643947867,0.0,0.0,0.0,0.0,0.0,0.0,-43.784,0.0,0.0,0.0,0.0,0.0
617,0.0,-0.0867822265625,0.0,0.0,0.0,0.0,0.0,0.0,-0.433,0.0,0.0,0.0,0.0,0.0,0.0,-0.340385012660186,0.0,0.0,0.0,0.0,0.0,0.0,-43.512,0.0,0.0,0.0,0.0,0.0
618,0.0,-0.091001953125,0.0,0.0,0.0,0.0,0.0,0.0,-0.429,0.0,0.0,0.0,0.0,0.0,0.0,-0.32017535082800624,0.0,0.0,0.0,0.0,0.0,0.0,-43.62,0.0,0.0,0.0,0.0,0.0
619,0.0,-0.0951240234375,0.0,0.0,0.0,0.0,0.0,0.0,-0.421,0.0,0.0,0.0,0.0,0.0,0.0,-0.29965860823066365,0.0,0.0,0.0,0.0,0.0,0.0,-43.084,0.0,0.0,0.0,0.0,0.0
620,0.0,-0.09934375,0.0,0.0,0.0,0.0,0.0,0.0,-0.416,0.0,0.0,0.0,0.0,0.0,0.0,-0.2786639155465499,0.0,0.0,0.0,0.0,0.0,0.0,-42.704,0.0,0.0,0.0,0.0,0.0
621,0.0,-0.1035625,0.0,0.0,0.0,0.0,0.0,0.0,-0.427,0.0,0.0,0.0,0.0,0.0,0.0,-0.2569186810015675,0.0,0.0,0.0,0.0,0.0,0.0,-42.868,0.0,0.0,0.0,0.0,0.0
622,0.0,-0.1076796875,0.0,0.0,0.0,0.0,0.0,0.0,-0.421,0.0,0.0,0.0,0.0,0.0,0.0,-0.23507897179191187,0.0,0.0,0.0,0.0,0.0,0.0,-43.028,0.0,0.0,0.0,0.0,0.0
623,0.0,-0.1118017578125,0.0,0.0,0.0,0.0,0.0,0.0,-0.415,0.0,0.0,0.0,0.0,0.0,0.0,-0.21290335319773243,0.0,0.0,0.0,0.0,0.0,0.0,-43.296,0.0,0.0,0.0,0.0,0.0
624,0.0,-0.1158154296875,0.0,0.0,0.0,0.0,0.0,0.0,-0.408,0.0,0.0,0.0,0.0,0.0,0.0,-0.18959030740523194,0.0,0.0,0.0,0.0,0.0,0.0,-43.568,0.0,0.0,0.0,0.0,0.0
625,0.0,-0.119732421875,0.0,0.0,0.0,0.0,0.0,0.0,-0.401,0.0,0.0,0.0,0.0,0.0,0.0,-0.16756413794206268,0.0,0.0,0.0,0.0,0.0,0.0,-43.136,0.0,0.0,0.0,0.0,0.0
626,0.0,-0.12374609375,0.0,0.0,0.0,0.0,0.0,0.0,-0.4,0.0,0.0,0.0,0.0,0.0,0.0,-0.14453336879041706,0.0,0.0,0.0,0.0,0.0,0.0,-43.084,0.0,0.0,0.0,0.0,0.0
627,0.0,-0.127869140625,0.0,0.0,0.0,0.0,0.0,0.0,-0.409,0.0,0.0,0.0,0.0,0.0,0.0,-0.12113296821312673,0.0,0.0,0.0,0.0,0.0,0.0,-43.244,0.0,0.0,0.0,0.0,0.0
628,0.0,-0.131779296875,0.0,0.0,0.0,0.0,0.0,0.0,-0.406,0.0,0.0,0.0,0.0,0.0,0.0,-0.09733273567996645,0.0,0.0,0.0,0.0,0.0,0.0,-43.512,0.0,0.0,0.0,0.0,0.0
629,0.0,-0.1356962890625,0.0,0.0,0.0,0.0,0.0,0.0,-0.397,0.0,0.0,0.0,0.0,0.0,0.0,-0.07375799205197624,0.0,0.0,0.0,0.0,0.0,0.0,-43.676,0.0,0.0,0.0,0.0,0.0
630,0.0,-0.1392978515625,0.0,0.0,0.0,0.0,0.0,0.0,-0.385,0.0,0.0,0.0,0.0,0.0,0.0,-0.04982752529389652,0.0,0.0,0.0,0.0,0.0,0.0,-41.084,0.0,0.0,0.0,0.0,0.0
631,0.0,-0.1412529296875,0.0,0.0,0.0,0.0,0.0,0.0,-0.304,0.0,0.0,0.0,0.0,0.0,0.0,-0.02561800152772159,0.0,0.0,0.0,0.0,0.0,0.0,-29.64,0.0,0.0,0.0,0.0,0.0
632,0.0,-0.14187109375,0.0,0.0,0.0,0.0,0.0,0.0,-0.141,0.0,0.0,0.0,0.0,0.0,0.0,-0.001897036249650515,0.0,0.0,0.0,0.0,0.0,0.0,-18.192,0.0,0.0,0.0,0.0,0.0
633,0.0,-0.141767578125,0.0,0.0,0.0,0.0,0.0,0.0,-0.036,0.0,0.0,0.0,0.0,0.0,0.0,0.02200416073405524,0.0,0.0,0.0,0.0,0.0,0.0,-12.308,0.0,0.0,0.0,0.0,0.0
634,0.0,-0.1406357421875,0.0,0.0,0.0,0.0,0.0,0.0,0.056,0.0,0.0,0.0,0.0,0.0,0.0,2.8610229481345475e-05,0.0,0.0,0.0,0.0,0.0,0.0,-11.444,0.0,0.0,0.0,0.0,0.0
635,0.0,-0.13950390625,0.0,0.0,0.0,0.0,0.0,0.0,0.113,0.0,0.0,0.0,0.0,0.0,0.0,0.023890662849239717,0.0,0.0,0.0,0.0,0.0,0.0,-10.472,0.0,0.0,0.0,0.0,0.0
636,0.0,-0.1373427734375,0.0,0.0,0.0,0.0,0.0,0.0,0.151,0.0,0.0,0.0,0.0,0.0,0.0,0.04782670960761767,0.0,0.0,0.0,0.0,0.0,0.0,-9.068,0.0,0.0,0.0,0.0,0.0
637,0.0,-0.13384375,0.0,0.0,0.0,0.0,0.0,0.0,0.272,0.0,0.0,0.0,0.0,0.0,0.0,0.07184145842382905,0.0,0.0,0.0,0.0,0.0,0.0,-10.312,0.0,0.0,0.0,0.0,0.0
638,0.0,-0.1293095703125,0.0,0.0,0.0,0.0,0.0,0.0,0.39,0.0,0.0,0.0,0.0,0.0,0.0,0.0954795473874838,0.0,0.0,0.0,0.0,0.0,0.0,-12.632,0.0,0.0,0.0,0.0,0.0
639,0.0,-0.123642578125,0.0,0.0,0.0,0.0,0.0,0.0,0.506,0.0,0.0,0.0,0.0,0.0,0.0,0.11907698635400525,0.0,0.0,0.0,0.0,0.0,0.0,-16.572,0.0,0.0,0.0,0.0,0.0
640,0.0,-0.1179833984375,0.0,0.0,0.0,0.0,0.0,0.0,0.577,0.0,0.0,0.0,0.0,0.0,0.0,0.1426497883026123,0.0,0.0,0.0,0.0,0.0,0.0,-20.352,0.0,0.0,0.0,0.0,0.0
641,0.0,-0.1122138671875,0.0,0.0,0.0,0.0,0.0,0.0,0.571,0.0,0.0,0.0,0.0,0.0,0.0,0.16572139635559419,0.0,0.0,0.0,0.0,0.0,0.0,-23.7,0.0,0.0,0.0,0.0,0.0
642,0.0,-0.106546875,0.0,0.0,0.0,0.0,0.0,0.0,0.575,0.0,0.0,0.0,0.0,0.0,0.0,0.18867186660379986,0.0,0.0,0.0,0.0,0.0,0.0,-30.504,0.0,0.0,0.0,0.0,0.0
643,0.0,-0.1006875,0.0,0.0,0.0,0.0,0.0,0.0,0.571,0.0,0.0,0.0,0.0,0.0,0.0,0.21148804821213063,0.0,0.0,0.0,0.0,0.0,0.0,-33.688,0.0,0.0,0.0,0.0,0.0
644,0.0,-0.0937861328125,0.0,0.0,0.0,0.0,0.0,0.0,0.633,0.0,0.0,0.0,0.0,0.0,0.0,0.23357384513608,0.0,0.0,0.0,0.0,0.0,0.0,-35.576,0.0,0.0,0.0,0.0,0.0
645,0.0,-0.0867822265625,0.0,0.0,0.0,0.0,0.0,0.0,0.704,0.0,0.0,0.0,0.0,0.0,0.0,0.2554790625482776,0.0,0.0,0.0,0.0,0.0,0.0,-36.388,0.0,0.0,0.0,0.0,0.0
646,0.0,-0.0796748046875,0.0,0.0,0.0,0.0,0.0,0.0,0.711,0.0,0.0,0.0,0.0,0.0,0.0,0.27708451801013095,0.0,0.0,0.0,0.0,0.0,0.0,-39.736,0.0,0.0,0.0,0.0,0.0
647,0.0,-0.0730830078125,0.0,0.0,0.0,0.0,0.0,0.0,0.693,0.0,0.0,0.0,0.0,0.0,0.0,0.2980404239251082,0.0,0.0,0.0,0.0,0.0,0.0,-45.024,0.0,0.0,0.0,0.0,0.0
648,0.0,-0.066908203125,0.0,0.0,0.0,0.0,0.0,0.0,0.637,0.0,0.0,0.0,0.0,0.0,0.0,0.31855532553481003,0.0,0.0,0.0,0.0,0.0,0.0,-44.972,0.0,0.0,0.0,0.0,0.0
649,0.0,-0.060109375,0.0,0.0,0.0,0.0,0.0,0.0,0.653,0.0,0.0,0.0,0.0,0.0,0.0,0.33881117457007487,0.0,0.0,0.0,0.0,0.0,0.0,-43.568,0.0,0.0,0.0,0.0,0.0
650,0.0,-0.05372265625,0.0,0.0,0.0,0.0,0.0,0.0,0.667,0.0,0.0,0.0,0.0,0.0,0.0,0.3582366475518747,0.0,0.0,0.0,0.0,0.0,0.0,-47.024,0.0,0.0,0.0,0.0,0.0
651,0.0,-0.0472333984375,0.0,0.0,0.0,0.0,0.0,0.0,0.643,0.0,0.0,0.0,0.0,0.0,0.0,0.377204763506078,0.0,0.0,0.0,0.0,0.0,0.0,-51.884,0.0,0.0,0.0,0.0,0.0
652,0.0,-0.0406474609375,0.0,0.0,0.0,0.0,0.0,0.0,0.664,0.0,0.0,0.0,0.0,0.0,0.0,0.3956309236351427,0.0,0.0,0.0,0.0,0.0,0.0,-52.908,0.0,0.0,0.0,0.0,0.0
653,0.0,-0.03498046875,0.0,0.0,0.0,0.0,0.0,0.0,0.621,0.0,0.0,0.0,0.0,0.0,0.0,0.41322935310467335,0.0,0.0,0.0,0.0,0.0,0.0,-52.152,0.0,0.0,0.0,0.0,0.0
654,0.0,-0.0294169921875,0.0,0.0,0.0,0.0,0.0,0.0,0.566,0.0,0.0,0.0,0.0,0.0,0.0,0.4305743619347975,0.0,0.0,0.0,0.0,0.0,0.0,-55.5,0.0,0.0,0.0,0.0,0.0
655,0.0,-0.0238603515625,0.0,0.0,0.0,0.0,0.0,0.0,0.562,0.0,0.0,0.0,0.0,0.0,0.0,0.44679395343073364,0.0,0.0,0.0,0.0,0.0,0.0,-57.82,0.0,0.0,0.0,0.0,0.0
656,0.0,-0.0185029296875,0.0,0.0,0.0,0.0,0.0,0.0,0.545,0.0,0.0,0.0,0.0,0.0,0.0,0.46247836890378063,0.0,0.0,0.0,0.0,0.0,0.0,-56.092,0.0,0.0,0.0,0.0,0.0
657,0.0,-0.0130419921875,0.0,0.0,0.0,0.0,0.0,0.0,0.549,0.0,0.0,0.0,0.0,0.0,0.0,0.47738283803395554,0.0,0.0,0.0,0.0,0.0,0.0,-54.744,0.0,0.0,0.0,0.0,0.0
658,0.0,-0.008513671875,0.0,0.0,0.0,0.0,0.0,0.0,0.518,0.0,0.0,0.0,0.0,0.0,0.0,0.4915782827362066,0.0,0.0,0.0,0.0,0.0,0.0,-57.496,0.0,0.0,0.0,0.0,0.0
659,0.0,-0.0043916015625,0.0,0.0,0.0,0.0,0.0,0.0,0.428,0.0,0.0,0.0,0.0,0.0,0.0,0.5048838275349017,0.0,0.0,0.0,0.0,0.0,0.0,-59.28,0.0,0.0,0.0,0.0,0.0
660,0.0,-0.0002744140625,0.0,0.0,0.0,0.0,0.0,0.0,0.414,0.0,0.0,0.0,0.0,0.0,0.0,0.5173926960078431,0.0,0.0,0.0,0.0,0.0,0.0,-57.28,0.0,0.0,0.0,0.0,0.0
661,0.0,0.003642578125,0.0,0.0,0.0,0.0,0.0,0.0,0.408,0.0,0.0,0.0,0.0,0.0,0.0,0.5292539324639929,0.0,0.0,0.0,0.0,0.0,0.0,-53.288,0.0,0.0,0.0,0.0,0.0
662,0.0,0.0079638671875,0.0,0.0,0.0,0.0,0.0,0.0,0.41,0.0,0.0,0.0,0.0,0.0,0.0,0.5401115806759412,0.0,0.0,0.0,0.0,0.0,0.0,-51.936,0.0,0.0,0.0,0.0,0.0
663,0.0,0.01156640625,0.0,0.0,0.0,0.0,0.0,0.0,0.404,0.0,0.0,0.0,0.0,0.0,0.0,0.5500598900138909,0.0,0.0,0.0,0.0,0.0,0.0,-54.364,0.0,0.0,0.0,0.0,0.0
664,0.0,0.014556640625,0.0,0.0,0.0,0.0,0.0,0.0,0.336,0.0,0.0,0.0,0.0,0.0,0.0,0.5592209219606876,0.0,0.0,0.0,0.0,0.0,0.0,-54.364,0.0,0.0,0.0,0.0,0.0
665,0.0,0.0174384765625,0.0,0.0,0.0,0.0,0.0,0.0,0.295,0.0,0.0,0.0,0.0,0.0,0.0,0.5674750011556561,0.0,0.0,0.0,0.0,0.0,0.0,-51.776,0.0,0.0,0.0,0.0,0.0
666,0.0,0.0200107421875,0.0,0.0,0.0,0.0,0.0,0.0,0.276,0.0,0.0,0.0,0.0,0.0,0.0,0.5748088139929785,0.0,0.0,0.0,0.0,0.0,0.0,-47.348,0.0,0.0,0.0,0.0,0.0
667,0.0,0.0232080078125,0.0,0.0,0.0,0.0,0.0,0.0,0.283,0.0,0.0,0.0,0.0,0.0,0.0,0.5812522967170854,0.0,0.0,0.0,0.0,0.0,0.0,-44.484,0.0,0.0,0.0,0.0,0.0
668,0.0,0.0267060546875,0.0,0.0,0.0,0.0,0.0,0.0,0.336,0.0,0.0,0.0,0.0,0.0,0.0,0.5867097372947441,0.0,0.0,0.0,0.0,0.0,0.0,-44.972,0.0,0.0,0.0,0.0,0.0
669,0.0,0.029587890625,0.0,0.0,0.0,0.0,0.0,0.0,0.326,0.0,0.0,0.0,0.0,0.0,0.0,0.5912747584572008,0.0,0.0,0.0,0.0,0.0,0.0,-46.052,0.0,0.0,0.0,0.0,0.0
