EmanuelSamir/lab201_ws_projsamir/sawyer_dev/data/sawyer/static/test_joint2/validation_data_5.csv
,j1,j2,j3,j4,j5,j6,j7,v1,v2,v3,v4,v5,v6,v7,jd1,jd2,jd3,jd4,jd5,jd6,jd7,e1,e2,e3,e4,e5,e6,e7
0,0.0,0.0,0.0,0.0,0.0,0.0,0.0,0.0,0.0,0.0,0.0,0.0,0.0,0.0,0.0,0.0,0.0,0.0,0.0,0.0,0.0,0.0,0.0,0.0,0.0,0.0,0.0,0.0
1,0.0,-0.001509765625,0.0,0.0,0.0,0.0,0.0,0.0,-0.001,0.0,0.0,0.0,0.0,0.0,0.0,0.00020098685842381684,0.0,0.0,0.0,0.0,0.0,0.0,-44.16,0.0,0.0,0.0,0.0,0.0
2,0.0,-0.001509765625,0.0,0.0,0.0,0.0,0.0,0.0,-0.001,0.0,0.0,0.0,0.0,0.0,0.0,0.016390191860730343,0.0,0.0,0.0,0.0,0.0,0.0,-44.16,0.0,0.0,0.0,0.0,0.0
3,0.0,-0.001509765625,0.0,0.0,0.0,0.0,0.0,0.0,-0.001,0.0,0.0,0.0,0.0,0.0,0.0,0.047216659324099984,0.0,0.0,0.0,0.0,0.0,0.0,-44.16,0.0,0.0,0.0,0.0,0.0
4,0.0,-0.001509765625,0.0,0.0,0.0,0.0,0.0,0.0,-0.001,0.0,0.0,0.0,0.0,0.0,0.0,0.0766499167199748,0.0,0.0,0.0,0.0,0.0,0.0,-44.108,0.0,0.0,0.0,0.0,0.0
5,0.0,-0.0013037109375,0.0,0.0,0.0,0.0,0.0,0.0,0.005,0.0,0.0,0.0,0.0,0.0,0.0,0.10625506378425115,0.0,0.0,0.0,0.0,0.0,0.0,-41.464,0.0,0.0,0.0,0.0,0.0
6,0.0,-0.000171875,0.0,0.0,0.0,0.0,0.0,0.0,0.06,0.0,0.0,0.0,0.0,0.0,0.0,0.1357493402375029,0.0,0.0,0.0,0.0,0.0,0.0,-34.876,0.0,0.0,0.0,0.0,0.0
7,0.0,0.0015771484375,0.0,0.0,0.0,0.0,0.0,0.0,0.139,0.0,0.0,0.0,0.0,0.0,0.0,0.16469741210599406,0.0,0.0,0.0,0.0,0.0,0.0,-30.612,0.0,0.0,0.0,0.0,0.0
8,0.0,0.0037451171875,0.0,0.0,0.0,0.0,0.0,0.0,0.186,0.0,0.0,0.0,0.0,0.0,0.0,0.19335291767326526,0.0,0.0,0.0,0.0,0.0,0.0,-27.912,0.0,0.0,0.0,0.0,0.0
9,0.0,0.0064208984375,0.0,0.0,0.0,0.0,0.0,0.0,0.242,0.0,0.0,0.0,0.0,0.0,0.0,0.22147374695846378,0.0,0.0,0.0,0.0,0.0,0.0,-26.724,0.0,0.0,0.0,0.0,0.0
10,0.0,0.0090966796875,0.0,0.0,0.0,0.0,0.0,0.0,0.269,0.0,0.0,0.0,0.0,0.0,0.0,0.24893593662661095,0.0,0.0,0.0,0.0,0.0,0.0,-26.076,0.0,0.0,0.0,0.0,0.0
11,0.0,0.0124990234375,0.0,0.0,0.0,0.0,0.0,0.0,0.292,0.0,0.0,0.0,0.0,0.0,0.0,0.2760721216016607,0.0,0.0,0.0,0.0,0.0,0.0,-24.24,0.0,0.0,0.0,0.0,0.0
12,0.0,0.016923828125,0.0,0.0,0.0,0.0,0.0,0.0,0.389,0.0,0.0,0.0,0.0,0.0,0.0,0.3022534447222055,0.0,0.0,0.0,0.0,0.0,0.0,-24.4,0.0,0.0,0.0,0.0,0.0
13,0.0,0.02135546875,0.0,0.0,0.0,0.0,0.0,0.0,0.445,0.0,0.0,0.0,0.0,0.0,0.0,0.3277245526892106,0.0,0.0,0.0,0.0,0.0,0.0,-27.748,0.0,0.0,0.0,0.0,0.0
14,0.0,0.026294921875,0.0,0.0,0.0,0.0,0.0,0.0,0.467,0.0,0.0,0.0,0.0,0.0,0.0,0.35252138741589284,0.0,0.0,0.0,0.0,0.0,0.0,-32.932,0.0,0.0,0.0,0.0,0.0
15,0.0,0.0309326171875,0.0,0.0,0.0,0.0,0.0,0.0,0.488,0.0,0.0,0.0,0.0,0.0,0.0,0.3764613824854697,0.0,0.0,0.0,0.0,0.0,0.0,-36.548,0.0,0.0,0.0,0.0,0.0
16,0.0,0.0354599609375,0.0,0.0,0.0,0.0,0.0,0.0,0.456,0.0,0.0,0.0,0.0,0.0,0.0,0.3990656756854015,0.0,0.0,0.0,0.0,0.0,0.0,-37.684,0.0,0.0,0.0,0.0,0.0
17,0.0,0.0405087890625,0.0,0.0,0.0,0.0,0.0,0.0,0.471,0.0,0.0,0.0,0.0,0.0,0.0,0.42124834799377636,0.0,0.0,0.0,0.0,0.0,0.0,-38.656,0.0,0.0,0.0,0.0,0.0
18,0.0,0.0458603515625,0.0,0.0,0.0,0.0,0.0,0.0,0.526,0.0,0.0,0.0,0.0,0.0,0.0,0.4420962135414565,0.0,0.0,0.0,0.0,0.0,0.0,-39.572,0.0,0.0,0.0,0.0,0.0
19,0.0,0.0515263671875,0.0,0.0,0.0,0.0,0.0,0.0,0.553,0.0,0.0,0.0,0.0,0.0,0.0,0.46171263799113443,0.0,0.0,0.0,0.0,0.0,0.0,-41.84,0.0,0.0,0.0,0.0,0.0
20,0.0,0.056884765625,0.0,0.0,0.0,0.0,0.0,0.0,0.557,0.0,0.0,0.0,0.0,0.0,0.0,0.4803869866538026,0.0,0.0,0.0,0.0,0.0,0.0,-45.132,0.0,0.0,0.0,0.0,0.0
21,0.0,0.061720703125,0.0,0.0,0.0,0.0,0.0,0.0,0.517,0.0,0.0,0.0,0.0,0.0,0.0,0.4978870485512391,0.0,0.0,0.0,0.0,0.0,0.0,-46.536,0.0,0.0,0.0,0.0,0.0
22,0.0,0.0666669921875,0.0,0.0,0.0,0.0,0.0,0.0,0.489,0.0,0.0,0.0,0.0,0.0,0.0,0.5137436230145588,0.0,0.0,0.0,0.0,0.0,0.0,-45.62,0.0,0.0,0.0,0.0,0.0
23,0.0,0.0718125,0.0,0.0,0.0,0.0,0.0,0.0,0.506,0.0,0.0,0.0,0.0,0.0,0.0,0.5286577855398126,0.0,0.0,0.0,0.0,0.0,0.0,-44.484,0.0,0.0,0.0,0.0,0.0
24,0.0,0.077169921875,0.0,0.0,0.0,0.0,0.0,0.0,0.521,0.0,0.0,0.0,0.0,0.0,0.0,0.5434688555360258,0.0,0.0,0.0,0.0,0.0,0.0,-45.188,0.0,0.0,0.0,0.0,0.0
25,0.0,0.0824189453125,0.0,0.0,0.0,0.0,0.0,0.0,0.539,0.0,0.0,0.0,0.0,0.0,0.0,0.5542262267564889,0.0,0.0,0.0,0.0,0.0,0.0,-47.132,0.0,0.0,0.0,0.0,0.0
26,0.0,0.08726171875,0.0,0.0,0.0,0.0,0.0,0.0,0.515,0.0,0.0,0.0,0.0,0.0,0.0,0.5650872034508734,0.0,0.0,0.0,0.0,0.0,0.0,-48.588,0.0,0.0,0.0,0.0,0.0
27,0.0,0.091892578125,0.0,0.0,0.0,0.0,0.0,0.0,0.477,0.0,0.0,0.0,0.0,0.0,0.0,0.5745214412885759,0.0,0.0,0.0,0.0,0.0,0.0,-48.212,0.0,0.0,0.0,0.0,0.0
28,0.0,0.0967353515625,0.0,0.0,0.0,0.0,0.0,0.0,0.471,0.0,0.0,0.0,0.0,0.0,0.0,0.5823959906712787,0.0,0.0,0.0,0.0,0.0,0.0,-47.456,0.0,0.0,0.0,0.0,0.0
29,0.0,0.1015791015625,0.0,0.0,0.0,0.0,0.0,0.0,0.482,0.0,0.0,0.0,0.0,0.0,0.0,0.5888851276854489,0.0,0.0,0.0,0.0,0.0,0.0,-47.724,0.0,0.0,0.0,0.0,0.0
30,0.0,0.1064091796875,0.0,0.0,0.0,0.0,0.0,0.0,0.491,0.0,0.0,0.0,0.0,0.0,0.0,0.5938778497307174,0.0,0.0,0.0,0.0,0.0,0.0,-48.86,0.0,0.0,0.0,0.0,0.0
31,0.0,0.111046875,0.0,0.0,0.0,0.0,0.0,0.0,0.484,0.0,0.0,0.0,0.0,0.0,0.0,0.5974260385857089,0.0,0.0,0.0,0.0,0.0,0.0,-49.776,0.0,0.0,0.0,0.0,0.0
32,0.0,0.115265625,0.0,0.0,0.0,0.0,0.0,0.0,0.447,0.0,0.0,0.0,0.0,0.0,0.0,0.5994532149545169,0.0,0.0,0.0,0.0,0.0,0.0,-48.86,0.0,0.0,0.0,0.0,0.0
33,0.0,0.1195947265625,0.0,0.0,0.0,0.0,0.0,0.0,0.423,0.0,0.0,0.0,0.0,0.0,0.0,0.5999841493023018,0.0,0.0,0.0,0.0,0.0,0.0,-47.724,0.0,0.0,0.0,0.0,0.0
34,0.0,0.1238134765625,0.0,0.0,0.0,0.0,0.0,0.0,0.432,0.0,0.0,0.0,0.0,0.0,0.0,0.5990283135659173,0.0,0.0,0.0,0.0,0.0,0.0,-47.456,0.0,0.0,0.0,0.0,0.0
35,0.0,0.1281357421875,0.0,0.0,0.0,0.0,0.0,0.0,0.428,0.0,0.0,0.0,0.0,0.0,0.0,0.5965680080836679,0.0,0.0,0.0,0.0,0.0,0.0,-48.104,0.0,0.0,0.0,0.0,0.0
36,0.0,0.1322587890625,0.0,0.0,0.0,0.0,0.0,0.0,0.427,0.0,0.0,0.0,0.0,0.0,0.0,0.5924203733069415,0.0,0.0,0.0,0.0,0.0,0.0,-48.428,0.0,0.0,0.0,0.0,0.0
37,0.0,0.1358603515625,0.0,0.0,0.0,0.0,0.0,0.0,0.397,0.0,0.0,0.0,0.0,0.0,0.0,0.5871369301466913,0.0,0.0,0.0,0.0,0.0,0.0,-47.888,0.0,0.0,0.0,0.0,0.0
38,0.0,0.13946875,0.0,0.0,0.0,0.0,0.0,0.0,0.363,0.0,0.0,0.0,0.0,0.0,0.0,0.5802454942812298,0.0,0.0,0.0,0.0,0.0,0.0,-46.86,0.0,0.0,0.0,0.0,0.0
39,0.0,0.1431728515625,0.0,0.0,0.0,0.0,0.0,0.0,0.365,0.0,0.0,0.0,0.0,0.0,0.0,0.5717506675763132,0.0,0.0,0.0,0.0,0.0,0.0,-45.944,0.0,0.0,0.0,0.0,0.0
40,0.0,0.146884765625,0.0,0.0,0.0,0.0,0.0,0.0,0.37,0.0,0.0,0.0,0.0,0.0,0.0,0.5621783502048,0.0,0.0,0.0,0.0,0.0,0.0,-45.78,0.0,0.0,0.0,0.0,0.0
41,0.0,0.1504931640625,0.0,0.0,0.0,0.0,0.0,0.0,0.372,0.0,0.0,0.0,0.0,0.0,0.0,0.5510044459847073,0.0,0.0,0.0,0.0,0.0,0.0,-45.996,0.0,0.0,0.0,0.0,0.0
42,0.0,0.1540947265625,0.0,0.0,0.0,0.0,0.0,0.0,0.364,0.0,0.0,0.0,0.0,0.0,0.0,0.5382152403604789,0.0,0.0,0.0,0.0,0.0,0.0,-45.348,0.0,0.0,0.0,0.0,0.0
43,0.0,0.1573935546875,0.0,0.0,0.0,0.0,0.0,0.0,0.347,0.0,0.0,0.0,0.0,0.0,0.0,0.524510176818376,0.0,0.0,0.0,0.0,0.0,0.0,-44.108,0.0,0.0,0.0,0.0,0.0
44,0.0,0.1607900390625,0.0,0.0,0.0,0.0,0.0,0.0,0.335,0.0,0.0,0.0,0.0,0.0,0.0,0.5092800379311966,0.0,0.0,0.0,0.0,0.0,0.0,-42.868,0.0,0.0,0.0,0.0,0.0
45,0.0,0.164185546875,0.0,0.0,0.0,0.0,0.0,0.0,0.339,0.0,0.0,0.0,0.0,0.0,0.0,0.49251155832857385,0.0,0.0,0.0,0.0,0.0,0.0,-42.38,0.0,0.0,0.0,0.0,0.0
46,0.0,0.1677939453125,0.0,0.0,0.0,0.0,0.0,0.0,0.352,0.0,0.0,0.0,0.0,0.0,0.0,0.4738815563665258,0.0,0.0,0.0,0.0,0.0,0.0,-42.272,0.0,0.0,0.0,0.0,0.0
47,0.0,0.1713955078125,0.0,0.0,0.0,0.0,0.0,0.0,0.361,0.0,0.0,0.0,0.0,0.0,0.0,0.4561321786225976,0.0,0.0,0.0,0.0,0.0,0.0,-42.596,0.0,0.0,0.0,0.0,0.0
48,0.0,0.17489453125,0.0,0.0,0.0,0.0,0.0,0.0,0.359,0.0,0.0,0.0,0.0,0.0,0.0,0.43223951104675984,0.0,0.0,0.0,0.0,0.0,0.0,-42.22,0.0,0.0,0.0,0.0,0.0
49,0.0,0.178400390625,0.0,0.0,0.0,0.0,0.0,0.0,0.357,0.0,0.0,0.0,0.0,0.0,0.0,0.4149426036649162,0.0,0.0,0.0,0.0,0.0,0.0,-41.572,0.0,0.0,0.0,0.0,0.0
50,0.0,0.1821044921875,0.0,0.0,0.0,0.0,0.0,0.0,0.359,0.0,0.0,0.0,0.0,0.0,0.0,0.39285033509238565,0.0,0.0,0.0,0.0,0.0,0.0,-41.356,0.0,0.0,0.0,0.0,0.0
51,0.0,0.1859189453125,0.0,0.0,0.0,0.0,0.0,0.0,0.375,0.0,0.0,0.0,0.0,0.0,0.0,0.3695729235253637,0.0,0.0,0.0,0.0,0.0,0.0,-41.624,0.0,0.0,0.0,0.0,0.0
52,0.0,0.1896240234375,0.0,0.0,0.0,0.0,0.0,0.0,0.379,0.0,0.0,0.0,0.0,0.0,0.0,0.34557343724235356,0.0,0.0,0.0,0.0,0.0,0.0,-41.896,0.0,0.0,0.0,0.0,0.0
53,0.0,0.1935341796875,0.0,0.0,0.0,0.0,0.0,0.0,0.381,0.0,0.0,0.0,0.0,0.0,0.0,0.3205608702217522,0.0,0.0,0.0,0.0,0.0,0.0,-42.164,0.0,0.0,0.0,0.0,0.0
54,0.0,0.1972451171875,0.0,0.0,0.0,0.0,0.0,0.0,0.384,0.0,0.0,0.0,0.0,0.0,0.0,0.29236305499807425,0.0,0.0,0.0,0.0,0.0,0.0,-42.22,0.0,0.0,0.0,0.0,0.0
55,0.0,0.20115625,0.0,0.0,0.0,0.0,0.0,0.0,0.382,0.0,0.0,0.0,0.0,0.0,0.0,0.2677644731833986,0.0,0.0,0.0,0.0,0.0,0.0,-41.464,0.0,0.0,0.0,0.0,0.0
56,0.0,0.2050732421875,0.0,0.0,0.0,0.0,0.0,0.0,0.393,0.0,0.0,0.0,0.0,0.0,0.0,0.24110775661448597,0.0,0.0,0.0,0.0,0.0,0.0,-41.084,0.0,0.0,0.0,0.0,0.0
57,0.0,0.2090859375,0.0,0.0,0.0,0.0,0.0,0.0,0.402,0.0,0.0,0.0,0.0,0.0,0.0,0.21338880750127048,0.0,0.0,0.0,0.0,0.0,0.0,-41.516,0.0,0.0,0.0,0.0,0.0
58,0.0,0.2132021484375,0.0,0.0,0.0,0.0,0.0,0.0,0.406,0.0,0.0,0.0,0.0,0.0,0.0,0.1851068026759071,0.0,0.0,0.0,0.0,0.0,0.0,-41.948,0.0,0.0,0.0,0.0,0.0
59,0.0,0.21722265625,0.0,0.0,0.0,0.0,0.0,0.0,0.412,0.0,0.0,0.0,0.0,0.0,0.0,0.15638529074380994,0.0,0.0,0.0,0.0,0.0,0.0,-42.22,0.0,0.0,0.0,0.0,0.0
60,0.0,0.22330078125,0.0,0.0,0.0,0.0,0.0,0.0,0.324,0.0,0.0,0.0,0.0,0.0,0.0,0.11552520033740137,0.0,0.0,0.0,0.0,0.0,0.0,-57.876,0.0,0.0,0.0,0.0,0.0
61,0.0,0.22330078125,0.0,0.0,0.0,0.0,0.0,0.0,0.324,0.0,0.0,0.0,0.0,0.0,0.0,0.0969190344479261,0.0,0.0,0.0,0.0,0.0,0.0,-57.876,0.0,0.0,0.0,0.0,0.0
62,0.0,0.2244326171875,0.0,0.0,0.0,0.0,0.0,0.0,0.178,0.0,0.0,0.0,0.0,0.0,0.0,0.0651255965660027,0.0,0.0,0.0,0.0,0.0,0.0,-68.296,0.0,0.0,0.0,0.0,0.0
63,0.0,0.224638671875,0.0,0.0,0.0,0.0,0.0,0.0,0.073,0.0,0.0,0.0,0.0,0.0,0.0,0.03180461648299512,0.0,0.0,0.0,0.0,0.0,0.0,-75.152,0.0,0.0,0.0,0.0,0.0
64,0.0,0.2229921875,0.0,0.0,0.0,0.0,0.0,0.0,-0.079,0.0,0.0,0.0,0.0,0.0,0.0,-0.012087771837395735,0.0,0.0,0.0,0.0,0.0,0.0,-77.688,0.0,0.0,0.0,0.0,0.0
65,0.0,0.2176337890625,0.0,0.0,0.0,0.0,0.0,0.0,-0.263,0.0,0.0,0.0,0.0,0.0,0.0,-0.0743722544412908,0.0,0.0,0.0,0.0,0.0,0.0,-77.42,0.0,0.0,0.0,0.0,0.0
66,0.0,0.2080576171875,0.0,0.0,0.0,0.0,0.0,0.0,-0.478,0.0,0.0,0.0,0.0,0.0,0.0,-0.12330784560417228,0.0,0.0,0.0,0.0,0.0,0.0,-66.568,0.0,0.0,0.0,0.0,0.0
67,0.0,0.2032138671875,0.0,0.0,0.0,0.0,0.0,0.0,-0.506,0.0,0.0,0.0,0.0,0.0,0.0,-0.1528054710355664,0.0,0.0,0.0,0.0,0.0,0.0,-61.224,0.0,0.0,0.0,0.0,0.0
68,0.0,0.1985830078125,0.0,0.0,0.0,0.0,0.0,0.0,-0.475,0.0,0.0,0.0,0.0,0.0,0.0,-0.19167766388330007,0.0,0.0,0.0,0.0,0.0,0.0,-57.712,0.0,0.0,0.0,0.0,0.0
69,0.0,0.1935341796875,0.0,0.0,0.0,0.0,0.0,0.0,-0.484,0.0,0.0,0.0,0.0,0.0,0.0,-0.23130739818368473,0.0,0.0,0.0,0.0,0.0,0.0,-53.72,0.0,0.0,0.0,0.0,0.0
70,0.0,0.182310546875,0.0,0.0,0.0,0.0,0.0,0.0,-0.56,0.0,0.0,0.0,0.0,0.0,0.0,-0.2711580028683229,0.0,0.0,0.0,0.0,0.0,0.0,-46.32,0.0,0.0,0.0,0.0,0.0
71,0.0,0.17675390625,0.0,0.0,0.0,0.0,0.0,0.0,-0.573,0.0,0.0,0.0,0.0,0.0,0.0,-0.29507869286542704,0.0,0.0,0.0,0.0,0.0,0.0,-43.836,0.0,0.0,0.0,0.0,0.0
72,0.0,0.17675390625,0.0,0.0,0.0,0.0,0.0,0.0,-0.573,0.0,0.0,0.0,0.0,0.0,0.0,-0.3103593867268284,0.0,0.0,0.0,0.0,0.0,0.0,-43.836,0.0,0.0,0.0,0.0,0.0
73,0.0,0.1716015625,0.0,0.0,0.0,0.0,0.0,0.0,-0.542,0.0,0.0,0.0,0.0,0.0,0.0,-0.33583709579070786,0.0,0.0,0.0,0.0,0.0,0.0,-43.352,0.0,0.0,0.0,0.0,0.0
74,0.0,0.1610986328125,0.0,0.0,0.0,0.0,0.0,0.0,-0.527,0.0,0.0,0.0,0.0,0.0,0.0,-0.3698304548717823,0.0,0.0,0.0,0.0,0.0,0.0,-44.0,0.0,0.0,0.0,0.0,0.0
75,0.0,0.1553291015625,0.0,0.0,0.0,0.0,0.0,0.0,-0.558,0.0,0.0,0.0,0.0,0.0,0.0,-0.3955529858469728,0.0,0.0,0.0,0.0,0.0,0.0,-45.78,0.0,0.0,0.0,0.0,0.0
76,0.0,0.1429677734375,0.0,0.0,0.0,0.0,0.0,0.0,-0.627,0.0,0.0,0.0,0.0,0.0,0.0,-0.4337349182483103,0.0,0.0,0.0,0.0,0.0,0.0,-46.968,0.0,0.0,0.0,0.0,0.0
77,0.0,0.1429677734375,0.0,0.0,0.0,0.0,0.0,0.0,-0.627,0.0,0.0,0.0,0.0,0.0,0.0,-0.44535655034197047,0.0,0.0,0.0,0.0,0.0,0.0,-46.968,0.0,0.0,0.0,0.0,0.0
78,0.0,0.1310234375,0.0,0.0,0.0,0.0,0.0,0.0,-0.6,0.0,0.0,0.0,0.0,0.0,0.0,-0.4790255577658391,0.0,0.0,0.0,0.0,0.0,0.0,-44.972,0.0,0.0,0.0,0.0,0.0
79,0.0,0.1245341796875,0.0,0.0,0.0,0.0,0.0,0.0,-0.619,0.0,0.0,0.0,0.0,0.0,0.0,-0.49687778783104913,0.0,0.0,0.0,0.0,0.0,0.0,-46.644,0.0,0.0,0.0,0.0,0.0
80,0.0,0.1180439453125,0.0,0.0,0.0,0.0,0.0,0.0,-0.662,0.0,0.0,0.0,0.0,0.0,0.0,-0.5188547293612712,0.0,0.0,0.0,0.0,0.0,0.0,-43.296,0.0,0.0,0.0,0.0,0.0
81,0.0,0.1121787109375,0.0,0.0,0.0,0.0,0.0,0.0,-0.626,0.0,0.0,0.0,0.0,0.0,0.0,-0.5332368246629845,0.0,0.0,0.0,0.0,0.0,0.0,-36.82,0.0,0.0,0.0,0.0,0.0
82,0.0,0.106306640625,0.0,0.0,0.0,0.0,0.0,0.0,-0.588,0.0,0.0,0.0,0.0,0.0,0.0,-0.5436079129384941,0.0,0.0,0.0,0.0,0.0,0.0,-35.092,0.0,0.0,0.0,0.0,0.0
83,0.0,0.0953984375,0.0,0.0,0.0,0.0,0.0,0.0,-0.544,0.0,0.0,0.0,0.0,0.0,0.0,-0.5618989687646933,0.0,0.0,0.0,0.0,0.0,0.0,-38.276,0.0,0.0,0.0,0.0,0.0
84,0.0,0.0855126953125,0.0,0.0,0.0,0.0,0.0,0.0,-0.503,0.0,0.0,0.0,0.0,0.0,0.0,-0.5782218877506821,0.0,0.0,0.0,0.0,0.0,0.0,-31.42,0.0,0.0,0.0,0.0,0.0
85,0.0,0.080875,0.0,0.0,0.0,0.0,0.0,0.0,-0.468,0.0,0.0,0.0,0.0,0.0,0.0,-0.5865863453596758,0.0,0.0,0.0,0.0,0.0,0.0,-34.444,0.0,0.0,0.0,0.0,0.0
86,0.0,0.0764501953125,0.0,0.0,0.0,0.0,0.0,0.0,-0.463,0.0,0.0,0.0,0.0,0.0,0.0,-0.5915613318667154,0.0,0.0,0.0,0.0,0.0,0.0,-38.168,0.0,0.0,0.0,0.0,0.0
87,0.0,0.072224609375,0.0,0.0,0.0,0.0,0.0,0.0,-0.437,0.0,0.0,0.0,0.0,0.0,0.0,-0.5961616613425799,0.0,0.0,0.0,0.0,0.0,0.0,-37.576,0.0,0.0,0.0,0.0,0.0
88,0.0,0.072224609375,0.0,0.0,0.0,0.0,0.0,0.0,-0.437,0.0,0.0,0.0,0.0,0.0,0.0,-0.5975297445761758,0.0,0.0,0.0,0.0,0.0,0.0,-37.576,0.0,0.0,0.0,0.0,0.0
89,0.0,0.064396484375,0.0,0.0,0.0,0.0,0.0,0.0,-0.391,0.0,0.0,0.0,0.0,0.0,0.0,-0.5999868084117347,0.0,0.0,0.0,0.0,0.0,0.0,-35.2,0.0,0.0,0.0,0.0,0.0
90,0.0,0.0605888671875,0.0,0.0,0.0,0.0,0.0,0.0,-0.387,0.0,0.0,0.0,0.0,0.0,0.0,-0.5987466765630611,0.0,0.0,0.0,0.0,0.0,0.0,-39.844,0.0,0.0,0.0,0.0,0.0
91,0.0,0.0531728515625,0.0,0.0,0.0,0.0,0.0,0.0,-0.375,0.0,0.0,0.0,0.0,0.0,0.0,-0.5947676703799689,0.0,0.0,0.0,0.0,0.0,0.0,-40.816,0.0,0.0,0.0,0.0,0.0
92,0.0,0.0498798828125,0.0,0.0,0.0,0.0,0.0,0.0,-0.354,0.0,0.0,0.0,0.0,0.0,0.0,-0.5874345309336118,0.0,0.0,0.0,0.0,0.0,0.0,-39.248,0.0,0.0,0.0,0.0,0.0
93,0.0,0.0469921875,0.0,0.0,0.0,0.0,0.0,0.0,-0.313,0.0,0.0,0.0,0.0,0.0,0.0,-0.5807835328128332,0.0,0.0,0.0,0.0,0.0,0.0,-40.168,0.0,0.0,0.0,0.0,0.0
94,0.0,0.0440078125,0.0,0.0,0.0,0.0,0.0,0.0,-0.295,0.0,0.0,0.0,0.0,0.0,0.0,-0.5703501727788403,0.0,0.0,0.0,0.0,0.0,0.0,-42.812,0.0,0.0,0.0,0.0,0.0
95,0.0,0.0406123046875,0.0,0.0,0.0,0.0,0.0,0.0,-0.316,0.0,0.0,0.0,0.0,0.0,0.0,-0.5624497818128992,0.0,0.0,0.0,0.0,0.0,0.0,-45.728,0.0,0.0,0.0,0.0,0.0
96,0.0,0.03041796875,0.0,0.0,0.0,0.0,0.0,0.0,-0.327,0.0,0.0,0.0,0.0,0.0,0.0,-0.5307599050386189,0.0,0.0,0.0,0.0,0.0,0.0,-44.7,0.0,0.0,0.0,0.0,0.0
97,0.0,0.0247509765625,0.0,0.0,0.0,0.0,0.0,0.0,-0.295,0.0,0.0,0.0,0.0,0.0,0.0,-0.4857564594208428,0.0,0.0,0.0,0.0,0.0,0.0,-46.484,0.0,0.0,0.0,0.0,0.0
98,0.0,0.0207314453125,0.0,0.0,0.0,0.0,0.0,0.0,-0.342,0.0,0.0,0.0,0.0,0.0,0.0,-0.47017132955079766,0.0,0.0,0.0,0.0,0.0,0.0,-47.292,0.0,0.0,0.0,0.0,0.0
99,0.0,0.0168212890625,0.0,0.0,0.0,0.0,0.0,0.0,-0.386,0.0,0.0,0.0,0.0,0.0,0.0,-0.45193846510265095,0.0,0.0,0.0,0.0,0.0,0.0,-47.24,0.0,0.0,0.0,0.0,0.0
100,0.0,0.01321875,0.0,0.0,0.0,0.0,0.0,0.0,-0.382,0.0,0.0,0.0,0.0,0.0,0.0,-0.4337565543519241,0.0,0.0,0.0,0.0,0.0,0.0,-46.968,0.0,0.0,0.0,0.0,0.0
101,0.0,0.0097138671875,0.0,0.0,0.0,0.0,0.0,0.0,-0.359,0.0,0.0,0.0,0.0,0.0,0.0,-0.41471208778390456,0.0,0.0,0.0,0.0,0.0,0.0,-46.968,0.0,0.0,0.0,0.0,0.0
102,0.0,0.0028125,0.0,0.0,0.0,0.0,0.0,0.0,-0.343,0.0,0.0,0.0,0.0,0.0,0.0,-0.37208350739858154,0.0,0.0,0.0,0.0,0.0,0.0,-47.024,0.0,0.0,0.0,0.0,0.0
103,0.0,-0.001201171875,0.0,0.0,0.0,0.0,0.0,0.0,-0.379,0.0,0.0,0.0,0.0,0.0,0.0,-0.3540729511353202,0.0,0.0,0.0,0.0,0.0,0.0,-46.32,0.0,0.0,0.0,0.0,0.0
104,0.0,-0.0094404296875,0.0,0.0,0.0,0.0,0.0,0.0,-0.417,0.0,0.0,0.0,0.0,0.0,0.0,-0.30809011798747005,0.0,0.0,0.0,0.0,0.0,0.0,-46.86,0.0,0.0,0.0,0.0,0.0
105,0.0,-0.013248046875,0.0,0.0,0.0,0.0,0.0,0.0,-0.398,0.0,0.0,0.0,0.0,0.0,0.0,-0.2788516479304099,0.0,0.0,0.0,0.0,0.0,0.0,-46.86,0.0,0.0,0.0,0.0,0.0
106,0.0,-0.013248046875,0.0,0.0,0.0,0.0,0.0,0.0,-0.398,0.0,0.0,0.0,0.0,0.0,0.0,-0.26210808677578873,0.0,0.0,0.0,0.0,0.0,0.0,-46.86,0.0,0.0,0.0,0.0,0.0
107,0.0,-0.0170615234375,0.0,0.0,0.0,0.0,0.0,0.0,-0.386,0.0,0.0,0.0,0.0,0.0,0.0,-0.24372743119486392,0.0,0.0,0.0,0.0,0.0,0.0,-46.808,0.0,0.0,0.0,0.0,0.0
108,0.0,-0.0210751953125,0.0,0.0,0.0,0.0,0.0,0.0,-0.389,0.0,0.0,0.0,0.0,0.0,0.0,-0.22327660468872615,0.0,0.0,0.0,0.0,0.0,0.0,-46.052,0.0,0.0,0.0,0.0,0.0
109,0.0,-0.02530078125,0.0,0.0,0.0,0.0,0.0,0.0,-0.41,0.0,0.0,0.0,0.0,0.0,0.0,-0.1947802075592432,0.0,0.0,0.0,0.0,0.0,0.0,-45.404,0.0,0.0,0.0,0.0,0.0
110,0.0,-0.0298291015625,0.0,0.0,0.0,0.0,0.0,0.0,-0.438,0.0,0.0,0.0,0.0,0.0,0.0,-0.15546248969174312,0.0,0.0,0.0,0.0,0.0,0.0,-45.348,0.0,0.0,0.0,0.0,0.0
111,0.0,-0.03374609375,0.0,0.0,0.0,0.0,0.0,0.0,-0.45,0.0,0.0,0.0,0.0,0.0,0.0,-0.13732400174447087,0.0,0.0,0.0,0.0,0.0,0.0,-45.404,0.0,0.0,0.0,0.0,0.0
112,0.0,-0.0378623046875,0.0,0.0,0.0,0.0,0.0,0.0,-0.43,0.0,0.0,0.0,0.0,0.0,0.0,-0.10783072573503132,0.0,0.0,0.0,0.0,0.0,0.0,-44.756,0.0,0.0,0.0,0.0,0.0
113,0.0,-0.0422939453125,0.0,0.0,0.0,0.0,0.0,0.0,-0.41,0.0,0.0,0.0,0.0,0.0,0.0,-0.07847330499606538,0.0,0.0,0.0,0.0,0.0,0.0,-44.592,0.0,0.0,0.0,0.0,0.0
114,0.0,-0.0458955078125,0.0,0.0,0.0,0.0,0.0,0.0,-0.402,0.0,0.0,0.0,0.0,0.0,0.0,-0.047643652181609486,0.0,0.0,0.0,0.0,0.0,0.0,-44.052,0.0,0.0,0.0,0.0,0.0
115,0.0,-0.050533203125,0.0,0.0,0.0,0.0,0.0,0.0,-0.415,0.0,0.0,0.0,0.0,0.0,0.0,-0.007853894041126465,0.0,0.0,0.0,0.0,0.0,0.0,-43.784,0.0,0.0,0.0,0.0,0.0
116,0.0,-0.0546494140625,0.0,0.0,0.0,0.0,0.0,0.0,-0.439,0.0,0.0,0.0,0.0,0.0,0.0,0.019427346079534617,0.0,0.0,0.0,0.0,0.0,0.0,-43.192,0.0,0.0,0.0,0.0,0.0
117,0.0,-0.0596982421875,0.0,0.0,0.0,0.0,0.0,0.0,-0.244,0.0,0.0,0.0,0.0,0.0,0.0,4.863739008345189e-05,0.0,0.0,0.0,0.0,0.0,0.0,-20.676,0.0,0.0,0.0,0.0,0.0
118,0.0,-0.060109375,0.0,0.0,0.0,0.0,0.0,0.0,-0.118,0.0,0.0,0.0,0.0,0.0,0.0,0.025879220011236957,0.0,0.0,0.0,0.0,0.0,0.0,-15.168,0.0,0.0,0.0,0.0,0.0
119,0.0,-0.0594921875,0.0,0.0,0.0,0.0,0.0,0.0,-0.009,0.0,0.0,0.0,0.0,0.0,0.0,0.07900592048342484,0.0,0.0,0.0,0.0,0.0,0.0,-12.524,0.0,0.0,0.0,0.0,0.0
120,0.0,-0.05856640625,0.0,0.0,0.0,0.0,0.0,0.0,0.089,0.0,0.0,0.0,0.0,0.0,0.0,0.09534537807500586,0.0,0.0,0.0,0.0,0.0,0.0,-11.552,0.0,0.0,0.0,0.0,0.0
121,0.0,-0.0572216796875,0.0,0.0,0.0,0.0,0.0,0.0,0.091,0.0,0.0,0.0,0.0,0.0,0.0,0.1185018058497581,0.0,0.0,0.0,0.0,0.0,0.0,-9.392,0.0,0.0,0.0,0.0,0.0
122,0.0,-0.050533203125,0.0,0.0,0.0,0.0,0.0,0.0,0.328,0.0,0.0,0.0,0.0,0.0,0.0,0.17459655958732467,0.0,0.0,0.0,0.0,0.0,0.0,-11.388,0.0,0.0,0.0,0.0,0.0
123,0.0,-0.050533203125,0.0,0.0,0.0,0.0,0.0,0.0,0.328,0.0,0.0,0.0,0.0,0.0,0.0,0.19057044426725991,0.0,0.0,0.0,0.0,0.0,0.0,-11.388,0.0,0.0,0.0,0.0,0.0
124,0.0,-0.03940625,0.0,0.0,0.0,0.0,0.0,0.0,0.567,0.0,0.0,0.0,0.0,0.0,0.0,0.248755654279767,0.0,0.0,0.0,0.0,0.0,0.0,-18.356,0.0,0.0,0.0,0.0,0.0
125,0.0,-0.0339521484375,0.0,0.0,0.0,0.0,0.0,0.0,0.562,0.0,0.0,0.0,0.0,0.0,0.0,0.27631975913113943,0.0,0.0,0.0,0.0,0.0,0.0,-20.408,0.0,0.0,0.0,0.0,0.0
126,0.0,-0.02220703125,0.0,0.0,0.0,0.0,0.0,0.0,0.588,0.0,0.0,0.0,0.0,0.0,0.0,0.32509168281831025,0.0,0.0,0.0,0.0,0.0,0.0,-32.284,0.0,0.0,0.0,0.0,0.0
127,0.0,-0.0159296875,0.0,0.0,0.0,0.0,0.0,0.0,0.587,0.0,0.0,0.0,0.0,0.0,0.0,0.3424899687742417,0.0,0.0,0.0,0.0,0.0,0.0,-35.684,0.0,0.0,0.0,0.0,0.0
128,0.0,-0.0086171875,0.0,0.0,0.0,0.0,0.0,0.0,0.687,0.0,0.0,0.0,0.0,0.0,0.0,0.3569251638684517,0.0,0.0,0.0,0.0,0.0,0.0,-35.684,0.0,0.0,0.0,0.0,0.0
129,0.0,0.0047744140625,0.0,0.0,0.0,0.0,0.0,0.0,0.709,0.0,0.0,0.0,0.0,0.0,0.0,0.4097579006573345,0.0,0.0,0.0,0.0,0.0,0.0,-42.436,0.0,0.0,0.0,0.0,0.0
130,0.0,0.0047744140625,0.0,0.0,0.0,0.0,0.0,0.0,0.709,0.0,0.0,0.0,0.0,0.0,0.0,0.42273304184951105,0.0,0.0,0.0,0.0,0.0,0.0,-42.436,0.0,0.0,0.0,0.0,0.0
131,0.0,0.0116689453125,0.0,0.0,0.0,0.0,0.0,0.0,0.672,0.0,0.0,0.0,0.0,0.0,0.0,0.43547561285151803,0.0,0.0,0.0,0.0,0.0,0.0,-47.456,0.0,0.0,0.0,0.0,0.0
132,0.0,0.0250595703125,0.0,0.0,0.0,0.0,0.0,0.0,0.676,0.0,0.0,0.0,0.0,0.0,0.0,0.47361033717897505,0.0,0.0,0.0,0.0,0.0,0.0,-43.244,0.0,0.0,0.0,0.0,0.0
133,0.0,0.0314462890625,0.0,0.0,0.0,0.0,0.0,0.0,0.672,0.0,0.0,0.0,0.0,0.0,0.0,0.48528754096077964,0.0,0.0,0.0,0.0,0.0,0.0,-49.56,0.0,0.0,0.0,0.0,0.0
134,0.0,0.0314462890625,0.0,0.0,0.0,0.0,0.0,0.0,0.672,0.0,0.0,0.0,0.0,0.0,0.0,0.4960668482725318,0.0,0.0,0.0,0.0,0.0,0.0,-49.56,0.0,0.0,0.0,0.0,0.0
135,0.0,0.0379296875,0.0,0.0,0.0,0.0,0.0,0.0,0.643,0.0,0.0,0.0,0.0,0.0,0.0,0.5122702698825358,0.0,0.0,0.0,0.0,0.0,0.0,-54.796,0.0,0.0,0.0,0.0,0.0
136,0.0,0.04431640625,0.0,0.0,0.0,0.0,0.0,0.0,0.654,0.0,0.0,0.0,0.0,0.0,0.0,0.5196206153476277,0.0,0.0,0.0,0.0,0.0,0.0,-52.964,0.0,0.0,0.0,0.0,0.0
137,0.0,0.04431640625,0.0,0.0,0.0,0.0,0.0,0.0,0.654,0.0,0.0,0.0,0.0,0.0,0.0,0.528277094687469,0.0,0.0,0.0,0.0,0.0,0.0,-52.964,0.0,0.0,0.0,0.0,0.0
138,0.0,0.0499833984375,0.0,0.0,0.0,0.0,0.0,0.0,0.607,0.0,0.0,0.0,0.0,0.0,0.0,0.5418538124347537,0.0,0.0,0.0,0.0,0.0,0.0,-50.64,0.0,0.0,0.0,0.0,0.0
139,0.0,0.060486328125,0.0,0.0,0.0,0.0,0.0,0.0,0.562,0.0,0.0,0.0,0.0,0.0,0.0,0.5588684226615649,0.0,0.0,0.0,0.0,0.0,0.0,-59.496,0.0,0.0,0.0,0.0,0.0
140,0.0,0.060486328125,0.0,0.0,0.0,0.0,0.0,0.0,0.562,0.0,0.0,0.0,0.0,0.0,0.0,0.5660268222777776,0.0,0.0,0.0,0.0,0.0,0.0,-59.496,0.0,0.0,0.0,0.0,0.0
141,0.0,0.0664609375,0.0,0.0,0.0,0.0,0.0,0.0,0.546,0.0,0.0,0.0,0.0,0.0,0.0,0.5742831285313061,0.0,0.0,0.0,0.0,0.0,0.0,-57.012,0.0,0.0,0.0,0.0,0.0
142,0.0,0.075935546875,0.0,0.0,0.0,0.0,0.0,0.0,0.487,0.0,0.0,0.0,0.0,0.0,0.0,0.5875480224199676,0.0,0.0,0.0,0.0,0.0,0.0,-57.444,0.0,0.0,0.0,0.0,0.0
143,0.0,0.0796396484375,0.0,0.0,0.0,0.0,0.0,0.0,0.422,0.0,0.0,0.0,0.0,0.0,0.0,0.5915516377758833,0.0,0.0,0.0,0.0,0.0,0.0,-58.956,0.0,0.0,0.0,0.0,0.0
144,0.0,0.0838662109375,0.0,0.0,0.0,0.0,0.0,0.0,0.421,0.0,0.0,0.0,0.0,0.0,0.0,0.5946942887919255,0.0,0.0,0.0,0.0,0.0,0.0,-57.388,0.0,0.0,0.0,0.0,0.0
145,0.0,0.0877763671875,0.0,0.0,0.0,0.0,0.0,0.0,0.407,0.0,0.0,0.0,0.0,0.0,0.0,0.5992505700213332,0.0,0.0,0.0,0.0,0.0,0.0,-52.532,0.0,0.0,0.0,0.0,0.0
146,0.0,0.091892578125,0.0,0.0,0.0,0.0,0.0,0.0,0.404,0.0,0.0,0.0,0.0,0.0,0.0,0.5998771514860957,0.0,0.0,0.0,0.0,0.0,0.0,-51.504,0.0,0.0,0.0,0.0,0.0
147,0.0,0.091892578125,0.0,0.0,0.0,0.0,0.0,0.0,0.404,0.0,0.0,0.0,0.0,0.0,0.0,0.59998817080579,0.0,0.0,0.0,0.0,0.0,0.0,-51.504,0.0,0.0,0.0,0.0,0.0
148,0.0,0.097970703125,0.0,0.0,0.0,0.0,0.0,0.0,0.301,0.0,0.0,0.0,0.0,0.0,0.0,0.5972097002651929,0.0,0.0,0.0,0.0,0.0,0.0,-54.04,0.0,0.0,0.0,0.0,0.0
149,0.0,0.1104287109375,0.0,0.0,0.0,0.0,0.0,0.0,0.343,0.0,0.0,0.0,0.0,0.0,0.0,0.5744508516110121,0.0,0.0,0.0,0.0,0.0,0.0,-45.188,0.0,0.0,0.0,0.0,0.0
150,0.0,0.1154716796875,0.0,0.0,0.0,0.0,0.0,0.0,0.27,0.0,0.0,0.0,0.0,0.0,0.0,0.5531227674206793,0.0,0.0,0.0,0.0,0.0,0.0,-44.756,0.0,0.0,0.0,0.0,0.0
151,0.0,0.1211376953125,0.0,0.0,0.0,0.0,0.0,0.0,0.274,0.0,0.0,0.0,0.0,0.0,0.0,0.5237522849365445,0.0,0.0,0.0,0.0,0.0,0.0,-40.868,0.0,0.0,0.0,0.0,0.0
152,0.0,0.1310234375,0.0,0.0,0.0,0.0,0.0,0.0,0.322,0.0,0.0,0.0,0.0,0.0,0.0,0.4783903382236542,0.0,0.0,0.0,0.0,0.0,0.0,-40.544,0.0,0.0,0.0,0.0,0.0
153,0.0,0.1340078125,0.0,0.0,0.0,0.0,0.0,0.0,0.31,0.0,0.0,0.0,0.0,0.0,0.0,0.4648356007701463,0.0,0.0,0.0,0.0,0.0,0.0,-40.112,0.0,0.0,0.0,0.0,0.0
154,0.0,0.137095703125,0.0,0.0,0.0,0.0,0.0,0.0,0.302,0.0,0.0,0.0,0.0,0.0,0.0,0.44372801807915047,0.0,0.0,0.0,0.0,0.0,0.0,-39.356,0.0,0.0,0.0,0.0,0.0
155,0.0,0.140806640625,0.0,0.0,0.0,0.0,0.0,0.0,0.336,0.0,0.0,0.0,0.0,0.0,0.0,0.41474107106630614,0.0,0.0,0.0,0.0,0.0,0.0,-39.844,0.0,0.0,0.0,0.0,0.0
156,0.0,0.1446201171875,0.0,0.0,0.0,0.0,0.0,0.0,0.364,0.0,0.0,0.0,0.0,0.0,0.0,0.4019744889546368,0.0,0.0,0.0,0.0,0.0,0.0,-40.276,0.0,0.0,0.0,0.0,0.0
157,0.0,0.147919921875,0.0,0.0,0.0,0.0,0.0,0.0,0.355,0.0,0.0,0.0,0.0,0.0,0.0,0.38804132461329316,0.0,0.0,0.0,0.0,0.0,0.0,-40.004,0.0,0.0,0.0,0.0,0.0
158,0.0,0.147919921875,0.0,0.0,0.0,0.0,0.0,0.0,0.355,0.0,0.0,0.0,0.0,0.0,0.0,0.37525764732631267,0.0,0.0,0.0,0.0,0.0,0.0,-40.004,0.0,0.0,0.0,0.0,0.0
159,0.0,0.151625,0.0,0.0,0.0,0.0,0.0,0.0,0.368,0.0,0.0,0.0,0.0,0.0,0.0,0.36203726356092175,0.0,0.0,0.0,0.0,0.0,0.0,-39.196,0.0,0.0,0.0,0.0,0.0
160,0.0,0.1552265625,0.0,0.0,0.0,0.0,0.0,0.0,0.365,0.0,0.0,0.0,0.0,0.0,0.0,0.34412243950442084,0.0,0.0,0.0,0.0,0.0,0.0,-38.332,0.0,0.0,0.0,0.0,0.0
161,0.0,0.1595546875,0.0,0.0,0.0,0.0,0.0,0.0,0.376,0.0,0.0,0.0,0.0,0.0,0.0,0.30567101905989436,0.0,0.0,0.0,0.0,0.0,0.0,-38.98,0.0,0.0,0.0,0.0,0.0
162,0.0,0.1634658203125,0.0,0.0,0.0,0.0,0.0,0.0,0.397,0.0,0.0,0.0,0.0,0.0,0.0,0.28911393962723203,0.0,0.0,0.0,0.0,0.0,0.0,-39.952,0.0,0.0,0.0,0.0,0.0
163,0.0,0.16707421875,0.0,0.0,0.0,0.0,0.0,0.0,0.397,0.0,0.0,0.0,0.0,0.0,0.0,0.26640793229182164,0.0,0.0,0.0,0.0,0.0,0.0,-40.22,0.0,0.0,0.0,0.0,0.0
164,0.0,0.171705078125,0.0,0.0,0.0,0.0,0.0,0.0,0.415,0.0,0.0,0.0,0.0,0.0,0.0,0.2243046333382617,0.0,0.0,0.0,0.0,0.0,0.0,-40.6,0.0,0.0,0.0,0.0,0.0
165,0.0,0.175416015625,0.0,0.0,0.0,0.0,0.0,0.0,0.42,0.0,0.0,0.0,0.0,0.0,0.0,0.207058148843368,0.0,0.0,0.0,0.0,0.0,0.0,-40.22,0.0,0.0,0.0,0.0,0.0
166,0.0,0.17973828125,0.0,0.0,0.0,0.0,0.0,0.0,0.423,0.0,0.0,0.0,0.0,0.0,0.0,0.18251611453914116,0.0,0.0,0.0,0.0,0.0,0.0,-40.708,0.0,0.0,0.0,0.0,0.0
167,0.0,0.1841630859375,0.0,0.0,0.0,0.0,0.0,0.0,0.443,0.0,0.0,0.0,0.0,0.0,0.0,0.1388400645737477,0.0,0.0,0.0,0.0,0.0,0.0,-42.112,0.0,0.0,0.0,0.0,0.0
168,0.0,0.188697265625,0.0,0.0,0.0,0.0,0.0,0.0,0.434,0.0,0.0,0.0,0.0,0.0,0.0,0.12099613321309052,0.0,0.0,0.0,0.0,0.0,0.0,-46.32,0.0,0.0,0.0,0.0,0.0
169,0.0,0.1911669921875,0.0,0.0,0.0,0.0,0.0,0.0,0.366,0.0,0.0,0.0,0.0,0.0,0.0,0.09602742039915811,0.0,0.0,0.0,0.0,0.0,0.0,-55.284,0.0,0.0,0.0,0.0,0.0
170,0.0,0.1935341796875,0.0,0.0,0.0,0.0,0.0,0.0,0.265,0.0,0.0,0.0,0.0,0.0,0.0,0.048939820487491355,0.0,0.0,0.0,0.0,0.0,0.0,-60.792,0.0,0.0,0.0,0.0,0.0
171,0.0,0.194775390625,0.0,0.0,0.0,0.0,0.0,0.0,0.195,0.0,0.0,0.0,0.0,0.0,0.0,0.03128034475584264,0.0,0.0,0.0,0.0,0.0,0.0,-67.484,0.0,0.0,0.0,0.0,0.0
172,0.0,0.1949814453125,0.0,0.0,0.0,0.0,0.0,0.0,0.062,0.0,0.0,0.0,0.0,0.0,0.0,0.0033644929022208013,0.0,0.0,0.0,0.0,0.0,0.0,-70.564,0.0,0.0,0.0,0.0,0.0
173,0.0,0.1949814453125,0.0,0.0,0.0,0.0,0.0,0.0,0.062,0.0,0.0,0.0,0.0,0.0,0.0,-0.026578838344875844,0.0,0.0,0.0,0.0,0.0,0.0,-70.564,0.0,0.0,0.0,0.0,0.0
174,0.0,0.194048828125,0.0,0.0,0.0,0.0,0.0,0.0,-0.031,0.0,0.0,0.0,0.0,0.0,0.0,-0.05351081370391495,0.0,0.0,0.0,0.0,0.0,0.0,-74.668,0.0,0.0,0.0,0.0,0.0
175,0.0,0.1921962890625,0.0,0.0,0.0,0.0,0.0,0.0,-0.152,0.0,0.0,0.0,0.0,0.0,0.0,-0.08336220625288455,0.0,0.0,0.0,0.0,0.0,0.0,-73.748,0.0,0.0,0.0,0.0,0.0
176,0.0,0.1921962890625,0.0,0.0,0.0,0.0,0.0,0.0,-0.152,0.0,0.0,0.0,0.0,0.0,0.0,-0.11355239744797434,0.0,0.0,0.0,0.0,0.0,0.0,-73.748,0.0,0.0,0.0,0.0,0.0
177,0.0,0.185712890625,0.0,0.0,0.0,0.0,0.0,0.0,-0.322,0.0,0.0,0.0,0.0,0.0,0.0,-0.14829605581618954,0.0,0.0,0.0,0.0,0.0,0.0,-65.812,0.0,0.0,0.0,0.0,0.0
178,0.0,0.182310546875,0.0,0.0,0.0,0.0,0.0,0.0,-0.359,0.0,0.0,0.0,0.0,0.0,0.0,-0.1712652441786064,0.0,0.0,0.0,0.0,0.0,0.0,-61.872,0.0,0.0,0.0,0.0,0.0
179,0.0,0.182310546875,0.0,0.0,0.0,0.0,0.0,0.0,-0.359,0.0,0.0,0.0,0.0,0.0,0.0,-0.2003939143118076,0.0,0.0,0.0,0.0,0.0,0.0,-61.872,0.0,0.0,0.0,0.0,0.0
180,0.0,0.174689453125,0.0,0.0,0.0,0.0,0.0,0.0,-0.383,0.0,0.0,0.0,0.0,0.0,0.0,-0.22788702029550092,0.0,0.0,0.0,0.0,0.0,0.0,-55.876,0.0,0.0,0.0,0.0,0.0
181,0.0,0.174689453125,0.0,0.0,0.0,0.0,0.0,0.0,-0.383,0.0,0.0,0.0,0.0,0.0,0.0,-0.2553587289439536,0.0,0.0,0.0,0.0,0.0,0.0,-55.876,0.0,0.0,0.0,0.0,0.0
182,0.0,0.1661474609375,0.0,0.0,0.0,0.0,0.0,0.0,-0.424,0.0,0.0,0.0,0.0,0.0,0.0,-0.2820594822529596,0.0,0.0,0.0,0.0,0.0,0.0,-49.236,0.0,0.0,0.0,0.0,0.0
183,0.0,0.1617158203125,0.0,0.0,0.0,0.0,0.0,0.0,-0.453,0.0,0.0,0.0,0.0,0.0,0.0,-0.30832345037403974,0.0,0.0,0.0,0.0,0.0,0.0,-46.808,0.0,0.0,0.0,0.0,0.0
184,0.0,0.1617158203125,0.0,0.0,0.0,0.0,0.0,0.0,-0.453,0.0,0.0,0.0,0.0,0.0,0.0,-0.33342139578796304,0.0,0.0,0.0,0.0,0.0,0.0,-46.808,0.0,0.0,0.0,0.0,0.0
185,0.0,0.152962890625,0.0,0.0,0.0,0.0,0.0,0.0,-0.444,0.0,0.0,0.0,0.0,0.0,0.0,-0.35873946519011285,0.0,0.0,0.0,0.0,0.0,0.0,-45.888,0.0,0.0,0.0,0.0,0.0
186,0.0,0.152962890625,0.0,0.0,0.0,0.0,0.0,0.0,-0.444,0.0,0.0,0.0,0.0,0.0,0.0,-0.3817132664644311,0.0,0.0,0.0,0.0,0.0,0.0,-45.888,0.0,0.0,0.0,0.0,0.0
187,0.0,0.143796875,0.0,0.0,0.0,0.0,0.0,0.0,-0.45,0.0,0.0,0.0,0.0,0.0,0.0,-0.40425735579434974,0.0,0.0,0.0,0.0,0.0,0.0,-46.212,0.0,0.0,0.0,0.0,0.0
188,0.0,0.1386455078125,0.0,0.0,0.0,0.0,0.0,0.0,-0.5,0.0,0.0,0.0,0.0,0.0,0.0,-0.4261943638609852,0.0,0.0,0.0,0.0,0.0,0.0,-46.268,0.0,0.0,0.0,0.0,0.0
189,0.0,0.1386455078125,0.0,0.0,0.0,0.0,0.0,0.0,-0.5,0.0,0.0,0.0,0.0,0.0,0.0,-0.44659485918776826,0.0,0.0,0.0,0.0,0.0,0.0,-46.268,0.0,0.0,0.0,0.0,0.0
190,0.0,0.128033203125,0.0,0.0,0.0,0.0,0.0,0.0,-0.528,0.0,0.0,0.0,0.0,0.0,0.0,-0.46618540128680014,0.0,0.0,0.0,0.0,0.0,0.0,-49.668,0.0,0.0,0.0,0.0,0.0
191,0.0,0.12226953125,0.0,0.0,0.0,0.0,0.0,0.0,-0.571,0.0,0.0,0.0,0.0,0.0,0.0,-0.48444369154293776,0.0,0.0,0.0,0.0,0.0,0.0,-50.532,0.0,0.0,0.0,0.0,0.0
192,0.0,0.1160888671875,0.0,0.0,0.0,0.0,0.0,0.0,-0.595,0.0,0.0,0.0,0.0,0.0,0.0,-0.5018567647597734,0.0,0.0,0.0,0.0,0.0,0.0,-51.668,0.0,0.0,0.0,0.0,0.0
193,0.0,0.1093935546875,0.0,0.0,0.0,0.0,0.0,0.0,-0.65,0.0,0.0,0.0,0.0,0.0,0.0,-0.5173446912899633,0.0,0.0,0.0,0.0,0.0,0.0,-52.584,0.0,0.0,0.0,0.0,0.0
194,0.0,0.1027109375,0.0,0.0,0.0,0.0,0.0,0.0,-0.672,0.0,0.0,0.0,0.0,0.0,0.0,-0.5318049606762113,0.0,0.0,0.0,0.0,0.0,0.0,-51.884,0.0,0.0,0.0,0.0,0.0
195,0.0,0.095603515625,0.0,0.0,0.0,0.0,0.0,0.0,-0.687,0.0,0.0,0.0,0.0,0.0,0.0,-0.5455536729376168,0.0,0.0,0.0,0.0,0.0,0.0,-51.504,0.0,0.0,0.0,0.0,0.0
196,0.0,0.095603515625,0.0,0.0,0.0,0.0,0.0,0.0,-0.687,0.0,0.0,0.0,0.0,0.0,0.0,-0.5568379601028343,0.0,0.0,0.0,0.0,0.0,0.0,-51.504,0.0,0.0,0.0,0.0,0.0
197,0.0,0.0821103515625,0.0,0.0,0.0,0.0,0.0,0.0,-0.677,0.0,0.0,0.0,0.0,0.0,0.0,-0.5673901297812443,0.0,0.0,0.0,0.0,0.0,0.0,-44.7,0.0,0.0,0.0,0.0,0.0
198,0.0,0.0821103515625,0.0,0.0,0.0,0.0,0.0,0.0,-0.677,0.0,0.0,0.0,0.0,0.0,0.0,-0.5764914522838033,0.0,0.0,0.0,0.0,0.0,0.0,-44.7,0.0,0.0,0.0,0.0,0.0
199,0.0,0.0682109375,0.0,0.0,0.0,0.0,0.0,0.0,-0.708,0.0,0.0,0.0,0.0,0.0,0.0,-0.5839984118257762,0.0,0.0,0.0,0.0,0.0,0.0,-41.84,0.0,0.0,0.0,0.0,0.0
200,0.0,0.0619267578125,0.0,0.0,0.0,0.0,0.0,0.0,-0.67,0.0,0.0,0.0,0.0,0.0,0.0,-0.5902471657522883,0.0,0.0,0.0,0.0,0.0,0.0,-37.088,0.0,0.0,0.0,0.0,0.0
201,0.0,0.0556435546875,0.0,0.0,0.0,0.0,0.0,0.0,-0.637,0.0,0.0,0.0,0.0,0.0,0.0,-0.5948896930103788,0.0,0.0,0.0,0.0,0.0,0.0,-32.824,0.0,0.0,0.0,0.0,0.0
202,0.0,0.0498798828125,0.0,0.0,0.0,0.0,0.0,0.0,-0.618,0.0,0.0,0.0,0.0,0.0,0.0,-0.5980306534591513,0.0,0.0,0.0,0.0,0.0,0.0,-33.364,0.0,0.0,0.0,0.0,0.0
203,0.0,0.044419921875,0.0,0.0,0.0,0.0,0.0,0.0,-0.56,0.0,0.0,0.0,0.0,0.0,0.0,-0.5997087735915346,0.0,0.0,0.0,0.0,0.0,0.0,-35.144,0.0,0.0,0.0,0.0,0.0
204,0.0,0.044419921875,0.0,0.0,0.0,0.0,0.0,0.0,-0.56,0.0,0.0,0.0,0.0,0.0,0.0,-0.5998936747412518,0.0,0.0,0.0,0.0,0.0,0.0,-35.144,0.0,0.0,0.0,0.0,0.0
205,0.0,0.0385537109375,0.0,0.0,0.0,0.0,0.0,0.0,-0.549,0.0,0.0,0.0,0.0,0.0,0.0,-0.5985711708886439,0.0,0.0,0.0,0.0,0.0,0.0,-32.552,0.0,0.0,0.0,0.0,0.0
206,0.0,0.029697265625,0.0,0.0,0.0,0.0,0.0,0.0,-0.466,0.0,0.0,0.0,0.0,0.0,0.0,-0.5957377390796866,0.0,0.0,0.0,0.0,0.0,0.0,-33.848,0.0,0.0,0.0,0.0,0.0
207,0.0,0.029697265625,0.0,0.0,0.0,0.0,0.0,0.0,-0.466,0.0,0.0,0.0,0.0,0.0,0.0,-0.5914912320054979,0.0,0.0,0.0,0.0,0.0,0.0,-33.848,0.0,0.0,0.0,0.0,0.0
208,0.0,0.020833984375,0.0,0.0,0.0,0.0,0.0,0.0,-0.447,0.0,0.0,0.0,0.0,0.0,0.0,-0.5857040419761571,0.0,0.0,0.0,0.0,0.0,0.0,-37.304,0.0,0.0,0.0,0.0,0.0
209,0.0,0.016923828125,0.0,0.0,0.0,0.0,0.0,0.0,-0.405,0.0,0.0,0.0,0.0,0.0,0.0,-0.5783909007702769,0.0,0.0,0.0,0.0,0.0,0.0,-33.472,0.0,0.0,0.0,0.0,0.0
210,0.0,0.016923828125,0.0,0.0,0.0,0.0,0.0,0.0,-0.405,0.0,0.0,0.0,0.0,0.0,0.0,-0.5695286151732528,0.0,0.0,0.0,0.0,0.0,0.0,-33.472,0.0,0.0,0.0,0.0,0.0
211,0.0,0.0094052734375,0.0,0.0,0.0,0.0,0.0,0.0,-0.374,0.0,0.0,0.0,0.0,0.0,0.0,-0.5594904729376419,0.0,0.0,0.0,0.0,0.0,0.0,-37.9,0.0,0.0,0.0,0.0,0.0
212,0.0,0.00559765625,0.0,0.0,0.0,0.0,0.0,0.0,-0.38,0.0,0.0,0.0,0.0,0.0,0.0,-0.5481399522343327,0.0,0.0,0.0,0.0,0.0,0.0,-41.356,0.0,0.0,0.0,0.0,0.0
213,0.0,0.0019892578125,0.0,0.0,0.0,0.0,0.0,0.0,-0.38,0.0,0.0,0.0,0.0,0.0,0.0,-0.5350533196823599,0.0,0.0,0.0,0.0,0.0,0.0,-41.3,0.0,0.0,0.0,0.0,0.0
214,0.0,-0.0013037109375,0.0,0.0,0.0,0.0,0.0,0.0,-0.354,0.0,0.0,0.0,0.0,0.0,0.0,-0.5210766793441248,0.0,0.0,0.0,0.0,0.0,0.0,-38.224,0.0,0.0,0.0,0.0,0.0
215,0.0,-0.004185546875,0.0,0.0,0.0,0.0,0.0,0.0,-0.314,0.0,0.0,0.0,0.0,0.0,0.0,-0.5054294966453311,0.0,0.0,0.0,0.0,0.0,0.0,-38.116,0.0,0.0,0.0,0.0,0.0
216,0.0,-0.006970703125,0.0,0.0,0.0,0.0,0.0,0.0,-0.285,0.0,0.0,0.0,0.0,0.0,0.0,-0.4883005106405398,0.0,0.0,0.0,0.0,0.0,0.0,-40.816,0.0,0.0,0.0,0.0,0.0
217,0.0,-0.0100576171875,0.0,0.0,0.0,0.0,0.0,0.0,-0.287,0.0,0.0,0.0,0.0,0.0,0.0,-0.47075772845812397,0.0,0.0,0.0,0.0,0.0,0.0,-44.756,0.0,0.0,0.0,0.0,0.0
218,0.0,-0.0100576171875,0.0,0.0,0.0,0.0,0.0,0.0,-0.287,0.0,0.0,0.0,0.0,0.0,0.0,-0.45160050645029376,0.0,0.0,0.0,0.0,0.0,0.0,-44.756,0.0,0.0,0.0,0.0,0.0
219,0.0,-0.0139677734375,0.0,0.0,0.0,0.0,0.0,0.0,-0.336,0.0,0.0,0.0,0.0,0.0,0.0,-0.43119239001676957,0.0,0.0,0.0,0.0,0.0,0.0,-46.916,0.0,0.0,0.0,0.0,0.0
220,0.0,-0.0173701171875,0.0,0.0,0.0,0.0,0.0,0.0,-0.357,0.0,0.0,0.0,0.0,0.0,0.0,-0.40957544202054746,0.0,0.0,0.0,0.0,0.0,0.0,-46.536,0.0,0.0,0.0,0.0,0.0
221,0.0,-0.02293359375,0.0,0.0,0.0,0.0,0.0,0.0,-0.297,0.0,0.0,0.0,0.0,0.0,0.0,-0.3875369741920367,0.0,0.0,0.0,0.0,0.0,0.0,-45.024,0.0,0.0,0.0,0.0,0.0
222,0.0,-0.02293359375,0.0,0.0,0.0,0.0,0.0,0.0,-0.297,0.0,0.0,0.0,0.0,0.0,0.0,-0.3640684705364175,0.0,0.0,0.0,0.0,0.0,0.0,-45.024,0.0,0.0,0.0,0.0,0.0
223,0.0,-0.0292119140625,0.0,0.0,0.0,0.0,0.0,0.0,-0.313,0.0,0.0,0.0,0.0,0.0,0.0,-0.33996774956715264,0.0,0.0,0.0,0.0,0.0,0.0,-47.24,0.0,0.0,0.0,0.0,0.0
224,0.0,-0.0292119140625,0.0,0.0,0.0,0.0,0.0,0.0,-0.313,0.0,0.0,0.0,0.0,0.0,0.0,-0.3144889815665871,0.0,0.0,0.0,0.0,0.0,0.0,-47.24,0.0,0.0,0.0,0.0,0.0
225,0.0,-0.0334375,0.0,0.0,0.0,0.0,0.0,0.0,-0.368,0.0,0.0,0.0,0.0,0.0,0.0,-0.28845809595089117,0.0,0.0,0.0,0.0,0.0,0.0,-47.564,0.0,0.0,0.0,0.0,0.0
226,0.0,-0.0371416015625,0.0,0.0,0.0,0.0,0.0,0.0,-0.379,0.0,0.0,0.0,0.0,0.0,0.0,-0.2619053978602548,0.0,0.0,0.0,0.0,0.0,0.0,-47.564,0.0,0.0,0.0,0.0,0.0
227,0.0,-0.0435283203125,0.0,0.0,0.0,0.0,0.0,0.0,-0.34,0.0,0.0,0.0,0.0,0.0,0.0,-0.23489917409651825,0.0,0.0,0.0,0.0,0.0,0.0,-47.564,0.0,0.0,0.0,0.0,0.0
228,0.0,-0.0435283203125,0.0,0.0,0.0,0.0,0.0,0.0,-0.34,0.0,0.0,0.0,0.0,0.0,0.0,-0.2068143927091982,0.0,0.0,0.0,0.0,0.0,0.0,-47.564,0.0,0.0,0.0,0.0,0.0
229,0.0,-0.050841796875,0.0,0.0,0.0,0.0,0.0,0.0,-0.367,0.0,0.0,0.0,0.0,0.0,0.0,-0.1785810137970119,0.0,0.0,0.0,0.0,0.0,0.0,-46.536,0.0,0.0,0.0,0.0,0.0
230,0.0,-0.050841796875,0.0,0.0,0.0,0.0,0.0,0.0,-0.367,0.0,0.0,0.0,0.0,0.0,0.0,-0.1495929501762686,0.0,0.0,0.0,0.0,0.0,0.0,-46.536,0.0,0.0,0.0,0.0,0.0
231,0.0,-0.0589775390625,0.0,0.0,0.0,0.0,0.0,0.0,-0.409,0.0,0.0,0.0,0.0,0.0,0.0,-0.12015668640770419,0.0,0.0,0.0,0.0,0.0,0.0,-47.024,0.0,0.0,0.0,0.0,0.0
232,0.0,-0.062888671875,0.0,0.0,0.0,0.0,0.0,0.0,-0.4,0.0,0.0,0.0,0.0,0.0,0.0,-0.09059965074083746,0.0,0.0,0.0,0.0,0.0,0.0,-47.4,0.0,0.0,0.0,0.0,0.0
233,0.0,-0.062888671875,0.0,0.0,0.0,0.0,0.0,0.0,-0.4,0.0,0.0,0.0,0.0,0.0,0.0,-0.060756692356759505,0.0,0.0,0.0,0.0,0.0,0.0,-47.4,0.0,0.0,0.0,0.0,0.0
234,0.0,-0.0670107421875,0.0,0.0,0.0,0.0,0.0,0.0,-0.386,0.0,0.0,0.0,0.0,0.0,0.0,-0.031123149024928968,0.0,0.0,0.0,0.0,0.0,0.0,-47.24,0.0,0.0,0.0,0.0,0.0
235,0.0,-0.0710244140625,0.0,0.0,0.0,0.0,0.0,0.0,-0.39,0.0,0.0,0.0,0.0,0.0,0.0,-0.0010255713205636497,0.0,0.0,0.0,0.0,0.0,0.0,-46.104,0.0,0.0,0.0,0.0,0.0
236,0.0,-0.0780283203125,0.0,0.0,0.0,0.0,0.0,0.0,-0.392,0.0,0.0,0.0,0.0,0.0,0.0,0.0289717126154544,0.0,0.0,0.0,0.0,0.0,0.0,-35.308,0.0,0.0,0.0,0.0,0.0
237,0.0,-0.0794697265625,0.0,0.0,0.0,0.0,0.0,0.0,-0.253,0.0,0.0,0.0,0.0,0.0,0.0,4.50611114078357e-05,0.0,0.0,0.0,0.0,0.0,0.0,-22.62,0.0,0.0,0.0,0.0,0.0
238,0.0,-0.0794697265625,0.0,0.0,0.0,0.0,0.0,0.0,-0.253,0.0,0.0,0.0,0.0,0.0,0.0,0.030008189463821184,0.0,0.0,0.0,0.0,0.0,0.0,-22.62,0.0,0.0,0.0,0.0,0.0
239,0.0,-0.079984375,0.0,0.0,0.0,0.0,0.0,0.0,-0.097,0.0,0.0,0.0,0.0,0.0,0.0,0.05975338466523369,0.0,0.0,0.0,0.0,0.0,0.0,-14.52,0.0,0.0,0.0,0.0,0.0
240,0.0,-0.0794697265625,0.0,0.0,0.0,0.0,0.0,0.0,-0.008,0.0,0.0,0.0,0.0,0.0,0.0,0.08974553897646688,0.0,0.0,0.0,0.0,0.0,0.0,-12.36,0.0,0.0,0.0,0.0,0.0
241,0.0,-0.07854296875,0.0,0.0,0.0,0.0,0.0,0.0,0.077,0.0,0.0,0.0,0.0,0.0,0.0,0.12013646689078836,0.0,0.0,0.0,0.0,0.0,0.0,-11.66,0.0,0.0,0.0,0.0,0.0
242,0.0,-0.077205078125,0.0,0.0,0.0,0.0,0.0,0.0,0.1,0.0,0.0,0.0,0.0,0.0,0.0,0.14848589680328442,0.0,0.0,0.0,0.0,0.0,0.0,-9.34,0.0,0.0,0.0,0.0,0.0
243,0.0,-0.0743173828125,0.0,0.0,0.0,0.0,0.0,0.0,0.193,0.0,0.0,0.0,0.0,0.0,0.0,0.17725456107645413,0.0,0.0,0.0,0.0,0.0,0.0,-9.392,0.0,0.0,0.0,0.0,0.0
244,0.0,-0.07061328125,0.0,0.0,0.0,0.0,0.0,0.0,0.327,0.0,0.0,0.0,0.0,0.0,0.0,0.20610463393020972,0.0,0.0,0.0,0.0,0.0,0.0,-11.712,0.0,0.0,0.0,0.0,0.0
245,0.0,-0.060521484375,0.0,0.0,0.0,0.0,0.0,0.0,0.527,0.0,0.0,0.0,0.0,0.0,0.0,0.23371140223826575,0.0,0.0,0.0,0.0,0.0,0.0,-18.948,0.0,0.0,0.0,0.0,0.0
246,0.0,-0.060521484375,0.0,0.0,0.0,0.0,0.0,0.0,0.527,0.0,0.0,0.0,0.0,0.0,0.0,0.26108728378929325,0.0,0.0,0.0,0.0,0.0,0.0,-18.948,0.0,0.0,0.0,0.0,0.0
247,0.0,-0.0492978515625,0.0,0.0,0.0,0.0,0.0,0.0,0.562,0.0,0.0,0.0,0.0,0.0,0.0,0.28783143855323806,0.0,0.0,0.0,0.0,0.0,0.0,-25.372,0.0,0.0,0.0,0.0,0.0
248,0.0,-0.0492978515625,0.0,0.0,0.0,0.0,0.0,0.0,0.562,0.0,0.0,0.0,0.0,0.0,0.0,0.3138297297024211,0.0,0.0,0.0,0.0,0.0,0.0,-25.372,0.0,0.0,0.0,0.0,0.0
249,0.0,-0.0431171875,0.0,0.0,0.0,0.0,0.0,0.0,0.58,0.0,0.0,0.0,0.0,0.0,0.0,0.3388176678968314,0.0,0.0,0.0,0.0,0.0,0.0,-32.392,0.0,0.0,0.0,0.0,0.0
250,0.0,-0.030548828125,0.0,0.0,0.0,0.0,0.0,0.0,0.653,0.0,0.0,0.0,0.0,0.0,0.0,0.3632646982943481,0.0,0.0,0.0,0.0,0.0,0.0,-35.9,0.0,0.0,0.0,0.0,0.0
251,0.0,-0.030548828125,0.0,0.0,0.0,0.0,0.0,0.0,0.653,0.0,0.0,0.0,0.0,0.0,0.0,0.3863995434251032,0.0,0.0,0.0,0.0,0.0,0.0,-35.9,0.0,0.0,0.0,0.0,0.0
252,0.0,-0.0228310546875,0.0,0.0,0.0,0.0,0.0,0.0,0.707,0.0,0.0,0.0,0.0,0.0,0.0,0.4088379531444984,0.0,0.0,0.0,0.0,0.0,0.0,-35.252,0.0,0.0,0.0,0.0,0.0
253,0.0,-0.0097490234375,0.0,0.0,0.0,0.0,0.0,0.0,0.664,0.0,0.0,0.0,0.0,0.0,0.0,0.4342016391472898,0.0,0.0,0.0,0.0,0.0,0.0,-46.86,0.0,0.0,0.0,0.0,0.0
254,0.0,-0.0097490234375,0.0,0.0,0.0,0.0,0.0,0.0,0.664,0.0,0.0,0.0,0.0,0.0,0.0,0.45076603385165653,0.0,0.0,0.0,0.0,0.0,0.0,-46.86,0.0,0.0,0.0,0.0,0.0
255,0.0,0.0027099609375,0.0,0.0,0.0,0.0,0.0,0.0,0.656,0.0,0.0,0.0,0.0,0.0,0.0,0.4699251241330745,0.0,0.0,0.0,0.0,0.0,0.0,-42.868,0.0,0.0,0.0,0.0,0.0
256,0.0,0.0089931640625,0.0,0.0,0.0,0.0,0.0,0.0,0.666,0.0,0.0,0.0,0.0,0.0,0.0,0.4883142871124721,0.0,0.0,0.0,0.0,0.0,0.0,-48.696,0.0,0.0,0.0,0.0,0.0
257,0.0,0.0089931640625,0.0,0.0,0.0,0.0,0.0,0.0,0.666,0.0,0.0,0.0,0.0,0.0,0.0,0.504845178744757,0.0,0.0,0.0,0.0,0.0,0.0,-48.696,0.0,0.0,0.0,0.0,0.0
258,0.0,0.0161005859375,0.0,0.0,0.0,0.0,0.0,0.0,0.635,0.0,0.0,0.0,0.0,0.0,0.0,0.520385291671957,0.0,0.0,0.0,0.0,0.0,0.0,-54.42,0.0,0.0,0.0,0.0,0.0
259,0.0,0.0274267578125,0.0,0.0,0.0,0.0,0.0,0.0,0.61,0.0,0.0,0.0,0.0,0.0,0.0,0.5347023914871619,0.0,0.0,0.0,0.0,0.0,0.0,-49.992,0.0,0.0,0.0,0.0,0.0
260,0.0,0.0274267578125,0.0,0.0,0.0,0.0,0.0,0.0,0.61,0.0,0.0,0.0,0.0,0.0,0.0,0.5476399790915135,0.0,0.0,0.0,0.0,0.0,0.0,-49.992,0.0,0.0,0.0,0.0,0.0
261,0.0,0.033607421875,0.0,0.0,0.0,0.0,0.0,0.0,0.563,0.0,0.0,0.0,0.0,0.0,0.0,0.5592343467406443,0.0,0.0,0.0,0.0,0.0,0.0,-55.444,0.0,0.0,0.0,0.0,0.0
262,0.0,0.04369921875,0.0,0.0,0.0,0.0,0.0,0.0,0.536,0.0,0.0,0.0,0.0,0.0,0.0,0.5693745309147733,0.0,0.0,0.0,0.0,0.0,0.0,-57.228,0.0,0.0,0.0,0.0,0.0
263,0.0,0.04369921875,0.0,0.0,0.0,0.0,0.0,0.0,0.536,0.0,0.0,0.0,0.0,0.0,0.0,0.5781389213481536,0.0,0.0,0.0,0.0,0.0,0.0,-57.228,0.0,0.0,0.0,0.0,0.0
264,0.0,0.04946875,0.0,0.0,0.0,0.0,0.0,0.0,0.531,0.0,0.0,0.0,0.0,0.0,0.0,0.5853912068441286,0.0,0.0,0.0,0.0,0.0,0.0,-53.612,0.0,0.0,0.0,0.0,0.0
265,0.0,0.0538935546875,0.0,0.0,0.0,0.0,0.0,0.0,0.491,0.0,0.0,0.0,0.0,0.0,0.0,0.5912723761909726,0.0,0.0,0.0,0.0,0.0,0.0,-56.58,0.0,0.0,0.0,0.0,0.0
266,0.0,0.061720703125,0.0,0.0,0.0,0.0,0.0,0.0,0.414,0.0,0.0,0.0,0.0,0.0,0.0,0.595612943557284,0.0,0.0,0.0,0.0,0.0,0.0,-57.876,0.0,0.0,0.0,0.0,0.0
267,0.0,0.0656376953125,0.0,0.0,0.0,0.0,0.0,0.0,0.408,0.0,0.0,0.0,0.0,0.0,0.0,0.5984818666619999,0.0,0.0,0.0,0.0,0.0,0.0,-53.72,0.0,0.0,0.0,0.0,0.0
268,0.0,0.0656376953125,0.0,0.0,0.0,0.0,0.0,0.0,0.408,0.0,0.0,0.0,0.0,0.0,0.0,0.5998680592812542,0.0,0.0,0.0,0.0,0.0,0.0,-53.72,0.0,0.0,0.0,0.0,0.0
269,0.0,0.070166015625,0.0,0.0,0.0,0.0,0.0,0.0,0.401,0.0,0.0,0.0,0.0,0.0,0.0,0.5997467924030238,0.0,0.0,0.0,0.0,0.0,0.0,-51.02,0.0,0.0,0.0,0.0,0.0
270,0.0,0.0736650390625,0.0,0.0,0.0,0.0,0.0,0.0,0.391,0.0,0.0,0.0,0.0,0.0,0.0,0.598136537673064,0.0,0.0,0.0,0.0,0.0,0.0,-53.072,0.0,0.0,0.0,0.0,0.0
271,0.0,0.0794345703125,0.0,0.0,0.0,0.0,0.0,0.0,0.31,0.0,0.0,0.0,0.0,0.0,0.0,0.5950232192872049,0.0,0.0,0.0,0.0,0.0,0.0,-50.964,0.0,0.0,0.0,0.0,0.0
272,0.0,0.0821103515625,0.0,0.0,0.0,0.0,0.0,0.0,0.287,0.0,0.0,0.0,0.0,0.0,0.0,0.5903889416211565,0.0,0.0,0.0,0.0,0.0,0.0,-47.184,0.0,0.0,0.0,0.0,0.0
273,0.0,0.085203125,0.0,0.0,0.0,0.0,0.0,0.0,0.284,0.0,0.0,0.0,0.0,0.0,0.0,0.5843542817800235,0.0,0.0,0.0,0.0,0.0,0.0,-44.592,0.0,0.0,0.0,0.0,0.0
274,0.0,0.0884970703125,0.0,0.0,0.0,0.0,0.0,0.0,0.322,0.0,0.0,0.0,0.0,0.0,0.0,0.5768081684552572,0.0,0.0,0.0,0.0,0.0,0.0,-44.916,0.0,0.0,0.0,0.0,0.0
275,0.0,0.0884970703125,0.0,0.0,0.0,0.0,0.0,0.0,0.322,0.0,0.0,0.0,0.0,0.0,0.0,0.5677373807021576,0.0,0.0,0.0,0.0,0.0,0.0,-44.916,0.0,0.0,0.0,0.0,0.0
276,0.0,0.0917900390625,0.0,0.0,0.0,0.0,0.0,0.0,0.313,0.0,0.0,0.0,0.0,0.0,0.0,0.5574524637437436,0.0,0.0,0.0,0.0,0.0,0.0,-45.672,0.0,0.0,0.0,0.0,0.0
277,0.0,0.0968388671875,0.0,0.0,0.0,0.0,0.0,0.0,0.271,0.0,0.0,0.0,0.0,0.0,0.0,0.5456684899143708,0.0,0.0,0.0,0.0,0.0,0.0,-43.676,0.0,0.0,0.0,0.0,0.0
278,0.0,0.0998232421875,0.0,0.0,0.0,0.0,0.0,0.0,0.273,0.0,0.0,0.0,0.0,0.0,0.0,0.5324050998885932,0.0,0.0,0.0,0.0,0.0,0.0,-42.38,0.0,0.0,0.0,0.0,0.0
279,0.0,0.0998232421875,0.0,0.0,0.0,0.0,0.0,0.0,0.273,0.0,0.0,0.0,0.0,0.0,0.0,0.5179515013215942,0.0,0.0,0.0,0.0,0.0,0.0,-42.38,0.0,0.0,0.0,0.0,0.0
280,0.0,0.106306640625,0.0,0.0,0.0,0.0,0.0,0.0,0.331,0.0,0.0,0.0,0.0,0.0,0.0,0.5021180227693214,0.0,0.0,0.0,0.0,0.0,0.0,-41.3,0.0,0.0,0.0,0.0,0.0
281,0.0,0.106306640625,0.0,0.0,0.0,0.0,0.0,0.0,0.331,0.0,0.0,0.0,0.0,0.0,0.0,0.48509100631712815,0.0,0.0,0.0,0.0,0.0,0.0,-41.3,0.0,0.0,0.0,0.0,0.0
282,0.0,0.109908203125,0.0,0.0,0.0,0.0,0.0,0.0,0.325,0.0,0.0,0.0,0.0,0.0,0.0,0.4667988944627273,0.0,0.0,0.0,0.0,0.0,0.0,-40.76,0.0,0.0,0.0,0.0,0.0
283,0.0,0.1157802734375,0.0,0.0,0.0,0.0,0.0,0.0,0.31,0.0,0.0,0.0,0.0,0.0,0.0,0.4471913688655069,0.0,0.0,0.0,0.0,0.0,0.0,-39.572,0.0,0.0,0.0,0.0,0.0
284,0.0,0.1157802734375,0.0,0.0,0.0,0.0,0.0,0.0,0.31,0.0,0.0,0.0,0.0,0.0,0.0,0.42682111916694393,0.0,0.0,0.0,0.0,0.0,0.0,-39.572,0.0,0.0,0.0,0.0,0.0
285,0.0,0.119697265625,0.0,0.0,0.0,0.0,0.0,0.0,0.334,0.0,0.0,0.0,0.0,0.0,0.0,0.40534220771642626,0.0,0.0,0.0,0.0,0.0,0.0,-39.68,0.0,0.0,0.0,0.0,0.0
286,0.0,0.126591796875,0.0,0.0,0.0,0.0,0.0,0.0,0.359,0.0,0.0,0.0,0.0,0.0,0.0,0.38267973352070456,0.0,0.0,0.0,0.0,0.0,0.0,-39.788,0.0,0.0,0.0,0.0,0.0
287,0.0,0.126591796875,0.0,0.0,0.0,0.0,0.0,0.0,0.359,0.0,0.0,0.0,0.0,0.0,0.0,0.3589296980914525,0.0,0.0,0.0,0.0,0.0,0.0,-39.788,0.0,0.0,0.0,0.0,0.0
288,0.0,0.1339052734375,0.0,0.0,0.0,0.0,0.0,0.0,0.366,0.0,0.0,0.0,0.0,0.0,0.0,0.3345455380000466,0.0,0.0,0.0,0.0,0.0,0.0,-39.088,0.0,0.0,0.0,0.0,0.0
289,0.0,0.1339052734375,0.0,0.0,0.0,0.0,0.0,0.0,0.366,0.0,0.0,0.0,0.0,0.0,0.0,0.3093780933498637,0.0,0.0,0.0,0.0,0.0,0.0,-39.088,0.0,0.0,0.0,0.0,0.0
290,0.0,0.1380283203125,0.0,0.0,0.0,0.0,0.0,0.0,0.371,0.0,0.0,0.0,0.0,0.0,0.0,0.2831944389964949,0.0,0.0,0.0,0.0,0.0,0.0,-39.356,0.0,0.0,0.0,0.0,0.0
291,0.0,0.1457529296875,0.0,0.0,0.0,0.0,0.0,0.0,0.404,0.0,0.0,0.0,0.0,0.0,0.0,0.2564771753980109,0.0,0.0,0.0,0.0,0.0,0.0,-40.76,0.0,0.0,0.0,0.0,0.0
292,0.0,0.149875,0.0,0.0,0.0,0.0,0.0,0.0,0.413,0.0,0.0,0.0,0.0,0.0,0.0,0.22849220394924605,0.0,0.0,0.0,0.0,0.0,0.0,-41.032,0.0,0.0,0.0,0.0,0.0
293,0.0,0.149875,0.0,0.0,0.0,0.0,0.0,0.0,0.413,0.0,0.0,0.0,0.0,0.0,0.0,0.20099305183671912,0.0,0.0,0.0,0.0,0.0,0.0,-41.032,0.0,0.0,0.0,0.0,0.0
294,0.0,0.154505859375,0.0,0.0,0.0,0.0,0.0,0.0,0.415,0.0,0.0,0.0,0.0,0.0,0.0,0.17247261285134757,0.0,0.0,0.0,0.0,0.0,0.0,-40.76,0.0,0.0,0.0,0.0,0.0
295,0.0,0.1588349609375,0.0,0.0,0.0,0.0,0.0,0.0,0.426,0.0,0.0,0.0,0.0,0.0,0.0,0.14362551723431177,0.0,0.0,0.0,0.0,0.0,0.0,-40.868,0.0,0.0,0.0,0.0,0.0
296,0.0,0.1631572265625,0.0,0.0,0.0,0.0,0.0,0.0,0.437,0.0,0.0,0.0,0.0,0.0,0.0,0.11407127201274982,0.0,0.0,0.0,0.0,0.0,0.0,-41.896,0.0,0.0,0.0,0.0,0.0
297,0.0,0.167587890625,0.0,0.0,0.0,0.0,0.0,0.0,0.443,0.0,0.0,0.0,0.0,0.0,0.0,0.084336636235065,0.0,0.0,0.0,0.0,0.0,0.0,-42.812,0.0,0.0,0.0,0.0,0.0
298,0.0,0.171705078125,0.0,0.0,0.0,0.0,0.0,0.0,0.439,0.0,0.0,0.0,0.0,0.0,0.0,0.05490901348249734,0.0,0.0,0.0,0.0,0.0,0.0,-47.4,0.0,0.0,0.0,0.0,0.0
299,0.0,0.17427734375,0.0,0.0,0.0,0.0,0.0,0.0,0.353,0.0,0.0,0.0,0.0,0.0,0.0,0.02480795628420593,0.0,0.0,0.0,0.0,0.0,0.0,-59.656,0.0,0.0,0.0,0.0,0.0
300,0.0,0.1756220703125,0.0,0.0,0.0,0.0,0.0,0.0,0.204,0.0,0.0,0.0,0.0,0.0,0.0,-0.005124797496738026,0.0,0.0,0.0,0.0,0.0,0.0,-68.672,0.0,0.0,0.0,0.0,0.0
301,0.0,0.1752099609375,0.0,0.0,0.0,0.0,0.0,0.0,-0.012,0.0,0.0,0.0,0.0,0.0,0.0,-0.0350483633947568,0.0,0.0,0.0,0.0,0.0,0.0,-77.364,0.0,0.0,0.0,0.0,0.0
302,0.0,0.1752099609375,0.0,0.0,0.0,0.0,0.0,0.0,-0.012,0.0,0.0,0.0,0.0,0.0,0.0,-0.06516125223001586,0.0,0.0,0.0,0.0,0.0,0.0,-77.364,0.0,0.0,0.0,0.0,0.0
303,0.0,0.1743798828125,0.0,0.0,0.0,0.0,0.0,0.0,-0.07,0.0,0.0,0.0,0.0,0.0,0.0,-0.09454031152154448,0.0,0.0,0.0,0.0,0.0,0.0,-78.336,0.0,0.0,0.0,0.0,0.0
304,0.0,0.1725283203125,0.0,0.0,0.0,0.0,0.0,0.0,-0.117,0.0,0.0,0.0,0.0,0.0,0.0,-0.12402664084698359,0.0,0.0,0.0,0.0,0.0,0.0,-79.632,0.0,0.0,0.0,0.0,0.0
305,0.0,0.165626953125,0.0,0.0,0.0,0.0,0.0,0.0,-0.348,0.0,0.0,0.0,0.0,0.0,0.0,-0.15361457750716448,0.0,0.0,0.0,0.0,0.0,0.0,-74.02,0.0,0.0,0.0,0.0,0.0
306,0.0,0.165626953125,0.0,0.0,0.0,0.0,0.0,0.0,-0.348,0.0,0.0,0.0,0.0,0.0,0.0,-0.18234791066688413,0.0,0.0,0.0,0.0,0.0,0.0,-74.02,0.0,0.0,0.0,0.0,0.0
307,0.0,0.1603779296875,0.0,0.0,0.0,0.0,0.0,0.0,-0.451,0.0,0.0,0.0,0.0,0.0,0.0,-0.21087993577291328,0.0,0.0,0.0,0.0,0.0,0.0,-66.62,0.0,0.0,0.0,0.0,0.0
308,0.0,0.1520361328125,0.0,0.0,0.0,0.0,0.0,0.0,-0.438,0.0,0.0,0.0,0.0,0.0,0.0,-0.2383329853912906,0.0,0.0,0.0,0.0,0.0,0.0,-58.524,0.0,0.0,0.0,0.0,0.0
309,0.0,0.1520361328125,0.0,0.0,0.0,0.0,0.0,0.0,-0.438,0.0,0.0,0.0,0.0,0.0,0.0,-0.26563292165008046,0.0,0.0,0.0,0.0,0.0,0.0,-58.524,0.0,0.0,0.0,0.0,0.0
310,0.0,0.1469873046875,0.0,0.0,0.0,0.0,0.0,0.0,-0.439,0.0,0.0,0.0,0.0,0.0,0.0,-0.2923575252160364,0.0,0.0,0.0,0.0,0.0,0.0,-54.472,0.0,0.0,0.0,0.0,0.0
311,0.0,0.142041015625,0.0,0.0,0.0,0.0,0.0,0.0,-0.483,0.0,0.0,0.0,0.0,0.0,0.0,-0.3180769997662871,0.0,0.0,0.0,0.0,0.0,0.0,-50.588,0.0,0.0,0.0,0.0,0.0
312,0.0,0.1365810546875,0.0,0.0,0.0,0.0,0.0,0.0,-0.522,0.0,0.0,0.0,0.0,0.0,0.0,-0.34368939510553,0.0,0.0,0.0,0.0,0.0,0.0,-47.076,0.0,0.0,0.0,0.0,0.0
313,0.0,0.13133203125,0.0,0.0,0.0,0.0,0.0,0.0,-0.542,0.0,0.0,0.0,0.0,0.0,0.0,-0.3670507795089775,0.0,0.0,0.0,0.0,0.0,0.0,-44.54,0.0,0.0,0.0,0.0,0.0
314,0.0,0.1264892578125,0.0,0.0,0.0,0.0,0.0,0.0,-0.51,0.0,0.0,0.0,0.0,0.0,0.0,-0.39049995196408316,0.0,0.0,0.0,0.0,0.0,0.0,-43.728,0.0,0.0,0.0,0.0,0.0
315,0.0,0.12165234375,0.0,0.0,0.0,0.0,0.0,0.0,-0.482,0.0,0.0,0.0,0.0,0.0,0.0,-0.41290983263532316,0.0,0.0,0.0,0.0,0.0,0.0,-44.324,0.0,0.0,0.0,0.0,0.0
316,0.0,0.116603515625,0.0,0.0,0.0,0.0,0.0,0.0,-0.502,0.0,0.0,0.0,0.0,0.0,0.0,-0.4339271209293398,0.0,0.0,0.0,0.0,0.0,0.0,-44.052,0.0,0.0,0.0,0.0,0.0
317,0.0,0.111251953125,0.0,0.0,0.0,0.0,0.0,0.0,-0.519,0.0,0.0,0.0,0.0,0.0,0.0,-0.454324428110801,0.0,0.0,0.0,0.0,0.0,0.0,-45.456,0.0,0.0,0.0,0.0,0.0
318,0.0,0.1001318359375,0.0,0.0,0.0,0.0,0.0,0.0,-0.591,0.0,0.0,0.0,0.0,0.0,0.0,-0.4733546840723408,0.0,0.0,0.0,0.0,0.0,0.0,-47.508,0.0,0.0,0.0,0.0,0.0
319,0.0,0.1001318359375,0.0,0.0,0.0,0.0,0.0,0.0,-0.591,0.0,0.0,0.0,0.0,0.0,0.0,-0.49113671715287277,0.0,0.0,0.0,0.0,0.0,0.0,-47.508,0.0,0.0,0.0,0.0,0.0
320,0.0,0.0934423828125,0.0,0.0,0.0,0.0,0.0,0.0,-0.592,0.0,0.0,0.0,0.0,0.0,0.0,-0.5076381468647903,0.0,0.0,0.0,0.0,0.0,0.0,-48.428,0.0,0.0,0.0,0.0,0.0
321,0.0,0.0871591796875,0.0,0.0,0.0,0.0,0.0,0.0,-0.626,0.0,0.0,0.0,0.0,0.0,0.0,-0.5231643558760583,0.0,0.0,0.0,0.0,0.0,0.0,-48.104,0.0,0.0,0.0,0.0,0.0
322,0.0,0.0809775390625,0.0,0.0,0.0,0.0,0.0,0.0,-0.621,0.0,0.0,0.0,0.0,0.0,0.0,-0.5370324077980986,0.0,0.0,0.0,0.0,0.0,0.0,-48.212,0.0,0.0,0.0,0.0,0.0
323,0.0,0.07387109375,0.0,0.0,0.0,0.0,0.0,0.0,-0.662,0.0,0.0,0.0,0.0,0.0,0.0,-0.5496873949055472,0.0,0.0,0.0,0.0,0.0,0.0,-48.588,0.0,0.0,0.0,0.0,0.0
324,0.0,0.0673876953125,0.0,0.0,0.0,0.0,0.0,0.0,-0.699,0.0,0.0,0.0,0.0,0.0,0.0,-0.5610813616627969,0.0,0.0,0.0,0.0,0.0,0.0,-43.944,0.0,0.0,0.0,0.0,0.0
325,0.0,0.061515625,0.0,0.0,0.0,0.0,0.0,0.0,-0.621,0.0,0.0,0.0,0.0,0.0,0.0,-0.5710283575757276,0.0,0.0,0.0,0.0,0.0,0.0,-38.98,0.0,0.0,0.0,0.0,0.0
326,0.0,0.0552314453125,0.0,0.0,0.0,0.0,0.0,0.0,-0.61,0.0,0.0,0.0,0.0,0.0,0.0,-0.5794700400055663,0.0,0.0,0.0,0.0,0.0,0.0,-38.224,0.0,0.0,0.0,0.0,0.0
327,0.0,0.04946875,0.0,0.0,0.0,0.0,0.0,0.0,-0.612,0.0,0.0,0.0,0.0,0.0,0.0,-0.5866177597036456,0.0,0.0,0.0,0.0,0.0,0.0,-39.304,0.0,0.0,0.0,0.0,0.0
328,0.0,0.04369921875,0.0,0.0,0.0,0.0,0.0,0.0,-0.576,0.0,0.0,0.0,0.0,0.0,0.0,-0.5921048533471298,0.0,0.0,0.0,0.0,0.0,0.0,-37.144,0.0,0.0,0.0,0.0,0.0
329,0.0,0.03823828125,0.0,0.0,0.0,0.0,0.0,0.0,-0.576,0.0,0.0,0.0,0.0,0.0,0.0,-0.5962313747953435,0.0,0.0,0.0,0.0,0.0,0.0,-31.8,0.0,0.0,0.0,0.0,0.0
330,0.0,0.03340234375,0.0,0.0,0.0,0.0,0.0,0.0,-0.522,0.0,0.0,0.0,0.0,0.0,0.0,-0.5988445966126167,0.0,0.0,0.0,0.0,0.0,0.0,-32.552,0.0,0.0,0.0,0.0,0.0
331,0.0,0.02825,0.0,0.0,0.0,0.0,0.0,0.0,-0.499,0.0,0.0,0.0,0.0,0.0,0.0,-0.599955389658759,0.0,0.0,0.0,0.0,0.0,0.0,-37.468,0.0,0.0,0.0,0.0,0.0
332,0.0,0.0235166015625,0.0,0.0,0.0,0.0,0.0,0.0,-0.508,0.0,0.0,0.0,0.0,0.0,0.0,-0.5995672895143901,0.0,0.0,0.0,0.0,0.0,0.0,-38.656,0.0,0.0,0.0,0.0,0.0
333,0.0,0.0193935546875,0.0,0.0,0.0,0.0,0.0,0.0,-0.447,0.0,0.0,0.0,0.0,0.0,0.0,-0.5976626919854507,0.0,0.0,0.0,0.0,0.0,0.0,-34.336,0.0,0.0,0.0,0.0,0.0
334,0.0,0.015173828125,0.0,0.0,0.0,0.0,0.0,0.0,-0.421,0.0,0.0,0.0,0.0,0.0,0.0,-0.594316424357568,0.0,0.0,0.0,0.0,0.0,0.0,-33.04,0.0,0.0,0.0,0.0,0.0
335,0.0,0.011154296875,0.0,0.0,0.0,0.0,0.0,0.0,-0.419,0.0,0.0,0.0,0.0,0.0,0.0,-0.5894363090261913,0.0,0.0,0.0,0.0,0.0,0.0,-37.36,0.0,0.0,0.0,0.0,0.0
336,0.0,0.0034365234375,0.0,0.0,0.0,0.0,0.0,0.0,-0.408,0.0,0.0,0.0,0.0,0.0,0.0,-0.583031551588731,0.0,0.0,0.0,0.0,0.0,0.0,-40.384,0.0,0.0,0.0,0.0,0.0
337,0.0,0.0034365234375,0.0,0.0,0.0,0.0,0.0,0.0,-0.408,0.0,0.0,0.0,0.0,0.0,0.0,-0.5752037946130922,0.0,0.0,0.0,0.0,0.0,0.0,-40.384,0.0,0.0,0.0,0.0,0.0
338,0.0,-0.0003779296875,0.0,0.0,0.0,0.0,0.0,0.0,-0.382,0.0,0.0,0.0,0.0,0.0,0.0,-0.5661659231178374,0.0,0.0,0.0,0.0,0.0,0.0,-36.656,0.0,0.0,0.0,0.0,0.0
339,0.0,-0.0036708984375,0.0,0.0,0.0,0.0,0.0,0.0,-0.339,0.0,0.0,0.0,0.0,0.0,0.0,-0.5553698003147183,0.0,0.0,0.0,0.0,0.0,0.0,-36.604,0.0,0.0,0.0,0.0,0.0
340,0.0,-0.0067646484375,0.0,0.0,0.0,0.0,0.0,0.0,-0.328,0.0,0.0,0.0,0.0,0.0,0.0,-0.5433405364832828,0.0,0.0,0.0,0.0,0.0,0.0,-39.356,0.0,0.0,0.0,0.0,0.0
341,0.0,-0.0098515625,0.0,0.0,0.0,0.0,0.0,0.0,-0.305,0.0,0.0,0.0,0.0,0.0,0.0,-0.5299575249466643,0.0,0.0,0.0,0.0,0.0,0.0,-43.944,0.0,0.0,0.0,0.0,0.0
342,0.0,-0.0136591796875,0.0,0.0,0.0,0.0,0.0,0.0,-0.348,0.0,0.0,0.0,0.0,0.0,0.0,-0.5149948652888026,0.0,0.0,0.0,0.0,0.0,0.0,-45.024,0.0,0.0,0.0,0.0,0.0
343,0.0,-0.016958984375,0.0,0.0,0.0,0.0,0.0,0.0,-0.365,0.0,0.0,0.0,0.0,0.0,0.0,-0.49913760462793905,0.0,0.0,0.0,0.0,0.0,0.0,-43.836,0.0,0.0,0.0,0.0,0.0
344,0.0,-0.0200458984375,0.0,0.0,0.0,0.0,0.0,0.0,-0.32,0.0,0.0,0.0,0.0,0.0,0.0,-0.4821730916181462,0.0,0.0,0.0,0.0,0.0,0.0,-43.244,0.0,0.0,0.0,0.0,0.0
345,0.0,-0.025404296875,0.0,0.0,0.0,0.0,0.0,0.0,-0.283,0.0,0.0,0.0,0.0,0.0,0.0,-0.4636474884095727,0.0,0.0,0.0,0.0,0.0,0.0,-45.512,0.0,0.0,0.0,0.0,0.0
346,0.0,-0.025404296875,0.0,0.0,0.0,0.0,0.0,0.0,-0.283,0.0,0.0,0.0,0.0,0.0,0.0,-0.44407060991604186,0.0,0.0,0.0,0.0,0.0,0.0,-45.512,0.0,0.0,0.0,0.0,0.0
347,0.0,-0.0294169921875,0.0,0.0,0.0,0.0,0.0,0.0,-0.317,0.0,0.0,0.0,0.0,0.0,0.0,-0.4232752279157269,0.0,0.0,0.0,0.0,0.0,0.0,-47.24,0.0,0.0,0.0,0.0,0.0
348,0.0,-0.03312890625,0.0,0.0,0.0,0.0,0.0,0.0,-0.376,0.0,0.0,0.0,0.0,0.0,0.0,-0.40152607797062184,0.0,0.0,0.0,0.0,0.0,0.0,-47.184,0.0,0.0,0.0,0.0,0.0
349,0.0,-0.0365244140625,0.0,0.0,0.0,0.0,0.0,0.0,-0.363,0.0,0.0,0.0,0.0,0.0,0.0,-0.3785249960816598,0.0,0.0,0.0,0.0,0.0,0.0,-46.808,0.0,0.0,0.0,0.0,0.0
350,0.0,-0.039919921875,0.0,0.0,0.0,0.0,0.0,0.0,-0.347,0.0,0.0,0.0,0.0,0.0,0.0,-0.3550682793366407,0.0,0.0,0.0,0.0,0.0,0.0,-46.536,0.0,0.0,0.0,0.0,0.0
351,0.0,-0.043013671875,0.0,0.0,0.0,0.0,0.0,0.0,-0.326,0.0,0.0,0.0,0.0,0.0,0.0,-0.3304218093875721,0.0,0.0,0.0,0.0,0.0,0.0,-46.86,0.0,0.0,0.0,0.0,0.0
352,0.0,-0.0500185546875,0.0,0.0,0.0,0.0,0.0,0.0,-0.365,0.0,0.0,0.0,0.0,0.0,0.0,-0.30493948088702555,0.0,0.0,0.0,0.0,0.0,0.0,-46.484,0.0,0.0,0.0,0.0,0.0
353,0.0,-0.0500185546875,0.0,0.0,0.0,0.0,0.0,0.0,-0.365,0.0,0.0,0.0,0.0,0.0,0.0,-0.27882251495677324,0.0,0.0,0.0,0.0,0.0,0.0,-46.484,0.0,0.0,0.0,0.0,0.0
354,0.0,-0.0543408203125,0.0,0.0,0.0,0.0,0.0,0.0,-0.396,0.0,0.0,0.0,0.0,0.0,0.0,-0.25196466531330997,0.0,0.0,0.0,0.0,0.0,0.0,-46.808,0.0,0.0,0.0,0.0,0.0
355,0.0,-0.0582578125,0.0,0.0,0.0,0.0,0.0,0.0,-0.398,0.0,0.0,0.0,0.0,0.0,0.0,-0.2243291300683396,0.0,0.0,0.0,0.0,0.0,0.0,-47.024,0.0,0.0,0.0,0.0,0.0
356,0.0,-0.061859375,0.0,0.0,0.0,0.0,0.0,0.0,-0.383,0.0,0.0,0.0,0.0,0.0,0.0,-0.1964118358598093,0.0,0.0,0.0,0.0,0.0,0.0,-47.184,0.0,0.0,0.0,0.0,0.0
357,0.0,-0.0655634765625,0.0,0.0,0.0,0.0,0.0,0.0,-0.365,0.0,0.0,0.0,0.0,0.0,0.0,-0.1678654814574346,0.0,0.0,0.0,0.0,0.0,0.0,-47.4,0.0,0.0,0.0,0.0,0.0
358,0.0,-0.06948046875,0.0,0.0,0.0,0.0,0.0,0.0,-0.38,0.0,0.0,0.0,0.0,0.0,0.0,-0.1385303439949126,0.0,0.0,0.0,0.0,0.0,0.0,-46.484,0.0,0.0,0.0,0.0,0.0
359,0.0,-0.0775146484375,0.0,0.0,0.0,0.0,0.0,0.0,-0.424,0.0,0.0,0.0,0.0,0.0,0.0,-0.10938321819853454,0.0,0.0,0.0,0.0,0.0,0.0,-45.78,0.0,0.0,0.0,0.0,0.0
360,0.0,-0.0817333984375,0.0,0.0,0.0,0.0,0.0,0.0,-0.435,0.0,0.0,0.0,0.0,0.0,0.0,-0.07978851457156225,0.0,0.0,0.0,0.0,0.0,0.0,-45.944,0.0,0.0,0.0,0.0,0.0
361,0.0,-0.0817333984375,0.0,0.0,0.0,0.0,0.0,0.0,-0.435,0.0,0.0,0.0,0.0,0.0,0.0,-0.049775919470940004,0.0,0.0,0.0,0.0,0.0,0.0,-45.944,0.0,0.0,0.0,0.0,0.0
362,0.0,-0.0896640625,0.0,0.0,0.0,0.0,0.0,0.0,-0.403,0.0,0.0,0.0,0.0,0.0,0.0,-0.01996185935347772,0.0,0.0,0.0,0.0,0.0,0.0,-43.028,0.0,0.0,0.0,0.0,0.0
363,0.0,-0.0896640625,0.0,0.0,0.0,0.0,0.0,0.0,-0.403,0.0,0.0,0.0,0.0,0.0,0.0,0.010003923338938127,0.0,0.0,0.0,0.0,0.0,0.0,-43.028,0.0,0.0,0.0,0.0,0.0
364,0.0,-0.0922431640625,0.0,0.0,0.0,0.0,0.0,0.0,-0.323,0.0,0.0,0.0,0.0,0.0,0.0,3.361701963573201e-05,0.0,0.0,0.0,0.0,0.0,0.0,-30.016,0.0,0.0,0.0,0.0,0.0
365,0.0,-0.0931689453125,0.0,0.0,0.0,0.0,0.0,0.0,-0.169,0.0,0.0,0.0,0.0,0.0,0.0,0.029903892359423416,0.0,0.0,0.0,0.0,0.0,0.0,-18.14,0.0,0.0,0.0,0.0,0.0
366,0.0,-0.0934775390625,0.0,0.0,0.0,0.0,0.0,0.0,-0.078,0.0,0.0,0.0,0.0,0.0,0.0,0.059796086509863754,0.0,0.0,0.0,0.0,0.0,0.0,-12.524,0.0,0.0,0.0,0.0,0.0
367,0.0,-0.0927578125,0.0,0.0,0.0,0.0,0.0,0.0,0.014,0.0,0.0,0.0,0.0,0.0,0.0,0.08978797130407508,0.0,0.0,0.0,0.0,0.0,0.0,-11.444,0.0,0.0,0.0,0.0,0.0
368,0.0,-0.0919345703125,0.0,0.0,0.0,0.0,0.0,0.0,0.078,0.0,0.0,0.0,0.0,0.0,0.0,0.11911666428689886,0.0,0.0,0.0,0.0,0.0,0.0,-10.04,0.0,0.0,0.0,0.0,0.0
369,0.0,-0.0900751953125,0.0,0.0,0.0,0.0,0.0,0.0,0.122,0.0,0.0,0.0,0.0,0.0,0.0,0.1483493703469273,0.0,0.0,0.0,0.0,0.0,0.0,-8.96,0.0,0.0,0.0,0.0,0.0
370,0.0,-0.0868857421875,0.0,0.0,0.0,0.0,0.0,0.0,0.246,0.0,0.0,0.0,0.0,0.0,0.0,0.17739873833563477,0.0,0.0,0.0,0.0,0.0,0.0,-10.904,0.0,0.0,0.0,0.0,0.0
371,0.0,-0.0827626953125,0.0,0.0,0.0,0.0,0.0,0.0,0.355,0.0,0.0,0.0,0.0,0.0,0.0,0.20568541597877732,0.0,0.0,0.0,0.0,0.0,0.0,-13.44,0.0,0.0,0.0,0.0,0.0
372,0.0,-0.0774111328125,0.0,0.0,0.0,0.0,0.0,0.0,0.465,0.0,0.0,0.0,0.0,0.0,0.0,0.2335572424380241,0.0,0.0,0.0,0.0,0.0,0.0,-17.112,0.0,0.0,0.0,0.0,0.0
373,0.0,-0.066908203125,0.0,0.0,0.0,0.0,0.0,0.0,0.549,0.0,0.0,0.0,0.0,0.0,0.0,0.26100098609740574,0.0,0.0,0.0,0.0,0.0,0.0,-20.732,0.0,0.0,0.0,0.0,0.0
374,0.0,-0.0610361328125,0.0,0.0,0.0,0.0,0.0,0.0,0.584,0.0,0.0,0.0,0.0,0.0,0.0,0.2876054828146286,0.0,0.0,0.0,0.0,0.0,0.0,-25.912,0.0,0.0,0.0,0.0,0.0
375,0.0,-0.0610361328125,0.0,0.0,0.0,0.0,0.0,0.0,0.584,0.0,0.0,0.0,0.0,0.0,0.0,0.31352791610618863,0.0,0.0,0.0,0.0,0.0,0.0,-25.912,0.0,0.0,0.0,0.0,0.0
376,0.0,-0.0546494140625,0.0,0.0,0.0,0.0,0.0,0.0,0.579,0.0,0.0,0.0,0.0,0.0,0.0,0.3388501336566894,0.0,0.0,0.0,0.0,0.0,0.0,-32.016,0.0,0.0,0.0,0.0,0.0
377,0.0,-0.0418818359375,0.0,0.0,0.0,0.0,0.0,0.0,0.676,0.0,0.0,0.0,0.0,0.0,0.0,0.3630927567462715,0.0,0.0,0.0,0.0,0.0,0.0,-36.872,0.0,0.0,0.0,0.0,0.0
378,0.0,-0.0418818359375,0.0,0.0,0.0,0.0,0.0,0.0,0.676,0.0,0.0,0.0,0.0,0.0,0.0,0.3864575424089323,0.0,0.0,0.0,0.0,0.0,0.0,-36.872,0.0,0.0,0.0,0.0,0.0
379,0.0,-0.0341572265625,0.0,0.0,0.0,0.0,0.0,0.0,0.697,0.0,0.0,0.0,0.0,0.0,0.0,0.409014341661519,0.0,0.0,0.0,0.0,0.0,0.0,-36.116,0.0,0.0,0.0,0.0,0.0
380,0.0,-0.027255859375,0.0,0.0,0.0,0.0,0.0,0.0,0.713,0.0,0.0,0.0,0.0,0.0,0.0,0.43037197262520105,0.0,0.0,0.0,0.0,0.0,0.0,-42.868,0.0,0.0,0.0,0.0,0.0
381,0.0,-0.014900390625,0.0,0.0,0.0,0.0,0.0,0.0,0.641,0.0,0.0,0.0,0.0,0.0,0.0,0.45071079847905127,0.0,0.0,0.0,0.0,0.0,0.0,-45.188,0.0,0.0,0.0,0.0,0.0
382,0.0,-0.014900390625,0.0,0.0,0.0,0.0,0.0,0.0,0.641,0.0,0.0,0.0,0.0,0.0,0.0,0.4700651767796109,0.0,0.0,0.0,0.0,0.0,0.0,-45.188,0.0,0.0,0.0,0.0,0.0
383,0.0,-0.007587890625,0.0,0.0,0.0,0.0,0.0,0.0,0.683,0.0,0.0,0.0,0.0,0.0,0.0,0.4880269349068983,0.0,0.0,0.0,0.0,0.0,0.0,-45.132,0.0,0.0,0.0,0.0,0.0
384,0.0,-0.0013037109375,0.0,0.0,0.0,0.0,0.0,0.0,0.645,0.0,0.0,0.0,0.0,0.0,0.0,0.504852136056461,0.0,0.0,0.0,0.0,0.0,0.0,-49.776,0.0,0.0,0.0,0.0,0.0
385,0.0,0.0053916015625,0.0,0.0,0.0,0.0,0.0,0.0,0.652,0.0,0.0,0.0,0.0,0.0,0.0,0.5204870869102183,0.0,0.0,0.0,0.0,0.0,0.0,-53.772,0.0,0.0,0.0,0.0,0.0
386,0.0,0.011462890625,0.0,0.0,0.0,0.0,0.0,0.0,0.652,0.0,0.0,0.0,0.0,0.0,0.0,0.5346851925131038,0.0,0.0,0.0,0.0,0.0,0.0,-53.016,0.0,0.0,0.0,0.0,0.0
387,0.0,0.02228125,0.0,0.0,0.0,0.0,0.0,0.0,0.576,0.0,0.0,0.0,0.0,0.0,0.0,0.5476168911287057,0.0,0.0,0.0,0.0,0.0,0.0,-56.904,0.0,0.0,0.0,0.0,0.0
388,0.0,0.02228125,0.0,0.0,0.0,0.0,0.0,0.0,0.576,0.0,0.0,0.0,0.0,0.0,0.0,0.5593029922739883,0.0,0.0,0.0,0.0,0.0,0.0,-56.904,0.0,0.0,0.0,0.0,0.0
389,0.0,0.0280439453125,0.0,0.0,0.0,0.0,0.0,0.0,0.542,0.0,0.0,0.0,0.0,0.0,0.0,0.5693700188652081,0.0,0.0,0.0,0.0,0.0,0.0,-57.336,0.0,0.0,0.0,0.0,0.0
390,0.0,0.0381357421875,0.0,0.0,0.0,0.0,0.0,0.0,0.549,0.0,0.0,0.0,0.0,0.0,0.0,0.5781100237412496,0.0,0.0,0.0,0.0,0.0,0.0,-55.5,0.0,0.0,0.0,0.0,0.0
391,0.0,0.0381357421875,0.0,0.0,0.0,0.0,0.0,0.0,0.549,0.0,0.0,0.0,0.0,0.0,0.0,0.5854491928984115,0.0,0.0,0.0,0.0,0.0,0.0,-55.5,0.0,0.0,0.0,0.0,0.0
392,0.0,0.0465810546875,0.0,0.0,0.0,0.0,0.0,0.0,0.419,0.0,0.0,0.0,0.0,0.0,0.0,0.5912423271098931,0.0,0.0,0.0,0.0,0.0,0.0,-59.008,0.0,0.0,0.0,0.0,0.0
393,0.0,0.0465810546875,0.0,0.0,0.0,0.0,0.0,0.0,0.419,0.0,0.0,0.0,0.0,0.0,0.0,0.5956036143310514,0.0,0.0,0.0,0.0,0.0,0.0,-59.008,0.0,0.0,0.0,0.0,0.0
394,0.0,0.050806640625,0.0,0.0,0.0,0.0,0.0,0.0,0.414,0.0,0.0,0.0,0.0,0.0,0.0,0.5984963746378275,0.0,0.0,0.0,0.0,0.0,0.0,-55.228,0.0,0.0,0.0,0.0,0.0
395,0.0,0.0549228515625,0.0,0.0,0.0,0.0,0.0,0.0,0.393,0.0,0.0,0.0,0.0,0.0,0.0,0.5998668716893284,0.0,0.0,0.0,0.0,0.0,0.0,-51.72,0.0,0.0,0.0,0.0,0.0
396,0.0,0.0590458984375,0.0,0.0,0.0,0.0,0.0,0.0,0.423,0.0,0.0,0.0,0.0,0.0,0.0,0.5997499820313372,0.0,0.0,0.0,0.0,0.0,0.0,-53.18,0.0,0.0,0.0,0.0,0.0
397,0.0,0.064705078125,0.0,0.0,0.0,0.0,0.0,0.0,0.298,0.0,0.0,0.0,0.0,0.0,0.0,0.5980911463501715,0.0,0.0,0.0,0.0,0.0,0.0,-54.148,0.0,0.0,0.0,0.0,0.0
398,0.0,0.0673876953125,0.0,0.0,0.0,0.0,0.0,0.0,0.289,0.0,0.0,0.0,0.0,0.0,0.0,0.5950185295927459,0.0,0.0,0.0,0.0,0.0,0.0,-50.316,0.0,0.0,0.0,0.0,0.0
399,0.0,0.0673876953125,0.0,0.0,0.0,0.0,0.0,0.0,0.289,0.0,0.0,0.0,0.0,0.0,0.0,0.5904102238908171,0.0,0.0,0.0,0.0,0.0,0.0,-50.316,0.0,0.0,0.0,0.0,0.0
400,0.0,0.0735625,0.0,0.0,0.0,0.0,0.0,0.0,0.304,0.0,0.0,0.0,0.0,0.0,0.0,0.5842880049148593,0.0,0.0,0.0,0.0,0.0,0.0,-43.892,0.0,0.0,0.0,0.0,0.0
401,0.0,0.0735625,0.0,0.0,0.0,0.0,0.0,0.0,0.304,0.0,0.0,0.0,0.0,0.0,0.0,0.5767740858416349,0.0,0.0,0.0,0.0,0.0,0.0,-43.892,0.0,0.0,0.0,0.0,0.0
402,0.0,0.0770673828125,0.0,0.0,0.0,0.0,0.0,0.0,0.346,0.0,0.0,0.0,0.0,0.0,0.0,0.5677975131574097,0.0,0.0,0.0,0.0,0.0,0.0,-45.456,0.0,0.0,0.0,0.0,0.0
403,0.0,0.079845703125,0.0,0.0,0.0,0.0,0.0,0.0,0.297,0.0,0.0,0.0,0.0,0.0,0.0,0.5573301596039342,0.0,0.0,0.0,0.0,0.0,0.0,-45.456,0.0,0.0,0.0,0.0,0.0
404,0.0,0.0824189453125,0.0,0.0,0.0,0.0,0.0,0.0,0.275,0.0,0.0,0.0,0.0,0.0,0.0,0.5455619650173932,0.0,0.0,0.0,0.0,0.0,0.0,-44.808,0.0,0.0,0.0,0.0,0.0
405,0.0,0.084689453125,0.0,0.0,0.0,0.0,0.0,0.0,0.243,0.0,0.0,0.0,0.0,0.0,0.0,0.5325003842926412,0.0,0.0,0.0,0.0,0.0,0.0,-42.544,0.0,0.0,0.0,0.0,0.0
406,0.0,0.090966796875,0.0,0.0,0.0,0.0,0.0,0.0,0.331,0.0,0.0,0.0,0.0,0.0,0.0,0.5174569082894531,0.0,0.0,0.0,0.0,0.0,0.0,-41.192,0.0,0.0,0.0,0.0,0.0
407,0.0,0.090966796875,0.0,0.0,0.0,0.0,0.0,0.0,0.331,0.0,0.0,0.0,0.0,0.0,0.0,0.5019303935271809,0.0,0.0,0.0,0.0,0.0,0.0,-41.192,0.0,0.0,0.0,0.0,0.0
408,0.0,0.09755859375,0.0,0.0,0.0,0.0,0.0,0.0,0.333,0.0,0.0,0.0,0.0,0.0,0.0,0.4850606968506616,0.0,0.0,0.0,0.0,0.0,0.0,-40.868,0.0,0.0,0.0,0.0,0.0
409,0.0,0.09755859375,0.0,0.0,0.0,0.0,0.0,0.0,0.333,0.0,0.0,0.0,0.0,0.0,0.0,0.4668042868700812,0.0,0.0,0.0,0.0,0.0,0.0,-40.868,0.0,0.0,0.0,0.0,0.0
410,0.0,0.1007490234375,0.0,0.0,0.0,0.0,0.0,0.0,0.317,0.0,0.0,0.0,0.0,0.0,0.0,0.44721902606983105,0.0,0.0,0.0,0.0,0.0,0.0,-40.22,0.0,0.0,0.0,0.0,0.0
411,0.0,0.104048828125,0.0,0.0,0.0,0.0,0.0,0.0,0.301,0.0,0.0,0.0,0.0,0.0,0.0,0.42675928303772714,0.0,0.0,0.0,0.0,0.0,0.0,-39.304,0.0,0.0,0.0,0.0,0.0
412,0.0,0.11073828125,0.0,0.0,0.0,0.0,0.0,0.0,0.352,0.0,0.0,0.0,0.0,0.0,0.0,0.40521351598472855,0.0,0.0,0.0,0.0,0.0,0.0,-39.896,0.0,0.0,0.0,0.0,0.0
413,0.0,0.1145458984375,0.0,0.0,0.0,0.0,0.0,0.0,0.358,0.0,0.0,0.0,0.0,0.0,0.0,0.38163868166990944,0.0,0.0,0.0,0.0,0.0,0.0,-39.412,0.0,0.0,0.0,0.0,0.0
414,0.0,0.1145458984375,0.0,0.0,0.0,0.0,0.0,0.0,0.358,0.0,0.0,0.0,0.0,0.0,0.0,0.3590999039022498,0.0,0.0,0.0,0.0,0.0,0.0,-39.412,0.0,0.0,0.0,0.0,0.0
415,0.0,0.1218583984375,0.0,0.0,0.0,0.0,0.0,0.0,0.368,0.0,0.0,0.0,0.0,0.0,0.0,0.33454494424744896,0.0,0.0,0.0,0.0,0.0,0.0,-38.764,0.0,0.0,0.0,0.0,0.0
416,0.0,0.1258720703125,0.0,0.0,0.0,0.0,0.0,0.0,0.381,0.0,0.0,0.0,0.0,0.0,0.0,0.30878097958591816,0.0,0.0,0.0,0.0,0.0,0.0,-39.572,0.0,0.0,0.0,0.0,0.0
417,0.0,0.129685546875,0.0,0.0,0.0,0.0,0.0,0.0,0.395,0.0,0.0,0.0,0.0,0.0,0.0,0.28317047697112785,0.0,0.0,0.0,0.0,0.0,0.0,-40.22,0.0,0.0,0.0,0.0,0.0
418,0.0,0.13369921875,0.0,0.0,0.0,0.0,0.0,0.0,0.39,0.0,0.0,0.0,0.0,0.0,0.0,0.2563898790479573,0.0,0.0,0.0,0.0,0.0,0.0,-40.492,0.0,0.0,0.0,0.0,0.0
419,0.0,0.1379248046875,0.0,0.0,0.0,0.0,0.0,0.0,0.413,0.0,0.0,0.0,0.0,0.0,0.0,0.2286720820011919,0.0,0.0,0.0,0.0,0.0,0.0,-40.816,0.0,0.0,0.0,0.0,0.0
420,0.0,0.1379248046875,0.0,0.0,0.0,0.0,0.0,0.0,0.413,0.0,0.0,0.0,0.0,0.0,0.0,0.20110289860982658,0.0,0.0,0.0,0.0,0.0,0.0,-40.816,0.0,0.0,0.0,0.0,0.0
421,0.0,0.146576171875,0.0,0.0,0.0,0.0,0.0,0.0,0.434,0.0,0.0,0.0,0.0,0.0,0.0,0.1724808336484453,0.0,0.0,0.0,0.0,0.0,0.0,-41.68,0.0,0.0,0.0,0.0,0.0
422,0.0,0.1510068359375,0.0,0.0,0.0,0.0,0.0,0.0,0.45,0.0,0.0,0.0,0.0,0.0,0.0,0.14291150356391885,0.0,0.0,0.0,0.0,0.0,0.0,-42.976,0.0,0.0,0.0,0.0,0.0
423,0.0,0.1553291015625,0.0,0.0,0.0,0.0,0.0,0.0,0.439,0.0,0.0,0.0,0.0,0.0,0.0,0.11433599375028816,0.0,0.0,0.0,0.0,0.0,0.0,-43.46,0.0,0.0,0.0,0.0,0.0
424,0.0,0.1553291015625,0.0,0.0,0.0,0.0,0.0,0.0,0.439,0.0,0.0,0.0,0.0,0.0,0.0,0.08475513468969152,0.0,0.0,0.0,0.0,0.0,0.0,-43.46,0.0,0.0,0.0,0.0,0.0
425,0.0,0.1621279296875,0.0,0.0,0.0,0.0,0.0,0.0,0.361,0.0,0.0,0.0,0.0,0.0,0.0,0.05427222707050814,0.0,0.0,0.0,0.0,0.0,0.0,-58.2,0.0,0.0,0.0,0.0,0.0
426,0.0,0.1634658203125,0.0,0.0,0.0,0.0,0.0,0.0,0.204,0.0,0.0,0.0,0.0,0.0,0.0,0.024474213664171424,0.0,0.0,0.0,0.0,0.0,0.0,-69.052,0.0,0.0,0.0,0.0,0.0
427,0.0,0.1640830078125,0.0,0.0,0.0,0.0,0.0,0.0,0.109,0.0,0.0,0.0,0.0,0.0,0.0,-0.005659787163931418,0.0,0.0,0.0,0.0,0.0,0.0,-76.34,0.0,0.0,0.0,0.0,0.0
428,0.0,0.1633623046875,0.0,0.0,0.0,0.0,0.0,0.0,0.003,0.0,0.0,0.0,0.0,0.0,0.0,-0.035306126560108814,0.0,0.0,0.0,0.0,0.0,0.0,-77.42,0.0,0.0,0.0,0.0,0.0
429,0.0,0.1627451171875,0.0,0.0,0.0,0.0,0.0,0.0,-0.069,0.0,0.0,0.0,0.0,0.0,0.0,-0.06483417085033043,0.0,0.0,0.0,0.0,0.0,0.0,-78.12,0.0,0.0,0.0,0.0,0.0
430,0.0,0.1627451171875,0.0,0.0,0.0,0.0,0.0,0.0,-0.069,0.0,0.0,0.0,0.0,0.0,0.0,-0.09452618507557077,0.0,0.0,0.0,0.0,0.0,0.0,-78.12,0.0,0.0,0.0,0.0,0.0
431,0.0,0.157908203125,0.0,0.0,0.0,0.0,0.0,0.0,-0.237,0.0,0.0,0.0,0.0,0.0,0.0,-0.12424427250249453,0.0,0.0,0.0,0.0,0.0,0.0,-76.716,0.0,0.0,0.0,0.0,0.0
432,0.0,0.1539912109375,0.0,0.0,0.0,0.0,0.0,0.0,-0.348,0.0,0.0,0.0,0.0,0.0,0.0,-0.15329027917132573,0.0,0.0,0.0,0.0,0.0,0.0,-72.344,0.0,0.0,0.0,0.0,0.0
433,0.0,0.1492578125,0.0,0.0,0.0,0.0,0.0,0.0,-0.431,0.0,0.0,0.0,0.0,0.0,0.0,-0.1826797333819355,0.0,0.0,0.0,0.0,0.0,0.0,-65.864,0.0,0.0,0.0,0.0,0.0
434,0.0,0.1447236328125,0.0,0.0,0.0,0.0,0.0,0.0,-0.477,0.0,0.0,0.0,0.0,0.0,0.0,-0.210577235699252,0.0,0.0,0.0,0.0,0.0,0.0,-60.844,0.0,0.0,0.0,0.0,0.0
435,0.0,0.140498046875,0.0,0.0,0.0,0.0,0.0,0.0,-0.437,0.0,0.0,0.0,0.0,0.0,0.0,-0.2381793770156358,0.0,0.0,0.0,0.0,0.0,0.0,-58.036,0.0,0.0,0.0,0.0,0.0
436,0.0,0.1357578125,0.0,0.0,0.0,0.0,0.0,0.0,-0.448,0.0,0.0,0.0,0.0,0.0,0.0,-0.2654103537398921,0.0,0.0,0.0,0.0,0.0,0.0,-55.12,0.0,0.0,0.0,0.0,0.0
437,0.0,0.1308173828125,0.0,0.0,0.0,0.0,0.0,0.0,-0.485,0.0,0.0,0.0,0.0,0.0,0.0,-0.2922450903017401,0.0,0.0,0.0,0.0,0.0,0.0,-51.612,0.0,0.0,0.0,0.0,0.0
438,0.0,0.1255634765625,0.0,0.0,0.0,0.0,0.0,0.0,-0.509,0.0,0.0,0.0,0.0,0.0,0.0,-0.317973285454664,0.0,0.0,0.0,0.0,0.0,0.0,-48.372,0.0,0.0,0.0,0.0,0.0
439,0.0,0.1255634765625,0.0,0.0,0.0,0.0,0.0,0.0,-0.509,0.0,0.0,0.0,0.0,0.0,0.0,-0.343000761517075,0.0,0.0,0.0,0.0,0.0,0.0,-48.372,0.0,0.0,0.0,0.0,0.0
440,0.0,0.1154716796875,0.0,0.0,0.0,0.0,0.0,0.0,-0.514,0.0,0.0,0.0,0.0,0.0,0.0,-0.3674778121730734,0.0,0.0,0.0,0.0,0.0,0.0,-43.568,0.0,0.0,0.0,0.0,0.0
441,0.0,0.1154716796875,0.0,0.0,0.0,0.0,0.0,0.0,-0.514,0.0,0.0,0.0,0.0,0.0,0.0,-0.3903044227033446,0.0,0.0,0.0,0.0,0.0,0.0,-43.568,0.0,0.0,0.0,0.0,0.0
442,0.0,0.10527734375,0.0,0.0,0.0,0.0,0.0,0.0,-0.515,0.0,0.0,0.0,0.0,0.0,0.0,-0.41318219765297937,0.0,0.0,0.0,0.0,0.0,0.0,-44.648,0.0,0.0,0.0,0.0,0.0
443,0.0,0.1001318359375,0.0,0.0,0.0,0.0,0.0,0.0,-0.518,0.0,0.0,0.0,0.0,0.0,0.0,-0.4343709546203287,0.0,0.0,0.0,0.0,0.0,0.0,-45.944,0.0,0.0,0.0,0.0,0.0
444,0.0,0.1001318359375,0.0,0.0,0.0,0.0,0.0,0.0,-0.518,0.0,0.0,0.0,0.0,0.0,0.0,-0.4541641450503274,0.0,0.0,0.0,0.0,0.0,0.0,-45.944,0.0,0.0,0.0,0.0,0.0
445,0.0,0.0883935546875,0.0,0.0,0.0,0.0,0.0,0.0,-0.594,0.0,0.0,0.0,0.0,0.0,0.0,-0.47302485670833755,0.0,0.0,0.0,0.0,0.0,0.0,-46.968,0.0,0.0,0.0,0.0,0.0
446,0.0,0.0823154296875,0.0,0.0,0.0,0.0,0.0,0.0,-0.592,0.0,0.0,0.0,0.0,0.0,0.0,-0.4909801300893424,0.0,0.0,0.0,0.0,0.0,0.0,-49.508,0.0,0.0,0.0,0.0,0.0
447,0.0,0.0760380859375,0.0,0.0,0.0,0.0,0.0,0.0,-0.623,0.0,0.0,0.0,0.0,0.0,0.0,-0.5075294499302476,0.0,0.0,0.0,0.0,0.0,0.0,-48.588,0.0,0.0,0.0,0.0,0.0
448,0.0,0.0699599609375,0.0,0.0,0.0,0.0,0.0,0.0,-0.622,0.0,0.0,0.0,0.0,0.0,0.0,-0.5228779963831873,0.0,0.0,0.0,0.0,0.0,0.0,-47.076,0.0,0.0,0.0,0.0,0.0
449,0.0,0.0699599609375,0.0,0.0,0.0,0.0,0.0,0.0,-0.622,0.0,0.0,0.0,0.0,0.0,0.0,-0.5370139060318296,0.0,0.0,0.0,0.0,0.0,0.0,-47.076,0.0,0.0,0.0,0.0,0.0
450,0.0,0.0622353515625,0.0,0.0,0.0,0.0,0.0,0.0,-0.656,0.0,0.0,0.0,0.0,0.0,0.0,-0.5496443800588335,0.0,0.0,0.0,0.0,0.0,0.0,-48.372,0.0,0.0,0.0,0.0,0.0
451,0.0,0.050498046875,0.0,0.0,0.0,0.0,0.0,0.0,-0.628,0.0,0.0,0.0,0.0,0.0,0.0,-0.5609593802056633,0.0,0.0,0.0,0.0,0.0,0.0,-40.004,0.0,0.0,0.0,0.0,0.0
452,0.0,0.0442138671875,0.0,0.0,0.0,0.0,0.0,0.0,-0.605,0.0,0.0,0.0,0.0,0.0,0.0,-0.5709345256222476,0.0,0.0,0.0,0.0,0.0,0.0,-37.684,0.0,0.0,0.0,0.0,0.0
453,0.0,0.038341796875,0.0,0.0,0.0,0.0,0.0,0.0,-0.618,0.0,0.0,0.0,0.0,0.0,0.0,-0.5794514857304374,0.0,0.0,0.0,0.0,0.0,0.0,-38.116,0.0,0.0,0.0,0.0,0.0
454,0.0,0.038341796875,0.0,0.0,0.0,0.0,0.0,0.0,-0.618,0.0,0.0,0.0,0.0,0.0,0.0,-0.5865010882861882,0.0,0.0,0.0,0.0,0.0,0.0,-38.116,0.0,0.0,0.0,0.0,0.0
455,0.0,0.032064453125,0.0,0.0,0.0,0.0,0.0,0.0,-0.578,0.0,0.0,0.0,0.0,0.0,0.0,-0.5921063567322303,0.0,0.0,0.0,0.0,0.0,0.0,-37.628,0.0,0.0,0.0,0.0,0.0
456,0.0,0.0265009765625,0.0,0.0,0.0,0.0,0.0,0.0,-0.58,0.0,0.0,0.0,0.0,0.0,0.0,-0.5962109369498078,0.0,0.0,0.0,0.0,0.0,0.0,-32.824,0.0,0.0,0.0,0.0,0.0
457,0.0,0.0216640625,0.0,0.0,0.0,0.0,0.0,0.0,-0.526,0.0,0.0,0.0,0.0,0.0,0.0,-0.5988300431620054,0.0,0.0,0.0,0.0,0.0,0.0,-33.2,0.0,0.0,0.0,0.0,0.0
458,0.0,0.0124990234375,0.0,0.0,0.0,0.0,0.0,0.0,-0.49,0.0,0.0,0.0,0.0,0.0,0.0,-0.5999531378580134,0.0,0.0,0.0,0.0,0.0,0.0,-37.576,0.0,0.0,0.0,0.0,0.0
459,0.0,0.0124990234375,0.0,0.0,0.0,0.0,0.0,0.0,-0.49,0.0,0.0,0.0,0.0,0.0,0.0,-0.5995767968583634,0.0,0.0,0.0,0.0,0.0,0.0,-37.576,0.0,0.0,0.0,0.0,0.0
460,0.0,0.007861328125,0.0,0.0,0.0,0.0,0.0,0.0,-0.448,0.0,0.0,0.0,0.0,0.0,0.0,-0.5977152479399823,0.0,0.0,0.0,0.0,0.0,0.0,-35.252,0.0,0.0,0.0,0.0,0.0
461,0.0,0.003642578125,0.0,0.0,0.0,0.0,0.0,0.0,-0.428,0.0,0.0,0.0,0.0,0.0,0.0,-0.5943286947135313,0.0,0.0,0.0,0.0,0.0,0.0,-34.228,0.0,0.0,0.0,0.0,0.0
462,0.0,-0.0003779296875,0.0,0.0,0.0,0.0,0.0,0.0,-0.417,0.0,0.0,0.0,0.0,0.0,0.0,-0.589469288911369,0.0,0.0,0.0,0.0,0.0,0.0,-37.52,0.0,0.0,0.0,0.0,0.0
463,0.0,-0.0042880859375,0.0,0.0,0.0,0.0,0.0,0.0,-0.394,0.0,0.0,0.0,0.0,0.0,0.0,-0.583178517250353,0.0,0.0,0.0,0.0,0.0,0.0,-40.384,0.0,0.0,0.0,0.0,0.0
464,0.0,-0.00830859375,0.0,0.0,0.0,0.0,0.0,0.0,-0.406,0.0,0.0,0.0,0.0,0.0,0.0,-0.57538093371955,0.0,0.0,0.0,0.0,0.0,0.0,-39.788,0.0,0.0,0.0,0.0,0.0
465,0.0,-0.014900390625,0.0,0.0,0.0,0.0,0.0,0.0,-0.353,0.0,0.0,0.0,0.0,0.0,0.0,-0.5661031449287001,0.0,0.0,0.0,0.0,0.0,0.0,-37.36,0.0,0.0,0.0,0.0,0.0
466,0.0,-0.0180908203125,0.0,0.0,0.0,0.0,0.0,0.0,-0.338,0.0,0.0,0.0,0.0,0.0,0.0,-0.5555520714722624,0.0,0.0,0.0,0.0,0.0,0.0,-40.06,0.0,0.0,0.0,0.0,0.0
467,0.0,-0.0180908203125,0.0,0.0,0.0,0.0,0.0,0.0,-0.338,0.0,0.0,0.0,0.0,0.0,0.0,-0.5435424382522325,0.0,0.0,0.0,0.0,0.0,0.0,-40.06,0.0,0.0,0.0,0.0,0.0
468,0.0,-0.0214873046875,0.0,0.0,0.0,0.0,0.0,0.0,-0.304,0.0,0.0,0.0,0.0,0.0,0.0,-0.5300530743006127,0.0,0.0,0.0,0.0,0.0,0.0,-43.836,0.0,0.0,0.0,0.0,0.0
469,0.0,-0.0251982421875,0.0,0.0,0.0,0.0,0.0,0.0,-0.335,0.0,0.0,0.0,0.0,0.0,0.0,-0.5154435280620255,0.0,0.0,0.0,0.0,0.0,0.0,-44.54,0.0,0.0,0.0,0.0,0.0
470,0.0,-0.02859375,0.0,0.0,0.0,0.0,0.0,0.0,-0.37,0.0,0.0,0.0,0.0,0.0,0.0,-0.4994465884682172,0.0,0.0,0.0,0.0,0.0,0.0,-43.46,0.0,0.0,0.0,0.0,0.0
471,0.0,-0.031791015625,0.0,0.0,0.0,0.0,0.0,0.0,-0.335,0.0,0.0,0.0,0.0,0.0,0.0,-0.4820423763350695,0.0,0.0,0.0,0.0,0.0,0.0,-42.976,0.0,0.0,0.0,0.0,0.0
472,0.0,-0.0348779296875,0.0,0.0,0.0,0.0,0.0,0.0,-0.321,0.0,0.0,0.0,0.0,0.0,0.0,-0.4637632329013693,0.0,0.0,0.0,0.0,0.0,0.0,-43.676,0.0,0.0,0.0,0.0,0.0
473,0.0,-0.037759765625,0.0,0.0,0.0,0.0,0.0,0.0,-0.297,0.0,0.0,0.0,0.0,0.0,0.0,-0.4441711237315868,0.0,0.0,0.0,0.0,0.0,0.0,-45.888,0.0,0.0,0.0,0.0,0.0
474,0.0,-0.041162109375,0.0,0.0,0.0,0.0,0.0,0.0,-0.306,0.0,0.0,0.0,0.0,0.0,0.0,-0.42331983615094027,0.0,0.0,0.0,0.0,0.0,0.0,-47.4,0.0,0.0,0.0,0.0,0.0
475,0.0,-0.0448662109375,0.0,0.0,0.0,0.0,0.0,0.0,-0.359,0.0,0.0,0.0,0.0,0.0,0.0,-0.40149684530171453,0.0,0.0,0.0,0.0,0.0,0.0,-46.752,0.0,0.0,0.0,0.0,0.0
476,0.0,-0.0515615234375,0.0,0.0,0.0,0.0,0.0,0.0,-0.357,0.0,0.0,0.0,0.0,0.0,0.0,-0.37870865699039574,0.0,0.0,0.0,0.0,0.0,0.0,-45.836,0.0,0.0,0.0,0.0,0.0
477,0.0,-0.0515615234375,0.0,0.0,0.0,0.0,0.0,0.0,-0.357,0.0,0.0,0.0,0.0,0.0,0.0,-0.3547510911582567,0.0,0.0,0.0,0.0,0.0,0.0,-45.836,0.0,0.0,0.0,0.0,0.0
478,0.0,-0.0582578125,0.0,0.0,0.0,0.0,0.0,0.0,-0.334,0.0,0.0,0.0,0.0,0.0,0.0,-0.33030358926151576,0.0,0.0,0.0,0.0,0.0,0.0,-47.024,0.0,0.0,0.0,0.0,0.0
479,0.0,-0.0582578125,0.0,0.0,0.0,0.0,0.0,0.0,-0.334,0.0,0.0,0.0,0.0,0.0,0.0,-0.30492346493576383,0.0,0.0,0.0,0.0,0.0,0.0,-47.024,0.0,0.0,0.0,0.0,0.0
480,0.0,-0.0623740234375,0.0,0.0,0.0,0.0,0.0,0.0,-0.365,0.0,0.0,0.0,0.0,0.0,0.0,-0.2781180020790301,0.0,0.0,0.0,0.0,0.0,0.0,-46.968,0.0,0.0,0.0,0.0,0.0
481,0.0,-0.0661875,0.0,0.0,0.0,0.0,0.0,0.0,-0.38,0.0,0.0,0.0,0.0,0.0,0.0,-0.25174653698541216,0.0,0.0,0.0,0.0,0.0,0.0,-47.132,0.0,0.0,0.0,0.0,0.0
482,0.0,-0.0700986328125,0.0,0.0,0.0,0.0,0.0,0.0,-0.385,0.0,0.0,0.0,0.0,0.0,0.0,-0.224461800244092,0.0,0.0,0.0,0.0,0.0,0.0,-46.752,0.0,0.0,0.0,0.0,0.0
483,0.0,-0.07390625,0.0,0.0,0.0,0.0,0.0,0.0,-0.389,0.0,0.0,0.0,0.0,0.0,0.0,-0.19571624206410906,0.0,0.0,0.0,0.0,0.0,0.0,-46.7,0.0,0.0,0.0,0.0,0.0
484,0.0,-0.0777197265625,0.0,0.0,0.0,0.0,0.0,0.0,-0.381,0.0,0.0,0.0,0.0,0.0,0.0,-0.16755095139882456,0.0,0.0,0.0,0.0,0.0,0.0,-46.808,0.0,0.0,0.0,0.0,0.0
485,0.0,-0.08523828125,0.0,0.0,0.0,0.0,0.0,0.0,-0.404,0.0,0.0,0.0,0.0,0.0,0.0,-0.1386611754415784,0.0,0.0,0.0,0.0,0.0,0.0,-46.16,0.0,0.0,0.0,0.0,0.0
486,0.0,-0.08523828125,0.0,0.0,0.0,0.0,0.0,0.0,-0.404,0.0,0.0,0.0,0.0,0.0,0.0,-0.10856591441148171,0.0,0.0,0.0,0.0,0.0,0.0,-46.16,0.0,0.0,0.0,0.0,0.0
487,0.0,-0.0934775390625,0.0,0.0,0.0,0.0,0.0,0.0,-0.414,0.0,0.0,0.0,0.0,0.0,0.0,-0.07853003358852928,0.0,0.0,0.0,0.0,0.0,0.0,-45.456,0.0,0.0,0.0,0.0,0.0
488,0.0,-0.0934775390625,0.0,0.0,0.0,0.0,0.0,0.0,-0.414,0.0,0.0,0.0,0.0,0.0,0.0,-0.05001184913661292,0.0,0.0,0.0,0.0,0.0,0.0,-45.456,0.0,0.0,0.0,0.0,0.0
489,0.0,-0.0981083984375,0.0,0.0,0.0,0.0,0.0,0.0,-0.417,0.0,0.0,0.0,0.0,0.0,0.0,-0.019757408300889463,0.0,0.0,0.0,0.0,0.0,0.0,-45.188,0.0,0.0,0.0,0.0,0.0
490,0.0,-0.1021220703125,0.0,0.0,0.0,0.0,0.0,0.0,-0.427,0.0,0.0,0.0,0.0,0.0,0.0,0.010613231251572545,0.0,0.0,0.0,0.0,0.0,0.0,-41.464,0.0,0.0,0.0,0.0,0.0
491,0.0,-0.104591796875,0.0,0.0,0.0,0.0,0.0,0.0,-0.343,0.0,0.0,0.0,0.0,0.0,0.0,2.1457672114566647e-05,0.0,0.0,0.0,0.0,0.0,0.0,-28.776,0.0,0.0,0.0,0.0,0.0
492,0.0,-0.1055185546875,0.0,0.0,0.0,0.0,0.0,0.0,-0.178,0.0,0.0,0.0,0.0,0.0,0.0,0.030404653010885855,0.0,0.0,0.0,0.0,0.0,0.0,-18.192,0.0,0.0,0.0,0.0,0.0
493,0.0,-0.1051064453125,0.0,0.0,0.0,0.0,0.0,0.0,0.009,0.0,0.0,0.0,0.0,0.0,0.0,0.06017825437244513,0.0,0.0,0.0,0.0,0.0,0.0,-12.092,0.0,0.0,0.0,0.0,0.0
494,0.0,-0.1051064453125,0.0,0.0,0.0,0.0,0.0,0.0,0.009,0.0,0.0,0.0,0.0,0.0,0.0,0.09008427757544334,0.0,0.0,0.0,0.0,0.0,0.0,-12.092,0.0,0.0,0.0,0.0,0.0
495,0.0,-0.1027392578125,0.0,0.0,0.0,0.0,0.0,0.0,0.104,0.0,0.0,0.0,0.0,0.0,0.0,0.11953093677717254,0.0,0.0,0.0,0.0,0.0,0.0,-8.528,0.0,0.0,0.0,0.0,0.0
496,0.0,-0.09965234375,0.0,0.0,0.0,0.0,0.0,0.0,0.228,0.0,0.0,0.0,0.0,0.0,0.0,0.14863419545061196,0.0,0.0,0.0,0.0,0.0,0.0,-9.716,0.0,0.0,0.0,0.0,0.0
497,0.0,-0.0955361328125,0.0,0.0,0.0,0.0,0.0,0.0,0.353,0.0,0.0,0.0,0.0,0.0,0.0,0.1778079765702521,0.0,0.0,0.0,0.0,0.0,0.0,-11.928,0.0,0.0,0.0,0.0,0.0
498,0.0,-0.09028125,0.0,0.0,0.0,0.0,0.0,0.0,0.46,0.0,0.0,0.0,0.0,0.0,0.0,0.2062376311869948,0.0,0.0,0.0,0.0,0.0,0.0,-15.656,0.0,0.0,0.0,0.0,0.0
499,0.0,-0.09028125,0.0,0.0,0.0,0.0,0.0,0.0,0.46,0.0,0.0,0.0,0.0,0.0,0.0,0.2338885976582057,0.0,0.0,0.0,0.0,0.0,0.0,-15.656,0.0,0.0,0.0,0.0,0.0
500,0.0,-0.0842099609375,0.0,0.0,0.0,0.0,0.0,0.0,0.553,0.0,0.0,0.0,0.0,0.0,0.0,0.2616062173356438,0.0,0.0,0.0,0.0,0.0,0.0,-19.328,0.0,0.0,0.0,0.0,0.0
501,0.0,-0.0784404296875,0.0,0.0,0.0,0.0,0.0,0.0,0.555,0.0,0.0,0.0,0.0,0.0,0.0,0.28803224359716445,0.0,0.0,0.0,0.0,0.0,0.0,-21.216,0.0,0.0,0.0,0.0,0.0
502,0.0,-0.072568359375,0.0,0.0,0.0,0.0,0.0,0.0,0.589,0.0,0.0,0.0,0.0,0.0,0.0,0.31434895895097703,0.0,0.0,0.0,0.0,0.0,0.0,-27.696,0.0,0.0,0.0,0.0,0.0
503,0.0,-0.060830078125,0.0,0.0,0.0,0.0,0.0,0.0,0.607,0.0,0.0,0.0,0.0,0.0,0.0,0.3389067976745564,0.0,0.0,0.0,0.0,0.0,0.0,-35.956,0.0,0.0,0.0,0.0,0.0
504,0.0,-0.053826171875,0.0,0.0,0.0,0.0,0.0,0.0,0.679,0.0,0.0,0.0,0.0,0.0,0.0,0.36327949900819506,0.0,0.0,0.0,0.0,0.0,0.0,-35.684,0.0,0.0,0.0,0.0,0.0
505,0.0,-0.04671875,0.0,0.0,0.0,0.0,0.0,0.0,0.705,0.0,0.0,0.0,0.0,0.0,0.0,0.38694591143095675,0.0,0.0,0.0,0.0,0.0,0.0,-35.632,0.0,0.0,0.0,0.0,0.0
506,0.0,-0.0400234375,0.0,0.0,0.0,0.0,0.0,0.0,0.705,0.0,0.0,0.0,0.0,0.0,0.0,0.4090582976623052,0.0,0.0,0.0,0.0,0.0,0.0,-43.46,0.0,0.0,0.0,0.0,0.0
507,0.0,-0.03374609375,0.0,0.0,0.0,0.0,0.0,0.0,0.657,0.0,0.0,0.0,0.0,0.0,0.0,0.4307963657549965,0.0,0.0,0.0,0.0,0.0,0.0,-47.616,0.0,0.0,0.0,0.0,0.0
508,0.0,-0.03374609375,0.0,0.0,0.0,0.0,0.0,0.0,0.657,0.0,0.0,0.0,0.0,0.0,0.0,0.4511165973698833,0.0,0.0,0.0,0.0,0.0,0.0,-47.616,0.0,0.0,0.0,0.0,0.0
509,0.0,-0.020251953125,0.0,0.0,0.0,0.0,0.0,0.0,0.689,0.0,0.0,0.0,0.0,0.0,0.0,0.47012295696367673,0.0,0.0,0.0,0.0,0.0,0.0,-43.676,0.0,0.0,0.0,0.0,0.0
510,0.0,-0.0139677734375,0.0,0.0,0.0,0.0,0.0,0.0,0.655,0.0,0.0,0.0,0.0,0.0,0.0,0.48848379826194216,0.0,0.0,0.0,0.0,0.0,0.0,-50.532,0.0,0.0,0.0,0.0,0.0
511,0.0,-0.0073818359375,0.0,0.0,0.0,0.0,0.0,0.0,0.642,0.0,0.0,0.0,0.0,0.0,0.0,0.5050916348762429,0.0,0.0,0.0,0.0,0.0,0.0,-55.068,0.0,0.0,0.0,0.0,0.0
512,0.0,-0.0013037109375,0.0,0.0,0.0,0.0,0.0,0.0,0.645,0.0,0.0,0.0,0.0,0.0,0.0,0.5205301359141554,0.0,0.0,0.0,0.0,0.0,0.0,-51.992,0.0,0.0,0.0,0.0,0.0
513,0.0,0.0044658203125,0.0,0.0,0.0,0.0,0.0,0.0,0.596,0.0,0.0,0.0,0.0,0.0,0.0,0.5348279117500182,0.0,0.0,0.0,0.0,0.0,0.0,-51.128,0.0,0.0,0.0,0.0,0.0
514,0.0,0.0044658203125,0.0,0.0,0.0,0.0,0.0,0.0,0.596,0.0,0.0,0.0,0.0,0.0,0.0,0.5479265657451383,0.0,0.0,0.0,0.0,0.0,0.0,-51.128,0.0,0.0,0.0,0.0,0.0
515,0.0,0.01527734375,0.0,0.0,0.0,0.0,0.0,0.0,0.55,0.0,0.0,0.0,0.0,0.0,0.0,0.5595264149261777,0.0,0.0,0.0,0.0,0.0,0.0,-59.548,0.0,0.0,0.0,0.0,0.0
516,0.0,0.01527734375,0.0,0.0,0.0,0.0,0.0,0.0,0.55,0.0,0.0,0.0,0.0,0.0,0.0,0.569447581024731,0.0,0.0,0.0,0.0,0.0,0.0,-59.548,0.0,0.0,0.0,0.0,0.0
517,0.0,0.0257802734375,0.0,0.0,0.0,0.0,0.0,0.0,0.532,0.0,0.0,0.0,0.0,0.0,0.0,0.5782592853897921,0.0,0.0,0.0,0.0,0.0,0.0,-53.828,0.0,0.0,0.0,0.0,0.0
518,0.0,0.0257802734375,0.0,0.0,0.0,0.0,0.0,0.0,0.532,0.0,0.0,0.0,0.0,0.0,0.0,0.585459680896464,0.0,0.0,0.0,0.0,0.0,0.0,-53.828,0.0,0.0,0.0,0.0,0.0
519,0.0,0.03041796875,0.0,0.0,0.0,0.0,0.0,0.0,0.466,0.0,0.0,0.0,0.0,0.0,0.0,0.5913243236686061,0.0,0.0,0.0,0.0,0.0,0.0,-57.712,0.0,0.0,0.0,0.0,0.0
520,0.0,0.03463671875,0.0,0.0,0.0,0.0,0.0,0.0,0.424,0.0,0.0,0.0,0.0,0.0,0.0,0.5957177288617658,0.0,0.0,0.0,0.0,0.0,0.0,-58.956,0.0,0.0,0.0,0.0,0.0
521,0.0,0.0422587890625,0.0,0.0,0.0,0.0,0.0,0.0,0.4,0.0,0.0,0.0,0.0,0.0,0.0,0.5985149901874859,0.0,0.0,0.0,0.0,0.0,0.0,-52.208,0.0,0.0,0.0,0.0,0.0
522,0.0,0.0461689453125,0.0,0.0,0.0,0.0,0.0,0.0,0.406,0.0,0.0,0.0,0.0,0.0,0.0,0.5998828018813235,0.0,0.0,0.0,0.0,0.0,0.0,-52.152,0.0,0.0,0.0,0.0,0.0
523,0.0,0.0461689453125,0.0,0.0,0.0,0.0,0.0,0.0,0.406,0.0,0.0,0.0,0.0,0.0,0.0,0.599722595739347,0.0,0.0,0.0,0.0,0.0,0.0,-52.152,0.0,0.0,0.0,0.0,0.0
524,0.0,0.0496748046875,0.0,0.0,0.0,0.0,0.0,0.0,0.359,0.0,0.0,0.0,0.0,0.0,0.0,0.5980774397775783,0.0,0.0,0.0,0.0,0.0,0.0,-54.472,0.0,0.0,0.0,0.0,0.0
525,0.0,0.0552314453125,0.0,0.0,0.0,0.0,0.0,0.0,0.3,0.0,0.0,0.0,0.0,0.0,0.0,0.594886511647861,0.0,0.0,0.0,0.0,0.0,0.0,-50.372,0.0,0.0,0.0,0.0,0.0
526,0.0,0.0580166015625,0.0,0.0,0.0,0.0,0.0,0.0,0.277,0.0,0.0,0.0,0.0,0.0,0.0,0.5902880760495504,0.0,0.0,0.0,0.0,0.0,0.0,-45.944,0.0,0.0,0.0,0.0,0.0
527,0.0,0.0613095703125,0.0,0.0,0.0,0.0,0.0,0.0,0.3,0.0,0.0,0.0,0.0,0.0,0.0,0.5840993063374094,0.0,0.0,0.0,0.0,0.0,0.0,-44.324,0.0,0.0,0.0,0.0,0.0
528,0.0,0.0613095703125,0.0,0.0,0.0,0.0,0.0,0.0,0.3,0.0,0.0,0.0,0.0,0.0,0.0,0.5767062417483292,0.0,0.0,0.0,0.0,0.0,0.0,-44.324,0.0,0.0,0.0,0.0,0.0
529,0.0,0.067181640625,0.0,0.0,0.0,0.0,0.0,0.0,0.297,0.0,0.0,0.0,0.0,0.0,0.0,0.5675886662020979,0.0,0.0,0.0,0.0,0.0,0.0,-45.348,0.0,0.0,0.0,0.0,0.0
530,0.0,0.067181640625,0.0,0.0,0.0,0.0,0.0,0.0,0.297,0.0,0.0,0.0,0.0,0.0,0.0,0.5572967745885204,0.0,0.0,0.0,0.0,0.0,0.0,-45.348,0.0,0.0,0.0,0.0,0.0
531,0.0,0.0724296875,0.0,0.0,0.0,0.0,0.0,0.0,0.264,0.0,0.0,0.0,0.0,0.0,0.0,0.5454797718451244,0.0,0.0,0.0,0.0,0.0,0.0,-42.488,0.0,0.0,0.0,0.0,0.0
532,0.0,0.075626953125,0.0,0.0,0.0,0.0,0.0,0.0,0.279,0.0,0.0,0.0,0.0,0.0,0.0,0.5320461461065695,0.0,0.0,0.0,0.0,0.0,0.0,-41.516,0.0,0.0,0.0,0.0,0.0
533,0.0,0.075626953125,0.0,0.0,0.0,0.0,0.0,0.0,0.279,0.0,0.0,0.0,0.0,0.0,0.0,0.5178268982674753,0.0,0.0,0.0,0.0,0.0,0.0,-41.516,0.0,0.0,0.0,0.0,0.0
534,0.0,0.0793310546875,0.0,0.0,0.0,0.0,0.0,0.0,0.332,0.0,0.0,0.0,0.0,0.0,0.0,0.5019766305392983,0.0,0.0,0.0,0.0,0.0,0.0,-41.248,0.0,0.0,0.0,0.0,0.0
535,0.0,0.0854091796875,0.0,0.0,0.0,0.0,0.0,0.0,0.323,0.0,0.0,0.0,0.0,0.0,0.0,0.4843410637757165,0.0,0.0,0.0,0.0,0.0,0.0,-40.76,0.0,0.0,0.0,0.0,0.0
536,0.0,0.0854091796875,0.0,0.0,0.0,0.0,0.0,0.0,0.323,0.0,0.0,0.0,0.0,0.0,0.0,0.4666591079236972,0.0,0.0,0.0,0.0,0.0,0.0,-40.76,0.0,0.0,0.0,0.0,0.0
537,0.0,0.0887021484375,0.0,0.0,0.0,0.0,0.0,0.0,0.31,0.0,0.0,0.0,0.0,0.0,0.0,0.4472948339931964,0.0,0.0,0.0,0.0,0.0,0.0,-40.112,0.0,0.0,0.0,0.0,0.0
538,0.0,0.091892578125,0.0,0.0,0.0,0.0,0.0,0.0,0.309,0.0,0.0,0.0,0.0,0.0,0.0,0.42652744161020695,0.0,0.0,0.0,0.0,0.0,0.0,-39.736,0.0,0.0,0.0,0.0,0.0
539,0.0,0.0955009765625,0.0,0.0,0.0,0.0,0.0,0.0,0.342,0.0,0.0,0.0,0.0,0.0,0.0,0.4049787235314425,0.0,0.0,0.0,0.0,0.0,0.0,-40.112,0.0,0.0,0.0,0.0,0.0
540,0.0,0.0991025390625,0.0,0.0,0.0,0.0,0.0,0.0,0.359,0.0,0.0,0.0,0.0,0.0,0.0,0.38244390208200324,0.0,0.0,0.0,0.0,0.0,0.0,-40.328,0.0,0.0,0.0,0.0,0.0
541,0.0,0.1028134765625,0.0,0.0,0.0,0.0,0.0,0.0,0.361,0.0,0.0,0.0,0.0,0.0,0.0,0.35856621261998095,0.0,0.0,0.0,0.0,0.0,0.0,-39.736,0.0,0.0,0.0,0.0,0.0
542,0.0,0.1101142578125,0.0,0.0,0.0,0.0,0.0,0.0,0.364,0.0,0.0,0.0,0.0,0.0,0.0,0.33028691356951295,0.0,0.0,0.0,0.0,0.0,0.0,-38.764,0.0,0.0,0.0,0.0,0.0
543,0.0,0.113619140625,0.0,0.0,0.0,0.0,0.0,0.0,0.377,0.0,0.0,0.0,0.0,0.0,0.0,0.30902012032888837,0.0,0.0,0.0,0.0,0.0,0.0,-39.196,0.0,0.0,0.0,0.0,0.0
544,0.0,0.113619140625,0.0,0.0,0.0,0.0,0.0,0.0,0.377,0.0,0.0,0.0,0.0,0.0,0.0,0.28311246124024303,0.0,0.0,0.0,0.0,0.0,0.0,-39.196,0.0,0.0,0.0,0.0,0.0
545,0.0,0.11794140625,0.0,0.0,0.0,0.0,0.0,0.0,0.395,0.0,0.0,0.0,0.0,0.0,0.0,0.25620815201889213,0.0,0.0,0.0,0.0,0.0,0.0,-40.112,0.0,0.0,0.0,0.0,0.0
546,0.0,0.122064453125,0.0,0.0,0.0,0.0,0.0,0.0,0.406,0.0,0.0,0.0,0.0,0.0,0.0,0.22888235011994995,0.0,0.0,0.0,0.0,0.0,0.0,-40.76,0.0,0.0,0.0,0.0,0.0
547,0.0,0.126283203125,0.0,0.0,0.0,0.0,0.0,0.0,0.415,0.0,0.0,0.0,0.0,0.0,0.0,0.20070390965296456,0.0,0.0,0.0,0.0,0.0,0.0,-41.032,0.0,0.0,0.0,0.0,0.0
548,0.0,0.1305087890625,0.0,0.0,0.0,0.0,0.0,0.0,0.422,0.0,0.0,0.0,0.0,0.0,0.0,0.17233696460489592,0.0,0.0,0.0,0.0,0.0,0.0,-40.868,0.0,0.0,0.0,0.0,0.0
549,0.0,0.1348310546875,0.0,0.0,0.0,0.0,0.0,0.0,0.428,0.0,0.0,0.0,0.0,0.0,0.0,0.14354634734385133,0.0,0.0,0.0,0.0,0.0,0.0,-41.624,0.0,0.0,0.0,0.0,0.0
550,0.0,0.13916015625,0.0,0.0,0.0,0.0,0.0,0.0,0.438,0.0,0.0,0.0,0.0,0.0,0.0,0.11423277608183713,0.0,0.0,0.0,0.0,0.0,0.0,-42.76,0.0,0.0,0.0,0.0,0.0
551,0.0,0.1436943359375,0.0,0.0,0.0,0.0,0.0,0.0,0.443,0.0,0.0,0.0,0.0,0.0,0.0,0.08446056146914123,0.0,0.0,0.0,0.0,0.0,0.0,-43.62,0.0,0.0,0.0,0.0,0.0
552,0.0,0.147919921875,0.0,0.0,0.0,0.0,0.0,0.0,0.443,0.0,0.0,0.0,0.0,0.0,0.0,0.05459490176000316,0.0,0.0,0.0,0.0,0.0,0.0,-45.78,0.0,0.0,0.0,0.0,0.0
553,0.0,0.15131640625,0.0,0.0,0.0,0.0,0.0,0.0,0.399,0.0,0.0,0.0,0.0,0.0,0.0,0.024618574363959877,0.0,0.0,0.0,0.0,0.0,0.0,-54.204,0.0,0.0,0.0,0.0,0.0
554,0.0,0.153271484375,0.0,0.0,0.0,0.0,0.0,0.0,0.281,0.0,0.0,0.0,0.0,0.0,0.0,-0.005332929011291247,0.0,0.0,0.0,0.0,0.0,0.0,-64.3,0.0,0.0,0.0,0.0,0.0
555,0.0,0.1539912109375,0.0,0.0,0.0,0.0,0.0,0.0,0.15,0.0,0.0,0.0,0.0,0.0,0.0,-0.035168320470440245,0.0,0.0,0.0,0.0,0.0,0.0,-73.912,0.0,0.0,0.0,0.0,0.0
556,0.0,0.1536826171875,0.0,0.0,0.0,0.0,0.0,0.0,0.026,0.0,0.0,0.0,0.0,0.0,0.0,-0.06520391357621674,0.0,0.0,0.0,0.0,0.0,0.0,-76.772,0.0,0.0,0.0,0.0,0.0
557,0.0,0.1530654296875,0.0,0.0,0.0,0.0,0.0,0.0,-0.046,0.0,0.0,0.0,0.0,0.0,0.0,-0.09494430509807902,0.0,0.0,0.0,0.0,0.0,0.0,-77.42,0.0,0.0,0.0,0.0,0.0
558,0.0,0.151625,0.0,0.0,0.0,0.0,0.0,0.0,-0.09,0.0,0.0,0.0,0.0,0.0,0.0,-0.12434713425641866,0.0,0.0,0.0,0.0,0.0,0.0,-78.932,0.0,0.0,0.0,0.0,0.0
559,0.0,0.1490517578125,0.0,0.0,0.0,0.0,0.0,0.0,-0.191,0.0,0.0,0.0,0.0,0.0,0.0,-0.15360904616808427,0.0,0.0,0.0,0.0,0.0,0.0,-78.176,0.0,0.0,0.0,0.0,0.0
560,0.0,0.145443359375,0.0,0.0,0.0,0.0,0.0,0.0,-0.302,0.0,0.0,0.0,0.0,0.0,0.0,-0.18234791066688413,0.0,0.0,0.0,0.0,0.0,0.0,-75.152,0.0,0.0,0.0,0.0,0.0
561,0.0,0.140806640625,0.0,0.0,0.0,0.0,0.0,0.0,-0.408,0.0,0.0,0.0,0.0,0.0,0.0,-0.21059130055317657,0.0,0.0,0.0,0.0,0.0,0.0,-68.888,0.0,0.0,0.0,0.0,0.0
562,0.0,0.1361689453125,0.0,0.0,0.0,0.0,0.0,0.0,-0.47,0.0,0.0,0.0,0.0,0.0,0.0,-0.23851742222335573,0.0,0.0,0.0,0.0,0.0,0.0,-63.276,0.0,0.0,0.0,0.0,0.0
563,0.0,0.1318466796875,0.0,0.0,0.0,0.0,0.0,0.0,-0.454,0.0,0.0,0.0,0.0,0.0,0.0,-0.265808634802757,0.0,0.0,0.0,0.0,0.0,0.0,-59.656,0.0,0.0,0.0,0.0,0.0
564,0.0,0.12309375,0.0,0.0,0.0,0.0,0.0,0.0,-0.457,0.0,0.0,0.0,0.0,0.0,0.0,-0.29226383038869946,0.0,0.0,0.0,0.0,0.0,0.0,-53.288,0.0,0.0,0.0,0.0,0.0
565,0.0,0.1178388671875,0.0,0.0,0.0,0.0,0.0,0.0,-0.503,0.0,0.0,0.0,0.0,0.0,0.0,-0.31799330152629307,0.0,0.0,0.0,0.0,0.0,0.0,-49.292,0.0,0.0,0.0,0.0,0.0
566,0.0,0.1178388671875,0.0,0.0,0.0,0.0,0.0,0.0,-0.503,0.0,0.0,0.0,0.0,0.0,0.0,-0.34319791783588,0.0,0.0,0.0,0.0,0.0,0.0,-49.292,0.0,0.0,0.0,0.0,0.0
567,0.0,0.1073349609375,0.0,0.0,0.0,0.0,0.0,0.0,-0.533,0.0,0.0,0.0,0.0,0.0,0.0,-0.3672052243319107,0.0,0.0,0.0,0.0,0.0,0.0,-44.484,0.0,0.0,0.0,0.0,0.0
568,0.0,0.10240234375,0.0,0.0,0.0,0.0,0.0,0.0,-0.501,0.0,0.0,0.0,0.0,0.0,0.0,-0.3907100657057446,0.0,0.0,0.0,0.0,0.0,0.0,-44.324,0.0,0.0,0.0,0.0,0.0
569,0.0,0.0974560546875,0.0,0.0,0.0,0.0,0.0,0.0,-0.495,0.0,0.0,0.0,0.0,0.0,0.0,-0.4129170978018472,0.0,0.0,0.0,0.0,0.0,0.0,-44.54,0.0,0.0,0.0,0.0,0.0
570,0.0,0.0974560546875,0.0,0.0,0.0,0.0,0.0,0.0,-0.495,0.0,0.0,0.0,0.0,0.0,0.0,-0.4347304935316682,0.0,0.0,0.0,0.0,0.0,0.0,-44.54,0.0,0.0,0.0,0.0,0.0
571,0.0,0.091583984375,0.0,0.0,0.0,0.0,0.0,0.0,-0.514,0.0,0.0,0.0,0.0,0.0,0.0,-0.4542445297223586,0.0,0.0,0.0,0.0,0.0,0.0,-44.756,0.0,0.0,0.0,0.0,0.0
572,0.0,0.085923828125,0.0,0.0,0.0,0.0,0.0,0.0,-0.551,0.0,0.0,0.0,0.0,0.0,0.0,-0.47412850767436643,0.0,0.0,0.0,0.0,0.0,0.0,-45.888,0.0,0.0,0.0,0.0,0.0
573,0.0,0.0806689453125,0.0,0.0,0.0,0.0,0.0,0.0,-0.582,0.0,0.0,0.0,0.0,0.0,0.0,-0.4910890530773403,0.0,0.0,0.0,0.0,0.0,0.0,-47.024,0.0,0.0,0.0,0.0,0.0
574,0.0,0.0684169921875,0.0,0.0,0.0,0.0,0.0,0.0,-0.616,0.0,0.0,0.0,0.0,0.0,0.0,-0.5077517392393055,0.0,0.0,0.0,0.0,0.0,0.0,-48.156,0.0,0.0,0.0,0.0,0.0
575,0.0,0.0684169921875,0.0,0.0,0.0,0.0,0.0,0.0,-0.616,0.0,0.0,0.0,0.0,0.0,0.0,-0.5231086650655602,0.0,0.0,0.0,0.0,0.0,0.0,-48.156,0.0,0.0,0.0,0.0,0.0
576,0.0,0.0616181640625,0.0,0.0,0.0,0.0,0.0,0.0,-0.622,0.0,0.0,0.0,0.0,0.0,0.0,-0.5370473987255805,0.0,0.0,0.0,0.0,0.0,0.0,-47.508,0.0,0.0,0.0,0.0,0.0
577,0.0,0.048748046875,0.0,0.0,0.0,0.0,0.0,0.0,-0.686,0.0,0.0,0.0,0.0,0.0,0.0,-0.5497513111561627,0.0,0.0,0.0,0.0,0.0,0.0,-46.752,0.0,0.0,0.0,0.0,0.0
578,0.0,0.042669921875,0.0,0.0,0.0,0.0,0.0,0.0,-0.662,0.0,0.0,0.0,0.0,0.0,0.0,-0.5611391179513601,0.0,0.0,0.0,0.0,0.0,0.0,-40.6,0.0,0.0,0.0,0.0,0.0
579,0.0,0.042669921875,0.0,0.0,0.0,0.0,0.0,0.0,-0.662,0.0,0.0,0.0,0.0,0.0,0.0,-0.5710939738436904,0.0,0.0,0.0,0.0,0.0,0.0,-40.6,0.0,0.0,0.0,0.0,0.0
580,0.0,0.0305205078125,0.0,0.0,0.0,0.0,0.0,0.0,-0.616,0.0,0.0,0.0,0.0,0.0,0.0,-0.579508977178864,0.0,0.0,0.0,0.0,0.0,0.0,-38.872,0.0,0.0,0.0,0.0,0.0
581,0.0,0.0246484375,0.0,0.0,0.0,0.0,0.0,0.0,-0.6,0.0,0.0,0.0,0.0,0.0,0.0,-0.5866336784200324,0.0,0.0,0.0,0.0,0.0,0.0,-39.788,0.0,0.0,0.0,0.0,0.0
582,0.0,0.0190849609375,0.0,0.0,0.0,0.0,0.0,0.0,-0.578,0.0,0.0,0.0,0.0,0.0,0.0,-0.5922655959163197,0.0,0.0,0.0,0.0,0.0,0.0,-33.688,0.0,0.0,0.0,0.0,0.0
583,0.0,0.013939453125,0.0,0.0,0.0,0.0,0.0,0.0,-0.547,0.0,0.0,0.0,0.0,0.0,0.0,-0.5962716075335673,0.0,0.0,0.0,0.0,0.0,0.0,-31.584,0.0,0.0,0.0,0.0,0.0
584,0.0,0.013939453125,0.0,0.0,0.0,0.0,0.0,0.0,-0.547,0.0,0.0,0.0,0.0,0.0,0.0,-0.5988745692978225,0.0,0.0,0.0,0.0,0.0,0.0,-31.584,0.0,0.0,0.0,0.0,0.0
585,0.0,0.008478515625,0.0,0.0,0.0,0.0,0.0,0.0,-0.504,0.0,0.0,0.0,0.0,0.0,0.0,-0.5999591864811413,0.0,0.0,0.0,0.0,0.0,0.0,-34.82,0.0,0.0,0.0,0.0,0.0
586,0.0,-0.000171875,0.0,0.0,0.0,0.0,0.0,0.0,-0.468,0.0,0.0,0.0,0.0,0.0,0.0,-0.599571137567336,0.0,0.0,0.0,0.0,0.0,0.0,-36.172,0.0,0.0,0.0,0.0,0.0
587,0.0,-0.000171875,0.0,0.0,0.0,0.0,0.0,0.0,-0.468,0.0,0.0,0.0,0.0,0.0,0.0,-0.597653600838165,0.0,0.0,0.0,0.0,0.0,0.0,-36.172,0.0,0.0,0.0,0.0,0.0
588,0.0,-0.004802734375,0.0,0.0,0.0,0.0,0.0,0.0,-0.432,0.0,0.0,0.0,0.0,0.0,0.0,-0.5942705641722904,0.0,0.0,0.0,0.0,0.0,0.0,-32.716,0.0,0.0,0.0,0.0,0.0
589,0.0,-0.0123212890625,0.0,0.0,0.0,0.0,0.0,0.0,-0.403,0.0,0.0,0.0,0.0,0.0,0.0,-0.5894698225780676,0.0,0.0,0.0,0.0,0.0,0.0,-39.412,0.0,0.0,0.0,0.0,0.0
590,0.0,-0.0123212890625,0.0,0.0,0.0,0.0,0.0,0.0,-0.403,0.0,0.0,0.0,0.0,0.0,0.0,-0.5830901099621926,0.0,0.0,0.0,0.0,0.0,0.0,-39.412,0.0,0.0,0.0,0.0,0.0
591,0.0,-0.0201494140625,0.0,0.0,0.0,0.0,0.0,0.0,-0.4,0.0,0.0,0.0,0.0,0.0,0.0,-0.5749692319245675,0.0,0.0,0.0,0.0,0.0,0.0,-38.98,0.0,0.0,0.0,0.0,0.0
592,0.0,-0.0201494140625,0.0,0.0,0.0,0.0,0.0,0.0,-0.4,0.0,0.0,0.0,0.0,0.0,0.0,-0.5660377007916201,0.0,0.0,0.0,0.0,0.0,0.0,-38.98,0.0,0.0,0.0,0.0,0.0
593,0.0,-0.026638671875,0.0,0.0,0.0,0.0,0.0,0.0,-0.326,0.0,0.0,0.0,0.0,0.0,0.0,-0.5552774464188075,0.0,0.0,0.0,0.0,0.0,0.0,-38.116,0.0,0.0,0.0,0.0,0.0
594,0.0,-0.029623046875,0.0,0.0,0.0,0.0,0.0,0.0,-0.305,0.0,0.0,0.0,0.0,0.0,0.0,-0.5431823535461852,0.0,0.0,0.0,0.0,0.0,0.0,-41.68,0.0,0.0,0.0,0.0,0.0
595,0.0,-0.029623046875,0.0,0.0,0.0,0.0,0.0,0.0,-0.305,0.0,0.0,0.0,0.0,0.0,0.0,-0.5299545066022159,0.0,0.0,0.0,0.0,0.0,0.0,-41.68,0.0,0.0,0.0,0.0,0.0
596,0.0,-0.0368330078125,0.0,0.0,0.0,0.0,0.0,0.0,-0.364,0.0,0.0,0.0,0.0,0.0,0.0,-0.515136107036507,0.0,0.0,0.0,0.0,0.0,0.0,-45.132,0.0,0.0,0.0,0.0,0.0
597,0.0,-0.0401328125,0.0,0.0,0.0,0.0,0.0,0.0,-0.357,0.0,0.0,0.0,0.0,0.0,0.0,-0.4986357316688503,0.0,0.0,0.0,0.0,0.0,0.0,-43.46,0.0,0.0,0.0,0.0,0.0
598,0.0,-0.0401328125,0.0,0.0,0.0,0.0,0.0,0.0,-0.357,0.0,0.0,0.0,0.0,0.0,0.0,-0.48196740946584954,0.0,0.0,0.0,0.0,0.0,0.0,-43.46,0.0,0.0,0.0,0.0,0.0
599,0.0,-0.0433232421875,0.0,0.0,0.0,0.0,0.0,0.0,-0.312,0.0,0.0,0.0,0.0,0.0,0.0,-0.46351943873046275,0.0,0.0,0.0,0.0,0.0,0.0,-43.568,0.0,0.0,0.0,0.0,0.0
600,0.0,-0.0461015625,0.0,0.0,0.0,0.0,0.0,0.0,-0.286,0.0,0.0,0.0,0.0,0.0,0.0,-0.4438199267757606,0.0,0.0,0.0,0.0,0.0,0.0,-44.484,0.0,0.0,0.0,0.0,0.0
601,0.0,-0.0526943359375,0.0,0.0,0.0,0.0,0.0,0.0,-0.341,0.0,0.0,0.0,0.0,0.0,0.0,-0.4230516096749199,0.0,0.0,0.0,0.0,0.0,0.0,-46.968,0.0,0.0,0.0,0.0,0.0
602,0.0,-0.0563984375,0.0,0.0,0.0,0.0,0.0,0.0,-0.385,0.0,0.0,0.0,0.0,0.0,0.0,-0.40147877333403187,0.0,0.0,0.0,0.0,0.0,0.0,-46.968,0.0,0.0,0.0,0.0,0.0
603,0.0,-0.0563984375,0.0,0.0,0.0,0.0,0.0,0.0,-0.385,0.0,0.0,0.0,0.0,0.0,0.0,-0.37846394768577507,0.0,0.0,0.0,0.0,0.0,0.0,-46.968,0.0,0.0,0.0,0.0,0.0
604,0.0,-0.060212890625,0.0,0.0,0.0,0.0,0.0,0.0,-0.364,0.0,0.0,0.0,0.0,0.0,0.0,-0.35470955705073776,0.0,0.0,0.0,0.0,0.0,0.0,-46.592,0.0,0.0,0.0,0.0,0.0
605,0.0,-0.063505859375,0.0,0.0,0.0,0.0,0.0,0.0,-0.339,0.0,0.0,0.0,0.0,0.0,0.0,-0.3302910496838211,0.0,0.0,0.0,0.0,0.0,0.0,-46.592,0.0,0.0,0.0,0.0,0.0
606,0.0,-0.069892578125,0.0,0.0,0.0,0.0,0.0,0.0,-0.334,0.0,0.0,0.0,0.0,0.0,0.0,-0.30482489878843716,0.0,0.0,0.0,0.0,0.0,0.0,-46.968,0.0,0.0,0.0,0.0,0.0
607,0.0,-0.07390625,0.0,0.0,0.0,0.0,0.0,0.0,-0.379,0.0,0.0,0.0,0.0,0.0,0.0,-0.2786096921612098,0.0,0.0,0.0,0.0,0.0,0.0,-46.7,0.0,0.0,0.0,0.0,0.0
608,0.0,-0.07390625,0.0,0.0,0.0,0.0,0.0,0.0,-0.379,0.0,0.0,0.0,0.0,0.0,0.0,-0.25146018226723593,0.0,0.0,0.0,0.0,0.0,0.0,-46.7,0.0,0.0,0.0,0.0,0.0
609,0.0,-0.078337890625,0.0,0.0,0.0,0.0,0.0,0.0,-0.405,0.0,0.0,0.0,0.0,0.0,0.0,-0.22412811046124267,0.0,0.0,0.0,0.0,0.0,0.0,-46.808,0.0,0.0,0.0,0.0,0.0
610,0.0,-0.0821455078125,0.0,0.0,0.0,0.0,0.0,0.0,-0.399,0.0,0.0,0.0,0.0,0.0,0.0,-0.19607387766677853,0.0,0.0,0.0,0.0,0.0,0.0,-46.968,0.0,0.0,0.0,0.0,0.0
611,0.0,-0.089251953125,0.0,0.0,0.0,0.0,0.0,0.0,-0.372,0.0,0.0,0.0,0.0,0.0,0.0,-0.16745342319809917,0.0,0.0,0.0,0.0,0.0,0.0,-46.968,0.0,0.0,0.0,0.0,0.0
612,0.0,-0.089251953125,0.0,0.0,0.0,0.0,0.0,0.0,-0.372,0.0,0.0,0.0,0.0,0.0,0.0,-0.1383139001059785,0.0,0.0,0.0,0.0,0.0,0.0,-46.968,0.0,0.0,0.0,0.0,0.0
613,0.0,-0.097388671875,0.0,0.0,0.0,0.0,0.0,0.0,-0.407,0.0,0.0,0.0,0.0,0.0,0.0,-0.10901679373979563,0.0,0.0,0.0,0.0,0.0,0.0,-45.24,0.0,0.0,0.0,0.0,0.0
614,0.0,-0.097388671875,0.0,0.0,0.0,0.0,0.0,0.0,-0.407,0.0,0.0,0.0,0.0,0.0,0.0,-0.0795141605251537,0.0,0.0,0.0,0.0,0.0,0.0,-45.24,0.0,0.0,0.0,0.0,0.0
615,0.0,-0.1059296875,0.0,0.0,0.0,0.0,0.0,0.0,-0.435,0.0,0.0,0.0,0.0,0.0,0.0,-0.04941666426214151,0.0,0.0,0.0,0.0,0.0,0.0,-45.62,0.0,0.0,0.0,0.0,0.0
616,0.0,-0.1095380859375,0.0,0.0,0.0,0.0,0.0,0.0,-0.405,0.0,0.0,0.0,0.0,0.0,0.0,-0.019610144929719155,0.0,0.0,0.0,0.0,0.0,0.0,-41.032,0.0,0.0,0.0,0.0,0.0
617,0.0,-0.1095380859375,0.0,0.0,0.0,0.0,0.0,0.0,-0.405,0.0,0.0,0.0,0.0,0.0,0.0,0.010163402841007382,0.0,0.0,0.0,0.0,0.0,0.0,-41.032,0.0,0.0,0.0,0.0,0.0
618,0.0,-0.1119052734375,0.0,0.0,0.0,0.0,0.0,0.0,-0.298,0.0,0.0,0.0,0.0,0.0,0.0,4.792213434846283e-05,0.0,0.0,0.0,0.0,0.0,0.0,-28.884,0.0,0.0,0.0,0.0,0.0
619,0.0,-0.11293359375,0.0,0.0,0.0,0.0,0.0,0.0,-0.063,0.0,0.0,0.0,0.0,0.0,0.0,0.029834598576702617,0.0,0.0,0.0,0.0,0.0,0.0,-13.116,0.0,0.0,0.0,0.0,0.0
620,0.0,-0.112419921875,0.0,0.0,0.0,0.0,0.0,0.0,0.014,0.0,0.0,0.0,0.0,0.0,0.0,0.0595989437766779,0.0,0.0,0.0,0.0,0.0,0.0,-11.444,0.0,0.0,0.0,0.0,0.0
621,0.0,-0.1114931640625,0.0,0.0,0.0,0.0,0.0,0.0,0.066,0.0,0.0,0.0,0.0,0.0,0.0,0.0897193721455645,0.0,0.0,0.0,0.0,0.0,0.0,-9.88,0.0,0.0,0.0,0.0,0.0
622,0.0,-0.1114931640625,0.0,0.0,0.0,0.0,0.0,0.0,0.066,0.0,0.0,0.0,0.0,0.0,0.0,0.1188839167357699,0.0,0.0,0.0,0.0,0.0,0.0,-9.88,0.0,0.0,0.0,0.0,0.0
623,0.0,-0.1064443359375,0.0,0.0,0.0,0.0,0.0,0.0,0.242,0.0,0.0,0.0,0.0,0.0,0.0,0.14791062847156758,0.0,0.0,0.0,0.0,0.0,0.0,-10.744,0.0,0.0,0.0,0.0,0.0
624,0.0,-0.1064443359375,0.0,0.0,0.0,0.0,0.0,0.0,0.242,0.0,0.0,0.0,0.0,0.0,0.0,0.17711447290371088,0.0,0.0,0.0,0.0,0.0,0.0,-10.744,0.0,0.0,0.0,0.0,0.0
625,0.0,-0.101607421875,0.0,0.0,0.0,0.0,0.0,0.0,0.372,0.0,0.0,0.0,0.0,0.0,0.0,0.2055953767585089,0.0,0.0,0.0,0.0,0.0,0.0,-14.36,0.0,0.0,0.0,0.0,0.0
626,0.0,-0.0915224609375,0.0,0.0,0.0,0.0,0.0,0.0,0.529,0.0,0.0,0.0,0.0,0.0,0.0,0.23309267681860305,0.0,0.0,0.0,0.0,0.0,0.0,-19.056,0.0,0.0,0.0,0.0,0.0
627,0.0,-0.0857529296875,0.0,0.0,0.0,0.0,0.0,0.0,0.556,0.0,0.0,0.0,0.0,0.0,0.0,0.2605983902677111,0.0,0.0,0.0,0.0,0.0,0.0,-20.84,0.0,0.0,0.0,0.0,0.0
628,0.0,-0.0857529296875,0.0,0.0,0.0,0.0,0.0,0.0,0.556,0.0,0.0,0.0,0.0,0.0,0.0,0.2872633101526545,0.0,0.0,0.0,0.0,0.0,0.0,-20.84,0.0,0.0,0.0,0.0,0.0
629,0.0,-0.0794697265625,0.0,0.0,0.0,0.0,0.0,0.0,0.585,0.0,0.0,0.0,0.0,0.0,0.0,0.31334616557244194,0.0,0.0,0.0,0.0,0.0,0.0,-27.264,0.0,0.0,0.0,0.0,0.0
630,0.0,-0.073494140625,0.0,0.0,0.0,0.0,0.0,0.0,0.581,0.0,0.0,0.0,0.0,0.0,0.0,0.33856792802252006,0.0,0.0,0.0,0.0,0.0,0.0,-32.824,0.0,0.0,0.0,0.0,0.0
631,0.0,-0.066908203125,0.0,0.0,0.0,0.0,0.0,0.0,0.621,0.0,0.0,0.0,0.0,0.0,0.0,0.36296633261509365,0.0,0.0,0.0,0.0,0.0,0.0,-36.872,0.0,0.0,0.0,0.0,0.0
632,0.0,-0.0536201171875,0.0,0.0,0.0,0.0,0.0,0.0,0.696,0.0,0.0,0.0,0.0,0.0,0.0,0.38651717643830236,0.0,0.0,0.0,0.0,0.0,0.0,-35.36,0.0,0.0,0.0,0.0,0.0
633,0.0,-0.0536201171875,0.0,0.0,0.0,0.0,0.0,0.0,0.696,0.0,0.0,0.0,0.0,0.0,0.0,0.40880968297483905,0.0,0.0,0.0,0.0,0.0,0.0,-35.36,0.0,0.0,0.0,0.0,0.0
634,0.0,-0.0462041015625,0.0,0.0,0.0,0.0,0.0,0.0,0.713,0.0,0.0,0.0,0.0,0.0,0.0,0.4302024899063159,0.0,0.0,0.0,0.0,0.0,0.0,-43.46,0.0,0.0,0.0,0.0,0.0
635,0.0,-0.0339521484375,0.0,0.0,0.0,0.0,0.0,0.0,0.642,0.0,0.0,0.0,0.0,0.0,0.0,0.45038581827275315,0.0,0.0,0.0,0.0,0.0,0.0,-45.728,0.0,0.0,0.0,0.0,0.0
636,0.0,-0.0339521484375,0.0,0.0,0.0,0.0,0.0,0.0,0.642,0.0,0.0,0.0,0.0,0.0,0.0,0.46986374686083665,0.0,0.0,0.0,0.0,0.0,0.0,-45.728,0.0,0.0,0.0,0.0,0.0
637,0.0,-0.0267412109375,0.0,0.0,0.0,0.0,0.0,0.0,0.677,0.0,0.0,0.0,0.0,0.0,0.0,0.48799697466877007,0.0,0.0,0.0,0.0,0.0,0.0,-44.108,0.0,0.0,0.0,0.0,0.0
638,0.0,-0.0203544921875,0.0,0.0,0.0,0.0,0.0,0.0,0.642,0.0,0.0,0.0,0.0,0.0,0.0,0.5046344167558281,0.0,0.0,0.0,0.0,0.0,0.0,-49.992,0.0,0.0,0.0,0.0,0.0
639,0.0,-0.0137626953125,0.0,0.0,0.0,0.0,0.0,0.0,0.658,0.0,0.0,0.0,0.0,0.0,0.0,0.5203030282816516,0.0,0.0,0.0,0.0,0.0,0.0,-54.256,0.0,0.0,0.0,0.0,0.0
640,0.0,-0.0077939453125,0.0,0.0,0.0,0.0,0.0,0.0,0.642,0.0,0.0,0.0,0.0,0.0,0.0,0.5346524112005432,0.0,0.0,0.0,0.0,0.0,0.0,-52.64,0.0,0.0,0.0,0.0,0.0
641,0.0,-0.0020244140625,0.0,0.0,0.0,0.0,0.0,0.0,0.589,0.0,0.0,0.0,0.0,0.0,0.0,0.547475627464158,0.0,0.0,0.0,0.0,0.0,0.0,-52.368,0.0,0.0,0.0,0.0,0.0
642,0.0,0.0034365234375,0.0,0.0,0.0,0.0,0.0,0.0,0.569,0.0,0.0,0.0,0.0,0.0,0.0,0.5591147964298333,0.0,0.0,0.0,0.0,0.0,0.0,-56.796,0.0,0.0,0.0,0.0,0.0
643,0.0,0.0137333984375,0.0,0.0,0.0,0.0,0.0,0.0,0.544,0.0,0.0,0.0,0.0,0.0,0.0,0.5693047836225069,0.0,0.0,0.0,0.0,0.0,0.0,-56.632,0.0,0.0,0.0,0.0,0.0
644,0.0,0.0137333984375,0.0,0.0,0.0,0.0,0.0,0.0,0.544,0.0,0.0,0.0,0.0,0.0,0.0,0.5780730611175391,0.0,0.0,0.0,0.0,0.0,0.0,-56.632,0.0,0.0,0.0,0.0,0.0
645,0.0,0.0191875,0.0,0.0,0.0,0.0,0.0,0.0,0.536,0.0,0.0,0.0,0.0,0.0,0.0,0.5853280766939359,0.0,0.0,0.0,0.0,0.0,0.0,-55.392,0.0,0.0,0.0,0.0,0.0
646,0.0,0.0271181640625,0.0,0.0,0.0,0.0,0.0,0.0,0.424,0.0,0.0,0.0,0.0,0.0,0.0,0.5912029548129639,0.0,0.0,0.0,0.0,0.0,0.0,-58.632,0.0,0.0,0.0,0.0,0.0
647,0.0,0.0311376953125,0.0,0.0,0.0,0.0,0.0,0.0,0.411,0.0,0.0,0.0,0.0,0.0,0.0,0.595557775794177,0.0,0.0,0.0,0.0,0.0,0.0,-55.392,0.0,0.0,0.0,0.0,0.0
648,0.0,0.0311376953125,0.0,0.0,0.0,0.0,0.0,0.0,0.411,0.0,0.0,0.0,0.0,0.0,0.0,0.5984842556166895,0.0,0.0,0.0,0.0,0.0,0.0,-55.392,0.0,0.0,0.0,0.0,0.0
649,0.0,0.035666015625,0.0,0.0,0.0,0.0,0.0,0.0,0.403,0.0,0.0,0.0,0.0,0.0,0.0,0.5998595106219636,0.0,0.0,0.0,0.0,0.0,0.0,-51.72,0.0,0.0,0.0,0.0,0.0
650,0.0,0.0395830078125,0.0,0.0,0.0,0.0,0.0,0.0,0.414,0.0,0.0,0.0,0.0,0.0,0.0,0.599760097505353,0.0,0.0,0.0,0.0,0.0,0.0,-52.856,0.0,0.0,0.0,0.0,0.0
651,0.0,0.0425673828125,0.0,0.0,0.0,0.0,0.0,0.0,0.355,0.0,0.0,0.0,0.0,0.0,0.0,0.5981341711515393,0.0,0.0,0.0,0.0,0.0,0.0,-55.284,0.0,0.0,0.0,0.0,0.0
652,0.0,0.0454482421875,0.0,0.0,0.0,0.0,0.0,0.0,0.295,0.0,0.0,0.0,0.0,0.0,0.0,0.5950581844745182,0.0,0.0,0.0,0.0,0.0,0.0,-53.448,0.0,0.0,0.0,0.0,0.0
653,0.0,0.0506005859375,0.0,0.0,0.0,0.0,0.0,0.0,0.265,0.0,0.0,0.0,0.0,0.0,0.0,0.5904748189168979,0.0,0.0,0.0,0.0,0.0,0.0,-45.62,0.0,0.0,0.0,0.0,0.0
654,0.0,0.0506005859375,0.0,0.0,0.0,0.0,0.0,0.0,0.265,0.0,0.0,0.0,0.0,0.0,0.0,0.5844139423434348,0.0,0.0,0.0,0.0,0.0,0.0,-45.62,0.0,0.0,0.0,0.0,0.0
655,0.0,0.057193359375,0.0,0.0,0.0,0.0,0.0,0.0,0.342,0.0,0.0,0.0,0.0,0.0,0.0,0.5768591480136336,0.0,0.0,0.0,0.0,0.0,0.0,-44.972,0.0,0.0,0.0,0.0,0.0
656,0.0,0.06007421875,0.0,0.0,0.0,0.0,0.0,0.0,0.3,0.0,0.0,0.0,0.0,0.0,0.0,0.5679176144250957,0.0,0.0,0.0,0.0,0.0,0.0,-45.564,0.0,0.0,0.0,0.0,0.0
657,0.0,0.06007421875,0.0,0.0,0.0,0.0,0.0,0.0,0.3,0.0,0.0,0.0,0.0,0.0,0.0,0.5575489697476881,0.0,0.0,0.0,0.0,0.0,0.0,-45.564,0.0,0.0,0.0,0.0,0.0
658,0.0,0.062853515625,0.0,0.0,0.0,0.0,0.0,0.0,0.246,0.0,0.0,0.0,0.0,0.0,0.0,0.545284774041264,0.0,0.0,0.0,0.0,0.0,0.0,-44.54,0.0,0.0,0.0,0.0,0.0
659,0.0,0.0683134765625,0.0,0.0,0.0,0.0,0.0,0.0,0.285,0.0,0.0,0.0,0.0,0.0,0.0,0.5325761710065013,0.0,0.0,0.0,0.0,0.0,0.0,-41.084,0.0,0.0,0.0,0.0,0.0
660,0.0,0.0717099609375,0.0,0.0,0.0,0.0,0.0,0.0,0.335,0.0,0.0,0.0,0.0,0.0,0.0,0.5181221915157269,0.0,0.0,0.0,0.0,0.0,0.0,-41.084,0.0,0.0,0.0,0.0,0.0
661,0.0,0.0717099609375,0.0,0.0,0.0,0.0,0.0,0.0,0.335,0.0,0.0,0.0,0.0,0.0,0.0,0.5022311478678099,0.0,0.0,0.0,0.0,0.0,0.0,-41.084,0.0,0.0,0.0,0.0,0.0
662,0.0,0.078302734375,0.0,0.0,0.0,0.0,0.0,0.0,0.332,0.0,0.0,0.0,0.0,0.0,0.0,0.4853484924746402,0.0,0.0,0.0,0.0,0.0,0.0,-40.924,0.0,0.0,0.0,0.0,0.0
663,0.0,0.078302734375,0.0,0.0,0.0,0.0,0.0,0.0,0.332,0.0,0.0,0.0,0.0,0.0,0.0,0.4670549282980157,0.0,0.0,0.0,0.0,0.0,0.0,-40.924,0.0,0.0,0.0,0.0,0.0
664,0.0,0.0814921875,0.0,0.0,0.0,0.0,0.0,0.0,0.311,0.0,0.0,0.0,0.0,0.0,0.0,0.44766887024485114,0.0,0.0,0.0,0.0,0.0,0.0,-39.896,0.0,0.0,0.0,0.0,0.0
665,0.0,0.08489453125,0.0,0.0,0.0,0.0,0.0,0.0,0.309,0.0,0.0,0.0,0.0,0.0,0.0,0.4271201155719058,0.0,0.0,0.0,0.0,0.0,0.0,-39.788,0.0,0.0,0.0,0.0,0.0
666,0.0,0.0914814453125,0.0,0.0,0.0,0.0,0.0,0.0,0.351,0.0,0.0,0.0,0.0,0.0,0.0,0.4055409795577831,0.0,0.0,0.0,0.0,0.0,0.0,-40.168,0.0,0.0,0.0,0.0,0.0
667,0.0,0.0914814453125,0.0,0.0,0.0,0.0,0.0,0.0,0.351,0.0,0.0,0.0,0.0,0.0,0.0,0.38262188689657706,0.0,0.0,0.0,0.0,0.0,0.0,-40.168,0.0,0.0,0.0,0.0,0.0
668,0.0,0.095603515625,0.0,0.0,0.0,0.0,0.0,0.0,0.365,0.0,0.0,0.0,0.0,0.0,0.0,0.35938806223593006,0.0,0.0,0.0,0.0,0.0,0.0,-39.844,0.0,0.0,0.0,0.0,0.0
