EmanuelSamir/lab201_ws_projsamir/sawyer_dev/data/sawyer/all_thought/test_joint4/validation_data.csv
,j1,j2,j3,j4,j5,j6,j7,v1,v2,v3,v4,v5,v6,v7,jd1,jd2,jd3,jd4,jd5,jd6,jd7,e1,e2,e3,e4,e5,e6,e7
0,0.0,0.0,0.0,0.0,0.0,0.0,0.0,0.0,0.0,0.0,0.0,0.0,0.0,0.0,0.0,0.0,0.0,0.0,0.0,0.0,0.0,0.0,0.0,0.0,0.0,0.0,0.0,0.0
1,0.0,0.0,0.0,0.00195703125,0.0,0.0,0.0,0.0,0.0,0.0,-0.001,0.0,0.0,0.0,0.0,0.0,-1.61,2.8119556993226535e-05,0.0,0.0,0.0,0.0,0.0,0.0,0.408,0.0,0.0,0.0
2,0.0,0.0,0.0,0.00195703125,0.0,0.0,0.0,0.0,0.0,0.0,-0.001,0.0,0.0,0.0,0.0,0.0,-1.61,0.0011726290339845434,0.0,0.0,0.0,0.0,0.0,0.0,0.408,0.0,0.0,0.0
3,0.0,0.0,0.0,0.00195703125,0.0,0.0,0.0,0.0,0.0,0.0,-0.001,0.0,0.0,0.0,0.0,0.0,-1.61,0.0038266906774408116,0.0,0.0,0.0,0.0,0.0,0.0,0.248,0.0,0.0,0.0
4,0.0,0.0,0.0,0.00195703125,0.0,0.0,0.0,0.0,0.0,0.0,-0.001,0.0,0.0,0.0,0.0,0.0,-1.61,0.006453414342330695,0.0,0.0,0.0,0.0,0.0,0.0,0.296,0.0,0.0,0.0
5,0.0,0.0,0.0,0.00195703125,0.0,0.0,0.0,0.0,0.0,0.0,-0.001,0.0,0.0,0.0,0.0,0.0,-1.61,0.0090887251306376,0.0,0.0,0.0,0.0,0.0,0.0,0.32,0.0,0.0,0.0
6,0.0,0.0,0.0,0.00195703125,0.0,0.0,0.0,0.0,0.0,0.0,-0.001,0.0,0.0,0.0,0.0,0.0,-1.61,0.011714314235277735,0.0,0.0,0.0,0.0,0.0,0.0,0.48,0.0,0.0,0.0
7,0.0,0.0,0.0,0.0023896484375,0.0,0.0,0.0,0.0,0.0,0.0,0.01,0.0,0.0,0.0,0.0,0.0,-1.61,0.014330786474006405,0.0,0.0,0.0,0.0,0.0,0.0,1.28,0.0,0.0,0.0
8,0.0,0.0,0.0,0.003689453125,0.0,0.0,0.0,0.0,0.0,0.0,0.081,0.0,0.0,0.0,0.0,0.0,-1.61,0.017378684878791212,0.0,0.0,0.0,0.0,0.0,0.0,2.444,0.0,0.0,0.0
9,0.0,0.0,0.0,0.0054306640625,0.0,0.0,0.0,0.0,0.0,0.0,0.157,0.0,0.0,0.0,0.0,0.0,-1.61,0.01960097535895447,0.0,0.0,0.0,0.0,0.0,0.0,2.512,0.0,0.0,0.0
10,0.0,0.0,0.0,0.00731640625,0.0,0.0,0.0,0.0,0.0,0.0,0.176,0.0,0.0,0.0,0.0,0.0,-1.61,0.022225216915180344,0.0,0.0,0.0,0.0,0.0,0.0,2.536,0.0,0.0,0.0
11,0.0,0.0,0.0,0.009916015625,0.0,0.0,0.0,0.0,0.0,0.0,0.216,0.0,0.0,0.0,0.0,0.0,-1.61,0.024850020648267794,0.0,0.0,0.0,0.0,0.0,0.0,2.284,0.0,0.0,0.0
12,0.0,0.0,0.0,0.0125322265625,0.0,0.0,0.0,0.0,0.0,0.0,0.265,0.0,0.0,0.0,0.0,0.0,-1.61,0.027460716136307864,0.0,0.0,0.0,0.0,0.0,0.0,1.552,0.0,0.0,0.0
13,0.0,0.0,0.0,0.015140625,0.0,0.0,0.0,0.0,0.0,0.0,0.263,0.0,0.0,0.0,0.0,0.0,-1.61,0.03010742116733077,0.0,0.0,0.0,0.0,0.0,0.0,1.46,0.0,0.0,0.0
14,0.0,0.0,0.0,0.018037109375,0.0,0.0,0.0,0.0,0.0,0.0,0.263,0.0,0.0,0.0,0.0,0.0,-1.61,0.03273965862390986,0.0,0.0,0.0,0.0,0.0,0.0,1.852,0.0,0.0,0.0
15,0.0,0.0,0.0,0.0210771484375,0.0,0.0,0.0,0.0,0.0,0.0,0.304,0.0,0.0,0.0,0.0,0.0,-1.61,0.03554802432937345,0.0,0.0,0.0,0.0,0.0,0.0,1.44,0.0,0.0,0.0
16,0.0,0.0,0.0,0.0242626953125,0.0,0.0,0.0,0.0,0.0,0.0,0.31,0.0,0.0,0.0,0.0,0.0,-1.61,0.03795058478266499,0.0,0.0,0.0,0.0,0.0,0.0,1.712,0.0,0.0,0.0
17,0.0,0.0,0.0,0.0274482421875,0.0,0.0,0.0,0.0,0.0,0.0,0.313,0.0,0.0,0.0,0.0,0.0,-1.61,0.040593494394870304,0.0,0.0,0.0,0.0,0.0,0.0,1.668,0.0,0.0,0.0
18,0.0,0.0,0.0,0.0306337890625,0.0,0.0,0.0,0.0,0.0,0.0,0.323,0.0,0.0,0.0,0.0,0.0,-1.61,0.043234176641365314,0.0,0.0,0.0,0.0,0.0,0.0,0.776,0.0,0.0,0.0
19,0.0,0.0,0.0,0.033828125,0.0,0.0,0.0,0.0,0.0,0.0,0.319,0.0,0.0,0.0,0.0,0.0,-1.61,0.04583308060040088,0.0,0.0,0.0,0.0,0.0,0.0,1.096,0.0,0.0,0.0
20,0.0,0.0,0.0,0.0374462890625,0.0,0.0,0.0,0.0,0.0,0.0,0.345,0.0,0.0,0.0,0.0,0.0,-1.61,0.04848563273837419,0.0,0.0,0.0,0.0,0.0,0.0,1.004,0.0,0.0,0.0
21,0.0,0.0,0.0,0.0404873046875,0.0,0.0,0.0,0.0,0.0,0.0,0.346,0.0,0.0,0.0,0.0,0.0,-1.61,0.05107454873807458,0.0,0.0,0.0,0.0,0.0,0.0,0.272,0.0,0.0,0.0
22,0.0,0.0,0.0,0.04352734375,0.0,0.0,0.0,0.0,0.0,0.0,0.292,0.0,0.0,0.0,0.0,0.0,-1.61,0.05371155288199607,0.0,0.0,0.0,0.0,0.0,0.0,1.232,0.0,0.0,0.0
23,0.0,0.0,0.0,0.046568359375,0.0,0.0,0.0,0.0,0.0,0.0,0.308,0.0,0.0,0.0,0.0,0.0,-1.61,0.056328155491399745,0.0,0.0,0.0,0.0,0.0,0.0,0.98,0.0,0.0,0.0
24,0.0,0.0,0.0,0.0493212890625,0.0,0.0,0.0,0.0,0.0,0.0,0.297,0.0,0.0,0.0,0.0,0.0,-1.61,0.058957403637907836,0.0,0.0,0.0,0.0,0.0,0.0,0.776,0.0,0.0,0.0
25,0.0,0.0,0.0,0.0520732421875,0.0,0.0,0.0,0.0,0.0,0.0,0.27,0.0,0.0,0.0,0.0,0.0,-1.61,0.0615850843750829,0.0,0.0,0.0,0.0,0.0,0.0,1.164,0.0,0.0,0.0
26,0.0,0.0,0.0,0.055123046875,0.0,0.0,0.0,0.0,0.0,0.0,0.293,0.0,0.0,0.0,0.0,0.0,-1.61,0.06418287802850328,0.0,0.0,0.0,0.0,0.0,0.0,0.888,0.0,0.0,0.0
27,0.0,0.0,0.0,0.057875,0.0,0.0,0.0,0.0,0.0,0.0,0.297,0.0,0.0,0.0,0.0,0.0,-1.61,0.06681523365949829,0.0,0.0,0.0,0.0,0.0,0.0,0.088,0.0,0.0,0.0
28,0.0,0.0,0.0,0.0603388671875,0.0,0.0,0.0,0.0,0.0,0.0,0.26,0.0,0.0,0.0,0.0,0.0,-1.61,0.06947192833682966,0.0,0.0,0.0,0.0,0.0,0.0,0.16,0.0,0.0,0.0
29,0.0,0.0,0.0,0.0632353515625,0.0,0.0,0.0,0.0,0.0,0.0,0.27,0.0,0.0,0.0,0.0,0.0,-1.61,0.07204342712067179,0.0,0.0,0.0,0.0,0.0,0.0,-0.088,0.0,0.0,0.0
30,0.0,0.0,0.0,0.0658427734375,0.0,0.0,0.0,0.0,0.0,0.0,0.277,0.0,0.0,0.0,0.0,0.0,-1.61,0.07468373544731559,0.0,0.0,0.0,0.0,0.0,0.0,0.32,0.0,0.0,0.0
31,0.0,0.0,0.0,0.0684501953125,0.0,0.0,0.0,0.0,0.0,0.0,0.261,0.0,0.0,0.0,0.0,0.0,-1.61,0.07727884622206233,0.0,0.0,0.0,0.0,0.0,0.0,0.524,0.0,0.0,0.0
32,0.0,0.0,0.0,0.0713466796875,0.0,0.0,0.0,0.0,0.0,0.0,0.277,0.0,0.0,0.0,0.0,0.0,-1.61,0.07996413466851503,0.0,0.0,0.0,0.0,0.0,0.0,0.388,0.0,0.0,0.0
33,0.0,0.0,0.0,0.0739453125,0.0,0.0,0.0,0.0,0.0,0.0,0.284,0.0,0.0,0.0,0.0,0.0,-1.61,0.08251219343113894,0.0,0.0,0.0,0.0,0.0,0.0,-0.456,0.0,0.0,0.0
34,0.0,0.0,0.0,0.0761298828125,0.0,0.0,0.0,0.0,0.0,0.0,0.242,0.0,0.0,0.0,0.0,0.0,-1.61,0.08512991224847637,0.0,0.0,0.0,0.0,0.0,0.0,-1.212,0.0,0.0,0.0
35,0.0,0.0,0.0,0.0784482421875,0.0,0.0,0.0,0.0,0.0,0.0,0.214,0.0,0.0,0.0,0.0,0.0,-1.61,0.08779078388847342,0.0,0.0,0.0,0.0,0.0,0.0,-0.888,0.0,0.0,0.0
36,0.0,0.0,0.0,0.0814892578125,0.0,0.0,0.0,0.0,0.0,0.0,0.268,0.0,0.0,0.0,0.0,0.0,-1.61,0.09036807063171634,0.0,0.0,0.0,0.0,0.0,0.0,0.068,0.0,0.0,0.0
37,0.0,0.0,0.0,0.0843857421875,0.0,0.0,0.0,0.0,0.0,0.0,0.301,0.0,0.0,0.0,0.0,0.0,-1.61,0.09299139030977349,0.0,0.0,0.0,0.0,0.0,0.0,-0.16,0.0,0.0,0.0
38,0.0,0.0,0.0,0.0871376953125,0.0,0.0,0.0,0.0,0.0,0.0,0.28,0.0,0.0,0.0,0.0,0.0,-1.61,0.0956122925542698,0.0,0.0,0.0,0.0,0.0,0.0,0.088,0.0,0.0,0.0
39,0.0,0.0,0.0,0.0904677734375,0.0,0.0,0.0,0.0,0.0,0.0,0.309,0.0,0.0,0.0,0.0,0.0,-1.61,0.09819402707973059,0.0,0.0,0.0,0.0,0.0,0.0,-0.728,0.0,0.0,0.0
40,0.0,0.0,0.0,0.0935087890625,0.0,0.0,0.0,0.0,0.0,0.0,0.324,0.0,0.0,0.0,0.0,0.0,-1.61,0.10080780318631595,0.0,0.0,0.0,0.0,0.0,0.0,-1.44,0.0,0.0,0.0
41,0.0,0.0,0.0,0.09626953125,0.0,0.0,0.0,0.0,0.0,0.0,0.288,0.0,0.0,0.0,0.0,0.0,-1.61,0.10343614713709794,0.0,0.0,0.0,0.0,0.0,0.0,-1.004,0.0,0.0,0.0
42,0.0,0.0,0.0,0.099455078125,0.0,0.0,0.0,0.0,0.0,0.0,0.292,0.0,0.0,0.0,0.0,0.0,-1.61,0.10605420661655518,0.0,0.0,0.0,0.0,0.0,0.0,-0.752,0.0,0.0,0.0
43,0.0,0.0,0.0,0.1020537109375,0.0,0.0,0.0,0.0,0.0,0.0,0.298,0.0,0.0,0.0,0.0,0.0,-1.61,0.10864058268982967,0.0,0.0,0.0,0.0,0.0,0.0,-0.684,0.0,0.0,0.0
44,0.0,0.0,0.0,0.1045078125,0.0,0.0,0.0,0.0,0.0,0.0,0.253,0.0,0.0,0.0,0.0,0.0,-1.61,0.11126979995277395,0.0,0.0,0.0,0.0,0.0,0.0,0.088,0.0,0.0,0.0
45,0.0,0.0,0.0,0.1069716796875,0.0,0.0,0.0,0.0,0.0,0.0,0.243,0.0,0.0,0.0,0.0,0.0,-1.61,0.11388246019078914,0.0,0.0,0.0,0.0,0.0,0.0,0.044,0.0,0.0,0.0
46,0.0,0.0,0.0,0.109146484375,0.0,0.0,0.0,0.0,0.0,0.0,0.24,0.0,0.0,0.0,0.0,0.0,-1.61,0.11644235368407438,0.0,0.0,0.0,0.0,0.0,0.0,0.48,0.0,0.0,0.0
47,0.0,0.0,0.0,0.111609375,0.0,0.0,0.0,0.0,0.0,0.0,0.229,0.0,0.0,0.0,0.0,0.0,-1.61,0.11906733927441088,0.0,0.0,0.0,0.0,0.0,0.0,1.052,0.0,0.0,0.0
48,0.0,0.0,0.0,0.1139287109375,0.0,0.0,0.0,0.0,0.0,0.0,0.24,0.0,0.0,0.0,0.0,0.0,-1.61,0.12172622948808708,0.0,0.0,0.0,0.0,0.0,0.0,0.16,0.0,0.0,0.0
49,0.0,0.0,0.0,0.1163916015625,0.0,0.0,0.0,0.0,0.0,0.0,0.237,0.0,0.0,0.0,0.0,0.0,-1.61,0.12425390585472013,0.0,0.0,0.0,0.0,0.0,0.0,0.364,0.0,0.0,0.0
50,0.0,0.0,0.0,0.119,0.0,0.0,0.0,0.0,0.0,0.0,0.259,0.0,0.0,0.0,0.0,0.0,-1.61,0.12688127486998038,0.0,0.0,0.0,0.0,0.0,0.0,0.296,0.0,0.0,0.0
51,0.0,0.0,0.0,0.1210302734375,0.0,0.0,0.0,0.0,0.0,0.0,0.244,0.0,0.0,0.0,0.0,0.0,-1.61,0.1294945262723075,0.0,0.0,0.0,0.0,0.0,0.0,-0.044,0.0,0.0,0.0
52,0.0,0.0,0.0,0.1233486328125,0.0,0.0,0.0,0.0,0.0,0.0,0.209,0.0,0.0,0.0,0.0,0.0,-1.61,0.13204874096739158,0.0,0.0,0.0,0.0,0.0,0.0,0.844,0.0,0.0,0.0
53,0.0,0.0,0.0,0.1256591796875,0.0,0.0,0.0,0.0,0.0,0.0,0.231,0.0,0.0,0.0,0.0,0.0,-1.61,0.13466701148827295,0.0,0.0,0.0,0.0,0.0,0.0,0.568,0.0,0.0,0.0
54,0.0,0.0,0.0,0.1279775390625,0.0,0.0,0.0,0.0,0.0,0.0,0.234,0.0,0.0,0.0,0.0,0.0,-1.61,0.1372742755001461,0.0,0.0,0.0,0.0,0.0,0.0,0.8,0.0,0.0,0.0
55,0.0,0.0,0.0,0.130296875,0.0,0.0,0.0,0.0,0.0,0.0,0.234,0.0,0.0,0.0,0.0,0.0,-1.61,0.1398933523974526,0.0,0.0,0.0,0.0,0.0,0.0,0.844,0.0,0.0,0.0
56,0.0,0.0,0.0,0.1327607421875,0.0,0.0,0.0,0.0,0.0,0.0,0.245,0.0,0.0,0.0,0.0,0.0,-1.61,0.1424455445870014,0.0,0.0,0.0,0.0,0.0,0.0,0.64,0.0,0.0,0.0
57,0.0,0.0,0.0,0.1352236328125,0.0,0.0,0.0,0.0,0.0,0.0,0.25,0.0,0.0,0.0,0.0,0.0,-1.61,0.1451233929260846,0.0,0.0,0.0,0.0,0.0,0.0,0.524,0.0,0.0,0.0
58,0.0,0.0,0.0,0.1376875,0.0,0.0,0.0,0.0,0.0,0.0,0.242,0.0,0.0,0.0,0.0,0.0,-1.61,0.14763454375879667,0.0,0.0,0.0,0.0,0.0,0.0,0.888,0.0,0.0,0.0
59,0.0,0.0,0.0,0.140439453125,0.0,0.0,0.0,0.0,0.0,0.0,0.264,0.0,0.0,0.0,0.0,0.0,-1.61,0.15022509640729514,0.0,0.0,0.0,0.0,0.0,0.0,0.364,0.0,0.0,0.0
60,0.0,0.0,0.0,0.143046875,0.0,0.0,0.0,0.0,0.0,0.0,0.266,0.0,0.0,0.0,0.0,0.0,-1.61,0.1528035070507821,0.0,0.0,0.0,0.0,0.0,0.0,0.248,0.0,0.0,0.0
61,0.0,0.0,0.0,0.1455107421875,0.0,0.0,0.0,0.0,0.0,0.0,0.257,0.0,0.0,0.0,0.0,0.0,-1.61,0.1553987628034692,0.0,0.0,0.0,0.0,0.0,0.0,0.088,0.0,0.0,0.0
62,0.0,0.0,0.0,0.1482626953125,0.0,0.0,0.0,0.0,0.0,0.0,0.264,0.0,0.0,0.0,0.0,0.0,-1.61,0.1579838707420873,0.0,0.0,0.0,0.0,0.0,0.0,0.136,0.0,0.0,0.0
63,0.0,0.0,0.0,0.1511591796875,0.0,0.0,0.0,0.0,0.0,0.0,0.279,0.0,0.0,0.0,0.0,0.0,-1.61,0.16057435134317835,0.0,0.0,0.0,0.0,0.0,0.0,0.272,0.0,0.0,0.0
64,0.0,0.0,0.0,0.1539111328125,0.0,0.0,0.0,0.0,0.0,0.0,0.283,0.0,0.0,0.0,0.0,0.0,-1.61,0.16315126392819446,0.0,0.0,0.0,0.0,0.0,0.0,0.272,0.0,0.0,0.0
65,0.0,0.0,0.0,0.15681640625,0.0,0.0,0.0,0.0,0.0,0.0,0.283,0.0,0.0,0.0,0.0,0.0,-1.61,0.1657320265397122,0.0,0.0,0.0,0.0,0.0,0.0,-0.16,0.0,0.0,0.0
66,0.0,0.0,0.0,0.1595595703125,0.0,0.0,0.0,0.0,0.0,0.0,0.285,0.0,0.0,0.0,0.0,0.0,-1.61,0.16831470152787287,0.0,0.0,0.0,0.0,0.0,0.0,-0.088,0.0,0.0,0.0
67,0.0,0.0,0.0,0.1624560546875,0.0,0.0,0.0,0.0,0.0,0.0,0.281,0.0,0.0,0.0,0.0,0.0,-1.61,0.1708805076041475,0.0,0.0,0.0,0.0,0.0,0.0,0.18,0.0,0.0,0.0
68,0.0,0.0,0.0,0.165208984375,0.0,0.0,0.0,0.0,0.0,0.0,0.286,0.0,0.0,0.0,0.0,0.0,-1.61,0.17347166716759121,0.0,0.0,0.0,0.0,0.0,0.0,0.088,0.0,0.0,0.0
69,0.0,0.0,0.0,0.16781640625,0.0,0.0,0.0,0.0,0.0,0.0,0.271,0.0,0.0,0.0,0.0,0.0,-1.61,0.17605255154792884,0.0,0.0,0.0,0.0,0.0,0.0,0.408,0.0,0.0,0.0
70,0.0,0.0,0.0,0.170423828125,0.0,0.0,0.0,0.0,0.0,0.0,0.263,0.0,0.0,0.0,0.0,0.0,-1.61,0.17861646338108897,0.0,0.0,0.0,0.0,0.0,0.0,0.456,0.0,0.0,0.0
71,0.0,0.0,0.0,0.1730322265625,0.0,0.0,0.0,0.0,0.0,0.0,0.261,0.0,0.0,0.0,0.0,0.0,-1.61,0.1811987427984087,0.0,0.0,0.0,0.0,0.0,0.0,0.5,0.0,0.0,0.0
72,0.0,0.0,0.0,0.17550390625,0.0,0.0,0.0,0.0,0.0,0.0,0.252,0.0,0.0,0.0,0.0,0.0,-1.61,0.18378608964794105,0.0,0.0,0.0,0.0,0.0,0.0,0.524,0.0,0.0,0.0
73,0.0,0.0,0.0,0.177814453125,0.0,0.0,0.0,0.0,0.0,0.0,0.244,0.0,0.0,0.0,0.0,0.0,-1.61,0.1863431169115926,0.0,0.0,0.0,0.0,0.0,0.0,0.388,0.0,0.0,0.0
74,0.0,0.0,0.0,0.18056640625,0.0,0.0,0.0,0.0,0.0,0.0,0.249,0.0,0.0,0.0,0.0,0.0,-1.61,0.18890806455288148,0.0,0.0,0.0,0.0,0.0,0.0,0.776,0.0,0.0,0.0
75,0.0,0.0,0.0,0.183173828125,0.0,0.0,0.0,0.0,0.0,0.0,0.271,0.0,0.0,0.0,0.0,0.0,-1.61,0.19147526331865852,0.0,0.0,0.0,0.0,0.0,0.0,0.408,0.0,0.0,0.0
76,0.0,0.0,0.0,0.1854931640625,0.0,0.0,0.0,0.0,0.0,0.0,0.247,0.0,0.0,0.0,0.0,0.0,-1.61,0.19404902598536772,0.0,0.0,0.0,0.0,0.0,0.0,0.088,0.0,0.0,0.0
77,0.0,0.0,0.0,0.18795703125,0.0,0.0,0.0,0.0,0.0,0.0,0.238,0.0,0.0,0.0,0.0,0.0,-1.61,0.1966013854456766,0.0,0.0,0.0,0.0,0.0,0.0,0.136,0.0,0.0,0.0
78,0.0,0.0,0.0,0.190275390625,0.0,0.0,0.0,0.0,0.0,0.0,0.241,0.0,0.0,0.0,0.0,0.0,-1.61,0.1991887301219689,0.0,0.0,0.0,0.0,0.0,0.0,-0.068,0.0,0.0,0.0
79,0.0,0.0,0.0,0.1925859375,0.0,0.0,0.0,0.0,0.0,0.0,0.229,0.0,0.0,0.0,0.0,0.0,-1.61,0.20173180478638486,0.0,0.0,0.0,0.0,0.0,0.0,0.34,0.0,0.0,0.0
80,0.0,0.0,0.0,0.195048828125,0.0,0.0,0.0,0.0,0.0,0.0,0.24,0.0,0.0,0.0,0.0,0.0,-1.61,0.20428477327895453,0.0,0.0,0.0,0.0,0.0,0.0,0.432,0.0,0.0,0.0
81,0.0,0.0,0.0,0.197376953125,0.0,0.0,0.0,0.0,0.0,0.0,0.245,0.0,0.0,0.0,0.0,0.0,-1.61,0.20684594484414787,0.0,0.0,0.0,0.0,0.0,0.0,0.524,0.0,0.0,0.0
82,0.0,0.0,0.0,0.1998408203125,0.0,0.0,0.0,0.0,0.0,0.0,0.24,0.0,0.0,0.0,0.0,0.0,-1.61,0.20941710439587372,0.0,0.0,0.0,0.0,0.0,0.0,0.868,0.0,0.0,0.0
83,0.0,0.0,0.0,0.202294921875,0.0,0.0,0.0,0.0,0.0,0.0,0.252,0.0,0.0,0.0,0.0,0.0,-1.61,0.21195474738499315,0.0,0.0,0.0,0.0,0.0,0.0,0.48,0.0,0.0,0.0
84,0.0,0.0,0.0,0.2047578125,0.0,0.0,0.0,0.0,0.0,0.0,0.248,0.0,0.0,0.0,0.0,0.0,-1.61,0.21450447511356224,0.0,0.0,0.0,0.0,0.0,0.0,0.112,0.0,0.0,0.0
85,0.0,0.0,0.0,0.2073662109375,0.0,0.0,0.0,0.0,0.0,0.0,0.247,0.0,0.0,0.0,0.0,0.0,-1.61,0.21707371202436837,0.0,0.0,0.0,0.0,0.0,0.0,0.044,0.0,0.0,0.0
86,0.0,0.0,0.0,0.2099736328125,0.0,0.0,0.0,0.0,0.0,0.0,0.268,0.0,0.0,0.0,0.0,0.0,-1.61,0.21961337745314913,0.0,0.0,0.0,0.0,0.0,0.0,-0.088,0.0,0.0,0.0
87,0.0,0.0,0.0,0.2127255859375,0.0,0.0,0.0,0.0,0.0,0.0,0.267,0.0,0.0,0.0,0.0,0.0,-1.61,0.22215749644901117,0.0,0.0,0.0,0.0,0.0,0.0,0.0,0.0,0.0,0.0
88,0.0,0.0,0.0,0.2154873046875,0.0,0.0,0.0,0.0,0.0,0.0,0.271,0.0,0.0,0.0,0.0,0.0,-1.61,0.22484144802697595,0.0,0.0,0.0,0.0,0.0,0.0,0.388,0.0,0.0,0.0
89,0.0,0.0,0.0,0.2182392578125,0.0,0.0,0.0,0.0,0.0,0.0,0.278,0.0,0.0,0.0,0.0,0.0,-1.61,0.2272390762616081,0.0,0.0,0.0,0.0,0.0,0.0,0.068,0.0,0.0,0.0
90,0.0,0.0,0.0,0.220837890625,0.0,0.0,0.0,0.0,0.0,0.0,0.27,0.0,0.0,0.0,0.0,0.0,-1.61,0.22978660744894347,0.0,0.0,0.0,0.0,0.0,0.0,0.112,0.0,0.0,0.0
91,0.0,0.0,0.0,0.2234453125,0.0,0.0,0.0,0.0,0.0,0.0,0.263,0.0,0.0,0.0,0.0,0.0,-1.61,0.23234003622039318,0.0,0.0,0.0,0.0,0.0,0.0,-0.18,0.0,0.0,0.0
92,0.0,0.0,0.0,0.2261982421875,0.0,0.0,0.0,0.0,0.0,0.0,0.263,0.0,0.0,0.0,0.0,0.0,-1.61,0.23486135534626507,0.0,0.0,0.0,0.0,0.0,0.0,0.568,0.0,0.0,0.0
93,0.0,0.0,0.0,0.2289501953125,0.0,0.0,0.0,0.0,0.0,0.0,0.281,0.0,0.0,0.0,0.0,0.0,-1.61,0.23739302157790051,0.0,0.0,0.0,0.0,0.0,0.0,0.66,0.0,0.0,0.0
94,0.0,0.0,0.0,0.2314130859375,0.0,0.0,0.0,0.0,0.0,0.0,0.262,0.0,0.0,0.0,0.0,0.0,-1.61,0.2399667939241406,0.0,0.0,0.0,0.0,0.0,0.0,0.728,0.0,0.0,0.0
95,0.0,0.0,0.0,0.234166015625,0.0,0.0,0.0,0.0,0.0,0.0,0.258,0.0,0.0,0.0,0.0,0.0,-1.61,0.24248122048396686,0.0,0.0,0.0,0.0,0.0,0.0,0.48,0.0,0.0,0.0
96,0.0,0.0,0.0,0.2366376953125,0.0,0.0,0.0,0.0,0.0,0.0,0.264,0.0,0.0,0.0,0.0,0.0,-1.61,0.24499366816404347,0.0,0.0,0.0,0.0,0.0,0.0,0.432,0.0,0.0,0.0
97,0.0,0.0,0.0,0.2389482421875,0.0,0.0,0.0,0.0,0.0,0.0,0.241,0.0,0.0,0.0,0.0,0.0,-1.61,0.24753964077028817,0.0,0.0,0.0,0.0,0.0,0.0,0.272,0.0,0.0,0.0
98,0.0,0.0,0.0,0.2412666015625,0.0,0.0,0.0,0.0,0.0,0.0,0.234,0.0,0.0,0.0,0.0,0.0,-1.61,0.2500622954814697,0.0,0.0,0.0,0.0,0.0,0.0,0.616,0.0,0.0,0.0
99,0.0,0.0,0.0,0.243875,0.0,0.0,0.0,0.0,0.0,0.0,0.247,0.0,0.0,0.0,0.0,0.0,-1.61,0.252564910128413,0.0,0.0,0.0,0.0,0.0,0.0,0.776,0.0,0.0,0.0
100,0.0,0.0,0.0,0.246193359375,0.0,0.0,0.0,0.0,0.0,0.0,0.247,0.0,0.0,0.0,0.0,0.0,-1.61,0.25509105197983095,0.0,0.0,0.0,0.0,0.0,0.0,0.34,0.0,0.0,0.0
101,0.0,0.0,0.0,0.2486572265625,0.0,0.0,0.0,0.0,0.0,0.0,0.235,0.0,0.0,0.0,0.0,0.0,-1.61,0.2576095498798813,0.0,0.0,0.0,0.0,0.0,0.0,0.684,0.0,0.0,0.0
102,0.0,0.0,0.0,0.251111328125,0.0,0.0,0.0,0.0,0.0,0.0,0.257,0.0,0.0,0.0,0.0,0.0,-1.61,0.2601298093905019,0.0,0.0,0.0,0.0,0.0,0.0,0.408,0.0,0.0,0.0
103,0.0,0.0,0.0,0.2537197265625,0.0,0.0,0.0,0.0,0.0,0.0,0.251,0.0,0.0,0.0,0.0,0.0,-1.61,0.2626247831340641,0.0,0.0,0.0,0.0,0.0,0.0,0.364,0.0,0.0,0.0
104,0.0,0.0,0.0,0.2560478515625,0.0,0.0,0.0,0.0,0.0,0.0,0.248,0.0,0.0,0.0,0.0,0.0,-1.61,0.26513508815242803,0.0,0.0,0.0,0.0,0.0,0.0,0.16,0.0,0.0,0.0
105,0.0,0.0,0.0,0.2587998046875,0.0,0.0,0.0,0.0,0.0,0.0,0.252,0.0,0.0,0.0,0.0,0.0,-1.61,0.26767650118706204,0.0,0.0,0.0,0.0,0.0,0.0,0.388,0.0,0.0,0.0
106,0.0,0.0,0.0,0.2612626953125,0.0,0.0,0.0,0.0,0.0,0.0,0.263,0.0,0.0,0.0,0.0,0.0,-1.61,0.270187557719387,0.0,0.0,0.0,0.0,0.0,0.0,-0.272,0.0,0.0,0.0
107,0.0,0.0,0.0,0.2635732421875,0.0,0.0,0.0,0.0,0.0,0.0,0.234,0.0,0.0,0.0,0.0,0.0,-1.61,0.2726511839820347,0.0,0.0,0.0,0.0,0.0,0.0,0.364,0.0,0.0,0.0
108,0.0,0.0,0.0,0.2661806640625,0.0,0.0,0.0,0.0,0.0,0.0,0.252,0.0,0.0,0.0,0.0,0.0,-1.61,0.27519139169652035,0.0,0.0,0.0,0.0,0.0,0.0,0.5,0.0,0.0,0.0
109,0.0,0.0,0.0,0.26864453125,0.0,0.0,0.0,0.0,0.0,0.0,0.258,0.0,0.0,0.0,0.0,0.0,-1.61,0.2776644293141098,0.0,0.0,0.0,0.0,0.0,0.0,0.088,0.0,0.0,0.0
110,0.0,0.0,0.0,0.271107421875,0.0,0.0,0.0,0.0,0.0,0.0,0.238,0.0,0.0,0.0,0.0,0.0,-1.61,0.2801895491354362,0.0,0.0,0.0,0.0,0.0,0.0,0.272,0.0,0.0,0.0
111,0.0,0.0,0.0,0.273724609375,0.0,0.0,0.0,0.0,0.0,0.0,0.258,0.0,0.0,0.0,0.0,0.0,-1.61,0.28265544691497446,0.0,0.0,0.0,0.0,0.0,0.0,0.136,0.0,0.0,0.0
112,0.0,0.0,0.0,0.2764765625,0.0,0.0,0.0,0.0,0.0,0.0,0.273,0.0,0.0,0.0,0.0,0.0,-1.61,0.28517696788890873,0.0,0.0,0.0,0.0,0.0,0.0,0.02,0.0,0.0,0.0
113,0.0,0.0,0.0,0.2790751953125,0.0,0.0,0.0,0.0,0.0,0.0,0.27,0.0,0.0,0.0,0.0,0.0,-1.61,0.2876320917837966,0.0,0.0,0.0,0.0,0.0,0.0,-0.296,0.0,0.0,0.0
114,0.0,0.0,0.0,0.2816826171875,0.0,0.0,0.0,0.0,0.0,0.0,0.254,0.0,0.0,0.0,0.0,0.0,-1.61,0.290127815180955,0.0,0.0,0.0,0.0,0.0,0.0,-0.088,0.0,0.0,0.0
115,0.0,0.0,0.0,0.284291015625,0.0,0.0,0.0,0.0,0.0,0.0,0.267,0.0,0.0,0.0,0.0,0.0,-1.61,0.29263597584305595,0.0,0.0,0.0,0.0,0.0,0.0,-0.136,0.0,0.0,0.0
116,0.0,0.0,0.0,0.28675390625,0.0,0.0,0.0,0.0,0.0,0.0,0.255,0.0,0.0,0.0,0.0,0.0,-1.61,0.2951168078586959,0.0,0.0,0.0,0.0,0.0,0.0,0.272,0.0,0.0,0.0
117,0.0,0.0,0.0,0.289505859375,0.0,0.0,0.0,0.0,0.0,0.0,0.257,0.0,0.0,0.0,0.0,0.0,-1.61,0.2976067143158239,0.0,0.0,0.0,0.0,0.0,0.0,0.524,0.0,0.0,0.0
118,0.0,0.0,0.0,0.29181640625,0.0,0.0,0.0,0.0,0.0,0.0,0.262,0.0,0.0,0.0,0.0,0.0,-1.61,0.3000948334577205,0.0,0.0,0.0,0.0,0.0,0.0,0.34,0.0,0.0,0.0
119,0.0,0.0,0.0,0.2942890625,0.0,0.0,0.0,0.0,0.0,0.0,0.239,0.0,0.0,0.0,0.0,0.0,-1.61,0.3025138426164589,0.0,0.0,0.0,0.0,0.0,0.0,0.548,0.0,0.0,0.0
120,0.0,0.0,0.0,0.296462890625,0.0,0.0,0.0,0.0,0.0,0.0,0.236,0.0,0.0,0.0,0.0,0.0,-1.61,0.3049901965285776,0.0,0.0,0.0,0.0,0.0,0.0,0.068,0.0,0.0,0.0
121,0.0,0.0,0.0,0.2989267578125,0.0,0.0,0.0,0.0,0.0,0.0,0.229,0.0,0.0,0.0,0.0,0.0,-1.61,0.3074773055945442,0.0,0.0,0.0,0.0,0.0,0.0,0.912,0.0,0.0,0.0
122,0.0,0.0,0.0,0.3015341796875,0.0,0.0,0.0,0.0,0.0,0.0,0.255,0.0,0.0,0.0,0.0,0.0,-1.61,0.3099533513023616,0.0,0.0,0.0,0.0,0.0,0.0,0.728,0.0,0.0,0.0
123,0.0,0.0,0.0,0.3037001953125,0.0,0.0,0.0,0.0,0.0,0.0,0.239,0.0,0.0,0.0,0.0,0.0,-1.61,0.3123870346578831,0.0,0.0,0.0,0.0,0.0,0.0,0.728,0.0,0.0,0.0
124,0.0,0.0,0.0,0.3063076171875,0.0,0.0,0.0,0.0,0.0,0.0,0.242,0.0,0.0,0.0,0.0,0.0,-1.61,0.3148735080643385,0.0,0.0,0.0,0.0,0.0,0.0,0.776,0.0,0.0,0.0
125,0.0,0.0,0.0,0.308771484375,0.0,0.0,0.0,0.0,0.0,0.0,0.265,0.0,0.0,0.0,0.0,0.0,-1.61,0.3173963932727095,0.0,0.0,0.0,0.0,0.0,0.0,0.088,0.0,0.0,0.0
126,0.0,0.0,0.0,0.31108984375,0.0,0.0,0.0,0.0,0.0,0.0,0.237,0.0,0.0,0.0,0.0,0.0,-1.61,0.3197899314227112,0.0,0.0,0.0,0.0,0.0,0.0,0.204,0.0,0.0,0.0
127,0.0,0.0,0.0,0.3135537109375,0.0,0.0,0.0,0.0,0.0,0.0,0.239,0.0,0.0,0.0,0.0,0.0,-1.61,0.32223140704280984,0.0,0.0,0.0,0.0,0.0,0.0,0.456,0.0,0.0,0.0
128,0.0,0.0,0.0,0.3161611328125,0.0,0.0,0.0,0.0,0.0,0.0,0.253,0.0,0.0,0.0,0.0,0.0,-1.61,0.32473949733766655,0.0,0.0,0.0,0.0,0.0,0.0,0.34,0.0,0.0,0.0
129,0.0,0.0,0.0,0.31848046875,0.0,0.0,0.0,0.0,0.0,0.0,0.25,0.0,0.0,0.0,0.0,0.0,-1.61,0.327169314357029,0.0,0.0,0.0,0.0,0.0,0.0,0.432,0.0,0.0,0.0
130,0.0,0.0,0.0,0.320943359375,0.0,0.0,0.0,0.0,0.0,0.0,0.239,0.0,0.0,0.0,0.0,0.0,-1.61,0.3295773302107274,0.0,0.0,0.0,0.0,0.0,0.0,0.48,0.0,0.0,0.0
131,0.0,0.0,0.0,0.3231181640625,0.0,0.0,0.0,0.0,0.0,0.0,0.235,0.0,0.0,0.0,0.0,0.0,-1.61,0.33205858798585686,0.0,0.0,0.0,0.0,0.0,0.0,-0.16,0.0,0.0,0.0
132,0.0,0.0,0.0,0.3254287109375,0.0,0.0,0.0,0.0,0.0,0.0,0.217,0.0,0.0,0.0,0.0,0.0,-1.61,0.3344718099400859,0.0,0.0,0.0,0.0,0.0,0.0,0.684,0.0,0.0,0.0
133,0.0,0.0,0.0,0.3280361328125,0.0,0.0,0.0,0.0,0.0,0.0,0.245,0.0,0.0,0.0,0.0,0.0,-1.61,0.33691435981325707,0.0,0.0,0.0,0.0,0.0,0.0,0.568,0.0,0.0,0.0
134,0.0,0.0,0.0,0.33035546875,0.0,0.0,0.0,0.0,0.0,0.0,0.252,0.0,0.0,0.0,0.0,0.0,-1.61,0.3393479366304821,0.0,0.0,0.0,0.0,0.0,0.0,0.18,0.0,0.0,0.0
135,0.0,0.0,0.0,0.332828125,0.0,0.0,0.0,0.0,0.0,0.0,0.242,0.0,0.0,0.0,0.0,0.0,-1.61,0.3417847656949321,0.0,0.0,0.0,0.0,0.0,0.0,0.044,0.0,0.0,0.0
136,0.0,0.0,0.0,0.335580078125,0.0,0.0,0.0,0.0,0.0,0.0,0.261,0.0,0.0,0.0,0.0,0.0,-1.61,0.34420669217429745,0.0,0.0,0.0,0.0,0.0,0.0,0.136,0.0,0.0,0.0
137,0.0,0.0,0.0,0.3381787109375,0.0,0.0,0.0,0.0,0.0,0.0,0.263,0.0,0.0,0.0,0.0,0.0,-1.61,0.3466415384992167,0.0,0.0,0.0,0.0,0.0,0.0,0.088,0.0,0.0,0.0
138,0.0,0.0,0.0,0.3407861328125,0.0,0.0,0.0,0.0,0.0,0.0,0.263,0.0,0.0,0.0,0.0,0.0,-1.61,0.34906417347444896,0.0,0.0,0.0,0.0,0.0,0.0,-0.16,0.0,0.0,0.0
139,0.0,0.0,0.0,0.34310546875,0.0,0.0,0.0,0.0,0.0,0.0,0.248,0.0,0.0,0.0,0.0,0.0,-1.61,0.3514586978200764,0.0,0.0,0.0,0.0,0.0,0.0,-0.524,0.0,0.0,0.0
140,0.0,0.0,0.0,0.345857421875,0.0,0.0,0.0,0.0,0.0,0.0,0.253,0.0,0.0,0.0,0.0,0.0,-1.61,0.35389687473879305,0.0,0.0,0.0,0.0,0.0,0.0,-0.16,0.0,0.0,0.0
141,0.0,0.0,0.0,0.3483212890625,0.0,0.0,0.0,0.0,0.0,0.0,0.265,0.0,0.0,0.0,0.0,0.0,-1.61,0.356300870336481,0.0,0.0,0.0,0.0,0.0,0.0,-0.16,0.0,0.0,0.0
142,0.0,0.0,0.0,0.350486328125,0.0,0.0,0.0,0.0,0.0,0.0,0.234,0.0,0.0,0.0,0.0,0.0,-1.61,0.35869731747915257,0.0,0.0,0.0,0.0,0.0,0.0,0.272,0.0,0.0,0.0
143,0.0,0.0,0.0,0.353103515625,0.0,0.0,0.0,0.0,0.0,0.0,0.241,0.0,0.0,0.0,0.0,0.0,-1.61,0.3611426600182677,0.0,0.0,0.0,0.0,0.0,0.0,0.776,0.0,0.0,0.0
144,0.0,0.0,0.0,0.355421875,0.0,0.0,0.0,0.0,0.0,0.0,0.248,0.0,0.0,0.0,0.0,0.0,-1.61,0.36351424735554827,0.0,0.0,0.0,0.0,0.0,0.0,0.96,0.0,0.0,0.0
145,0.0,0.0,0.0,0.3580302734375,0.0,0.0,0.0,0.0,0.0,0.0,0.245,0.0,0.0,0.0,0.0,0.0,-1.61,0.36592264578827266,0.0,0.0,0.0,0.0,0.0,0.0,0.684,0.0,0.0,0.0
146,0.0,0.0,0.0,0.360484375,0.0,0.0,0.0,0.0,0.0,0.0,0.255,0.0,0.0,0.0,0.0,0.0,-1.61,0.3683326517871586,0.0,0.0,0.0,0.0,0.0,0.0,0.32,0.0,0.0,0.0
147,0.0,0.0,0.0,0.3628037109375,0.0,0.0,0.0,0.0,0.0,0.0,0.243,0.0,0.0,0.0,0.0,0.0,-1.61,0.3707059909840073,0.0,0.0,0.0,0.0,0.0,0.0,0.068,0.0,0.0,0.0
148,0.0,0.0,0.0,0.3651220703125,0.0,0.0,0.0,0.0,0.0,0.0,0.237,0.0,0.0,0.0,0.0,0.0,-1.61,0.3731262116929635,0.0,0.0,0.0,0.0,0.0,0.0,0.248,0.0,0.0,0.0
149,0.0,0.0,0.0,0.36744140625,0.0,0.0,0.0,0.0,0.0,0.0,0.23,0.0,0.0,0.0,0.0,0.0,-1.61,0.37549258088953513,0.0,0.0,0.0,0.0,0.0,0.0,0.112,0.0,0.0,0.0
150,0.0,0.0,0.0,0.369462890625,0.0,0.0,0.0,0.0,0.0,0.0,0.218,0.0,0.0,0.0,0.0,0.0,-1.61,0.37788082082300056,0.0,0.0,0.0,0.0,0.0,0.0,0.296,0.0,0.0,0.0
151,0.0,0.0,0.0,0.371501953125,0.0,0.0,0.0,0.0,0.0,0.0,0.209,0.0,0.0,0.0,0.0,0.0,-1.61,0.3802699216369571,0.0,0.0,0.0,0.0,0.0,0.0,0.16,0.0,0.0,0.0
152,0.0,0.0,0.0,0.3736767578125,0.0,0.0,0.0,0.0,0.0,0.0,0.204,0.0,0.0,0.0,0.0,0.0,-1.61,0.3826417070898707,0.0,0.0,0.0,0.0,0.0,0.0,0.708,0.0,0.0,0.0
153,0.0,0.0,0.0,0.376275390625,0.0,0.0,0.0,0.0,0.0,0.0,0.232,0.0,0.0,0.0,0.0,0.0,-1.61,0.38501404590531546,0.0,0.0,0.0,0.0,0.0,0.0,1.052,0.0,0.0,0.0
154,0.0,0.0,0.0,0.3785947265625,0.0,0.0,0.0,0.0,0.0,0.0,0.251,0.0,0.0,0.0,0.0,0.0,-1.61,0.3873930639076966,0.0,0.0,0.0,0.0,0.0,0.0,0.548,0.0,0.0,0.0
155,0.0,0.0,0.0,0.38076953125,0.0,0.0,0.0,0.0,0.0,0.0,0.227,0.0,0.0,0.0,0.0,0.0,-1.61,0.38977068341415716,0.0,0.0,0.0,0.0,0.0,0.0,0.18,0.0,0.0,0.0
156,0.0,0.0,0.0,0.383376953125,0.0,0.0,0.0,0.0,0.0,0.0,0.239,0.0,0.0,0.0,0.0,0.0,-1.61,0.39213221980177726,0.0,0.0,0.0,0.0,0.0,0.0,0.5,0.0,0.0,0.0
157,0.0,0.0,0.0,0.3859755859375,0.0,0.0,0.0,0.0,0.0,0.0,0.261,0.0,0.0,0.0,0.0,0.0,-1.61,0.3944957759944105,0.0,0.0,0.0,0.0,0.0,0.0,0.388,0.0,0.0,0.0
158,0.0,0.0,0.0,0.388150390625,0.0,0.0,0.0,0.0,0.0,0.0,0.24,0.0,0.0,0.0,0.0,0.0,-1.61,0.39690976100214115,0.0,0.0,0.0,0.0,0.0,0.0,0.408,0.0,0.0,0.0
159,0.0,0.0,0.0,0.390623046875,0.0,0.0,0.0,0.0,0.0,0.0,0.233,0.0,0.0,0.0,0.0,0.0,-1.61,0.3991938074781389,0.0,0.0,0.0,0.0,0.0,0.0,0.364,0.0,0.0,0.0
160,0.0,0.0,0.0,0.3930859375,0.0,0.0,0.0,0.0,0.0,0.0,0.245,0.0,0.0,0.0,0.0,0.0,-1.61,0.40154427116768004,0.0,0.0,0.0,0.0,0.0,0.0,0.432,0.0,0.0,0.0
161,0.0,0.0,0.0,0.395251953125,0.0,0.0,0.0,0.0,0.0,0.0,0.235,0.0,0.0,0.0,0.0,0.0,-1.61,0.4038903129768278,0.0,0.0,0.0,0.0,0.0,0.0,0.02,0.0,0.0,0.0
162,0.0,0.0,0.0,0.39771484375,0.0,0.0,0.0,0.0,0.0,0.0,0.23,0.0,0.0,0.0,0.0,0.0,-1.61,0.40626343592265757,0.0,0.0,0.0,0.0,0.0,0.0,0.48,0.0,0.0,0.0
163,0.0,0.0,0.0,0.4003232421875,0.0,0.0,0.0,0.0,0.0,0.0,0.256,0.0,0.0,0.0,0.0,0.0,-1.61,0.40857961547609123,0.0,0.0,0.0,0.0,0.0,0.0,0.32,0.0,0.0,0.0
164,0.0,0.0,0.0,0.4027861328125,0.0,0.0,0.0,0.0,0.0,0.0,0.255,0.0,0.0,0.0,0.0,0.0,-1.61,0.4109228139142061,0.0,0.0,0.0,0.0,0.0,0.0,-0.16,0.0,0.0,0.0
165,0.0,0.0,0.0,0.40525,0.0,0.0,0.0,0.0,0.0,0.0,0.247,0.0,0.0,0.0,0.0,0.0,-1.61,0.41325827036833257,0.0,0.0,0.0,0.0,0.0,0.0,-0.296,0.0,0.0,0.0
166,0.0,0.0,0.0,0.4077041015625,0.0,0.0,0.0,0.0,0.0,0.0,0.255,0.0,0.0,0.0,0.0,0.0,-1.61,0.41558531741855,0.0,0.0,0.0,0.0,0.0,0.0,-0.66,0.0,0.0,0.0
167,0.0,0.0,0.0,0.4100322265625,0.0,0.0,0.0,0.0,0.0,0.0,0.241,0.0,0.0,0.0,0.0,0.0,-1.61,0.4179097814350153,0.0,0.0,0.0,0.0,0.0,0.0,-0.248,0.0,0.0,0.0
168,0.0,0.0,0.0,0.4124951171875,0.0,0.0,0.0,0.0,0.0,0.0,0.236,0.0,0.0,0.0,0.0,0.0,-1.61,0.42027228744839323,0.0,0.0,0.0,0.0,0.0,0.0,0.568,0.0,0.0,0.0
169,0.0,0.0,0.0,0.414958984375,0.0,0.0,0.0,0.0,0.0,0.0,0.249,0.0,0.0,0.0,0.0,0.0,-1.61,0.422565240905234,0.0,0.0,0.0,0.0,0.0,0.0,0.568,0.0,0.0,0.0
170,0.0,0.0,0.0,0.4174130859375,0.0,0.0,0.0,0.0,0.0,0.0,0.246,0.0,0.0,0.0,0.0,0.0,-1.61,0.4248951495846857,0.0,0.0,0.0,0.0,0.0,0.0,0.204,0.0,0.0,0.0
171,0.0,0.0,0.0,0.419443359375,0.0,0.0,0.0,0.0,0.0,0.0,0.227,0.0,0.0,0.0,0.0,0.0,-1.61,0.42719367340383746,0.0,0.0,0.0,0.0,0.0,0.0,0.136,0.0,0.0,0.0
172,0.0,0.0,0.0,0.4219072265625,0.0,0.0,0.0,0.0,0.0,0.0,0.221,0.0,0.0,0.0,0.0,0.0,-1.61,0.4295059423665927,0.0,0.0,0.0,0.0,0.0,0.0,0.48,0.0,0.0,0.0
173,0.0,0.0,0.0,0.424072265625,0.0,0.0,0.0,0.0,0.0,0.0,0.237,0.0,0.0,0.0,0.0,0.0,-1.61,0.4318237771984304,0.0,0.0,0.0,0.0,0.0,0.0,0.112,0.0,0.0,0.0
174,0.0,0.0,0.0,0.4259580078125,0.0,0.0,0.0,0.0,0.0,0.0,0.21,0.0,0.0,0.0,0.0,0.0,-1.61,0.43411507579462527,0.0,0.0,0.0,0.0,0.0,0.0,-0.044,0.0,0.0,0.0
175,0.0,0.0,0.0,0.4281416015625,0.0,0.0,0.0,0.0,0.0,0.0,0.195,0.0,0.0,0.0,0.0,0.0,-1.61,0.4364254983396436,0.0,0.0,0.0,0.0,0.0,0.0,0.272,0.0,0.0,0.0
176,0.0,0.0,0.0,0.4304521484375,0.0,0.0,0.0,0.0,0.0,0.0,0.224,0.0,0.0,0.0,0.0,0.0,-1.61,0.43870920007416336,0.0,0.0,0.0,0.0,0.0,0.0,0.592,0.0,0.0,0.0
177,0.0,0.0,0.0,0.432626953125,0.0,0.0,0.0,0.0,0.0,0.0,0.227,0.0,0.0,0.0,0.0,0.0,-1.61,0.44099952094578465,0.0,0.0,0.0,0.0,0.0,0.0,0.868,0.0,0.0,0.0
178,0.0,0.0,0.0,0.4349453125,0.0,0.0,0.0,0.0,0.0,0.0,0.226,0.0,0.0,0.0,0.0,0.0,-1.61,0.4434145489479539,0.0,0.0,0.0,0.0,0.0,0.0,0.616,0.0,0.0,0.0
179,0.0,0.0,0.0,0.437111328125,0.0,0.0,0.0,0.0,0.0,0.0,0.222,0.0,0.0,0.0,0.0,0.0,-1.61,0.44557955184045706,0.0,0.0,0.0,0.0,0.0,0.0,0.272,0.0,0.0,0.0
180,0.0,0.0,0.0,0.4394306640625,0.0,0.0,0.0,0.0,0.0,0.0,0.223,0.0,0.0,0.0,0.0,0.0,-1.61,0.4478544660250093,0.0,0.0,0.0,0.0,0.0,0.0,0.296,0.0,0.0,0.0
181,0.0,0.0,0.0,0.44160546875,0.0,0.0,0.0,0.0,0.0,0.0,0.232,0.0,0.0,0.0,0.0,0.0,-1.61,0.4501305184425735,0.0,0.0,0.0,0.0,0.0,0.0,0.432,0.0,0.0,0.0
182,0.0,0.0,0.0,0.444068359375,0.0,0.0,0.0,0.0,0.0,0.0,0.232,0.0,0.0,0.0,0.0,0.0,-1.61,0.45240576993798476,0.0,0.0,0.0,0.0,0.0,0.0,0.888,0.0,0.0,0.0
183,0.0,0.0,0.0,0.4463779296875,0.0,0.0,0.0,0.0,0.0,0.0,0.239,0.0,0.0,0.0,0.0,0.0,-1.61,0.4546802937663788,0.0,0.0,0.0,0.0,0.0,0.0,0.64,0.0,0.0,0.0
184,0.0,0.0,0.0,0.4481201171875,0.0,0.0,0.0,0.0,0.0,0.0,0.207,0.0,0.0,0.0,0.0,0.0,-1.61,0.4569354939554733,0.0,0.0,0.0,0.0,0.0,0.0,0.408,0.0,0.0,0.0
185,0.0,0.0,0.0,0.4504384765625,0.0,0.0,0.0,0.0,0.0,0.0,0.197,0.0,0.0,0.0,0.0,0.0,-1.61,0.4592074644809508,0.0,0.0,0.0,0.0,0.0,0.0,0.568,0.0,0.0,0.0
186,0.0,0.0,0.0,0.4527490234375,0.0,0.0,0.0,0.0,0.0,0.0,0.236,0.0,0.0,0.0,0.0,0.0,-1.61,0.46145333304290553,0.0,0.0,0.0,0.0,0.0,0.0,0.8,0.0,0.0,0.0
187,0.0,0.0,0.0,0.454923828125,0.0,0.0,0.0,0.0,0.0,0.0,0.23,0.0,0.0,0.0,0.0,0.0,-1.61,0.46371313004993836,0.0,0.0,0.0,0.0,0.0,0.0,0.616,0.0,0.0,0.0
188,0.0,0.0,0.0,0.45738671875,0.0,0.0,0.0,0.0,0.0,0.0,0.227,0.0,0.0,0.0,0.0,0.0,-1.61,0.465967560877815,0.0,0.0,0.0,0.0,0.0,0.0,0.592,0.0,0.0,0.0
189,0.0,0.0,0.0,0.4599951171875,0.0,0.0,0.0,0.0,0.0,0.0,0.26,0.0,0.0,0.0,0.0,0.0,-1.61,0.4682045794874742,0.0,0.0,0.0,0.0,0.0,0.0,-0.136,0.0,0.0,0.0
190,0.0,0.0,0.0,0.4623046875,0.0,0.0,0.0,0.0,0.0,0.0,0.251,0.0,0.0,0.0,0.0,0.0,-1.61,0.4704501858255539,0.0,0.0,0.0,0.0,0.0,0.0,-0.524,0.0,0.0,0.0
191,0.0,0.0,0.0,0.464912109375,0.0,0.0,0.0,0.0,0.0,0.0,0.24,0.0,0.0,0.0,0.0,0.0,-1.61,0.47269555323459156,0.0,0.0,0.0,0.0,0.0,0.0,-0.364,0.0,0.0,0.0
192,0.0,0.0,0.0,0.467095703125,0.0,0.0,0.0,0.0,0.0,0.0,0.243,0.0,0.0,0.0,0.0,0.0,-1.61,0.4749341519364662,0.0,0.0,0.0,0.0,0.0,0.0,-0.64,0.0,0.0,0.0
193,0.0,0.0,0.0,0.46940625,0.0,0.0,0.0,0.0,0.0,0.0,0.223,0.0,0.0,0.0,0.0,0.0,-1.61,0.4771778719588672,0.0,0.0,0.0,0.0,0.0,0.0,-0.16,0.0,0.0,0.0
194,0.0,0.0,0.0,0.472013671875,0.0,0.0,0.0,0.0,0.0,0.0,0.244,0.0,0.0,0.0,0.0,0.0,-1.61,0.4793692412295711,0.0,0.0,0.0,0.0,0.0,0.0,-0.068,0.0,0.0,0.0
195,0.0,0.0,0.0,0.4741884765625,0.0,0.0,0.0,0.0,0.0,0.0,0.245,0.0,0.0,0.0,0.0,0.0,-1.61,0.48161294305051144,0.0,0.0,0.0,0.0,0.0,0.0,-0.248,0.0,0.0,0.0
196,0.0,0.0,0.0,0.47636328125,0.0,0.0,0.0,0.0,0.0,0.0,0.217,0.0,0.0,0.0,0.0,0.0,-1.61,0.48382219977835983,0.0,0.0,0.0,0.0,0.0,0.0,-0.18,0.0,0.0,0.0
197,0.0,0.0,0.0,0.478529296875,0.0,0.0,0.0,0.0,0.0,0.0,0.219,0.0,0.0,0.0,0.0,0.0,-1.61,0.4860452322446265,0.0,0.0,0.0,0.0,0.0,0.0,0.02,0.0,0.0,0.0
198,0.0,0.0,0.0,0.48084765625,0.0,0.0,0.0,0.0,0.0,0.0,0.226,0.0,0.0,0.0,0.0,0.0,-1.61,0.4882651909944912,0.0,0.0,0.0,0.0,0.0,0.0,0.868,0.0,0.0,0.0
199,0.0,0.0,0.0,0.4833115234375,0.0,0.0,0.0,0.0,0.0,0.0,0.242,0.0,0.0,0.0,0.0,0.0,-1.61,0.4904747518004071,0.0,0.0,0.0,0.0,0.0,0.0,0.616,0.0,0.0,0.0
200,0.0,0.0,0.0,0.485486328125,0.0,0.0,0.0,0.0,0.0,0.0,0.23,0.0,0.0,0.0,0.0,0.0,-1.61,0.4926287001652266,0.0,0.0,0.0,0.0,0.0,0.0,0.088,0.0,0.0,0.0
201,0.0,0.0,0.0,0.4875166015625,0.0,0.0,0.0,0.0,0.0,0.0,0.205,0.0,0.0,0.0,0.0,0.0,-1.61,0.49482602289959454,0.0,0.0,0.0,0.0,0.0,0.0,0.044,0.0,0.0,0.0
202,0.0,0.0,0.0,0.4898349609375,0.0,0.0,0.0,0.0,0.0,0.0,0.219,0.0,0.0,0.0,0.0,0.0,-1.61,0.4970522276540787,0.0,0.0,0.0,0.0,0.0,0.0,0.34,0.0,0.0,0.0
203,0.0,0.0,0.0,0.4918564453125,0.0,0.0,0.0,0.0,0.0,0.0,0.224,0.0,0.0,0.0,0.0,0.0,-1.61,0.49921565175741545,0.0,0.0,0.0,0.0,0.0,0.0,0.5,0.0,0.0,0.0
204,0.0,0.0,0.0,0.4937421875,0.0,0.0,0.0,0.0,0.0,0.0,0.198,0.0,0.0,0.0,0.0,0.0,-1.61,0.5014257810232282,0.0,0.0,0.0,0.0,0.0,0.0,0.408,0.0,0.0,0.0
205,0.0,0.0,0.0,0.495908203125,0.0,0.0,0.0,0.0,0.0,0.0,0.202,0.0,0.0,0.0,0.0,0.0,-1.61,0.5038322262033489,0.0,0.0,0.0,0.0,0.0,0.0,0.248,0.0,0.0,0.0
206,0.0,0.0,0.0,0.4979384765625,0.0,0.0,0.0,0.0,0.0,0.0,0.207,0.0,0.0,0.0,0.0,0.0,-1.61,0.5057559145632273,0.0,0.0,0.0,0.0,0.0,0.0,0.296,0.0,0.0,0.0
207,0.0,0.0,0.0,0.49996875,0.0,0.0,0.0,0.0,0.0,0.0,0.205,0.0,0.0,0.0,0.0,0.0,-1.61,0.507931143248192,0.0,0.0,0.0,0.0,0.0,0.0,0.32,0.0,0.0,0.0
208,0.0,0.0,0.0,0.5019892578125,0.0,0.0,0.0,0.0,0.0,0.0,0.205,0.0,0.0,0.0,0.0,0.0,-1.61,0.5101298885507388,0.0,0.0,0.0,0.0,0.0,0.0,0.5,0.0,0.0,0.0
209,0.0,0.0,0.0,0.5041640625,0.0,0.0,0.0,0.0,0.0,0.0,0.207,0.0,0.0,0.0,0.0,0.0,-1.61,0.5122543860986141,0.0,0.0,0.0,0.0,0.0,0.0,0.98,0.0,0.0,0.0
210,0.0,0.0,0.0,0.50634765625,0.0,0.0,0.0,0.0,0.0,0.0,0.224,0.0,0.0,0.0,0.0,0.0,-1.61,0.514413057979794,0.0,0.0,0.0,0.0,0.0,0.0,0.548,0.0,0.0,0.0
211,0.0,0.0,0.0,0.508513671875,0.0,0.0,0.0,0.0,0.0,0.0,0.213,0.0,0.0,0.0,0.0,0.0,-1.61,0.5165858568959993,0.0,0.0,0.0,0.0,0.0,0.0,0.34,0.0,0.0,0.0
212,0.0,0.0,0.0,0.5106884765625,0.0,0.0,0.0,0.0,0.0,0.0,0.218,0.0,0.0,0.0,0.0,0.0,-1.61,0.5187182990371717,0.0,0.0,0.0,0.0,0.0,0.0,0.388,0.0,0.0,0.0
213,0.0,0.0,0.0,0.51271875,0.0,0.0,0.0,0.0,0.0,0.0,0.213,0.0,0.0,0.0,0.0,0.0,-1.61,0.5208526205087916,0.0,0.0,0.0,0.0,0.0,0.0,0.456,0.0,0.0,0.0
214,0.0,0.0,0.0,0.514595703125,0.0,0.0,0.0,0.0,0.0,0.0,0.193,0.0,0.0,0.0,0.0,0.0,-1.61,0.5230774453131569,0.0,0.0,0.0,0.0,0.0,0.0,0.456,0.0,0.0,0.0
215,0.0,0.0,0.0,0.51705859375,0.0,0.0,0.0,0.0,0.0,0.0,0.216,0.0,0.0,0.0,0.0,0.0,-1.61,0.5251705676596623,0.0,0.0,0.0,0.0,0.0,0.0,0.776,0.0,0.0,0.0
216,0.0,0.0,0.0,0.5192333984375,0.0,0.0,0.0,0.0,0.0,0.0,0.231,0.0,0.0,0.0,0.0,0.0,-1.61,0.5272776631463335,0.0,0.0,0.0,0.0,0.0,0.0,0.548,0.0,0.0,0.0
217,0.0,0.0,0.0,0.5213994140625,0.0,0.0,0.0,0.0,0.0,0.0,0.221,0.0,0.0,0.0,0.0,0.0,-1.61,0.5293988533252132,0.0,0.0,0.0,0.0,0.0,0.0,0.456,0.0,0.0,0.0
218,0.0,0.0,0.0,0.5237275390625,0.0,0.0,0.0,0.0,0.0,0.0,0.228,0.0,0.0,0.0,0.0,0.0,-1.61,0.5315365804546249,0.0,0.0,0.0,0.0,0.0,0.0,-0.112,0.0,0.0,0.0
219,0.0,0.0,0.0,0.5259013671875,0.0,0.0,0.0,0.0,0.0,0.0,0.22,0.0,0.0,0.0,0.0,0.0,-1.61,0.5336331001938628,0.0,0.0,0.0,0.0,0.0,0.0,-0.456,0.0,0.0,0.0
220,0.0,0.0,0.0,0.5280673828125,0.0,0.0,0.0,0.0,0.0,0.0,0.221,0.0,0.0,0.0,0.0,0.0,-1.61,0.5357430787042021,0.0,0.0,0.0,0.0,0.0,0.0,-0.844,0.0,0.0,0.0
221,0.0,0.0,0.0,0.53053125,0.0,0.0,0.0,0.0,0.0,0.0,0.231,0.0,0.0,0.0,0.0,0.0,-1.61,0.5378603064952748,0.0,0.0,0.0,0.0,0.0,0.0,-0.18,0.0,0.0,0.0
222,0.0,0.0,0.0,0.532994140625,0.0,0.0,0.0,0.0,0.0,0.0,0.243,0.0,0.0,0.0,0.0,0.0,-1.61,0.5399571815521871,0.0,0.0,0.0,0.0,0.0,0.0,0.02,0.0,0.0,0.0
223,0.0,0.0,0.0,0.53516015625,0.0,0.0,0.0,0.0,0.0,0.0,0.24,0.0,0.0,0.0,0.0,0.0,-1.61,0.5420628856560128,0.0,0.0,0.0,0.0,0.0,0.0,-0.02,0.0,0.0,0.0
224,0.0,0.0,0.0,0.537478515625,0.0,0.0,0.0,0.0,0.0,0.0,0.225,0.0,0.0,0.0,0.0,0.0,-1.61,0.5441837968230804,0.0,0.0,0.0,0.0,0.0,0.0,-0.112,0.0,0.0,0.0
225,0.0,0.0,0.0,0.5396533203125,0.0,0.0,0.0,0.0,0.0,0.0,0.222,0.0,0.0,0.0,0.0,0.0,-1.61,0.5462713866395297,0.0,0.0,0.0,0.0,0.0,0.0,-0.068,0.0,0.0,0.0
226,0.0,0.0,0.0,0.5418193359375,0.0,0.0,0.0,0.0,0.0,0.0,0.22,0.0,0.0,0.0,0.0,0.0,-1.61,0.5483249835768663,0.0,0.0,0.0,0.0,0.0,0.0,0.296,0.0,0.0,0.0
227,0.0,0.0,0.0,0.5440029296875,0.0,0.0,0.0,0.0,0.0,0.0,0.224,0.0,0.0,0.0,0.0,0.0,-1.61,0.5504062091685623,0.0,0.0,0.0,0.0,0.0,0.0,0.136,0.0,0.0,0.0
228,0.0,0.0,0.0,0.546033203125,0.0,0.0,0.0,0.0,0.0,0.0,0.208,0.0,0.0,0.0,0.0,0.0,-1.61,0.5525333668881586,0.0,0.0,0.0,0.0,0.0,0.0,-0.112,0.0,0.0,0.0
229,0.0,0.0,0.0,0.5480546875,0.0,0.0,0.0,0.0,0.0,0.0,0.201,0.0,0.0,0.0,0.0,0.0,-1.61,0.5545921050416763,0.0,0.0,0.0,0.0,0.0,0.0,0.204,0.0,0.0,0.0
230,0.0,0.0,0.0,0.5500849609375,0.0,0.0,0.0,0.0,0.0,0.0,0.21,0.0,0.0,0.0,0.0,0.0,-1.61,0.5566087737276526,0.0,0.0,0.0,0.0,0.0,0.0,0.34,0.0,0.0,0.0
231,0.0,0.0,0.0,0.5518173828125,0.0,0.0,0.0,0.0,0.0,0.0,0.184,0.0,0.0,0.0,0.0,0.0,-1.61,0.5586905523563992,0.0,0.0,0.0,0.0,0.0,0.0,0.456,0.0,0.0,0.0
232,0.0,0.0,0.0,0.55384765625,0.0,0.0,0.0,0.0,0.0,0.0,0.184,0.0,0.0,0.0,0.0,0.0,-1.61,0.5607372550571404,0.0,0.0,0.0,0.0,0.0,0.0,0.912,0.0,0.0,0.0
233,0.0,0.0,0.0,0.5558681640625,0.0,0.0,0.0,0.0,0.0,0.0,0.204,0.0,0.0,0.0,0.0,0.0,-1.61,0.5627866086297721,0.0,0.0,0.0,0.0,0.0,0.0,0.752,0.0,0.0,0.0
234,0.0,0.0,0.0,0.5574658203125,0.0,0.0,0.0,0.0,0.0,0.0,0.189,0.0,0.0,0.0,0.0,0.0,-1.61,0.5648209911738513,0.0,0.0,0.0,0.0,0.0,0.0,-0.16,0.0,0.0,0.0
235,0.0,0.0,0.0,0.5593427734375,0.0,0.0,0.0,0.0,0.0,0.0,0.168,0.0,0.0,0.0,0.0,0.0,-1.61,0.5675805140407225,0.0,0.0,0.0,0.0,0.0,0.0,-0.02,0.0,0.0,0.0
236,0.0,0.0,0.0,0.561517578125,0.0,0.0,0.0,0.0,0.0,0.0,0.2,0.0,0.0,0.0,0.0,0.0,-1.61,0.5691477458381844,0.0,0.0,0.0,0.0,0.0,0.0,0.66,0.0,0.0,0.0
237,0.0,0.0,0.0,0.563412109375,0.0,0.0,0.0,0.0,0.0,0.0,0.215,0.0,0.0,0.0,0.0,0.0,-1.61,0.5709424342379922,0.0,0.0,0.0,0.0,0.0,0.0,0.82,0.0,0.0,0.0
238,0.0,0.0,0.0,0.565,0.0,0.0,0.0,0.0,0.0,0.0,0.179,0.0,0.0,0.0,0.0,0.0,-1.61,0.5729832958973547,0.0,0.0,0.0,0.0,0.0,0.0,0.044,0.0,0.0,0.0
239,0.0,0.0,0.0,0.5668857421875,0.0,0.0,0.0,0.0,0.0,0.0,0.165,0.0,0.0,0.0,0.0,0.0,-1.61,0.5750049060798299,0.0,0.0,0.0,0.0,0.0,0.0,0.548,0.0,0.0,0.0
240,0.0,0.0,0.0,0.5690517578125,0.0,0.0,0.0,0.0,0.0,0.0,0.206,0.0,0.0,0.0,0.0,0.0,-1.61,0.5770534421266024,0.0,0.0,0.0,0.0,0.0,0.0,1.004,0.0,0.0,0.0
241,0.0,0.0,0.0,0.5709375,0.0,0.0,0.0,0.0,0.0,0.0,0.21,0.0,0.0,0.0,0.0,0.0,-1.61,0.5790413967875659,0.0,0.0,0.0,0.0,0.0,0.0,1.004,0.0,0.0,0.0
242,0.0,0.0,0.0,0.573103515625,0.0,0.0,0.0,0.0,0.0,0.0,0.195,0.0,0.0,0.0,0.0,0.0,-1.61,0.5810434342970497,0.0,0.0,0.0,0.0,0.0,0.0,0.752,0.0,0.0,0.0
243,0.0,0.0,0.0,0.5751337890625,0.0,0.0,0.0,0.0,0.0,0.0,0.212,0.0,0.0,0.0,0.0,0.0,-1.61,0.5830571562947737,0.0,0.0,0.0,0.0,0.0,0.0,0.204,0.0,0.0,0.0
244,0.0,0.0,0.0,0.5771640625,0.0,0.0,0.0,0.0,0.0,0.0,0.199,0.0,0.0,0.0,0.0,0.0,-1.61,0.5850444932298665,0.0,0.0,0.0,0.0,0.0,0.0,0.728,0.0,0.0,0.0
245,0.0,0.0,0.0,0.5793291015625,0.0,0.0,0.0,0.0,0.0,0.0,0.212,0.0,0.0,0.0,0.0,0.0,-1.61,0.5870492134816172,0.0,0.0,0.0,0.0,0.0,0.0,0.408,0.0,0.0,0.0
246,0.0,0.0,0.0,0.5812158203125,0.0,0.0,0.0,0.0,0.0,0.0,0.209,0.0,0.0,0.0,0.0,0.0,-1.61,0.5890278057799376,0.0,0.0,0.0,0.0,0.0,0.0,0.248,0.0,0.0,0.0
247,0.0,0.0,0.0,0.5833896484375,0.0,0.0,0.0,0.0,0.0,0.0,0.208,0.0,0.0,0.0,0.0,0.0,-1.61,0.5910099795791616,0.0,0.0,0.0,0.0,0.0,0.0,0.02,0.0,0.0,0.0
248,0.0,0.0,0.0,0.585564453125,0.0,0.0,0.0,0.0,0.0,0.0,0.218,0.0,0.0,0.0,0.0,0.0,-1.61,0.5930422442445021,0.0,0.0,0.0,0.0,0.0,0.0,0.18,0.0,0.0,0.0
249,0.0,0.0,0.0,0.5877392578125,0.0,0.0,0.0,0.0,0.0,0.0,0.216,0.0,0.0,0.0,0.0,0.0,-1.61,0.594975157593002,0.0,0.0,0.0,0.0,0.0,0.0,-0.16,0.0,0.0,0.0
250,0.0,0.0,0.0,0.5897607421875,0.0,0.0,0.0,0.0,0.0,0.0,0.207,0.0,0.0,0.0,0.0,0.0,-1.61,0.5969222848003309,0.0,0.0,0.0,0.0,0.0,0.0,-0.5,0.0,0.0,0.0
251,0.0,0.0,0.0,0.591791015625,0.0,0.0,0.0,0.0,0.0,0.0,0.203,0.0,0.0,0.0,0.0,0.0,-1.61,0.5989028639677795,0.0,0.0,0.0,0.0,0.0,0.0,-0.548,0.0,0.0,0.0
252,0.0,0.0,0.0,0.5938212890625,0.0,0.0,0.0,0.0,0.0,0.0,0.201,0.0,0.0,0.0,0.0,0.0,-1.61,0.6008776917846971,0.0,0.0,0.0,0.0,0.0,0.0,-0.02,0.0,0.0,0.0
253,0.0,0.0,0.0,0.595986328125,0.0,0.0,0.0,0.0,0.0,0.0,0.214,0.0,0.0,0.0,0.0,0.0,-1.61,0.6028073212203389,0.0,0.0,0.0,0.0,0.0,0.0,-0.18,0.0,0.0,0.0
254,0.0,0.0,0.0,0.5983056640625,0.0,0.0,0.0,0.0,0.0,0.0,0.227,0.0,0.0,0.0,0.0,0.0,-1.61,0.604759906452448,0.0,0.0,0.0,0.0,0.0,0.0,0.068,0.0,0.0,0.0
255,0.0,0.0,0.0,0.6004716796875,0.0,0.0,0.0,0.0,0.0,0.0,0.227,0.0,0.0,0.0,0.0,0.0,-1.61,0.6067000067408485,0.0,0.0,0.0,0.0,0.0,0.0,-0.228,0.0,0.0,0.0
256,0.0,0.0,0.0,0.6023662109375,0.0,0.0,0.0,0.0,0.0,0.0,0.209,0.0,0.0,0.0,0.0,0.0,-1.61,0.6086577435260782,0.0,0.0,0.0,0.0,0.0,0.0,-0.364,0.0,0.0,0.0
257,0.0,0.0,0.0,0.604396484375,0.0,0.0,0.0,0.0,0.0,0.0,0.191,0.0,0.0,0.0,0.0,0.0,-1.61,0.6105791308036608,0.0,0.0,0.0,0.0,0.0,0.0,-0.432,0.0,0.0,0.0
258,0.0,0.0,0.0,0.60641796875,0.0,0.0,0.0,0.0,0.0,0.0,0.201,0.0,0.0,0.0,0.0,0.0,-1.61,0.6125019378325736,0.0,0.0,0.0,0.0,0.0,0.0,0.248,0.0,0.0,0.0
259,0.0,0.0,0.0,0.6085927734375,0.0,0.0,0.0,0.0,0.0,0.0,0.216,0.0,0.0,0.0,0.0,0.0,-1.61,0.6144114512256523,0.0,0.0,0.0,0.0,0.0,0.0,0.48,0.0,0.0,0.0
260,0.0,0.0,0.0,0.6104697265625,0.0,0.0,0.0,0.0,0.0,0.0,0.2,0.0,0.0,0.0,0.0,0.0,-1.61,0.6163204082079984,0.0,0.0,0.0,0.0,0.0,0.0,0.296,0.0,0.0,0.0
261,0.0,0.0,0.0,0.6122109375,0.0,0.0,0.0,0.0,0.0,0.0,0.179,0.0,0.0,0.0,0.0,0.0,-1.61,0.6182377209641434,0.0,0.0,0.0,0.0,0.0,0.0,0.248,0.0,0.0,0.0
262,0.0,0.0,0.0,0.613943359375,0.0,0.0,0.0,0.0,0.0,0.0,0.178,0.0,0.0,0.0,0.0,0.0,-1.61,0.6201552273681566,0.0,0.0,0.0,0.0,0.0,0.0,0.408,0.0,0.0,0.0
263,0.0,0.0,0.0,0.6158291015625,0.0,0.0,0.0,0.0,0.0,0.0,0.181,0.0,0.0,0.0,0.0,0.0,-1.61,0.6220535844621807,0.0,0.0,0.0,0.0,0.0,0.0,0.64,0.0,0.0,0.0
264,0.0,0.0,0.0,0.6175615234375,0.0,0.0,0.0,0.0,0.0,0.0,0.184,0.0,0.0,0.0,0.0,0.0,-1.61,0.6239513511903448,0.0,0.0,0.0,0.0,0.0,0.0,0.568,0.0,0.0,0.0
265,0.0,0.0,0.0,0.619447265625,0.0,0.0,0.0,0.0,0.0,0.0,0.179,0.0,0.0,0.0,0.0,0.0,-1.61,0.62584379118792,0.0,0.0,0.0,0.0,0.0,0.0,0.272,0.0,0.0,0.0
266,0.0,0.0,0.0,0.621189453125,0.0,0.0,0.0,0.0,0.0,0.0,0.184,0.0,0.0,0.0,0.0,0.0,-1.61,0.627725996480394,0.0,0.0,0.0,0.0,0.0,0.0,0.136,0.0,0.0,0.0
267,0.0,0.0,0.0,0.6245185546875,0.0,0.0,0.0,0.0,0.0,0.0,0.156,0.0,0.0,0.0,0.0,0.0,-1.61,0.6329780429740576,0.0,0.0,0.0,0.0,0.0,0.0,0.456,0.0,0.0,0.0
268,0.0,0.0,0.0,0.6262607421875,0.0,0.0,0.0,0.0,0.0,0.0,0.179,0.0,0.0,0.0,0.0,0.0,-1.61,0.6339416399834709,0.0,0.0,0.0,0.0,0.0,0.0,0.8,0.0,0.0,0.0
269,0.0,0.0,0.0,0.6285703125,0.0,0.0,0.0,0.0,0.0,0.0,0.119,0.0,0.0,0.0,0.0,0.0,-1.61,0.6366914916934302,0.0,0.0,0.0,0.0,0.0,0.0,-1.44,0.0,0.0,0.0
270,0.0,0.0,0.0,0.6291572265625,0.0,0.0,0.0,0.0,0.0,0.0,0.026,0.0,0.0,0.0,0.0,0.0,-1.61,0.6404865502590136,0.0,0.0,0.0,0.0,0.0,0.0,-1.44,0.0,0.0,0.0
271,0.0,0.0,0.0,0.6306005859375,0.0,0.0,0.0,0.0,0.0,0.0,0.074,0.0,0.0,0.0,0.0,0.0,-1.61,0.6423468872732829,0.0,0.0,0.0,0.0,0.0,0.0,2.4,0.0,0.0,0.0
272,0.0,0.0,0.0,0.6320439453125,0.0,0.0,0.0,0.0,0.0,0.0,0.156,0.0,0.0,0.0,0.0,0.0,-1.61,0.6443637478568448,0.0,0.0,0.0,0.0,0.0,0.0,2.492,0.0,0.0,0.0
273,0.0,0.0,0.0,0.6334970703125,0.0,0.0,0.0,0.0,0.0,0.0,0.129,0.0,0.0,0.0,0.0,0.0,-1.61,0.6460132705848004,0.0,0.0,0.0,0.0,0.0,0.0,3.452,0.0,0.0,0.0
274,0.0,0.0,0.0,0.6365380859375,0.0,0.0,0.0,0.0,0.0,0.0,0.209,0.0,0.0,0.0,0.0,0.0,-1.61,0.647848551156706,0.0,0.0,0.0,0.0,0.0,0.0,3.268,0.0,0.0,0.0
275,0.0,0.0,0.0,0.63913671875,0.0,0.0,0.0,0.0,0.0,0.0,0.296,0.0,0.0,0.0,0.0,0.0,-1.61,0.6497111519097146,0.0,0.0,0.0,0.0,0.0,0.0,2.032,0.0,0.0,0.0
276,0.0,0.0,0.0,0.6418974609375,0.0,0.0,0.0,0.0,0.0,0.0,0.255,0.0,0.0,0.0,0.0,0.0,-1.61,0.651493128032875,0.0,0.0,0.0,0.0,0.0,0.0,1.096,0.0,0.0,0.0
277,0.0,0.0,0.0,0.6450830078125,0.0,0.0,0.0,0.0,0.0,0.0,0.304,0.0,0.0,0.0,0.0,0.0,-1.61,0.6532970222145438,0.0,0.0,0.0,0.0,0.0,0.0,-0.64,0.0,0.0,0.0
278,0.0,0.0,0.0,0.6478349609375,0.0,0.0,0.0,0.0,0.0,0.0,0.304,0.0,0.0,0.0,0.0,0.0,-1.61,0.6550973611898027,0.0,0.0,0.0,0.0,0.0,0.0,-1.052,0.0,0.0,0.0
279,0.0,0.0,0.0,0.650443359375,0.0,0.0,0.0,0.0,0.0,0.0,0.268,0.0,0.0,0.0,0.0,0.0,-1.61,0.656909908119829,0.0,0.0,0.0,0.0,0.0,0.0,-1.212,0.0,0.0,0.0
280,0.0,0.0,0.0,0.6526083984375,0.0,0.0,0.0,0.0,0.0,0.0,0.246,0.0,0.0,0.0,0.0,0.0,-1.61,0.6586840384050914,0.0,0.0,0.0,0.0,0.0,0.0,-1.164,0.0,0.0,0.0
281,0.0,0.0,0.0,0.6543505859375,0.0,0.0,0.0,0.0,0.0,0.0,0.194,0.0,0.0,0.0,0.0,0.0,-1.61,0.6604839004008664,0.0,0.0,0.0,0.0,0.0,0.0,-0.068,0.0,0.0,0.0
282,0.0,0.0,0.0,0.6562265625,0.0,0.0,0.0,0.0,0.0,0.0,0.18,0.0,0.0,0.0,0.0,0.0,-1.61,0.6623244892017012,0.0,0.0,0.0,0.0,0.0,0.0,1.14,0.0,0.0,0.0
283,0.0,0.0,0.0,0.6584013671875,0.0,0.0,0.0,0.0,0.0,0.0,0.209,0.0,0.0,0.0,0.0,0.0,-1.61,0.6640638263252681,0.0,0.0,0.0,0.0,0.0,0.0,0.98,0.0,0.0,0.0
284,0.0,0.0,0.0,0.660287109375,0.0,0.0,0.0,0.0,0.0,0.0,0.205,0.0,0.0,0.0,0.0,0.0,-1.61,0.6657890556053303,0.0,0.0,0.0,0.0,0.0,0.0,0.228,0.0,0.0,0.0
285,0.0,0.0,0.0,0.6627509765625,0.0,0.0,0.0,0.0,0.0,0.0,0.211,0.0,0.0,0.0,0.0,0.0,-1.61,0.6676061789677251,0.0,0.0,0.0,0.0,0.0,0.0,-0.592,0.0,0.0,0.0
286,0.0,0.0,0.0,0.66492578125,0.0,0.0,0.0,0.0,0.0,0.0,0.237,0.0,0.0,0.0,0.0,0.0,-1.61,0.6693433829170212,0.0,0.0,0.0,0.0,0.0,0.0,-1.552,0.0,0.0,0.0
287,0.0,0.0,0.0,0.666513671875,0.0,0.0,0.0,0.0,0.0,0.0,0.193,0.0,0.0,0.0,0.0,0.0,-1.61,0.6710923008811631,0.0,0.0,0.0,0.0,0.0,0.0,-1.188,0.0,0.0,0.0
288,0.0,0.0,0.0,0.668111328125,0.0,0.0,0.0,0.0,0.0,0.0,0.163,0.0,0.0,0.0,0.0,0.0,-1.61,0.6728177687450208,0.0,0.0,0.0,0.0,0.0,0.0,-1.212,0.0,0.0,0.0
289,0.0,0.0,0.0,0.66969921875,0.0,0.0,0.0,0.0,0.0,0.0,0.157,0.0,0.0,0.0,0.0,0.0,-1.61,0.6745913371081388,0.0,0.0,0.0,0.0,0.0,0.0,0.068,0.0,0.0,0.0
290,0.0,0.0,0.0,0.671142578125,0.0,0.0,0.0,0.0,0.0,0.0,0.155,0.0,0.0,0.0,0.0,0.0,-1.61,0.6762965967012218,0.0,0.0,0.0,0.0,0.0,0.0,0.8,0.0,0.0,0.0
291,0.0,0.0,0.0,0.672595703125,0.0,0.0,0.0,0.0,0.0,0.0,0.145,0.0,0.0,0.0,0.0,0.0,-1.61,0.6780359994210492,0.0,0.0,0.0,0.0,0.0,0.0,0.936,0.0,0.0,0.0
292,0.0,0.0,0.0,0.6740390625,0.0,0.0,0.0,0.0,0.0,0.0,0.145,0.0,0.0,0.0,0.0,0.0,-1.61,0.6799210379518014,0.0,0.0,0.0,0.0,0.0,0.0,0.708,0.0,0.0,0.0
293,0.0,0.0,0.0,0.67563671875,0.0,0.0,0.0,0.0,0.0,0.0,0.15,0.0,0.0,0.0,0.0,0.0,-1.61,0.6816185900424362,0.0,0.0,0.0,0.0,0.0,0.0,0.98,0.0,0.0,0.0
294,0.0,0.0,0.0,0.677369140625,0.0,0.0,0.0,0.0,0.0,0.0,0.173,0.0,0.0,0.0,0.0,0.0,-1.61,0.6831892428946672,0.0,0.0,0.0,0.0,0.0,0.0,0.228,0.0,0.0,0.0
295,0.0,0.0,0.0,0.678677734375,0.0,0.0,0.0,0.0,0.0,0.0,0.152,0.0,0.0,0.0,0.0,0.0,-1.61,0.6850193022291808,0.0,0.0,0.0,0.0,0.0,0.0,-0.48,0.0,0.0,0.0
296,0.0,0.0,0.0,0.6802744140625,0.0,0.0,0.0,0.0,0.0,0.0,0.142,0.0,0.0,0.0,0.0,0.0,-1.61,0.6866078695234076,0.0,0.0,0.0,0.0,0.0,0.0,-0.16,0.0,0.0,0.0
297,0.0,0.0,0.0,0.6820068359375,0.0,0.0,0.0,0.0,0.0,0.0,0.171,0.0,0.0,0.0,0.0,0.0,-1.61,0.6882871389887724,0.0,0.0,0.0,0.0,0.0,0.0,0.48,0.0,0.0,0.0
298,0.0,0.0,0.0,0.6833154296875,0.0,0.0,0.0,0.0,0.0,0.0,0.158,0.0,0.0,0.0,0.0,0.0,-1.61,0.689977987452843,0.0,0.0,0.0,0.0,0.0,0.0,0.66,0.0,0.0,0.0
299,0.0,0.0,0.0,0.6849033203125,0.0,0.0,0.0,0.0,0.0,0.0,0.136,0.0,0.0,0.0,0.0,0.0,-1.61,0.6916698813626257,0.0,0.0,0.0,0.0,0.0,0.0,0.98,0.0,0.0,0.0
300,0.0,0.0,0.0,0.6865009765625,0.0,0.0,0.0,0.0,0.0,0.0,0.164,0.0,0.0,0.0,0.0,0.0,-1.61,0.6933410514043827,0.0,0.0,0.0,0.0,0.0,0.0,0.8,0.0,0.0,0.0
301,0.0,0.0,0.0,0.6879443359375,0.0,0.0,0.0,0.0,0.0,0.0,0.153,0.0,0.0,0.0,0.0,0.0,-1.61,0.6950114146567808,0.0,0.0,0.0,0.0,0.0,0.0,0.548,0.0,0.0,0.0
302,0.0,0.0,0.0,0.6895322265625,0.0,0.0,0.0,0.0,0.0,0.0,0.147,0.0,0.0,0.0,0.0,0.0,-1.61,0.6967024314413612,0.0,0.0,0.0,0.0,0.0,0.0,0.844,0.0,0.0,0.0
303,0.0,0.0,0.0,0.69141796875,0.0,0.0,0.0,0.0,0.0,0.0,0.18,0.0,0.0,0.0,0.0,0.0,-1.61,0.6983351478032787,0.0,0.0,0.0,0.0,0.0,0.0,0.408,0.0,0.0,0.0
304,0.0,0.0,0.0,0.6930068359375,0.0,0.0,0.0,0.0,0.0,0.0,0.168,0.0,0.0,0.0,0.0,0.0,-1.61,0.6999933258654282,0.0,0.0,0.0,0.0,0.0,0.0,0.432,0.0,0.0,0.0
305,0.0,0.0,0.0,0.694892578125,0.0,0.0,0.0,0.0,0.0,0.0,0.169,0.0,0.0,0.0,0.0,0.0,-1.61,0.7018772507475771,0.0,0.0,0.0,0.0,0.0,0.0,0.568,0.0,0.0,0.0
306,0.0,0.0,0.0,0.696625,0.0,0.0,0.0,0.0,0.0,0.0,0.182,0.0,0.0,0.0,0.0,0.0,-1.61,0.7032841475014593,0.0,0.0,0.0,0.0,0.0,0.0,0.616,0.0,0.0,0.0
307,0.0,0.0,0.0,0.698078125,0.0,0.0,0.0,0.0,0.0,0.0,0.165,0.0,0.0,0.0,0.0,0.0,-1.61,0.7049192710335195,0.0,0.0,0.0,0.0,0.0,0.0,0.456,0.0,0.0,0.0
308,0.0,0.0,0.0,0.6996748046875,0.0,0.0,0.0,0.0,0.0,0.0,0.152,0.0,0.0,0.0,0.0,0.0,-1.61,0.7065574743932357,0.0,0.0,0.0,0.0,0.0,0.0,0.8,0.0,0.0,0.0
309,0.0,0.0,0.0,0.701705078125,0.0,0.0,0.0,0.0,0.0,0.0,0.179,0.0,0.0,0.0,0.0,0.0,-1.61,0.7082295201899141,0.0,0.0,0.0,0.0,0.0,0.0,0.708,0.0,0.0,0.0
310,0.0,0.0,0.0,0.70329296875,0.0,0.0,0.0,0.0,0.0,0.0,0.184,0.0,0.0,0.0,0.0,0.0,-1.61,0.7100264216130795,0.0,0.0,0.0,0.0,0.0,0.0,0.388,0.0,0.0,0.0
311,0.0,0.0,0.0,0.7053232421875,0.0,0.0,0.0,0.0,0.0,0.0,0.178,0.0,0.0,0.0,0.0,0.0,-1.61,0.7114089338570714,0.0,0.0,0.0,0.0,0.0,0.0,0.32,0.0,0.0,0.0
312,0.0,0.0,0.0,0.7070556640625,0.0,0.0,0.0,0.0,0.0,0.0,0.197,0.0,0.0,0.0,0.0,0.0,-1.61,0.7130198578024909,0.0,0.0,0.0,0.0,0.0,0.0,-0.364,0.0,0.0,0.0
313,0.0,0.0,0.0,0.7087978515625,0.0,0.0,0.0,0.0,0.0,0.0,0.174,0.0,0.0,0.0,0.0,0.0,-1.61,0.7146126397100748,0.0,0.0,0.0,0.0,0.0,0.0,0.112,0.0,0.0,0.0
314,0.0,0.0,0.0,0.710818359375,0.0,0.0,0.0,0.0,0.0,0.0,0.191,0.0,0.0,0.0,0.0,0.0,-1.61,0.7162098932983038,0.0,0.0,0.0,0.0,0.0,0.0,-0.112,0.0,0.0,0.0
315,0.0,0.0,0.0,0.712271484375,0.0,0.0,0.0,0.0,0.0,0.0,0.181,0.0,0.0,0.0,0.0,0.0,-1.61,0.7178545868381113,0.0,0.0,0.0,0.0,0.0,0.0,-0.868,0.0,0.0,0.0
316,0.0,0.0,0.0,0.7141484375,0.0,0.0,0.0,0.0,0.0,0.0,0.158,0.0,0.0,0.0,0.0,0.0,-1.61,0.7196809403872861,0.0,0.0,0.0,0.0,0.0,0.0,-0.5,0.0,0.0,0.0
317,0.0,0.0,0.0,0.7160341796875,0.0,0.0,0.0,0.0,0.0,0.0,0.193,0.0,0.0,0.0,0.0,0.0,-1.61,0.7209378419067208,0.0,0.0,0.0,0.0,0.0,0.0,-0.776,0.0,0.0,0.0
318,0.0,0.0,0.0,0.7174775390625,0.0,0.0,0.0,0.0,0.0,0.0,0.158,0.0,0.0,0.0,0.0,0.0,-1.61,0.7225198695285588,0.0,0.0,0.0,0.0,0.0,0.0,-0.34,0.0,0.0,0.0
319,0.0,0.0,0.0,0.7174775390625,0.0,0.0,0.0,0.0,0.0,0.0,0.158,0.0,0.0,0.0,0.0,0.0,-1.61,0.7240920344928136,0.0,0.0,0.0,0.0,0.0,0.0,-0.34,0.0,0.0,0.0
320,0.0,0.0,0.0,0.7209609375,0.0,0.0,0.0,0.0,0.0,0.0,0.185,0.0,0.0,0.0,0.0,0.0,-1.61,0.7256618494317261,0.0,0.0,0.0,0.0,0.0,0.0,-0.296,0.0,0.0,0.0
321,0.0,0.0,0.0,0.722548828125,0.0,0.0,0.0,0.0,0.0,0.0,0.163,0.0,0.0,0.0,0.0,0.0,-1.61,0.7271928728393453,0.0,0.0,0.0,0.0,0.0,0.0,-0.32,0.0,0.0,0.0
322,0.0,0.0,0.0,0.724291015625,0.0,0.0,0.0,0.0,0.0,0.0,0.167,0.0,0.0,0.0,0.0,0.0,-1.61,0.7291004543633751,0.0,0.0,0.0,0.0,0.0,0.0,-0.456,0.0,0.0,0.0
323,0.0,0.0,0.0,0.7260234375,0.0,0.0,0.0,0.0,0.0,0.0,0.178,0.0,0.0,0.0,0.0,0.0,-1.61,0.7303056080711932,0.0,0.0,0.0,0.0,0.0,0.0,-0.432,0.0,0.0,0.0
324,0.0,0.0,0.0,0.7276201171875,0.0,0.0,0.0,0.0,0.0,0.0,0.166,0.0,0.0,0.0,0.0,0.0,-1.61,0.7318269525766813,0.0,0.0,0.0,0.0,0.0,0.0,-0.112,0.0,0.0,0.0
325,0.0,0.0,0.0,0.728919921875,0.0,0.0,0.0,0.0,0.0,0.0,0.144,0.0,0.0,0.0,0.0,0.0,-1.61,0.7334730440269351,0.0,0.0,0.0,0.0,0.0,0.0,-0.456,0.0,0.0,0.0
326,0.0,0.0,0.0,0.73036328125,0.0,0.0,0.0,0.0,0.0,0.0,0.141,0.0,0.0,0.0,0.0,0.0,-1.61,0.7358239381199879,0.0,0.0,0.0,0.0,0.0,0.0,-0.068,0.0,0.0,0.0
327,0.0,0.0,0.0,0.73181640625,0.0,0.0,0.0,0.0,0.0,0.0,0.145,0.0,0.0,0.0,0.0,0.0,-1.61,0.7365646075967851,0.0,0.0,0.0,0.0,0.0,0.0,0.548,0.0,0.0,0.0
328,0.0,0.0,0.0,0.733115234375,0.0,0.0,0.0,0.0,0.0,0.0,0.135,0.0,0.0,0.0,0.0,0.0,-1.61,0.7378670476624102,0.0,0.0,0.0,0.0,0.0,0.0,0.708,0.0,0.0,0.0
329,0.0,0.0,0.0,0.7342705078125,0.0,0.0,0.0,0.0,0.0,0.0,0.125,0.0,0.0,0.0,0.0,0.0,-1.61,0.7394408341267371,0.0,0.0,0.0,0.0,0.0,0.0,0.48,0.0,0.0,0.0
330,0.0,0.0,0.0,0.7357236328125,0.0,0.0,0.0,0.0,0.0,0.0,0.125,0.0,0.0,0.0,0.0,0.0,-1.61,0.7408857573943192,0.0,0.0,0.0,0.0,0.0,0.0,0.96,0.0,0.0,0.0
331,0.0,0.0,0.0,0.7371669921875,0.0,0.0,0.0,0.0,0.0,0.0,0.149,0.0,0.0,0.0,0.0,0.0,-1.61,0.7423644376918759,0.0,0.0,0.0,0.0,0.0,0.0,0.684,0.0,0.0,0.0
332,0.0,0.0,0.0,0.73833984375,0.0,0.0,0.0,0.0,0.0,0.0,0.135,0.0,0.0,0.0,0.0,0.0,-1.61,0.7439078386670371,0.0,0.0,0.0,0.0,0.0,0.0,0.912,0.0,0.0,0.0
333,0.0,0.0,0.0,0.7399287109375,0.0,0.0,0.0,0.0,0.0,0.0,0.142,0.0,0.0,0.0,0.0,0.0,-1.61,0.7454390305183074,0.0,0.0,0.0,0.0,0.0,0.0,0.408,0.0,0.0,0.0
334,0.0,0.0,0.0,0.7410830078125,0.0,0.0,0.0,0.0,0.0,0.0,0.137,0.0,0.0,0.0,0.0,0.0,-1.61,0.746912581779412,0.0,0.0,0.0,0.0,0.0,0.0,0.388,0.0,0.0,0.0
335,0.0,0.0,0.0,0.7423916015625,0.0,0.0,0.0,0.0,0.0,0.0,0.122,0.0,0.0,0.0,0.0,0.0,-1.61,0.7482527287150095,0.0,0.0,0.0,0.0,0.0,0.0,0.708,0.0,0.0,0.0
336,0.0,0.0,0.0,0.7438349609375,0.0,0.0,0.0,0.0,0.0,0.0,0.136,0.0,0.0,0.0,0.0,0.0,-1.61,0.7497039668337016,0.0,0.0,0.0,0.0,0.0,0.0,0.912,0.0,0.0,0.0
337,0.0,0.0,0.0,0.745134765625,0.0,0.0,0.0,0.0,0.0,0.0,0.14,0.0,0.0,0.0,0.0,0.0,-1.61,0.7511553845561236,0.0,0.0,0.0,0.0,0.0,0.0,0.96,0.0,0.0,0.0
338,0.0,0.0,0.0,0.746587890625,0.0,0.0,0.0,0.0,0.0,0.0,0.135,0.0,0.0,0.0,0.0,0.0,-1.61,0.752618834276814,0.0,0.0,0.0,0.0,0.0,0.0,0.888,0.0,0.0,0.0
339,0.0,0.0,0.0,0.74788671875,0.0,0.0,0.0,0.0,0.0,0.0,0.142,0.0,0.0,0.0,0.0,0.0,-1.61,0.7540589096428482,0.0,0.0,0.0,0.0,0.0,0.0,0.568,0.0,0.0,0.0
340,0.0,0.0,0.0,0.7493310546875,0.0,0.0,0.0,0.0,0.0,0.0,0.134,0.0,0.0,0.0,0.0,0.0,-1.61,0.7556753202156111,0.0,0.0,0.0,0.0,0.0,0.0,0.616,0.0,0.0,0.0
341,0.0,0.0,0.0,0.750927734375,0.0,0.0,0.0,0.0,0.0,0.0,0.15,0.0,0.0,0.0,0.0,0.0,-1.61,0.7568803281659338,0.0,0.0,0.0,0.0,0.0,0.0,0.752,0.0,0.0,0.0
342,0.0,0.0,0.0,0.75237109375,0.0,0.0,0.0,0.0,0.0,0.0,0.155,0.0,0.0,0.0,0.0,0.0,-1.61,0.7583106769507626,0.0,0.0,0.0,0.0,0.0,0.0,0.48,0.0,0.0,0.0
343,0.0,0.0,0.0,0.75382421875,0.0,0.0,0.0,0.0,0.0,0.0,0.145,0.0,0.0,0.0,0.0,0.0,-1.61,0.7597206536427549,0.0,0.0,0.0,0.0,0.0,0.0,0.568,0.0,0.0,0.0
344,0.0,0.0,0.0,0.755412109375,0.0,0.0,0.0,0.0,0.0,0.0,0.155,0.0,0.0,0.0,0.0,0.0,-1.61,0.7611471330464589,0.0,0.0,0.0,0.0,0.0,0.0,0.364,0.0,0.0,0.0
345,0.0,0.0,0.0,0.7568564453125,0.0,0.0,0.0,0.0,0.0,0.0,0.151,0.0,0.0,0.0,0.0,0.0,-1.61,0.7625570498802476,0.0,0.0,0.0,0.0,0.0,0.0,0.32,0.0,0.0,0.0
346,0.0,0.0,0.0,0.758173828125,0.0,0.0,0.0,0.0,0.0,0.0,0.141,0.0,0.0,0.0,0.0,0.0,-1.61,0.7639125862675522,0.0,0.0,0.0,0.0,0.0,0.0,0.0,0.0,0.0,0.0
347,0.0,0.0,0.0,0.7596171875,0.0,0.0,0.0,0.0,0.0,0.0,0.136,0.0,0.0,0.0,0.0,0.0,-1.61,0.765304139481029,0.0,0.0,0.0,0.0,0.0,0.0,0.18,0.0,0.0,0.0
348,0.0,0.0,0.0,0.7610703125,0.0,0.0,0.0,0.0,0.0,0.0,0.145,0.0,0.0,0.0,0.0,0.0,-1.61,0.7666779319753042,0.0,0.0,0.0,0.0,0.0,0.0,0.388,0.0,0.0,0.0
349,0.0,0.0,0.0,0.762513671875,0.0,0.0,0.0,0.0,0.0,0.0,0.145,0.0,0.0,0.0,0.0,0.0,-1.61,0.768060619402418,0.0,0.0,0.0,0.0,0.0,0.0,0.48,0.0,0.0,0.0
350,0.0,0.0,0.0,0.76424609375,0.0,0.0,0.0,0.0,0.0,0.0,0.154,0.0,0.0,0.0,0.0,0.0,-1.61,0.7694264330769125,0.0,0.0,0.0,0.0,0.0,0.0,0.456,0.0,0.0,0.0
351,0.0,0.0,0.0,0.76569921875,0.0,0.0,0.0,0.0,0.0,0.0,0.162,0.0,0.0,0.0,0.0,0.0,-1.61,0.7707847237532218,0.0,0.0,0.0,0.0,0.0,0.0,0.16,0.0,0.0,0.0
352,0.0,0.0,0.0,0.767287109375,0.0,0.0,0.0,0.0,0.0,0.0,0.152,0.0,0.0,0.0,0.0,0.0,-1.61,0.772296358736,0.0,0.0,0.0,0.0,0.0,0.0,0.044,0.0,0.0,0.0
353,0.0,0.0,0.0,0.768884765625,0.0,0.0,0.0,0.0,0.0,0.0,0.161,0.0,0.0,0.0,0.0,0.0,-1.61,0.7734721181895242,0.0,0.0,0.0,0.0,0.0,0.0,-0.136,0.0,0.0,0.0
354,0.0,0.0,0.0,0.770328125,0.0,0.0,0.0,0.0,0.0,0.0,0.155,0.0,0.0,0.0,0.0,0.0,-1.61,0.7748210788600319,0.0,0.0,0.0,0.0,0.0,0.0,-0.568,0.0,0.0,0.0
355,0.0,0.0,0.0,0.7716279296875,0.0,0.0,0.0,0.0,0.0,0.0,0.143,0.0,0.0,0.0,0.0,0.0,-1.61,0.7765531703775516,0.0,0.0,0.0,0.0,0.0,0.0,-0.844,0.0,0.0,0.0
356,0.0,0.0,0.0,0.773224609375,0.0,0.0,0.0,0.0,0.0,0.0,0.134,0.0,0.0,0.0,0.0,0.0,-1.61,0.7774733294944651,0.0,0.0,0.0,0.0,0.0,0.0,-0.248,0.0,0.0,0.0
357,0.0,0.0,0.0,0.7745244140625,0.0,0.0,0.0,0.0,0.0,0.0,0.156,0.0,0.0,0.0,0.0,0.0,-1.61,0.7787858297104236,0.0,0.0,0.0,0.0,0.0,0.0,-0.248,0.0,0.0,0.0
358,0.0,0.0,0.0,0.7756787109375,0.0,0.0,0.0,0.0,0.0,0.0,0.124,0.0,0.0,0.0,0.0,0.0,-1.61,0.7801078856599919,0.0,0.0,0.0,0.0,0.0,0.0,-0.456,0.0,0.0,0.0
359,0.0,0.0,0.0,0.7769873046875,0.0,0.0,0.0,0.0,0.0,0.0,0.115,0.0,0.0,0.0,0.0,0.0,-1.61,0.7815079240873728,0.0,0.0,0.0,0.0,0.0,0.0,-0.296,0.0,0.0,0.0
360,0.0,0.0,0.0,0.7784404296875,0.0,0.0,0.0,0.0,0.0,0.0,0.141,0.0,0.0,0.0,0.0,0.0,-1.61,0.7827111946141054,0.0,0.0,0.0,0.0,0.0,0.0,-0.32,0.0,0.0,0.0
361,0.0,0.0,0.0,0.779595703125,0.0,0.0,0.0,0.0,0.0,0.0,0.134,0.0,0.0,0.0,0.0,0.0,-1.61,0.7840512817686027,0.0,0.0,0.0,0.0,0.0,0.0,-0.272,0.0,0.0,0.0
362,0.0,0.0,0.0,0.7807587890625,0.0,0.0,0.0,0.0,0.0,0.0,0.12,0.0,0.0,0.0,0.0,0.0,-1.61,0.7854179587409685,0.0,0.0,0.0,0.0,0.0,0.0,-0.844,0.0,0.0,0.0
363,0.0,0.0,0.0,0.782203125,0.0,0.0,0.0,0.0,0.0,0.0,0.127,0.0,0.0,0.0,0.0,0.0,-1.61,0.7865808273936764,0.0,0.0,0.0,0.0,0.0,0.0,-0.48,0.0,0.0,0.0
364,0.0,0.0,0.0,0.784810546875,0.0,0.0,0.0,0.0,0.0,0.0,0.135,0.0,0.0,0.0,0.0,0.0,-1.61,0.7890265566972194,0.0,0.0,0.0,0.0,0.0,0.0,0.16,0.0,0.0,0.0
365,0.0,0.0,0.0,0.7861103515625,0.0,0.0,0.0,0.0,0.0,0.0,0.126,0.0,0.0,0.0,0.0,0.0,-1.61,0.7911042090082324,0.0,0.0,0.0,0.0,0.0,0.0,-0.34,0.0,0.0,0.0
366,0.0,0.0,0.0,0.7869765625,0.0,0.0,0.0,0.0,0.0,0.0,0.11,0.0,0.0,0.0,0.0,0.0,-1.61,0.7921130304060807,0.0,0.0,0.0,0.0,0.0,0.0,-1.324,0.0,0.0,0.0
367,0.0,0.0,0.0,0.7878427734375,0.0,0.0,0.0,0.0,0.0,0.0,0.086,0.0,0.0,0.0,0.0,0.0,-1.61,0.7930337261950078,0.0,0.0,0.0,0.0,0.0,0.0,-0.64,0.0,0.0,0.0
368,0.0,0.0,0.0,0.7891513671875,0.0,0.0,0.0,0.0,0.0,0.0,0.108,0.0,0.0,0.0,0.0,0.0,-1.61,0.7940766558023252,0.0,0.0,0.0,0.0,0.0,0.0,0.044,0.0,0.0,0.0
369,0.0,0.0,0.0,0.790162109375,0.0,0.0,0.0,0.0,0.0,0.0,0.112,0.0,0.0,0.0,0.0,0.0,-1.61,0.795097540908499,0.0,0.0,0.0,0.0,0.0,0.0,1.028,0.0,0.0,0.0
370,0.0,0.0,0.0,0.790162109375,0.0,0.0,0.0,0.0,0.0,0.0,0.112,0.0,0.0,0.0,0.0,0.0,-1.61,0.7959301868796721,0.0,0.0,0.0,0.0,0.0,0.0,1.028,0.0,0.0,0.0
371,0.0,0.0,0.0,0.79160546875,0.0,0.0,0.0,0.0,0.0,0.0,0.118,0.0,0.0,0.0,0.0,0.0,-1.61,0.7968585142891134,0.0,0.0,0.0,0.0,0.0,0.0,1.372,0.0,0.0,0.0
372,0.0,0.0,0.0,0.79276953125,0.0,0.0,0.0,0.0,0.0,0.0,0.139,0.0,0.0,0.0,0.0,0.0,-1.61,0.7984797073612022,0.0,0.0,0.0,0.0,0.0,0.0,0.616,0.0,0.0,0.0
373,0.0,0.0,0.0,0.7939248046875,0.0,0.0,0.0,0.0,0.0,0.0,0.109,0.0,0.0,0.0,0.0,0.0,-1.61,0.7993766225589385,0.0,0.0,0.0,0.0,0.0,0.0,0.912,0.0,0.0,0.0
374,0.0,0.0,0.0,0.7953681640625,0.0,0.0,0.0,0.0,0.0,0.0,0.131,0.0,0.0,0.0,0.0,0.0,-1.61,0.8004044830960827,0.0,0.0,0.0,0.0,0.0,0.0,0.48,0.0,0.0,0.0
375,0.0,0.0,0.0,0.7965322265625,0.0,0.0,0.0,0.0,0.0,0.0,0.13,0.0,0.0,0.0,0.0,0.0,-1.61,0.8014114723307989,0.0,0.0,0.0,0.0,0.0,0.0,0.524,0.0,0.0,0.0
376,0.0,0.0,0.0,0.7991396484375,0.0,0.0,0.0,0.0,0.0,0.0,0.133,0.0,0.0,0.0,0.0,0.0,-1.61,0.8036075334226181,0.0,0.0,0.0,0.0,0.0,0.0,0.248,0.0,0.0,0.0
377,0.0,0.0,0.0,0.7991396484375,0.0,0.0,0.0,0.0,0.0,0.0,0.133,0.0,0.0,0.0,0.0,0.0,-1.61,0.8043840484467675,0.0,0.0,0.0,0.0,0.0,0.0,0.248,0.0,0.0,0.0
378,0.0,0.0,0.0,0.7991396484375,0.0,0.0,0.0,0.0,0.0,0.0,0.133,0.0,0.0,0.0,0.0,0.0,-1.61,0.8063232087831181,0.0,0.0,0.0,0.0,0.0,0.0,0.248,0.0,0.0,0.0
379,0.0,0.0,0.0,0.7991396484375,0.0,0.0,0.0,0.0,0.0,0.0,0.133,0.0,0.0,0.0,0.0,0.0,-1.61,0.8083164930293123,0.0,0.0,0.0,0.0,0.0,0.0,0.248,0.0,0.0,0.0
380,0.0,0.0,0.0,0.80348046875,0.0,0.0,0.0,0.0,0.0,0.0,0.091,0.0,0.0,0.0,0.0,0.0,-1.61,0.8097377630981397,0.0,0.0,0.0,0.0,0.0,0.0,0.5,0.0,0.0,0.0
381,0.0,0.0,0.0,0.80348046875,0.0,0.0,0.0,0.0,0.0,0.0,0.091,0.0,0.0,0.0,0.0,0.0,-1.61,0.8105193614595604,0.0,0.0,0.0,0.0,0.0,0.0,0.5,0.0,0.0,0.0
382,0.0,0.0,0.0,0.80348046875,0.0,0.0,0.0,0.0,0.0,0.0,0.091,0.0,0.0,0.0,0.0,0.0,-1.61,0.8121299834187845,0.0,0.0,0.0,0.0,0.0,0.0,0.5,0.0,0.0,0.0
383,0.0,0.0,0.0,0.8042109375,0.0,0.0,0.0,0.0,0.0,0.0,0.074,0.0,0.0,0.0,0.0,0.0,-1.61,0.8132703813350409,0.0,0.0,0.0,0.0,0.0,0.0,-0.32,0.0,0.0,0.0
384,0.0,0.0,0.0,0.8055107421875,0.0,0.0,0.0,0.0,0.0,0.0,0.097,0.0,0.0,0.0,0.0,0.0,-1.61,0.8158630798412898,0.0,0.0,0.0,0.0,0.0,0.0,0.752,0.0,0.0,0.0
385,0.0,0.0,0.0,0.8055107421875,0.0,0.0,0.0,0.0,0.0,0.0,0.097,0.0,0.0,0.0,0.0,0.0,-1.61,0.8167039911419964,0.0,0.0,0.0,0.0,0.0,0.0,0.752,0.0,0.0,0.0
386,0.0,0.0,0.0,0.812169921875,0.0,0.0,0.0,0.0,0.0,0.0,0.133,0.0,0.0,0.0,0.0,0.0,-1.61,0.8178718369075211,0.0,0.0,0.0,0.0,0.0,0.0,-0.592,0.0,0.0,0.0
387,0.0,0.0,0.0,0.812169921875,0.0,0.0,0.0,0.0,0.0,0.0,0.133,0.0,0.0,0.0,0.0,0.0,-1.61,0.8193570924167553,0.0,0.0,0.0,0.0,0.0,0.0,-0.592,0.0,0.0,0.0
388,0.0,0.0,0.0,0.8147685546875,0.0,0.0,0.0,0.0,0.0,0.0,0.131,0.0,0.0,0.0,0.0,0.0,-1.61,0.8209736063267778,0.0,0.0,0.0,0.0,0.0,0.0,0.5,0.0,0.0,0.0
389,0.0,0.0,0.0,0.8147685546875,0.0,0.0,0.0,0.0,0.0,0.0,0.131,0.0,0.0,0.0,0.0,0.0,-1.61,0.8220598140864506,0.0,0.0,0.0,0.0,0.0,0.0,0.5,0.0,0.0,0.0
390,0.0,0.0,0.0,0.8147685546875,0.0,0.0,0.0,0.0,0.0,0.0,0.131,0.0,0.0,0.0,0.0,0.0,-1.61,0.8231111362514903,0.0,0.0,0.0,0.0,0.0,0.0,0.5,0.0,0.0,0.0
391,0.0,0.0,0.0,0.816798828125,0.0,0.0,0.0,0.0,0.0,0.0,0.104,0.0,0.0,0.0,0.0,0.0,-1.61,0.8243427414274348,0.0,0.0,0.0,0.0,0.0,0.0,0.708,0.0,0.0,0.0
392,0.0,0.0,0.0,0.816798828125,0.0,0.0,0.0,0.0,0.0,0.0,0.104,0.0,0.0,0.0,0.0,0.0,-1.61,0.8252242996903474,0.0,0.0,0.0,0.0,0.0,0.0,0.708,0.0,0.0,0.0
393,0.0,0.0,0.0,0.8215810546875,0.0,0.0,0.0,0.0,0.0,0.0,0.128,0.0,0.0,0.0,0.0,0.0,-1.61,0.8266375655839198,0.0,0.0,0.0,0.0,0.0,0.0,0.32,0.0,0.0,0.0
394,0.0,0.0,0.0,0.8215810546875,0.0,0.0,0.0,0.0,0.0,0.0,0.128,0.0,0.0,0.0,0.0,0.0,-1.61,0.8278688978895451,0.0,0.0,0.0,0.0,0.0,0.0,0.32,0.0,0.0,0.0
395,0.0,0.0,0.0,0.8215810546875,0.0,0.0,0.0,0.0,0.0,0.0,0.128,0.0,0.0,0.0,0.0,0.0,-1.61,0.8285913153479701,0.0,0.0,0.0,0.0,0.0,0.0,0.32,0.0,0.0,0.0
396,0.0,0.0,0.0,0.8215810546875,0.0,0.0,0.0,0.0,0.0,0.0,0.128,0.0,0.0,0.0,0.0,0.0,-1.61,0.830067591540912,0.0,0.0,0.0,0.0,0.0,0.0,0.32,0.0,0.0,0.0
397,0.0,0.0,0.0,0.82403515625,0.0,0.0,0.0,0.0,0.0,0.0,0.126,0.0,0.0,0.0,0.0,0.0,-1.61,0.8315190253372822,0.0,0.0,0.0,0.0,0.0,0.0,-0.432,0.0,0.0,0.0
398,0.0,0.0,0.0,0.82403515625,0.0,0.0,0.0,0.0,0.0,0.0,0.126,0.0,0.0,0.0,0.0,0.0,-1.61,0.8321836052373585,0.0,0.0,0.0,0.0,0.0,0.0,-0.432,0.0,0.0,0.0
399,0.0,0.0,0.0,0.82403515625,0.0,0.0,0.0,0.0,0.0,0.0,0.126,0.0,0.0,0.0,0.0,0.0,-1.61,0.8333571715134708,0.0,0.0,0.0,0.0,0.0,0.0,-0.432,0.0,0.0,0.0
400,0.0,0.0,0.0,0.8280869140625,0.0,0.0,0.0,0.0,0.0,0.0,0.106,0.0,0.0,0.0,0.0,0.0,-1.61,0.8346379020383565,0.0,0.0,0.0,0.0,0.0,0.0,0.18,0.0,0.0,0.0
401,0.0,0.0,0.0,0.8280869140625,0.0,0.0,0.0,0.0,0.0,0.0,0.106,0.0,0.0,0.0,0.0,0.0,-1.61,0.8355540509357344,0.0,0.0,0.0,0.0,0.0,0.0,0.18,0.0,0.0,0.0
402,0.0,0.0,0.0,0.8280869140625,0.0,0.0,0.0,0.0,0.0,0.0,0.106,0.0,0.0,0.0,0.0,0.0,-1.61,0.8366043803021346,0.0,0.0,0.0,0.0,0.0,0.0,0.18,0.0,0.0,0.0
403,0.0,0.0,0.0,0.8280869140625,0.0,0.0,0.0,0.0,0.0,0.0,0.106,0.0,0.0,0.0,0.0,0.0,-1.61,0.8381470174606923,0.0,0.0,0.0,0.0,0.0,0.0,0.18,0.0,0.0,0.0
404,0.0,0.0,0.0,0.8280869140625,0.0,0.0,0.0,0.0,0.0,0.0,0.106,0.0,0.0,0.0,0.0,0.0,-1.61,0.8388860595051367,0.0,0.0,0.0,0.0,0.0,0.0,0.18,0.0,0.0,0.0
405,0.0,0.0,0.0,0.8361904296875,0.0,0.0,0.0,0.0,0.0,0.0,0.094,0.0,0.0,0.0,0.0,0.0,-1.61,0.8398410918446301,0.0,0.0,0.0,0.0,0.0,0.0,-0.388,0.0,0.0,0.0
406,0.0,0.0,0.0,0.8372099609375,0.0,0.0,0.0,0.0,0.0,0.0,0.087,0.0,0.0,0.0,0.0,0.0,-1.61,0.8409212245927796,0.0,0.0,0.0,0.0,0.0,0.0,-0.136,0.0,0.0,0.0
407,0.0,0.0,0.0,0.8372099609375,0.0,0.0,0.0,0.0,0.0,0.0,0.087,0.0,0.0,0.0,0.0,0.0,-1.61,0.8415451544277034,0.0,0.0,0.0,0.0,0.0,0.0,-0.136,0.0,0.0,0.0
408,0.0,0.0,0.0,0.838076171875,0.0,0.0,0.0,0.0,0.0,0.0,0.094,0.0,0.0,0.0,0.0,0.0,-1.61,0.8423627895306197,0.0,0.0,0.0,0.0,0.0,0.0,-0.16,0.0,0.0,0.0
409,0.0,0.0,0.0,0.8399619140625,0.0,0.0,0.0,0.0,0.0,0.0,0.09,0.0,0.0,0.0,0.0,0.0,-1.61,0.8441896091014227,0.0,0.0,0.0,0.0,0.0,0.0,-0.432,0.0,0.0,0.0
410,0.0,0.0,0.0,0.84184765625,0.0,0.0,0.0,0.0,0.0,0.0,0.098,0.0,0.0,0.0,0.0,0.0,-1.61,0.8453067378397402,0.0,0.0,0.0,0.0,0.0,0.0,-0.592,0.0,0.0,0.0
411,0.0,0.0,0.0,0.8425693359375,0.0,0.0,0.0,0.0,0.0,0.0,0.082,0.0,0.0,0.0,0.0,0.0,-1.61,0.8463500648551461,0.0,0.0,0.0,0.0,0.0,0.0,-0.844,0.0,0.0,0.0
412,0.0,0.0,0.0,0.843580078125,0.0,0.0,0.0,0.0,0.0,0.0,0.083,0.0,0.0,0.0,0.0,0.0,-1.61,0.8472988179318983,0.0,0.0,0.0,0.0,0.0,0.0,-0.296,0.0,0.0,0.0
413,0.0,0.0,0.0,0.8445908203125,0.0,0.0,0.0,0.0,0.0,0.0,0.098,0.0,0.0,0.0,0.0,0.0,-1.61,0.8480851861174348,0.0,0.0,0.0,0.0,0.0,0.0,-0.136,0.0,0.0,0.0
414,0.0,0.0,0.0,0.8454658203125,0.0,0.0,0.0,0.0,0.0,0.0,0.089,0.0,0.0,0.0,0.0,0.0,-1.61,0.8490524137904516,0.0,0.0,0.0,0.0,0.0,0.0,0.18,0.0,0.0,0.0
415,0.0,0.0,0.0,0.84633203125,0.0,0.0,0.0,0.0,0.0,0.0,0.093,0.0,0.0,0.0,0.0,0.0,-1.61,0.8500661377048154,0.0,0.0,0.0,0.0,0.0,0.0,-0.112,0.0,0.0,0.0
416,0.0,0.0,0.0,0.8473427734375,0.0,0.0,0.0,0.0,0.0,0.0,0.094,0.0,0.0,0.0,0.0,0.0,-1.61,0.8507085288758468,0.0,0.0,0.0,0.0,0.0,0.0,-0.364,0.0,0.0,0.0
417,0.0,0.0,0.0,0.8473427734375,0.0,0.0,0.0,0.0,0.0,0.0,0.094,0.0,0.0,0.0,0.0,0.0,-1.61,0.8514800380644899,0.0,0.0,0.0,0.0,0.0,0.0,-0.364,0.0,0.0,0.0
418,0.0,0.0,0.0,0.849228515625,0.0,0.0,0.0,0.0,0.0,0.0,0.096,0.0,0.0,0.0,0.0,0.0,-1.61,0.8527659278479989,0.0,0.0,0.0,0.0,0.0,0.0,-0.364,0.0,0.0,0.0
419,0.0,0.0,0.0,0.849228515625,0.0,0.0,0.0,0.0,0.0,0.0,0.096,0.0,0.0,0.0,0.0,0.0,-1.61,0.8531746155890212,0.0,0.0,0.0,0.0,0.0,0.0,-0.364,0.0,0.0,0.0
420,0.0,0.0,0.0,0.8500947265625,0.0,0.0,0.0,0.0,0.0,0.0,0.099,0.0,0.0,0.0,0.0,0.0,-1.61,0.8537627800054203,0.0,0.0,0.0,0.0,0.0,0.0,-0.228,0.0,0.0,0.0
421,0.0,0.0,0.0,0.8509619140625,0.0,0.0,0.0,0.0,0.0,0.0,0.087,0.0,0.0,0.0,0.0,0.0,-1.61,0.8546713808193501,0.0,0.0,0.0,0.0,0.0,0.0,-0.204,0.0,0.0,0.0
422,0.0,0.0,0.0,0.8524052734375,0.0,0.0,0.0,0.0,0.0,0.0,0.078,0.0,0.0,0.0,0.0,0.0,-1.61,0.8555778616902546,0.0,0.0,0.0,0.0,0.0,0.0,-0.044,0.0,0.0,0.0
423,0.0,0.0,0.0,0.8524052734375,0.0,0.0,0.0,0.0,0.0,0.0,0.078,0.0,0.0,0.0,0.0,0.0,-1.61,0.8561433705777984,0.0,0.0,0.0,0.0,0.0,0.0,-0.044,0.0,0.0,0.0
424,0.0,0.0,0.0,0.8531357421875,0.0,0.0,0.0,0.0,0.0,0.0,0.069,0.0,0.0,0.0,0.0,0.0,-1.61,0.8568922185676883,0.0,0.0,0.0,0.0,0.0,0.0,0.02,0.0,0.0,0.0
425,0.0,0.0,0.0,0.8537138671875,0.0,0.0,0.0,0.0,0.0,0.0,0.063,0.0,0.0,0.0,0.0,0.0,-1.61,0.8577817536376476,0.0,0.0,0.0,0.0,0.0,0.0,0.228,0.0,0.0,0.0
426,0.0,0.0,0.0,0.854435546875,0.0,0.0,0.0,0.0,0.0,0.0,0.067,0.0,0.0,0.0,0.0,0.0,-1.61,0.8586796261891321,0.0,0.0,0.0,0.0,0.0,0.0,0.0,0.0,0.0,0.0
427,0.0,0.0,0.0,0.8560234375,0.0,0.0,0.0,0.0,0.0,0.0,0.082,0.0,0.0,0.0,0.0,0.0,-1.61,0.8595573253734521,0.0,0.0,0.0,0.0,0.0,0.0,0.82,0.0,0.0,0.0
428,0.0,0.0,0.0,0.8560234375,0.0,0.0,0.0,0.0,0.0,0.0,0.082,0.0,0.0,0.0,0.0,0.0,-1.61,0.8600655615187985,0.0,0.0,0.0,0.0,0.0,0.0,0.82,0.0,0.0,0.0
429,0.0,0.0,0.0,0.8567451171875,0.0,0.0,0.0,0.0,0.0,0.0,0.08,0.0,0.0,0.0,0.0,0.0,-1.61,0.860984085368591,0.0,0.0,0.0,0.0,0.0,0.0,1.028,0.0,0.0,0.0
430,0.0,0.0,0.0,0.85762109375,0.0,0.0,0.0,0.0,0.0,0.0,0.08,0.0,0.0,0.0,0.0,0.0,-1.61,0.8615760681018519,0.0,0.0,0.0,0.0,0.0,0.0,0.548,0.0,0.0,0.0
431,0.0,0.0,0.0,0.8581982421875,0.0,0.0,0.0,0.0,0.0,0.0,0.081,0.0,0.0,0.0,0.0,0.0,-1.61,0.862327281205577,0.0,0.0,0.0,0.0,0.0,0.0,0.408,0.0,0.0,0.0
432,0.0,0.0,0.0,0.858919921875,0.0,0.0,0.0,0.0,0.0,0.0,0.064,0.0,0.0,0.0,0.0,0.0,-1.61,0.8630815328548516,0.0,0.0,0.0,0.0,0.0,0.0,0.34,0.0,0.0,0.0
433,0.0,0.0,0.0,0.8602197265625,0.0,0.0,0.0,0.0,0.0,0.0,0.072,0.0,0.0,0.0,0.0,0.0,-1.61,0.864104381293228,0.0,0.0,0.0,0.0,0.0,0.0,0.844,0.0,0.0,0.0
434,0.0,0.0,0.0,0.8602197265625,0.0,0.0,0.0,0.0,0.0,0.0,0.072,0.0,0.0,0.0,0.0,0.0,-1.61,0.8646274179572953,0.0,0.0,0.0,0.0,0.0,0.0,0.844,0.0,0.0,0.0
435,0.0,0.0,0.0,0.8609501953125,0.0,0.0,0.0,0.0,0.0,0.0,0.066,0.0,0.0,0.0,0.0,0.0,-1.61,0.8652981223310053,0.0,0.0,0.0,0.0,0.0,0.0,0.728,0.0,0.0,0.0
436,0.0,0.0,0.0,0.861392578125,0.0,0.0,0.0,0.0,0.0,0.0,0.06,0.0,0.0,0.0,0.0,0.0,-1.61,0.8661962569328896,0.0,0.0,0.0,0.0,0.0,0.0,0.708,0.0,0.0,0.0
437,0.0,0.0,0.0,0.8622587890625,0.0,0.0,0.0,0.0,0.0,0.0,0.06,0.0,0.0,0.0,0.0,0.0,-1.61,0.8667374577204103,0.0,0.0,0.0,0.0,0.0,0.0,1.188,0.0,0.0,0.0
438,0.0,0.0,0.0,0.8628359375,0.0,0.0,0.0,0.0,0.0,0.0,0.077,0.0,0.0,0.0,0.0,0.0,-1.61,0.8674117392251587,0.0,0.0,0.0,0.0,0.0,0.0,0.98,0.0,0.0,0.0
439,0.0,0.0,0.0,0.86355859375,0.0,0.0,0.0,0.0,0.0,0.0,0.063,0.0,0.0,0.0,0.0,0.0,-1.61,0.8682589364422045,0.0,0.0,0.0,0.0,0.0,0.0,0.912,0.0,0.0,0.0
440,0.0,0.0,0.0,0.8644248046875,0.0,0.0,0.0,0.0,0.0,0.0,0.075,0.0,0.0,0.0,0.0,0.0,-1.61,0.8689256156449263,0.0,0.0,0.0,0.0,0.0,0.0,0.66,0.0,0.0,0.0
441,0.0,0.0,0.0,0.865146484375,0.0,0.0,0.0,0.0,0.0,0.0,0.086,0.0,0.0,0.0,0.0,0.0,-1.61,0.8695014521740895,0.0,0.0,0.0,0.0,0.0,0.0,0.364,0.0,0.0,0.0
442,0.0,0.0,0.0,0.865876953125,0.0,0.0,0.0,0.0,0.0,0.0,0.072,0.0,0.0,0.0,0.0,0.0,-1.61,0.8703114261975374,0.0,0.0,0.0,0.0,0.0,0.0,0.432,0.0,0.0,0.0
443,0.0,0.0,0.0,0.8665986328125,0.0,0.0,0.0,0.0,0.0,0.0,0.075,0.0,0.0,0.0,0.0,0.0,-1.61,0.8708221171401093,0.0,0.0,0.0,0.0,0.0,0.0,0.248,0.0,0.0,0.0
444,0.0,0.0,0.0,0.86775390625,0.0,0.0,0.0,0.0,0.0,0.0,0.057,0.0,0.0,0.0,0.0,0.0,-1.61,0.872294102526906,0.0,0.0,0.0,0.0,0.0,0.0,0.64,0.0,0.0,0.0
445,0.0,0.0,0.0,0.8697841796875,0.0,0.0,0.0,0.0,0.0,0.0,0.058,0.0,0.0,0.0,0.0,0.0,-1.61,0.87382965797004,0.0,0.0,0.0,0.0,0.0,0.0,0.228,0.0,0.0,0.0
446,0.0,0.0,0.0,0.870505859375,0.0,0.0,0.0,0.0,0.0,0.0,0.068,0.0,0.0,0.0,0.0,0.0,-1.61,0.8744706837614281,0.0,0.0,0.0,0.0,0.0,0.0,0.296,0.0,0.0,0.0
447,0.0,0.0,0.0,0.871083984375,0.0,0.0,0.0,0.0,0.0,0.0,0.066,0.0,0.0,0.0,0.0,0.0,-1.61,0.8751895092693152,0.0,0.0,0.0,0.0,0.0,0.0,0.068,0.0,0.0,0.0
448,0.0,0.0,0.0,0.8718056640625,0.0,0.0,0.0,0.0,0.0,0.0,0.053,0.0,0.0,0.0,0.0,0.0,-1.61,0.8758843311600543,0.0,0.0,0.0,0.0,0.0,0.0,0.592,0.0,0.0,0.0
449,0.0,0.0,0.0,0.8731044921875,0.0,0.0,0.0,0.0,0.0,0.0,0.072,0.0,0.0,0.0,0.0,0.0,-1.61,0.8767888082129335,0.0,0.0,0.0,0.0,0.0,0.0,0.456,0.0,0.0,0.0
450,0.0,0.0,0.0,0.8731044921875,0.0,0.0,0.0,0.0,0.0,0.0,0.072,0.0,0.0,0.0,0.0,0.0,-1.61,0.8771297980984405,0.0,0.0,0.0,0.0,0.0,0.0,0.456,0.0,0.0,0.0
451,0.0,0.0,0.0,0.8738271484375,0.0,0.0,0.0,0.0,0.0,0.0,0.06,0.0,0.0,0.0,0.0,0.0,-1.61,0.8776755263893832,0.0,0.0,0.0,0.0,0.0,0.0,0.18,0.0,0.0,0.0
452,0.0,0.0,0.0,0.8744130859375,0.0,0.0,0.0,0.0,0.0,0.0,0.065,0.0,0.0,0.0,0.0,0.0,-1.61,0.878051463294969,0.0,0.0,0.0,0.0,0.0,0.0,0.272,0.0,0.0,0.0
453,0.0,0.0,0.0,0.875134765625,0.0,0.0,0.0,0.0,0.0,0.0,0.061,0.0,0.0,0.0,0.0,0.0,-1.61,0.8787191820040993,0.0,0.0,0.0,0.0,0.0,0.0,0.5,0.0,0.0,0.0
454,0.0,0.0,0.0,0.875857421875,0.0,0.0,0.0,0.0,0.0,0.0,0.069,0.0,0.0,0.0,0.0,0.0,-1.61,0.8791886387250748,0.0,0.0,0.0,0.0,0.0,0.0,0.5,0.0,0.0,0.0
455,0.0,0.0,0.0,0.8764345703125,0.0,0.0,0.0,0.0,0.0,0.0,0.068,0.0,0.0,0.0,0.0,0.0,-1.61,0.8797490073100958,0.0,0.0,0.0,0.0,0.0,0.0,0.456,0.0,0.0,0.0
456,0.0,0.0,0.0,0.87715625,0.0,0.0,0.0,0.0,0.0,0.0,0.067,0.0,0.0,0.0,0.0,0.0,-1.61,0.8804460534252608,0.0,0.0,0.0,0.0,0.0,0.0,0.112,0.0,0.0,0.0
457,0.0,0.0,0.0,0.877734375,0.0,0.0,0.0,0.0,0.0,0.0,0.059,0.0,0.0,0.0,0.0,0.0,-1.61,0.8808382631406216,0.0,0.0,0.0,0.0,0.0,0.0,-0.088,0.0,0.0,0.0
458,0.0,0.0,0.0,0.8781669921875,0.0,0.0,0.0,0.0,0.0,0.0,0.055,0.0,0.0,0.0,0.0,0.0,-1.61,0.8813797180346893,0.0,0.0,0.0,0.0,0.0,0.0,-0.204,0.0,0.0,0.0
459,0.0,0.0,0.0,0.87875390625,0.0,0.0,0.0,0.0,0.0,0.0,0.05,0.0,0.0,0.0,0.0,0.0,-1.61,0.8819026979949429,0.0,0.0,0.0,0.0,0.0,0.0,0.204,0.0,0.0,0.0
460,0.0,0.0,0.0,0.8793310546875,0.0,0.0,0.0,0.0,0.0,0.0,0.058,0.0,0.0,0.0,0.0,0.0,-1.61,0.8824222325504757,0.0,0.0,0.0,0.0,0.0,0.0,0.408,0.0,0.0,0.0
461,0.0,0.0,0.0,0.879908203125,0.0,0.0,0.0,0.0,0.0,0.0,0.059,0.0,0.0,0.0,0.0,0.0,-1.61,0.8829398694743972,0.0,0.0,0.0,0.0,0.0,0.0,0.364,0.0,0.0,0.0
462,0.0,0.0,0.0,0.880486328125,0.0,0.0,0.0,0.0,0.0,0.0,0.053,0.0,0.0,0.0,0.0,0.0,-1.61,0.8834404212954535,0.0,0.0,0.0,0.0,0.0,0.0,0.248,0.0,0.0,0.0
463,0.0,0.0,0.0,0.8809189453125,0.0,0.0,0.0,0.0,0.0,0.0,0.056,0.0,0.0,0.0,0.0,0.0,-1.61,0.8839476631332199,0.0,0.0,0.0,0.0,0.0,0.0,-0.02,0.0,0.0,0.0
464,0.0,0.0,0.0,0.8813525390625,0.0,0.0,0.0,0.0,0.0,0.0,0.046,0.0,0.0,0.0,0.0,0.0,-1.61,0.8844281253350845,0.0,0.0,0.0,0.0,0.0,0.0,-0.068,0.0,0.0,0.0
465,0.0,0.0,0.0,0.8819384765625,0.0,0.0,0.0,0.0,0.0,0.0,0.046,0.0,0.0,0.0,0.0,0.0,-1.61,0.8849132168686877,0.0,0.0,0.0,0.0,0.0,0.0,-0.068,0.0,0.0,0.0
466,0.0,0.0,0.0,0.8823720703125,0.0,0.0,0.0,0.0,0.0,0.0,0.046,0.0,0.0,0.0,0.0,0.0,-1.61,0.8855532012709689,0.0,0.0,0.0,0.0,0.0,0.0,0.044,0.0,0.0,0.0
467,0.0,0.0,0.0,0.882814453125,0.0,0.0,0.0,0.0,0.0,0.0,0.046,0.0,0.0,0.0,0.0,0.0,-1.61,0.8858519892020357,0.0,0.0,0.0,0.0,0.0,0.0,0.136,0.0,0.0,0.0
468,0.0,0.0,0.0,0.8832470703125,0.0,0.0,0.0,0.0,0.0,0.0,0.049,0.0,0.0,0.0,0.0,0.0,-1.61,0.8863142858639036,0.0,0.0,0.0,0.0,0.0,0.0,0.204,0.0,0.0,0.0
469,0.0,0.0,0.0,0.8836806640625,0.0,0.0,0.0,0.0,0.0,0.0,0.041,0.0,0.0,0.0,0.0,0.0,-1.61,0.886766853636093,0.0,0.0,0.0,0.0,0.0,0.0,0.34,0.0,0.0,0.0
470,0.0,0.0,0.0,0.8842578125,0.0,0.0,0.0,0.0,0.0,0.0,0.045,0.0,0.0,0.0,0.0,0.0,-1.61,0.8872134139528512,0.0,0.0,0.0,0.0,0.0,0.0,0.48,0.0,0.0,0.0
471,0.0,0.0,0.0,0.88469140625,0.0,0.0,0.0,0.0,0.0,0.0,0.051,0.0,0.0,0.0,0.0,0.0,-1.61,0.8876496754369237,0.0,0.0,0.0,0.0,0.0,0.0,0.524,0.0,0.0,0.0
472,0.0,0.0,0.0,0.8852685546875,0.0,0.0,0.0,0.0,0.0,0.0,0.053,0.0,0.0,0.0,0.0,0.0,-1.61,0.8880774307467052,0.0,0.0,0.0,0.0,0.0,0.0,0.408,0.0,0.0,0.0
473,0.0,0.0,0.0,0.885845703125,0.0,0.0,0.0,0.0,0.0,0.0,0.053,0.0,0.0,0.0,0.0,0.0,-1.61,0.8885020577298168,0.0,0.0,0.0,0.0,0.0,0.0,-0.02,0.0,0.0,0.0
474,0.0,0.0,0.0,0.886279296875,0.0,0.0,0.0,0.0,0.0,0.0,0.051,0.0,0.0,0.0,0.0,0.0,-1.61,0.8889152029028292,0.0,0.0,0.0,0.0,0.0,0.0,-0.112,0.0,0.0,0.0
475,0.0,0.0,0.0,0.8867119140625,0.0,0.0,0.0,0.0,0.0,0.0,0.05,0.0,0.0,0.0,0.0,0.0,-1.61,0.8893242687697945,0.0,0.0,0.0,0.0,0.0,0.0,0.068,0.0,0.0,0.0
476,0.0,0.0,0.0,0.887298828125,0.0,0.0,0.0,0.0,0.0,0.0,0.047,0.0,0.0,0.0,0.0,0.0,-1.61,0.8897292556510152,0.0,0.0,0.0,0.0,0.0,0.0,0.18,0.0,0.0,0.0
477,0.0,0.0,0.0,0.887587890625,0.0,0.0,0.0,0.0,0.0,0.0,0.045,0.0,0.0,0.0,0.0,0.0,-1.61,0.8901147679995148,0.0,0.0,0.0,0.0,0.0,0.0,0.136,0.0,0.0,0.0
478,0.0,0.0,0.0,0.8878759765625,0.0,0.0,0.0,0.0,0.0,0.0,0.035,0.0,0.0,0.0,0.0,0.0,-1.61,0.8905035653842032,0.0,0.0,0.0,0.0,0.0,0.0,-0.248,0.0,0.0,0.0
479,0.0,0.0,0.0,0.8880205078125,0.0,0.0,0.0,0.0,0.0,0.0,0.018,0.0,0.0,0.0,0.0,0.0,-1.61,0.8908819980295264,0.0,0.0,0.0,0.0,0.0,0.0,-0.364,0.0,0.0,0.0
480,0.0,0.0,0.0,0.8884541015625,0.0,0.0,0.0,0.0,0.0,0.0,0.027,0.0,0.0,0.0,0.0,0.0,-1.61,0.8912898501141825,0.0,0.0,0.0,0.0,0.0,0.0,0.088,0.0,0.0,0.0
481,0.0,0.0,0.0,0.88888671875,0.0,0.0,0.0,0.0,0.0,0.0,0.042,0.0,0.0,0.0,0.0,0.0,-1.61,0.8916356154855133,0.0,0.0,0.0,0.0,0.0,0.0,0.408,0.0,0.0,0.0
482,0.0,0.0,0.0,0.8893203125,0.0,0.0,0.0,0.0,0.0,0.0,0.039,0.0,0.0,0.0,0.0,0.0,-1.61,0.8919677245993095,0.0,0.0,0.0,0.0,0.0,0.0,0.524,0.0,0.0,0.0
483,0.0,0.0,0.0,0.8897529296875,0.0,0.0,0.0,0.0,0.0,0.0,0.047,0.0,0.0,0.0,0.0,0.0,-1.61,0.8923098758953341,0.0,0.0,0.0,0.0,0.0,0.0,0.204,0.0,0.0,0.0
484,0.0,0.0,0.0,0.8900419921875,0.0,0.0,0.0,0.0,0.0,0.0,0.043,0.0,0.0,0.0,0.0,0.0,-1.61,0.8926476157465996,0.0,0.0,0.0,0.0,0.0,0.0,-0.088,0.0,0.0,0.0
485,0.0,0.0,0.0,0.890474609375,0.0,0.0,0.0,0.0,0.0,0.0,0.032,0.0,0.0,0.0,0.0,0.0,-1.61,0.8929824236048057,0.0,0.0,0.0,0.0,0.0,0.0,-0.296,0.0,0.0,0.0
486,0.0,0.0,0.0,0.890763671875,0.0,0.0,0.0,0.0,0.0,0.0,0.035,0.0,0.0,0.0,0.0,0.0,-1.61,0.8933134909995607,0.0,0.0,0.0,0.0,0.0,0.0,-0.408,0.0,0.0,0.0
487,0.0,0.0,0.0,0.8912060546875,0.0,0.0,0.0,0.0,0.0,0.0,0.042,0.0,0.0,0.0,0.0,0.0,-1.61,0.8937011534976543,0.0,0.0,0.0,0.0,0.0,0.0,-0.16,0.0,0.0,0.0
488,0.0,0.0,0.0,0.8914951171875,0.0,0.0,0.0,0.0,0.0,0.0,0.038,0.0,0.0,0.0,0.0,0.0,-1.61,0.8939282995513538,0.0,0.0,0.0,0.0,0.0,0.0,-0.32,0.0,0.0,0.0
489,0.0,0.0,0.0,0.891638671875,0.0,0.0,0.0,0.0,0.0,0.0,0.024,0.0,0.0,0.0,0.0,0.0,-1.61,0.8942276732349084,0.0,0.0,0.0,0.0,0.0,0.0,-0.432,0.0,0.0,0.0
490,0.0,0.0,0.0,0.891927734375,0.0,0.0,0.0,0.0,0.0,0.0,0.018,0.0,0.0,0.0,0.0,0.0,-1.61,0.894522276163634,0.0,0.0,0.0,0.0,0.0,0.0,0.044,0.0,0.0,0.0
491,0.0,0.0,0.0,0.892216796875,0.0,0.0,0.0,0.0,0.0,0.0,0.028,0.0,0.0,0.0,0.0,0.0,-1.61,0.8948238580226063,0.0,0.0,0.0,0.0,0.0,0.0,0.136,0.0,0.0,0.0
492,0.0,0.0,0.0,0.892361328125,0.0,0.0,0.0,0.0,0.0,0.0,0.018,0.0,0.0,0.0,0.0,0.0,-1.61,0.8950851719546633,0.0,0.0,0.0,0.0,0.0,0.0,0.136,0.0,0.0,0.0
493,0.0,0.0,0.0,0.8927939453125,0.0,0.0,0.0,0.0,0.0,0.0,0.027,0.0,0.0,0.0,0.0,0.0,-1.61,0.8953586461880237,0.0,0.0,0.0,0.0,0.0,0.0,0.068,0.0,0.0,0.0
494,0.0,0.0,0.0,0.8930830078125,0.0,0.0,0.0,0.0,0.0,0.0,0.042,0.0,0.0,0.0,0.0,0.0,-1.61,0.895619499886503,0.0,0.0,0.0,0.0,0.0,0.0,-0.364,0.0,0.0,0.0
495,0.0,0.0,0.0,0.89337109375,0.0,0.0,0.0,0.0,0.0,0.0,0.027,0.0,0.0,0.0,0.0,0.0,-1.61,0.8958744570028443,0.0,0.0,0.0,0.0,0.0,0.0,-0.068,0.0,0.0,0.0
496,0.0,0.0,0.0,0.8938046875,0.0,0.0,0.0,0.0,0.0,0.0,0.036,0.0,0.0,0.0,0.0,0.0,-1.61,0.8961331621688903,0.0,0.0,0.0,0.0,0.0,0.0,-0.02,0.0,0.0,0.0
497,0.0,0.0,0.0,0.89409375,0.0,0.0,0.0,0.0,0.0,0.0,0.039,0.0,0.0,0.0,0.0,0.0,-1.61,0.8963620853767104,0.0,0.0,0.0,0.0,0.0,0.0,-0.136,0.0,0.0,0.0
498,0.0,0.0,0.0,0.8942373046875,0.0,0.0,0.0,0.0,0.0,0.0,0.019,0.0,0.0,0.0,0.0,0.0,-1.61,0.8965959438118125,0.0,0.0,0.0,0.0,0.0,0.0,-0.02,0.0,0.0,0.0
499,0.0,0.0,0.0,0.8945263671875,0.0,0.0,0.0,0.0,0.0,0.0,0.027,0.0,0.0,0.0,0.0,0.0,-1.61,0.8968213644519616,0.0,0.0,0.0,0.0,0.0,0.0,-0.48,0.0,0.0,0.0
500,0.0,0.0,0.0,0.8946708984375,0.0,0.0,0.0,0.0,0.0,0.0,0.019,0.0,0.0,0.0,0.0,0.0,-1.61,0.897053383465357,0.0,0.0,0.0,0.0,0.0,0.0,-0.364,0.0,0.0,0.0
501,0.0,0.0,0.0,0.8948154296875,0.0,0.0,0.0,0.0,0.0,0.0,0.017,0.0,0.0,0.0,0.0,0.0,-1.61,0.8972453781614906,0.0,0.0,0.0,0.0,0.0,0.0,-0.34,0.0,0.0,0.0
502,0.0,0.0,0.0,0.8951044921875,0.0,0.0,0.0,0.0,0.0,0.0,0.017,0.0,0.0,0.0,0.0,0.0,-1.61,0.8974461469258396,0.0,0.0,0.0,0.0,0.0,0.0,-0.068,0.0,0.0,0.0
503,0.0,0.0,0.0,0.895248046875,0.0,0.0,0.0,0.0,0.0,0.0,0.018,0.0,0.0,0.0,0.0,0.0,-1.61,0.8976422349690638,0.0,0.0,0.0,0.0,0.0,0.0,0.044,0.0,0.0,0.0
504,0.0,0.0,0.0,0.8955458984375,0.0,0.0,0.0,0.0,0.0,0.0,0.02,0.0,0.0,0.0,0.0,0.0,-1.61,0.8978238992672526,0.0,0.0,0.0,0.0,0.0,0.0,0.0,0.0,0.0,0.0
505,0.0,0.0,0.0,0.8956904296875,0.0,0.0,0.0,0.0,0.0,0.0,0.027,0.0,0.0,0.0,0.0,0.0,-1.61,0.8980086588975588,0.0,0.0,0.0,0.0,0.0,0.0,-0.272,0.0,0.0,0.0
506,0.0,0.0,0.0,0.8958349609375,0.0,0.0,0.0,0.0,0.0,0.0,0.02,0.0,0.0,0.0,0.0,0.0,-1.61,0.8982298375695935,0.0,0.0,0.0,0.0,0.0,0.0,-0.456,0.0,0.0,0.0
507,0.0,0.0,0.0,0.8961240234375,0.0,0.0,0.0,0.0,0.0,0.0,0.018,0.0,0.0,0.0,0.0,0.0,-1.61,0.8983573331356599,0.0,0.0,0.0,0.0,0.0,0.0,-0.364,0.0,0.0,0.0
508,0.0,0.0,0.0,0.896267578125,0.0,0.0,0.0,0.0,0.0,0.0,0.023,0.0,0.0,0.0,0.0,0.0,-1.61,0.8984940104459874,0.0,0.0,0.0,0.0,0.0,0.0,-0.548,0.0,0.0,0.0
509,0.0,0.0,0.0,0.896412109375,0.0,0.0,0.0,0.0,0.0,0.0,0.008,0.0,0.0,0.0,0.0,0.0,-1.61,0.8986427286441386,0.0,0.0,0.0,0.0,0.0,0.0,-0.5,0.0,0.0,0.0
510,0.0,0.0,0.0,0.896556640625,0.0,0.0,0.0,0.0,0.0,0.0,0.013,0.0,0.0,0.0,0.0,0.0,-1.61,0.8987841588072337,0.0,0.0,0.0,0.0,0.0,0.0,-0.364,0.0,0.0,0.0
511,0.0,0.0,0.0,0.896556640625,0.0,0.0,0.0,0.0,0.0,0.0,0.01,0.0,0.0,0.0,0.0,0.0,-1.61,0.8989157778518566,0.0,0.0,0.0,0.0,0.0,0.0,-0.02,0.0,0.0,0.0
512,0.0,0.0,0.0,0.896701171875,0.0,0.0,0.0,0.0,0.0,0.0,0.008,0.0,0.0,0.0,0.0,0.0,-1.61,0.8990406294569168,0.0,0.0,0.0,0.0,0.0,0.0,0.088,0.0,0.0,0.0
513,0.0,0.0,0.0,0.896990234375,0.0,0.0,0.0,0.0,0.0,0.0,0.017,0.0,0.0,0.0,0.0,0.0,-1.61,0.8991591199067933,0.0,0.0,0.0,0.0,0.0,0.0,-0.044,0.0,0.0,0.0
514,0.0,0.0,0.0,0.896990234375,0.0,0.0,0.0,0.0,0.0,0.0,0.015,0.0,0.0,0.0,0.0,0.0,-1.61,0.8992678377121199,0.0,0.0,0.0,0.0,0.0,0.0,-0.112,0.0,0.0,0.0
515,0.0,0.0,0.0,0.8972783203125,0.0,0.0,0.0,0.0,0.0,0.0,0.017,0.0,0.0,0.0,0.0,0.0,-1.61,0.8993705211898236,0.0,0.0,0.0,0.0,0.0,0.0,-0.296,0.0,0.0,0.0
516,0.0,0.0,0.0,0.8974228515625,0.0,0.0,0.0,0.0,0.0,0.0,0.023,0.0,0.0,0.0,0.0,0.0,-1.61,0.8994646537869057,0.0,0.0,0.0,0.0,0.0,0.0,-0.408,0.0,0.0,0.0
517,0.0,0.0,0.0,0.8975673828125,0.0,0.0,0.0,0.0,0.0,0.0,0.014,0.0,0.0,0.0,0.0,0.0,-1.61,0.8995512697474338,0.0,0.0,0.0,0.0,0.0,0.0,-0.5,0.0,0.0,0.0
518,0.0,0.0,0.0,0.8975673828125,0.0,0.0,0.0,0.0,0.0,0.0,0.004,0.0,0.0,0.0,0.0,0.0,-1.61,0.8996314434011038,0.0,0.0,0.0,0.0,0.0,0.0,-0.616,0.0,0.0,0.0
519,0.0,0.0,0.0,0.8977119140625,0.0,0.0,0.0,0.0,0.0,0.0,0.006,0.0,0.0,0.0,0.0,0.0,-1.61,0.8997016776268243,0.0,0.0,0.0,0.0,0.0,0.0,-0.296,0.0,0.0,0.0
520,0.0,0.0,0.0,0.8978564453125,0.0,0.0,0.0,0.0,0.0,0.0,0.011,0.0,0.0,0.0,0.0,0.0,-1.61,0.8997657901304674,0.0,0.0,0.0,0.0,0.0,0.0,-0.02,0.0,0.0,0.0
521,0.0,0.0,0.0,0.8978564453125,0.0,0.0,0.0,0.0,0.0,0.0,0.01,0.0,0.0,0.0,0.0,0.0,-1.61,0.8998256489326664,0.0,0.0,0.0,0.0,0.0,0.0,0.02,0.0,0.0,0.0
522,0.0,0.0,0.0,0.8980009765625,0.0,0.0,0.0,0.0,0.0,0.0,-0.001,0.0,0.0,0.0,0.0,0.0,-1.61,0.8998702032125019,0.0,0.0,0.0,0.0,0.0,0.0,-0.068,0.0,0.0,0.0
523,0.0,0.0,0.0,0.8980009765625,0.0,0.0,0.0,0.0,0.0,0.0,0.01,0.0,0.0,0.0,0.0,0.0,-1.61,0.8999108763998444,0.0,0.0,0.0,0.0,0.0,0.0,-0.364,0.0,0.0,0.0
524,0.0,0.0,0.0,0.89814453125,0.0,0.0,0.0,0.0,0.0,0.0,0.009,0.0,0.0,0.0,0.0,0.0,-1.61,0.8999439771830489,0.0,0.0,0.0,0.0,0.0,0.0,-0.456,0.0,0.0,0.0
525,0.0,0.0,0.0,0.8982890625,0.0,0.0,0.0,0.0,0.0,0.0,0.01,0.0,0.0,0.0,0.0,0.0,-1.61,0.8999694395303758,0.0,0.0,0.0,0.0,0.0,0.0,-0.432,0.0,0.0,0.0
526,0.0,0.0,0.0,0.89843359375,0.0,0.0,0.0,0.0,0.0,0.0,0.014,0.0,0.0,0.0,0.0,0.0,-1.61,0.8999873521854256,0.0,0.0,0.0,0.0,0.0,0.0,-0.34,0.0,0.0,0.0
527,0.0,0.0,0.0,0.89843359375,0.0,0.0,0.0,0.0,0.0,0.0,0.01,0.0,0.0,0.0,0.0,0.0,-1.61,0.8999981921385034,0.0,0.0,0.0,0.0,0.0,0.0,-0.228,0.0,0.0,0.0
528,0.0,0.0,0.0,0.89843359375,0.0,0.0,0.0,0.0,0.0,0.0,-0.001,0.0,0.0,0.0,0.0,0.0,-1.61,0.8999998647413825,0.0,0.0,0.0,0.0,0.0,0.0,-0.296,0.0,0.0,0.0
529,0.0,0.0,0.0,0.89843359375,0.0,0.0,0.0,0.0,0.0,0.0,-0.001,0.0,0.0,0.0,0.0,0.0,-1.61,0.8999945089651297,0.0,0.0,0.0,0.0,0.0,0.0,-0.456,0.0,0.0,0.0
530,0.0,0.0,0.0,0.89843359375,0.0,0.0,0.0,0.0,0.0,0.0,-0.001,0.0,0.0,0.0,0.0,0.0,-1.61,0.8999817783910424,0.0,0.0,0.0,0.0,0.0,0.0,-0.408,0.0,0.0,0.0
531,0.0,0.0,0.0,0.89843359375,0.0,0.0,0.0,0.0,0.0,0.0,-0.001,0.0,0.0,0.0,0.0,0.0,-1.61,0.8999590501780198,0.0,0.0,0.0,0.0,0.0,0.0,-0.364,0.0,0.0,0.0
532,0.0,0.0,0.0,0.89843359375,0.0,0.0,0.0,0.0,0.0,0.0,-0.001,0.0,0.0,0.0,0.0,0.0,-1.61,0.8999330478835182,0.0,0.0,0.0,0.0,0.0,0.0,-0.296,0.0,0.0,0.0
533,0.0,0.0,0.0,0.89843359375,0.0,0.0,0.0,0.0,0.0,0.0,-0.001,0.0,0.0,0.0,0.0,0.0,-1.61,0.8998929474083834,0.0,0.0,0.0,0.0,0.0,0.0,-0.408,0.0,0.0,0.0
534,0.0,0.0,0.0,0.89843359375,0.0,0.0,0.0,0.0,0.0,0.0,-0.001,0.0,0.0,0.0,0.0,0.0,-1.61,0.8998531959525011,0.0,0.0,0.0,0.0,0.0,0.0,-0.34,0.0,0.0,0.0
535,0.0,0.0,0.0,0.89843359375,0.0,0.0,0.0,0.0,0.0,0.0,-0.001,0.0,0.0,0.0,0.0,0.0,-1.61,0.8997937033183672,0.0,0.0,0.0,0.0,0.0,0.0,-0.248,0.0,0.0,0.0
536,0.0,0.0,0.0,0.89843359375,0.0,0.0,0.0,0.0,0.0,0.0,-0.001,0.0,0.0,0.0,0.0,0.0,-1.61,0.8997433954971489,0.0,0.0,0.0,0.0,0.0,0.0,-0.34,0.0,0.0,0.0
537,0.0,0.0,0.0,0.89843359375,0.0,0.0,0.0,0.0,0.0,0.0,-0.001,0.0,0.0,0.0,0.0,0.0,-1.61,0.8996769475975855,0.0,0.0,0.0,0.0,0.0,0.0,-0.34,0.0,0.0,0.0
538,0.0,0.0,0.0,0.89843359375,0.0,0.0,0.0,0.0,0.0,0.0,-0.001,0.0,0.0,0.0,0.0,0.0,-1.61,0.8996029444658685,0.0,0.0,0.0,0.0,0.0,0.0,-0.248,0.0,0.0,0.0
539,0.0,0.0,0.0,0.89843359375,0.0,0.0,0.0,0.0,0.0,0.0,-0.001,0.0,0.0,0.0,0.0,0.0,-1.61,0.8995211627080036,0.0,0.0,0.0,0.0,0.0,0.0,-0.32,0.0,0.0,0.0
540,0.0,0.0,0.0,0.89843359375,0.0,0.0,0.0,0.0,0.0,0.0,-0.001,0.0,0.0,0.0,0.0,0.0,-1.61,0.8994305839801591,0.0,0.0,0.0,0.0,0.0,0.0,-0.248,0.0,0.0,0.0
541,0.0,0.0,0.0,0.89843359375,0.0,0.0,0.0,0.0,0.0,0.0,-0.001,0.0,0.0,0.0,0.0,0.0,-1.61,0.8993344295553011,0.0,0.0,0.0,0.0,0.0,0.0,-0.272,0.0,0.0,0.0
542,0.0,0.0,0.0,0.89843359375,0.0,0.0,0.0,0.0,0.0,0.0,-0.001,0.0,0.0,0.0,0.0,0.0,-1.61,0.8992293454448604,0.0,0.0,0.0,0.0,0.0,0.0,-0.34,0.0,0.0,0.0
543,0.0,0.0,0.0,0.89843359375,0.0,0.0,0.0,0.0,0.0,0.0,-0.001,0.0,0.0,0.0,0.0,0.0,-1.61,0.8991167323138086,0.0,0.0,0.0,0.0,0.0,0.0,-0.296,0.0,0.0,0.0
544,0.0,0.0,0.0,0.89843359375,0.0,0.0,0.0,0.0,0.0,0.0,-0.001,0.0,0.0,0.0,0.0,0.0,-1.61,0.8989976466851416,0.0,0.0,0.0,0.0,0.0,0.0,-0.136,0.0,0.0,0.0
545,0.0,0.0,0.0,0.89843359375,0.0,0.0,0.0,0.0,0.0,0.0,-0.001,0.0,0.0,0.0,0.0,0.0,-1.61,0.8988694059431055,0.0,0.0,0.0,0.0,0.0,0.0,-0.248,0.0,0.0,0.0
546,0.0,0.0,0.0,0.89843359375,0.0,0.0,0.0,0.0,0.0,0.0,-0.001,0.0,0.0,0.0,0.0,0.0,-1.61,0.8987289186832819,0.0,0.0,0.0,0.0,0.0,0.0,-0.272,0.0,0.0,0.0
547,0.0,0.0,0.0,0.89843359375,0.0,0.0,0.0,0.0,0.0,0.0,-0.001,0.0,0.0,0.0,0.0,0.0,-1.61,0.8985750952278909,0.0,0.0,0.0,0.0,0.0,0.0,-0.364,0.0,0.0,0.0
548,0.0,0.0,0.0,0.89843359375,0.0,0.0,0.0,0.0,0.0,0.0,-0.001,0.0,0.0,0.0,0.0,0.0,-1.61,0.8984396211299914,0.0,0.0,0.0,0.0,0.0,0.0,-0.272,0.0,0.0,0.0
549,0.0,0.0,0.0,0.89843359375,0.0,0.0,0.0,0.0,0.0,0.0,-0.001,0.0,0.0,0.0,0.0,0.0,-1.61,0.898281295306005,0.0,0.0,0.0,0.0,0.0,0.0,-0.34,0.0,0.0,0.0
550,0.0,0.0,0.0,0.89843359375,0.0,0.0,0.0,0.0,0.0,0.0,-0.001,0.0,0.0,0.0,0.0,0.0,-1.61,0.8981151255941946,0.0,0.0,0.0,0.0,0.0,0.0,-0.456,0.0,0.0,0.0
551,0.0,0.0,0.0,0.89843359375,0.0,0.0,0.0,0.0,0.0,0.0,-0.001,0.0,0.0,0.0,0.0,0.0,-1.61,0.8979408362354029,0.0,0.0,0.0,0.0,0.0,0.0,-0.272,0.0,0.0,0.0
552,0.0,0.0,0.0,0.89843359375,0.0,0.0,0.0,0.0,0.0,0.0,-0.001,0.0,0.0,0.0,0.0,0.0,-1.61,0.8977610715376046,0.0,0.0,0.0,0.0,0.0,0.0,-0.296,0.0,0.0,0.0
553,0.0,0.0,0.0,0.89843359375,0.0,0.0,0.0,0.0,0.0,0.0,-0.001,0.0,0.0,0.0,0.0,0.0,-1.61,0.8975713493802459,0.0,0.0,0.0,0.0,0.0,0.0,-0.34,0.0,0.0,0.0
554,0.0,0.0,0.0,0.89843359375,0.0,0.0,0.0,0.0,0.0,0.0,-0.001,0.0,0.0,0.0,0.0,0.0,-1.61,0.8973751613329278,0.0,0.0,0.0,0.0,0.0,0.0,-0.228,0.0,0.0,0.0
555,0.0,0.0,0.0,0.89843359375,0.0,0.0,0.0,0.0,0.0,0.0,-0.001,0.0,0.0,0.0,0.0,0.0,-1.61,0.8971702242608086,0.0,0.0,0.0,0.0,0.0,0.0,-0.272,0.0,0.0,0.0
556,0.0,0.0,0.0,0.89843359375,0.0,0.0,0.0,0.0,0.0,0.0,-0.001,0.0,0.0,0.0,0.0,0.0,-1.61,0.896953840180884,0.0,0.0,0.0,0.0,0.0,0.0,-0.34,0.0,0.0,0.0
557,0.0,0.0,0.0,0.89843359375,0.0,0.0,0.0,0.0,0.0,0.0,-0.001,0.0,0.0,0.0,0.0,0.0,-1.61,0.8967385341599141,0.0,0.0,0.0,0.0,0.0,0.0,-0.34,0.0,0.0,0.0
558,0.0,0.0,0.0,0.89843359375,0.0,0.0,0.0,0.0,0.0,0.0,-0.001,0.0,0.0,0.0,0.0,0.0,-1.61,0.8965116170602281,0.0,0.0,0.0,0.0,0.0,0.0,-0.296,0.0,0.0,0.0
559,0.0,0.0,0.0,0.89843359375,0.0,0.0,0.0,0.0,0.0,0.0,-0.001,0.0,0.0,0.0,0.0,0.0,-1.61,0.8962753374100811,0.0,0.0,0.0,0.0,0.0,0.0,-0.432,0.0,0.0,0.0
560,0.0,0.0,0.0,0.89843359375,0.0,0.0,0.0,0.0,0.0,0.0,-0.001,0.0,0.0,0.0,0.0,0.0,-1.61,0.8960317318586771,0.0,0.0,0.0,0.0,0.0,0.0,-0.272,0.0,0.0,0.0
561,0.0,0.0,0.0,0.89843359375,0.0,0.0,0.0,0.0,0.0,0.0,-0.001,0.0,0.0,0.0,0.0,0.0,-1.61,0.8957833954650323,0.0,0.0,0.0,0.0,0.0,0.0,-0.296,0.0,0.0,0.0
562,0.0,0.0,0.0,0.89843359375,0.0,0.0,0.0,0.0,0.0,0.0,-0.001,0.0,0.0,0.0,0.0,0.0,-1.61,0.8955252956591582,0.0,0.0,0.0,0.0,0.0,0.0,-0.296,0.0,0.0,0.0
563,0.0,0.0,0.0,0.89843359375,0.0,0.0,0.0,0.0,0.0,0.0,-0.001,0.0,0.0,0.0,0.0,0.0,-1.61,0.8952418152149424,0.0,0.0,0.0,0.0,0.0,0.0,-0.272,0.0,0.0,0.0
564,0.0,0.0,0.0,0.89843359375,0.0,0.0,0.0,0.0,0.0,0.0,-0.001,0.0,0.0,0.0,0.0,0.0,-1.61,0.8949900260701091,0.0,0.0,0.0,0.0,0.0,0.0,-0.388,0.0,0.0,0.0
565,0.0,0.0,0.0,0.89843359375,0.0,0.0,0.0,0.0,0.0,0.0,-0.001,0.0,0.0,0.0,0.0,0.0,-1.61,0.894707845321635,0.0,0.0,0.0,0.0,0.0,0.0,-0.388,0.0,0.0,0.0
566,0.0,0.0,0.0,0.8982890625,0.0,0.0,0.0,0.0,0.0,0.0,-0.008,0.0,0.0,0.0,0.0,0.0,-1.61,0.8944183961955441,0.0,0.0,0.0,0.0,0.0,0.0,-0.5,0.0,0.0,0.0
567,0.0,0.0,0.0,0.8982890625,0.0,0.0,0.0,0.0,0.0,0.0,-0.009,0.0,0.0,0.0,0.0,0.0,-1.61,0.8941198861052444,0.0,0.0,0.0,0.0,0.0,0.0,-0.5,0.0,0.0,0.0
568,0.0,0.0,0.0,0.89814453125,0.0,0.0,0.0,0.0,0.0,0.0,-0.011,0.0,0.0,0.0,0.0,0.0,-1.61,0.8938170418940351,0.0,0.0,0.0,0.0,0.0,0.0,-0.616,0.0,0.0,0.0
569,0.0,0.0,0.0,0.8978564453125,0.0,0.0,0.0,0.0,0.0,0.0,-0.022,0.0,0.0,0.0,0.0,0.0,-1.61,0.8934983950075241,0.0,0.0,0.0,0.0,0.0,0.0,-0.66,0.0,0.0,0.0
570,0.0,0.0,0.0,0.8975673828125,0.0,0.0,0.0,0.0,0.0,0.0,-0.029,0.0,0.0,0.0,0.0,0.0,-1.61,0.893164247062234,0.0,0.0,0.0,0.0,0.0,0.0,-0.728,0.0,0.0,0.0
571,0.0,0.0,0.0,0.897134765625,0.0,0.0,0.0,0.0,0.0,0.0,-0.029,0.0,0.0,0.0,0.0,0.0,-1.61,0.8928614661632022,0.0,0.0,0.0,0.0,0.0,0.0,-0.548,0.0,0.0,0.0
572,0.0,0.0,0.0,0.896845703125,0.0,0.0,0.0,0.0,0.0,0.0,-0.038,0.0,0.0,0.0,0.0,0.0,-1.61,0.8925276481447724,0.0,0.0,0.0,0.0,0.0,0.0,-0.5,0.0,0.0,0.0
573,0.0,0.0,0.0,0.896412109375,0.0,0.0,0.0,0.0,0.0,0.0,-0.038,0.0,0.0,0.0,0.0,0.0,-1.61,0.8921864406951687,0.0,0.0,0.0,0.0,0.0,0.0,-0.432,0.0,0.0,0.0
574,0.0,0.0,0.0,0.8959794921875,0.0,0.0,0.0,0.0,0.0,0.0,-0.043,0.0,0.0,0.0,0.0,0.0,-1.61,0.891836799926637,0.0,0.0,0.0,0.0,0.0,0.0,-0.5,0.0,0.0,0.0
575,0.0,0.0,0.0,0.8955458984375,0.0,0.0,0.0,0.0,0.0,0.0,-0.045,0.0,0.0,0.0,0.0,0.0,-1.61,0.8914824306158008,0.0,0.0,0.0,0.0,0.0,0.0,-0.204,0.0,0.0,0.0
576,0.0,0.0,0.0,0.895248046875,0.0,0.0,0.0,0.0,0.0,0.0,-0.04,0.0,0.0,0.0,0.0,0.0,-1.61,0.89111416140996,0.0,0.0,0.0,0.0,0.0,0.0,-0.16,0.0,0.0,0.0
577,0.0,0.0,0.0,0.8948154296875,0.0,0.0,0.0,0.0,0.0,0.0,-0.04,0.0,0.0,0.0,0.0,0.0,-1.61,0.8907403602892904,0.0,0.0,0.0,0.0,0.0,0.0,-0.088,0.0,0.0,0.0
578,0.0,0.0,0.0,0.8943818359375,0.0,0.0,0.0,0.0,0.0,0.0,-0.043,0.0,0.0,0.0,0.0,0.0,-1.61,0.8903648401404529,0.0,0.0,0.0,0.0,0.0,0.0,-0.48,0.0,0.0,0.0
579,0.0,0.0,0.0,0.89394921875,0.0,0.0,0.0,0.0,0.0,0.0,-0.045,0.0,0.0,0.0,0.0,0.0,-1.61,0.8899748511579088,0.0,0.0,0.0,0.0,0.0,0.0,-0.32,0.0,0.0,0.0
580,0.0,0.0,0.0,0.893515625,0.0,0.0,0.0,0.0,0.0,0.0,-0.041,0.0,0.0,0.0,0.0,0.0,-1.61,0.8895823199423429,0.0,0.0,0.0,0.0,0.0,0.0,-0.02,0.0,0.0,0.0
581,0.0,0.0,0.0,0.8930830078125,0.0,0.0,0.0,0.0,0.0,0.0,-0.045,0.0,0.0,0.0,0.0,0.0,-1.61,0.8891807078664157,0.0,0.0,0.0,0.0,0.0,0.0,-0.068,0.0,0.0,0.0
582,0.0,0.0,0.0,0.8926494140625,0.0,0.0,0.0,0.0,0.0,0.0,-0.045,0.0,0.0,0.0,0.0,0.0,-1.61,0.8887706397116377,0.0,0.0,0.0,0.0,0.0,0.0,-0.136,0.0,0.0,0.0
583,0.0,0.0,0.0,0.892072265625,0.0,0.0,0.0,0.0,0.0,0.0,-0.048,0.0,0.0,0.0,0.0,0.0,-1.61,0.8883527420013234,0.0,0.0,0.0,0.0,0.0,0.0,-0.272,0.0,0.0,0.0
584,0.0,0.0,0.0,0.891638671875,0.0,0.0,0.0,0.0,0.0,0.0,-0.053,0.0,0.0,0.0,0.0,0.0,-1.61,0.8879281599881365,0.0,0.0,0.0,0.0,0.0,0.0,-0.408,0.0,0.0,0.0
585,0.0,0.0,0.0,0.8912060546875,0.0,0.0,0.0,0.0,0.0,0.0,-0.048,0.0,0.0,0.0,0.0,0.0,-1.61,0.8874920134421536,0.0,0.0,0.0,0.0,0.0,0.0,0.0,0.0,0.0,0.0
586,0.0,0.0,0.0,0.890763671875,0.0,0.0,0.0,0.0,0.0,0.0,-0.038,0.0,0.0,0.0,0.0,0.0,-1.61,0.8870565761269557,0.0,0.0,0.0,0.0,0.0,0.0,0.16,0.0,0.0,0.0
587,0.0,0.0,0.0,0.890474609375,0.0,0.0,0.0,0.0,0.0,0.0,-0.038,0.0,0.0,0.0,0.0,0.0,-1.61,0.886609363222753,0.0,0.0,0.0,0.0,0.0,0.0,0.16,0.0,0.0,0.0
588,0.0,0.0,0.0,0.8901865234375,0.0,0.0,0.0,0.0,0.0,0.0,-0.035,0.0,0.0,0.0,0.0,0.0,-1.61,0.8861518989785864,0.0,0.0,0.0,0.0,0.0,0.0,-0.02,0.0,0.0,0.0
589,0.0,0.0,0.0,0.8897529296875,0.0,0.0,0.0,0.0,0.0,0.0,-0.035,0.0,0.0,0.0,0.0,0.0,-1.61,0.8856927406944987,0.0,0.0,0.0,0.0,0.0,0.0,-0.296,0.0,0.0,0.0
590,0.0,0.0,0.0,0.8893203125,0.0,0.0,0.0,0.0,0.0,0.0,-0.039,0.0,0.0,0.0,0.0,0.0,-1.61,0.8852194301157644,0.0,0.0,0.0,0.0,0.0,0.0,-0.204,0.0,0.0,0.0
591,0.0,0.0,0.0,0.88888671875,0.0,0.0,0.0,0.0,0.0,0.0,-0.039,0.0,0.0,0.0,0.0,0.0,-1.61,0.8847406411929993,0.0,0.0,0.0,0.0,0.0,0.0,-0.364,0.0,0.0,0.0
592,0.0,0.0,0.0,0.8884541015625,0.0,0.0,0.0,0.0,0.0,0.0,-0.044,0.0,0.0,0.0,0.0,0.0,-1.61,0.8842536570846418,0.0,0.0,0.0,0.0,0.0,0.0,-0.408,0.0,0.0,0.0
593,0.0,0.0,0.0,0.8880205078125,0.0,0.0,0.0,0.0,0.0,0.0,-0.046,0.0,0.0,0.0,0.0,0.0,-1.61,0.8837625150393511,0.0,0.0,0.0,0.0,0.0,0.0,-0.296,0.0,0.0,0.0
594,0.0,0.0,0.0,0.887443359375,0.0,0.0,0.0,0.0,0.0,0.0,-0.052,0.0,0.0,0.0,0.0,0.0,-1.61,0.8832631429357533,0.0,0.0,0.0,0.0,0.0,0.0,-0.204,0.0,0.0,0.0
595,0.0,0.0,0.0,0.886865234375,0.0,0.0,0.0,0.0,0.0,0.0,-0.057,0.0,0.0,0.0,0.0,0.0,-1.61,0.8827562920166812,0.0,0.0,0.0,0.0,0.0,0.0,-0.068,0.0,0.0,0.0
596,0.0,0.0,0.0,0.886279296875,0.0,0.0,0.0,0.0,0.0,0.0,-0.057,0.0,0.0,0.0,0.0,0.0,-1.61,0.8822389835524985,0.0,0.0,0.0,0.0,0.0,0.0,-0.088,0.0,0.0,0.0
597,0.0,0.0,0.0,0.885845703125,0.0,0.0,0.0,0.0,0.0,0.0,-0.056,0.0,0.0,0.0,0.0,0.0,-1.61,0.88171288869509,0.0,0.0,0.0,0.0,0.0,0.0,0.088,0.0,0.0,0.0
598,0.0,0.0,0.0,0.8854130859375,0.0,0.0,0.0,0.0,0.0,0.0,-0.049,0.0,0.0,0.0,0.0,0.0,-1.61,0.8811881892706179,0.0,0.0,0.0,0.0,0.0,0.0,-0.02,0.0,0.0,0.0
599,0.0,0.0,0.0,0.8848349609375,0.0,0.0,0.0,0.0,0.0,0.0,-0.048,0.0,0.0,0.0,0.0,0.0,-1.61,0.8806494705661713,0.0,0.0,0.0,0.0,0.0,0.0,0.02,0.0,0.0,0.0
600,0.0,0.0,0.0,0.88440234375,0.0,0.0,0.0,0.0,0.0,0.0,-0.045,0.0,0.0,0.0,0.0,0.0,-1.61,0.8801034530809387,0.0,0.0,0.0,0.0,0.0,0.0,-0.136,0.0,0.0,0.0
601,0.0,0.0,0.0,0.8838251953125,0.0,0.0,0.0,0.0,0.0,0.0,-0.053,0.0,0.0,0.0,0.0,0.0,-1.61,0.8795470973425101,0.0,0.0,0.0,0.0,0.0,0.0,-0.228,0.0,0.0,0.0
602,0.0,0.0,0.0,0.8833916015625,0.0,0.0,0.0,0.0,0.0,0.0,-0.056,0.0,0.0,0.0,0.0,0.0,-1.61,0.8789885679661013,0.0,0.0,0.0,0.0,0.0,0.0,0.02,0.0,0.0,0.0
603,0.0,0.0,0.0,0.882814453125,0.0,0.0,0.0,0.0,0.0,0.0,-0.053,0.0,0.0,0.0,0.0,0.0,-1.61,0.8784220868389766,0.0,0.0,0.0,0.0,0.0,0.0,0.112,0.0,0.0,0.0
604,0.0,0.0,0.0,0.8822275390625,0.0,0.0,0.0,0.0,0.0,0.0,-0.055,0.0,0.0,0.0,0.0,0.0,-1.61,0.8778401116803911,0.0,0.0,0.0,0.0,0.0,0.0,0.204,0.0,0.0,0.0
605,0.0,0.0,0.0,0.881650390625,0.0,0.0,0.0,0.0,0.0,0.0,-0.055,0.0,0.0,0.0,0.0,0.0,-1.61,0.8772642842566563,0.0,0.0,0.0,0.0,0.0,0.0,0.18,0.0,0.0,0.0
606,0.0,0.0,0.0,0.8810634765625,0.0,0.0,0.0,0.0,0.0,0.0,-0.059,0.0,0.0,0.0,0.0,0.0,-1.61,0.8766148764701285,0.0,0.0,0.0,0.0,0.0,0.0,0.272,0.0,0.0,0.0
607,0.0,0.0,0.0,0.880486328125,0.0,0.0,0.0,0.0,0.0,0.0,-0.059,0.0,0.0,0.0,0.0,0.0,-1.61,0.8760783011527548,0.0,0.0,0.0,0.0,0.0,0.0,0.136,0.0,0.0,0.0
608,0.0,0.0,0.0,0.879908203125,0.0,0.0,0.0,0.0,0.0,0.0,-0.062,0.0,0.0,0.0,0.0,0.0,-1.61,0.8753617043359398,0.0,0.0,0.0,0.0,0.0,0.0,-0.02,0.0,0.0,0.0
609,0.0,0.0,0.0,0.879908203125,0.0,0.0,0.0,0.0,0.0,0.0,-0.062,0.0,0.0,0.0,0.0,0.0,-1.61,0.8748522931389149,0.0,0.0,0.0,0.0,0.0,0.0,-0.02,0.0,0.0,0.0
610,0.0,0.0,0.0,0.878609375,0.0,0.0,0.0,0.0,0.0,0.0,-0.067,0.0,0.0,0.0,0.0,0.0,-1.61,0.8742376428339101,0.0,0.0,0.0,0.0,0.0,0.0,0.088,0.0,0.0,0.0
611,0.0,0.0,0.0,0.8778779296875,0.0,0.0,0.0,0.0,0.0,0.0,-0.066,0.0,0.0,0.0,0.0,0.0,-1.61,0.8736097492570979,0.0,0.0,0.0,0.0,0.0,0.0,0.34,0.0,0.0,0.0
612,0.0,0.0,0.0,0.87730078125,0.0,0.0,0.0,0.0,0.0,0.0,-0.063,0.0,0.0,0.0,0.0,0.0,-1.61,0.8729759328502469,0.0,0.0,0.0,0.0,0.0,0.0,0.5,0.0,0.0,0.0
613,0.0,0.0,0.0,0.8767236328125,0.0,0.0,0.0,0.0,0.0,0.0,-0.056,0.0,0.0,0.0,0.0,0.0,-1.61,0.8723330933437375,0.0,0.0,0.0,0.0,0.0,0.0,0.524,0.0,0.0,0.0
614,0.0,0.0,0.0,0.8761455078125,0.0,0.0,0.0,0.0,0.0,0.0,-0.06,0.0,0.0,0.0,0.0,0.0,-1.61,0.8716834092009969,0.0,0.0,0.0,0.0,0.0,0.0,0.0,0.0,0.0,0.0
615,0.0,0.0,0.0,0.875568359375,0.0,0.0,0.0,0.0,0.0,0.0,-0.066,0.0,0.0,0.0,0.0,0.0,-1.61,0.8710275523957557,0.0,0.0,0.0,0.0,0.0,0.0,-0.044,0.0,0.0,0.0
616,0.0,0.0,0.0,0.8749912109375,0.0,0.0,0.0,0.0,0.0,0.0,-0.061,0.0,0.0,0.0,0.0,0.0,-1.61,0.8703498209642175,0.0,0.0,0.0,0.0,0.0,0.0,-0.044,0.0,0.0,0.0
617,0.0,0.0,0.0,0.8744130859375,0.0,0.0,0.0,0.0,0.0,0.0,-0.06,0.0,0.0,0.0,0.0,0.0,-1.61,0.8696867612270839,0.0,0.0,0.0,0.0,0.0,0.0,0.068,0.0,0.0,0.0
618,0.0,0.0,0.0,0.8736826171875,0.0,0.0,0.0,0.0,0.0,0.0,-0.064,0.0,0.0,0.0,0.0,0.0,-1.61,0.8690011155880848,0.0,0.0,0.0,0.0,0.0,0.0,-0.02,0.0,0.0,0.0
619,0.0,0.0,0.0,0.8731044921875,0.0,0.0,0.0,0.0,0.0,0.0,-0.068,0.0,0.0,0.0,0.0,0.0,-1.61,0.8683190563999252,0.0,0.0,0.0,0.0,0.0,0.0,0.136,0.0,0.0,0.0
620,0.0,0.0,0.0,0.8723828125,0.0,0.0,0.0,0.0,0.0,0.0,-0.068,0.0,0.0,0.0,0.0,0.0,-1.61,0.8676235005125805,0.0,0.0,0.0,0.0,0.0,0.0,0.204,0.0,0.0,0.0
621,0.0,0.0,0.0,0.8716611328125,0.0,0.0,0.0,0.0,0.0,0.0,-0.068,0.0,0.0,0.0,0.0,0.0,-1.61,0.8669251242083105,0.0,0.0,0.0,0.0,0.0,0.0,0.32,0.0,0.0,0.0
622,0.0,0.0,0.0,0.871083984375,0.0,0.0,0.0,0.0,0.0,0.0,-0.068,0.0,0.0,0.0,0.0,0.0,-1.61,0.8662150004624765,0.0,0.0,0.0,0.0,0.0,0.0,0.228,0.0,0.0,0.0
623,0.0,0.0,0.0,0.870361328125,0.0,0.0,0.0,0.0,0.0,0.0,-0.064,0.0,0.0,0.0,0.0,0.0,-1.61,0.8654945431340776,0.0,0.0,0.0,0.0,0.0,0.0,0.02,0.0,0.0,0.0
624,0.0,0.0,0.0,0.8697841796875,0.0,0.0,0.0,0.0,0.0,0.0,-0.064,0.0,0.0,0.0,0.0,0.0,-1.61,0.864774928528926,0.0,0.0,0.0,0.0,0.0,0.0,-0.18,0.0,0.0,0.0
625,0.0,0.0,0.0,0.8690537109375,0.0,0.0,0.0,0.0,0.0,0.0,-0.072,0.0,0.0,0.0,0.0,0.0,-1.61,0.8640394322300123,0.0,0.0,0.0,0.0,0.0,0.0,-0.02,0.0,0.0,0.0
626,0.0,0.0,0.0,0.8683310546875,0.0,0.0,0.0,0.0,0.0,0.0,-0.069,0.0,0.0,0.0,0.0,0.0,-1.61,0.8632756895982792,0.0,0.0,0.0,0.0,0.0,0.0,0.0,0.0,0.0,0.0
627,0.0,0.0,0.0,0.86746484375,0.0,0.0,0.0,0.0,0.0,0.0,-0.073,0.0,0.0,0.0,0.0,0.0,-1.61,0.8625439359704188,0.0,0.0,0.0,0.0,0.0,0.0,-0.088,0.0,0.0,0.0
628,0.0,0.0,0.0,0.8667431640625,0.0,0.0,0.0,0.0,0.0,0.0,-0.087,0.0,0.0,0.0,0.0,0.0,-1.61,0.8618039814256152,0.0,0.0,0.0,0.0,0.0,0.0,0.136,0.0,0.0,0.0
629,0.0,0.0,0.0,0.865876953125,0.0,0.0,0.0,0.0,0.0,0.0,-0.082,0.0,0.0,0.0,0.0,0.0,-1.61,0.8610411284174295,0.0,0.0,0.0,0.0,0.0,0.0,0.18,0.0,0.0,0.0
630,0.0,0.0,0.0,0.865001953125,0.0,0.0,0.0,0.0,0.0,0.0,-0.085,0.0,0.0,0.0,0.0,0.0,-1.61,0.8602734405726578,0.0,0.0,0.0,0.0,0.0,0.0,0.432,0.0,0.0,0.0
631,0.0,0.0,0.0,0.8642802734375,0.0,0.0,0.0,0.0,0.0,0.0,-0.079,0.0,0.0,0.0,0.0,0.0,-1.61,0.8595005323603597,0.0,0.0,0.0,0.0,0.0,0.0,0.48,0.0,0.0,0.0
632,0.0,0.0,0.0,0.8634140625,0.0,0.0,0.0,0.0,0.0,0.0,-0.081,0.0,0.0,0.0,0.0,0.0,-1.61,0.8587182507274933,0.0,0.0,0.0,0.0,0.0,0.0,0.388,0.0,0.0,0.0
633,0.0,0.0,0.0,0.8625478515625,0.0,0.0,0.0,0.0,0.0,0.0,-0.087,0.0,0.0,0.0,0.0,0.0,-1.61,0.857922209924531,0.0,0.0,0.0,0.0,0.0,0.0,0.228,0.0,0.0,0.0
634,0.0,0.0,0.0,0.861681640625,0.0,0.0,0.0,0.0,0.0,0.0,-0.089,0.0,0.0,0.0,0.0,0.0,-1.61,0.8571315665873752,0.0,0.0,0.0,0.0,0.0,0.0,0.456,0.0,0.0,0.0
635,0.0,0.0,0.0,0.8608056640625,0.0,0.0,0.0,0.0,0.0,0.0,-0.088,0.0,0.0,0.0,0.0,0.0,-1.61,0.8563218737801324,0.0,0.0,0.0,0.0,0.0,0.0,0.524,0.0,0.0,0.0
636,0.0,0.0,0.0,0.8599306640625,0.0,0.0,0.0,0.0,0.0,0.0,-0.087,0.0,0.0,0.0,0.0,0.0,-1.61,0.8554917451573821,0.0,0.0,0.0,0.0,0.0,0.0,0.524,0.0,0.0,0.0
637,0.0,0.0,0.0,0.859064453125,0.0,0.0,0.0,0.0,0.0,0.0,-0.088,0.0,0.0,0.0,0.0,0.0,-1.61,0.854694329629882,0.0,0.0,0.0,0.0,0.0,0.0,0.524,0.0,0.0,0.0
638,0.0,0.0,0.0,0.8581982421875,0.0,0.0,0.0,0.0,0.0,0.0,-0.086,0.0,0.0,0.0,0.0,0.0,-1.61,0.8538551640707841,0.0,0.0,0.0,0.0,0.0,0.0,0.548,0.0,0.0,0.0
639,0.0,0.0,0.0,0.8574765625,0.0,0.0,0.0,0.0,0.0,0.0,-0.087,0.0,0.0,0.0,0.0,0.0,-1.61,0.8530352012826261,0.0,0.0,0.0,0.0,0.0,0.0,0.5,0.0,0.0,0.0
640,0.0,0.0,0.0,0.8566015625,0.0,0.0,0.0,0.0,0.0,0.0,-0.086,0.0,0.0,0.0,0.0,0.0,-1.61,0.8521920011116901,0.0,0.0,0.0,0.0,0.0,0.0,0.524,0.0,0.0,0.0
641,0.0,0.0,0.0,0.855734375,0.0,0.0,0.0,0.0,0.0,0.0,-0.084,0.0,0.0,0.0,0.0,0.0,-1.61,0.8513426224741741,0.0,0.0,0.0,0.0,0.0,0.0,0.432,0.0,0.0,0.0
642,0.0,0.0,0.0,0.8550126953125,0.0,0.0,0.0,0.0,0.0,0.0,-0.077,0.0,0.0,0.0,0.0,0.0,-1.61,0.8504863022407966,0.0,0.0,0.0,0.0,0.0,0.0,0.408,0.0,0.0,0.0
643,0.0,0.0,0.0,0.854291015625,0.0,0.0,0.0,0.0,0.0,0.0,-0.076,0.0,0.0,0.0,0.0,0.0,-1.61,0.849618841512861,0.0,0.0,0.0,0.0,0.0,0.0,0.18,0.0,0.0,0.0
644,0.0,0.0,0.0,0.8534248046875,0.0,0.0,0.0,0.0,0.0,0.0,-0.086,0.0,0.0,0.0,0.0,0.0,-1.61,0.8487622315167844,0.0,0.0,0.0,0.0,0.0,0.0,0.136,0.0,0.0,0.0
645,0.0,0.0,0.0,0.8526943359375,0.0,0.0,0.0,0.0,0.0,0.0,-0.08,0.0,0.0,0.0,0.0,0.0,-1.61,0.8478622370408821,0.0,0.0,0.0,0.0,0.0,0.0,0.32,0.0,0.0,0.0
646,0.0,0.0,0.0,0.851828125,0.0,0.0,0.0,0.0,0.0,0.0,-0.075,0.0,0.0,0.0,0.0,0.0,-1.61,0.8469280761959819,0.0,0.0,0.0,0.0,0.0,0.0,0.228,0.0,0.0,0.0
647,0.0,0.0,0.0,0.85110546875,0.0,0.0,0.0,0.0,0.0,0.0,-0.078,0.0,0.0,0.0,0.0,0.0,-1.61,0.8460997159498493,0.0,0.0,0.0,0.0,0.0,0.0,0.34,0.0,0.0,0.0
648,0.0,0.0,0.0,0.8503837890625,0.0,0.0,0.0,0.0,0.0,0.0,-0.073,0.0,0.0,0.0,0.0,0.0,-1.61,0.8451997399633198,0.0,0.0,0.0,0.0,0.0,0.0,-0.068,0.0,0.0,0.0
649,0.0,0.0,0.0,0.849517578125,0.0,0.0,0.0,0.0,0.0,0.0,-0.078,0.0,0.0,0.0,0.0,0.0,-1.61,0.8442901840502742,0.0,0.0,0.0,0.0,0.0,0.0,-0.248,0.0,0.0,0.0
650,0.0,0.0,0.0,0.8489404296875,0.0,0.0,0.0,0.0,0.0,0.0,-0.081,0.0,0.0,0.0,0.0,0.0,-1.61,0.8433863036609041,0.0,0.0,0.0,0.0,0.0,0.0,-0.272,0.0,0.0,0.0
651,0.0,0.0,0.0,0.848064453125,0.0,0.0,0.0,0.0,0.0,0.0,-0.074,0.0,0.0,0.0,0.0,0.0,-1.61,0.8424538615420958,0.0,0.0,0.0,0.0,0.0,0.0,-0.34,0.0,0.0,0.0
652,0.0,0.0,0.0,0.8473427734375,0.0,0.0,0.0,0.0,0.0,0.0,-0.075,0.0,0.0,0.0,0.0,0.0,-1.61,0.8415193643329351,0.0,0.0,0.0,0.0,0.0,0.0,0.0,0.0,0.0,0.0
653,0.0,0.0,0.0,0.84662109375,0.0,0.0,0.0,0.0,0.0,0.0,-0.073,0.0,0.0,0.0,0.0,0.0,-1.61,0.8404924358153144,0.0,0.0,0.0,0.0,0.0,0.0,-0.5,0.0,0.0,0.0
654,0.0,0.0,0.0,0.8458994140625,0.0,0.0,0.0,0.0,0.0,0.0,-0.078,0.0,0.0,0.0,0.0,0.0,-1.61,0.8396594755090722,0.0,0.0,0.0,0.0,0.0,0.0,-0.364,0.0,0.0,0.0
655,0.0,0.0,0.0,0.845033203125,0.0,0.0,0.0,0.0,0.0,0.0,-0.082,0.0,0.0,0.0,0.0,0.0,-1.61,0.8386852245301689,0.0,0.0,0.0,0.0,0.0,0.0,-0.888,0.0,0.0,0.0
656,0.0,0.0,0.0,0.844158203125,0.0,0.0,0.0,0.0,0.0,0.0,-0.09,0.0,0.0,0.0,0.0,0.0,-1.61,0.8373278165664066,0.0,0.0,0.0,0.0,0.0,0.0,-0.684,0.0,0.0,0.0
657,0.0,0.0,0.0,0.8431474609375,0.0,0.0,0.0,0.0,0.0,0.0,-0.088,0.0,0.0,0.0,0.0,0.0,-1.61,0.8365417147765861,0.0,0.0,0.0,0.0,0.0,0.0,-0.708,0.0,0.0,0.0
658,0.0,0.0,0.0,0.84228125,0.0,0.0,0.0,0.0,0.0,0.0,-0.095,0.0,0.0,0.0,0.0,0.0,-1.61,0.8358211466128032,0.0,0.0,0.0,0.0,0.0,0.0,-0.32,0.0,0.0,0.0
659,0.0,0.0,0.0,0.8414150390625,0.0,0.0,0.0,0.0,0.0,0.0,-0.092,0.0,0.0,0.0,0.0,0.0,-1.61,0.8348353859288494,0.0,0.0,0.0,0.0,0.0,0.0,-0.524,0.0,0.0,0.0
660,0.0,0.0,0.0,0.8414150390625,0.0,0.0,0.0,0.0,0.0,0.0,-0.092,0.0,0.0,0.0,0.0,0.0,-1.61,0.8338124390470081,0.0,0.0,0.0,0.0,0.0,0.0,-0.524,0.0,0.0,0.0
661,0.0,0.0,0.0,0.8392314453125,0.0,0.0,0.0,0.0,0.0,0.0,-0.106,0.0,0.0,0.0,0.0,0.0,-1.61,0.8328426858926764,0.0,0.0,0.0,0.0,0.0,0.0,-0.568,0.0,0.0,0.0
662,0.0,0.0,0.0,0.838365234375,0.0,0.0,0.0,0.0,0.0,0.0,-0.096,0.0,0.0,0.0,0.0,0.0,-1.61,0.8315637435270194,0.0,0.0,0.0,0.0,0.0,0.0,-0.112,0.0,0.0,0.0
663,0.0,0.0,0.0,0.837498046875,0.0,0.0,0.0,0.0,0.0,0.0,-0.088,0.0,0.0,0.0,0.0,0.0,-1.61,0.8307811546931783,0.0,0.0,0.0,0.0,0.0,0.0,-0.068,0.0,0.0,0.0
664,0.0,0.0,0.0,0.8366318359375,0.0,0.0,0.0,0.0,0.0,0.0,-0.091,0.0,0.0,0.0,0.0,0.0,-1.61,0.8298386953313045,0.0,0.0,0.0,0.0,0.0,0.0,-0.18,0.0,0.0,0.0
665,0.0,0.0,0.0,0.8357568359375,0.0,0.0,0.0,0.0,0.0,0.0,-0.089,0.0,0.0,0.0,0.0,0.0,-1.61,0.8288138575163595,0.0,0.0,0.0,0.0,0.0,0.0,-0.524,0.0,0.0,0.0
666,0.0,0.0,0.0,0.8346015625,0.0,0.0,0.0,0.0,0.0,0.0,-0.104,0.0,0.0,0.0,0.0,0.0,-1.61,0.8276940461320024,0.0,0.0,0.0,0.0,0.0,0.0,-0.66,0.0,0.0,0.0
667,0.0,0.0,0.0,0.833447265625,0.0,0.0,0.0,0.0,0.0,0.0,-0.116,0.0,0.0,0.0,0.0,0.0,-1.61,0.8267614331547591,0.0,0.0,0.0,0.0,0.0,0.0,-0.684,0.0,0.0,0.0
668,0.0,0.0,0.0,0.832138671875,0.0,0.0,0.0,0.0,0.0,0.0,-0.122,0.0,0.0,0.0,0.0,0.0,-1.61,0.8250628982155851,0.0,0.0,0.0,0.0,0.0,0.0,-0.248,0.0,0.0,0.0
669,0.0,0.0,0.0,0.828384765625,0.0,0.0,0.0,0.0,0.0,0.0,-0.131,0.0,0.0,0.0,0.0,0.0,-1.61,0.8225931380425099,0.0,0.0,0.0,0.0,0.0,0.0,-0.02,0.0,0.0,0.0
670,0.0,0.0,0.0,0.828384765625,0.0,0.0,0.0,0.0,0.0,0.0,-0.131,0.0,0.0,0.0,0.0,0.0,-1.61,0.821889826890608,0.0,0.0,0.0,0.0,0.0,0.0,-0.02,0.0,0.0,0.0
671,0.0,0.0,0.0,0.827076171875,0.0,0.0,0.0,0.0,0.0,0.0,-0.125,0.0,0.0,0.0,0.0,0.0,-1.61,0.8214845067504942,0.0,0.0,0.0,0.0,0.0,0.0,0.408,0.0,0.0,0.0
672,0.0,0.0,0.0,0.827076171875,0.0,0.0,0.0,0.0,0.0,0.0,-0.125,0.0,0.0,0.0,0.0,0.0,-1.61,0.8209277295808854,0.0,0.0,0.0,0.0,0.0,0.0,0.408,0.0,0.0,0.0
673,0.0,0.0,0.0,0.8262099609375,0.0,0.0,0.0,0.0,0.0,0.0,-0.116,0.0,0.0,0.0,0.0,0.0,-1.61,0.8199244078837676,0.0,0.0,0.0,0.0,0.0,0.0,1.004,0.0,0.0,0.0
