EmanuelSamir/lab201_ws_projsamir/sawyer_dev/data/sawyer/vel_sin_motion_incrf/test_joint4/training_data_05.csv
,j1,j2,j3,j4,j5,j6,j7,v1,v2,v3,v4,v5,v6,v7,jd1,jd2,jd3,jd4,jd5,jd6,jd7,e1,e2,e3,e4,e5,e6,e7
0,0.0,0.0,0.0,0.0,0.0,0.0,0.0,0.0,0.0,0.0,0.0,0.0,0.0,0.0,0.0,0.0,0.0,0.0,0.0,0.0,0.0,0.0,0.0,0.0,0.0,0.0,0.0,0.0
1,0.0,0.0,0.0,-0.0039794921875,0.0,0.0,0.0,0.0,0.0,0.0,-0.001,0.0,0.0,0.0,0.0,0.0,0.0,2.460479735638512e-05,0.0,0.0,0.0,0.0,0.0,0.0,-14.156,0.0,0.0,0.0
2,0.0,0.0,0.0,-0.0039794921875,0.0,0.0,0.0,0.0,0.0,0.0,-0.001,0.0,0.0,0.0,0.0,0.0,0.0,0.0031175711540319525,0.0,0.0,0.0,0.0,0.0,0.0,-14.224,0.0,0.0,0.0
3,0.0,0.0,0.0,-0.0039794921875,0.0,0.0,0.0,0.0,0.0,0.0,-0.001,0.0,0.0,0.0,0.0,0.0,0.0,0.006164895297968887,0.0,0.0,0.0,0.0,0.0,0.0,-14.156,0.0,0.0,0.0
4,0.0,0.0,0.0,-0.0039794921875,0.0,0.0,0.0,0.0,0.0,0.0,-0.001,0.0,0.0,0.0,0.0,0.0,0.0,0.009170079823753296,0.0,0.0,0.0,0.0,0.0,0.0,-14.2,0.0,0.0,0.0
5,0.0,0.0,0.0,-0.0036904296875,0.0,0.0,0.0,0.0,0.0,0.0,0.004,0.0,0.0,0.0,0.0,0.0,0.0,0.012150363014492235,0.0,0.0,0.0,0.0,0.0,0.0,-13.584,0.0,0.0,0.0
6,0.0,0.0,0.0,-0.00282421875,0.0,0.0,0.0,0.0,0.0,0.0,0.049,0.0,0.0,0.0,0.0,0.0,0.0,0.01514393186462706,0.0,0.0,0.0,0.0,0.0,0.0,-13.08,0.0,0.0,0.0
7,0.0,0.0,0.0,-0.00166015625,0.0,0.0,0.0,0.0,0.0,0.0,0.103,0.0,0.0,0.0,0.0,0.0,0.0,0.01814756150163718,0.0,0.0,0.0,0.0,0.0,0.0,-12.532,0.0,0.0,0.0
8,0.0,0.0,0.0,7.12890625e-05,0.0,0.0,0.0,0.0,0.0,0.0,0.145,0.0,0.0,0.0,0.0,0.0,0.0,0.02117203736102875,0.0,0.0,0.0,0.0,0.0,0.0,-12.392,0.0,0.0,0.0
9,0.0,0.0,0.0,0.00195703125,0.0,0.0,0.0,0.0,0.0,0.0,0.178,0.0,0.0,0.0,0.0,0.0,0.0,0.02413479845648376,0.0,0.0,0.0,0.0,0.0,0.0,-12.304,0.0,0.0,0.0
10,0.0,0.0,0.0,0.004419921875,0.0,0.0,0.0,0.0,0.0,0.0,0.21,0.0,0.0,0.0,0.0,0.0,0.0,0.02716142031273177,0.0,0.0,0.0,0.0,0.0,0.0,-11.892,0.0,0.0,0.0
11,0.0,0.0,0.0,0.006875,0.0,0.0,0.0,0.0,0.0,0.0,0.25,0.0,0.0,0.0,0.0,0.0,0.0,0.030148989112266208,0.0,0.0,0.0,0.0,0.0,0.0,-12.096,0.0,0.0,0.0
12,0.0,0.0,0.0,0.009482421875,0.0,0.0,0.0,0.0,0.0,0.0,0.255,0.0,0.0,0.0,0.0,0.0,0.0,0.03315109181393013,0.0,0.0,0.0,0.0,0.0,0.0,-11.456,0.0,0.0,0.0
13,0.0,0.0,0.0,0.0128212890625,0.0,0.0,0.0,0.0,0.0,0.0,0.294,0.0,0.0,0.0,0.0,0.0,0.0,0.036141010350603575,0.0,0.0,0.0,0.0,0.0,0.0,-11.844,0.0,0.0,0.0
14,0.0,0.0,0.0,0.0158623046875,0.0,0.0,0.0,0.0,0.0,0.0,0.324,0.0,0.0,0.0,0.0,0.0,0.0,0.039163216948473724,0.0,0.0,0.0,0.0,0.0,0.0,-11.912,0.0,0.0,0.0
15,0.0,0.0,0.0,0.019201171875,0.0,0.0,0.0,0.0,0.0,0.0,0.309,0.0,0.0,0.0,0.0,0.0,0.0,0.04215667134825343,0.0,0.0,0.0,0.0,0.0,0.0,-11.776,0.0,0.0,0.0
16,0.0,0.0,0.0,0.0226748046875,0.0,0.0,0.0,0.0,0.0,0.0,0.347,0.0,0.0,0.0,0.0,0.0,0.0,0.045087377134724556,0.0,0.0,0.0,0.0,0.0,0.0,-12.324,0.0,0.0,0.0
17,0.0,0.0,0.0,0.02629296875,0.0,0.0,0.0,0.0,0.0,0.0,0.357,0.0,0.0,0.0,0.0,0.0,0.0,0.04810162955380621,0.0,0.0,0.0,0.0,0.0,0.0,-12.392,0.0,0.0,0.0
18,0.0,0.0,0.0,0.0299111328125,0.0,0.0,0.0,0.0,0.0,0.0,0.358,0.0,0.0,0.0,0.0,0.0,0.0,0.0511182951554433,0.0,0.0,0.0,0.0,0.0,0.0,-12.624,0.0,0.0,0.0
19,0.0,0.0,0.0,0.0335390625,0.0,0.0,0.0,0.0,0.0,0.0,0.364,0.0,0.0,0.0,0.0,0.0,0.0,0.05409113291248163,0.0,0.0,0.0,0.0,0.0,0.0,-13.264,0.0,0.0,0.0
20,0.0,0.0,0.0,0.0368681640625,0.0,0.0,0.0,0.0,0.0,0.0,0.36,0.0,0.0,0.0,0.0,0.0,0.0,0.05707438069616909,0.0,0.0,0.0,0.0,0.0,0.0,-14.2,0.0,0.0,0.0
21,0.0,0.0,0.0,0.0403427734375,0.0,0.0,0.0,0.0,0.0,0.0,0.341,0.0,0.0,0.0,0.0,0.0,0.0,0.06005079665084265,0.0,0.0,0.0,0.0,0.0,0.0,-14.316,0.0,0.0,0.0
22,0.0,0.0,0.0,0.0441142578125,0.0,0.0,0.0,0.0,0.0,0.0,0.358,0.0,0.0,0.0,0.0,0.0,0.0,0.0630507582929171,0.0,0.0,0.0,0.0,0.0,0.0,-14.568,0.0,0.0,0.0
23,0.0,0.0,0.0,0.047876953125,0.0,0.0,0.0,0.0,0.0,0.0,0.375,0.0,0.0,0.0,0.0,0.0,0.0,0.0660169937691957,0.0,0.0,0.0,0.0,0.0,0.0,-14.132,0.0,0.0,0.0
24,0.0,0.0,0.0,0.0517841796875,0.0,0.0,0.0,0.0,0.0,0.0,0.389,0.0,0.0,0.0,0.0,0.0,0.0,0.06902742475664031,0.0,0.0,0.0,0.0,0.0,0.0,-14.636,0.0,0.0,0.0
25,0.0,0.0,0.0,0.055412109375,0.0,0.0,0.0,0.0,0.0,0.0,0.377,0.0,0.0,0.0,0.0,0.0,0.0,0.07196224666399484,0.0,0.0,0.0,0.0,0.0,0.0,-14.428,0.0,0.0,0.0
26,0.0,0.0,0.0,0.05918359375,0.0,0.0,0.0,0.0,0.0,0.0,0.379,0.0,0.0,0.0,0.0,0.0,0.0,0.0749742364405404,0.0,0.0,0.0,0.0,0.0,0.0,-15.068,0.0,0.0,0.0
27,0.0,0.0,0.0,0.0628017578125,0.0,0.0,0.0,0.0,0.0,0.0,0.348,0.0,0.0,0.0,0.0,0.0,0.0,0.07795955734294388,0.0,0.0,0.0,0.0,0.0,0.0,-14.384,0.0,0.0,0.0
28,0.0,0.0,0.0,0.0658427734375,0.0,0.0,0.0,0.0,0.0,0.0,0.33,0.0,0.0,0.0,0.0,0.0,0.0,0.08091676467266092,0.0,0.0,0.0,0.0,0.0,0.0,-14.544,0.0,0.0,0.0
29,0.0,0.0,0.0,0.0687392578125,0.0,0.0,0.0,0.0,0.0,0.0,0.328,0.0,0.0,0.0,0.0,0.0,0.0,0.08390320427627534,0.0,0.0,0.0,0.0,0.0,0.0,-15.228,0.0,0.0,0.0
30,0.0,0.0,0.0,0.0716357421875,0.0,0.0,0.0,0.0,0.0,0.0,0.287,0.0,0.0,0.0,0.0,0.0,0.0,0.08683111986986601,0.0,0.0,0.0,0.0,0.0,0.0,-14.976,0.0,0.0,0.0
31,0.0,0.0,0.0,0.075119140625,0.0,0.0,0.0,0.0,0.0,0.0,0.311,0.0,0.0,0.0,0.0,0.0,0.0,0.08981180392664069,0.0,0.0,0.0,0.0,0.0,0.0,-14.728,0.0,0.0,0.0
32,0.0,0.0,0.0,0.07816015625,0.0,0.0,0.0,0.0,0.0,0.0,0.338,0.0,0.0,0.0,0.0,0.0,0.0,0.09280265944828915,0.0,0.0,0.0,0.0,0.0,0.0,-14.796,0.0,0.0,0.0
33,0.0,0.0,0.0,0.081056640625,0.0,0.0,0.0,0.0,0.0,0.0,0.297,0.0,0.0,0.0,0.0,0.0,0.0,0.0957621342962975,0.0,0.0,0.0,0.0,0.0,0.0,-14.064,0.0,0.0,0.0
34,0.0,0.0,0.0,0.0843857421875,0.0,0.0,0.0,0.0,0.0,0.0,0.315,0.0,0.0,0.0,0.0,0.0,0.0,0.09870172370614785,0.0,0.0,0.0,0.0,0.0,0.0,-14.956,0.0,0.0,0.0
35,0.0,0.0,0.0,0.086705078125,0.0,0.0,0.0,0.0,0.0,0.0,0.293,0.0,0.0,0.0,0.0,0.0,0.0,0.10166876847468888,0.0,0.0,0.0,0.0,0.0,0.0,-14.956,0.0,0.0,0.0
36,0.0,0.0,0.0,0.0896015625,0.0,0.0,0.0,0.0,0.0,0.0,0.25,0.0,0.0,0.0,0.0,0.0,0.0,0.104641214286924,0.0,0.0,0.0,0.0,0.0,0.0,-14.108,0.0,0.0,0.0
37,0.0,0.0,0.0,0.092787109375,0.0,0.0,0.0,0.0,0.0,0.0,0.313,0.0,0.0,0.0,0.0,0.0,0.0,0.10755943514576553,0.0,0.0,0.0,0.0,0.0,0.0,-15.412,0.0,0.0,0.0
38,0.0,0.0,0.0,0.09539453125,0.0,0.0,0.0,0.0,0.0,0.0,0.283,0.0,0.0,0.0,0.0,0.0,0.0,0.11053302867407416,0.0,0.0,0.0,0.0,0.0,0.0,-14.932,0.0,0.0,0.0
39,0.0,0.0,0.0,0.098291015625,0.0,0.0,0.0,0.0,0.0,0.0,0.278,0.0,0.0,0.0,0.0,0.0,0.0,0.11347529939607642,0.0,0.0,0.0,0.0,0.0,0.0,-15.78,0.0,0.0,0.0
40,0.0,0.0,0.0,0.1011875,0.0,0.0,0.0,0.0,0.0,0.0,0.291,0.0,0.0,0.0,0.0,0.0,0.0,0.11639916587274676,0.0,0.0,0.0,0.0,0.0,0.0,-15.436,0.0,0.0,0.0
41,0.0,0.0,0.0,0.1042197265625,0.0,0.0,0.0,0.0,0.0,0.0,0.29,0.0,0.0,0.0,0.0,0.0,0.0,0.1193865439544055,0.0,0.0,0.0,0.0,0.0,0.0,-14.568,0.0,0.0,0.0
42,0.0,0.0,0.0,0.1071162109375,0.0,0.0,0.0,0.0,0.0,0.0,0.301,0.0,0.0,0.0,0.0,0.0,0.0,0.12231062386542407,0.0,0.0,0.0,0.0,0.0,0.0,-14.476,0.0,0.0,0.0
43,0.0,0.0,0.0,0.1098681640625,0.0,0.0,0.0,0.0,0.0,0.0,0.281,0.0,0.0,0.0,0.0,0.0,0.0,0.1252255903055053,0.0,0.0,0.0,0.0,0.0,0.0,-13.788,0.0,0.0,0.0
44,0.0,0.0,0.0,0.1126201171875,0.0,0.0,0.0,0.0,0.0,0.0,0.283,0.0,0.0,0.0,0.0,0.0,0.0,0.12817436368132534,0.0,0.0,0.0,0.0,0.0,0.0,-14.04,0.0,0.0,0.0
45,0.0,0.0,0.0,0.114939453125,0.0,0.0,0.0,0.0,0.0,0.0,0.254,0.0,0.0,0.0,0.0,0.0,0.0,0.13108939533857888,0.0,0.0,0.0,0.0,0.0,0.0,-13.904,0.0,0.0,0.0
46,0.0,0.0,0.0,0.1177001953125,0.0,0.0,0.0,0.0,0.0,0.0,0.249,0.0,0.0,0.0,0.0,0.0,0.0,0.13402725602160884,0.0,0.0,0.0,0.0,0.0,0.0,-12.736,0.0,0.0,0.0
47,0.0,0.0,0.0,0.1203076171875,0.0,0.0,0.0,0.0,0.0,0.0,0.283,0.0,0.0,0.0,0.0,0.0,0.0,0.13692733750823655,0.0,0.0,0.0,0.0,0.0,0.0,-13.584,0.0,0.0,0.0
48,0.0,0.0,0.0,0.123205078125,0.0,0.0,0.0,0.0,0.0,0.0,0.252,0.0,0.0,0.0,0.0,0.0,0.0,0.13985694807633176,0.0,0.0,0.0,0.0,0.0,0.0,-13.012,0.0,0.0,0.0
49,0.0,0.0,0.0,0.1261015625,0.0,0.0,0.0,0.0,0.0,0.0,0.293,0.0,0.0,0.0,0.0,0.0,0.0,0.14275851369809597,0.0,0.0,0.0,0.0,0.0,0.0,-13.856,0.0,0.0,0.0
50,0.0,0.0,0.0,0.1285556640625,0.0,0.0,0.0,0.0,0.0,0.0,0.29,0.0,0.0,0.0,0.0,0.0,0.0,0.14566126290602704,0.0,0.0,0.0,0.0,0.0,0.0,-14.268,0.0,0.0,0.0
51,0.0,0.0,0.0,0.1313076171875,0.0,0.0,0.0,0.0,0.0,0.0,0.236,0.0,0.0,0.0,0.0,0.0,0.0,0.14861825727472391,0.0,0.0,0.0,0.0,0.0,0.0,-13.216,0.0,0.0,0.0
52,0.0,0.0,0.0,0.133771484375,0.0,0.0,0.0,0.0,0.0,0.0,0.265,0.0,0.0,0.0,0.0,0.0,0.0,0.15149299952925424,0.0,0.0,0.0,0.0,0.0,0.0,-13.516,0.0,0.0,0.0
53,0.0,0.0,0.0,0.1362431640625,0.0,0.0,0.0,0.0,0.0,0.0,0.259,0.0,0.0,0.0,0.0,0.0,0.0,0.15439071144463348,0.0,0.0,0.0,0.0,0.0,0.0,-13.216,0.0,0.0,0.0
54,0.0,0.0,0.0,0.1392841796875,0.0,0.0,0.0,0.0,0.0,0.0,0.272,0.0,0.0,0.0,0.0,0.0,0.0,0.1573455886729269,0.0,0.0,0.0,0.0,0.0,0.0,-12.944,0.0,0.0,0.0
55,0.0,0.0,0.0,0.1424697265625,0.0,0.0,0.0,0.0,0.0,0.0,0.32,0.0,0.0,0.0,0.0,0.0,0.0,0.16017967894296392,0.0,0.0,0.0,0.0,0.0,0.0,-13.676,0.0,0.0,0.0
56,0.0,0.0,0.0,0.1449326171875,0.0,0.0,0.0,0.0,0.0,0.0,0.28,0.0,0.0,0.0,0.0,0.0,0.0,0.16306416780201494,0.0,0.0,0.0,0.0,0.0,0.0,-13.08,0.0,0.0,0.0
57,0.0,0.0,0.0,0.1481181640625,0.0,0.0,0.0,0.0,0.0,0.0,0.283,0.0,0.0,0.0,0.0,0.0,0.0,0.1659589587634403,0.0,0.0,0.0,0.0,0.0,0.0,-13.424,0.0,0.0,0.0
58,0.0,0.0,0.0,0.1508701171875,0.0,0.0,0.0,0.0,0.0,0.0,0.305,0.0,0.0,0.0,0.0,0.0,0.0,0.16886027964695147,0.0,0.0,0.0,0.0,0.0,0.0,-13.468,0.0,0.0,0.0
59,0.0,0.0,0.0,0.1539111328125,0.0,0.0,0.0,0.0,0.0,0.0,0.284,0.0,0.0,0.0,0.0,0.0,0.0,0.1717087288105875,0.0,0.0,0.0,0.0,0.0,0.0,-13.332,0.0,0.0,0.0
60,0.0,0.0,0.0,0.15710546875,0.0,0.0,0.0,0.0,0.0,0.0,0.319,0.0,0.0,0.0,0.0,0.0,0.0,0.17461873087104982,0.0,0.0,0.0,0.0,0.0,0.0,-14.636,0.0,0.0,0.0
61,0.0,0.0,0.0,0.160001953125,0.0,0.0,0.0,0.0,0.0,0.0,0.305,0.0,0.0,0.0,0.0,0.0,0.0,0.17747150600814043,0.0,0.0,0.0,0.0,0.0,0.0,-14.336,0.0,0.0,0.0
62,0.0,0.0,0.0,0.1631875,0.0,0.0,0.0,0.0,0.0,0.0,0.304,0.0,0.0,0.0,0.0,0.0,0.0,0.18032125559800724,0.0,0.0,0.0,0.0,0.0,0.0,-14.908,0.0,0.0,0.0
63,0.0,0.0,0.0,0.166228515625,0.0,0.0,0.0,0.0,0.0,0.0,0.31,0.0,0.0,0.0,0.0,0.0,0.0,0.1831928993259576,0.0,0.0,0.0,0.0,0.0,0.0,-14.36,0.0,0.0,0.0
64,0.0,0.0,0.0,0.1695576171875,0.0,0.0,0.0,0.0,0.0,0.0,0.317,0.0,0.0,0.0,0.0,0.0,0.0,0.18603476270919658,0.0,0.0,0.0,0.0,0.0,0.0,-13.948,0.0,0.0,0.0
65,0.0,0.0,0.0,0.1727431640625,0.0,0.0,0.0,0.0,0.0,0.0,0.327,0.0,0.0,0.0,0.0,0.0,0.0,0.188885458225048,0.0,0.0,0.0,0.0,0.0,0.0,-13.72,0.0,0.0,0.0
66,0.0,0.0,0.0,0.1759375,0.0,0.0,0.0,0.0,0.0,0.0,0.322,0.0,0.0,0.0,0.0,0.0,0.0,0.1917308187170441,0.0,0.0,0.0,0.0,0.0,0.0,-13.764,0.0,0.0,0.0
67,0.0,0.0,0.0,0.178689453125,0.0,0.0,0.0,0.0,0.0,0.0,0.3,0.0,0.0,0.0,0.0,0.0,0.0,0.1945589355060027,0.0,0.0,0.0,0.0,0.0,0.0,-13.72,0.0,0.0,0.0
68,0.0,0.0,0.0,0.18201953125,0.0,0.0,0.0,0.0,0.0,0.0,0.292,0.0,0.0,0.0,0.0,0.0,0.0,0.19744139788485923,0.0,0.0,0.0,0.0,0.0,0.0,-13.516,0.0,0.0,0.0
69,0.0,0.0,0.0,0.184482421875,0.0,0.0,0.0,0.0,0.0,0.0,0.297,0.0,0.0,0.0,0.0,0.0,0.0,0.2002571346237916,0.0,0.0,0.0,0.0,0.0,0.0,-13.764,0.0,0.0,0.0
70,0.0,0.0,0.0,0.18737890625,0.0,0.0,0.0,0.0,0.0,0.0,0.274,0.0,0.0,0.0,0.0,0.0,0.0,0.203080368150815,0.0,0.0,0.0,0.0,0.0,0.0,-13.744,0.0,0.0,0.0
71,0.0,0.0,0.0,0.190419921875,0.0,0.0,0.0,0.0,0.0,0.0,0.293,0.0,0.0,0.0,0.0,0.0,0.0,0.2058975921234291,0.0,0.0,0.0,0.0,0.0,0.0,-14.568,0.0,0.0,0.0
72,0.0,0.0,0.0,0.19273046875,0.0,0.0,0.0,0.0,0.0,0.0,0.267,0.0,0.0,0.0,0.0,0.0,0.0,0.20870330960412192,0.0,0.0,0.0,0.0,0.0,0.0,-14.452,0.0,0.0,0.0
73,0.0,0.0,0.0,0.1956357421875,0.0,0.0,0.0,0.0,0.0,0.0,0.261,0.0,0.0,0.0,0.0,0.0,0.0,0.2115102704709764,0.0,0.0,0.0,0.0,0.0,0.0,-14.36,0.0,0.0,0.0
74,0.0,0.0,0.0,0.1982431640625,0.0,0.0,0.0,0.0,0.0,0.0,0.265,0.0,0.0,0.0,0.0,0.0,0.0,0.21433072791113228,0.0,0.0,0.0,0.0,0.0,0.0,-13.308,0.0,0.0,0.0
75,0.0,0.0,0.0,0.2011396484375,0.0,0.0,0.0,0.0,0.0,0.0,0.302,0.0,0.0,0.0,0.0,0.0,0.0,0.21713343158035717,0.0,0.0,0.0,0.0,0.0,0.0,-13.836,0.0,0.0,0.0
76,0.0,0.0,0.0,0.2040361328125,0.0,0.0,0.0,0.0,0.0,0.0,0.272,0.0,0.0,0.0,0.0,0.0,0.0,0.21991425672116813,0.0,0.0,0.0,0.0,0.0,0.0,-13.264,0.0,0.0,0.0
77,0.0,0.0,0.0,0.20664453125,0.0,0.0,0.0,0.0,0.0,0.0,0.274,0.0,0.0,0.0,0.0,0.0,0.0,0.22269129596834944,0.0,0.0,0.0,0.0,0.0,0.0,-13.788,0.0,0.0,0.0
78,0.0,0.0,0.0,0.208962890625,0.0,0.0,0.0,0.0,0.0,0.0,0.27,0.0,0.0,0.0,0.0,0.0,0.0,0.2255061623352665,0.0,0.0,0.0,0.0,0.0,0.0,-13.836,0.0,0.0,0.0
79,0.0,0.0,0.0,0.2115615234375,0.0,0.0,0.0,0.0,0.0,0.0,0.239,0.0,0.0,0.0,0.0,0.0,0.0,0.228259301144695,0.0,0.0,0.0,0.0,0.0,0.0,-13.24,0.0,0.0,0.0
80,0.0,0.0,0.0,0.2144580078125,0.0,0.0,0.0,0.0,0.0,0.0,0.269,0.0,0.0,0.0,0.0,0.0,0.0,0.23102722959950245,0.0,0.0,0.0,0.0,0.0,0.0,-13.516,0.0,0.0,0.0
81,0.0,0.0,0.0,0.2169306640625,0.0,0.0,0.0,0.0,0.0,0.0,0.268,0.0,0.0,0.0,0.0,0.0,0.0,0.23379993708157132,0.0,0.0,0.0,0.0,0.0,0.0,-13.604,0.0,0.0,0.0
82,0.0,0.0,0.0,0.2204052734375,0.0,0.0,0.0,0.0,0.0,0.0,0.297,0.0,0.0,0.0,0.0,0.0,0.0,0.23656262920404103,0.0,0.0,0.0,0.0,0.0,0.0,-14.156,0.0,0.0,0.0
83,0.0,0.0,0.0,0.2228681640625,0.0,0.0,0.0,0.0,0.0,0.0,0.305,0.0,0.0,0.0,0.0,0.0,0.0,0.23930588390015844,0.0,0.0,0.0,0.0,0.0,0.0,-14.476,0.0,0.0,0.0
84,0.0,0.0,0.0,0.2256201171875,0.0,0.0,0.0,0.0,0.0,0.0,0.279,0.0,0.0,0.0,0.0,0.0,0.0,0.24214123905597443,0.0,0.0,0.0,0.0,0.0,0.0,-14.588,0.0,0.0,0.0
85,0.0,0.0,0.0,0.2289501953125,0.0,0.0,0.0,0.0,0.0,0.0,0.285,0.0,0.0,0.0,0.0,0.0,0.0,0.2447803295497788,0.0,0.0,0.0,0.0,0.0,0.0,-14.316,0.0,0.0,0.0
86,0.0,0.0,0.0,0.2317021484375,0.0,0.0,0.0,0.0,0.0,0.0,0.306,0.0,0.0,0.0,0.0,0.0,0.0,0.2475294069338242,0.0,0.0,0.0,0.0,0.0,0.0,-13.812,0.0,0.0,0.0
87,0.0,0.0,0.0,0.2344541015625,0.0,0.0,0.0,0.0,0.0,0.0,0.295,0.0,0.0,0.0,0.0,0.0,0.0,0.25027353647981715,0.0,0.0,0.0,0.0,0.0,0.0,-13.676,0.0,0.0,0.0
88,0.0,0.0,0.0,0.23750390625,0.0,0.0,0.0,0.0,0.0,0.0,0.287,0.0,0.0,0.0,0.0,0.0,0.0,0.25300129019684203,0.0,0.0,0.0,0.0,0.0,0.0,-13.056,0.0,0.0,0.0
89,0.0,0.0,0.0,0.240400390625,0.0,0.0,0.0,0.0,0.0,0.0,0.291,0.0,0.0,0.0,0.0,0.0,0.0,0.25569474623633415,0.0,0.0,0.0,0.0,0.0,0.0,-13.652,0.0,0.0,0.0
90,0.0,0.0,0.0,0.2430087890625,0.0,0.0,0.0,0.0,0.0,0.0,0.25,0.0,0.0,0.0,0.0,0.0,0.0,0.2584071609008731,0.0,0.0,0.0,0.0,0.0,0.0,-12.6,0.0,0.0,0.0
91,0.0,0.0,0.0,0.2457607421875,0.0,0.0,0.0,0.0,0.0,0.0,0.288,0.0,0.0,0.0,0.0,0.0,0.0,0.26111896753849395,0.0,0.0,0.0,0.0,0.0,0.0,-13.376,0.0,0.0,0.0
92,0.0,0.0,0.0,0.248359375,0.0,0.0,0.0,0.0,0.0,0.0,0.269,0.0,0.0,0.0,0.0,0.0,0.0,0.2638035242610684,0.0,0.0,0.0,0.0,0.0,0.0,-13.424,0.0,0.0,0.0
93,0.0,0.0,0.0,0.250966796875,0.0,0.0,0.0,0.0,0.0,0.0,0.259,0.0,0.0,0.0,0.0,0.0,0.0,0.26649199587564065,0.0,0.0,0.0,0.0,0.0,0.0,-13.744,0.0,0.0,0.0
94,0.0,0.0,0.0,0.25415234375,0.0,0.0,0.0,0.0,0.0,0.0,0.289,0.0,0.0,0.0,0.0,0.0,0.0,0.269209998875035,0.0,0.0,0.0,0.0,0.0,0.0,-13.948,0.0,0.0,0.0
95,0.0,0.0,0.0,0.2563359375,0.0,0.0,0.0,0.0,0.0,0.0,0.277,0.0,0.0,0.0,0.0,0.0,0.0,0.2718639095416743,0.0,0.0,0.0,0.0,0.0,0.0,-14.084,0.0,0.0,0.0
96,0.0,0.0,0.0,0.259087890625,0.0,0.0,0.0,0.0,0.0,0.0,0.243,0.0,0.0,0.0,0.0,0.0,0.0,0.27453804666546644,0.0,0.0,0.0,0.0,0.0,0.0,-13.652,0.0,0.0,0.0
97,0.0,0.0,0.0,0.2615517578125,0.0,0.0,0.0,0.0,0.0,0.0,0.259,0.0,0.0,0.0,0.0,0.0,0.0,0.27723353185039795,0.0,0.0,0.0,0.0,0.0,0.0,-13.4,0.0,0.0,0.0
98,0.0,0.0,0.0,0.2641591796875,0.0,0.0,0.0,0.0,0.0,0.0,0.276,0.0,0.0,0.0,0.0,0.0,0.0,0.27986776579256956,0.0,0.0,0.0,0.0,0.0,0.0,-13.516,0.0,0.0,0.0
99,0.0,0.0,0.0,0.2666142578125,0.0,0.0,0.0,0.0,0.0,0.0,0.253,0.0,0.0,0.0,0.0,0.0,0.0,0.28253222612897627,0.0,0.0,0.0,0.0,0.0,0.0,-13.356,0.0,0.0,0.0
100,0.0,0.0,0.0,0.2693662109375,0.0,0.0,0.0,0.0,0.0,0.0,0.254,0.0,0.0,0.0,0.0,0.0,0.0,0.28515971758950437,0.0,0.0,0.0,0.0,0.0,0.0,-13.124,0.0,0.0,0.0
101,0.0,0.0,0.0,0.2722626953125,0.0,0.0,0.0,0.0,0.0,0.0,0.275,0.0,0.0,0.0,0.0,0.0,0.0,0.287813301285089,0.0,0.0,0.0,0.0,0.0,0.0,-13.148,0.0,0.0,0.0
102,0.0,0.0,0.0,0.2747353515625,0.0,0.0,0.0,0.0,0.0,0.0,0.264,0.0,0.0,0.0,0.0,0.0,0.0,0.2904128401909978,0.0,0.0,0.0,0.0,0.0,0.0,-13.264,0.0,0.0,0.0
103,0.0,0.0,0.0,0.2776318359375,0.0,0.0,0.0,0.0,0.0,0.0,0.267,0.0,0.0,0.0,0.0,0.0,0.0,0.2930911610222015,0.0,0.0,0.0,0.0,0.0,0.0,-13.536,0.0,0.0,0.0
104,0.0,0.0,0.0,0.2803837890625,0.0,0.0,0.0,0.0,0.0,0.0,0.274,0.0,0.0,0.0,0.0,0.0,0.0,0.29567570020250417,0.0,0.0,0.0,0.0,0.0,0.0,-13.924,0.0,0.0,0.0
105,0.0,0.0,0.0,0.2829912109375,0.0,0.0,0.0,0.0,0.0,0.0,0.276,0.0,0.0,0.0,0.0,0.0,0.0,0.29825878546311413,0.0,0.0,0.0,0.0,0.0,0.0,-14.156,0.0,0.0,0.0
106,0.0,0.0,0.0,0.28558984375,0.0,0.0,0.0,0.0,0.0,0.0,0.256,0.0,0.0,0.0,0.0,0.0,0.0,0.3008807144661809,0.0,0.0,0.0,0.0,0.0,0.0,-14.132,0.0,0.0,0.0
107,0.0,0.0,0.0,0.288341796875,0.0,0.0,0.0,0.0,0.0,0.0,0.271,0.0,0.0,0.0,0.0,0.0,0.0,0.30344939211552496,0.0,0.0,0.0,0.0,0.0,0.0,-14.292,0.0,0.0,0.0
108,0.0,0.0,0.0,0.2913828125,0.0,0.0,0.0,0.0,0.0,0.0,0.282,0.0,0.0,0.0,0.0,0.0,0.0,0.306041133475885,0.0,0.0,0.0,0.0,0.0,0.0,-14.04,0.0,0.0,0.0
109,0.0,0.0,0.0,0.2937109375,0.0,0.0,0.0,0.0,0.0,0.0,0.292,0.0,0.0,0.0,0.0,0.0,0.0,0.30860199324710613,0.0,0.0,0.0,0.0,0.0,0.0,-13.88,0.0,0.0,0.0
110,0.0,0.0,0.0,0.296607421875,0.0,0.0,0.0,0.0,0.0,0.0,0.27,0.0,0.0,0.0,0.0,0.0,0.0,0.31119094619536314,0.0,0.0,0.0,0.0,0.0,0.0,-13.08,0.0,0.0,0.0
111,0.0,0.0,0.0,0.299359375,0.0,0.0,0.0,0.0,0.0,0.0,0.298,0.0,0.0,0.0,0.0,0.0,0.0,0.3137765086927797,0.0,0.0,0.0,0.0,0.0,0.0,-13.56,0.0,0.0,0.0
112,0.0,0.0,0.0,0.3016787109375,0.0,0.0,0.0,0.0,0.0,0.0,0.256,0.0,0.0,0.0,0.0,0.0,0.0,0.31632739475127764,0.0,0.0,0.0,0.0,0.0,0.0,-12.896,0.0,0.0,0.0
113,0.0,0.0,0.0,0.3047197265625,0.0,0.0,0.0,0.0,0.0,0.0,0.258,0.0,0.0,0.0,0.0,0.0,0.0,0.31886244946432213,0.0,0.0,0.0,0.0,0.0,0.0,-13.284,0.0,0.0,0.0
114,0.0,0.0,0.0,0.3067412109375,0.0,0.0,0.0,0.0,0.0,0.0,0.244,0.0,0.0,0.0,0.0,0.0,0.0,0.32137594606717873,0.0,0.0,0.0,0.0,0.0,0.0,-13.812,0.0,0.0,0.0
115,0.0,0.0,0.0,0.308626953125,0.0,0.0,0.0,0.0,0.0,0.0,0.186,0.0,0.0,0.0,0.0,0.0,0.0,0.3239108198754596,0.0,0.0,0.0,0.0,0.0,0.0,-13.924,0.0,0.0,0.0
116,0.0,0.0,0.0,0.3108017578125,0.0,0.0,0.0,0.0,0.0,0.0,0.207,0.0,0.0,0.0,0.0,0.0,0.0,0.3264320391533765,0.0,0.0,0.0,0.0,0.0,0.0,-13.424,0.0,0.0,0.0
117,0.0,0.0,0.0,0.31370703125,0.0,0.0,0.0,0.0,0.0,0.0,0.252,0.0,0.0,0.0,0.0,0.0,0.0,0.32893732124993197,0.0,0.0,0.0,0.0,0.0,0.0,-12.712,0.0,0.0,0.0
118,0.0,0.0,0.0,0.3161611328125,0.0,0.0,0.0,0.0,0.0,0.0,0.288,0.0,0.0,0.0,0.0,0.0,0.0,0.3314612009465568,0.0,0.0,0.0,0.0,0.0,0.0,-13.216,0.0,0.0,0.0
119,0.0,0.0,0.0,0.3189130859375,0.0,0.0,0.0,0.0,0.0,0.0,0.257,0.0,0.0,0.0,0.0,0.0,0.0,0.33394570877617374,0.0,0.0,0.0,0.0,0.0,0.0,-13.284,0.0,0.0,0.0
120,0.0,0.0,0.0,0.321810546875,0.0,0.0,0.0,0.0,0.0,0.0,0.269,0.0,0.0,0.0,0.0,0.0,0.0,0.33643864930209205,0.0,0.0,0.0,0.0,0.0,0.0,-13.856,0.0,0.0,0.0
121,0.0,0.0,0.0,0.32412890625,0.0,0.0,0.0,0.0,0.0,0.0,0.262,0.0,0.0,0.0,0.0,0.0,0.0,0.33893005224727996,0.0,0.0,0.0,0.0,0.0,0.0,-13.012,0.0,0.0,0.0
122,0.0,0.0,0.0,0.3264482421875,0.0,0.0,0.0,0.0,0.0,0.0,0.242,0.0,0.0,0.0,0.0,0.0,0.0,0.34138508116289246,0.0,0.0,0.0,0.0,0.0,0.0,-12.532,0.0,0.0,0.0
123,0.0,0.0,0.0,0.3284697265625,0.0,0.0,0.0,0.0,0.0,0.0,0.24,0.0,0.0,0.0,0.0,0.0,0.0,0.3438569507062606,0.0,0.0,0.0,0.0,0.0,0.0,-12.464,0.0,0.0,0.0
124,0.0,0.0,0.0,0.3315107421875,0.0,0.0,0.0,0.0,0.0,0.0,0.236,0.0,0.0,0.0,0.0,0.0,0.0,0.34631502028658884,0.0,0.0,0.0,0.0,0.0,0.0,-12.348,0.0,0.0,0.0
125,0.0,0.0,0.0,0.333837890625,0.0,0.0,0.0,0.0,0.0,0.0,0.265,0.0,0.0,0.0,0.0,0.0,0.0,0.3487692932038492,0.0,0.0,0.0,0.0,0.0,0.0,-12.988,0.0,0.0,0.0
126,0.0,0.0,0.0,0.3363017578125,0.0,0.0,0.0,0.0,0.0,0.0,0.232,0.0,0.0,0.0,0.0,0.0,0.0,0.3511848599353213,0.0,0.0,0.0,0.0,0.0,0.0,-12.784,0.0,0.0,0.0
127,0.0,0.0,0.0,0.3389091796875,0.0,0.0,0.0,0.0,0.0,0.0,0.261,0.0,0.0,0.0,0.0,0.0,0.0,0.3536327678819645,0.0,0.0,0.0,0.0,0.0,0.0,-13.284,0.0,0.0,0.0
128,0.0,0.0,0.0,0.3413642578125,0.0,0.0,0.0,0.0,0.0,0.0,0.253,0.0,0.0,0.0,0.0,0.0,0.0,0.35607001993857534,0.0,0.0,0.0,0.0,0.0,0.0,-13.424,0.0,0.0,0.0
129,0.0,0.0,0.0,0.3441162109375,0.0,0.0,0.0,0.0,0.0,0.0,0.267,0.0,0.0,0.0,0.0,0.0,0.0,0.3584703039275941,0.0,0.0,0.0,0.0,0.0,0.0,-14.016,0.0,0.0,0.0
130,0.0,0.0,0.0,0.3465791015625,0.0,0.0,0.0,0.0,0.0,0.0,0.266,0.0,0.0,0.0,0.0,0.0,0.0,0.36083124145164486,0.0,0.0,0.0,0.0,0.0,0.0,-14.016,0.0,0.0,0.0
131,0.0,0.0,0.0,0.3493310546875,0.0,0.0,0.0,0.0,0.0,0.0,0.255,0.0,0.0,0.0,0.0,0.0,0.0,0.3632517758472992,0.0,0.0,0.0,0.0,0.0,0.0,-14.176,0.0,0.0,0.0
132,0.0,0.0,0.0,0.3518037109375,0.0,0.0,0.0,0.0,0.0,0.0,0.261,0.0,0.0,0.0,0.0,0.0,0.0,0.3656147530941754,0.0,0.0,0.0,0.0,0.0,0.0,-13.972,0.0,0.0,0.0
133,0.0,0.0,0.0,0.3545556640625,0.0,0.0,0.0,0.0,0.0,0.0,0.266,0.0,0.0,0.0,0.0,0.0,0.0,0.36801275293440966,0.0,0.0,0.0,0.0,0.0,0.0,-13.764,0.0,0.0,0.0
134,0.0,0.0,0.0,0.3571552734375,0.0,0.0,0.0,0.0,0.0,0.0,0.275,0.0,0.0,0.0,0.0,0.0,0.0,0.37038516024833934,0.0,0.0,0.0,0.0,0.0,0.0,-13.652,0.0,0.0,0.0
135,0.0,0.0,0.0,0.3596181640625,0.0,0.0,0.0,0.0,0.0,0.0,0.261,0.0,0.0,0.0,0.0,0.0,0.0,0.3727007172401165,0.0,0.0,0.0,0.0,0.0,0.0,-13.356,0.0,0.0,0.0
136,0.0,0.0,0.0,0.36208203125,0.0,0.0,0.0,0.0,0.0,0.0,0.257,0.0,0.0,0.0,0.0,0.0,0.0,0.3750564026414563,0.0,0.0,0.0,0.0,0.0,0.0,-13.492,0.0,0.0,0.0
137,0.0,0.0,0.0,0.364400390625,0.0,0.0,0.0,0.0,0.0,0.0,0.223,0.0,0.0,0.0,0.0,0.0,0.0,0.3774241552431371,0.0,0.0,0.0,0.0,0.0,0.0,-12.784,0.0,0.0,0.0
138,0.0,0.0,0.0,0.36685546875,0.0,0.0,0.0,0.0,0.0,0.0,0.241,0.0,0.0,0.0,0.0,0.0,0.0,0.3797373671639372,0.0,0.0,0.0,0.0,0.0,0.0,-12.988,0.0,0.0,0.0
139,0.0,0.0,0.0,0.3688857421875,0.0,0.0,0.0,0.0,0.0,0.0,0.218,0.0,0.0,0.0,0.0,0.0,0.0,0.3820629858819883,0.0,0.0,0.0,0.0,0.0,0.0,-12.736,0.0,0.0,0.0
140,0.0,0.0,0.0,0.371357421875,0.0,0.0,0.0,0.0,0.0,0.0,0.23,0.0,0.0,0.0,0.0,0.0,0.0,0.3843490020831319,0.0,0.0,0.0,0.0,0.0,0.0,-12.944,0.0,0.0,0.0
141,0.0,0.0,0.0,0.3735322265625,0.0,0.0,0.0,0.0,0.0,0.0,0.242,0.0,0.0,0.0,0.0,0.0,0.0,0.38665655236115387,0.0,0.0,0.0,0.0,0.0,0.0,-13.308,0.0,0.0,0.0
142,0.0,0.0,0.0,0.3756982421875,0.0,0.0,0.0,0.0,0.0,0.0,0.216,0.0,0.0,0.0,0.0,0.0,0.0,0.3889308895896822,0.0,0.0,0.0,0.0,0.0,0.0,-13.72,0.0,0.0,0.0
143,0.0,0.0,0.0,0.377728515625,0.0,0.0,0.0,0.0,0.0,0.0,0.213,0.0,0.0,0.0,0.0,0.0,0.0,0.39123651900637413,0.0,0.0,0.0,0.0,0.0,0.0,-13.24,0.0,0.0,0.0
144,0.0,0.0,0.0,0.380046875,0.0,0.0,0.0,0.0,0.0,0.0,0.212,0.0,0.0,0.0,0.0,0.0,0.0,0.3934844105793413,0.0,0.0,0.0,0.0,0.0,0.0,-13.08,0.0,0.0,0.0
145,0.0,0.0,0.0,0.382068359375,0.0,0.0,0.0,0.0,0.0,0.0,0.221,0.0,0.0,0.0,0.0,0.0,0.0,0.39574582438848854,0.0,0.0,0.0,0.0,0.0,0.0,-12.944,0.0,0.0,0.0
146,0.0,0.0,0.0,0.3845322265625,0.0,0.0,0.0,0.0,0.0,0.0,0.218,0.0,0.0,0.0,0.0,0.0,0.0,0.3980247347540163,0.0,0.0,0.0,0.0,0.0,0.0,-12.668,0.0,0.0,0.0
147,0.0,0.0,0.0,0.3868505859375,0.0,0.0,0.0,0.0,0.0,0.0,0.241,0.0,0.0,0.0,0.0,0.0,0.0,0.4002438293883414,0.0,0.0,0.0,0.0,0.0,0.0,-12.872,0.0,0.0,0.0
148,0.0,0.0,0.0,0.3888720703125,0.0,0.0,0.0,0.0,0.0,0.0,0.219,0.0,0.0,0.0,0.0,0.0,0.0,0.4024791495524258,0.0,0.0,0.0,0.0,0.0,0.0,-12.644,0.0,0.0,0.0
149,0.0,0.0,0.0,0.3912001953125,0.0,0.0,0.0,0.0,0.0,0.0,0.22,0.0,0.0,0.0,0.0,0.0,0.0,0.4046910522037491,0.0,0.0,0.0,0.0,0.0,0.0,-12.508,0.0,0.0,0.0
150,0.0,0.0,0.0,0.39323046875,0.0,0.0,0.0,0.0,0.0,0.0,0.215,0.0,0.0,0.0,0.0,0.0,0.0,0.4068999540603799,0.0,0.0,0.0,0.0,0.0,0.0,-12.44,0.0,0.0,0.0
151,0.0,0.0,0.0,0.395251953125,0.0,0.0,0.0,0.0,0.0,0.0,0.205,0.0,0.0,0.0,0.0,0.0,0.0,0.4091039761594,0.0,0.0,0.0,0.0,0.0,0.0,-12.256,0.0,0.0,0.0
152,0.0,0.0,0.0,0.39771484375,0.0,0.0,0.0,0.0,0.0,0.0,0.226,0.0,0.0,0.0,0.0,0.0,0.0,0.41129882328918627,0.0,0.0,0.0,0.0,0.0,0.0,-12.14,0.0,0.0,0.0
153,0.0,0.0,0.0,0.4000341796875,0.0,0.0,0.0,0.0,0.0,0.0,0.239,0.0,0.0,0.0,0.0,0.0,0.0,0.41347203746709854,0.0,0.0,0.0,0.0,0.0,0.0,-12.784,0.0,0.0,0.0
154,0.0,0.0,0.0,0.402064453125,0.0,0.0,0.0,0.0,0.0,0.0,0.221,0.0,0.0,0.0,0.0,0.0,0.0,0.4156422954294779,0.0,0.0,0.0,0.0,0.0,0.0,-12.988,0.0,0.0,0.0
155,0.0,0.0,0.0,0.4043740234375,0.0,0.0,0.0,0.0,0.0,0.0,0.222,0.0,0.0,0.0,0.0,0.0,0.0,0.4178127228821566,0.0,0.0,0.0,0.0,0.0,0.0,-13.24,0.0,0.0,0.0
156,0.0,0.0,0.0,0.406548828125,0.0,0.0,0.0,0.0,0.0,0.0,0.225,0.0,0.0,0.0,0.0,0.0,0.0,0.4199539421087871,0.0,0.0,0.0,0.0,0.0,0.0,-13.376,0.0,0.0,0.0
157,0.0,0.0,0.0,0.408876953125,0.0,0.0,0.0,0.0,0.0,0.0,0.219,0.0,0.0,0.0,0.0,0.0,0.0,0.4220847275087071,0.0,0.0,0.0,0.0,0.0,0.0,-13.356,0.0,0.0,0.0
158,0.0,0.0,0.0,0.4113310546875,0.0,0.0,0.0,0.0,0.0,0.0,0.247,0.0,0.0,0.0,0.0,0.0,0.0,0.42421094434184387,0.0,0.0,0.0,0.0,0.0,0.0,-13.972,0.0,0.0,0.0
159,0.0,0.0,0.0,0.413361328125,0.0,0.0,0.0,0.0,0.0,0.0,0.228,0.0,0.0,0.0,0.0,0.0,0.0,0.42633778576624226,0.0,0.0,0.0,0.0,0.0,0.0,-14.336,0.0,0.0,0.0
160,0.0,0.0,0.0,0.4159697265625,0.0,0.0,0.0,0.0,0.0,0.0,0.223,0.0,0.0,0.0,0.0,0.0,0.0,0.42843348207635773,0.0,0.0,0.0,0.0,0.0,0.0,-13.72,0.0,0.0,0.0
161,0.0,0.0,0.0,0.4182880859375,0.0,0.0,0.0,0.0,0.0,0.0,0.255,0.0,0.0,0.0,0.0,0.0,0.0,0.4305505508063418,0.0,0.0,0.0,0.0,0.0,0.0,-13.676,0.0,0.0,0.0
162,0.0,0.0,0.0,0.4204541015625,0.0,0.0,0.0,0.0,0.0,0.0,0.216,0.0,0.0,0.0,0.0,0.0,0.0,0.432599038502559,0.0,0.0,0.0,0.0,0.0,0.0,-12.76,0.0,0.0,0.0
163,0.0,0.0,0.0,0.42291796875,0.0,0.0,0.0,0.0,0.0,0.0,0.23,0.0,0.0,0.0,0.0,0.0,0.0,0.4346780019183683,0.0,0.0,0.0,0.0,0.0,0.0,-12.76,0.0,0.0,0.0
164,0.0,0.0,0.0,0.4249482421875,0.0,0.0,0.0,0.0,0.0,0.0,0.234,0.0,0.0,0.0,0.0,0.0,0.0,0.436752856729692,0.0,0.0,0.0,0.0,0.0,0.0,-12.988,0.0,0.0,0.0
165,0.0,0.0,0.0,0.42711328125,0.0,0.0,0.0,0.0,0.0,0.0,0.205,0.0,0.0,0.0,0.0,0.0,0.0,0.4387873434061411,0.0,0.0,0.0,0.0,0.0,0.0,-12.784,0.0,0.0,0.0
166,0.0,0.0,0.0,0.42915234375,0.0,0.0,0.0,0.0,0.0,0.0,0.215,0.0,0.0,0.0,0.0,0.0,0.0,0.44084039783342766,0.0,0.0,0.0,0.0,0.0,0.0,-12.804,0.0,0.0,0.0
167,0.0,0.0,0.0,0.4310390625,0.0,0.0,0.0,0.0,0.0,0.0,0.197,0.0,0.0,0.0,0.0,0.0,0.0,0.4428644899100487,0.0,0.0,0.0,0.0,0.0,0.0,-12.508,0.0,0.0,0.0
168,0.0,0.0,0.0,0.4330595703125,0.0,0.0,0.0,0.0,0.0,0.0,0.2,0.0,0.0,0.0,0.0,0.0,0.0,0.44491562664897294,0.0,0.0,0.0,0.0,0.0,0.0,-12.348,0.0,0.0,0.0
169,0.0,0.0,0.0,0.43508984375,0.0,0.0,0.0,0.0,0.0,0.0,0.204,0.0,0.0,0.0,0.0,0.0,0.0,0.44689820154435533,0.0,0.0,0.0,0.0,0.0,0.0,-12.76,0.0,0.0,0.0
170,0.0,0.0,0.0,0.437111328125,0.0,0.0,0.0,0.0,0.0,0.0,0.197,0.0,0.0,0.0,0.0,0.0,0.0,0.4494015731668247,0.0,0.0,0.0,0.0,0.0,0.0,-12.736,0.0,0.0,0.0
171,0.0,0.0,0.0,0.4389970703125,0.0,0.0,0.0,0.0,0.0,0.0,0.2,0.0,0.0,0.0,0.0,0.0,0.0,0.4510411829578842,0.0,0.0,0.0,0.0,0.0,0.0,-12.896,0.0,0.0,0.0
172,0.0,0.0,0.0,0.4408828125,0.0,0.0,0.0,0.0,0.0,0.0,0.195,0.0,0.0,0.0,0.0,0.0,0.0,0.45283702713612967,0.0,0.0,0.0,0.0,0.0,0.0,-12.872,0.0,0.0,0.0
173,0.0,0.0,0.0,0.442615234375,0.0,0.0,0.0,0.0,0.0,0.0,0.182,0.0,0.0,0.0,0.0,0.0,0.0,0.45480945241285353,0.0,0.0,0.0,0.0,0.0,0.0,-12.692,0.0,0.0,0.0
174,0.0,0.0,0.0,0.4446455078125,0.0,0.0,0.0,0.0,0.0,0.0,0.184,0.0,0.0,0.0,0.0,0.0,0.0,0.45675735855932575,0.0,0.0,0.0,0.0,0.0,0.0,-12.484,0.0,0.0,0.0
175,0.0,0.0,0.0,0.4465224609375,0.0,0.0,0.0,0.0,0.0,0.0,0.195,0.0,0.0,0.0,0.0,0.0,0.0,0.4586898247448301,0.0,0.0,0.0,0.0,0.0,0.0,-12.552,0.0,0.0,0.0
176,0.0,0.0,0.0,0.448552734375,0.0,0.0,0.0,0.0,0.0,0.0,0.194,0.0,0.0,0.0,0.0,0.0,0.0,0.46063840848512716,0.0,0.0,0.0,0.0,0.0,0.0,-12.096,0.0,0.0,0.0
177,0.0,0.0,0.0,0.4504384765625,0.0,0.0,0.0,0.0,0.0,0.0,0.204,0.0,0.0,0.0,0.0,0.0,0.0,0.4625547308823964,0.0,0.0,0.0,0.0,0.0,0.0,-12.348,0.0,0.0,0.0
178,0.0,0.0,0.0,0.4523154296875,0.0,0.0,0.0,0.0,0.0,0.0,0.183,0.0,0.0,0.0,0.0,0.0,0.0,0.46444550028892556,0.0,0.0,0.0,0.0,0.0,0.0,-12.052,0.0,0.0,0.0
179,0.0,0.0,0.0,0.4542021484375,0.0,0.0,0.0,0.0,0.0,0.0,0.19,0.0,0.0,0.0,0.0,0.0,0.0,0.46634328412260506,0.0,0.0,0.0,0.0,0.0,0.0,-12.304,0.0,0.0,0.0
180,0.0,0.0,0.0,0.456078125,0.0,0.0,0.0,0.0,0.0,0.0,0.178,0.0,0.0,0.0,0.0,0.0,0.0,0.468233157603836,0.0,0.0,0.0,0.0,0.0,0.0,-11.776,0.0,0.0,0.0
181,0.0,0.0,0.0,0.45796484375,0.0,0.0,0.0,0.0,0.0,0.0,0.196,0.0,0.0,0.0,0.0,0.0,0.0,0.470095134992054,0.0,0.0,0.0,0.0,0.0,0.0,-12.256,0.0,0.0,0.0
182,0.0,0.0,0.0,0.459841796875,0.0,0.0,0.0,0.0,0.0,0.0,0.182,0.0,0.0,0.0,0.0,0.0,0.0,0.4719738589963038,0.0,0.0,0.0,0.0,0.0,0.0,-11.752,0.0,0.0,0.0
183,0.0,0.0,0.0,0.462015625,0.0,0.0,0.0,0.0,0.0,0.0,0.206,0.0,0.0,0.0,0.0,0.0,0.0,0.473826525130175,0.0,0.0,0.0,0.0,0.0,0.0,-12.508,0.0,0.0,0.0
184,0.0,0.0,0.0,0.46361328125,0.0,0.0,0.0,0.0,0.0,0.0,0.193,0.0,0.0,0.0,0.0,0.0,0.0,0.4756372258232593,0.0,0.0,0.0,0.0,0.0,0.0,-12.644,0.0,0.0,0.0
185,0.0,0.0,0.0,0.4657783203125,0.0,0.0,0.0,0.0,0.0,0.0,0.183,0.0,0.0,0.0,0.0,0.0,0.0,0.477444183979092,0.0,0.0,0.0,0.0,0.0,0.0,-12.852,0.0,0.0,0.0
186,0.0,0.0,0.0,0.467818359375,0.0,0.0,0.0,0.0,0.0,0.0,0.213,0.0,0.0,0.0,0.0,0.0,0.0,0.4792706552356934,0.0,0.0,0.0,0.0,0.0,0.0,-13.08,0.0,0.0,0.0
187,0.0,0.0,0.0,0.4698486328125,0.0,0.0,0.0,0.0,0.0,0.0,0.202,0.0,0.0,0.0,0.0,0.0,0.0,0.48107292676368785,0.0,0.0,0.0,0.0,0.0,0.0,-13.284,0.0,0.0,0.0
188,0.0,0.0,0.0,0.471869140625,0.0,0.0,0.0,0.0,0.0,0.0,0.205,0.0,0.0,0.0,0.0,0.0,0.0,0.4828588374576523,0.0,0.0,0.0,0.0,0.0,0.0,-13.424,0.0,0.0,0.0
189,0.0,0.0,0.0,0.4738994140625,0.0,0.0,0.0,0.0,0.0,0.0,0.203,0.0,0.0,0.0,0.0,0.0,0.0,0.4847106895926634,0.0,0.0,0.0,0.0,0.0,0.0,-13.628,0.0,0.0,0.0
190,0.0,0.0,0.0,0.4759208984375,0.0,0.0,0.0,0.0,0.0,0.0,0.206,0.0,0.0,0.0,0.0,0.0,0.0,0.486379861972276,0.0,0.0,0.0,0.0,0.0,0.0,-13.812,0.0,0.0,0.0
191,0.0,0.0,0.0,0.477806640625,0.0,0.0,0.0,0.0,0.0,0.0,0.193,0.0,0.0,0.0,0.0,0.0,0.0,0.4881340965375547,0.0,0.0,0.0,0.0,0.0,0.0,-13.468,0.0,0.0,0.0
192,0.0,0.0,0.0,0.4799814453125,0.0,0.0,0.0,0.0,0.0,0.0,0.203,0.0,0.0,0.0,0.0,0.0,0.0,0.4898826842886663,0.0,0.0,0.0,0.0,0.0,0.0,-13.08,0.0,0.0,0.0
193,0.0,0.0,0.0,0.4817138671875,0.0,0.0,0.0,0.0,0.0,0.0,0.206,0.0,0.0,0.0,0.0,0.0,0.0,0.4916014525867375,0.0,0.0,0.0,0.0,0.0,0.0,-13.356,0.0,0.0,0.0
194,0.0,0.0,0.0,0.483599609375,0.0,0.0,0.0,0.0,0.0,0.0,0.179,0.0,0.0,0.0,0.0,0.0,0.0,0.4933224468376828,0.0,0.0,0.0,0.0,0.0,0.0,-13.148,0.0,0.0,0.0
195,0.0,0.0,0.0,0.485486328125,0.0,0.0,0.0,0.0,0.0,0.0,0.191,0.0,0.0,0.0,0.0,0.0,0.0,0.49503128667847646,0.0,0.0,0.0,0.0,0.0,0.0,-12.804,0.0,0.0,0.0
196,0.0,0.0,0.0,0.4870830078125,0.0,0.0,0.0,0.0,0.0,0.0,0.172,0.0,0.0,0.0,0.0,0.0,0.0,0.49670814323382595,0.0,0.0,0.0,0.0,0.0,0.0,-12.324,0.0,0.0,0.0
197,0.0,0.0,0.0,0.4886708984375,0.0,0.0,0.0,0.0,0.0,0.0,0.163,0.0,0.0,0.0,0.0,0.0,0.0,0.49838948750615375,0.0,0.0,0.0,0.0,0.0,0.0,-12.392,0.0,0.0,0.0
198,0.0,0.0,0.0,0.4901240234375,0.0,0.0,0.0,0.0,0.0,0.0,0.154,0.0,0.0,0.0,0.0,0.0,0.0,0.5000509893119939,0.0,0.0,0.0,0.0,0.0,0.0,-12.028,0.0,0.0,0.0
199,0.0,0.0,0.0,0.4917119140625,0.0,0.0,0.0,0.0,0.0,0.0,0.154,0.0,0.0,0.0,0.0,0.0,0.0,0.5016990490474693,0.0,0.0,0.0,0.0,0.0,0.0,-12.304,0.0,0.0,0.0
200,0.0,0.0,0.0,0.4931650390625,0.0,0.0,0.0,0.0,0.0,0.0,0.154,0.0,0.0,0.0,0.0,0.0,0.0,0.5033442371381966,0.0,0.0,0.0,0.0,0.0,0.0,-12.532,0.0,0.0,0.0
201,0.0,0.0,0.0,0.4946083984375,0.0,0.0,0.0,0.0,0.0,0.0,0.135,0.0,0.0,0.0,0.0,0.0,0.0,0.5049835469040224,0.0,0.0,0.0,0.0,0.0,0.0,-12.188,0.0,0.0,0.0
202,0.0,0.0,0.0,0.4960615234375,0.0,0.0,0.0,0.0,0.0,0.0,0.149,0.0,0.0,0.0,0.0,0.0,0.0,0.5065777233891454,0.0,0.0,0.0,0.0,0.0,0.0,-12.164,0.0,0.0,0.0
203,0.0,0.0,0.0,0.4975048828125,0.0,0.0,0.0,0.0,0.0,0.0,0.145,0.0,0.0,0.0,0.0,0.0,0.0,0.5081871507835976,0.0,0.0,0.0,0.0,0.0,0.0,-12.028,0.0,0.0,0.0
204,0.0,0.0,0.0,0.4990927734375,0.0,0.0,0.0,0.0,0.0,0.0,0.155,0.0,0.0,0.0,0.0,0.0,0.0,0.5097774442364115,0.0,0.0,0.0,0.0,0.0,0.0,-11.936,0.0,0.0,0.0
205,0.0,0.0,0.0,0.5006904296875,0.0,0.0,0.0,0.0,0.0,0.0,0.159,0.0,0.0,0.0,0.0,0.0,0.0,0.511349277327044,0.0,0.0,0.0,0.0,0.0,0.0,-11.82,0.0,0.0,0.0
206,0.0,0.0,0.0,0.5024228515625,0.0,0.0,0.0,0.0,0.0,0.0,0.162,0.0,0.0,0.0,0.0,0.0,0.0,0.5129222333644319,0.0,0.0,0.0,0.0,0.0,0.0,-11.98,0.0,0.0,0.0
207,0.0,0.0,0.0,0.5038759765625,0.0,0.0,0.0,0.0,0.0,0.0,0.161,0.0,0.0,0.0,0.0,0.0,0.0,0.5144675541124433,0.0,0.0,0.0,0.0,0.0,0.0,-12.256,0.0,0.0,0.0
208,0.0,0.0,0.0,0.505328125,0.0,0.0,0.0,0.0,0.0,0.0,0.146,0.0,0.0,0.0,0.0,0.0,0.0,0.5160000928270706,0.0,0.0,0.0,0.0,0.0,0.0,-11.752,0.0,0.0,0.0
209,0.0,0.0,0.0,0.50692578125,0.0,0.0,0.0,0.0,0.0,0.0,0.153,0.0,0.0,0.0,0.0,0.0,0.0,0.5175269411126762,0.0,0.0,0.0,0.0,0.0,0.0,-12.096,0.0,0.0,0.0
210,0.0,0.0,0.0,0.508369140625,0.0,0.0,0.0,0.0,0.0,0.0,0.154,0.0,0.0,0.0,0.0,0.0,0.0,0.5190468378347269,0.0,0.0,0.0,0.0,0.0,0.0,-11.936,0.0,0.0,0.0
211,0.0,0.0,0.0,0.5101103515625,0.0,0.0,0.0,0.0,0.0,0.0,0.157,0.0,0.0,0.0,0.0,0.0,0.0,0.5205339422057119,0.0,0.0,0.0,0.0,0.0,0.0,-11.708,0.0,0.0,0.0
212,0.0,0.0,0.0,0.5115546875,0.0,0.0,0.0,0.0,0.0,0.0,0.163,0.0,0.0,0.0,0.0,0.0,0.0,0.5220220880669507,0.0,0.0,0.0,0.0,0.0,0.0,-12.072,0.0,0.0,0.0
213,0.0,0.0,0.0,0.5131513671875,0.0,0.0,0.0,0.0,0.0,0.0,0.145,0.0,0.0,0.0,0.0,0.0,0.0,0.5234951096588338,0.0,0.0,0.0,0.0,0.0,0.0,-11.684,0.0,0.0,0.0
214,0.0,0.0,0.0,0.514740234375,0.0,0.0,0.0,0.0,0.0,0.0,0.164,0.0,0.0,0.0,0.0,0.0,0.0,0.5249544444865432,0.0,0.0,0.0,0.0,0.0,0.0,-12.028,0.0,0.0,0.0
215,0.0,0.0,0.0,0.5160478515625,0.0,0.0,0.0,0.0,0.0,0.0,0.146,0.0,0.0,0.0,0.0,0.0,0.0,0.5264039848647952,0.0,0.0,0.0,0.0,0.0,0.0,-11.844,0.0,0.0,0.0
216,0.0,0.0,0.0,0.51763671875,0.0,0.0,0.0,0.0,0.0,0.0,0.149,0.0,0.0,0.0,0.0,0.0,0.0,0.5278247277997485,0.0,0.0,0.0,0.0,0.0,0.0,-11.892,0.0,0.0,0.0
217,0.0,0.0,0.0,0.5192333984375,0.0,0.0,0.0,0.0,0.0,0.0,0.161,0.0,0.0,0.0,0.0,0.0,0.0,0.5292645795024593,0.0,0.0,0.0,0.0,0.0,0.0,-11.98,0.0,0.0,0.0
218,0.0,0.0,0.0,0.5206767578125,0.0,0.0,0.0,0.0,0.0,0.0,0.151,0.0,0.0,0.0,0.0,0.0,0.0,0.5306533430430431,0.0,0.0,0.0,0.0,0.0,0.0,-12.212,0.0,0.0,0.0
219,0.0,0.0,0.0,0.52212109375,0.0,0.0,0.0,0.0,0.0,0.0,0.145,0.0,0.0,0.0,0.0,0.0,0.0,0.5320441204008748,0.0,0.0,0.0,0.0,0.0,0.0,-12.096,0.0,0.0,0.0
220,0.0,0.0,0.0,0.52387109375,0.0,0.0,0.0,0.0,0.0,0.0,0.157,0.0,0.0,0.0,0.0,0.0,0.0,0.5334311437297247,0.0,0.0,0.0,0.0,0.0,0.0,-12.096,0.0,0.0,0.0
221,0.0,0.0,0.0,0.5251708984375,0.0,0.0,0.0,0.0,0.0,0.0,0.156,0.0,0.0,0.0,0.0,0.0,0.0,0.5348019737412226,0.0,0.0,0.0,0.0,0.0,0.0,-12.508,0.0,0.0,0.0
222,0.0,0.0,0.0,0.526767578125,0.0,0.0,0.0,0.0,0.0,0.0,0.141,0.0,0.0,0.0,0.0,0.0,0.0,0.5361620180309079,0.0,0.0,0.0,0.0,0.0,0.0,-12.576,0.0,0.0,0.0
223,0.0,0.0,0.0,0.5283564453125,0.0,0.0,0.0,0.0,0.0,0.0,0.165,0.0,0.0,0.0,0.0,0.0,0.0,0.5374892305897188,0.0,0.0,0.0,0.0,0.0,0.0,-12.804,0.0,0.0,0.0
224,0.0,0.0,0.0,0.529953125,0.0,0.0,0.0,0.0,0.0,0.0,0.151,0.0,0.0,0.0,0.0,0.0,0.0,0.53881842748879,0.0,0.0,0.0,0.0,0.0,0.0,-12.784,0.0,0.0,0.0
225,0.0,0.0,0.0,0.5312529296875,0.0,0.0,0.0,0.0,0.0,0.0,0.156,0.0,0.0,0.0,0.0,0.0,0.0,0.540129397103464,0.0,0.0,0.0,0.0,0.0,0.0,-12.988,0.0,0.0,0.0
226,0.0,0.0,0.0,0.532705078125,0.0,0.0,0.0,0.0,0.0,0.0,0.136,0.0,0.0,0.0,0.0,0.0,0.0,0.541428971806002,0.0,0.0,0.0,0.0,0.0,0.0,-12.692,0.0,0.0,0.0
227,0.0,0.0,0.0,0.5341494140625,0.0,0.0,0.0,0.0,0.0,0.0,0.15,0.0,0.0,0.0,0.0,0.0,0.0,0.5427257463516614,0.0,0.0,0.0,0.0,0.0,0.0,-13.012,0.0,0.0,0.0
228,0.0,0.0,0.0,0.5355927734375,0.0,0.0,0.0,0.0,0.0,0.0,0.139,0.0,0.0,0.0,0.0,0.0,0.0,0.5439879950421831,0.0,0.0,0.0,0.0,0.0,0.0,-13.104,0.0,0.0,0.0
229,0.0,0.0,0.0,0.5370458984375,0.0,0.0,0.0,0.0,0.0,0.0,0.145,0.0,0.0,0.0,0.0,0.0,0.0,0.5452457267446517,0.0,0.0,0.0,0.0,0.0,0.0,-13.124,0.0,0.0,0.0
230,0.0,0.0,0.0,0.5386337890625,0.0,0.0,0.0,0.0,0.0,0.0,0.147,0.0,0.0,0.0,0.0,0.0,0.0,0.5465015144433221,0.0,0.0,0.0,0.0,0.0,0.0,-13.08,0.0,0.0,0.0
231,0.0,0.0,0.0,0.5399423828125,0.0,0.0,0.0,0.0,0.0,0.0,0.15,0.0,0.0,0.0,0.0,0.0,0.0,0.5477241651367379,0.0,0.0,0.0,0.0,0.0,0.0,-13.376,0.0,0.0,0.0
232,0.0,0.0,0.0,0.5413857421875,0.0,0.0,0.0,0.0,0.0,0.0,0.133,0.0,0.0,0.0,0.0,0.0,0.0,0.5489461391161008,0.0,0.0,0.0,0.0,0.0,0.0,-12.964,0.0,0.0,0.0
233,0.0,0.0,0.0,0.542703125,0.0,0.0,0.0,0.0,0.0,0.0,0.143,0.0,0.0,0.0,0.0,0.0,0.0,0.5501470176564522,0.0,0.0,0.0,0.0,0.0,0.0,-12.624,0.0,0.0,0.0
234,0.0,0.0,0.0,0.5440029296875,0.0,0.0,0.0,0.0,0.0,0.0,0.131,0.0,0.0,0.0,0.0,0.0,0.0,0.5513281778025723,0.0,0.0,0.0,0.0,0.0,0.0,-12.76,0.0,0.0,0.0
235,0.0,0.0,0.0,0.545158203125,0.0,0.0,0.0,0.0,0.0,0.0,0.12,0.0,0.0,0.0,0.0,0.0,0.0,0.5525149574322631,0.0,0.0,0.0,0.0,0.0,0.0,-12.44,0.0,0.0,0.0
236,0.0,0.0,0.0,0.546322265625,0.0,0.0,0.0,0.0,0.0,0.0,0.117,0.0,0.0,0.0,0.0,0.0,0.0,0.5536808515344649,0.0,0.0,0.0,0.0,0.0,0.0,-12.6,0.0,0.0,0.0
237,0.0,0.0,0.0,0.54733203125,0.0,0.0,0.0,0.0,0.0,0.0,0.11,0.0,0.0,0.0,0.0,0.0,0.0,0.5548261039659534,0.0,0.0,0.0,0.0,0.0,0.0,-12.212,0.0,0.0,0.0
238,0.0,0.0,0.0,0.5484873046875,0.0,0.0,0.0,0.0,0.0,0.0,0.11,0.0,0.0,0.0,0.0,0.0,0.0,0.5559600488499479,0.0,0.0,0.0,0.0,0.0,0.0,-12.072,0.0,0.0,0.0
239,0.0,0.0,0.0,0.5495068359375,0.0,0.0,0.0,0.0,0.0,0.0,0.107,0.0,0.0,0.0,0.0,0.0,0.0,0.5570868169116336,0.0,0.0,0.0,0.0,0.0,0.0,-11.892,0.0,0.0,0.0
240,0.0,0.0,0.0,0.550517578125,0.0,0.0,0.0,0.0,0.0,0.0,0.103,0.0,0.0,0.0,0.0,0.0,0.0,0.5581917012624152,0.0,0.0,0.0,0.0,0.0,0.0,-11.592,0.0,0.0,0.0
241,0.0,0.0,0.0,0.5515283203125,0.0,0.0,0.0,0.0,0.0,0.0,0.105,0.0,0.0,0.0,0.0,0.0,0.0,0.5592801770653812,0.0,0.0,0.0,0.0,0.0,0.0,-11.892,0.0,0.0,0.0
242,0.0,0.0,0.0,0.55239453125,0.0,0.0,0.0,0.0,0.0,0.0,0.088,0.0,0.0,0.0,0.0,0.0,0.0,0.5603647905624073,0.0,0.0,0.0,0.0,0.0,0.0,-11.684,0.0,0.0,0.0
243,0.0,0.0,0.0,0.55326953125,0.0,0.0,0.0,0.0,0.0,0.0,0.089,0.0,0.0,0.0,0.0,0.0,0.0,0.5614280411823429,0.0,0.0,0.0,0.0,0.0,0.0,-11.66,0.0,0.0,0.0
244,0.0,0.0,0.0,0.5541357421875,0.0,0.0,0.0,0.0,0.0,0.0,0.09,0.0,0.0,0.0,0.0,0.0,0.0,0.5624828615096253,0.0,0.0,0.0,0.0,0.0,0.0,-11.616,0.0,0.0,0.0
245,0.0,0.0,0.0,0.555001953125,0.0,0.0,0.0,0.0,0.0,0.0,0.087,0.0,0.0,0.0,0.0,0.0,0.0,0.5635137242419639,0.0,0.0,0.0,0.0,0.0,0.0,-11.296,0.0,0.0,0.0
246,0.0,0.0,0.0,0.5560126953125,0.0,0.0,0.0,0.0,0.0,0.0,0.098,0.0,0.0,0.0,0.0,0.0,0.0,0.5645434859593162,0.0,0.0,0.0,0.0,0.0,0.0,-11.32,0.0,0.0,0.0
247,0.0,0.0,0.0,0.5570322265625,0.0,0.0,0.0,0.0,0.0,0.0,0.095,0.0,0.0,0.0,0.0,0.0,0.0,0.5655513063845962,0.0,0.0,0.0,0.0,0.0,0.0,-11.48,0.0,0.0,0.0
248,0.0,0.0,0.0,0.5578984375,0.0,0.0,0.0,0.0,0.0,0.0,0.09,0.0,0.0,0.0,0.0,0.0,0.0,0.5665456320503826,0.0,0.0,0.0,0.0,0.0,0.0,-11.412,0.0,0.0,0.0
249,0.0,0.0,0.0,0.5589091796875,0.0,0.0,0.0,0.0,0.0,0.0,0.096,0.0,0.0,0.0,0.0,0.0,0.0,0.5675161746375887,0.0,0.0,0.0,0.0,0.0,0.0,-11.112,0.0,0.0,0.0
250,0.0,0.0,0.0,0.5599287109375,0.0,0.0,0.0,0.0,0.0,0.0,0.103,0.0,0.0,0.0,0.0,0.0,0.0,0.5684928857377151,0.0,0.0,0.0,0.0,0.0,0.0,-11.112,0.0,0.0,0.0
251,0.0,0.0,0.0,0.560939453125,0.0,0.0,0.0,0.0,0.0,0.0,0.1,0.0,0.0,0.0,0.0,0.0,0.0,0.569443164357937,0.0,0.0,0.0,0.0,0.0,0.0,-11.136,0.0,0.0,0.0
252,0.0,0.0,0.0,0.5618056640625,0.0,0.0,0.0,0.0,0.0,0.0,0.097,0.0,0.0,0.0,0.0,0.0,0.0,0.5703765586787527,0.0,0.0,0.0,0.0,0.0,0.0,-11.364,0.0,0.0,0.0
253,0.0,0.0,0.0,0.5628251953125,0.0,0.0,0.0,0.0,0.0,0.0,0.098,0.0,0.0,0.0,0.0,0.0,0.0,0.5713050158308011,0.0,0.0,0.0,0.0,0.0,0.0,-11.204,0.0,0.0,0.0
254,0.0,0.0,0.0,0.5639892578125,0.0,0.0,0.0,0.0,0.0,0.0,0.107,0.0,0.0,0.0,0.0,0.0,0.0,0.5722211121860203,0.0,0.0,0.0,0.0,0.0,0.0,-11.136,0.0,0.0,0.0
255,0.0,0.0,0.0,0.56514453125,0.0,0.0,0.0,0.0,0.0,0.0,0.113,0.0,0.0,0.0,0.0,0.0,0.0,0.5731044015995665,0.0,0.0,0.0,0.0,0.0,0.0,-11.34,0.0,0.0,0.0
256,0.0,0.0,0.0,0.5660107421875,0.0,0.0,0.0,0.0,0.0,0.0,0.106,0.0,0.0,0.0,0.0,0.0,0.0,0.5739877430880942,0.0,0.0,0.0,0.0,0.0,0.0,-11.8,0.0,0.0,0.0
257,0.0,0.0,0.0,0.5668857421875,0.0,0.0,0.0,0.0,0.0,0.0,0.086,0.0,0.0,0.0,0.0,0.0,0.0,0.5748775100772847,0.0,0.0,0.0,0.0,0.0,0.0,-12.028,0.0,0.0,0.0
258,0.0,0.0,0.0,0.567896484375,0.0,0.0,0.0,0.0,0.0,0.0,0.089,0.0,0.0,0.0,0.0,0.0,0.0,0.5757191178487775,0.0,0.0,0.0,0.0,0.0,0.0,-11.752,0.0,0.0,0.0
259,0.0,0.0,0.0,0.5689072265625,0.0,0.0,0.0,0.0,0.0,0.0,0.106,0.0,0.0,0.0,0.0,0.0,0.0,0.5765493914003303,0.0,0.0,0.0,0.0,0.0,0.0,-11.8,0.0,0.0,0.0
260,0.0,0.0,0.0,0.5699267578125,0.0,0.0,0.0,0.0,0.0,0.0,0.101,0.0,0.0,0.0,0.0,0.0,0.0,0.577370271998004,0.0,0.0,0.0,0.0,0.0,0.0,-11.66,0.0,0.0,0.0
261,0.0,0.0,0.0,0.57108203125,0.0,0.0,0.0,0.0,0.0,0.0,0.11,0.0,0.0,0.0,0.0,0.0,0.0,0.5781759823497297,0.0,0.0,0.0,0.0,0.0,0.0,-11.82,0.0,0.0,0.0
262,0.0,0.0,0.0,0.5720927734375,0.0,0.0,0.0,0.0,0.0,0.0,0.111,0.0,0.0,0.0,0.0,0.0,0.0,0.5789823125006338,0.0,0.0,0.0,0.0,0.0,0.0,-12.028,0.0,0.0,0.0
263,0.0,0.0,0.0,0.572958984375,0.0,0.0,0.0,0.0,0.0,0.0,0.101,0.0,0.0,0.0,0.0,0.0,0.0,0.5797596041759239,0.0,0.0,0.0,0.0,0.0,0.0,-12.324,0.0,0.0,0.0
264,0.0,0.0,0.0,0.573833984375,0.0,0.0,0.0,0.0,0.0,0.0,0.08,0.0,0.0,0.0,0.0,0.0,0.0,0.5805174896355939,0.0,0.0,0.0,0.0,0.0,0.0,-12.028,0.0,0.0,0.0
265,0.0,0.0,0.0,0.5745556640625,0.0,0.0,0.0,0.0,0.0,0.0,0.082,0.0,0.0,0.0,0.0,0.0,0.0,0.581266202397846,0.0,0.0,0.0,0.0,0.0,0.0,-11.98,0.0,0.0,0.0
266,0.0,0.0,0.0,0.5752783203125,0.0,0.0,0.0,0.0,0.0,0.0,0.071,0.0,0.0,0.0,0.0,0.0,0.0,0.5820069586491672,0.0,0.0,0.0,0.0,0.0,0.0,-11.732,0.0,0.0,0.0
267,0.0,0.0,0.0,0.576,0.0,0.0,0.0,0.0,0.0,0.0,0.076,0.0,0.0,0.0,0.0,0.0,0.0,0.5827275608678145,0.0,0.0,0.0,0.0,0.0,0.0,-11.844,0.0,0.0,0.0
268,0.0,0.0,0.0,0.57673046875,0.0,0.0,0.0,0.0,0.0,0.0,0.071,0.0,0.0,0.0,0.0,0.0,0.0,0.5834297416628302,0.0,0.0,0.0,0.0,0.0,0.0,-11.752,0.0,0.0,0.0
269,0.0,0.0,0.0,0.57730859375,0.0,0.0,0.0,0.0,0.0,0.0,0.064,0.0,0.0,0.0,0.0,0.0,0.0,0.5841304966408908,0.0,0.0,0.0,0.0,0.0,0.0,-11.844,0.0,0.0,0.0
270,0.0,0.0,0.0,0.5780302734375,0.0,0.0,0.0,0.0,0.0,0.0,0.063,0.0,0.0,0.0,0.0,0.0,0.0,0.5848055962848273,0.0,0.0,0.0,0.0,0.0,0.0,-11.412,0.0,0.0,0.0
271,0.0,0.0,0.0,0.578751953125,0.0,0.0,0.0,0.0,0.0,0.0,0.07,0.0,0.0,0.0,0.0,0.0,0.0,0.5854686788123197,0.0,0.0,0.0,0.0,0.0,0.0,-11.456,0.0,0.0,0.0
272,0.0,0.0,0.0,0.5794736328125,0.0,0.0,0.0,0.0,0.0,0.0,0.07,0.0,0.0,0.0,0.0,0.0,0.0,0.5861208778919434,0.0,0.0,0.0,0.0,0.0,0.0,-11.296,0.0,0.0,0.0
273,0.0,0.0,0.0,0.580205078125,0.0,0.0,0.0,0.0,0.0,0.0,0.073,0.0,0.0,0.0,0.0,0.0,0.0,0.5867502480346074,0.0,0.0,0.0,0.0,0.0,0.0,-11.5,0.0,0.0,0.0
274,0.0,0.0,0.0,0.5806376953125,0.0,0.0,0.0,0.0,0.0,0.0,0.065,0.0,0.0,0.0,0.0,0.0,0.0,0.5873670142122378,0.0,0.0,0.0,0.0,0.0,0.0,-11.5,0.0,0.0,0.0
275,0.0,0.0,0.0,0.5812158203125,0.0,0.0,0.0,0.0,0.0,0.0,0.054,0.0,0.0,0.0,0.0,0.0,0.0,0.5879795212629241,0.0,0.0,0.0,0.0,0.0,0.0,-11.364,0.0,0.0,0.0
276,0.0,0.0,0.0,0.5818017578125,0.0,0.0,0.0,0.0,0.0,0.0,0.057,0.0,0.0,0.0,0.0,0.0,0.0,0.5885669275508649,0.0,0.0,0.0,0.0,0.0,0.0,-11.252,0.0,0.0,0.0
277,0.0,0.0,0.0,0.5822353515625,0.0,0.0,0.0,0.0,0.0,0.0,0.047,0.0,0.0,0.0,0.0,0.0,0.0,0.5891433879413464,0.0,0.0,0.0,0.0,0.0,0.0,-11.16,0.0,0.0,0.0
278,0.0,0.0,0.0,0.58295703125,0.0,0.0,0.0,0.0,0.0,0.0,0.054,0.0,0.0,0.0,0.0,0.0,0.0,0.5897081700082594,0.0,0.0,0.0,0.0,0.0,0.0,-11.32,0.0,0.0,0.0
279,0.0,0.0,0.0,0.58354296875,0.0,0.0,0.0,0.0,0.0,0.0,0.063,0.0,0.0,0.0,0.0,0.0,0.0,0.590253320401887,0.0,0.0,0.0,0.0,0.0,0.0,-11.18,0.0,0.0,0.0
280,0.0,0.0,0.0,0.5844091796875,0.0,0.0,0.0,0.0,0.0,0.0,0.074,0.0,0.0,0.0,0.0,0.0,0.0,0.5907772477567733,0.0,0.0,0.0,0.0,0.0,0.0,-11.5,0.0,0.0,0.0
281,0.0,0.0,0.0,0.5848427734375,0.0,0.0,0.0,0.0,0.0,0.0,0.068,0.0,0.0,0.0,0.0,0.0,0.0,0.5912999954882152,0.0,0.0,0.0,0.0,0.0,0.0,-11.616,0.0,0.0,0.0
282,0.0,0.0,0.0,0.585419921875,0.0,0.0,0.0,0.0,0.0,0.0,0.053,0.0,0.0,0.0,0.0,0.0,0.0,0.5917976329643895,0.0,0.0,0.0,0.0,0.0,0.0,-11.8,0.0,0.0,0.0
283,0.0,0.0,0.0,0.585998046875,0.0,0.0,0.0,0.0,0.0,0.0,0.054,0.0,0.0,0.0,0.0,0.0,0.0,0.5922855505765927,0.0,0.0,0.0,0.0,0.0,0.0,-11.732,0.0,0.0,0.0
284,0.0,0.0,0.0,0.5865751953125,0.0,0.0,0.0,0.0,0.0,0.0,0.055,0.0,0.0,0.0,0.0,0.0,0.0,0.5927560866082016,0.0,0.0,0.0,0.0,0.0,0.0,-11.868,0.0,0.0,0.0
285,0.0,0.0,0.0,0.587162109375,0.0,0.0,0.0,0.0,0.0,0.0,0.059,0.0,0.0,0.0,0.0,0.0,0.0,0.5932164957372924,0.0,0.0,0.0,0.0,0.0,0.0,-11.96,0.0,0.0,0.0
286,0.0,0.0,0.0,0.5877392578125,0.0,0.0,0.0,0.0,0.0,0.0,0.057,0.0,0.0,0.0,0.0,0.0,0.0,0.5936610531195399,0.0,0.0,0.0,0.0,0.0,0.0,-11.912,0.0,0.0,0.0
287,0.0,0.0,0.0,0.58831640625,0.0,0.0,0.0,0.0,0.0,0.0,0.062,0.0,0.0,0.0,0.0,0.0,0.0,0.5940875081864266,0.0,0.0,0.0,0.0,0.0,0.0,-12.072,0.0,0.0,0.0
288,0.0,0.0,0.0,0.58889453125,0.0,0.0,0.0,0.0,0.0,0.0,0.054,0.0,0.0,0.0,0.0,0.0,0.0,0.5945009246145806,0.0,0.0,0.0,0.0,0.0,0.0,-12.096,0.0,0.0,0.0
289,0.0,0.0,0.0,0.5894716796875,0.0,0.0,0.0,0.0,0.0,0.0,0.055,0.0,0.0,0.0,0.0,0.0,0.0,0.5948923686405799,0.0,0.0,0.0,0.0,0.0,0.0,-12.14,0.0,0.0,0.0
290,0.0,0.0,0.0,0.590048828125,0.0,0.0,0.0,0.0,0.0,0.0,0.058,0.0,0.0,0.0,0.0,0.0,0.0,0.5952788820622499,0.0,0.0,0.0,0.0,0.0,0.0,-12.164,0.0,0.0,0.0
291,0.0,0.0,0.0,0.5904912109375,0.0,0.0,0.0,0.0,0.0,0.0,0.056,0.0,0.0,0.0,0.0,0.0,0.0,0.5956507892956375,0.0,0.0,0.0,0.0,0.0,0.0,-12.372,0.0,0.0,0.0
292,0.0,0.0,0.0,0.5909248046875,0.0,0.0,0.0,0.0,0.0,0.0,0.05,0.0,0.0,0.0,0.0,0.0,0.0,0.5959986833039749,0.0,0.0,0.0,0.0,0.0,0.0,-12.484,0.0,0.0,0.0
293,0.0,0.0,0.0,0.591357421875,0.0,0.0,0.0,0.0,0.0,0.0,0.043,0.0,0.0,0.0,0.0,0.0,0.0,0.5963392036390099,0.0,0.0,0.0,0.0,0.0,0.0,-12.624,0.0,0.0,0.0
294,0.0,0.0,0.0,0.591646484375,0.0,0.0,0.0,0.0,0.0,0.0,0.035,0.0,0.0,0.0,0.0,0.0,0.0,0.5966655460408248,0.0,0.0,0.0,0.0,0.0,0.0,-12.348,0.0,0.0,0.0
295,0.0,0.0,0.0,0.5920791015625,0.0,0.0,0.0,0.0,0.0,0.0,0.037,0.0,0.0,0.0,0.0,0.0,0.0,0.5969698651887574,0.0,0.0,0.0,0.0,0.0,0.0,-12.44,0.0,0.0,0.0
296,0.0,0.0,0.0,0.5925126953125,0.0,0.0,0.0,0.0,0.0,0.0,0.038,0.0,0.0,0.0,0.0,0.0,0.0,0.5972653860958911,0.0,0.0,0.0,0.0,0.0,0.0,-12.372,0.0,0.0,0.0
297,0.0,0.0,0.0,0.5928017578125,0.0,0.0,0.0,0.0,0.0,0.0,0.038,0.0,0.0,0.0,0.0,0.0,0.0,0.5975437701163785,0.0,0.0,0.0,0.0,0.0,0.0,-12.484,0.0,0.0,0.0
298,0.0,0.0,0.0,0.593234375,0.0,0.0,0.0,0.0,0.0,0.0,0.035,0.0,0.0,0.0,0.0,0.0,0.0,0.5978060633850616,0.0,0.0,0.0,0.0,0.0,0.0,-12.44,0.0,0.0,0.0
299,0.0,0.0,0.0,0.5935234375,0.0,0.0,0.0,0.0,0.0,0.0,0.03,0.0,0.0,0.0,0.0,0.0,0.0,0.5980560157672041,0.0,0.0,0.0,0.0,0.0,0.0,-12.464,0.0,0.0,0.0
300,0.0,0.0,0.0,0.59366796875,0.0,0.0,0.0,0.0,0.0,0.0,0.027,0.0,0.0,0.0,0.0,0.0,0.0,0.5982893194351548,0.0,0.0,0.0,0.0,0.0,0.0,-12.348,0.0,0.0,0.0
301,0.0,0.0,0.0,0.5939658203125,0.0,0.0,0.0,0.0,0.0,0.0,0.026,0.0,0.0,0.0,0.0,0.0,0.0,0.5985092967539776,0.0,0.0,0.0,0.0,0.0,0.0,-12.324,0.0,0.0,0.0
302,0.0,0.0,0.0,0.59425390625,0.0,0.0,0.0,0.0,0.0,0.0,0.03,0.0,0.0,0.0,0.0,0.0,0.0,0.598713648137815,0.0,0.0,0.0,0.0,0.0,0.0,-12.464,0.0,0.0,0.0
303,0.0,0.0,0.0,0.59454296875,0.0,0.0,0.0,0.0,0.0,0.0,0.021,0.0,0.0,0.0,0.0,0.0,0.0,0.5989001231276849,0.0,0.0,0.0,0.0,0.0,0.0,-12.372,0.0,0.0,0.0
304,0.0,0.0,0.0,0.5946875,0.0,0.0,0.0,0.0,0.0,0.0,0.023,0.0,0.0,0.0,0.0,0.0,0.0,0.5990759205719599,0.0,0.0,0.0,0.0,0.0,0.0,-12.484,0.0,0.0,0.0
305,0.0,0.0,0.0,0.59483203125,0.0,0.0,0.0,0.0,0.0,0.0,0.017,0.0,0.0,0.0,0.0,0.0,0.0,0.599234365564265,0.0,0.0,0.0,0.0,0.0,0.0,-12.416,0.0,0.0,0.0
306,0.0,0.0,0.0,0.5949755859375,0.0,0.0,0.0,0.0,0.0,0.0,0.017,0.0,0.0,0.0,0.0,0.0,0.0,0.5993788175050583,0.0,0.0,0.0,0.0,0.0,0.0,-12.464,0.0,0.0,0.0
307,0.0,0.0,0.0,0.5951201171875,0.0,0.0,0.0,0.0,0.0,0.0,0.01,0.0,0.0,0.0,0.0,0.0,0.0,0.5995077779029465,0.0,0.0,0.0,0.0,0.0,0.0,-12.552,0.0,0.0,0.0
308,0.0,0.0,0.0,0.5951201171875,0.0,0.0,0.0,0.0,0.0,0.0,0.01,0.0,0.0,0.0,0.0,0.0,0.0,0.599621222937102,0.0,0.0,0.0,0.0,0.0,0.0,-12.552,0.0,0.0,0.0
309,0.0,0.0,0.0,0.5952646484375,0.0,0.0,0.0,0.0,0.0,0.0,0.01,0.0,0.0,0.0,0.0,0.0,0.0,0.5997202087087208,0.0,0.0,0.0,0.0,0.0,0.0,-12.532,0.0,0.0,0.0
310,0.0,0.0,0.0,0.5954091796875,0.0,0.0,0.0,0.0,0.0,0.0,0.013,0.0,0.0,0.0,0.0,0.0,0.0,0.5998048550832555,0.0,0.0,0.0,0.0,0.0,0.0,-12.416,0.0,0.0,0.0
311,0.0,0.0,0.0,0.5955537109375,0.0,0.0,0.0,0.0,0.0,0.0,0.015,0.0,0.0,0.0,0.0,0.0,0.0,0.5998734522104952,0.0,0.0,0.0,0.0,0.0,0.0,-12.416,0.0,0.0,0.0
312,0.0,0.0,0.0,0.5958427734375,0.0,0.0,0.0,0.0,0.0,0.0,0.022,0.0,0.0,0.0,0.0,0.0,0.0,0.5999282064148385,0.0,0.0,0.0,0.0,0.0,0.0,-12.324,0.0,0.0,0.0
313,0.0,0.0,0.0,0.595986328125,0.0,0.0,0.0,0.0,0.0,0.0,0.02,0.0,0.0,0.0,0.0,0.0,0.0,0.5999666994309061,0.0,0.0,0.0,0.0,0.0,0.0,-12.416,0.0,0.0,0.0
314,0.0,0.0,0.0,0.596130859375,0.0,0.0,0.0,0.0,0.0,0.0,0.014,0.0,0.0,0.0,0.0,0.0,0.0,0.5999908247126666,0.0,0.0,0.0,0.0,0.0,0.0,-12.644,0.0,0.0,0.0
315,0.0,0.0,0.0,0.596130859375,0.0,0.0,0.0,0.0,0.0,0.0,0.009,0.0,0.0,0.0,0.0,0.0,0.0,0.5999999175146229,0.0,0.0,0.0,0.0,0.0,0.0,-12.576,0.0,0.0,0.0
316,0.0,0.0,0.0,0.596130859375,0.0,0.0,0.0,0.0,0.0,0.0,-0.001,0.0,0.0,0.0,0.0,0.0,0.0,0.5999938486086415,0.0,0.0,0.0,0.0,0.0,0.0,-12.552,0.0,0.0,0.0
317,0.0,0.0,0.0,0.596130859375,0.0,0.0,0.0,0.0,0.0,0.0,-0.001,0.0,0.0,0.0,0.0,0.0,0.0,0.5999732337622458,0.0,0.0,0.0,0.0,0.0,0.0,-12.484,0.0,0.0,0.0
318,0.0,0.0,0.0,0.596130859375,0.0,0.0,0.0,0.0,0.0,0.0,-0.001,0.0,0.0,0.0,0.0,0.0,0.0,0.5999369680475084,0.0,0.0,0.0,0.0,0.0,0.0,-12.372,0.0,0.0,0.0
319,0.0,0.0,0.0,0.596275390625,0.0,0.0,0.0,0.0,0.0,0.0,0.003,0.0,0.0,0.0,0.0,0.0,0.0,0.5998854224753113,0.0,0.0,0.0,0.0,0.0,0.0,-12.392,0.0,0.0,0.0
320,0.0,0.0,0.0,0.596419921875,0.0,0.0,0.0,0.0,0.0,0.0,0.015,0.0,0.0,0.0,0.0,0.0,0.0,0.5998208711401697,0.0,0.0,0.0,0.0,0.0,0.0,-12.324,0.0,0.0,0.0
321,0.0,0.0,0.0,0.596564453125,0.0,0.0,0.0,0.0,0.0,0.0,0.014,0.0,0.0,0.0,0.0,0.0,0.0,0.5997388438588157,0.0,0.0,0.0,0.0,0.0,0.0,-12.508,0.0,0.0,0.0
322,0.0,0.0,0.0,0.596564453125,0.0,0.0,0.0,0.0,0.0,0.0,0.01,0.0,0.0,0.0,0.0,0.0,0.0,0.5996435143442945,0.0,0.0,0.0,0.0,0.0,0.0,-12.624,0.0,0.0,0.0
323,0.0,0.0,0.0,0.596564453125,0.0,0.0,0.0,0.0,0.0,0.0,-0.001,0.0,0.0,0.0,0.0,0.0,0.0,0.5995329644643006,0.0,0.0,0.0,0.0,0.0,0.0,-12.668,0.0,0.0,0.0
324,0.0,0.0,0.0,0.596564453125,0.0,0.0,0.0,0.0,0.0,0.0,-0.001,0.0,0.0,0.0,0.0,0.0,0.0,0.5994061111279434,0.0,0.0,0.0,0.0,0.0,0.0,-12.6,0.0,0.0,0.0
325,0.0,0.0,0.0,0.596564453125,0.0,0.0,0.0,0.0,0.0,0.0,-0.001,0.0,0.0,0.0,0.0,0.0,0.0,0.5992656190391056,0.0,0.0,0.0,0.0,0.0,0.0,-12.552,0.0,0.0,0.0
326,0.0,0.0,0.0,0.596564453125,0.0,0.0,0.0,0.0,0.0,0.0,-0.001,0.0,0.0,0.0,0.0,0.0,0.0,0.599110951566872,0.0,0.0,0.0,0.0,0.0,0.0,-12.508,0.0,0.0,0.0
327,0.0,0.0,0.0,0.596564453125,0.0,0.0,0.0,0.0,0.0,0.0,-0.001,0.0,0.0,0.0,0.0,0.0,0.0,0.5989387478165079,0.0,0.0,0.0,0.0,0.0,0.0,-12.576,0.0,0.0,0.0
328,0.0,0.0,0.0,0.596564453125,0.0,0.0,0.0,0.0,0.0,0.0,-0.001,0.0,0.0,0.0,0.0,0.0,0.0,0.5987503183966281,0.0,0.0,0.0,0.0,0.0,0.0,-12.624,0.0,0.0,0.0
329,0.0,0.0,0.0,0.596564453125,0.0,0.0,0.0,0.0,0.0,0.0,-0.001,0.0,0.0,0.0,0.0,0.0,0.0,0.5985531065810894,0.0,0.0,0.0,0.0,0.0,0.0,-12.692,0.0,0.0,0.0
330,0.0,0.0,0.0,0.596564453125,0.0,0.0,0.0,0.0,0.0,0.0,-0.001,0.0,0.0,0.0,0.0,0.0,0.0,0.5983373392391566,0.0,0.0,0.0,0.0,0.0,0.0,-12.624,0.0,0.0,0.0
331,0.0,0.0,0.0,0.596564453125,0.0,0.0,0.0,0.0,0.0,0.0,-0.001,0.0,0.0,0.0,0.0,0.0,0.0,0.5981037699792673,0.0,0.0,0.0,0.0,0.0,0.0,-12.508,0.0,0.0,0.0
332,0.0,0.0,0.0,0.596564453125,0.0,0.0,0.0,0.0,0.0,0.0,-0.001,0.0,0.0,0.0,0.0,0.0,0.0,0.5978591389645713,0.0,0.0,0.0,0.0,0.0,0.0,-12.624,0.0,0.0,0.0
333,0.0,0.0,0.0,0.596564453125,0.0,0.0,0.0,0.0,0.0,0.0,-0.001,0.0,0.0,0.0,0.0,0.0,0.0,0.5975985737404569,0.0,0.0,0.0,0.0,0.0,0.0,-12.532,0.0,0.0,0.0
334,0.0,0.0,0.0,0.596419921875,0.0,0.0,0.0,0.0,0.0,0.0,-0.008,0.0,0.0,0.0,0.0,0.0,0.0,0.5973230469751454,0.0,0.0,0.0,0.0,0.0,0.0,-12.392,0.0,0.0,0.0
335,0.0,0.0,0.0,0.596419921875,0.0,0.0,0.0,0.0,0.0,0.0,-0.009,0.0,0.0,0.0,0.0,0.0,0.0,0.5970355221915076,0.0,0.0,0.0,0.0,0.0,0.0,-12.464,0.0,0.0,0.0
336,0.0,0.0,0.0,0.596419921875,0.0,0.0,0.0,0.0,0.0,0.0,-0.001,0.0,0.0,0.0,0.0,0.0,0.0,0.5967287714159513,0.0,0.0,0.0,0.0,0.0,0.0,-12.464,0.0,0.0,0.0
337,0.0,0.0,0.0,0.596564453125,0.0,0.0,0.0,0.0,0.0,0.0,0.009,0.0,0.0,0.0,0.0,0.0,0.0,0.5964022737940939,0.0,0.0,0.0,0.0,0.0,0.0,-12.416,0.0,0.0,0.0
338,0.0,0.0,0.0,0.596564453125,0.0,0.0,0.0,0.0,0.0,0.0,0.006,0.0,0.0,0.0,0.0,0.0,0.0,0.5960729870361041,0.0,0.0,0.0,0.0,0.0,0.0,-12.532,0.0,0.0,0.0
339,0.0,0.0,0.0,0.596564453125,0.0,0.0,0.0,0.0,0.0,0.0,-0.001,0.0,0.0,0.0,0.0,0.0,0.0,0.5957215774149115,0.0,0.0,0.0,0.0,0.0,0.0,-12.552,0.0,0.0,0.0
340,0.0,0.0,0.0,0.596564453125,0.0,0.0,0.0,0.0,0.0,0.0,-0.001,0.0,0.0,0.0,0.0,0.0,0.0,0.5953590039125102,0.0,0.0,0.0,0.0,0.0,0.0,-12.736,0.0,0.0,0.0
341,0.0,0.0,0.0,0.596419921875,0.0,0.0,0.0,0.0,0.0,0.0,-0.011,0.0,0.0,0.0,0.0,0.0,0.0,0.5949803142905925,0.0,0.0,0.0,0.0,0.0,0.0,-12.552,0.0,0.0,0.0
342,0.0,0.0,0.0,0.596419921875,0.0,0.0,0.0,0.0,0.0,0.0,-0.004,0.0,0.0,0.0,0.0,0.0,0.0,0.5945845481215247,0.0,0.0,0.0,0.0,0.0,0.0,-12.668,0.0,0.0,0.0
343,0.0,0.0,0.0,0.596419921875,0.0,0.0,0.0,0.0,0.0,0.0,-0.001,0.0,0.0,0.0,0.0,0.0,0.0,0.5941676607127867,0.0,0.0,0.0,0.0,0.0,0.0,-12.872,0.0,0.0,0.0
344,0.0,0.0,0.0,0.596130859375,0.0,0.0,0.0,0.0,0.0,0.0,-0.014,0.0,0.0,0.0,0.0,0.0,0.0,0.5937516001422016,0.0,0.0,0.0,0.0,0.0,0.0,-13.216,0.0,0.0,0.0
345,0.0,0.0,0.0,0.5956982421875,0.0,0.0,0.0,0.0,0.0,0.0,-0.037,0.0,0.0,0.0,0.0,0.0,0.0,0.5933095721230399,0.0,0.0,0.0,0.0,0.0,0.0,-13.468,0.0,0.0,0.0
346,0.0,0.0,0.0,0.5952646484375,0.0,0.0,0.0,0.0,0.0,0.0,-0.048,0.0,0.0,0.0,0.0,0.0,0.0,0.592853417811773,0.0,0.0,0.0,0.0,0.0,0.0,-13.124,0.0,0.0,0.0
347,0.0,0.0,0.0,0.5946875,0.0,0.0,0.0,0.0,0.0,0.0,-0.048,0.0,0.0,0.0,0.0,0.0,0.0,0.5923905949158355,0.0,0.0,0.0,0.0,0.0,0.0,-13.216,0.0,0.0,0.0
348,0.0,0.0,0.0,0.594109375,0.0,0.0,0.0,0.0,0.0,0.0,-0.057,0.0,0.0,0.0,0.0,0.0,0.0,0.5919021667643348,0.0,0.0,0.0,0.0,0.0,0.0,-12.944,0.0,0.0,0.0
349,0.0,0.0,0.0,0.5938212890625,0.0,0.0,0.0,0.0,0.0,0.0,-0.043,0.0,0.0,0.0,0.0,0.0,0.0,0.5914029367361603,0.0,0.0,0.0,0.0,0.0,0.0,-12.804,0.0,0.0,0.0
350,0.0,0.0,0.0,0.59337890625,0.0,0.0,0.0,0.0,0.0,0.0,-0.035,0.0,0.0,0.0,0.0,0.0,0.0,0.5908921263778625,0.0,0.0,0.0,0.0,0.0,0.0,-12.76,0.0,0.0,0.0
351,0.0,0.0,0.0,0.5929453125,0.0,0.0,0.0,0.0,0.0,0.0,-0.041,0.0,0.0,0.0,0.0,0.0,0.0,0.5903658232537585,0.0,0.0,0.0,0.0,0.0,0.0,-12.988,0.0,0.0,0.0
352,0.0,0.0,0.0,0.5925126953125,0.0,0.0,0.0,0.0,0.0,0.0,-0.048,0.0,0.0,0.0,0.0,0.0,0.0,0.589818222728122,0.0,0.0,0.0,0.0,0.0,0.0,-12.92,0.0,0.0,0.0
353,0.0,0.0,0.0,0.591935546875,0.0,0.0,0.0,0.0,0.0,0.0,-0.054,0.0,0.0,0.0,0.0,0.0,0.0,0.5892670707400981,0.0,0.0,0.0,0.0,0.0,0.0,-13.104,0.0,0.0,0.0
354,0.0,0.0,0.0,0.591212890625,0.0,0.0,0.0,0.0,0.0,0.0,-0.067,0.0,0.0,0.0,0.0,0.0,0.0,0.5886908725640163,0.0,0.0,0.0,0.0,0.0,0.0,-12.944,0.0,0.0,0.0
355,0.0,0.0,0.0,0.5906357421875,0.0,0.0,0.0,0.0,0.0,0.0,-0.066,0.0,0.0,0.0,0.0,0.0,0.0,0.5881033140820864,0.0,0.0,0.0,0.0,0.0,0.0,-12.44,0.0,0.0,0.0
356,0.0,0.0,0.0,0.590048828125,0.0,0.0,0.0,0.0,0.0,0.0,-0.056,0.0,0.0,0.0,0.0,0.0,0.0,0.5874935486419558,0.0,0.0,0.0,0.0,0.0,0.0,-12.668,0.0,0.0,0.0
357,0.0,0.0,0.0,0.5893271484375,0.0,0.0,0.0,0.0,0.0,0.0,-0.067,0.0,0.0,0.0,0.0,0.0,0.0,0.5868834232668038,0.0,0.0,0.0,0.0,0.0,0.0,-12.712,0.0,0.0,0.0
358,0.0,0.0,0.0,0.58860546875,0.0,0.0,0.0,0.0,0.0,0.0,-0.063,0.0,0.0,0.0,0.0,0.0,0.0,0.5862460987955234,0.0,0.0,0.0,0.0,0.0,0.0,-12.804,0.0,0.0,0.0
359,0.0,0.0,0.0,0.5877392578125,0.0,0.0,0.0,0.0,0.0,0.0,-0.079,0.0,0.0,0.0,0.0,0.0,0.0,0.5855991317717985,0.0,0.0,0.0,0.0,0.0,0.0,-12.872,0.0,0.0,0.0
360,0.0,0.0,0.0,0.587162109375,0.0,0.0,0.0,0.0,0.0,0.0,-0.081,0.0,0.0,0.0,0.0,0.0,0.0,0.5849474329402953,0.0,0.0,0.0,0.0,0.0,0.0,-12.6,0.0,0.0,0.0
361,0.0,0.0,0.0,0.5864306640625,0.0,0.0,0.0,0.0,0.0,0.0,-0.065,0.0,0.0,0.0,0.0,0.0,0.0,0.5842720160758759,0.0,0.0,0.0,0.0,0.0,0.0,-12.464,0.0,0.0,0.0
362,0.0,0.0,0.0,0.585853515625,0.0,0.0,0.0,0.0,0.0,0.0,-0.064,0.0,0.0,0.0,0.0,0.0,0.0,0.5835842211467269,0.0,0.0,0.0,0.0,0.0,0.0,-12.6,0.0,0.0,0.0
363,0.0,0.0,0.0,0.5849873046875,0.0,0.0,0.0,0.0,0.0,0.0,-0.079,0.0,0.0,0.0,0.0,0.0,0.0,0.5828755540792825,0.0,0.0,0.0,0.0,0.0,0.0,-12.6,0.0,0.0,0.0
364,0.0,0.0,0.0,0.584265625,0.0,0.0,0.0,0.0,0.0,0.0,-0.08,0.0,0.0,0.0,0.0,0.0,0.0,0.5821578989320468,0.0,0.0,0.0,0.0,0.0,0.0,-12.304,0.0,0.0,0.0
365,0.0,0.0,0.0,0.5836875,0.0,0.0,0.0,0.0,0.0,0.0,-0.068,0.0,0.0,0.0,0.0,0.0,0.0,0.5814204593728429,0.0,0.0,0.0,0.0,0.0,0.0,-12.052,0.0,0.0,0.0
366,0.0,0.0,0.0,0.5828125,0.0,0.0,0.0,0.0,0.0,0.0,-0.066,0.0,0.0,0.0,0.0,0.0,0.0,0.5806761240677555,0.0,0.0,0.0,0.0,0.0,0.0,-12.256,0.0,0.0,0.0
367,0.0,0.0,0.0,0.5819462890625,0.0,0.0,0.0,0.0,0.0,0.0,-0.083,0.0,0.0,0.0,0.0,0.0,0.0,0.5799133218180301,0.0,0.0,0.0,0.0,0.0,0.0,-12.372,0.0,0.0,0.0
368,0.0,0.0,0.0,0.5812158203125,0.0,0.0,0.0,0.0,0.0,0.0,-0.083,0.0,0.0,0.0,0.0,0.0,0.0,0.5791256501890285,0.0,0.0,0.0,0.0,0.0,0.0,-12.576,0.0,0.0,0.0
369,0.0,0.0,0.0,0.5804931640625,0.0,0.0,0.0,0.0,0.0,0.0,-0.074,0.0,0.0,0.0,0.0,0.0,0.0,0.578347407269875,0.0,0.0,0.0,0.0,0.0,0.0,-12.304,0.0,0.0,0.0
370,0.0,0.0,0.0,0.5799072265625,0.0,0.0,0.0,0.0,0.0,0.0,-0.072,0.0,0.0,0.0,0.0,0.0,0.0,0.5775417746157269,0.0,0.0,0.0,0.0,0.0,0.0,-11.936,0.0,0.0,0.0
371,0.0,0.0,0.0,0.579041015625,0.0,0.0,0.0,0.0,0.0,0.0,-0.069,0.0,0.0,0.0,0.0,0.0,0.0,0.5766800445727217,0.0,0.0,0.0,0.0,0.0,0.0,-12.12,0.0,0.0,0.0
372,0.0,0.0,0.0,0.5781748046875,0.0,0.0,0.0,0.0,0.0,0.0,-0.086,0.0,0.0,0.0,0.0,0.0,0.0,0.5758871207432293,0.0,0.0,0.0,0.0,0.0,0.0,-12.28,0.0,0.0,0.0
373,0.0,0.0,0.0,0.5774521484375,0.0,0.0,0.0,0.0,0.0,0.0,-0.084,0.0,0.0,0.0,0.0,0.0,0.0,0.5750338083326216,0.0,0.0,0.0,0.0,0.0,0.0,-12.76,0.0,0.0,0.0
374,0.0,0.0,0.0,0.5764326171875,0.0,0.0,0.0,0.0,0.0,0.0,-0.087,0.0,0.0,0.0,0.0,0.0,0.0,0.5741720622043018,0.0,0.0,0.0,0.0,0.0,0.0,-12.736,0.0,0.0,0.0
375,0.0,0.0,0.0,0.5757109375,0.0,0.0,0.0,0.0,0.0,0.0,-0.086,0.0,0.0,0.0,0.0,0.0,0.0,0.57329840635589,0.0,0.0,0.0,0.0,0.0,0.0,-12.28,0.0,0.0,0.0
376,0.0,0.0,0.0,0.5751337890625,0.0,0.0,0.0,0.0,0.0,0.0,-0.069,0.0,0.0,0.0,0.0,0.0,0.0,0.572408218152736,0.0,0.0,0.0,0.0,0.0,0.0,-12.232,0.0,0.0,0.0
377,0.0,0.0,0.0,0.574123046875,0.0,0.0,0.0,0.0,0.0,0.0,-0.075,0.0,0.0,0.0,0.0,0.0,0.0,0.5714901025111977,0.0,0.0,0.0,0.0,0.0,0.0,-12.6,0.0,0.0,0.0
378,0.0,0.0,0.0,0.573103515625,0.0,0.0,0.0,0.0,0.0,0.0,-0.099,0.0,0.0,0.0,0.0,0.0,0.0,0.5705714056636626,0.0,0.0,0.0,0.0,0.0,0.0,-12.804,0.0,0.0,0.0
379,0.0,0.0,0.0,0.5720927734375,0.0,0.0,0.0,0.0,0.0,0.0,-0.103,0.0,0.0,0.0,0.0,0.0,0.0,0.5696294811263422,0.0,0.0,0.0,0.0,0.0,0.0,-12.576,0.0,0.0,0.0
380,0.0,0.0,0.0,0.5712265625,0.0,0.0,0.0,0.0,0.0,0.0,-0.101,0.0,0.0,0.0,0.0,0.0,0.0,0.5685357649329842,0.0,0.0,0.0,0.0,0.0,0.0,-12.052,0.0,0.0,0.0
381,0.0,0.0,0.0,0.5705048828125,0.0,0.0,0.0,0.0,0.0,0.0,-0.08,0.0,0.0,0.0,0.0,0.0,0.0,0.5677357147195976,0.0,0.0,0.0,0.0,0.0,0.0,-12.096,0.0,0.0,0.0
382,0.0,0.0,0.0,0.56962890625,0.0,0.0,0.0,0.0,0.0,0.0,-0.081,0.0,0.0,0.0,0.0,0.0,0.0,0.5667582934719186,0.0,0.0,0.0,0.0,0.0,0.0,-12.14,0.0,0.0,0.0
383,0.0,0.0,0.0,0.568619140625,0.0,0.0,0.0,0.0,0.0,0.0,-0.085,0.0,0.0,0.0,0.0,0.0,0.0,0.5657509418113382,0.0,0.0,0.0,0.0,0.0,0.0,-13.216,0.0,0.0,0.0
384,0.0,0.0,0.0,0.5673193359375,0.0,0.0,0.0,0.0,0.0,0.0,-0.124,0.0,0.0,0.0,0.0,0.0,0.0,0.5647404537694292,0.0,0.0,0.0,0.0,0.0,0.0,-12.944,0.0,0.0,0.0
385,0.0,0.0,0.0,0.5662998046875,0.0,0.0,0.0,0.0,0.0,0.0,-0.124,0.0,0.0,0.0,0.0,0.0,0.0,0.5637335811895133,0.0,0.0,0.0,0.0,0.0,0.0,-12.232,0.0,0.0,0.0
386,0.0,0.0,0.0,0.56543359375,0.0,0.0,0.0,0.0,0.0,0.0,-0.093,0.0,0.0,0.0,0.0,0.0,0.0,0.5626899690343076,0.0,0.0,0.0,0.0,0.0,0.0,-11.616,0.0,0.0,0.0
387,0.0,0.0,0.0,0.5642783203125,0.0,0.0,0.0,0.0,0.0,0.0,-0.097,0.0,0.0,0.0,0.0,0.0,0.0,0.5616499014386037,0.0,0.0,0.0,0.0,0.0,0.0,-12.164,0.0,0.0,0.0
388,0.0,0.0,0.0,0.563123046875,0.0,0.0,0.0,0.0,0.0,0.0,-0.122,0.0,0.0,0.0,0.0,0.0,0.0,0.5605964219441788,0.0,0.0,0.0,0.0,0.0,0.0,-12.576,0.0,0.0,0.0
389,0.0,0.0,0.0,0.562103515625,0.0,0.0,0.0,0.0,0.0,0.0,-0.112,0.0,0.0,0.0,0.0,0.0,0.0,0.5595079292488638,0.0,0.0,0.0,0.0,0.0,0.0,-12.44,0.0,0.0,0.0
390,0.0,0.0,0.0,0.560939453125,0.0,0.0,0.0,0.0,0.0,0.0,-0.1,0.0,0.0,0.0,0.0,0.0,0.0,0.5584175334212281,0.0,0.0,0.0,0.0,0.0,0.0,-12.736,0.0,0.0,0.0
391,0.0,0.0,0.0,0.5593427734375,0.0,0.0,0.0,0.0,0.0,0.0,-0.145,0.0,0.0,0.0,0.0,0.0,0.0,0.5573211786814027,0.0,0.0,0.0,0.0,0.0,0.0,-12.028,0.0,0.0,0.0
392,0.0,0.0,0.0,0.5581875,0.0,0.0,0.0,0.0,0.0,0.0,-0.139,0.0,0.0,0.0,0.0,0.0,0.0,0.5561958808568316,0.0,0.0,0.0,0.0,0.0,0.0,-11.776,0.0,0.0,0.0
393,0.0,0.0,0.0,0.5570322265625,0.0,0.0,0.0,0.0,0.0,0.0,-0.127,0.0,0.0,0.0,0.0,0.0,0.0,0.5550626944260751,0.0,0.0,0.0,0.0,0.0,0.0,-11.296,0.0,0.0,0.0
394,0.0,0.0,0.0,0.556166015625,0.0,0.0,0.0,0.0,0.0,0.0,-0.101,0.0,0.0,0.0,0.0,0.0,0.0,0.5539222593293455,0.0,0.0,0.0,0.0,0.0,0.0,-12.188,0.0,0.0,0.0
395,0.0,0.0,0.0,0.5548583984375,0.0,0.0,0.0,0.0,0.0,0.0,-0.101,0.0,0.0,0.0,0.0,0.0,0.0,0.5527433795079102,0.0,0.0,0.0,0.0,0.0,0.0,-12.324,0.0,0.0,0.0
396,0.0,0.0,0.0,0.55384765625,0.0,0.0,0.0,0.0,0.0,0.0,-0.126,0.0,0.0,0.0,0.0,0.0,0.0,0.5515797599132347,0.0,0.0,0.0,0.0,0.0,0.0,-11.708,0.0,0.0,0.0
397,0.0,0.0,0.0,0.55268359375,0.0,0.0,0.0,0.0,0.0,0.0,-0.103,0.0,0.0,0.0,0.0,0.0,0.0,0.5504021057571123,0.0,0.0,0.0,0.0,0.0,0.0,-12.164,0.0,0.0,0.0
398,0.0,0.0,0.0,0.5512392578125,0.0,0.0,0.0,0.0,0.0,0.0,-0.128,0.0,0.0,0.0,0.0,0.0,0.0,0.5491928021333305,0.0,0.0,0.0,0.0,0.0,0.0,-12.348,0.0,0.0,0.0
399,0.0,0.0,0.0,0.5500849609375,0.0,0.0,0.0,0.0,0.0,0.0,-0.137,0.0,0.0,0.0,0.0,0.0,0.0,0.5479688558025768,0.0,0.0,0.0,0.0,0.0,0.0,-12.28,0.0,0.0,0.0
400,0.0,0.0,0.0,0.5489208984375,0.0,0.0,0.0,0.0,0.0,0.0,-0.116,0.0,0.0,0.0,0.0,0.0,0.0,0.5467518970579122,0.0,0.0,0.0,0.0,0.0,0.0,-12.416,0.0,0.0,0.0
401,0.0,0.0,0.0,0.54762109375,0.0,0.0,0.0,0.0,0.0,0.0,-0.117,0.0,0.0,0.0,0.0,0.0,0.0,0.5455064017518738,0.0,0.0,0.0,0.0,0.0,0.0,-12.872,0.0,0.0,0.0
402,0.0,0.0,0.0,0.5464658203125,0.0,0.0,0.0,0.0,0.0,0.0,-0.125,0.0,0.0,0.0,0.0,0.0,0.0,0.5442612005498865,0.0,0.0,0.0,0.0,0.0,0.0,-12.644,0.0,0.0,0.0
403,0.0,0.0,0.0,0.5455908203125,0.0,0.0,0.0,0.0,0.0,0.0,-0.106,0.0,0.0,0.0,0.0,0.0,0.0,0.5429875934912501,0.0,0.0,0.0,0.0,0.0,0.0,-12.348,0.0,0.0,0.0
404,0.0,0.0,0.0,0.544869140625,0.0,0.0,0.0,0.0,0.0,0.0,-0.088,0.0,0.0,0.0,0.0,0.0,0.0,0.5417002019007067,0.0,0.0,0.0,0.0,0.0,0.0,-12.004,0.0,0.0,0.0
405,0.0,0.0,0.0,0.5438583984375,0.0,0.0,0.0,0.0,0.0,0.0,-0.073,0.0,0.0,0.0,0.0,0.0,0.0,0.540398121913874,0.0,0.0,0.0,0.0,0.0,0.0,-13.584,0.0,0.0,0.0
406,0.0,0.0,0.0,0.542396484375,0.0,0.0,0.0,0.0,0.0,0.0,-0.125,0.0,0.0,0.0,0.0,0.0,0.0,0.5391016376618623,0.0,0.0,0.0,0.0,0.0,0.0,-13.628,0.0,0.0,0.0
407,0.0,0.0,0.0,0.5413857421875,0.0,0.0,0.0,0.0,0.0,0.0,-0.131,0.0,0.0,0.0,0.0,0.0,0.0,0.5377789216951768,0.0,0.0,0.0,0.0,0.0,0.0,-13.536,0.0,0.0,0.0
408,0.0,0.0,0.0,0.540375,0.0,0.0,0.0,0.0,0.0,0.0,-0.108,0.0,0.0,0.0,0.0,0.0,0.0,0.536428009534076,0.0,0.0,0.0,0.0,0.0,0.0,-12.988,0.0,0.0,0.0
409,0.0,0.0,0.0,0.5392109375,0.0,0.0,0.0,0.0,0.0,0.0,-0.1,0.0,0.0,0.0,0.0,0.0,0.0,0.535079428401589,0.0,0.0,0.0,0.0,0.0,0.0,-13.216,0.0,0.0,0.0
410,0.0,0.0,0.0,0.537912109375,0.0,0.0,0.0,0.0,0.0,0.0,-0.119,0.0,0.0,0.0,0.0,0.0,0.0,0.5337240787144013,0.0,0.0,0.0,0.0,0.0,0.0,-13.468,0.0,0.0,0.0
411,0.0,0.0,0.0,0.5367568359375,0.0,0.0,0.0,0.0,0.0,0.0,-0.131,0.0,0.0,0.0,0.0,0.0,0.0,0.5323289918609307,0.0,0.0,0.0,0.0,0.0,0.0,-13.744,0.0,0.0,0.0
412,0.0,0.0,0.0,0.5357373046875,0.0,0.0,0.0,0.0,0.0,0.0,-0.107,0.0,0.0,0.0,0.0,0.0,0.0,0.5309345114657537,0.0,0.0,0.0,0.0,0.0,0.0,-13.764,0.0,0.0,0.0
413,0.0,0.0,0.0,0.5347265625,0.0,0.0,0.0,0.0,0.0,0.0,-0.098,0.0,0.0,0.0,0.0,0.0,0.0,0.5295543302519917,0.0,0.0,0.0,0.0,0.0,0.0,-13.856,0.0,0.0,0.0
414,0.0,0.0,0.0,0.532994140625,0.0,0.0,0.0,0.0,0.0,0.0,-0.139,0.0,0.0,0.0,0.0,0.0,0.0,0.5281343037681566,0.0,0.0,0.0,0.0,0.0,0.0,-13.88,0.0,0.0,0.0
415,0.0,0.0,0.0,0.5313974609375,0.0,0.0,0.0,0.0,0.0,0.0,-0.172,0.0,0.0,0.0,0.0,0.0,0.0,0.5267048896368526,0.0,0.0,0.0,0.0,0.0,0.0,-13.696,0.0,0.0,0.0
416,0.0,0.0,0.0,0.53009765625,0.0,0.0,0.0,0.0,0.0,0.0,-0.144,0.0,0.0,0.0,0.0,0.0,0.0,0.5252607333731146,0.0,0.0,0.0,0.0,0.0,0.0,-13.516,0.0,0.0,0.0
417,0.0,0.0,0.0,0.5285009765625,0.0,0.0,0.0,0.0,0.0,0.0,-0.145,0.0,0.0,0.0,0.0,0.0,0.0,0.5237961067423522,0.0,0.0,0.0,0.0,0.0,0.0,-13.424,0.0,0.0,0.0
418,0.0,0.0,0.0,0.526767578125,0.0,0.0,0.0,0.0,0.0,0.0,-0.172,0.0,0.0,0.0,0.0,0.0,0.0,0.5223417165617076,0.0,0.0,0.0,0.0,0.0,0.0,-13.056,0.0,0.0,0.0
419,0.0,0.0,0.0,0.5254599609375,0.0,0.0,0.0,0.0,0.0,0.0,-0.15,0.0,0.0,0.0,0.0,0.0,0.0,0.5208549045036752,0.0,0.0,0.0,0.0,0.0,0.0,-12.784,0.0,0.0,0.0
420,0.0,0.0,0.0,0.5254599609375,0.0,0.0,0.0,0.0,0.0,0.0,-0.15,0.0,0.0,0.0,0.0,0.0,0.0,0.5193501630875241,0.0,0.0,0.0,0.0,0.0,0.0,-12.784,0.0,0.0,0.0
421,0.0,0.0,0.0,0.52183203125,0.0,0.0,0.0,0.0,0.0,0.0,-0.188,0.0,0.0,0.0,0.0,0.0,0.0,0.5178535237267506,0.0,0.0,0.0,0.0,0.0,0.0,-13.332,0.0,0.0,0.0
422,0.0,0.0,0.0,0.520244140625,0.0,0.0,0.0,0.0,0.0,0.0,-0.168,0.0,0.0,0.0,0.0,0.0,0.0,0.5163308108557351,0.0,0.0,0.0,0.0,0.0,0.0,-13.172,0.0,0.0,0.0
423,0.0,0.0,0.0,0.5183583984375,0.0,0.0,0.0,0.0,0.0,0.0,-0.179,0.0,0.0,0.0,0.0,0.0,0.0,0.5147797765709045,0.0,0.0,0.0,0.0,0.0,0.0,-12.668,0.0,0.0,0.0
424,0.0,0.0,0.0,0.5167705078125,0.0,0.0,0.0,0.0,0.0,0.0,-0.177,0.0,0.0,0.0,0.0,0.0,0.0,0.513242049646736,0.0,0.0,0.0,0.0,0.0,0.0,-12.784,0.0,0.0,0.0
425,0.0,0.0,0.0,0.5148837890625,0.0,0.0,0.0,0.0,0.0,0.0,-0.17,0.0,0.0,0.0,0.0,0.0,0.0,0.5116731263155456,0.0,0.0,0.0,0.0,0.0,0.0,-12.624,0.0,0.0,0.0
426,0.0,0.0,0.0,0.5132958984375,0.0,0.0,0.0,0.0,0.0,0.0,-0.179,0.0,0.0,0.0,0.0,0.0,0.0,0.5100876544416237,0.0,0.0,0.0,0.0,0.0,0.0,-12.372,0.0,0.0,0.0
427,0.0,0.0,0.0,0.5119873046875,0.0,0.0,0.0,0.0,0.0,0.0,-0.144,0.0,0.0,0.0,0.0,0.0,0.0,0.5085349004808832,0.0,0.0,0.0,0.0,0.0,0.0,-12.372,0.0,0.0,0.0
428,0.0,0.0,0.0,0.5103994140625,0.0,0.0,0.0,0.0,0.0,0.0,-0.152,0.0,0.0,0.0,0.0,0.0,0.0,0.5069173510925955,0.0,0.0,0.0,0.0,0.0,0.0,-12.508,0.0,0.0,0.0
429,0.0,0.0,0.0,0.508802734375,0.0,0.0,0.0,0.0,0.0,0.0,-0.16,0.0,0.0,0.0,0.0,0.0,0.0,0.50530672679554,0.0,0.0,0.0,0.0,0.0,0.0,-12.736,0.0,0.0,0.0
430,0.0,0.0,0.0,0.50692578125,0.0,0.0,0.0,0.0,0.0,0.0,-0.174,0.0,0.0,0.0,0.0,0.0,0.0,0.5036820031618426,0.0,0.0,0.0,0.0,0.0,0.0,-12.964,0.0,0.0,0.0
431,0.0,0.0,0.0,0.50518359375,0.0,0.0,0.0,0.0,0.0,0.0,-0.187,0.0,0.0,0.0,0.0,0.0,0.0,0.502050079936667,0.0,0.0,0.0,0.0,0.0,0.0,-12.624,0.0,0.0,0.0
432,0.0,0.0,0.0,0.5034423828125,0.0,0.0,0.0,0.0,0.0,0.0,-0.178,0.0,0.0,0.0,0.0,0.0,0.0,0.5003965984703366,0.0,0.0,0.0,0.0,0.0,0.0,-12.14,0.0,0.0,0.0
433,0.0,0.0,0.0,0.5019892578125,0.0,0.0,0.0,0.0,0.0,0.0,-0.159,0.0,0.0,0.0,0.0,0.0,0.0,0.49873634517554355,0.0,0.0,0.0,0.0,0.0,0.0,-11.98,0.0,0.0,0.0
434,0.0,0.0,0.0,0.5004013671875,0.0,0.0,0.0,0.0,0.0,0.0,-0.15,0.0,0.0,0.0,0.0,0.0,0.0,0.4970650452278212,0.0,0.0,0.0,0.0,0.0,0.0,-12.712,0.0,0.0,0.0
435,0.0,0.0,0.0,0.498515625,0.0,0.0,0.0,0.0,0.0,0.0,-0.177,0.0,0.0,0.0,0.0,0.0,0.0,0.4953792604946184,0.0,0.0,0.0,0.0,0.0,0.0,-12.944,0.0,0.0,0.0
436,0.0,0.0,0.0,0.496927734375,0.0,0.0,0.0,0.0,0.0,0.0,-0.181,0.0,0.0,0.0,0.0,0.0,0.0,0.49368711690117806,0.0,0.0,0.0,0.0,0.0,0.0,-12.828,0.0,0.0,0.0
437,0.0,0.0,0.0,0.495330078125,0.0,0.0,0.0,0.0,0.0,0.0,-0.149,0.0,0.0,0.0,0.0,0.0,0.0,0.4919830550397185,0.0,0.0,0.0,0.0,0.0,0.0,-12.416,0.0,0.0,0.0
438,0.0,0.0,0.0,0.4937421875,0.0,0.0,0.0,0.0,0.0,0.0,-0.162,0.0,0.0,0.0,0.0,0.0,0.0,0.49023929032157976,0.0,0.0,0.0,0.0,0.0,0.0,-12.484,0.0,0.0,0.0
439,0.0,0.0,0.0,0.4915673828125,0.0,0.0,0.0,0.0,0.0,0.0,-0.191,0.0,0.0,0.0,0.0,0.0,0.0,0.4885024983435641,0.0,0.0,0.0,0.0,0.0,0.0,-12.964,0.0,0.0,0.0
440,0.0,0.0,0.0,0.4898349609375,0.0,0.0,0.0,0.0,0.0,0.0,-0.203,0.0,0.0,0.0,0.0,0.0,0.0,0.4867794065998431,0.0,0.0,0.0,0.0,0.0,0.0,-12.624,0.0,0.0,0.0
441,0.0,0.0,0.0,0.4886708984375,0.0,0.0,0.0,0.0,0.0,0.0,-0.146,0.0,0.0,0.0,0.0,0.0,0.0,0.4850037306449557,0.0,0.0,0.0,0.0,0.0,0.0,-12.348,0.0,0.0,0.0
442,0.0,0.0,0.0,0.486650390625,0.0,0.0,0.0,0.0,0.0,0.0,-0.143,0.0,0.0,0.0,0.0,0.0,0.0,0.48322440476429385,0.0,0.0,0.0,0.0,0.0,0.0,-13.356,0.0,0.0,0.0
443,0.0,0.0,0.0,0.4847548828125,0.0,0.0,0.0,0.0,0.0,0.0,-0.211,0.0,0.0,0.0,0.0,0.0,0.0,0.4814518962302719,0.0,0.0,0.0,0.0,0.0,0.0,-12.852,0.0,0.0,0.0
444,0.0,0.0,0.0,0.483599609375,0.0,0.0,0.0,0.0,0.0,0.0,-0.153,0.0,0.0,0.0,0.0,0.0,0.0,0.479629093658932,0.0,0.0,0.0,0.0,0.0,0.0,-13.308,0.0,0.0,0.0
445,0.0,0.0,0.0,0.4818583984375,0.0,0.0,0.0,0.0,0.0,0.0,-0.141,0.0,0.0,0.0,0.0,0.0,0.0,0.47780030473816293,0.0,0.0,0.0,0.0,0.0,0.0,-13.904,0.0,0.0,0.0
446,0.0,0.0,0.0,0.4801259765625,0.0,0.0,0.0,0.0,0.0,0.0,-0.181,0.0,0.0,0.0,0.0,0.0,0.0,0.4760362007551452,0.0,0.0,0.0,0.0,0.0,0.0,-13.56,0.0,0.0,0.0
447,0.0,0.0,0.0,0.478384765625,0.0,0.0,0.0,0.0,0.0,0.0,-0.17,0.0,0.0,0.0,0.0,0.0,0.0,0.4741997508903104,0.0,0.0,0.0,0.0,0.0,0.0,-13.492,0.0,0.0,0.0
448,0.0,0.0,0.0,0.47665234375,0.0,0.0,0.0,0.0,0.0,0.0,-0.181,0.0,0.0,0.0,0.0,0.0,0.0,0.472332467869074,0.0,0.0,0.0,0.0,0.0,0.0,-13.376,0.0,0.0,0.0
449,0.0,0.0,0.0,0.47491015625,0.0,0.0,0.0,0.0,0.0,0.0,-0.179,0.0,0.0,0.0,0.0,0.0,0.0,0.47048996452320624,0.0,0.0,0.0,0.0,0.0,0.0,-13.628,0.0,0.0,0.0
450,0.0,0.0,0.0,0.473177734375,0.0,0.0,0.0,0.0,0.0,0.0,-0.169,0.0,0.0,0.0,0.0,0.0,0.0,0.4686257733786401,0.0,0.0,0.0,0.0,0.0,0.0,-13.56,0.0,0.0,0.0
451,0.0,0.0,0.0,0.4714365234375,0.0,0.0,0.0,0.0,0.0,0.0,-0.179,0.0,0.0,0.0,0.0,0.0,0.0,0.46673008794879134,0.0,0.0,0.0,0.0,0.0,0.0,-13.628,0.0,0.0,0.0
452,0.0,0.0,0.0,0.4698486328125,0.0,0.0,0.0,0.0,0.0,0.0,-0.172,0.0,0.0,0.0,0.0,0.0,0.0,0.46485911709172667,0.0,0.0,0.0,0.0,0.0,0.0,-13.812,0.0,0.0,0.0
453,0.0,0.0,0.0,0.4682509765625,0.0,0.0,0.0,0.0,0.0,0.0,-0.156,0.0,0.0,0.0,0.0,0.0,0.0,0.4629455125369961,0.0,0.0,0.0,0.0,0.0,0.0,-13.88,0.0,0.0,0.0
454,0.0,0.0,0.0,0.466220703125,0.0,0.0,0.0,0.0,0.0,0.0,-0.182,0.0,0.0,0.0,0.0,0.0,0.0,0.4610267001719844,0.0,0.0,0.0,0.0,0.0,0.0,-13.584,0.0,0.0,0.0
455,0.0,0.0,0.0,0.4644794921875,0.0,0.0,0.0,0.0,0.0,0.0,-0.198,0.0,0.0,0.0,0.0,0.0,0.0,0.4591025234354916,0.0,0.0,0.0,0.0,0.0,0.0,-13.264,0.0,0.0,0.0
456,0.0,0.0,0.0,0.46273828125,0.0,0.0,0.0,0.0,0.0,0.0,-0.171,0.0,0.0,0.0,0.0,0.0,0.0,0.4571551678646235,0.0,0.0,0.0,0.0,0.0,0.0,-13.264,0.0,0.0,0.0
457,0.0,0.0,0.0,0.460572265625,0.0,0.0,0.0,0.0,0.0,0.0,-0.196,0.0,0.0,0.0,0.0,0.0,0.0,0.4552117805518202,0.0,0.0,0.0,0.0,0.0,0.0,-13.604,0.0,0.0,0.0
458,0.0,0.0,0.0,0.4583974609375,0.0,0.0,0.0,0.0,0.0,0.0,-0.219,0.0,0.0,0.0,0.0,0.0,0.0,0.4532762891978585,0.0,0.0,0.0,0.0,0.0,0.0,-13.696,0.0,0.0,0.0
459,0.0,0.0,0.0,0.4568095703125,0.0,0.0,0.0,0.0,0.0,0.0,-0.195,0.0,0.0,0.0,0.0,0.0,0.0,0.45130443795849084,0.0,0.0,0.0,0.0,0.0,0.0,-13.148,0.0,0.0,0.0
460,0.0,0.0,0.0,0.454634765625,0.0,0.0,0.0,0.0,0.0,0.0,-0.171,0.0,0.0,0.0,0.0,0.0,0.0,0.4492895368520621,0.0,0.0,0.0,0.0,0.0,0.0,-14.156,0.0,0.0,0.0
461,0.0,0.0,0.0,0.452171875,0.0,0.0,0.0,0.0,0.0,0.0,-0.236,0.0,0.0,0.0,0.0,0.0,0.0,0.44730279527654343,0.0,0.0,0.0,0.0,0.0,0.0,-13.836,0.0,0.0,0.0
462,0.0,0.0,0.0,0.4504384765625,0.0,0.0,0.0,0.0,0.0,0.0,-0.223,0.0,0.0,0.0,0.0,0.0,0.0,0.4453083550505094,0.0,0.0,0.0,0.0,0.0,0.0,-13.424,0.0,0.0,0.0
463,0.0,0.0,0.0,0.448697265625,0.0,0.0,0.0,0.0,0.0,0.0,-0.177,0.0,0.0,0.0,0.0,0.0,0.0,0.44327479810639697,0.0,0.0,0.0,0.0,0.0,0.0,-13.056,0.0,0.0,0.0
464,0.0,0.0,0.0,0.4465224609375,0.0,0.0,0.0,0.0,0.0,0.0,-0.188,0.0,0.0,0.0,0.0,0.0,0.0,0.4412685958801967,0.0,0.0,0.0,0.0,0.0,0.0,-13.376,0.0,0.0,0.0
465,0.0,0.0,0.0,0.444068359375,0.0,0.0,0.0,0.0,0.0,0.0,-0.228,0.0,0.0,0.0,0.0,0.0,0.0,0.43923648537063514,0.0,0.0,0.0,0.0,0.0,0.0,-13.788,0.0,0.0,0.0
466,0.0,0.0,0.0,0.4418935546875,0.0,0.0,0.0,0.0,0.0,0.0,-0.242,0.0,0.0,0.0,0.0,0.0,0.0,0.4371523580557453,0.0,0.0,0.0,0.0,0.0,0.0,-13.216,0.0,0.0,0.0
467,0.0,0.0,0.0,0.43986328125,0.0,0.0,0.0,0.0,0.0,0.0,-0.212,0.0,0.0,0.0,0.0,0.0,0.0,0.43511396157432075,0.0,0.0,0.0,0.0,0.0,0.0,-13.192,0.0,0.0,0.0
468,0.0,0.0,0.0,0.4375537109375,0.0,0.0,0.0,0.0,0.0,0.0,-0.213,0.0,0.0,0.0,0.0,0.0,0.0,0.4330499166305956,0.0,0.0,0.0,0.0,0.0,0.0,-12.828,0.0,0.0,0.0
469,0.0,0.0,0.0,0.43508984375,0.0,0.0,0.0,0.0,0.0,0.0,-0.238,0.0,0.0,0.0,0.0,0.0,0.0,0.43096282693164245,0.0,0.0,0.0,0.0,0.0,0.0,-12.712,0.0,0.0,0.0
470,0.0,0.0,0.0,0.4329150390625,0.0,0.0,0.0,0.0,0.0,0.0,-0.246,0.0,0.0,0.0,0.0,0.0,0.0,0.42886470910723995,0.0,0.0,0.0,0.0,0.0,0.0,-12.644,0.0,0.0,0.0
471,0.0,0.0,0.0,0.4307412109375,0.0,0.0,0.0,0.0,0.0,0.0,-0.215,0.0,0.0,0.0,0.0,0.0,0.0,0.4267796447276551,0.0,0.0,0.0,0.0,0.0,0.0,-13.192,0.0,0.0,0.0
472,0.0,0.0,0.0,0.427998046875,0.0,0.0,0.0,0.0,0.0,0.0,-0.242,0.0,0.0,0.0,0.0,0.0,0.0,0.4246639353950724,0.0,0.0,0.0,0.0,0.0,0.0,-13.032,0.0,0.0,0.0
473,0.0,0.0,0.0,0.425814453125,0.0,0.0,0.0,0.0,0.0,0.0,-0.253,0.0,0.0,0.0,0.0,0.0,0.0,0.4225305844252242,0.0,0.0,0.0,0.0,0.0,0.0,-12.896,0.0,0.0,0.0
474,0.0,0.0,0.0,0.4237841796875,0.0,0.0,0.0,0.0,0.0,0.0,-0.215,0.0,0.0,0.0,0.0,0.0,0.0,0.420399443864924,0.0,0.0,0.0,0.0,0.0,0.0,-13.104,0.0,0.0,0.0
475,0.0,0.0,0.0,0.4219072265625,0.0,0.0,0.0,0.0,0.0,0.0,-0.192,0.0,0.0,0.0,0.0,0.0,0.0,0.41824921791735437,0.0,0.0,0.0,0.0,0.0,0.0,-13.264,0.0,0.0,0.0
476,0.0,0.0,0.0,0.419732421875,0.0,0.0,0.0,0.0,0.0,0.0,-0.198,0.0,0.0,0.0,0.0,0.0,0.0,0.4160979737195798,0.0,0.0,0.0,0.0,0.0,0.0,-13.924,0.0,0.0,0.0
477,0.0,0.0,0.0,0.418,0.0,0.0,0.0,0.0,0.0,0.0,-0.211,0.0,0.0,0.0,0.0,0.0,0.0,0.4139314039522391,0.0,0.0,0.0,0.0,0.0,0.0,-13.24,0.0,0.0,0.0
478,0.0,0.0,0.0,0.4161142578125,0.0,0.0,0.0,0.0,0.0,0.0,-0.171,0.0,0.0,0.0,0.0,0.0,0.0,0.41172940933277075,0.0,0.0,0.0,0.0,0.0,0.0,-13.924,0.0,0.0,0.0
479,0.0,0.0,0.0,0.4142275390625,0.0,0.0,0.0,0.0,0.0,0.0,-0.202,0.0,0.0,0.0,0.0,0.0,0.0,0.409544902220628,0.0,0.0,0.0,0.0,0.0,0.0,-13.012,0.0,0.0,0.0
480,0.0,0.0,0.0,0.4123505859375,0.0,0.0,0.0,0.0,0.0,0.0,-0.185,0.0,0.0,0.0,0.0,0.0,0.0,0.4073872046175543,0.0,0.0,0.0,0.0,0.0,0.0,-14.2,0.0,0.0,0.0
481,0.0,0.0,0.0,0.4100322265625,0.0,0.0,0.0,0.0,0.0,0.0,-0.214,0.0,0.0,0.0,0.0,0.0,0.0,0.40515775650533187,0.0,0.0,0.0,0.0,0.0,0.0,-13.904,0.0,0.0,0.0
482,0.0,0.0,0.0,0.4084345703125,0.0,0.0,0.0,0.0,0.0,0.0,-0.204,0.0,0.0,0.0,0.0,0.0,0.0,0.40293530837247715,0.0,0.0,0.0,0.0,0.0,0.0,-13.924,0.0,0.0,0.0
483,0.0,0.0,0.0,0.4061162109375,0.0,0.0,0.0,0.0,0.0,0.0,-0.182,0.0,0.0,0.0,0.0,0.0,0.0,0.40071280626842964,0.0,0.0,0.0,0.0,0.0,0.0,-14.176,0.0,0.0,0.0
484,0.0,0.0,0.0,0.40423046875,0.0,0.0,0.0,0.0,0.0,0.0,-0.219,0.0,0.0,0.0,0.0,0.0,0.0,0.3984785164701236,0.0,0.0,0.0,0.0,0.0,0.0,-13.676,0.0,0.0,0.0
485,0.0,0.0,0.0,0.401919921875,0.0,0.0,0.0,0.0,0.0,0.0,-0.199,0.0,0.0,0.0,0.0,0.0,0.0,0.39621109323820874,0.0,0.0,0.0,0.0,0.0,0.0,-14.544,0.0,0.0,0.0
486,0.0,0.0,0.0,0.3996005859375,0.0,0.0,0.0,0.0,0.0,0.0,-0.245,0.0,0.0,0.0,0.0,0.0,0.0,0.39398090372132627,0.0,0.0,0.0,0.0,0.0,0.0,-14.064,0.0,0.0,0.0
487,0.0,0.0,0.0,0.3975703125,0.0,0.0,0.0,0.0,0.0,0.0,-0.219,0.0,0.0,0.0,0.0,0.0,0.0,0.39166947750640735,0.0,0.0,0.0,0.0,0.0,0.0,-14.224,0.0,0.0,0.0
488,0.0,0.0,0.0,0.395396484375,0.0,0.0,0.0,0.0,0.0,0.0,-0.214,0.0,0.0,0.0,0.0,0.0,0.0,0.38939424254164207,0.0,0.0,0.0,0.0,0.0,0.0,-13.628,0.0,0.0,0.0
489,0.0,0.0,0.0,0.39294140625,0.0,0.0,0.0,0.0,0.0,0.0,-0.223,0.0,0.0,0.0,0.0,0.0,0.0,0.38714459344597235,0.0,0.0,0.0,0.0,0.0,0.0,-14.544,0.0,0.0,0.0
490,0.0,0.0,0.0,0.390333984375,0.0,0.0,0.0,0.0,0.0,0.0,-0.262,0.0,0.0,0.0,0.0,0.0,0.0,0.38485699249280947,0.0,0.0,0.0,0.0,0.0,0.0,-13.696,0.0,0.0,0.0
491,0.0,0.0,0.0,0.388439453125,0.0,0.0,0.0,0.0,0.0,0.0,-0.222,0.0,0.0,0.0,0.0,0.0,0.0,0.38250860033677825,0.0,0.0,0.0,0.0,0.0,0.0,-14.064,0.0,0.0,0.0
492,0.0,0.0,0.0,0.3856865234375,0.0,0.0,0.0,0.0,0.0,0.0,-0.228,0.0,0.0,0.0,0.0,0.0,0.0,0.38022339052176707,0.0,0.0,0.0,0.0,0.0,0.0,-13.924,0.0,0.0,0.0
493,0.0,0.0,0.0,0.383521484375,0.0,0.0,0.0,0.0,0.0,0.0,-0.263,0.0,0.0,0.0,0.0,0.0,0.0,0.37788998222417164,0.0,0.0,0.0,0.0,0.0,0.0,-13.172,0.0,0.0,0.0
494,0.0,0.0,0.0,0.3816357421875,0.0,0.0,0.0,0.0,0.0,0.0,-0.207,0.0,0.0,0.0,0.0,0.0,0.0,0.37554243223260386,0.0,0.0,0.0,0.0,0.0,0.0,-13.032,0.0,0.0,0.0
495,0.0,0.0,0.0,0.37931640625,0.0,0.0,0.0,0.0,0.0,0.0,-0.203,0.0,0.0,0.0,0.0,0.0,0.0,0.3732337244570684,0.0,0.0,0.0,0.0,0.0,0.0,-13.744,0.0,0.0,0.0
496,0.0,0.0,0.0,0.377005859375,0.0,0.0,0.0,0.0,0.0,0.0,-0.231,0.0,0.0,0.0,0.0,0.0,0.0,0.37088701264365653,0.0,0.0,0.0,0.0,0.0,0.0,-13.264,0.0,0.0,0.0
497,0.0,0.0,0.0,0.3746875,0.0,0.0,0.0,0.0,0.0,0.0,-0.229,0.0,0.0,0.0,0.0,0.0,0.0,0.36850167482740487,0.0,0.0,0.0,0.0,0.0,0.0,-13.444,0.0,0.0,0.0
498,0.0,0.0,0.0,0.371791015625,0.0,0.0,0.0,0.0,0.0,0.0,-0.264,0.0,0.0,0.0,0.0,0.0,0.0,0.3661100650825812,0.0,0.0,0.0,0.0,0.0,0.0,-13.308,0.0,0.0,0.0
499,0.0,0.0,0.0,0.369318359375,0.0,0.0,0.0,0.0,0.0,0.0,-0.281,0.0,0.0,0.0,0.0,0.0,0.0,0.3637299149738018,0.0,0.0,0.0,0.0,0.0,0.0,-12.92,0.0,0.0,0.0
500,0.0,0.0,0.0,0.36627734375,0.0,0.0,0.0,0.0,0.0,0.0,-0.266,0.0,0.0,0.0,0.0,0.0,0.0,0.3613358843181532,0.0,0.0,0.0,0.0,0.0,0.0,-13.696,0.0,0.0,0.0
501,0.0,0.0,0.0,0.363380859375,0.0,0.0,0.0,0.0,0.0,0.0,-0.311,0.0,0.0,0.0,0.0,0.0,0.0,0.35897509070783656,0.0,0.0,0.0,0.0,0.0,0.0,-13.4,0.0,0.0,0.0
502,0.0,0.0,0.0,0.3610712890625,0.0,0.0,0.0,0.0,0.0,0.0,-0.258,0.0,0.0,0.0,0.0,0.0,0.0,0.3565503861004424,0.0,0.0,0.0,0.0,0.0,0.0,-14.064,0.0,0.0,0.0
503,0.0,0.0,0.0,0.358462890625,0.0,0.0,0.0,0.0,0.0,0.0,-0.244,0.0,0.0,0.0,0.0,0.0,0.0,0.3541062529727836,0.0,0.0,0.0,0.0,0.0,0.0,-14.224,0.0,0.0,0.0
504,0.0,0.0,0.0,0.35614453125,0.0,0.0,0.0,0.0,0.0,0.0,-0.258,0.0,0.0,0.0,0.0,0.0,0.0,0.3517147294228595,0.0,0.0,0.0,0.0,0.0,0.0,-13.812,0.0,0.0,0.0
505,0.0,0.0,0.0,0.354412109375,0.0,0.0,0.0,0.0,0.0,0.0,-0.209,0.0,0.0,0.0,0.0,0.0,0.0,0.3492642410002979,0.0,0.0,0.0,0.0,0.0,0.0,-13.676,0.0,0.0,0.0
506,0.0,0.0,0.0,0.3523818359375,0.0,0.0,0.0,0.0,0.0,0.0,-0.185,0.0,0.0,0.0,0.0,0.0,0.0,0.3468188002936135,0.0,0.0,0.0,0.0,0.0,0.0,-13.744,0.0,0.0,0.0
507,0.0,0.0,0.0,0.3500537109375,0.0,0.0,0.0,0.0,0.0,0.0,-0.211,0.0,0.0,0.0,0.0,0.0,0.0,0.3443575894904895,0.0,0.0,0.0,0.0,0.0,0.0,-14.476,0.0,0.0,0.0
508,0.0,0.0,0.0,0.3474453125,0.0,0.0,0.0,0.0,0.0,0.0,-0.257,0.0,0.0,0.0,0.0,0.0,0.0,0.3419128641771398,0.0,0.0,0.0,0.0,0.0,0.0,-14.108,0.0,0.0,0.0
509,0.0,0.0,0.0,0.345568359375,0.0,0.0,0.0,0.0,0.0,0.0,-0.236,0.0,0.0,0.0,0.0,0.0,0.0,0.33944955939819565,0.0,0.0,0.0,0.0,0.0,0.0,-13.192,0.0,0.0,0.0
510,0.0,0.0,0.0,0.34325,0.0,0.0,0.0,0.0,0.0,0.0,-0.193,0.0,0.0,0.0,0.0,0.0,0.0,0.336962424029904,0.0,0.0,0.0,0.0,0.0,0.0,-13.764,0.0,0.0,0.0
511,0.0,0.0,0.0,0.340208984375,0.0,0.0,0.0,0.0,0.0,0.0,-0.272,0.0,0.0,0.0,0.0,0.0,0.0,0.33447950979844615,0.0,0.0,0.0,0.0,0.0,0.0,-13.4,0.0,0.0,0.0
512,0.0,0.0,0.0,0.3381787109375,0.0,0.0,0.0,0.0,0.0,0.0,-0.265,0.0,0.0,0.0,0.0,0.0,0.0,0.3319647231010185,0.0,0.0,0.0,0.0,0.0,0.0,-13.516,0.0,0.0,0.0
513,0.0,0.0,0.0,0.3354267578125,0.0,0.0,0.0,0.0,0.0,0.0,-0.221,0.0,0.0,0.0,0.0,0.0,0.0,0.3294947056527166,0.0,0.0,0.0,0.0,0.0,0.0,-14.636,0.0,0.0,0.0
514,0.0,0.0,0.0,0.3325390625,0.0,0.0,0.0,0.0,0.0,0.0,-0.298,0.0,0.0,0.0,0.0,0.0,0.0,0.32696155418084755,0.0,0.0,0.0,0.0,0.0,0.0,-13.468,0.0,0.0,0.0
515,0.0,0.0,0.0,0.3306435546875,0.0,0.0,0.0,0.0,0.0,0.0,-0.251,0.0,0.0,0.0,0.0,0.0,0.0,0.32442862968730396,0.0,0.0,0.0,0.0,0.0,0.0,-13.356,0.0,0.0,0.0
516,0.0,0.0,0.0,0.3277470703125,0.0,0.0,0.0,0.0,0.0,0.0,-0.219,0.0,0.0,0.0,0.0,0.0,0.0,0.32192197365089753,0.0,0.0,0.0,0.0,0.0,0.0,-14.476,0.0,0.0,0.0
517,0.0,0.0,0.0,0.3252841796875,0.0,0.0,0.0,0.0,0.0,0.0,-0.29,0.0,0.0,0.0,0.0,0.0,0.0,0.31935841750335764,0.0,0.0,0.0,0.0,0.0,0.0,-13.628,0.0,0.0,0.0
518,0.0,0.0,0.0,0.3232626953125,0.0,0.0,0.0,0.0,0.0,0.0,-0.22,0.0,0.0,0.0,0.0,0.0,0.0,0.31683559815951706,0.0,0.0,0.0,0.0,0.0,0.0,-14.428,0.0,0.0,0.0
519,0.0,0.0,0.0,0.3203662109375,0.0,0.0,0.0,0.0,0.0,0.0,-0.239,0.0,0.0,0.0,0.0,0.0,0.0,0.3142934721438095,0.0,0.0,0.0,0.0,0.0,0.0,-14.408,0.0,0.0,0.0
520,0.0,0.0,0.0,0.3176142578125,0.0,0.0,0.0,0.0,0.0,0.0,-0.296,0.0,0.0,0.0,0.0,0.0,0.0,0.3117281460879258,0.0,0.0,0.0,0.0,0.0,0.0,-13.924,0.0,0.0,0.0
521,0.0,0.0,0.0,0.315294921875,0.0,0.0,0.0,0.0,0.0,0.0,-0.26,0.0,0.0,0.0,0.0,0.0,0.0,0.3091460409375382,0.0,0.0,0.0,0.0,0.0,0.0,-13.584,0.0,0.0,0.0
522,0.0,0.0,0.0,0.31254296875,0.0,0.0,0.0,0.0,0.0,0.0,-0.245,0.0,0.0,0.0,0.0,0.0,0.0,0.3065625732678928,0.0,0.0,0.0,0.0,0.0,0.0,-14.156,0.0,0.0,0.0
523,0.0,0.0,0.0,0.3097822265625,0.0,0.0,0.0,0.0,0.0,0.0,-0.283,0.0,0.0,0.0,0.0,0.0,0.0,0.3040207234334474,0.0,0.0,0.0,0.0,0.0,0.0,-13.628,0.0,0.0,0.0
524,0.0,0.0,0.0,0.307173828125,0.0,0.0,0.0,0.0,0.0,0.0,-0.269,0.0,0.0,0.0,0.0,0.0,0.0,0.30141504819707554,0.0,0.0,0.0,0.0,0.0,0.0,-13.856,0.0,0.0,0.0
525,0.0,0.0,0.0,0.3044306640625,0.0,0.0,0.0,0.0,0.0,0.0,-0.275,0.0,0.0,0.0,0.0,0.0,0.0,0.2987941180236229,0.0,0.0,0.0,0.0,0.0,0.0,-13.264,0.0,0.0,0.0
526,0.0,0.0,0.0,0.3016787109375,0.0,0.0,0.0,0.0,0.0,0.0,-0.27,0.0,0.0,0.0,0.0,0.0,0.0,0.29621889204110585,0.0,0.0,0.0,0.0,0.0,0.0,-14.2,0.0,0.0,0.0
527,0.0,0.0,0.0,0.2984931640625,0.0,0.0,0.0,0.0,0.0,0.0,-0.295,0.0,0.0,0.0,0.0,0.0,0.0,0.29358272394975743,0.0,0.0,0.0,0.0,0.0,0.0,-14.292,0.0,0.0,0.0
528,0.0,0.0,0.0,0.2961748046875,0.0,0.0,0.0,0.0,0.0,0.0,-0.289,0.0,0.0,0.0,0.0,0.0,0.0,0.2909853098227006,0.0,0.0,0.0,0.0,0.0,0.0,-14.268,0.0,0.0,0.0
529,0.0,0.0,0.0,0.2937109375,0.0,0.0,0.0,0.0,0.0,0.0,-0.233,0.0,0.0,0.0,0.0,0.0,0.0,0.28835885545267215,0.0,0.0,0.0,0.0,0.0,0.0,-14.248,0.0,0.0,0.0
530,0.0,0.0,0.0,0.29152734375,0.0,0.0,0.0,0.0,0.0,0.0,-0.242,0.0,0.0,0.0,0.0,0.0,0.0,0.2857379009206728,0.0,0.0,0.0,0.0,0.0,0.0,-13.72,0.0,0.0,0.0
531,0.0,0.0,0.0,0.2887841796875,0.0,0.0,0.0,0.0,0.0,0.0,-0.234,0.0,0.0,0.0,0.0,0.0,0.0,0.2830715328772875,0.0,0.0,0.0,0.0,0.0,0.0,-15.024,0.0,0.0,0.0
532,0.0,0.0,0.0,0.2860322265625,0.0,0.0,0.0,0.0,0.0,0.0,-0.295,0.0,0.0,0.0,0.0,0.0,0.0,0.28042577730908647,0.0,0.0,0.0,0.0,0.0,0.0,-13.764,0.0,0.0,0.0
533,0.0,0.0,0.0,0.284435546875,0.0,0.0,0.0,0.0,0.0,0.0,-0.214,0.0,0.0,0.0,0.0,0.0,0.0,0.27776294600824547,0.0,0.0,0.0,0.0,0.0,0.0,-13.88,0.0,0.0,0.0
534,0.0,0.0,0.0,0.2816826171875,0.0,0.0,0.0,0.0,0.0,0.0,-0.21,0.0,0.0,0.0,0.0,0.0,0.0,0.27507870388453204,0.0,0.0,0.0,0.0,0.0,0.0,-14.016,0.0,0.0,0.0
535,0.0,0.0,0.0,0.2790751953125,0.0,0.0,0.0,0.0,0.0,0.0,-0.285,0.0,0.0,0.0,0.0,0.0,0.0,0.2724583384295781,0.0,0.0,0.0,0.0,0.0,0.0,-13.72,0.0,0.0,0.0
536,0.0,0.0,0.0,0.27662109375,0.0,0.0,0.0,0.0,0.0,0.0,-0.255,0.0,0.0,0.0,0.0,0.0,0.0,0.2697796622715071,0.0,0.0,0.0,0.0,0.0,0.0,-14.248,0.0,0.0,0.0
537,0.0,0.0,0.0,0.2740126953125,0.0,0.0,0.0,0.0,0.0,0.0,-0.255,0.0,0.0,0.0,0.0,0.0,0.0,0.26708346934607835,0.0,0.0,0.0,0.0,0.0,0.0,-13.764,0.0,0.0,0.0
538,0.0,0.0,0.0,0.270962890625,0.0,0.0,0.0,0.0,0.0,0.0,-0.267,0.0,0.0,0.0,0.0,0.0,0.0,0.26438676172739656,0.0,0.0,0.0,0.0,0.0,0.0,-14.36,0.0,0.0,0.0
539,0.0,0.0,0.0,0.2676337890625,0.0,0.0,0.0,0.0,0.0,0.0,-0.326,0.0,0.0,0.0,0.0,0.0,0.0,0.261698278141002,0.0,0.0,0.0,0.0,0.0,0.0,-14.156,0.0,0.0,0.0
540,0.0,0.0,0.0,0.265169921875,0.0,0.0,0.0,0.0,0.0,0.0,-0.294,0.0,0.0,0.0,0.0,0.0,0.0,0.25898645073866755,0.0,0.0,0.0,0.0,0.0,0.0,-14.52,0.0,0.0,0.0
541,0.0,0.0,0.0,0.26241796875,0.0,0.0,0.0,0.0,0.0,0.0,-0.264,0.0,0.0,0.0,0.0,0.0,0.0,0.25613525911408397,0.0,0.0,0.0,0.0,0.0,0.0,-14.476,0.0,0.0,0.0
542,0.0,0.0,0.0,0.259666015625,0.0,0.0,0.0,0.0,0.0,0.0,-0.282,0.0,0.0,0.0,0.0,0.0,0.0,0.253571380681159,0.0,0.0,0.0,0.0,0.0,0.0,-14.36,0.0,0.0,0.0
543,0.0,0.0,0.0,0.2569140625,0.0,0.0,0.0,0.0,0.0,0.0,-0.278,0.0,0.0,0.0,0.0,0.0,0.0,0.2508335136935779,0.0,0.0,0.0,0.0,0.0,0.0,-14.292,0.0,0.0,0.0
544,0.0,0.0,0.0,0.254748046875,0.0,0.0,0.0,0.0,0.0,0.0,-0.26,0.0,0.0,0.0,0.0,0.0,0.0,0.24811659004917877,0.0,0.0,0.0,0.0,0.0,0.0,-13.904,0.0,0.0,0.0
545,0.0,0.0,0.0,0.2518427734375,0.0,0.0,0.0,0.0,0.0,0.0,-0.236,0.0,0.0,0.0,0.0,0.0,0.0,0.2453929933029839,0.0,0.0,0.0,0.0,0.0,0.0,-14.408,0.0,0.0,0.0
546,0.0,0.0,0.0,0.2489462890625,0.0,0.0,0.0,0.0,0.0,0.0,-0.298,0.0,0.0,0.0,0.0,0.0,0.0,0.24264682616661104,0.0,0.0,0.0,0.0,0.0,0.0,-13.56,0.0,0.0,0.0
547,0.0,0.0,0.0,0.246337890625,0.0,0.0,0.0,0.0,0.0,0.0,-0.274,0.0,0.0,0.0,0.0,0.0,0.0,0.23987804739544355,0.0,0.0,0.0,0.0,0.0,0.0,-14.108,0.0,0.0,0.0
548,0.0,0.0,0.0,0.243296875,0.0,0.0,0.0,0.0,0.0,0.0,-0.29,0.0,0.0,0.0,0.0,0.0,0.0,0.2371258428776663,0.0,0.0,0.0,0.0,0.0,0.0,-13.696,0.0,0.0,0.0
549,0.0,0.0,0.0,0.2402568359375,0.0,0.0,0.0,0.0,0.0,0.0,-0.306,0.0,0.0,0.0,0.0,0.0,0.0,0.23436211609486007,0.0,0.0,0.0,0.0,0.0,0.0,-14.292,0.0,0.0,0.0
550,0.0,0.0,0.0,0.2373603515625,0.0,0.0,0.0,0.0,0.0,0.0,-0.307,0.0,0.0,0.0,0.0,0.0,0.0,0.23162767730373107,0.0,0.0,0.0,0.0,0.0,0.0,-13.604,0.0,0.0,0.0
551,0.0,0.0,0.0,0.235041015625,0.0,0.0,0.0,0.0,0.0,0.0,-0.256,0.0,0.0,0.0,0.0,0.0,0.0,0.2288635066770991,0.0,0.0,0.0,0.0,0.0,0.0,-14.612,0.0,0.0,0.0
552,0.0,0.0,0.0,0.2317021484375,0.0,0.0,0.0,0.0,0.0,0.0,-0.285,0.0,0.0,0.0,0.0,0.0,0.0,0.22606713833556855,0.0,0.0,0.0,0.0,0.0,0.0,-15.024,0.0,0.0,0.0
553,0.0,0.0,0.0,0.2290947265625,0.0,0.0,0.0,0.0,0.0,0.0,-0.31,0.0,0.0,0.0,0.0,0.0,0.0,0.223263176400585,0.0,0.0,0.0,0.0,0.0,0.0,-14.68,0.0,0.0,0.0
554,0.0,0.0,0.0,0.226486328125,0.0,0.0,0.0,0.0,0.0,0.0,-0.256,0.0,0.0,0.0,0.0,0.0,0.0,0.22052718205071106,0.0,0.0,0.0,0.0,0.0,0.0,-14.704,0.0,0.0,0.0
555,0.0,0.0,0.0,0.2240322265625,0.0,0.0,0.0,0.0,0.0,0.0,-0.266,0.0,0.0,0.0,0.0,0.0,0.0,0.21771369466632548,0.0,0.0,0.0,0.0,0.0,0.0,-13.812,0.0,0.0,0.0
556,0.0,0.0,0.0,0.2212802734375,0.0,0.0,0.0,0.0,0.0,0.0,-0.253,0.0,0.0,0.0,0.0,0.0,0.0,0.214908440194843,0.0,0.0,0.0,0.0,0.0,0.0,-14.544,0.0,0.0,0.0
557,0.0,0.0,0.0,0.2185283203125,0.0,0.0,0.0,0.0,0.0,0.0,-0.282,0.0,0.0,0.0,0.0,0.0,0.0,0.2120921658519664,0.0,0.0,0.0,0.0,0.0,0.0,-14.268,0.0,0.0,0.0
558,0.0,0.0,0.0,0.2157763671875,0.0,0.0,0.0,0.0,0.0,0.0,-0.272,0.0,0.0,0.0,0.0,0.0,0.0,0.2092939360130867,0.0,0.0,0.0,0.0,0.0,0.0,-14.52,0.0,0.0,0.0
559,0.0,0.0,0.0,0.2124375,0.0,0.0,0.0,0.0,0.0,0.0,-0.307,0.0,0.0,0.0,0.0,0.0,0.0,0.20649158819183813,0.0,0.0,0.0,0.0,0.0,0.0,-13.924,0.0,0.0,0.0
560,0.0,0.0,0.0,0.209685546875,0.0,0.0,0.0,0.0,0.0,0.0,-0.318,0.0,0.0,0.0,0.0,0.0,0.0,0.20365250032102358,0.0,0.0,0.0,0.0,0.0,0.0,-13.72,0.0,0.0,0.0
561,0.0,0.0,0.0,0.2069326171875,0.0,0.0,0.0,0.0,0.0,0.0,-0.274,0.0,0.0,0.0,0.0,0.0,0.0,0.200841342989212,0.0,0.0,0.0,0.0,0.0,0.0,-14.084,0.0,0.0,0.0
562,0.0,0.0,0.0,0.2041806640625,0.0,0.0,0.0,0.0,0.0,0.0,-0.272,0.0,0.0,0.0,0.0,0.0,0.0,0.1980099526207296,0.0,0.0,0.0,0.0,0.0,0.0,-14.656,0.0,0.0,0.0
563,0.0,0.0,0.0,0.2015732421875,0.0,0.0,0.0,0.0,0.0,0.0,-0.278,0.0,0.0,0.0,0.0,0.0,0.0,0.19517867783936005,0.0,0.0,0.0,0.0,0.0,0.0,-14.452,0.0,0.0,0.0
564,0.0,0.0,0.0,0.1988212890625,0.0,0.0,0.0,0.0,0.0,0.0,-0.262,0.0,0.0,0.0,0.0,0.0,0.0,0.19235052888020668,0.0,0.0,0.0,0.0,0.0,0.0,-15.548,0.0,0.0,0.0
565,0.0,0.0,0.0,0.1953466796875,0.0,0.0,0.0,0.0,0.0,0.0,-0.323,0.0,0.0,0.0,0.0,0.0,0.0,0.18949249891223624,0.0,0.0,0.0,0.0,0.0,0.0,-14.04,0.0,0.0,0.0
566,0.0,0.0,0.0,0.1931630859375,0.0,0.0,0.0,0.0,0.0,0.0,-0.29,0.0,0.0,0.0,0.0,0.0,0.0,0.18666047851826492,0.0,0.0,0.0,0.0,0.0,0.0,-13.948,0.0,0.0,0.0
567,0.0,0.0,0.0,0.1899775390625,0.0,0.0,0.0,0.0,0.0,0.0,-0.257,0.0,0.0,0.0,0.0,0.0,0.0,0.18377795586139137,0.0,0.0,0.0,0.0,0.0,0.0,-14.544,0.0,0.0,0.0
568,0.0,0.0,0.0,0.1870810546875,0.0,0.0,0.0,0.0,0.0,0.0,-0.321,0.0,0.0,0.0,0.0,0.0,0.0,0.18093302674662218,0.0,0.0,0.0,0.0,0.0,0.0,-13.788,0.0,0.0,0.0
569,0.0,0.0,0.0,0.184482421875,0.0,0.0,0.0,0.0,0.0,0.0,-0.269,0.0,0.0,0.0,0.0,0.0,0.0,0.17808443548571815,0.0,0.0,0.0,0.0,0.0,0.0,-14.316,0.0,0.0,0.0
570,0.0,0.0,0.0,0.1815859375,0.0,0.0,0.0,0.0,0.0,0.0,-0.274,0.0,0.0,0.0,0.0,0.0,0.0,0.17519387960359384,0.0,0.0,0.0,0.0,0.0,0.0,-13.516,0.0,0.0,0.0
571,0.0,0.0,0.0,0.178544921875,0.0,0.0,0.0,0.0,0.0,0.0,-0.294,0.0,0.0,0.0,0.0,0.0,0.0,0.17232415288528785,0.0,0.0,0.0,0.0,0.0,0.0,-14.064,0.0,0.0,0.0
572,0.0,0.0,0.0,0.1753505859375,0.0,0.0,0.0,0.0,0.0,0.0,-0.315,0.0,0.0,0.0,0.0,0.0,0.0,0.16943749821708434,0.0,0.0,0.0,0.0,0.0,0.0,-14.52,0.0,0.0,0.0
573,0.0,0.0,0.0,0.1724541015625,0.0,0.0,0.0,0.0,0.0,0.0,-0.302,0.0,0.0,0.0,0.0,0.0,0.0,0.16659178930982552,0.0,0.0,0.0,0.0,0.0,0.0,-15.068,0.0,0.0,0.0
574,0.0,0.0,0.0,0.1695576171875,0.0,0.0,0.0,0.0,0.0,0.0,-0.294,0.0,0.0,0.0,0.0,0.0,0.0,0.1636308820329074,0.0,0.0,0.0,0.0,0.0,0.0,-14.588,0.0,0.0,0.0
575,0.0,0.0,0.0,0.1670947265625,0.0,0.0,0.0,0.0,0.0,0.0,-0.272,0.0,0.0,0.0,0.0,0.0,0.0,0.16081857694410764,0.0,0.0,0.0,0.0,0.0,0.0,-14.428,0.0,0.0,0.0
576,0.0,0.0,0.0,0.164486328125,0.0,0.0,0.0,0.0,0.0,0.0,-0.255,0.0,0.0,0.0,0.0,0.0,0.0,0.1579338719874047,0.0,0.0,0.0,0.0,0.0,0.0,-14.544,0.0,0.0,0.0
577,0.0,0.0,0.0,0.1614462890625,0.0,0.0,0.0,0.0,0.0,0.0,-0.279,0.0,0.0,0.0,0.0,0.0,0.0,0.15500412653223755,0.0,0.0,0.0,0.0,0.0,0.0,-15.32,0.0,0.0,0.0
578,0.0,0.0,0.0,0.158693359375,0.0,0.0,0.0,0.0,0.0,0.0,-0.301,0.0,0.0,0.0,0.0,0.0,0.0,0.15210487208984472,0.0,0.0,0.0,0.0,0.0,0.0,-14.612,0.0,0.0,0.0
579,0.0,0.0,0.0,0.15594140625,0.0,0.0,0.0,0.0,0.0,0.0,-0.273,0.0,0.0,0.0,0.0,0.0,0.0,0.14920444981065906,0.0,0.0,0.0,0.0,0.0,0.0,-14.568,0.0,0.0,0.0
580,0.0,0.0,0.0,0.1527470703125,0.0,0.0,0.0,0.0,0.0,0.0,-0.294,0.0,0.0,0.0,0.0,0.0,0.0,0.14629628304985096,0.0,0.0,0.0,0.0,0.0,0.0,-13.88,0.0,0.0,0.0
581,0.0,0.0,0.0,0.1499951171875,0.0,0.0,0.0,0.0,0.0,0.0,-0.311,0.0,0.0,0.0,0.0,0.0,0.0,0.14339313913378487,0.0,0.0,0.0,0.0,0.0,0.0,-13.744,0.0,0.0,0.0
582,0.0,0.0,0.0,0.147541015625,0.0,0.0,0.0,0.0,0.0,0.0,-0.262,0.0,0.0,0.0,0.0,0.0,0.0,0.14046049282360867,0.0,0.0,0.0,0.0,0.0,0.0,-14.156,0.0,0.0,0.0
583,0.0,0.0,0.0,0.1445,0.0,0.0,0.0,0.0,0.0,0.0,-0.264,0.0,0.0,0.0,0.0,0.0,0.0,0.13755764044386626,0.0,0.0,0.0,0.0,0.0,0.0,-15.0,0.0,0.0,0.0
584,0.0,0.0,0.0,0.141314453125,0.0,0.0,0.0,0.0,0.0,0.0,-0.319,0.0,0.0,0.0,0.0,0.0,0.0,0.13463291473453715,0.0,0.0,0.0,0.0,0.0,0.0,-14.568,0.0,0.0,0.0
585,0.0,0.0,0.0,0.13870703125,0.0,0.0,0.0,0.0,0.0,0.0,-0.298,0.0,0.0,0.0,0.0,0.0,0.0,0.13172937930802833,0.0,0.0,0.0,0.0,0.0,0.0,-14.248,0.0,0.0,0.0
586,0.0,0.0,0.0,0.135810546875,0.0,0.0,0.0,0.0,0.0,0.0,-0.266,0.0,0.0,0.0,0.0,0.0,0.0,0.12878368823094072,0.0,0.0,0.0,0.0,0.0,0.0,-14.796,0.0,0.0,0.0
587,0.0,0.0,0.0,0.1323271484375,0.0,0.0,0.0,0.0,0.0,0.0,-0.332,0.0,0.0,0.0,0.0,0.0,0.0,0.1258537617645902,0.0,0.0,0.0,0.0,0.0,0.0,-14.612,0.0,0.0,0.0
588,0.0,0.0,0.0,0.1297197265625,0.0,0.0,0.0,0.0,0.0,0.0,-0.31,0.0,0.0,0.0,0.0,0.0,0.0,0.12291509203146617,0.0,0.0,0.0,0.0,0.0,0.0,-14.888,0.0,0.0,0.0
589,0.0,0.0,0.0,0.1269677734375,0.0,0.0,0.0,0.0,0.0,0.0,-0.255,0.0,0.0,0.0,0.0,0.0,0.0,0.11997894785264858,0.0,0.0,0.0,0.0,0.0,0.0,-14.476,0.0,0.0,0.0
590,0.0,0.0,0.0,0.1234931640625,0.0,0.0,0.0,0.0,0.0,0.0,-0.31,0.0,0.0,0.0,0.0,0.0,0.0,0.11704836626595284,0.0,0.0,0.0,0.0,0.0,0.0,-14.384,0.0,0.0,0.0
591,0.0,0.0,0.0,0.1204521484375,0.0,0.0,0.0,0.0,0.0,0.0,-0.339,0.0,0.0,0.0,0.0,0.0,0.0,0.1141142469767773,0.0,0.0,0.0,0.0,0.0,0.0,-14.108,0.0,0.0,0.0
592,0.0,0.0,0.0,0.1174111328125,0.0,0.0,0.0,0.0,0.0,0.0,-0.301,0.0,0.0,0.0,0.0,0.0,0.0,0.11114671860993003,0.0,0.0,0.0,0.0,0.0,0.0,-14.908,0.0,0.0,0.0
593,0.0,0.0,0.0,0.1142177734375,0.0,0.0,0.0,0.0,0.0,0.0,-0.319,0.0,0.0,0.0,0.0,0.0,0.0,0.10820901593907663,0.0,0.0,0.0,0.0,0.0,0.0,-14.36,0.0,0.0,0.0
594,0.0,0.0,0.0,0.11175390625,0.0,0.0,0.0,0.0,0.0,0.0,-0.295,0.0,0.0,0.0,0.0,0.0,0.0,0.10523088629620148,0.0,0.0,0.0,0.0,0.0,0.0,-14.408,0.0,0.0,0.0
595,0.0,0.0,0.0,0.108857421875,0.0,0.0,0.0,0.0,0.0,0.0,-0.254,0.0,0.0,0.0,0.0,0.0,0.0,0.10227044785684875,0.0,0.0,0.0,0.0,0.0,0.0,-15.16,0.0,0.0,0.0
596,0.0,0.0,0.0,0.105671875,0.0,0.0,0.0,0.0,0.0,0.0,-0.313,0.0,0.0,0.0,0.0,0.0,0.0,0.09933678703587225,0.0,0.0,0.0,0.0,0.0,0.0,-15.024,0.0,0.0,0.0
597,0.0,0.0,0.0,0.103208984375,0.0,0.0,0.0,0.0,0.0,0.0,-0.297,0.0,0.0,0.0,0.0,0.0,0.0,0.09638846924482879,0.0,0.0,0.0,0.0,0.0,0.0,-14.568,0.0,0.0,0.0
598,0.0,0.0,0.0,0.1003212890625,0.0,0.0,0.0,0.0,0.0,0.0,-0.252,0.0,0.0,0.0,0.0,0.0,0.0,0.09338985744480778,0.0,0.0,0.0,0.0,0.0,0.0,-15.092,0.0,0.0,0.0
599,0.0,0.0,0.0,0.0969912109375,0.0,0.0,0.0,0.0,0.0,0.0,-0.317,0.0,0.0,0.0,0.0,0.0,0.0,0.0904359453200918,0.0,0.0,0.0,0.0,0.0,0.0,-14.336,0.0,0.0,0.0
600,0.0,0.0,0.0,0.09423046875,0.0,0.0,0.0,0.0,0.0,0.0,-0.314,0.0,0.0,0.0,0.0,0.0,0.0,0.08748537869115673,0.0,0.0,0.0,0.0,0.0,0.0,-14.476,0.0,0.0,0.0
601,0.0,0.0,0.0,0.091189453125,0.0,0.0,0.0,0.0,0.0,0.0,-0.279,0.0,0.0,0.0,0.0,0.0,0.0,0.08451607878208062,0.0,0.0,0.0,0.0,0.0,0.0,-14.496,0.0,0.0,0.0
602,0.0,0.0,0.0,0.08800390625,0.0,0.0,0.0,0.0,0.0,0.0,-0.323,0.0,0.0,0.0,0.0,0.0,0.0,0.0815509014211988,0.0,0.0,0.0,0.0,0.0,0.0,-13.604,0.0,0.0,0.0
603,0.0,0.0,0.0,0.085251953125,0.0,0.0,0.0,0.0,0.0,0.0,-0.3,0.0,0.0,0.0,0.0,0.0,0.0,0.07855511685503806,0.0,0.0,0.0,0.0,0.0,0.0,-14.292,0.0,0.0,0.0
604,0.0,0.0,0.0,0.0817783203125,0.0,0.0,0.0,0.0,0.0,0.0,-0.304,0.0,0.0,0.0,0.0,0.0,0.0,0.07556982670327979,0.0,0.0,0.0,0.0,0.0,0.0,-15.024,0.0,0.0,0.0
605,0.0,0.0,0.0,0.0785927734375,0.0,0.0,0.0,0.0,0.0,0.0,-0.349,0.0,0.0,0.0,0.0,0.0,0.0,0.07262672539181873,0.0,0.0,0.0,0.0,0.0,0.0,-14.108,0.0,0.0,0.0
606,0.0,0.0,0.0,0.0762734375,0.0,0.0,0.0,0.0,0.0,0.0,-0.275,0.0,0.0,0.0,0.0,0.0,0.0,0.06966075017481196,0.0,0.0,0.0,0.0,0.0,0.0,-14.84,0.0,0.0,0.0
607,0.0,0.0,0.0,0.072646484375,0.0,0.0,0.0,0.0,0.0,0.0,-0.294,0.0,0.0,0.0,0.0,0.0,0.0,0.06667449592240313,0.0,0.0,0.0,0.0,0.0,0.0,-14.932,0.0,0.0,0.0
608,0.0,0.0,0.0,0.0700390625,0.0,0.0,0.0,0.0,0.0,0.0,-0.336,0.0,0.0,0.0,0.0,0.0,0.0,0.06365228777811686,0.0,0.0,0.0,0.0,0.0,0.0,-14.36,0.0,0.0,0.0
609,0.0,0.0,0.0,0.0674306640625,0.0,0.0,0.0,0.0,0.0,0.0,-0.241,0.0,0.0,0.0,0.0,0.0,0.0,0.06070067182951326,0.0,0.0,0.0,0.0,0.0,0.0,-15.412,0.0,0.0,0.0
610,0.0,0.0,0.0,0.06395703125,0.0,0.0,0.0,0.0,0.0,0.0,-0.303,0.0,0.0,0.0,0.0,0.0,0.0,0.057717384845306356,0.0,0.0,0.0,0.0,0.0,0.0,-14.452,0.0,0.0,0.0
611,0.0,0.0,0.0,0.061205078125,0.0,0.0,0.0,0.0,0.0,0.0,-0.333,0.0,0.0,0.0,0.0,0.0,0.0,0.05471898125948856,0.0,0.0,0.0,0.0,0.0,0.0,-13.924,0.0,0.0,0.0
612,0.0,0.0,0.0,0.0581640625,0.0,0.0,0.0,0.0,0.0,0.0,-0.273,0.0,0.0,0.0,0.0,0.0,0.0,0.051732310760045745,0.0,0.0,0.0,0.0,0.0,0.0,-14.588,0.0,0.0,0.0
613,0.0,0.0,0.0,0.054689453125,0.0,0.0,0.0,0.0,0.0,0.0,-0.327,0.0,0.0,0.0,0.0,0.0,0.0,0.048737718359020556,0.0,0.0,0.0,0.0,0.0,0.0,-13.972,0.0,0.0,0.0
614,0.0,0.0,0.0,0.0522177734375,0.0,0.0,0.0,0.0,0.0,0.0,-0.312,0.0,0.0,0.0,0.0,0.0,0.0,0.04571294840813076,0.0,0.0,0.0,0.0,0.0,0.0,-14.888,0.0,0.0,0.0
615,0.0,0.0,0.0,0.0488876953125,0.0,0.0,0.0,0.0,0.0,0.0,-0.283,0.0,0.0,0.0,0.0,0.0,0.0,0.042753145371694896,0.0,0.0,0.0,0.0,0.0,0.0,-15.436,0.0,0.0,0.0
616,0.0,0.0,0.0,0.0462802734375,0.0,0.0,0.0,0.0,0.0,0.0,-0.322,0.0,0.0,0.0,0.0,0.0,0.0,0.03976560456256299,0.0,0.0,0.0,0.0,0.0,0.0,-13.744,0.0,0.0,0.0
617,0.0,0.0,0.0,0.0439697265625,0.0,0.0,0.0,0.0,0.0,0.0,-0.229,0.0,0.0,0.0,0.0,0.0,0.0,0.03675972512076174,0.0,0.0,0.0,0.0,0.0,0.0,-15.848,0.0,0.0,0.0
618,0.0,0.0,0.0,0.0401982421875,0.0,0.0,0.0,0.0,0.0,0.0,-0.306,0.0,0.0,0.0,0.0,0.0,0.0,0.033763416917072415,0.0,0.0,0.0,0.0,0.0,0.0,-14.976,0.0,0.0,0.0
619,0.0,0.0,0.0,0.037744140625,0.0,0.0,0.0,0.0,0.0,0.0,-0.331,0.0,0.0,0.0,0.0,0.0,0.0,0.030793550579055085,0.0,0.0,0.0,0.0,0.0,0.0,-14.932,0.0,0.0,0.0
620,0.0,0.0,0.0,0.03455859375,0.0,0.0,0.0,0.0,0.0,0.0,-0.253,0.0,0.0,0.0,0.0,0.0,0.0,0.027789632495204077,0.0,0.0,0.0,0.0,0.0,0.0,-15.528,0.0,0.0,0.0
621,0.0,0.0,0.0,0.0312109375,0.0,0.0,0.0,0.0,0.0,0.0,-0.346,0.0,0.0,0.0,0.0,0.0,0.0,0.024782657861113166,0.0,0.0,0.0,0.0,0.0,0.0,-13.4,0.0,0.0,0.0
622,0.0,0.0,0.0,0.0287568359375,0.0,0.0,0.0,0.0,0.0,0.0,-0.289,0.0,0.0,0.0,0.0,0.0,0.0,0.02177377296715052,0.0,0.0,0.0,0.0,0.0,0.0,-14.52,0.0,0.0,0.0
623,0.0,0.0,0.0,0.0252734375,0.0,0.0,0.0,0.0,0.0,0.0,-0.291,0.0,0.0,0.0,0.0,0.0,0.0,0.018771917675072778,0.0,0.0,0.0,0.0,0.0,0.0,-14.336,0.0,0.0,0.0
624,0.0,0.0,0.0,0.0226748046875,0.0,0.0,0.0,0.0,0.0,0.0,-0.325,0.0,0.0,0.0,0.0,0.0,0.0,0.015796261774537974,0.0,0.0,0.0,0.0,0.0,0.0,-14.132,0.0,0.0,0.0
625,0.0,0.0,0.0,0.0193447265625,0.0,0.0,0.0,0.0,0.0,0.0,-0.281,0.0,0.0,0.0,0.0,0.0,0.0,0.012795903874262412,0.0,0.0,0.0,0.0,0.0,0.0,-15.732,0.0,0.0,0.0
626,0.0,0.0,0.0,0.0157177734375,0.0,0.0,0.0,0.0,0.0,0.0,-0.363,0.0,0.0,0.0,0.0,0.0,0.0,0.009792222144425983,0.0,0.0,0.0,0.0,0.0,0.0,-13.788,0.0,0.0,0.0
627,0.0,0.0,0.0,0.013263671875,0.0,0.0,0.0,0.0,0.0,0.0,-0.304,0.0,0.0,0.0,0.0,0.0,0.0,0.006804530184382178,0.0,0.0,0.0,0.0,0.0,0.0,-14.84,0.0,0.0,0.0
628,0.0,0.0,0.0,0.009771484375,0.0,0.0,0.0,0.0,0.0,0.0,-0.288,0.0,0.0,0.0,0.0,0.0,0.0,0.0037827670296888744,0.0,0.0,0.0,0.0,0.0,0.0,-14.864,0.0,0.0,0.0
629,0.0,0.0,0.0,0.0071728515625,0.0,0.0,0.0,0.0,0.0,0.0,-0.326,0.0,0.0,0.0,0.0,0.0,0.0,0.0007974574586423622,0.0,0.0,0.0,0.0,0.0,0.0,-14.428,0.0,0.0,0.0
630,0.0,0.0,0.0,0.004419921875,0.0,0.0,0.0,0.0,0.0,0.0,-0.262,0.0,0.0,0.0,0.0,0.0,0.0,-0.002188372530043079,0.0,0.0,0.0,0.0,0.0,0.0,-15.756,0.0,0.0,0.0
631,0.0,0.0,0.0,0.00079296875,0.0,0.0,0.0,0.0,0.0,0.0,-0.319,0.0,0.0,0.0,0.0,0.0,0.0,-0.00520576144579599,0.0,0.0,0.0,0.0,0.0,0.0,-14.248,0.0,0.0,0.0
632,0.0,0.0,0.0,-0.0018046875,0.0,0.0,0.0,0.0,0.0,0.0,-0.317,0.0,0.0,0.0,0.0,0.0,0.0,-0.008219085162166372,0.0,0.0,0.0,0.0,0.0,0.0,-14.2,0.0,0.0,0.0
633,0.0,0.0,0.0,-0.005134765625,0.0,0.0,0.0,0.0,0.0,0.0,-0.285,0.0,0.0,0.0,0.0,0.0,0.0,-0.011219829788033243,0.0,0.0,0.0,0.0,0.0,0.0,-14.292,0.0,0.0,0.0
634,0.0,0.0,0.0,-0.00817578125,0.0,0.0,0.0,0.0,0.0,0.0,-0.341,0.0,0.0,0.0,0.0,0.0,0.0,-0.01418232426557303,0.0,0.0,0.0,0.0,0.0,0.0,-13.904,0.0,0.0,0.0
635,0.0,0.0,0.0,-0.0110810546875,0.0,0.0,0.0,0.0,0.0,0.0,-0.296,0.0,0.0,0.0,0.0,0.0,0.0,-0.01721368120991783,0.0,0.0,0.0,0.0,0.0,0.0,-15.708,0.0,0.0,0.0
636,0.0,0.0,0.0,-0.014564453125,0.0,0.0,0.0,0.0,0.0,0.0,-0.321,0.0,0.0,0.0,0.0,0.0,0.0,-0.020251175072881808,0.0,0.0,0.0,0.0,0.0,0.0,-14.384,0.0,0.0,0.0
637,0.0,0.0,0.0,-0.0168740234375,0.0,0.0,0.0,0.0,0.0,0.0,-0.302,0.0,0.0,0.0,0.0,0.0,0.0,-0.023210816868064033,0.0,0.0,0.0,0.0,0.0,0.0,-14.428,0.0,0.0,0.0
638,0.0,0.0,0.0,-0.0197705078125,0.0,0.0,0.0,0.0,0.0,0.0,-0.255,0.0,0.0,0.0,0.0,0.0,0.0,-0.026203192315974684,0.0,0.0,0.0,0.0,0.0,0.0,-14.704,0.0,0.0,0.0
639,0.0,0.0,0.0,-0.0225224609375,0.0,0.0,0.0,0.0,0.0,0.0,-0.289,0.0,0.0,0.0,0.0,0.0,0.0,-0.029211346287330717,0.0,0.0,0.0,0.0,0.0,0.0,-14.476,0.0,0.0,0.0
640,0.0,0.0,0.0,-0.0254189453125,0.0,0.0,0.0,0.0,0.0,0.0,-0.278,0.0,0.0,0.0,0.0,0.0,0.0,-0.03217326828278597,0.0,0.0,0.0,0.0,0.0,0.0,-15.892,0.0,0.0,0.0
641,0.0,0.0,0.0,-0.0286044921875,0.0,0.0,0.0,0.0,0.0,0.0,-0.319,0.0,0.0,0.0,0.0,0.0,0.0,-0.035191026472572426,0.0,0.0,0.0,0.0,0.0,0.0,-14.316,0.0,0.0,0.0
642,0.0,0.0,0.0,-0.0307880859375,0.0,0.0,0.0,0.0,0.0,0.0,-0.273,0.0,0.0,0.0,0.0,0.0,0.0,-0.0382668516545133,0.0,0.0,0.0,0.0,0.0,0.0,-13.836,0.0,0.0,0.0
643,0.0,0.0,0.0,-0.03440625,0.0,0.0,0.0,0.0,0.0,0.0,-0.263,0.0,0.0,0.0,0.0,0.0,0.0,-0.0411512886241398,0.0,0.0,0.0,0.0,0.0,0.0,-14.748,0.0,0.0,0.0
644,0.0,0.0,0.0,-0.037736328125,0.0,0.0,0.0,0.0,0.0,0.0,-0.375,0.0,0.0,0.0,0.0,0.0,0.0,-0.044151755121968186,0.0,0.0,0.0,0.0,0.0,0.0,-13.788,0.0,0.0,0.0
645,0.0,0.0,0.0,-0.0400546875,0.0,0.0,0.0,0.0,0.0,0.0,-0.279,0.0,0.0,0.0,0.0,0.0,0.0,-0.047204376055094206,0.0,0.0,0.0,0.0,0.0,0.0,-15.388,0.0,0.0,0.0
646,0.0,0.0,0.0,-0.043818359375,0.0,0.0,0.0,0.0,0.0,0.0,-0.293,0.0,0.0,0.0,0.0,0.0,0.0,-0.05012718811787623,0.0,0.0,0.0,0.0,0.0,0.0,-14.568,0.0,0.0,0.0
647,0.0,0.0,0.0,-0.04671484375,0.0,0.0,0.0,0.0,0.0,0.0,-0.351,0.0,0.0,0.0,0.0,0.0,0.0,-0.05312446503612975,0.0,0.0,0.0,0.0,0.0,0.0,-14.224,0.0,0.0,0.0
648,0.0,0.0,0.0,-0.049611328125,0.0,0.0,0.0,0.0,0.0,0.0,-0.281,0.0,0.0,0.0,0.0,0.0,0.0,-0.05614995928089408,0.0,0.0,0.0,0.0,0.0,0.0,-15.436,0.0,0.0,0.0
649,0.0,0.0,0.0,-0.0528056640625,0.0,0.0,0.0,0.0,0.0,0.0,-0.319,0.0,0.0,0.0,0.0,0.0,0.0,-0.059093369940467204,0.0,0.0,0.0,0.0,0.0,0.0,-14.496,0.0,0.0,0.0
650,0.0,0.0,0.0,-0.0552685546875,0.0,0.0,0.0,0.0,0.0,0.0,-0.286,0.0,0.0,0.0,0.0,0.0,0.0,-0.062100368878617196,0.0,0.0,0.0,0.0,0.0,0.0,-14.816,0.0,0.0,0.0
651,0.0,0.0,0.0,-0.0581650390625,0.0,0.0,0.0,0.0,0.0,0.0,-0.258,0.0,0.0,0.0,0.0,0.0,0.0,-0.06509128690069174,0.0,0.0,0.0,0.0,0.0,0.0,-14.612,0.0,0.0,0.0
652,0.0,0.0,0.0,-0.0614951171875,0.0,0.0,0.0,0.0,0.0,0.0,-0.314,0.0,0.0,0.0,0.0,0.0,0.0,-0.06803366688757896,0.0,0.0,0.0,0.0,0.0,0.0,-14.68,0.0,0.0,0.0
653,0.0,0.0,0.0,-0.0645361328125,0.0,0.0,0.0,0.0,0.0,0.0,-0.328,0.0,0.0,0.0,0.0,0.0,0.0,-0.07104889333807166,0.0,0.0,0.0,0.0,0.0,0.0,-14.2,0.0,0.0,0.0
654,0.0,0.0,0.0,-0.0671435546875,0.0,0.0,0.0,0.0,0.0,0.0,-0.278,0.0,0.0,0.0,0.0,0.0,0.0,-0.07406144931542345,0.0,0.0,0.0,0.0,0.0,0.0,-14.176,0.0,0.0,0.0
655,0.0,0.0,0.0,-0.07047265625,0.0,0.0,0.0,0.0,0.0,0.0,-0.3,0.0,0.0,0.0,0.0,0.0,0.0,-0.07697358349412751,0.0,0.0,0.0,0.0,0.0,0.0,-14.316,0.0,0.0,0.0
656,0.0,0.0,0.0,-0.073369140625,0.0,0.0,0.0,0.0,0.0,0.0,-0.328,0.0,0.0,0.0,0.0,0.0,0.0,-0.07995944203415493,0.0,0.0,0.0,0.0,0.0,0.0,-14.336,0.0,0.0,0.0
657,0.0,0.0,0.0,-0.076275390625,0.0,0.0,0.0,0.0,0.0,0.0,-0.277,0.0,0.0,0.0,0.0,0.0,0.0,-0.08296014554653675,0.0,0.0,0.0,0.0,0.0,0.0,-15.48,0.0,0.0,0.0
658,0.0,0.0,0.0,-0.0797490234375,0.0,0.0,0.0,0.0,0.0,0.0,-0.317,0.0,0.0,0.0,0.0,0.0,0.0,-0.08590861708635,0.0,0.0,0.0,0.0,0.0,0.0,-15.048,0.0,0.0,0.0
659,0.0,0.0,0.0,-0.0825009765625,0.0,0.0,0.0,0.0,0.0,0.0,-0.326,0.0,0.0,0.0,0.0,0.0,0.0,-0.08887484916374414,0.0,0.0,0.0,0.0,0.0,0.0,-14.728,0.0,0.0,0.0
660,0.0,0.0,0.0,-0.085388671875,0.0,0.0,0.0,0.0,0.0,0.0,-0.275,0.0,0.0,0.0,0.0,0.0,0.0,-0.09183709495804918,0.0,0.0,0.0,0.0,0.0,0.0,-15.0,0.0,0.0,0.0
661,0.0,0.0,0.0,-0.08828515625,0.0,0.0,0.0,0.0,0.0,0.0,-0.307,0.0,0.0,0.0,0.0,0.0,0.0,-0.09480326549361738,0.0,0.0,0.0,0.0,0.0,0.0,-14.084,0.0,0.0,0.0
662,0.0,0.0,0.0,-0.0907490234375,0.0,0.0,0.0,0.0,0.0,0.0,-0.266,0.0,0.0,0.0,0.0,0.0,0.0,-0.09776466229183267,0.0,0.0,0.0,0.0,0.0,0.0,-15.048,0.0,0.0,0.0
663,0.0,0.0,0.0,-0.09393359375,0.0,0.0,0.0,0.0,0.0,0.0,-0.278,0.0,0.0,0.0,0.0,0.0,0.0,-0.10075908113336877,0.0,0.0,0.0,0.0,0.0,0.0,-14.568,0.0,0.0,0.0
664,0.0,0.0,0.0,-0.0966953125,0.0,0.0,0.0,0.0,0.0,0.0,-0.306,0.0,0.0,0.0,0.0,0.0,0.0,-0.10367744154510625,0.0,0.0,0.0,0.0,0.0,0.0,-14.248,0.0,0.0,0.0
665,0.0,0.0,0.0,-0.1001689453125,0.0,0.0,0.0,0.0,0.0,0.0,-0.294,0.0,0.0,0.0,0.0,0.0,0.0,-0.1066280472410307,0.0,0.0,0.0,0.0,0.0,0.0,-14.956,0.0,0.0,0.0
666,0.0,0.0,0.0,-0.1036435546875,0.0,0.0,0.0,0.0,0.0,0.0,-0.368,0.0,0.0,0.0,0.0,0.0,0.0,-0.10959076031095151,0.0,0.0,0.0,0.0,0.0,0.0,-13.444,0.0,0.0,0.0
667,0.0,0.0,0.0,-0.1058173828125,0.0,0.0,0.0,0.0,0.0,0.0,-0.283,0.0,0.0,0.0,0.0,0.0,0.0,-0.11251326501714236,0.0,0.0,0.0,0.0,0.0,0.0,-14.496,0.0,0.0,0.0
668,0.0,0.0,0.0,-0.1092919921875,0.0,0.0,0.0,0.0,0.0,0.0,-0.272,0.0,0.0,0.0,0.0,0.0,0.0,-0.11548866532030386,0.0,0.0,0.0,0.0,0.0,0.0,-14.52,0.0,0.0,0.0
669,0.0,0.0,0.0,-0.111611328125,0.0,0.0,0.0,0.0,0.0,0.0,-0.314,0.0,0.0,0.0,0.0,0.0,0.0,-0.11844401043472028,0.0,0.0,0.0,0.0,0.0,0.0,-14.016,0.0,0.0,0.0
670,0.0,0.0,0.0,-0.1145078125,0.0,0.0,0.0,0.0,0.0,0.0,-0.237,0.0,0.0,0.0,0.0,0.0,0.0,-0.12136057454988096,0.0,0.0,0.0,0.0,0.0,0.0,-16.556,0.0,0.0,0.0
671,0.0,0.0,0.0,-0.1179814453125,0.0,0.0,0.0,0.0,0.0,0.0,-0.336,0.0,0.0,0.0,0.0,0.0,0.0,-0.12429850281445026,0.0,0.0,0.0,0.0,0.0,0.0,-13.628,0.0,0.0,0.0
