EmanuelSamir/lab201_ws_projsamir/sawyer_dev/data/sawyer/vel_sin_motion_incrf/test_joint4/training_data_4.csv
,j1,j2,j3,j4,j5,j6,j7,v1,v2,v3,v4,v5,v6,v7,jd1,jd2,jd3,jd4,jd5,jd6,jd7,e1,e2,e3,e4,e5,e6,e7
0,0.0,0.0,0.0,0.0,0.0,0.0,0.0,0.0,0.0,0.0,0.0,0.0,0.0,0.0,0.0,0.0,0.0,0.0,0.0,0.0,0.0,0.0,0.0,0.0,0.0,0.0,0.0,0.0
1,0.0,0.0,0.0,-0.000505859375,0.0,0.0,0.0,0.0,0.0,0.0,-0.001,0.0,0.0,0.0,0.0,0.0,0.0,0.00022087096669127715,0.0,0.0,0.0,0.0,0.0,0.0,-13.904,0.0,0.0,0.0
2,0.0,0.0,0.0,-0.000505859375,0.0,0.0,0.0,0.0,0.0,0.0,-0.001,0.0,0.0,0.0,0.0,0.0,0.0,0.0253102517968184,0.0,0.0,0.0,0.0,0.0,0.0,-13.836,0.0,0.0,0.0
3,0.0,0.0,0.0,-0.000505859375,0.0,0.0,0.0,0.0,0.0,0.0,-0.001,0.0,0.0,0.0,0.0,0.0,0.0,0.04920006656509376,0.0,0.0,0.0,0.0,0.0,0.0,-13.764,0.0,0.0,0.0
4,0.0,0.0,0.0,-0.000505859375,0.0,0.0,0.0,0.0,0.0,0.0,-0.001,0.0,0.0,0.0,0.0,0.0,0.0,0.07331883286479306,0.0,0.0,0.0,0.0,0.0,0.0,-13.836,0.0,0.0,0.0
5,0.0,0.0,0.0,-0.000505859375,0.0,0.0,0.0,0.0,0.0,0.0,-0.001,0.0,0.0,0.0,0.0,0.0,0.0,0.09701748212687412,0.0,0.0,0.0,0.0,0.0,0.0,-13.676,0.0,0.0,0.0
6,0.0,0.0,0.0,0.0002158203125,0.0,0.0,0.0,0.0,0.0,0.0,0.019,0.0,0.0,0.0,0.0,0.0,0.0,0.12042488992997501,0.0,0.0,0.0,0.0,0.0,0.0,-12.484,0.0,0.0,0.0
7,0.0,0.0,0.0,0.0023896484375,0.0,0.0,0.0,0.0,0.0,0.0,0.127,0.0,0.0,0.0,0.0,0.0,0.0,0.14375945646391222,0.0,0.0,0.0,0.0,0.0,0.0,-11.228,0.0,0.0,0.0
8,0.0,0.0,0.0,0.0054306640625,0.0,0.0,0.0,0.0,0.0,0.0,0.258,0.0,0.0,0.0,0.0,0.0,0.0,0.1696573078970223,0.0,0.0,0.0,0.0,0.0,0.0,-10.748,0.0,0.0,0.0
9,0.0,0.0,0.0,0.009193359375,0.0,0.0,0.0,0.0,0.0,0.0,0.331,0.0,0.0,0.0,0.0,0.0,0.0,0.1898490732040862,0.0,0.0,0.0,0.0,0.0,0.0,-10.36,0.0,0.0,0.0
10,0.0,0.0,0.0,0.0139853515625,0.0,0.0,0.0,0.0,0.0,0.0,0.426,0.0,0.0,0.0,0.0,0.0,0.0,0.21255701780040537,0.0,0.0,0.0,0.0,0.0,0.0,-10.428,0.0,0.0,0.0
11,0.0,0.0,0.0,0.0187587890625,0.0,0.0,0.0,0.0,0.0,0.0,0.487,0.0,0.0,0.0,0.0,0.0,0.0,0.23483977132725053,0.0,0.0,0.0,0.0,0.0,0.0,-10.268,0.0,0.0,0.0
12,0.0,0.0,0.0,0.0239736328125,0.0,0.0,0.0,0.0,0.0,0.0,0.488,0.0,0.0,0.0,0.0,0.0,0.0,0.2565906334821605,0.0,0.0,0.0,0.0,0.0,0.0,-9.216,0.0,0.0,0.0
13,0.0,0.0,0.0,0.0303447265625,0.0,0.0,0.0,0.0,0.0,0.0,0.582,0.0,0.0,0.0,0.0,0.0,0.0,0.27819135674064643,0.0,0.0,0.0,0.0,0.0,0.0,-9.444,0.0,0.0,0.0
14,0.0,0.0,0.0,0.0368681640625,0.0,0.0,0.0,0.0,0.0,0.0,0.643,0.0,0.0,0.0,0.0,0.0,0.0,0.29930641313071765,0.0,0.0,0.0,0.0,0.0,0.0,-10.312,0.0,0.0,0.0
15,0.0,0.0,0.0,0.043681640625,0.0,0.0,0.0,0.0,0.0,0.0,0.659,0.0,0.0,0.0,0.0,0.0,0.0,0.3198944718688887,0.0,0.0,0.0,0.0,0.0,0.0,-10.748,0.0,0.0,0.0
16,0.0,0.0,0.0,0.0504853515625,0.0,0.0,0.0,0.0,0.0,0.0,0.691,0.0,0.0,0.0,0.0,0.0,0.0,0.3397852293220595,0.0,0.0,0.0,0.0,0.0,0.0,-11.48,0.0,0.0,0.0
17,0.0,0.0,0.0,0.0570087890625,0.0,0.0,0.0,0.0,0.0,0.0,0.665,0.0,0.0,0.0,0.0,0.0,0.0,0.35937722187885973,0.0,0.0,0.0,0.0,0.0,0.0,-10.06,0.0,0.0,0.0
18,0.0,0.0,0.0,0.0643896484375,0.0,0.0,0.0,0.0,0.0,0.0,0.692,0.0,0.0,0.0,0.0,0.0,0.0,0.3782939472765862,0.0,0.0,0.0,0.0,0.0,0.0,-9.968,0.0,0.0,0.0
19,0.0,0.0,0.0,0.0713466796875,0.0,0.0,0.0,0.0,0.0,0.0,0.735,0.0,0.0,0.0,0.0,0.0,0.0,0.39652879770130306,0.0,0.0,0.0,0.0,0.0,0.0,-11.18,0.0,0.0,0.0
20,0.0,0.0,0.0,0.0783037109375,0.0,0.0,0.0,0.0,0.0,0.0,0.693,0.0,0.0,0.0,0.0,0.0,0.0,0.4143919873057236,0.0,0.0,0.0,0.0,0.0,0.0,-11.912,0.0,0.0,0.0
21,0.0,0.0,0.0,0.085541015625,0.0,0.0,0.0,0.0,0.0,0.0,0.722,0.0,0.0,0.0,0.0,0.0,0.0,0.4312942111734047,0.0,0.0,0.0,0.0,0.0,0.0,-13.104,0.0,0.0,0.0
22,0.0,0.0,0.0,0.092498046875,0.0,0.0,0.0,0.0,0.0,0.0,0.707,0.0,0.0,0.0,0.0,0.0,0.0,0.44804292994087924,0.0,0.0,0.0,0.0,0.0,0.0,-12.944,0.0,0.0,0.0
23,0.0,0.0,0.0,0.099455078125,0.0,0.0,0.0,0.0,0.0,0.0,0.703,0.0,0.0,0.0,0.0,0.0,0.0,0.46338258869109844,0.0,0.0,0.0,0.0,0.0,0.0,-13.584,0.0,0.0,0.0
24,0.0,0.0,0.0,0.10625,0.0,0.0,0.0,0.0,0.0,0.0,0.695,0.0,0.0,0.0,0.0,0.0,0.0,0.47819309838716795,0.0,0.0,0.0,0.0,0.0,0.0,-14.52,0.0,0.0,0.0
25,0.0,0.0,0.0,0.113197265625,0.0,0.0,0.0,0.0,0.0,0.0,0.684,0.0,0.0,0.0,0.0,0.0,0.0,0.4922296307905894,0.0,0.0,0.0,0.0,0.0,0.0,-14.268,0.0,0.0,0.0
26,0.0,0.0,0.0,0.1204521484375,0.0,0.0,0.0,0.0,0.0,0.0,0.715,0.0,0.0,0.0,0.0,0.0,0.0,0.5055739644963749,0.0,0.0,0.0,0.0,0.0,0.0,-14.316,0.0,0.0,0.0
27,0.0,0.0,0.0,0.127255859375,0.0,0.0,0.0,0.0,0.0,0.0,0.713,0.0,0.0,0.0,0.0,0.0,0.0,0.5181034609333324,0.0,0.0,0.0,0.0,0.0,0.0,-14.452,0.0,0.0,0.0
28,0.0,0.0,0.0,0.133626953125,0.0,0.0,0.0,0.0,0.0,0.0,0.673,0.0,0.0,0.0,0.0,0.0,0.0,0.5297482921693589,0.0,0.0,0.0,0.0,0.0,0.0,-14.976,0.0,0.0,0.0
29,0.0,0.0,0.0,0.140150390625,0.0,0.0,0.0,0.0,0.0,0.0,0.64,0.0,0.0,0.0,0.0,0.0,0.0,0.540592611358084,0.0,0.0,0.0,0.0,0.0,0.0,-15.136,0.0,0.0,0.0
30,0.0,0.0,0.0,0.1466650390625,0.0,0.0,0.0,0.0,0.0,0.0,0.658,0.0,0.0,0.0,0.0,0.0,0.0,0.5505285077728017,0.0,0.0,0.0,0.0,0.0,0.0,-15.16,0.0,0.0,0.0
31,0.0,0.0,0.0,0.15346875,0.0,0.0,0.0,0.0,0.0,0.0,0.666,0.0,0.0,0.0,0.0,0.0,0.0,0.559620983463489,0.0,0.0,0.0,0.0,0.0,0.0,-15.228,0.0,0.0,0.0
32,0.0,0.0,0.0,0.160146484375,0.0,0.0,0.0,0.0,0.0,0.0,0.68,0.0,0.0,0.0,0.0,0.0,0.0,0.5683386971947423,0.0,0.0,0.0,0.0,0.0,0.0,-16.74,0.0,0.0,0.0
33,0.0,0.0,0.0,0.166373046875,0.0,0.0,0.0,0.0,0.0,0.0,0.65,0.0,0.0,0.0,0.0,0.0,0.0,0.5751456722422047,0.0,0.0,0.0,0.0,0.0,0.0,-17.632,0.0,0.0,0.0
34,0.0,0.0,0.0,0.1727431640625,0.0,0.0,0.0,0.0,0.0,0.0,0.626,0.0,0.0,0.0,0.0,0.0,0.0,0.5815033728892585,0.0,0.0,0.0,0.0,0.0,0.0,-16.716,0.0,0.0,0.0
35,0.0,0.0,0.0,0.179267578125,0.0,0.0,0.0,0.0,0.0,0.0,0.655,0.0,0.0,0.0,0.0,0.0,0.0,0.5870858921792955,0.0,0.0,0.0,0.0,0.0,0.0,-15.252,0.0,0.0,0.0
36,0.0,0.0,0.0,0.1854931640625,0.0,0.0,0.0,0.0,0.0,0.0,0.641,0.0,0.0,0.0,0.0,0.0,0.0,0.5914698710225818,0.0,0.0,0.0,0.0,0.0,0.0,-14.796,0.0,0.0,0.0
37,0.0,0.0,0.0,0.1915751953125,0.0,0.0,0.0,0.0,0.0,0.0,0.625,0.0,0.0,0.0,0.0,0.0,0.0,0.5950386588686724,0.0,0.0,0.0,0.0,0.0,0.0,-15.368,0.0,0.0,0.0
38,0.0,0.0,0.0,0.197376953125,0.0,0.0,0.0,0.0,0.0,0.0,0.598,0.0,0.0,0.0,0.0,0.0,0.0,0.5976478432826102,0.0,0.0,0.0,0.0,0.0,0.0,-15.78,0.0,0.0,0.0
39,0.0,0.0,0.0,0.203025390625,0.0,0.0,0.0,0.0,0.0,0.0,0.583,0.0,0.0,0.0,0.0,0.0,0.0,0.5992985244852032,0.0,0.0,0.0,0.0,0.0,0.0,-15.068,0.0,0.0,0.0
40,0.0,0.0,0.0,0.2086748046875,0.0,0.0,0.0,0.0,0.0,0.0,0.568,0.0,0.0,0.0,0.0,0.0,0.0,0.5999779566951948,0.0,0.0,0.0,0.0,0.0,0.0,-13.996,0.0,0.0,0.0
41,0.0,0.0,0.0,0.214314453125,0.0,0.0,0.0,0.0,0.0,0.0,0.56,0.0,0.0,0.0,0.0,0.0,0.0,0.5997028084999583,0.0,0.0,0.0,0.0,0.0,0.0,-13.904,0.0,0.0,0.0
42,0.0,0.0,0.0,0.2198271484375,0.0,0.0,0.0,0.0,0.0,0.0,0.569,0.0,0.0,0.0,0.0,0.0,0.0,0.5984518373115135,0.0,0.0,0.0,0.0,0.0,0.0,-15.136,0.0,0.0,0.0
43,0.0,0.0,0.0,0.22533203125,0.0,0.0,0.0,0.0,0.0,0.0,0.557,0.0,0.0,0.0,0.0,0.0,0.0,0.5962976158877726,0.0,0.0,0.0,0.0,0.0,0.0,-15.548,0.0,0.0,0.0
44,0.0,0.0,0.0,0.23069140625,0.0,0.0,0.0,0.0,0.0,0.0,0.542,0.0,0.0,0.0,0.0,0.0,0.0,0.593127104502879,0.0,0.0,0.0,0.0,0.0,0.0,-14.888,0.0,0.0,0.0
45,0.0,0.0,0.0,0.236349609375,0.0,0.0,0.0,0.0,0.0,0.0,0.55,0.0,0.0,0.0,0.0,0.0,0.0,0.5890441686054613,0.0,0.0,0.0,0.0,0.0,0.0,-13.24,0.0,0.0,0.0
46,0.0,0.0,0.0,0.2417001953125,0.0,0.0,0.0,0.0,0.0,0.0,0.554,0.0,0.0,0.0,0.0,0.0,0.0,0.5840633328936188,0.0,0.0,0.0,0.0,0.0,0.0,-12.896,0.0,0.0,0.0
47,0.0,0.0,0.0,0.246916015625,0.0,0.0,0.0,0.0,0.0,0.0,0.535,0.0,0.0,0.0,0.0,0.0,0.0,0.5780513915281765,0.0,0.0,0.0,0.0,0.0,0.0,-13.012,0.0,0.0,0.0
48,0.0,0.0,0.0,0.252419921875,0.0,0.0,0.0,0.0,0.0,0.0,0.545,0.0,0.0,0.0,0.0,0.0,0.0,0.5711483985040414,0.0,0.0,0.0,0.0,0.0,0.0,-13.356,0.0,0.0,0.0
49,0.0,0.0,0.0,0.2577802734375,0.0,0.0,0.0,0.0,0.0,0.0,0.543,0.0,0.0,0.0,0.0,0.0,0.0,0.5634167229045067,0.0,0.0,0.0,0.0,0.0,0.0,-13.308,0.0,0.0,0.0
50,0.0,0.0,0.0,0.2629951171875,0.0,0.0,0.0,0.0,0.0,0.0,0.526,0.0,0.0,0.0,0.0,0.0,0.0,0.5546648119295461,0.0,0.0,0.0,0.0,0.0,0.0,-12.484,0.0,0.0,0.0
51,0.0,0.0,0.0,0.2685,0.0,0.0,0.0,0.0,0.0,0.0,0.54,0.0,0.0,0.0,0.0,0.0,0.0,0.5449835180798582,0.0,0.0,0.0,0.0,0.0,0.0,-12.372,0.0,0.0,0.0
52,0.0,0.0,0.0,0.273869140625,0.0,0.0,0.0,0.0,0.0,0.0,0.543,0.0,0.0,0.0,0.0,0.0,0.0,0.5346538156539002,0.0,0.0,0.0,0.0,0.0,0.0,-12.668,0.0,0.0,0.0
53,0.0,0.0,0.0,0.2793642578125,0.0,0.0,0.0,0.0,0.0,0.0,0.551,0.0,0.0,0.0,0.0,0.0,0.0,0.5233383308916755,0.0,0.0,0.0,0.0,0.0,0.0,-13.4,0.0,0.0,0.0
54,0.0,0.0,0.0,0.2848681640625,0.0,0.0,0.0,0.0,0.0,0.0,0.551,0.0,0.0,0.0,0.0,0.0,0.0,0.5110838884969907,0.0,0.0,0.0,0.0,0.0,0.0,-13.764,0.0,0.0,0.0
55,0.0,0.0,0.0,0.2905166015625,0.0,0.0,0.0,0.0,0.0,0.0,0.556,0.0,0.0,0.0,0.0,0.0,0.0,0.4981900844773706,0.0,0.0,0.0,0.0,0.0,0.0,-13.88,0.0,0.0,0.0
56,0.0,0.0,0.0,0.296462890625,0.0,0.0,0.0,0.0,0.0,0.0,0.581,0.0,0.0,0.0,0.0,0.0,0.0,0.4844215160003594,0.0,0.0,0.0,0.0,0.0,0.0,-12.804,0.0,0.0,0.0
57,0.0,0.0,0.0,0.302255859375,0.0,0.0,0.0,0.0,0.0,0.0,0.593,0.0,0.0,0.0,0.0,0.0,0.0,0.46978737519156943,0.0,0.0,0.0,0.0,0.0,0.0,-12.392,0.0,0.0,0.0
58,0.0,0.0,0.0,0.3080498046875,0.0,0.0,0.0,0.0,0.0,0.0,0.582,0.0,0.0,0.0,0.0,0.0,0.0,0.4545928853226318,0.0,0.0,0.0,0.0,0.0,0.0,-12.576,0.0,0.0,0.0
59,0.0,0.0,0.0,0.31399609375,0.0,0.0,0.0,0.0,0.0,0.0,0.59,0.0,0.0,0.0,0.0,0.0,0.0,0.43847130372902504,0.0,0.0,0.0,0.0,0.0,0.0,-12.668,0.0,0.0,0.0
60,0.0,0.0,0.0,0.3197802734375,0.0,0.0,0.0,0.0,0.0,0.0,0.591,0.0,0.0,0.0,0.0,0.0,0.0,0.42159217681323274,0.0,0.0,0.0,0.0,0.0,0.0,-12.692,0.0,0.0,0.0
61,0.0,0.0,0.0,0.3255732421875,0.0,0.0,0.0,0.0,0.0,0.0,0.582,0.0,0.0,0.0,0.0,0.0,0.0,0.4043476497024163,0.0,0.0,0.0,0.0,0.0,0.0,-12.304,0.0,0.0,0.0
62,0.0,0.0,0.0,0.3315107421875,0.0,0.0,0.0,0.0,0.0,0.0,0.592,0.0,0.0,0.0,0.0,0.0,0.0,0.3863434682265088,0.0,0.0,0.0,0.0,0.0,0.0,-12.28,0.0,0.0,0.0
63,0.0,0.0,0.0,0.33745703125,0.0,0.0,0.0,0.0,0.0,0.0,0.59,0.0,0.0,0.0,0.0,0.0,0.0,0.36757418045224366,0.0,0.0,0.0,0.0,0.0,0.0,-12.964,0.0,0.0,0.0
64,0.0,0.0,0.0,0.34339453125,0.0,0.0,0.0,0.0,0.0,0.0,0.597,0.0,0.0,0.0,0.0,0.0,0.0,0.3485058424813204,0.0,0.0,0.0,0.0,0.0,0.0,-13.72,0.0,0.0,0.0
65,0.0,0.0,0.0,0.3494755859375,0.0,0.0,0.0,0.0,0.0,0.0,0.606,0.0,0.0,0.0,0.0,0.0,0.0,0.32872991711175936,0.0,0.0,0.0,0.0,0.0,0.0,-13.948,0.0,0.0,0.0
66,0.0,0.0,0.0,0.35556640625,0.0,0.0,0.0,0.0,0.0,0.0,0.611,0.0,0.0,0.0,0.0,0.0,0.0,0.3079153462485093,0.0,0.0,0.0,0.0,0.0,0.0,-13.812,0.0,0.0,0.0
67,0.0,0.0,0.0,0.3610712890625,0.0,0.0,0.0,0.0,0.0,0.0,0.603,0.0,0.0,0.0,0.0,0.0,0.0,0.2875165463347176,0.0,0.0,0.0,0.0,0.0,0.0,-15.208,0.0,0.0,0.0
68,0.0,0.0,0.0,0.3623701171875,0.0,0.0,0.0,0.0,0.0,0.0,0.393,0.0,0.0,0.0,0.0,0.0,0.0,0.2662594934954144,0.0,0.0,0.0,0.0,0.0,0.0,-20.9,0.0,0.0,0.0
69,0.0,0.0,0.0,0.36150390625,0.0,0.0,0.0,0.0,0.0,0.0,0.019,0.0,0.0,0.0,0.0,0.0,0.0,0.2443781476138357,0.0,0.0,0.0,0.0,0.0,0.0,-21.38,0.0,0.0,0.0
70,0.0,0.0,0.0,0.3600517578125,0.0,0.0,0.0,0.0,0.0,0.0,-0.09,0.0,0.0,0.0,0.0,0.0,0.0,0.22239645900934518,0.0,0.0,0.0,0.0,0.0,0.0,-22.844,0.0,0.0,0.0
71,0.0,0.0,0.0,0.3564326171875,0.0,0.0,0.0,0.0,0.0,0.0,-0.247,0.0,0.0,0.0,0.0,0.0,0.0,0.1999767111208651,0.0,0.0,0.0,0.0,0.0,0.0,-21.588,0.0,0.0,0.0
72,0.0,0.0,0.0,0.352669921875,0.0,0.0,0.0,0.0,0.0,0.0,-0.381,0.0,0.0,0.0,0.0,0.0,0.0,0.17680304749309952,0.0,0.0,0.0,0.0,0.0,0.0,-22.228,0.0,0.0,0.0
73,0.0,0.0,0.0,0.34904296875,0.0,0.0,0.0,0.0,0.0,0.0,-0.366,0.0,0.0,0.0,0.0,0.0,0.0,0.15404919562179561,0.0,0.0,0.0,0.0,0.0,0.0,-23.6,0.0,0.0,0.0
74,0.0,0.0,0.0,0.344404296875,0.0,0.0,0.0,0.0,0.0,0.0,-0.399,0.0,0.0,0.0,0.0,0.0,0.0,0.13079757399676933,0.0,0.0,0.0,0.0,0.0,0.0,-24.972,0.0,0.0,0.0
75,0.0,0.0,0.0,0.3376005859375,0.0,0.0,0.0,0.0,0.0,0.0,-0.559,0.0,0.0,0.0,0.0,0.0,0.0,0.10708500552405549,0.0,0.0,0.0,0.0,0.0,0.0,-24.332,0.0,0.0,0.0
76,0.0,0.0,0.0,0.33006640625,0.0,0.0,0.0,0.0,0.0,0.0,-0.72,0.0,0.0,0.0,0.0,0.0,0.0,0.08341933412289723,0.0,0.0,0.0,0.0,0.0,0.0,-23.28,0.0,0.0,0.0
77,0.0,0.0,0.0,0.3219541015625,0.0,0.0,0.0,0.0,0.0,0.0,-0.786,0.0,0.0,0.0,0.0,0.0,0.0,0.059666077418794206,0.0,0.0,0.0,0.0,0.0,0.0,-21.452,0.0,0.0,0.0
78,0.0,0.0,0.0,0.3148623046875,0.0,0.0,0.0,0.0,0.0,0.0,-0.782,0.0,0.0,0.0,0.0,0.0,0.0,0.03548723756852429,0.0,0.0,0.0,0.0,0.0,0.0,-18.592,0.0,0.0,0.0
79,0.0,0.0,0.0,0.3080498046875,0.0,0.0,0.0,0.0,0.0,0.0,-0.692,0.0,0.0,0.0,0.0,0.0,0.0,0.011622841496223968,0.0,0.0,0.0,0.0,0.0,0.0,-18.592,0.0,0.0,0.0
80,0.0,0.0,0.0,0.29979296875,0.0,0.0,0.0,0.0,0.0,0.0,-0.741,0.0,0.0,0.0,0.0,0.0,0.0,-0.012260542047654357,0.0,0.0,0.0,0.0,0.0,0.0,-21.176,0.0,0.0,0.0
81,0.0,0.0,0.0,0.2908056640625,0.0,0.0,0.0,0.0,0.0,0.0,-0.87,0.0,0.0,0.0,0.0,0.0,0.0,-0.03635182056986815,0.0,0.0,0.0,0.0,0.0,0.0,-20.696,0.0,0.0,0.0
82,0.0,0.0,0.0,0.28255859375,0.0,0.0,0.0,0.0,0.0,0.0,-0.886,0.0,0.0,0.0,0.0,0.0,0.0,-0.060487438838463976,0.0,0.0,0.0,0.0,0.0,0.0,-16.488,0.0,0.0,0.0
83,0.0,0.0,0.0,0.2753125,0.0,0.0,0.0,0.0,0.0,0.0,-0.775,0.0,0.0,0.0,0.0,0.0,0.0,-0.08396083474385072,0.0,0.0,0.0,0.0,0.0,0.0,-14.268,0.0,0.0,0.0
84,0.0,0.0,0.0,0.2663251953125,0.0,0.0,0.0,0.0,0.0,0.0,-0.792,0.0,0.0,0.0,0.0,0.0,0.0,-0.10771253115694011,0.0,0.0,0.0,0.0,0.0,0.0,-14.888,0.0,0.0,0.0
85,0.0,0.0,0.0,0.2582216796875,0.0,0.0,0.0,0.0,0.0,0.0,-0.889,0.0,0.0,0.0,0.0,0.0,0.0,-0.1314339446626568,0.0,0.0,0.0,0.0,0.0,0.0,-14.476,0.0,0.0,0.0
86,0.0,0.0,0.0,0.251400390625,0.0,0.0,0.0,0.0,0.0,0.0,-0.747,0.0,0.0,0.0,0.0,0.0,0.0,-0.154630723397801,0.0,0.0,0.0,0.0,0.0,0.0,-14.796,0.0,0.0,0.0
87,0.0,0.0,0.0,0.2431533203125,0.0,0.0,0.0,0.0,0.0,0.0,-0.745,0.0,0.0,0.0,0.0,0.0,0.0,-0.17774094240203242,0.0,0.0,0.0,0.0,0.0,0.0,-12.852,0.0,0.0,0.0
88,0.0,0.0,0.0,0.234021484375,0.0,0.0,0.0,0.0,0.0,0.0,-0.88,0.0,0.0,0.0,0.0,0.0,0.0,-0.20049921827949466,0.0,0.0,0.0,0.0,0.0,0.0,-12.304,0.0,0.0,0.0
89,0.0,0.0,0.0,0.2261982421875,0.0,0.0,0.0,0.0,0.0,0.0,-0.872,0.0,0.0,0.0,0.0,0.0,0.0,-0.2229823520264345,0.0,0.0,0.0,0.0,0.0,0.0,-12.004,0.0,0.0,0.0
90,0.0,0.0,0.0,0.2196826171875,0.0,0.0,0.0,0.0,0.0,0.0,-0.727,0.0,0.0,0.0,0.0,0.0,0.0,-0.24514908573961244,0.0,0.0,0.0,0.0,0.0,0.0,-11.592,0.0,0.0,0.0
91,0.0,0.0,0.0,0.2127255859375,0.0,0.0,0.0,0.0,0.0,0.0,-0.665,0.0,0.0,0.0,0.0,0.0,0.0,-0.2667796750461669,0.0,0.0,0.0,0.0,0.0,0.0,-11.456,0.0,0.0,0.0
92,0.0,0.0,0.0,0.205046875,0.0,0.0,0.0,0.0,0.0,0.0,-0.736,0.0,0.0,0.0,0.0,0.0,0.0,-0.28786788359840565,0.0,0.0,0.0,0.0,0.0,0.0,-12.532,0.0,0.0,0.0
93,0.0,0.0,0.0,0.197666015625,0.0,0.0,0.0,0.0,0.0,0.0,-0.764,0.0,0.0,0.0,0.0,0.0,0.0,-0.3087982408361029,0.0,0.0,0.0,0.0,0.0,0.0,-11.684,0.0,0.0,0.0
94,0.0,0.0,0.0,0.1911416015625,0.0,0.0,0.0,0.0,0.0,0.0,-0.704,0.0,0.0,0.0,0.0,0.0,0.0,-0.33004787234040506,0.0,0.0,0.0,0.0,0.0,0.0,-10.428,0.0,0.0,0.0
95,0.0,0.0,0.0,0.1841943359375,0.0,0.0,0.0,0.0,0.0,0.0,-0.675,0.0,0.0,0.0,0.0,0.0,0.0,-0.3488004724456239,0.0,0.0,0.0,0.0,0.0,0.0,-9.512,0.0,0.0,0.0
96,0.0,0.0,0.0,0.1770927734375,0.0,0.0,0.0,0.0,0.0,0.0,-0.707,0.0,0.0,0.0,0.0,0.0,0.0,-0.36804420279642636,0.0,0.0,0.0,0.0,0.0,0.0,-10.52,0.0,0.0,0.0
97,0.0,0.0,0.0,0.170568359375,0.0,0.0,0.0,0.0,0.0,0.0,-0.689,0.0,0.0,0.0,0.0,0.0,0.0,-0.3869471541265486,0.0,0.0,0.0,0.0,0.0,0.0,-12.164,0.0,0.0,0.0
98,0.0,0.0,0.0,0.164630859375,0.0,0.0,0.0,0.0,0.0,0.0,-0.634,0.0,0.0,0.0,0.0,0.0,0.0,-0.4047869780541139,0.0,0.0,0.0,0.0,0.0,0.0,-11.412,0.0,0.0,0.0
99,0.0,0.0,0.0,0.158837890625,0.0,0.0,0.0,0.0,0.0,0.0,-0.593,0.0,0.0,0.0,0.0,0.0,0.0,-0.4222234703027215,0.0,0.0,0.0,0.0,0.0,0.0,-11.16,0.0,0.0,0.0
100,0.0,0.0,0.0,0.1526025390625,0.0,0.0,0.0,0.0,0.0,0.0,-0.601,0.0,0.0,0.0,0.0,0.0,0.0,-0.438957546853539,0.0,0.0,0.0,0.0,0.0,0.0,-11.432,0.0,0.0,0.0
101,0.0,0.0,0.0,0.1466650390625,0.0,0.0,0.0,0.0,0.0,0.0,-0.62,0.0,0.0,0.0,0.0,0.0,0.0,-0.4548682624684022,0.0,0.0,0.0,0.0,0.0,0.0,-12.052,0.0,0.0,0.0
102,0.0,0.0,0.0,0.1408720703125,0.0,0.0,0.0,0.0,0.0,0.0,-0.59,0.0,0.0,0.0,0.0,0.0,0.0,-0.470203418537406,0.0,0.0,0.0,0.0,0.0,0.0,-12.6,0.0,0.0,0.0
103,0.0,0.0,0.0,0.1355126953125,0.0,0.0,0.0,0.0,0.0,0.0,-0.567,0.0,0.0,0.0,0.0,0.0,0.0,-0.48477938382959257,0.0,0.0,0.0,0.0,0.0,0.0,-11.64,0.0,0.0,0.0
104,0.0,0.0,0.0,0.130296875,0.0,0.0,0.0,0.0,0.0,0.0,-0.535,0.0,0.0,0.0,0.0,0.0,0.0,-0.4983799584693699,0.0,0.0,0.0,0.0,0.0,0.0,-12.14,0.0,0.0,0.0
105,0.0,0.0,0.0,0.1249375,0.0,0.0,0.0,0.0,0.0,0.0,-0.536,0.0,0.0,0.0,0.0,0.0,0.0,-0.5113201542162966,0.0,0.0,0.0,0.0,0.0,0.0,-13.172,0.0,0.0,0.0
106,0.0,0.0,0.0,0.1195771484375,0.0,0.0,0.0,0.0,0.0,0.0,-0.534,0.0,0.0,0.0,0.0,0.0,0.0,-0.5236337910164917,0.0,0.0,0.0,0.0,0.0,0.0,-14.108,0.0,0.0,0.0
107,0.0,0.0,0.0,0.1142177734375,0.0,0.0,0.0,0.0,0.0,0.0,-0.54,0.0,0.0,0.0,0.0,0.0,0.0,-0.5347863675249375,0.0,0.0,0.0,0.0,0.0,0.0,-14.568,0.0,0.0,0.0
108,0.0,0.0,0.0,0.109146484375,0.0,0.0,0.0,0.0,0.0,0.0,-0.528,0.0,0.0,0.0,0.0,0.0,0.0,-0.5452321056225561,0.0,0.0,0.0,0.0,0.0,0.0,-14.064,0.0,0.0,0.0
109,0.0,0.0,0.0,0.10436328125,0.0,0.0,0.0,0.0,0.0,0.0,-0.496,0.0,0.0,0.0,0.0,0.0,0.0,-0.5549024940154826,0.0,0.0,0.0,0.0,0.0,0.0,-14.224,0.0,0.0,0.0
110,0.0,0.0,0.0,0.099599609375,0.0,0.0,0.0,0.0,0.0,0.0,-0.488,0.0,0.0,0.0,0.0,0.0,0.0,-0.5635147738438262,0.0,0.0,0.0,0.0,0.0,0.0,-14.956,0.0,0.0,0.0
111,0.0,0.0,0.0,0.0948076171875,0.0,0.0,0.0,0.0,0.0,0.0,-0.474,0.0,0.0,0.0,0.0,0.0,0.0,-0.5713018846745371,0.0,0.0,0.0,0.0,0.0,0.0,-15.868,0.0,0.0,0.0
112,0.0,0.0,0.0,0.0896015625,0.0,0.0,0.0,0.0,0.0,0.0,-0.501,0.0,0.0,0.0,0.0,0.0,0.0,-0.5783653686569514,0.0,0.0,0.0,0.0,0.0,0.0,-15.436,0.0,0.0,0.0
113,0.0,0.0,0.0,0.0842412109375,0.0,0.0,0.0,0.0,0.0,0.0,-0.533,0.0,0.0,0.0,0.0,0.0,0.0,-0.5841368321561791,0.0,0.0,0.0,0.0,0.0,0.0,-14.772,0.0,0.0,0.0
114,0.0,0.0,0.0,0.079169921875,0.0,0.0,0.0,0.0,0.0,0.0,-0.529,0.0,0.0,0.0,0.0,0.0,0.0,-0.589158021428982,0.0,0.0,0.0,0.0,0.0,0.0,-14.84,0.0,0.0,0.0
115,0.0,0.0,0.0,0.0742431640625,0.0,0.0,0.0,0.0,0.0,0.0,-0.503,0.0,0.0,0.0,0.0,0.0,0.0,-0.5932725974439065,0.0,0.0,0.0,0.0,0.0,0.0,-15.572,0.0,0.0,0.0
116,0.0,0.0,0.0,0.0690283203125,0.0,0.0,0.0,0.0,0.0,0.0,-0.505,0.0,0.0,0.0,0.0,0.0,0.0,-0.5963533014996094,0.0,0.0,0.0,0.0,0.0,0.0,-16.236,0.0,0.0,0.0
117,0.0,0.0,0.0,0.0638125,0.0,0.0,0.0,0.0,0.0,0.0,-0.524,0.0,0.0,0.0,0.0,0.0,0.0,-0.5985154464661339,0.0,0.0,0.0,0.0,0.0,0.0,-16.304,0.0,0.0,0.0
118,0.0,0.0,0.0,0.05801953125,0.0,0.0,0.0,0.0,0.0,0.0,-0.552,0.0,0.0,0.0,0.0,0.0,0.0,-0.5997281339954378,0.0,0.0,0.0,0.0,0.0,0.0,-15.708,0.0,0.0,0.0
119,0.0,0.0,0.0,0.0522177734375,0.0,0.0,0.0,0.0,0.0,0.0,-0.584,0.0,0.0,0.0,0.0,0.0,0.0,-0.5999711940189153,0.0,0.0,0.0,0.0,0.0,0.0,-15.388,0.0,0.0,0.0
120,0.0,0.0,0.0,0.0467216796875,0.0,0.0,0.0,0.0,0.0,0.0,-0.573,0.0,0.0,0.0,0.0,0.0,0.0,-0.5992686522448415,0.0,0.0,0.0,0.0,0.0,0.0,-15.664,0.0,0.0,0.0
121,0.0,0.0,0.0,0.0415068359375,0.0,0.0,0.0,0.0,0.0,0.0,-0.536,0.0,0.0,0.0,0.0,0.0,0.0,-0.5975884704158729,0.0,0.0,0.0,0.0,0.0,0.0,-16.512,0.0,0.0,0.0
122,0.0,0.0,0.0,0.036001953125,0.0,0.0,0.0,0.0,0.0,0.0,-0.539,0.0,0.0,0.0,0.0,0.0,0.0,-0.5949741474237024,0.0,0.0,0.0,0.0,0.0,0.0,-16.6,0.0,0.0,0.0
123,0.0,0.0,0.0,0.0303447265625,0.0,0.0,0.0,0.0,0.0,0.0,-0.559,0.0,0.0,0.0,0.0,0.0,0.0,-0.5914113469666422,0.0,0.0,0.0,0.0,0.0,0.0,-16.144,0.0,0.0,0.0
124,0.0,0.0,0.0,0.0242626953125,0.0,0.0,0.0,0.0,0.0,0.0,-0.587,0.0,0.0,0.0,0.0,0.0,0.0,-0.5868710939192117,0.0,0.0,0.0,0.0,0.0,0.0,-15.3,0.0,0.0,0.0
125,0.0,0.0,0.0,0.017892578125,0.0,0.0,0.0,0.0,0.0,0.0,-0.634,0.0,0.0,0.0,0.0,0.0,0.0,-0.5814050246976545,0.0,0.0,0.0,0.0,0.0,0.0,-14.772,0.0,0.0,0.0
126,0.0,0.0,0.0,0.0119462890625,0.0,0.0,0.0,0.0,0.0,0.0,-0.614,0.0,0.0,0.0,0.0,0.0,0.0,-0.5750452261144925,0.0,0.0,0.0,0.0,0.0,0.0,-14.452,0.0,0.0,0.0
127,0.0,0.0,0.0,0.0060087890625,0.0,0.0,0.0,0.0,0.0,0.0,-0.598,0.0,0.0,0.0,0.0,0.0,0.0,-0.5676029791691933,0.0,0.0,0.0,0.0,0.0,0.0,-14.976,0.0,0.0,0.0
128,0.0,0.0,0.0,7.12890625e-05,0.0,0.0,0.0,0.0,0.0,0.0,-0.601,0.0,0.0,0.0,0.0,0.0,0.0,-0.5593566919816493,0.0,0.0,0.0,0.0,0.0,0.0,-14.728,0.0,0.0,0.0
129,0.0,0.0,0.0,-0.006154296875,0.0,0.0,0.0,0.0,0.0,0.0,-0.607,0.0,0.0,0.0,0.0,0.0,0.0,-0.5503865077752512,0.0,0.0,0.0,0.0,0.0,0.0,-15.068,0.0,0.0,0.0
130,0.0,0.0,0.0,-0.012822265625,0.0,0.0,0.0,0.0,0.0,0.0,-0.653,0.0,0.0,0.0,0.0,0.0,0.0,-0.5403446938997475,0.0,0.0,0.0,0.0,0.0,0.0,-15.048,0.0,0.0,0.0
131,0.0,0.0,0.0,-0.018904296875,0.0,0.0,0.0,0.0,0.0,0.0,-0.649,0.0,0.0,0.0,0.0,0.0,0.0,-0.5293976220605185,0.0,0.0,0.0,0.0,0.0,0.0,-14.612,0.0,0.0,0.0
132,0.0,0.0,0.0,-0.024841796875,0.0,0.0,0.0,0.0,0.0,0.0,-0.602,0.0,0.0,0.0,0.0,0.0,0.0,-0.5178103959420561,0.0,0.0,0.0,0.0,0.0,0.0,-14.84,0.0,0.0,0.0
133,0.0,0.0,0.0,-0.0307880859375,0.0,0.0,0.0,0.0,0.0,0.0,-0.604,0.0,0.0,0.0,0.0,0.0,0.0,-0.5051925485676595,0.0,0.0,0.0,0.0,0.0,0.0,-14.292,0.0,0.0,0.0
134,0.0,0.0,0.0,-0.0365810546875,0.0,0.0,0.0,0.0,0.0,0.0,-0.583,0.0,0.0,0.0,0.0,0.0,0.0,-0.4917561426556867,0.0,0.0,0.0,0.0,0.0,0.0,-14.656,0.0,0.0,0.0
135,0.0,0.0,0.0,-0.043240234375,0.0,0.0,0.0,0.0,0.0,0.0,-0.616,0.0,0.0,0.0,0.0,0.0,0.0,-0.47777228057530147,0.0,0.0,0.0,0.0,0.0,0.0,-14.772,0.0,0.0,0.0
136,0.0,0.0,0.0,-0.049322265625,0.0,0.0,0.0,0.0,0.0,0.0,-0.653,0.0,0.0,0.0,0.0,0.0,0.0,-0.4628318904475225,0.0,0.0,0.0,0.0,0.0,0.0,-13.604,0.0,0.0,0.0
137,0.0,0.0,0.0,-0.0554130859375,0.0,0.0,0.0,0.0,0.0,0.0,-0.605,0.0,0.0,0.0,0.0,0.0,0.0,-0.4471544224983222,0.0,0.0,0.0,0.0,0.0,0.0,-14.176,0.0,0.0,0.0
138,0.0,0.0,0.0,-0.061638671875,0.0,0.0,0.0,0.0,0.0,0.0,-0.628,0.0,0.0,0.0,0.0,0.0,0.0,-0.43085174980210583,0.0,0.0,0.0,0.0,0.0,0.0,-13.308,0.0,0.0,0.0
139,0.0,0.0,0.0,-0.0672880859375,0.0,0.0,0.0,0.0,0.0,0.0,-0.603,0.0,0.0,0.0,0.0,0.0,0.0,-0.41386088975074464,0.0,0.0,0.0,0.0,0.0,0.0,-14.064,0.0,0.0,0.0
140,0.0,0.0,0.0,-0.073658203125,0.0,0.0,0.0,0.0,0.0,0.0,-0.591,0.0,0.0,0.0,0.0,0.0,0.0,-0.39605504874966085,0.0,0.0,0.0,0.0,0.0,0.0,-15.024,0.0,0.0,0.0
141,0.0,0.0,0.0,-0.0797490234375,0.0,0.0,0.0,0.0,0.0,0.0,-0.641,0.0,0.0,0.0,0.0,0.0,0.0,-0.37778531803033166,0.0,0.0,0.0,0.0,0.0,0.0,-14.176,0.0,0.0,0.0
142,0.0,0.0,0.0,-0.0855419921875,0.0,0.0,0.0,0.0,0.0,0.0,-0.59,0.0,0.0,0.0,0.0,0.0,0.0,-0.35899281511964004,0.0,0.0,0.0,0.0,0.0,0.0,-14.728,0.0,0.0,0.0
143,0.0,0.0,0.0,-0.091615234375,0.0,0.0,0.0,0.0,0.0,0.0,-0.605,0.0,0.0,0.0,0.0,0.0,0.0,-0.3392215877213118,0.0,0.0,0.0,0.0,0.0,0.0,-13.696,0.0,0.0,0.0
144,0.0,0.0,0.0,-0.096984375,0.0,0.0,0.0,0.0,0.0,0.0,-0.583,0.0,0.0,0.0,0.0,0.0,0.0,-0.31932416048734236,0.0,0.0,0.0,0.0,0.0,0.0,-14.04,0.0,0.0,0.0
145,0.0,0.0,0.0,-0.1029208984375,0.0,0.0,0.0,0.0,0.0,0.0,-0.559,0.0,0.0,0.0,0.0,0.0,0.0,-0.29885913520192436,0.0,0.0,0.0,0.0,0.0,0.0,-14.636,0.0,0.0,0.0
146,0.0,0.0,0.0,-0.1090029296875,0.0,0.0,0.0,0.0,0.0,0.0,-0.611,0.0,0.0,0.0,0.0,0.0,0.0,-0.2776661471371241,0.0,0.0,0.0,0.0,0.0,0.0,-13.764,0.0,0.0,0.0
147,0.0,0.0,0.0,-0.1146513671875,0.0,0.0,0.0,0.0,0.0,0.0,-0.585,0.0,0.0,0.0,0.0,0.0,0.0,-0.2562436762001898,0.0,0.0,0.0,0.0,0.0,0.0,-14.248,0.0,0.0,0.0
148,0.0,0.0,0.0,-0.12103125,0.0,0.0,0.0,0.0,0.0,0.0,-0.601,0.0,0.0,0.0,0.0,0.0,0.0,-0.23440703815105024,0.0,0.0,0.0,0.0,0.0,0.0,-13.536,0.0,0.0,0.0
149,0.0,0.0,0.0,-0.12653515625,0.0,0.0,0.0,0.0,0.0,0.0,-0.609,0.0,0.0,0.0,0.0,0.0,0.0,-0.2118164308890045,0.0,0.0,0.0,0.0,0.0,0.0,-13.468,0.0,0.0,0.0
150,0.0,0.0,0.0,-0.1323291015625,0.0,0.0,0.0,0.0,0.0,0.0,-0.558,0.0,0.0,0.0,0.0,0.0,0.0,-0.18946218116821972,0.0,0.0,0.0,0.0,0.0,0.0,-14.84,0.0,0.0,0.0
151,0.0,0.0,0.0,-0.1382568359375,0.0,0.0,0.0,0.0,0.0,0.0,-0.594,0.0,0.0,0.0,0.0,0.0,0.0,-0.1665727052456833,0.0,0.0,0.0,0.0,0.0,0.0,-14.636,0.0,0.0,0.0
152,0.0,0.0,0.0,-0.1437705078125,0.0,0.0,0.0,0.0,0.0,0.0,-0.578,0.0,0.0,0.0,0.0,0.0,0.0,-0.14315346345591767,0.0,0.0,0.0,0.0,0.0,0.0,-15.048,0.0,0.0,0.0
153,0.0,0.0,0.0,-0.1495634765625,0.0,0.0,0.0,0.0,0.0,0.0,-0.566,0.0,0.0,0.0,0.0,0.0,0.0,-0.11986276993932257,0.0,0.0,0.0,0.0,0.0,0.0,-14.816,0.0,0.0,0.0
154,0.0,0.0,0.0,-0.1552119140625,0.0,0.0,0.0,0.0,0.0,0.0,-0.582,0.0,0.0,0.0,0.0,0.0,0.0,-0.09635919036678504,0.0,0.0,0.0,0.0,0.0,0.0,-14.064,0.0,0.0,0.0
155,0.0,0.0,0.0,-0.1604189453125,0.0,0.0,0.0,0.0,0.0,0.0,-0.55,0.0,0.0,0.0,0.0,0.0,0.0,-0.07239719706237498,0.0,0.0,0.0,0.0,0.0,0.0,-14.108,0.0,0.0,0.0
156,0.0,0.0,0.0,-0.1639013671875,0.0,0.0,0.0,0.0,0.0,0.0,-0.478,0.0,0.0,0.0,0.0,0.0,0.0,-0.04854953143859173,0.0,0.0,0.0,0.0,0.0,0.0,-9.764,0.0,0.0,0.0
157,0.0,0.0,0.0,-0.1630263671875,0.0,0.0,0.0,0.0,0.0,0.0,-0.16,0.0,0.0,0.0,0.0,0.0,0.0,-0.024365961263720735,0.0,0.0,0.0,0.0,0.0,0.0,-8.184,0.0,0.0,0.0
158,0.0,0.0,0.0,-0.16216015625,0.0,0.0,0.0,0.0,0.0,0.0,0.103,0.0,0.0,0.0,0.0,0.0,0.0,-0.0004110240583191659,0.0,0.0,0.0,0.0,0.0,0.0,-7.82,0.0,0.0,0.0
159,0.0,0.0,0.0,-0.159408203125,0.0,0.0,0.0,0.0,0.0,0.0,0.138,0.0,0.0,0.0,0.0,0.0,0.0,0.02337932794873232,0.0,0.0,0.0,0.0,0.0,0.0,-6.54,0.0,0.0,0.0
160,0.0,0.0,0.0,-0.154634765625,0.0,0.0,0.0,0.0,0.0,0.0,0.39,0.0,0.0,0.0,0.0,0.0,0.0,1.888275146172671e-05,0.0,0.0,0.0,0.0,0.0,0.0,-9.168,0.0,0.0,0.0
161,0.0,0.0,0.0,-0.15144921875,0.0,0.0,0.0,0.0,0.0,0.0,0.402,0.0,0.0,0.0,0.0,0.0,0.0,0.02432690235214602,0.0,0.0,0.0,0.0,0.0,0.0,-6.08,0.0,0.0,0.0
162,0.0,0.0,0.0,-0.1459453125,0.0,0.0,0.0,0.0,0.0,0.0,0.399,0.0,0.0,0.0,0.0,0.0,0.0,0.04812102186402633,0.0,0.0,0.0,0.0,0.0,0.0,-4.136,0.0,0.0,0.0
163,0.0,0.0,0.0,-0.1395654296875,0.0,0.0,0.0,0.0,0.0,0.0,0.602,0.0,0.0,0.0,0.0,0.0,0.0,0.07171022834602815,0.0,0.0,0.0,0.0,0.0,0.0,-5.1,0.0,0.0,0.0
164,0.0,0.0,0.0,-0.13276171875,0.0,0.0,0.0,0.0,0.0,0.0,0.642,0.0,0.0,0.0,0.0,0.0,0.0,0.09561455914036279,0.0,0.0,0.0,0.0,0.0,0.0,-4.0,0.0,0.0,0.0
165,0.0,0.0,0.0,-0.123927734375,0.0,0.0,0.0,0.0,0.0,0.0,0.781,0.0,0.0,0.0,0.0,0.0,0.0,0.11930242831138507,0.0,0.0,0.0,0.0,0.0,0.0,-6.608,0.0,0.0,0.0
166,0.0,0.0,0.0,-0.116970703125,0.0,0.0,0.0,0.0,0.0,0.0,0.83,0.0,0.0,0.0,0.0,0.0,0.0,0.14252083980080188,0.0,0.0,0.0,0.0,0.0,0.0,-8.896,0.0,0.0,0.0
167,0.0,0.0,0.0,-0.110302734375,0.0,0.0,0.0,0.0,0.0,0.0,0.666,0.0,0.0,0.0,0.0,0.0,0.0,0.16600459831617784,0.0,0.0,0.0,0.0,0.0,0.0,-7.248,0.0,0.0,0.0
168,0.0,0.0,0.0,-0.10219921875,0.0,0.0,0.0,0.0,0.0,0.0,0.733,0.0,0.0,0.0,0.0,0.0,0.0,0.1888538217264283,0.0,0.0,0.0,0.0,0.0,0.0,-8.232,0.0,0.0,0.0
169,0.0,0.0,0.0,-0.09393359375,0.0,0.0,0.0,0.0,0.0,0.0,0.828,0.0,0.0,0.0,0.0,0.0,0.0,0.21141361461915056,0.0,0.0,0.0,0.0,0.0,0.0,-8.436,0.0,0.0,0.0
170,0.0,0.0,0.0,-0.085388671875,0.0,0.0,0.0,0.0,0.0,0.0,0.835,0.0,0.0,0.0,0.0,0.0,0.0,0.23360652284665775,0.0,0.0,0.0,0.0,0.0,0.0,-11.136,0.0,0.0,0.0
171,0.0,0.0,0.0,-0.0771416015625,0.0,0.0,0.0,0.0,0.0,0.0,0.863,0.0,0.0,0.0,0.0,0.0,0.0,0.2557394568857423,0.0,0.0,0.0,0.0,0.0,0.0,-14.224,0.0,0.0,0.0
172,0.0,0.0,0.0,-0.06930859375,0.0,0.0,0.0,0.0,0.0,0.0,0.796,0.0,0.0,0.0,0.0,0.0,0.0,0.27713983773195217,0.0,0.0,0.0,0.0,0.0,0.0,-12.576,0.0,0.0,0.0
173,0.0,0.0,0.0,-0.060619140625,0.0,0.0,0.0,0.0,0.0,0.0,0.828,0.0,0.0,0.0,0.0,0.0,0.0,0.2981134238382251,0.0,0.0,0.0,0.0,0.0,0.0,-12.644,0.0,0.0,0.0
174,0.0,0.0,0.0,-0.0541044921875,0.0,0.0,0.0,0.0,0.0,0.0,0.797,0.0,0.0,0.0,0.0,0.0,0.0,0.3189494507952988,0.0,0.0,0.0,0.0,0.0,0.0,-13.468,0.0,0.0,0.0
175,0.0,0.0,0.0,-0.0465703125,0.0,0.0,0.0,0.0,0.0,0.0,0.667,0.0,0.0,0.0,0.0,0.0,0.0,0.3389259207788247,0.0,0.0,0.0,0.0,0.0,0.0,-12.988,0.0,0.0,0.0
176,0.0,0.0,0.0,-0.037447265625,0.0,0.0,0.0,0.0,0.0,0.0,0.853,0.0,0.0,0.0,0.0,0.0,0.0,0.35830916866163237,0.0,0.0,0.0,0.0,0.0,0.0,-16.692,0.0,0.0,0.0
177,0.0,0.0,0.0,-0.030345703125,0.0,0.0,0.0,0.0,0.0,0.0,0.833,0.0,0.0,0.0,0.0,0.0,0.0,0.3774583494773256,0.0,0.0,0.0,0.0,0.0,0.0,-16.052,0.0,0.0,0.0
178,0.0,0.0,0.0,-0.0231005859375,0.0,0.0,0.0,0.0,0.0,0.0,0.703,0.0,0.0,0.0,0.0,0.0,0.0,0.3957603934961755,0.0,0.0,0.0,0.0,0.0,0.0,-17.884,0.0,0.0,0.0
179,0.0,0.0,0.0,-0.016296875,0.0,0.0,0.0,0.0,0.0,0.0,0.722,0.0,0.0,0.0,0.0,0.0,0.0,0.41343425124861716,0.0,0.0,0.0,0.0,0.0,0.0,-19.072,0.0,0.0,0.0
180,0.0,0.0,0.0,-0.00905078125,0.0,0.0,0.0,0.0,0.0,0.0,0.685,0.0,0.0,0.0,0.0,0.0,0.0,0.4305723694253467,0.0,0.0,0.0,0.0,0.0,0.0,-16.26,0.0,0.0,0.0
181,0.0,0.0,0.0,-0.0009384765625,0.0,0.0,0.0,0.0,0.0,0.0,0.784,0.0,0.0,0.0,0.0,0.0,0.0,0.44692339983830576,0.0,0.0,0.0,0.0,0.0,0.0,-17.24,0.0,0.0,0.0
182,0.0,0.0,0.0,0.0054306640625,0.0,0.0,0.0,0.0,0.0,0.0,0.752,0.0,0.0,0.0,0.0,0.0,0.0,0.4625089888117581,0.0,0.0,0.0,0.0,0.0,0.0,-18.752,0.0,0.0,0.0
183,0.0,0.0,0.0,0.01208984375,0.0,0.0,0.0,0.0,0.0,0.0,0.637,0.0,0.0,0.0,0.0,0.0,0.0,0.47817823682323823,0.0,0.0,0.0,0.0,0.0,0.0,-18.956,0.0,0.0,0.0
184,0.0,0.0,0.0,0.019201171875,0.0,0.0,0.0,0.0,0.0,0.0,0.704,0.0,0.0,0.0,0.0,0.0,0.0,0.4914995295884153,0.0,0.0,0.0,0.0,0.0,0.0,-18.776,0.0,0.0,0.0
185,0.0,0.0,0.0,0.0252734375,0.0,0.0,0.0,0.0,0.0,0.0,0.66,0.0,0.0,0.0,0.0,0.0,0.0,0.5048578563386145,0.0,0.0,0.0,0.0,0.0,0.0,-16.396,0.0,0.0,0.0
186,0.0,0.0,0.0,0.0316533203125,0.0,0.0,0.0,0.0,0.0,0.0,0.616,0.0,0.0,0.0,0.0,0.0,0.0,0.5175661673449627,0.0,0.0,0.0,0.0,0.0,0.0,-16.992,0.0,0.0,0.0
187,0.0,0.0,0.0,0.037888671875,0.0,0.0,0.0,0.0,0.0,0.0,0.655,0.0,0.0,0.0,0.0,0.0,0.0,0.5291768201102001,0.0,0.0,0.0,0.0,0.0,0.0,-19.756,0.0,0.0,0.0
188,0.0,0.0,0.0,0.043681640625,0.0,0.0,0.0,0.0,0.0,0.0,0.591,0.0,0.0,0.0,0.0,0.0,0.0,0.5400632269492478,0.0,0.0,0.0,0.0,0.0,0.0,-18.456,0.0,0.0,0.0
189,0.0,0.0,0.0,0.0501962890625,0.0,0.0,0.0,0.0,0.0,0.0,0.618,0.0,0.0,0.0,0.0,0.0,0.0,0.5502119946981049,0.0,0.0,0.0,0.0,0.0,0.0,-17.836,0.0,0.0,0.0
190,0.0,0.0,0.0,0.055267578125,0.0,0.0,0.0,0.0,0.0,0.0,0.599,0.0,0.0,0.0,0.0,0.0,0.0,0.5592329473457703,0.0,0.0,0.0,0.0,0.0,0.0,-16.328,0.0,0.0,0.0
191,0.0,0.0,0.0,0.060482421875,0.0,0.0,0.0,0.0,0.0,0.0,0.5,0.0,0.0,0.0,0.0,0.0,0.0,0.5674991556233658,0.0,0.0,0.0,0.0,0.0,0.0,-14.976,0.0,0.0,0.0
192,0.0,0.0,0.0,0.066275390625,0.0,0.0,0.0,0.0,0.0,0.0,0.567,0.0,0.0,0.0,0.0,0.0,0.0,0.5749222197146928,0.0,0.0,0.0,0.0,0.0,0.0,-16.42,0.0,0.0,0.0
193,0.0,0.0,0.0,0.071048828125,0.0,0.0,0.0,0.0,0.0,0.0,0.529,0.0,0.0,0.0,0.0,0.0,0.0,0.581201597374209,0.0,0.0,0.0,0.0,0.0,0.0,-15.116,0.0,0.0,0.0
194,0.0,0.0,0.0,0.0765625,0.0,0.0,0.0,0.0,0.0,0.0,0.507,0.0,0.0,0.0,0.0,0.0,0.0,0.586686012862528,0.0,0.0,0.0,0.0,0.0,0.0,-14.108,0.0,0.0,0.0
195,0.0,0.0,0.0,0.0814892578125,0.0,0.0,0.0,0.0,0.0,0.0,0.545,0.0,0.0,0.0,0.0,0.0,0.0,0.5913036116834224,0.0,0.0,0.0,0.0,0.0,0.0,-14.36,0.0,0.0,0.0
196,0.0,0.0,0.0,0.085830078125,0.0,0.0,0.0,0.0,0.0,0.0,0.455,0.0,0.0,0.0,0.0,0.0,0.0,0.5948583950453173,0.0,0.0,0.0,0.0,0.0,0.0,-13.812,0.0,0.0,0.0
197,0.0,0.0,0.0,0.090900390625,0.0,0.0,0.0,0.0,0.0,0.0,0.473,0.0,0.0,0.0,0.0,0.0,0.0,0.5975162743125054,0.0,0.0,0.0,0.0,0.0,0.0,-14.452,0.0,0.0,0.0
198,0.0,0.0,0.0,0.0955478515625,0.0,0.0,0.0,0.0,0.0,0.0,0.5,0.0,0.0,0.0,0.0,0.0,0.0,0.5992312921104104,0.0,0.0,0.0,0.0,0.0,0.0,-14.132,0.0,0.0,0.0
199,0.0,0.0,0.0,0.1004658203125,0.0,0.0,0.0,0.0,0.0,0.0,0.461,0.0,0.0,0.0,0.0,0.0,0.0,0.5999644829110199,0.0,0.0,0.0,0.0,0.0,0.0,-13.376,0.0,0.0,0.0
200,0.0,0.0,0.0,0.1059609375,0.0,0.0,0.0,0.0,0.0,0.0,0.525,0.0,0.0,0.0,0.0,0.0,0.0,0.599745073274142,0.0,0.0,0.0,0.0,0.0,0.0,-14.04,0.0,0.0,0.0
201,0.0,0.0,0.0,0.1108876953125,0.0,0.0,0.0,0.0,0.0,0.0,0.535,0.0,0.0,0.0,0.0,0.0,0.0,0.5985553743726963,0.0,0.0,0.0,0.0,0.0,0.0,-13.08,0.0,0.0,0.0
202,0.0,0.0,0.0,0.115958984375,0.0,0.0,0.0,0.0,0.0,0.0,0.496,0.0,0.0,0.0,0.0,0.0,0.0,0.5964332564076482,0.0,0.0,0.0,0.0,0.0,0.0,-12.852,0.0,0.0,0.0
203,0.0,0.0,0.0,0.1210302734375,0.0,0.0,0.0,0.0,0.0,0.0,0.513,0.0,0.0,0.0,0.0,0.0,0.0,0.5933488827344616,0.0,0.0,0.0,0.0,0.0,0.0,-13.012,0.0,0.0,0.0
204,0.0,0.0,0.0,0.125947265625,0.0,0.0,0.0,0.0,0.0,0.0,0.497,0.0,0.0,0.0,0.0,0.0,0.0,0.5892632723802133,0.0,0.0,0.0,0.0,0.0,0.0,-11.936,0.0,0.0,0.0
205,0.0,0.0,0.0,0.1315966796875,0.0,0.0,0.0,0.0,0.0,0.0,0.524,0.0,0.0,0.0,0.0,0.0,0.0,0.5842753836701833,0.0,0.0,0.0,0.0,0.0,0.0,-11.82,0.0,0.0,0.0
206,0.0,0.0,0.0,0.137109375,0.0,0.0,0.0,0.0,0.0,0.0,0.568,0.0,0.0,0.0,0.0,0.0,0.0,0.578391142992948,0.0,0.0,0.0,0.0,0.0,0.0,-12.6,0.0,0.0,0.0
207,0.0,0.0,0.0,0.1424697265625,0.0,0.0,0.0,0.0,0.0,0.0,0.542,0.0,0.0,0.0,0.0,0.0,0.0,0.5714690316647492,0.0,0.0,0.0,0.0,0.0,0.0,-12.072,0.0,0.0,0.0
208,0.0,0.0,0.0,0.1479736328125,0.0,0.0,0.0,0.0,0.0,0.0,0.549,0.0,0.0,0.0,0.0,0.0,0.0,0.5637396789572603,0.0,0.0,0.0,0.0,0.0,0.0,-12.784,0.0,0.0,0.0
209,0.0,0.0,0.0,0.1533251953125,0.0,0.0,0.0,0.0,0.0,0.0,0.541,0.0,0.0,0.0,0.0,0.0,0.0,0.5551542574118616,0.0,0.0,0.0,0.0,0.0,0.0,-12.532,0.0,0.0,0.0
210,0.0,0.0,0.0,0.159126953125,0.0,0.0,0.0,0.0,0.0,0.0,0.558,0.0,0.0,0.0,0.0,0.0,0.0,0.5454636240751625,0.0,0.0,0.0,0.0,0.0,0.0,-12.852,0.0,0.0,0.0
211,0.0,0.0,0.0,0.165064453125,0.0,0.0,0.0,0.0,0.0,0.0,0.595,0.0,0.0,0.0,0.0,0.0,0.0,0.5349194750645082,0.0,0.0,0.0,0.0,0.0,0.0,-13.468,0.0,0.0,0.0
212,0.0,0.0,0.0,0.1712900390625,0.0,0.0,0.0,0.0,0.0,0.0,0.613,0.0,0.0,0.0,0.0,0.0,0.0,0.5239116060217768,0.0,0.0,0.0,0.0,0.0,0.0,-13.356,0.0,0.0,0.0
213,0.0,0.0,0.0,0.177380859375,0.0,0.0,0.0,0.0,0.0,0.0,0.623,0.0,0.0,0.0,0.0,0.0,0.0,0.511750584293517,0.0,0.0,0.0,0.0,0.0,0.0,-12.988,0.0,0.0,0.0
214,0.0,0.0,0.0,0.183173828125,0.0,0.0,0.0,0.0,0.0,0.0,0.595,0.0,0.0,0.0,0.0,0.0,0.0,0.49869017507757213,0.0,0.0,0.0,0.0,0.0,0.0,-12.872,0.0,0.0,0.0
215,0.0,0.0,0.0,0.189255859375,0.0,0.0,0.0,0.0,0.0,0.0,0.592,0.0,0.0,0.0,0.0,0.0,0.0,0.48508376604723236,0.0,0.0,0.0,0.0,0.0,0.0,-12.6,0.0,0.0,0.0
216,0.0,0.0,0.0,0.1953466796875,0.0,0.0,0.0,0.0,0.0,0.0,0.609,0.0,0.0,0.0,0.0,0.0,0.0,0.47050194869548234,0.0,0.0,0.0,0.0,0.0,0.0,-12.712,0.0,0.0,0.0
217,0.0,0.0,0.0,0.2017177734375,0.0,0.0,0.0,0.0,0.0,0.0,0.634,0.0,0.0,0.0,0.0,0.0,0.0,0.4551518530376985,0.0,0.0,0.0,0.0,0.0,0.0,-12.964,0.0,0.0,0.0
218,0.0,0.0,0.0,0.207943359375,0.0,0.0,0.0,0.0,0.0,0.0,0.635,0.0,0.0,0.0,0.0,0.0,0.0,0.4392703971764373,0.0,0.0,0.0,0.0,0.0,0.0,-13.604,0.0,0.0,0.0
219,0.0,0.0,0.0,0.214169921875,0.0,0.0,0.0,0.0,0.0,0.0,0.623,0.0,0.0,0.0,0.0,0.0,0.0,0.42249508632306504,0.0,0.0,0.0,0.0,0.0,0.0,-13.948,0.0,0.0,0.0
220,0.0,0.0,0.0,0.2202607421875,0.0,0.0,0.0,0.0,0.0,0.0,0.621,0.0,0.0,0.0,0.0,0.0,0.0,0.40509745306481393,0.0,0.0,0.0,0.0,0.0,0.0,-14.384,0.0,0.0,0.0
221,0.0,0.0,0.0,0.2263427734375,0.0,0.0,0.0,0.0,0.0,0.0,0.61,0.0,0.0,0.0,0.0,0.0,0.0,0.38729615485200014,0.0,0.0,0.0,0.0,0.0,0.0,-14.476,0.0,0.0,0.0
222,0.0,0.0,0.0,0.232712890625,0.0,0.0,0.0,0.0,0.0,0.0,0.623,0.0,0.0,0.0,0.0,0.0,0.0,0.36866630592217603,0.0,0.0,0.0,0.0,0.0,0.0,-14.064,0.0,0.0,0.0
223,0.0,0.0,0.0,0.2390927734375,0.0,0.0,0.0,0.0,0.0,0.0,0.648,0.0,0.0,0.0,0.0,0.0,0.0,0.3492832585031856,0.0,0.0,0.0,0.0,0.0,0.0,-13.628,0.0,0.0,0.0
224,0.0,0.0,0.0,0.245318359375,0.0,0.0,0.0,0.0,0.0,0.0,0.633,0.0,0.0,0.0,0.0,0.0,0.0,0.3296517788536705,0.0,0.0,0.0,0.0,0.0,0.0,-13.764,0.0,0.0,0.0
225,0.0,0.0,0.0,0.251544921875,0.0,0.0,0.0,0.0,0.0,0.0,0.625,0.0,0.0,0.0,0.0,0.0,0.0,0.3092864076903817,0.0,0.0,0.0,0.0,0.0,0.0,-14.064,0.0,0.0,0.0
226,0.0,0.0,0.0,0.2574912109375,0.0,0.0,0.0,0.0,0.0,0.0,0.612,0.0,0.0,0.0,0.0,0.0,0.0,0.2883820002213301,0.0,0.0,0.0,0.0,0.0,0.0,-13.744,0.0,0.0,0.0
227,0.0,0.0,0.0,0.2635732421875,0.0,0.0,0.0,0.0,0.0,0.0,0.6,0.0,0.0,0.0,0.0,0.0,0.0,0.2670529818813575,0.0,0.0,0.0,0.0,0.0,0.0,-13.56,0.0,0.0,0.0
228,0.0,0.0,0.0,0.2695107421875,0.0,0.0,0.0,0.0,0.0,0.0,0.604,0.0,0.0,0.0,0.0,0.0,0.0,0.2454719673526461,0.0,0.0,0.0,0.0,0.0,0.0,-13.376,0.0,0.0,0.0
229,0.0,0.0,0.0,0.27545703125,0.0,0.0,0.0,0.0,0.0,0.0,0.601,0.0,0.0,0.0,0.0,0.0,0.0,0.22335273275968848,0.0,0.0,0.0,0.0,0.0,0.0,-14.04,0.0,0.0,0.0
230,0.0,0.0,0.0,0.28139453125,0.0,0.0,0.0,0.0,0.0,0.0,0.608,0.0,0.0,0.0,0.0,0.0,0.0,0.20100464338817073,0.0,0.0,0.0,0.0,0.0,0.0,-14.888,0.0,0.0,0.0
231,0.0,0.0,0.0,0.28558984375,0.0,0.0,0.0,0.0,0.0,0.0,0.545,0.0,0.0,0.0,0.0,0.0,0.0,0.17819084761969428,0.0,0.0,0.0,0.0,0.0,0.0,-18.456,0.0,0.0,0.0
232,0.0,0.0,0.0,0.2857431640625,0.0,0.0,0.0,0.0,0.0,0.0,0.254,0.0,0.0,0.0,0.0,0.0,0.0,0.15503280183275273,0.0,0.0,0.0,0.0,0.0,0.0,-22.068,0.0,0.0,0.0
233,0.0,0.0,0.0,0.2847236328125,0.0,0.0,0.0,0.0,0.0,0.0,-0.058,0.0,0.0,0.0,0.0,0.0,0.0,0.13173224030514002,0.0,0.0,0.0,0.0,0.0,0.0,-22.02,0.0,0.0,0.0
234,0.0,0.0,0.0,0.2824052734375,0.0,0.0,0.0,0.0,0.0,0.0,-0.13,0.0,0.0,0.0,0.0,0.0,0.0,0.10828007143675172,0.0,0.0,0.0,0.0,0.0,0.0,-23.072,0.0,0.0,0.0
235,0.0,0.0,0.0,0.278208984375,0.0,0.0,0.0,0.0,0.0,0.0,-0.328,0.0,0.0,0.0,0.0,0.0,0.0,0.08457003750379571,0.0,0.0,0.0,0.0,0.0,0.0,-21.176,0.0,0.0,0.0
236,0.0,0.0,0.0,0.2743017578125,0.0,0.0,0.0,0.0,0.0,0.0,-0.412,0.0,0.0,0.0,0.0,0.0,0.0,0.06082235177868908,0.0,0.0,0.0,0.0,0.0,0.0,-22.32,0.0,0.0,0.0
237,0.0,0.0,0.0,0.269654296875,0.0,0.0,0.0,0.0,0.0,0.0,-0.415,0.0,0.0,0.0,0.0,0.0,0.0,0.03692770718998299,0.0,0.0,0.0,0.0,0.0,0.0,-24.536,0.0,0.0,0.0
238,0.0,0.0,0.0,0.2641591796875,0.0,0.0,0.0,0.0,0.0,0.0,-0.5,0.0,0.0,0.0,0.0,0.0,0.0,0.012606832636056506,0.0,0.0,0.0,0.0,0.0,0.0,-24.744,0.0,0.0,0.0
239,0.0,0.0,0.0,0.2573466796875,0.0,0.0,0.0,0.0,0.0,0.0,-0.608,0.0,0.0,0.0,0.0,0.0,0.0,-0.011012226686458506,0.0,0.0,0.0,0.0,0.0,0.0,-23.784,0.0,0.0,0.0
240,0.0,0.0,0.0,0.24966796875,0.0,0.0,0.0,0.0,0.0,0.0,-0.729,0.0,0.0,0.0,0.0,0.0,0.0,-0.035034082696778025,0.0,0.0,0.0,0.0,0.0,0.0,-22.364,0.0,0.0,0.0
241,0.0,0.0,0.0,0.241123046875,0.0,0.0,0.0,0.0,0.0,0.0,-0.811,0.0,0.0,0.0,0.0,0.0,0.0,-0.059142624795441565,0.0,0.0,0.0,0.0,0.0,0.0,-21.748,0.0,0.0,0.0
242,0.0,0.0,0.0,0.234166015625,0.0,0.0,0.0,0.0,0.0,0.0,-0.808,0.0,0.0,0.0,0.0,0.0,0.0,-0.08280316438079068,0.0,0.0,0.0,0.0,0.0,0.0,-19.848,0.0,0.0,0.0
243,0.0,0.0,0.0,0.2272177734375,0.0,0.0,0.0,0.0,0.0,0.0,-0.675,0.0,0.0,0.0,0.0,0.0,0.0,-0.10657413031624545,0.0,0.0,0.0,0.0,0.0,0.0,-21.152,0.0,0.0,0.0
244,0.0,0.0,0.0,0.2183837890625,0.0,0.0,0.0,0.0,0.0,0.0,-0.781,0.0,0.0,0.0,0.0,0.0,0.0,-0.13011712559680463,0.0,0.0,0.0,0.0,0.0,0.0,-19.94,0.0,0.0,0.0
245,0.0,0.0,0.0,0.209685546875,0.0,0.0,0.0,0.0,0.0,0.0,-0.889,0.0,0.0,0.0,0.0,0.0,0.0,-0.15324311708354854,0.0,0.0,0.0,0.0,0.0,0.0,-18.912,0.0,0.0,0.0
246,0.0,0.0,0.0,0.201861328125,0.0,0.0,0.0,0.0,0.0,0.0,-0.848,0.0,0.0,0.0,0.0,0.0,0.0,-0.17627513955470478,0.0,0.0,0.0,0.0,0.0,0.0,-15.412,0.0,0.0,0.0
247,0.0,0.0,0.0,0.1941826171875,0.0,0.0,0.0,0.0,0.0,0.0,-0.76,0.0,0.0,0.0,0.0,0.0,0.0,-0.19935169186089147,0.0,0.0,0.0,0.0,0.0,0.0,-14.704,0.0,0.0,0.0
248,0.0,0.0,0.0,0.184771484375,0.0,0.0,0.0,0.0,0.0,0.0,-0.855,0.0,0.0,0.0,0.0,0.0,0.0,-0.22158826009082314,0.0,0.0,0.0,0.0,0.0,0.0,-14.084,0.0,0.0,0.0
249,0.0,0.0,0.0,0.1772373046875,0.0,0.0,0.0,0.0,0.0,0.0,-0.873,0.0,0.0,0.0,0.0,0.0,0.0,-0.24367803222153875,0.0,0.0,0.0,0.0,0.0,0.0,-15.0,0.0,0.0,0.0
250,0.0,0.0,0.0,0.1698466796875,0.0,0.0,0.0,0.0,0.0,0.0,-0.741,0.0,0.0,0.0,0.0,0.0,0.0,-0.2658669858183492,0.0,0.0,0.0,0.0,0.0,0.0,-14.704,0.0,0.0,0.0
251,0.0,0.0,0.0,0.1614462890625,0.0,0.0,0.0,0.0,0.0,0.0,-0.788,0.0,0.0,0.0,0.0,0.0,0.0,-0.28672957613098515,0.0,0.0,0.0,0.0,0.0,0.0,-13.124,0.0,0.0,0.0
252,0.0,0.0,0.0,0.1528916015625,0.0,0.0,0.0,0.0,0.0,0.0,-0.851,0.0,0.0,0.0,0.0,0.0,0.0,-0.30759541995335127,0.0,0.0,0.0,0.0,0.0,0.0,-12.644,0.0,0.0,0.0
253,0.0,0.0,0.0,0.1455107421875,0.0,0.0,0.0,0.0,0.0,0.0,-0.828,0.0,0.0,0.0,0.0,0.0,0.0,-0.3283337944646582,0.0,0.0,0.0,0.0,0.0,0.0,-11.364,0.0,0.0,0.0
254,0.0,0.0,0.0,0.1392841796875,0.0,0.0,0.0,0.0,0.0,0.0,-0.684,0.0,0.0,0.0,0.0,0.0,0.0,-0.34781925219648363,0.0,0.0,0.0,0.0,0.0,0.0,-11.204,0.0,0.0,0.0
255,0.0,0.0,0.0,0.1315966796875,0.0,0.0,0.0,0.0,0.0,0.0,-0.689,0.0,0.0,0.0,0.0,0.0,0.0,-0.36710894131773314,0.0,0.0,0.0,0.0,0.0,0.0,-11.5,0.0,0.0,0.0
256,0.0,0.0,0.0,0.1239267578125,0.0,0.0,0.0,0.0,0.0,0.0,-0.785,0.0,0.0,0.0,0.0,0.0,0.0,-0.38588739303162334,0.0,0.0,0.0,0.0,0.0,0.0,-11.844,0.0,0.0,0.0
257,0.0,0.0,0.0,0.116978515625,0.0,0.0,0.0,0.0,0.0,0.0,-0.738,0.0,0.0,0.0,0.0,0.0,0.0,-0.4040739188991632,0.0,0.0,0.0,0.0,0.0,0.0,-11.48,0.0,0.0,0.0
258,0.0,0.0,0.0,0.11030078125,0.0,0.0,0.0,0.0,0.0,0.0,-0.691,0.0,0.0,0.0,0.0,0.0,0.0,-0.42125846999786715,0.0,0.0,0.0,0.0,0.0,0.0,-10.036,0.0,0.0,0.0
259,0.0,0.0,0.0,0.1034970703125,0.0,0.0,0.0,0.0,0.0,0.0,-0.675,0.0,0.0,0.0,0.0,0.0,0.0,-0.4382004046866636,0.0,0.0,0.0,0.0,0.0,0.0,-10.748,0.0,0.0,0.0
260,0.0,0.0,0.0,0.096703125,0.0,0.0,0.0,0.0,0.0,0.0,-0.679,0.0,0.0,0.0,0.0,0.0,0.0,-0.45439477912680504,0.0,0.0,0.0,0.0,0.0,0.0,-12.164,0.0,0.0,0.0
261,0.0,0.0,0.0,0.0906123046875,0.0,0.0,0.0,0.0,0.0,0.0,-0.661,0.0,0.0,0.0,0.0,0.0,0.0,-0.4694015300799317,0.0,0.0,0.0,0.0,0.0,0.0,-11.912,0.0,0.0,0.0
262,0.0,0.0,0.0,0.084962890625,0.0,0.0,0.0,0.0,0.0,0.0,-0.59,0.0,0.0,0.0,0.0,0.0,0.0,-0.48407984256472186,0.0,0.0,0.0,0.0,0.0,0.0,-11.204,0.0,0.0,0.0
263,0.0,0.0,0.0,0.0787373046875,0.0,0.0,0.0,0.0,0.0,0.0,-0.588,0.0,0.0,0.0,0.0,0.0,0.0,-0.49788588038835047,0.0,0.0,0.0,0.0,0.0,0.0,-10.976,0.0,0.0,0.0
264,0.0,0.0,0.0,0.072646484375,0.0,0.0,0.0,0.0,0.0,0.0,-0.631,0.0,0.0,0.0,0.0,0.0,0.0,-0.510794015062826,0.0,0.0,0.0,0.0,0.0,0.0,-11.48,0.0,0.0,0.0
265,0.0,0.0,0.0,0.066708984375,0.0,0.0,0.0,0.0,0.0,0.0,-0.61,0.0,0.0,0.0,0.0,0.0,0.0,-0.5230312271273515,0.0,0.0,0.0,0.0,0.0,0.0,-12.644,0.0,0.0,0.0
266,0.0,0.0,0.0,0.061060546875,0.0,0.0,0.0,0.0,0.0,0.0,-0.588,0.0,0.0,0.0,0.0,0.0,0.0,-0.5344221636090911,0.0,0.0,0.0,0.0,0.0,0.0,-11.82,0.0,0.0,0.0
267,0.0,0.0,0.0,0.055998046875,0.0,0.0,0.0,0.0,0.0,0.0,-0.547,0.0,0.0,0.0,0.0,0.0,0.0,-0.5447409590778365,0.0,0.0,0.0,0.0,0.0,0.0,-11.684,0.0,0.0,0.0
268,0.0,0.0,0.0,0.05062890625,0.0,0.0,0.0,0.0,0.0,0.0,-0.519,0.0,0.0,0.0,0.0,0.0,0.0,-0.5543511127775693,0.0,0.0,0.0,0.0,0.0,0.0,-13.264,0.0,0.0,0.0
269,0.0,0.0,0.0,0.045125,0.0,0.0,0.0,0.0,0.0,0.0,-0.55,0.0,0.0,0.0,0.0,0.0,0.0,-0.5632711242297685,0.0,0.0,0.0,0.0,0.0,0.0,-14.268,0.0,0.0,0.0
270,0.0,0.0,0.0,0.0400537109375,0.0,0.0,0.0,0.0,0.0,0.0,-0.525,0.0,0.0,0.0,0.0,0.0,0.0,-0.5709323263797235,0.0,0.0,0.0,0.0,0.0,0.0,-15.548,0.0,0.0,0.0
271,0.0,0.0,0.0,0.03484765625,0.0,0.0,0.0,0.0,0.0,0.0,-0.522,0.0,0.0,0.0,0.0,0.0,0.0,-0.5778726404261121,0.0,0.0,0.0,0.0,0.0,0.0,-14.476,0.0,0.0,0.0
272,0.0,0.0,0.0,0.0302001953125,0.0,0.0,0.0,0.0,0.0,0.0,-0.509,0.0,0.0,0.0,0.0,0.0,0.0,-0.5839199175883542,0.0,0.0,0.0,0.0,0.0,0.0,-13.24,0.0,0.0,0.0
273,0.0,0.0,0.0,0.0255712890625,0.0,0.0,0.0,0.0,0.0,0.0,-0.456,0.0,0.0,0.0,0.0,0.0,0.0,-0.5889131302449412,0.0,0.0,0.0,0.0,0.0,0.0,-14.336,0.0,0.0,0.0
274,0.0,0.0,0.0,0.0202109375,0.0,0.0,0.0,0.0,0.0,0.0,-0.501,0.0,0.0,0.0,0.0,0.0,0.0,-0.5930310588257007,0.0,0.0,0.0,0.0,0.0,0.0,-15.276,0.0,0.0,0.0
275,0.0,0.0,0.0,0.0152841796875,0.0,0.0,0.0,0.0,0.0,0.0,-0.522,0.0,0.0,0.0,0.0,0.0,0.0,-0.596239806345517,0.0,0.0,0.0,0.0,0.0,0.0,-15.78,0.0,0.0,0.0
276,0.0,0.0,0.0,0.009771484375,0.0,0.0,0.0,0.0,0.0,0.0,-0.517,0.0,0.0,0.0,0.0,0.0,0.0,-0.5984242620556524,0.0,0.0,0.0,0.0,0.0,0.0,-15.596,0.0,0.0,0.0
277,0.0,0.0,0.0,0.004564453125,0.0,0.0,0.0,0.0,0.0,0.0,-0.554,0.0,0.0,0.0,0.0,0.0,0.0,-0.5996876315784447,0.0,0.0,0.0,0.0,0.0,0.0,-14.176,0.0,0.0,0.0
278,0.0,0.0,0.0,7.12890625e-05,0.0,0.0,0.0,0.0,0.0,0.0,-0.492,0.0,0.0,0.0,0.0,0.0,0.0,-0.5999802078209946,0.0,0.0,0.0,0.0,0.0,0.0,-14.932,0.0,0.0,0.0
279,0.0,0.0,0.0,-0.005279296875,0.0,0.0,0.0,0.0,0.0,0.0,-0.48,0.0,0.0,0.0,0.0,0.0,0.0,-0.5993222560607429,0.0,0.0,0.0,0.0,0.0,0.0,-15.984,0.0,0.0,0.0
280,0.0,0.0,0.0,-0.0106474609375,0.0,0.0,0.0,0.0,0.0,0.0,-0.545,0.0,0.0,0.0,0.0,0.0,0.0,-0.5976998566399077,0.0,0.0,0.0,0.0,0.0,0.0,-16.992,0.0,0.0,0.0
281,0.0,0.0,0.0,-0.01615234375,0.0,0.0,0.0,0.0,0.0,0.0,-0.547,0.0,0.0,0.0,0.0,0.0,0.0,-0.5950719648009027,0.0,0.0,0.0,0.0,0.0,0.0,-17.036,0.0,0.0,0.0
282,0.0,0.0,0.0,-0.0219453125,0.0,0.0,0.0,0.0,0.0,0.0,-0.565,0.0,0.0,0.0,0.0,0.0,0.0,-0.5915852679726765,0.0,0.0,0.0,0.0,0.0,0.0,-15.688,0.0,0.0,0.0
283,0.0,0.0,0.0,-0.0271611328125,0.0,0.0,0.0,0.0,0.0,0.0,-0.561,0.0,0.0,0.0,0.0,0.0,0.0,-0.5871212113290126,0.0,0.0,0.0,0.0,0.0,0.0,-15.208,0.0,0.0,0.0
284,0.0,0.0,0.0,-0.032087890625,0.0,0.0,0.0,0.0,0.0,0.0,-0.504,0.0,0.0,0.0,0.0,0.0,0.0,-0.5816139253522848,0.0,0.0,0.0,0.0,0.0,0.0,-15.824,0.0,0.0,0.0
285,0.0,0.0,0.0,-0.037591796875,0.0,0.0,0.0,0.0,0.0,0.0,-0.521,0.0,0.0,0.0,0.0,0.0,0.0,-0.5753076345454653,0.0,0.0,0.0,0.0,0.0,0.0,-16.352,0.0,0.0,0.0
286,0.0,0.0,0.0,-0.043529296875,0.0,0.0,0.0,0.0,0.0,0.0,-0.578,0.0,0.0,0.0,0.0,0.0,0.0,-0.5680497792835428,0.0,0.0,0.0,0.0,0.0,0.0,-16.58,0.0,0.0,0.0
287,0.0,0.0,0.0,-0.0497548828125,0.0,0.0,0.0,0.0,0.0,0.0,-0.609,0.0,0.0,0.0,0.0,0.0,0.0,-0.5598329228683524,0.0,0.0,0.0,0.0,0.0,0.0,-15.252,0.0,0.0,0.0
288,0.0,0.0,0.0,-0.055845703125,0.0,0.0,0.0,0.0,0.0,0.0,-0.625,0.0,0.0,0.0,0.0,0.0,0.0,-0.5507642522802016,0.0,0.0,0.0,0.0,0.0,0.0,-14.408,0.0,0.0,0.0
289,0.0,0.0,0.0,-0.061783203125,0.0,0.0,0.0,0.0,0.0,0.0,-0.612,0.0,0.0,0.0,0.0,0.0,0.0,-0.5408944433129631,0.0,0.0,0.0,0.0,0.0,0.0,-14.36,0.0,0.0,0.0
290,0.0,0.0,0.0,-0.067576171875,0.0,0.0,0.0,0.0,0.0,0.0,-0.587,0.0,0.0,0.0,0.0,0.0,0.0,-0.5300133197910187,0.0,0.0,0.0,0.0,0.0,0.0,-15.048,0.0,0.0,0.0
291,0.0,0.0,0.0,-0.073658203125,0.0,0.0,0.0,0.0,0.0,0.0,-0.594,0.0,0.0,0.0,0.0,0.0,0.0,-0.5184388578359,0.0,0.0,0.0,0.0,0.0,0.0,-16.236,0.0,0.0,0.0
292,0.0,0.0,0.0,-0.0798935546875,0.0,0.0,0.0,0.0,0.0,0.0,-0.628,0.0,0.0,0.0,0.0,0.0,0.0,-0.5058908884977527,0.0,0.0,0.0,0.0,0.0,0.0,-15.572,0.0,0.0,0.0
293,0.0,0.0,0.0,-0.086263671875,0.0,0.0,0.0,0.0,0.0,0.0,-0.625,0.0,0.0,0.0,0.0,0.0,0.0,-0.4923851014814207,0.0,0.0,0.0,0.0,0.0,0.0,-14.908,0.0,0.0,0.0
294,0.0,0.0,0.0,-0.092490234375,0.0,0.0,0.0,0.0,0.0,0.0,-0.638,0.0,0.0,0.0,0.0,0.0,0.0,-0.4785064956056826,0.0,0.0,0.0,0.0,0.0,0.0,-14.064,0.0,0.0,0.0
295,0.0,0.0,0.0,-0.0982919921875,0.0,0.0,0.0,0.0,0.0,0.0,-0.608,0.0,0.0,0.0,0.0,0.0,0.0,-0.4636573851038235,0.0,0.0,0.0,0.0,0.0,0.0,-14.016,0.0,0.0,0.0
296,0.0,0.0,0.0,-0.1045185546875,0.0,0.0,0.0,0.0,0.0,0.0,-0.598,0.0,0.0,0.0,0.0,0.0,0.0,-0.4479714935620891,0.0,0.0,0.0,0.0,0.0,0.0,-14.656,0.0,0.0,0.0
297,0.0,0.0,0.0,-0.1106005859375,0.0,0.0,0.0,0.0,0.0,0.0,-0.628,0.0,0.0,0.0,0.0,0.0,0.0,-0.43160966296566033,0.0,0.0,0.0,0.0,0.0,0.0,-13.996,0.0,0.0,0.0
298,0.0,0.0,0.0,-0.116826171875,0.0,0.0,0.0,0.0,0.0,0.0,-0.615,0.0,0.0,0.0,0.0,0.0,0.0,-0.4147552984179697,0.0,0.0,0.0,0.0,0.0,0.0,-14.268,0.0,0.0,0.0
299,0.0,0.0,0.0,-0.1233505859375,0.0,0.0,0.0,0.0,0.0,0.0,-0.649,0.0,0.0,0.0,0.0,0.0,0.0,-0.39691270347068225,0.0,0.0,0.0,0.0,0.0,0.0,-13.516,0.0,0.0,0.0
300,0.0,0.0,0.0,-0.129431640625,0.0,0.0,0.0,0.0,0.0,0.0,-0.639,0.0,0.0,0.0,0.0,0.0,0.0,-0.37866349629947543,0.0,0.0,0.0,0.0,0.0,0.0,-13.536,0.0,0.0,0.0
301,0.0,0.0,0.0,-0.135513671875,0.0,0.0,0.0,0.0,0.0,0.0,-0.606,0.0,0.0,0.0,0.0,0.0,0.0,-0.35972963256964285,0.0,0.0,0.0,0.0,0.0,0.0,-14.636,0.0,0.0,0.0
302,0.0,0.0,0.0,-0.1415869140625,0.0,0.0,0.0,0.0,0.0,0.0,-0.62,0.0,0.0,0.0,0.0,0.0,0.0,-0.3401734065546328,0.0,0.0,0.0,0.0,0.0,0.0,-14.268,0.0,0.0,0.0
303,0.0,0.0,0.0,-0.147388671875,0.0,0.0,0.0,0.0,0.0,0.0,-0.596,0.0,0.0,0.0,0.0,0.0,0.0,-0.3199846616443478,0.0,0.0,0.0,0.0,0.0,0.0,-14.796,0.0,0.0,0.0
304,0.0,0.0,0.0,-0.153470703125,0.0,0.0,0.0,0.0,0.0,0.0,-0.595,0.0,0.0,0.0,0.0,0.0,0.0,-0.2997270165878984,0.0,0.0,0.0,0.0,0.0,0.0,-14.108,0.0,0.0,0.0
305,0.0,0.0,0.0,-0.159263671875,0.0,0.0,0.0,0.0,0.0,0.0,-0.61,0.0,0.0,0.0,0.0,0.0,0.0,-0.27867202346694586,0.0,0.0,0.0,0.0,0.0,0.0,-13.536,0.0,0.0,0.0
306,0.0,0.0,0.0,-0.1652099609375,0.0,0.0,0.0,0.0,0.0,0.0,-0.581,0.0,0.0,0.0,0.0,0.0,0.0,-0.2570965470701654,0.0,0.0,0.0,0.0,0.0,0.0,-14.268,0.0,0.0,0.0
307,0.0,0.0,0.0,-0.1712919921875,0.0,0.0,0.0,0.0,0.0,0.0,-0.613,0.0,0.0,0.0,0.0,0.0,0.0,-0.23534848999044367,0.0,0.0,0.0,0.0,0.0,0.0,-13.676,0.0,0.0,0.0
308,0.0,0.0,0.0,-0.1769404296875,0.0,0.0,0.0,0.0,0.0,0.0,-0.583,0.0,0.0,0.0,0.0,0.0,0.0,-0.2129819916628464,0.0,0.0,0.0,0.0,0.0,0.0,-13.72,0.0,0.0,0.0
309,0.0,0.0,0.0,-0.1828779296875,0.0,0.0,0.0,0.0,0.0,0.0,-0.585,0.0,0.0,0.0,0.0,0.0,0.0,-0.19023459318559652,0.0,0.0,0.0,0.0,0.0,0.0,-13.948,0.0,0.0,0.0
310,0.0,0.0,0.0,-0.1888154296875,0.0,0.0,0.0,0.0,0.0,0.0,-0.606,0.0,0.0,0.0,0.0,0.0,0.0,-0.1673707265138468,0.0,0.0,0.0,0.0,0.0,0.0,-13.676,0.0,0.0,0.0
311,0.0,0.0,0.0,-0.1946083984375,0.0,0.0,0.0,0.0,0.0,0.0,-0.587,0.0,0.0,0.0,0.0,0.0,0.0,-0.14427955797318054,0.0,0.0,0.0,0.0,0.0,0.0,-14.292,0.0,0.0,0.0
312,0.0,0.0,0.0,-0.2002568359375,0.0,0.0,0.0,0.0,0.0,0.0,-0.59,0.0,0.0,0.0,0.0,0.0,0.0,-0.11783579917845637,0.0,0.0,0.0,0.0,0.0,0.0,-13.468,0.0,0.0,0.0
313,0.0,0.0,0.0,-0.2030087890625,0.0,0.0,0.0,0.0,0.0,0.0,-0.463,0.0,0.0,0.0,0.0,0.0,0.0,-0.09339008824578961,0.0,0.0,0.0,0.0,0.0,0.0,-9.74,0.0,0.0,0.0
314,0.0,0.0,0.0,-0.202431640625,0.0,0.0,0.0,0.0,0.0,0.0,-0.124,0.0,0.0,0.0,0.0,0.0,0.0,-0.07361999897098635,0.0,0.0,0.0,0.0,0.0,0.0,-8.392,0.0,0.0,0.0
315,0.0,0.0,0.0,-0.201556640625,0.0,0.0,0.0,0.0,0.0,0.0,0.072,0.0,0.0,0.0,0.0,0.0,0.0,-0.04968154543264487,0.0,0.0,0.0,0.0,0.0,0.0,-7.728,0.0,0.0,0.0
316,0.0,0.0,0.0,-0.19837109375,0.0,0.0,0.0,0.0,0.0,0.0,0.172,0.0,0.0,0.0,0.0,0.0,0.0,-0.025949001938443614,0.0,0.0,0.0,0.0,0.0,0.0,-7.156,0.0,0.0,0.0
317,0.0,0.0,0.0,-0.1941748046875,0.0,0.0,0.0,0.0,0.0,0.0,0.382,0.0,0.0,0.0,0.0,0.0,0.0,-0.0018369550586099306,0.0,0.0,0.0,0.0,0.0,0.0,-7.912,0.0,0.0,0.0
318,0.0,0.0,0.0,-0.190701171875,0.0,0.0,0.0,0.0,0.0,0.0,0.374,0.0,0.0,0.0,0.0,0.0,0.0,0.02237126481258656,0.0,0.0,0.0,0.0,0.0,0.0,-4.596,0.0,0.0,0.0
319,0.0,0.0,0.0,-0.18533203125,0.0,0.0,0.0,0.0,0.0,0.0,0.425,0.0,0.0,0.0,0.0,0.0,0.0,2.403259276701139e-05,0.0,0.0,0.0,0.0,0.0,0.0,-3.748,0.0,0.0,0.0
320,0.0,0.0,0.0,-0.17925,0.0,0.0,0.0,0.0,0.0,0.0,0.575,0.0,0.0,0.0,0.0,0.0,0.0,0.023943263831518395,0.0,0.0,0.0,0.0,0.0,0.0,-4.8,0.0,0.0,0.0
321,0.0,0.0,0.0,-0.172158203125,0.0,0.0,0.0,0.0,0.0,0.0,0.642,0.0,0.0,0.0,0.0,0.0,0.0,0.04855163215065554,0.0,0.0,0.0,0.0,0.0,0.0,-4.208,0.0,0.0,0.0
322,0.0,0.0,0.0,-0.1639013671875,0.0,0.0,0.0,0.0,0.0,0.0,0.774,0.0,0.0,0.0,0.0,0.0,0.0,0.0717772640590888,0.0,0.0,0.0,0.0,0.0,0.0,-6.7,0.0,0.0,0.0
323,0.0,0.0,0.0,-0.15651171875,0.0,0.0,0.0,0.0,0.0,0.0,0.806,0.0,0.0,0.0,0.0,0.0,0.0,0.09552925940519909,0.0,0.0,0.0,0.0,0.0,0.0,-8.664,0.0,0.0,0.0
324,0.0,0.0,0.0,-0.1497080078125,0.0,0.0,0.0,0.0,0.0,0.0,0.705,0.0,0.0,0.0,0.0,0.0,0.0,0.11942243255196204,0.0,0.0,0.0,0.0,0.0,0.0,-8.916,0.0,0.0,0.0
325,0.0,0.0,0.0,-0.1415869140625,0.0,0.0,0.0,0.0,0.0,0.0,0.732,0.0,0.0,0.0,0.0,0.0,0.0,0.14259087304280332,0.0,0.0,0.0,0.0,0.0,0.0,-7.912,0.0,0.0,0.0
326,0.0,0.0,0.0,-0.1326171875,0.0,0.0,0.0,0.0,0.0,0.0,0.861,0.0,0.0,0.0,0.0,0.0,0.0,0.16583413202613703,0.0,0.0,0.0,0.0,0.0,0.0,-7.864,0.0,0.0,0.0
327,0.0,0.0,0.0,-0.124361328125,0.0,0.0,0.0,0.0,0.0,0.0,0.874,0.0,0.0,0.0,0.0,0.0,0.0,0.18894234814431696,0.0,0.0,0.0,0.0,0.0,0.0,-9.992,0.0,0.0,0.0
328,0.0,0.0,0.0,-0.116681640625,0.0,0.0,0.0,0.0,0.0,0.0,0.801,0.0,0.0,0.0,0.0,0.0,0.0,0.21157318711762843,0.0,0.0,0.0,0.0,0.0,0.0,-12.692,0.0,0.0,0.0
329,0.0,0.0,0.0,-0.10813671875,0.0,0.0,0.0,0.0,0.0,0.0,0.81,0.0,0.0,0.0,0.0,0.0,0.0,0.23361548272140956,0.0,0.0,0.0,0.0,0.0,0.0,-12.692,0.0,0.0,0.0
330,0.0,0.0,0.0,-0.1001689453125,0.0,0.0,0.0,0.0,0.0,0.0,0.844,0.0,0.0,0.0,0.0,0.0,0.0,0.25604740203791354,0.0,0.0,0.0,0.0,0.0,0.0,-12.76,0.0,0.0,0.0
331,0.0,0.0,0.0,-0.0932119140625,0.0,0.0,0.0,0.0,0.0,0.0,0.759,0.0,0.0,0.0,0.0,0.0,0.0,0.2770951761710611,0.0,0.0,0.0,0.0,0.0,0.0,-13.332,0.0,0.0,0.0
332,0.0,0.0,0.0,-0.0855419921875,0.0,0.0,0.0,0.0,0.0,0.0,0.715,0.0,0.0,0.0,0.0,0.0,0.0,0.2982301122092221,0.0,0.0,0.0,0.0,0.0,0.0,-15.092,0.0,0.0,0.0
333,0.0,0.0,0.0,-0.0768525390625,0.0,0.0,0.0,0.0,0.0,0.0,0.822,0.0,0.0,0.0,0.0,0.0,0.0,0.3189654444519328,0.0,0.0,0.0,0.0,0.0,0.0,-16.624,0.0,0.0,0.0
334,0.0,0.0,0.0,-0.0691650390625,0.0,0.0,0.0,0.0,0.0,0.0,0.846,0.0,0.0,0.0,0.0,0.0,0.0,0.3387379730387357,0.0,0.0,0.0,0.0,0.0,0.0,-16.76,0.0,0.0,0.0
335,0.0,0.0,0.0,-0.062216796875,0.0,0.0,0.0,0.0,0.0,0.0,0.734,0.0,0.0,0.0,0.0,0.0,0.0,0.3582343524472688,0.0,0.0,0.0,0.0,0.0,0.0,-16.488,0.0,0.0,0.0
336,0.0,0.0,0.0,-0.0551240234375,0.0,0.0,0.0,0.0,0.0,0.0,0.702,0.0,0.0,0.0,0.0,0.0,0.0,0.3774583494773256,0.0,0.0,0.0,0.0,0.0,0.0,-17.7,0.0,0.0,0.0
337,0.0,0.0,0.0,-0.047724609375,0.0,0.0,0.0,0.0,0.0,0.0,0.72,0.0,0.0,0.0,0.0,0.0,0.0,0.39558360093359807,0.0,0.0,0.0,0.0,0.0,0.0,-17.152,0.0,0.0,0.0
338,0.0,0.0,0.0,-0.04019921875,0.0,0.0,0.0,0.0,0.0,0.0,0.755,0.0,0.0,0.0,0.0,0.0,0.0,0.4132849418300743,0.0,0.0,0.0,0.0,0.0,0.0,-17.356,0.0,0.0,0.0
339,0.0,0.0,0.0,-0.0336845703125,0.0,0.0,0.0,0.0,0.0,0.0,0.724,0.0,0.0,0.0,0.0,0.0,0.0,0.4304551926590343,0.0,0.0,0.0,0.0,0.0,0.0,-18.568,0.0,0.0,0.0
340,0.0,0.0,0.0,-0.0270166015625,0.0,0.0,0.0,0.0,0.0,0.0,0.648,0.0,0.0,0.0,0.0,0.0,0.0,0.44675996123562683,0.0,0.0,0.0,0.0,0.0,0.0,-18.684,0.0,0.0,0.0
341,0.0,0.0,0.0,-0.0200595703125,0.0,0.0,0.0,0.0,0.0,0.0,0.685,0.0,0.0,0.0,0.0,0.0,0.0,0.46238977317346514,0.0,0.0,0.0,0.0,0.0,0.0,-19.508,0.0,0.0,0.0
342,0.0,0.0,0.0,-0.0136884765625,0.0,0.0,0.0,0.0,0.0,0.0,0.675,0.0,0.0,0.0,0.0,0.0,0.0,0.4776440703610915,0.0,0.0,0.0,0.0,0.0,0.0,-17.768,0.0,0.0,0.0
343,0.0,0.0,0.0,-0.0071650390625,0.0,0.0,0.0,0.0,0.0,0.0,0.647,0.0,0.0,0.0,0.0,0.0,0.0,0.49151889212424926,0.0,0.0,0.0,0.0,0.0,0.0,-18.248,0.0,0.0,0.0
344,0.0,0.0,0.0,-0.0010830078125,0.0,0.0,0.0,0.0,0.0,0.0,0.634,0.0,0.0,0.0,0.0,0.0,0.0,0.5048566195341673,0.0,0.0,0.0,0.0,0.0,0.0,-18.248,0.0,0.0,0.0
345,0.0,0.0,0.0,0.005142578125,0.0,0.0,0.0,0.0,0.0,0.0,0.615,0.0,0.0,0.0,0.0,0.0,0.0,0.5175383769584532,0.0,0.0,0.0,0.0,0.0,0.0,-17.492,0.0,0.0,0.0
346,0.0,0.0,0.0,0.010935546875,0.0,0.0,0.0,0.0,0.0,0.0,0.62,0.0,0.0,0.0,0.0,0.0,0.0,0.5292016297779987,0.0,0.0,0.0,0.0,0.0,0.0,-16.876,0.0,0.0,0.0
347,0.0,0.0,0.0,0.0164482421875,0.0,0.0,0.0,0.0,0.0,0.0,0.568,0.0,0.0,0.0,0.0,0.0,0.0,0.5400225855576538,0.0,0.0,0.0,0.0,0.0,0.0,-15.916,0.0,0.0,0.0
348,0.0,0.0,0.0,0.0215107421875,0.0,0.0,0.0,0.0,0.0,0.0,0.534,0.0,0.0,0.0,0.0,0.0,0.0,0.5501247786113936,0.0,0.0,0.0,0.0,0.0,0.0,-16.372,0.0,0.0,0.0
349,0.0,0.0,0.0,0.02658203125,0.0,0.0,0.0,0.0,0.0,0.0,0.51,0.0,0.0,0.0,0.0,0.0,0.0,0.5593398564794346,0.0,0.0,0.0,0.0,0.0,0.0,-15.664,0.0,0.0,0.0
350,0.0,0.0,0.0,0.0320859375,0.0,0.0,0.0,0.0,0.0,0.0,0.533,0.0,0.0,0.0,0.0,0.0,0.0,0.5674945112108406,0.0,0.0,0.0,0.0,0.0,0.0,-15.16,0.0,0.0,0.0
351,0.0,0.0,0.0,0.0371572265625,0.0,0.0,0.0,0.0,0.0,0.0,0.533,0.0,0.0,0.0,0.0,0.0,0.0,0.5749173084735993,0.0,0.0,0.0,0.0,0.0,0.0,-15.048,0.0,0.0,0.0
352,0.0,0.0,0.0,0.042228515625,0.0,0.0,0.0,0.0,0.0,0.0,0.501,0.0,0.0,0.0,0.0,0.0,0.0,0.5813039207947153,0.0,0.0,0.0,0.0,0.0,0.0,-14.864,0.0,0.0,0.0
353,0.0,0.0,0.0,0.0472998046875,0.0,0.0,0.0,0.0,0.0,0.0,0.518,0.0,0.0,0.0,0.0,0.0,0.0,0.586720753650001,0.0,0.0,0.0,0.0,0.0,0.0,-15.688,0.0,0.0,0.0
354,0.0,0.0,0.0,0.0517841796875,0.0,0.0,0.0,0.0,0.0,0.0,0.485,0.0,0.0,0.0,0.0,0.0,0.0,0.5913276682694802,0.0,0.0,0.0,0.0,0.0,0.0,-14.268,0.0,0.0,0.0
355,0.0,0.0,0.0,0.0567197265625,0.0,0.0,0.0,0.0,0.0,0.0,0.466,0.0,0.0,0.0,0.0,0.0,0.0,0.5949445179549447,0.0,0.0,0.0,0.0,0.0,0.0,-12.944,0.0,0.0,0.0
356,0.0,0.0,0.0,0.0619267578125,0.0,0.0,0.0,0.0,0.0,0.0,0.517,0.0,0.0,0.0,0.0,0.0,0.0,0.5975221480508567,0.0,0.0,0.0,0.0,0.0,0.0,-12.92,0.0,0.0,0.0
357,0.0,0.0,0.0,0.066853515625,0.0,0.0,0.0,0.0,0.0,0.0,0.501,0.0,0.0,0.0,0.0,0.0,0.0,0.5992286258908475,0.0,0.0,0.0,0.0,0.0,0.0,-12.28,0.0,0.0,0.0
358,0.0,0.0,0.0,0.0720693359375,0.0,0.0,0.0,0.0,0.0,0.0,0.511,0.0,0.0,0.0,0.0,0.0,0.0,0.5999662108491083,0.0,0.0,0.0,0.0,0.0,0.0,-13.444,0.0,0.0,0.0
359,0.0,0.0,0.0,0.07670703125,0.0,0.0,0.0,0.0,0.0,0.0,0.507,0.0,0.0,0.0,0.0,0.0,0.0,0.5997453567267337,0.0,0.0,0.0,0.0,0.0,0.0,-13.492,0.0,0.0,0.0
360,0.0,0.0,0.0,0.0816337890625,0.0,0.0,0.0,0.0,0.0,0.0,0.476,0.0,0.0,0.0,0.0,0.0,0.0,0.5985691511660701,0.0,0.0,0.0,0.0,0.0,0.0,-12.188,0.0,0.0,0.0
361,0.0,0.0,0.0,0.086705078125,0.0,0.0,0.0,0.0,0.0,0.0,0.5,0.0,0.0,0.0,0.0,0.0,0.0,0.5964194126882906,0.0,0.0,0.0,0.0,0.0,0.0,-12.324,0.0,0.0,0.0
362,0.0,0.0,0.0,0.0919111328125,0.0,0.0,0.0,0.0,0.0,0.0,0.508,0.0,0.0,0.0,0.0,0.0,0.0,0.5933417439177896,0.0,0.0,0.0,0.0,0.0,0.0,-12.304,0.0,0.0,0.0
363,0.0,0.0,0.0,0.0977138671875,0.0,0.0,0.0,0.0,0.0,0.0,0.554,0.0,0.0,0.0,0.0,0.0,0.0,0.5893052597127351,0.0,0.0,0.0,0.0,0.0,0.0,-13.24,0.0,0.0,0.0
364,0.0,0.0,0.0,0.103208984375,0.0,0.0,0.0,0.0,0.0,0.0,0.572,0.0,0.0,0.0,0.0,0.0,0.0,0.5841308605088972,0.0,0.0,0.0,0.0,0.0,0.0,-13.948,0.0,0.0,0.0
365,0.0,0.0,0.0,0.108712890625,0.0,0.0,0.0,0.0,0.0,0.0,0.549,0.0,0.0,0.0,0.0,0.0,0.0,0.5783981427669979,0.0,0.0,0.0,0.0,0.0,0.0,-13.24,0.0,0.0,0.0
366,0.0,0.0,0.0,0.114361328125,0.0,0.0,0.0,0.0,0.0,0.0,0.561,0.0,0.0,0.0,0.0,0.0,0.0,0.571565542200436,0.0,0.0,0.0,0.0,0.0,0.0,-12.232,0.0,0.0,0.0
367,0.0,0.0,0.0,0.12001953125,0.0,0.0,0.0,0.0,0.0,0.0,0.563,0.0,0.0,0.0,0.0,0.0,0.0,0.5636995078153123,0.0,0.0,0.0,0.0,0.0,0.0,-12.052,0.0,0.0,0.0
368,0.0,0.0,0.0,0.1261015625,0.0,0.0,0.0,0.0,0.0,0.0,0.59,0.0,0.0,0.0,0.0,0.0,0.0,0.5551314632819057,0.0,0.0,0.0,0.0,0.0,0.0,-12.324,0.0,0.0,0.0
369,0.0,0.0,0.0,0.1321826171875,0.0,0.0,0.0,0.0,0.0,0.0,0.613,0.0,0.0,0.0,0.0,0.0,0.0,0.5455855995060153,0.0,0.0,0.0,0.0,0.0,0.0,-12.784,0.0,0.0,0.0
370,0.0,0.0,0.0,0.1381201171875,0.0,0.0,0.0,0.0,0.0,0.0,0.599,0.0,0.0,0.0,0.0,0.0,0.0,0.5349759656087805,0.0,0.0,0.0,0.0,0.0,0.0,-12.988,0.0,0.0,0.0
371,0.0,0.0,0.0,0.1440576171875,0.0,0.0,0.0,0.0,0.0,0.0,0.595,0.0,0.0,0.0,0.0,0.0,0.0,0.5239196934904563,0.0,0.0,0.0,0.0,0.0,0.0,-12.552,0.0,0.0,0.0
372,0.0,0.0,0.0,0.1499951171875,0.0,0.0,0.0,0.0,0.0,0.0,0.595,0.0,0.0,0.0,0.0,0.0,0.0,0.5118207698957427,0.0,0.0,0.0,0.0,0.0,0.0,-13.056,0.0,0.0,0.0
373,0.0,0.0,0.0,0.1560859375,0.0,0.0,0.0,0.0,0.0,0.0,0.602,0.0,0.0,0.0,0.0,0.0,0.0,0.4986354425918072,0.0,0.0,0.0,0.0,0.0,0.0,-13.4,0.0,0.0,0.0
374,0.0,0.0,0.0,0.1624560546875,0.0,0.0,0.0,0.0,0.0,0.0,0.633,0.0,0.0,0.0,0.0,0.0,0.0,0.4851319184281614,0.0,0.0,0.0,0.0,0.0,0.0,-14.568,0.0,0.0,0.0
375,0.0,0.0,0.0,0.1688359375,0.0,0.0,0.0,0.0,0.0,0.0,0.637,0.0,0.0,0.0,0.0,0.0,0.0,0.47065210897919446,0.0,0.0,0.0,0.0,0.0,0.0,-14.816,0.0,0.0,0.0
376,0.0,0.0,0.0,0.17520703125,0.0,0.0,0.0,0.0,0.0,0.0,0.639,0.0,0.0,0.0,0.0,0.0,0.0,0.4550847364388646,0.0,0.0,0.0,0.0,0.0,0.0,-13.652,0.0,0.0,0.0
377,0.0,0.0,0.0,0.18144140625,0.0,0.0,0.0,0.0,0.0,0.0,0.638,0.0,0.0,0.0,0.0,0.0,0.0,0.43937328345520155,0.0,0.0,0.0,0.0,0.0,0.0,-13.628,0.0,0.0,0.0
378,0.0,0.0,0.0,0.1875234375,0.0,0.0,0.0,0.0,0.0,0.0,0.612,0.0,0.0,0.0,0.0,0.0,0.0,0.42268600006915996,0.0,0.0,0.0,0.0,0.0,0.0,-13.536,0.0,0.0,0.0
379,0.0,0.0,0.0,0.19375,0.0,0.0,0.0,0.0,0.0,0.0,0.624,0.0,0.0,0.0,0.0,0.0,0.0,0.4051523226453887,0.0,0.0,0.0,0.0,0.0,0.0,-13.628,0.0,0.0,0.0
380,0.0,0.0,0.0,0.20012890625,0.0,0.0,0.0,0.0,0.0,0.0,0.635,0.0,0.0,0.0,0.0,0.0,0.0,0.3872576948278103,0.0,0.0,0.0,0.0,0.0,0.0,-13.88,0.0,0.0,0.0
381,0.0,0.0,0.0,0.2062109375,0.0,0.0,0.0,0.0,0.0,0.0,0.624,0.0,0.0,0.0,0.0,0.0,0.0,0.36863064057451694,0.0,0.0,0.0,0.0,0.0,0.0,-13.652,0.0,0.0,0.0
382,0.0,0.0,0.0,0.2121484375,0.0,0.0,0.0,0.0,0.0,0.0,0.608,0.0,0.0,0.0,0.0,0.0,0.0,0.34916042050573515,0.0,0.0,0.0,0.0,0.0,0.0,-14.156,0.0,0.0,0.0
383,0.0,0.0,0.0,0.2183837890625,0.0,0.0,0.0,0.0,0.0,0.0,0.61,0.0,0.0,0.0,0.0,0.0,0.0,0.32963169823880684,0.0,0.0,0.0,0.0,0.0,0.0,-14.748,0.0,0.0,0.0
384,0.0,0.0,0.0,0.2241767578125,0.0,0.0,0.0,0.0,0.0,0.0,0.604,0.0,0.0,0.0,0.0,0.0,0.0,0.3092412966967942,0.0,0.0,0.0,0.0,0.0,0.0,-14.796,0.0,0.0,0.0
385,0.0,0.0,0.0,0.2304033203125,0.0,0.0,0.0,0.0,0.0,0.0,0.596,0.0,0.0,0.0,0.0,0.0,0.0,0.2869986092890365,0.0,0.0,0.0,0.0,0.0,0.0,-14.864,0.0,0.0,0.0
386,0.0,0.0,0.0,0.2364931640625,0.0,0.0,0.0,0.0,0.0,0.0,0.625,0.0,0.0,0.0,0.0,0.0,0.0,0.2671672413961424,0.0,0.0,0.0,0.0,0.0,0.0,-14.336,0.0,0.0,0.0
387,0.0,0.0,0.0,0.24227734375,0.0,0.0,0.0,0.0,0.0,0.0,0.602,0.0,0.0,0.0,0.0,0.0,0.0,0.2455659463425862,0.0,0.0,0.0,0.0,0.0,0.0,-13.88,0.0,0.0,0.0
388,0.0,0.0,0.0,0.248359375,0.0,0.0,0.0,0.0,0.0,0.0,0.594,0.0,0.0,0.0,0.0,0.0,0.0,0.22323482785471452,0.0,0.0,0.0,0.0,0.0,0.0,-13.856,0.0,0.0,0.0
389,0.0,0.0,0.0,0.25415234375,0.0,0.0,0.0,0.0,0.0,0.0,0.597,0.0,0.0,0.0,0.0,0.0,0.0,0.20089789009268005,0.0,0.0,0.0,0.0,0.0,0.0,-13.72,0.0,0.0,0.0
390,0.0,0.0,0.0,0.259232421875,0.0,0.0,0.0,0.0,0.0,0.0,0.566,0.0,0.0,0.0,0.0,0.0,0.0,0.17819521871843624,0.0,0.0,0.0,0.0,0.0,0.0,-15.848,0.0,0.0,0.0
391,0.0,0.0,0.0,0.2603876953125,0.0,0.0,0.0,0.0,0.0,0.0,0.365,0.0,0.0,0.0,0.0,0.0,0.0,0.15487967824303048,0.0,0.0,0.0,0.0,0.0,0.0,-20.628,0.0,0.0,0.0
392,0.0,0.0,0.0,0.259232421875,0.0,0.0,0.0,0.0,0.0,0.0,0.003,0.0,0.0,0.0,0.0,0.0,0.0,0.13178638931550798,0.0,0.0,0.0,0.0,0.0,0.0,-21.564,0.0,0.0,0.0
393,0.0,0.0,0.0,0.2574912109375,0.0,0.0,0.0,0.0,0.0,0.0,-0.129,0.0,0.0,0.0,0.0,0.0,0.0,0.10828457391046407,0.0,0.0,0.0,0.0,0.0,0.0,-22.708,0.0,0.0,0.0
394,0.0,0.0,0.0,0.2535751953125,0.0,0.0,0.0,0.0,0.0,0.0,-0.27,0.0,0.0,0.0,0.0,0.0,0.0,0.0845655055645049,0.0,0.0,0.0,0.0,0.0,0.0,-21.404,0.0,0.0,0.0
395,0.0,0.0,0.0,0.2495234375,0.0,0.0,0.0,0.0,0.0,0.0,-0.416,0.0,0.0,0.0,0.0,0.0,0.0,0.060829752115170485,0.0,0.0,0.0,0.0,0.0,0.0,-21.176,0.0,0.0,0.0
396,0.0,0.0,0.0,0.245318359375,0.0,0.0,0.0,0.0,0.0,0.0,-0.407,0.0,0.0,0.0,0.0,0.0,0.0,0.036951694193027095,0.0,0.0,0.0,0.0,0.0,0.0,-24.012,0.0,0.0,0.0
397,0.0,0.0,0.0,0.2398232421875,0.0,0.0,0.0,0.0,0.0,0.0,-0.469,0.0,0.0,0.0,0.0,0.0,0.0,0.012796189911485973,0.0,0.0,0.0,0.0,0.0,0.0,-25.636,0.0,0.0,0.0
398,0.0,0.0,0.0,0.2331552734375,0.0,0.0,0.0,0.0,0.0,0.0,-0.603,0.0,0.0,0.0,0.0,0.0,0.0,-0.011120354957862719,0.0,0.0,0.0,0.0,0.0,0.0,-24.972,0.0,0.0,0.0
399,0.0,0.0,0.0,0.2257646484375,0.0,0.0,0.0,0.0,0.0,0.0,-0.698,0.0,0.0,0.0,0.0,0.0,0.0,-0.03497867340015894,0.0,0.0,0.0,0.0,0.0,0.0,-23.484,0.0,0.0,0.0
400,0.0,0.0,0.0,0.2180947265625,0.0,0.0,0.0,0.0,0.0,0.0,-0.763,0.0,0.0,0.0,0.0,0.0,0.0,-0.05918533099134256,0.0,0.0,0.0,0.0,0.0,0.0,-21.128,0.0,0.0,0.0
401,0.0,0.0,0.0,0.210984375,0.0,0.0,0.0,0.0,0.0,0.0,-0.762,0.0,0.0,0.0,0.0,0.0,0.0,-0.08285530317112215,0.0,0.0,0.0,0.0,0.0,0.0,-19.484,0.0,0.0,0.0
402,0.0,0.0,0.0,0.2040361328125,0.0,0.0,0.0,0.0,0.0,0.0,-0.687,0.0,0.0,0.0,0.0,0.0,0.0,-0.1063826687847766,0.0,0.0,0.0,0.0,0.0,0.0,-20.468,0.0,0.0,0.0
403,0.0,0.0,0.0,0.1956357421875,0.0,0.0,0.0,0.0,0.0,0.0,-0.75,0.0,0.0,0.0,0.0,0.0,0.0,-0.13031653376623883,0.0,0.0,0.0,0.0,0.0,0.0,-20.328,0.0,0.0,0.0
404,0.0,0.0,0.0,0.1869375,0.0,0.0,0.0,0.0,0.0,0.0,-0.875,0.0,0.0,0.0,0.0,0.0,0.0,-0.15343784431857402,0.0,0.0,0.0,0.0,0.0,0.0,-18.224,0.0,0.0,0.0
405,0.0,0.0,0.0,0.178544921875,0.0,0.0,0.0,0.0,0.0,0.0,-0.864,0.0,0.0,0.0,0.0,0.0,0.0,-0.1763987468060452,0.0,0.0,0.0,0.0,0.0,0.0,-16.076,0.0,0.0,0.0
406,0.0,0.0,0.0,0.170712890625,0.0,0.0,0.0,0.0,0.0,0.0,-0.819,0.0,0.0,0.0,0.0,0.0,0.0,-0.1993085154522888,0.0,0.0,0.0,0.0,0.0,0.0,-14.656,0.0,0.0,0.0
407,0.0,0.0,0.0,0.1624560546875,0.0,0.0,0.0,0.0,0.0,0.0,-0.801,0.0,0.0,0.0,0.0,0.0,0.0,-0.22190302220969105,0.0,0.0,0.0,0.0,0.0,0.0,-15.94,0.0,0.0,0.0
408,0.0,0.0,0.0,0.1544892578125,0.0,0.0,0.0,0.0,0.0,0.0,-0.826,0.0,0.0,0.0,0.0,0.0,0.0,-0.24380299643387843,0.0,0.0,0.0,0.0,0.0,0.0,-15.62,0.0,0.0,0.0
409,0.0,0.0,0.0,0.147396484375,0.0,0.0,0.0,0.0,0.0,0.0,-0.763,0.0,0.0,0.0,0.0,0.0,0.0,-0.2656238145754243,0.0,0.0,0.0,0.0,0.0,0.0,-14.476,0.0,0.0,0.0
410,0.0,0.0,0.0,0.1392841796875,0.0,0.0,0.0,0.0,0.0,0.0,-0.747,0.0,0.0,0.0,0.0,0.0,0.0,-0.2868833711697982,0.0,0.0,0.0,0.0,0.0,0.0,-13.216,0.0,0.0,0.0
411,0.0,0.0,0.0,0.1300078125,0.0,0.0,0.0,0.0,0.0,0.0,-0.851,0.0,0.0,0.0,0.0,0.0,0.0,-0.3077192162621129,0.0,0.0,0.0,0.0,0.0,0.0,-12.096,0.0,0.0,0.0
412,0.0,0.0,0.0,0.123060546875,0.0,0.0,0.0,0.0,0.0,0.0,-0.828,0.0,0.0,0.0,0.0,0.0,0.0,-0.3281872286034007,0.0,0.0,0.0,0.0,0.0,0.0,-11.66,0.0,0.0,0.0
413,0.0,0.0,0.0,0.116248046875,0.0,0.0,0.0,0.0,0.0,0.0,-0.736,0.0,0.0,0.0,0.0,0.0,0.0,-0.3479367371425343,0.0,0.0,0.0,0.0,0.0,0.0,-11.18,0.0,0.0,0.0
414,0.0,0.0,0.0,0.109146484375,0.0,0.0,0.0,0.0,0.0,0.0,-0.692,0.0,0.0,0.0,0.0,0.0,0.0,-0.3671202562041164,0.0,0.0,0.0,0.0,0.0,0.0,-12.096,0.0,0.0,0.0
415,0.0,0.0,0.0,0.1014765625,0.0,0.0,0.0,0.0,0.0,0.0,-0.747,0.0,0.0,0.0,0.0,0.0,0.0,-0.38591674910818924,0.0,0.0,0.0,0.0,0.0,0.0,-12.692,0.0,0.0,0.0
416,0.0,0.0,0.0,0.093796875,0.0,0.0,0.0,0.0,0.0,0.0,-0.74,0.0,0.0,0.0,0.0,0.0,0.0,-0.4041504738847739,0.0,0.0,0.0,0.0,0.0,0.0,-12.256,0.0,0.0,0.0
417,0.0,0.0,0.0,0.0878603515625,0.0,0.0,0.0,0.0,0.0,0.0,-0.689,0.0,0.0,0.0,0.0,0.0,0.0,-0.4213028804197158,0.0,0.0,0.0,0.0,0.0,0.0,-10.632,0.0,0.0,0.0
418,0.0,0.0,0.0,0.0814892578125,0.0,0.0,0.0,0.0,0.0,0.0,-0.646,0.0,0.0,0.0,0.0,0.0,0.0,-0.43809055522682633,0.0,0.0,0.0,0.0,0.0,0.0,-10.608,0.0,0.0,0.0
419,0.0,0.0,0.0,0.0745322265625,0.0,0.0,0.0,0.0,0.0,0.0,-0.679,0.0,0.0,0.0,0.0,0.0,0.0,-0.45435740989257495,0.0,0.0,0.0,0.0,0.0,0.0,-11.068,0.0,0.0,0.0
420,0.0,0.0,0.0,0.068162109375,0.0,0.0,0.0,0.0,0.0,0.0,-0.676,0.0,0.0,0.0,0.0,0.0,0.0,-0.4693309542135192,0.0,0.0,0.0,0.0,0.0,0.0,-11.96,0.0,0.0,0.0
421,0.0,0.0,0.0,0.0617822265625,0.0,0.0,0.0,0.0,0.0,0.0,-0.635,0.0,0.0,0.0,0.0,0.0,0.0,-0.48403419872785697,0.0,0.0,0.0,0.0,0.0,0.0,-11.296,0.0,0.0,0.0
422,0.0,0.0,0.0,0.0558447265625,0.0,0.0,0.0,0.0,0.0,0.0,-0.625,0.0,0.0,0.0,0.0,0.0,0.0,-0.49789929128890176,0.0,0.0,0.0,0.0,0.0,0.0,-10.312,0.0,0.0,0.0
423,0.0,0.0,0.0,0.049609375,0.0,0.0,0.0,0.0,0.0,0.0,-0.612,0.0,0.0,0.0,0.0,0.0,0.0,-0.510892456387987,0.0,0.0,0.0,0.0,0.0,0.0,-11.708,0.0,0.0,0.0
424,0.0,0.0,0.0,0.04352734375,0.0,0.0,0.0,0.0,0.0,0.0,-0.624,0.0,0.0,0.0,0.0,0.0,0.0,-0.522963079762375,0.0,0.0,0.0,0.0,0.0,0.0,-12.76,0.0,0.0,0.0
425,0.0,0.0,0.0,0.0380322265625,0.0,0.0,0.0,0.0,0.0,0.0,-0.584,0.0,0.0,0.0,0.0,0.0,0.0,-0.5344692365252298,0.0,0.0,0.0,0.0,0.0,0.0,-13.264,0.0,0.0,0.0
426,0.0,0.0,0.0,0.0328076171875,0.0,0.0,0.0,0.0,0.0,0.0,-0.542,0.0,0.0,0.0,0.0,0.0,0.0,-0.5448747230624603,0.0,0.0,0.0,0.0,0.0,0.0,-12.44,0.0,0.0,0.0
427,0.0,0.0,0.0,0.0277373046875,0.0,0.0,0.0,0.0,0.0,0.0,-0.52,0.0,0.0,0.0,0.0,0.0,0.0,-0.554429016115351,0.0,0.0,0.0,0.0,0.0,0.0,-12.464,0.0,0.0,0.0
428,0.0,0.0,0.0,0.0225302734375,0.0,0.0,0.0,0.0,0.0,0.0,-0.511,0.0,0.0,0.0,0.0,0.0,0.0,-0.5636125632326641,0.0,0.0,0.0,0.0,0.0,0.0,-13.788,0.0,0.0,0.0
429,0.0,0.0,0.0,0.0170263671875,0.0,0.0,0.0,0.0,0.0,0.0,-0.543,0.0,0.0,0.0,0.0,0.0,0.0,-0.5709427060921372,0.0,0.0,0.0,0.0,0.0,0.0,-14.384,0.0,0.0,0.0
430,0.0,0.0,0.0,0.0119462890625,0.0,0.0,0.0,0.0,0.0,0.0,-0.537,0.0,0.0,0.0,0.0,0.0,0.0,-0.5778940360917132,0.0,0.0,0.0,0.0,0.0,0.0,-14.084,0.0,0.0,0.0
431,0.0,0.0,0.0,0.00673046875,0.0,0.0,0.0,0.0,0.0,0.0,-0.519,0.0,0.0,0.0,0.0,0.0,0.0,-0.5838972771649255,0.0,0.0,0.0,0.0,0.0,0.0,-13.764,0.0,0.0,0.0
432,0.0,0.0,0.0,0.0012353515625,0.0,0.0,0.0,0.0,0.0,0.0,-0.516,0.0,0.0,0.0,0.0,0.0,0.0,-0.5889328300023163,0.0,0.0,0.0,0.0,0.0,0.0,-13.492,0.0,0.0,0.0
433,0.0,0.0,0.0,-0.00282421875,0.0,0.0,0.0,0.0,0.0,0.0,-0.484,0.0,0.0,0.0,0.0,0.0,0.0,-0.593053649665697,0.0,0.0,0.0,0.0,0.0,0.0,-14.68,0.0,0.0,0.0
434,0.0,0.0,0.0,-0.0083193359375,0.0,0.0,0.0,0.0,0.0,0.0,-0.498,0.0,0.0,0.0,0.0,0.0,0.0,-0.5962352637574078,0.0,0.0,0.0,0.0,0.0,0.0,-15.892,0.0,0.0,0.0
435,0.0,0.0,0.0,-0.0136884765625,0.0,0.0,0.0,0.0,0.0,0.0,-0.555,0.0,0.0,0.0,0.0,0.0,0.0,-0.598426540577476,0.0,0.0,0.0,0.0,0.0,0.0,-15.688,0.0,0.0,0.0
436,0.0,0.0,0.0,-0.019193359375,0.0,0.0,0.0,0.0,0.0,0.0,-0.516,0.0,0.0,0.0,0.0,0.0,0.0,-0.5996942606520235,0.0,0.0,0.0,0.0,0.0,0.0,-15.8,0.0,0.0,0.0
437,0.0,0.0,0.0,-0.024408203125,0.0,0.0,0.0,0.0,0.0,0.0,-0.511,0.0,0.0,0.0,0.0,0.0,0.0,-0.5999812442555937,0.0,0.0,0.0,0.0,0.0,0.0,-15.048,0.0,0.0,0.0
438,0.0,0.0,0.0,-0.0284599609375,0.0,0.0,0.0,0.0,0.0,0.0,-0.501,0.0,0.0,0.0,0.0,0.0,0.0,-0.5993214673367023,0.0,0.0,0.0,0.0,0.0,0.0,-15.916,0.0,0.0,0.0
439,0.0,0.0,0.0,-0.0333955078125,0.0,0.0,0.0,0.0,0.0,0.0,-0.464,0.0,0.0,0.0,0.0,0.0,0.0,-0.5977084581395953,0.0,0.0,0.0,0.0,0.0,0.0,-16.672,0.0,0.0,0.0
440,0.0,0.0,0.0,-0.0396220703125,0.0,0.0,0.0,0.0,0.0,0.0,-0.541,0.0,0.0,0.0,0.0,0.0,0.0,-0.5950273670663004,0.0,0.0,0.0,0.0,0.0,0.0,-16.1,0.0,0.0,0.0
441,0.0,0.0,0.0,-0.0446845703125,0.0,0.0,0.0,0.0,0.0,0.0,-0.569,0.0,0.0,0.0,0.0,0.0,0.0,-0.5916025438401866,0.0,0.0,0.0,0.0,0.0,0.0,-16.168,0.0,0.0,0.0
442,0.0,0.0,0.0,-0.05091015625,0.0,0.0,0.0,0.0,0.0,0.0,-0.569,0.0,0.0,0.0,0.0,0.0,0.0,-0.5871365363341141,0.0,0.0,0.0,0.0,0.0,0.0,-15.184,0.0,0.0,0.0
443,0.0,0.0,0.0,-0.055845703125,0.0,0.0,0.0,0.0,0.0,0.0,-0.566,0.0,0.0,0.0,0.0,0.0,0.0,-0.5816528420291457,0.0,0.0,0.0,0.0,0.0,0.0,-15.184,0.0,0.0,0.0
444,0.0,0.0,0.0,-0.0610615234375,0.0,0.0,0.0,0.0,0.0,0.0,-0.535,0.0,0.0,0.0,0.0,0.0,0.0,-0.5753647894661066,0.0,0.0,0.0,0.0,0.0,0.0,-16.052,0.0,0.0,0.0
445,0.0,0.0,0.0,-0.066845703125,0.0,0.0,0.0,0.0,0.0,0.0,-0.555,0.0,0.0,0.0,0.0,0.0,0.0,-0.5681076030113842,0.0,0.0,0.0,0.0,0.0,0.0,-16.12,0.0,0.0,0.0
446,0.0,0.0,0.0,-0.073072265625,0.0,0.0,0.0,0.0,0.0,0.0,-0.603,0.0,0.0,0.0,0.0,0.0,0.0,-0.5598674970532792,0.0,0.0,0.0,0.0,0.0,0.0,-16.58,0.0,0.0,0.0
447,0.0,0.0,0.0,-0.0797490234375,0.0,0.0,0.0,0.0,0.0,0.0,-0.62,0.0,0.0,0.0,0.0,0.0,0.0,-0.5508404973518439,0.0,0.0,0.0,0.0,0.0,0.0,-15.572,0.0,0.0,0.0
448,0.0,0.0,0.0,-0.085099609375,0.0,0.0,0.0,0.0,0.0,0.0,-0.609,0.0,0.0,0.0,0.0,0.0,0.0,-0.5408872612785449,0.0,0.0,0.0,0.0,0.0,0.0,-15.024,0.0,0.0,0.0
449,0.0,0.0,0.0,-0.091326171875,0.0,0.0,0.0,0.0,0.0,0.0,-0.591,0.0,0.0,0.0,0.0,0.0,0.0,-0.5299693294413075,0.0,0.0,0.0,0.0,0.0,0.0,-15.116,0.0,0.0,0.0
450,0.0,0.0,0.0,-0.09640625,0.0,0.0,0.0,0.0,0.0,0.0,-0.564,0.0,0.0,0.0,0.0,0.0,0.0,-0.5182140457778506,0.0,0.0,0.0,0.0,0.0,0.0,-15.344,0.0,0.0,0.0
451,0.0,0.0,0.0,-0.10277734375,0.0,0.0,0.0,0.0,0.0,0.0,-0.59,0.0,0.0,0.0,0.0,0.0,0.0,-0.5058404259510831,0.0,0.0,0.0,0.0,0.0,0.0,-15.46,0.0,0.0,0.0
452,0.0,0.0,0.0,-0.1091474609375,0.0,0.0,0.0,0.0,0.0,0.0,-0.644,0.0,0.0,0.0,0.0,0.0,0.0,-0.4924991910102194,0.0,0.0,0.0,0.0,0.0,0.0,-14.292,0.0,0.0,0.0
453,0.0,0.0,0.0,-0.1153740234375,0.0,0.0,0.0,0.0,0.0,0.0,-0.636,0.0,0.0,0.0,0.0,0.0,0.0,-0.47841810664358925,0.0,0.0,0.0,0.0,0.0,0.0,-14.064,0.0,0.0,0.0
454,0.0,0.0,0.0,-0.122474609375,0.0,0.0,0.0,0.0,0.0,0.0,-0.645,0.0,0.0,0.0,0.0,0.0,0.0,-0.4634652061657693,0.0,0.0,0.0,0.0,0.0,0.0,-13.356,0.0,0.0,0.0
455,0.0,0.0,0.0,-0.1278349609375,0.0,0.0,0.0,0.0,0.0,0.0,-0.631,0.0,0.0,0.0,0.0,0.0,0.0,-0.44794294291013714,0.0,0.0,0.0,0.0,0.0,0.0,-13.764,0.0,0.0,0.0
456,0.0,0.0,0.0,-0.1339169921875,0.0,0.0,0.0,0.0,0.0,0.0,-0.599,0.0,0.0,0.0,0.0,0.0,0.0,-0.4315448683486149,0.0,0.0,0.0,0.0,0.0,0.0,-14.932,0.0,0.0,0.0
457,0.0,0.0,0.0,-0.140287109375,0.0,0.0,0.0,0.0,0.0,0.0,-0.63,0.0,0.0,0.0,0.0,0.0,0.0,-0.4147412399077648,0.0,0.0,0.0,0.0,0.0,0.0,-14.612,0.0,0.0,0.0
458,0.0,0.0,0.0,-0.1463779296875,0.0,0.0,0.0,0.0,0.0,0.0,-0.623,0.0,0.0,0.0,0.0,0.0,0.0,-0.39700109275467266,0.0,0.0,0.0,0.0,0.0,0.0,-14.636,0.0,0.0,0.0
459,0.0,0.0,0.0,-0.1526044921875,0.0,0.0,0.0,0.0,0.0,0.0,-0.621,0.0,0.0,0.0,0.0,0.0,0.0,-0.3784304237987989,0.0,0.0,0.0,0.0,0.0,0.0,-13.904,0.0,0.0,0.0
460,0.0,0.0,0.0,-0.1585419921875,0.0,0.0,0.0,0.0,0.0,0.0,-0.622,0.0,0.0,0.0,0.0,0.0,0.0,-0.3597561935218639,0.0,0.0,0.0,0.0,0.0,0.0,-13.424,0.0,0.0,0.0
461,0.0,0.0,0.0,-0.1643349609375,0.0,0.0,0.0,0.0,0.0,0.0,-0.58,0.0,0.0,0.0,0.0,0.0,0.0,-0.3400588587497444,0.0,0.0,0.0,0.0,0.0,0.0,-14.248,0.0,0.0,0.0
462,0.0,0.0,0.0,-0.1705703125,0.0,0.0,0.0,0.0,0.0,0.0,-0.609,0.0,0.0,0.0,0.0,0.0,0.0,-0.32023438755287703,0.0,0.0,0.0,0.0,0.0,0.0,-13.996,0.0,0.0,0.0
463,0.0,0.0,0.0,-0.176353515625,0.0,0.0,0.0,0.0,0.0,0.0,-0.608,0.0,0.0,0.0,0.0,0.0,0.0,-0.29978748921799575,0.0,0.0,0.0,0.0,0.0,0.0,-13.88,0.0,0.0,0.0
464,0.0,0.0,0.0,-0.182580078125,0.0,0.0,0.0,0.0,0.0,0.0,-0.601,0.0,0.0,0.0,0.0,0.0,0.0,-0.2785894209917748,0.0,0.0,0.0,0.0,0.0,0.0,-13.72,0.0,0.0,0.0
465,0.0,0.0,0.0,-0.1886708984375,0.0,0.0,0.0,0.0,0.0,0.0,-0.625,0.0,0.0,0.0,0.0,0.0,0.0,-0.25704225948811416,0.0,0.0,0.0,0.0,0.0,0.0,-13.356,0.0,0.0,0.0
466,0.0,0.0,0.0,-0.1944638671875,0.0,0.0,0.0,0.0,0.0,0.0,-0.598,0.0,0.0,0.0,0.0,0.0,0.0,-0.23521373790109337,0.0,0.0,0.0,0.0,0.0,0.0,-13.948,0.0,0.0,0.0
467,0.0,0.0,0.0,-0.2004013671875,0.0,0.0,0.0,0.0,0.0,0.0,-0.591,0.0,0.0,0.0,0.0,0.0,0.0,-0.21313230252136647,0.0,0.0,0.0,0.0,0.0,0.0,-14.52,0.0,0.0,0.0
468,0.0,0.0,0.0,-0.2066279296875,0.0,0.0,0.0,0.0,0.0,0.0,-0.585,0.0,0.0,0.0,0.0,0.0,0.0,-0.19014124925088344,0.0,0.0,0.0,0.0,0.0,0.0,-14.568,0.0,0.0,0.0
469,0.0,0.0,0.0,-0.2118427734375,0.0,0.0,0.0,0.0,0.0,0.0,-0.573,0.0,0.0,0.0,0.0,0.0,0.0,-0.16767017653537516,0.0,0.0,0.0,0.0,0.0,0.0,-14.588,0.0,0.0,0.0
470,0.0,0.0,0.0,-0.2174912109375,0.0,0.0,0.0,0.0,0.0,0.0,-0.584,0.0,0.0,0.0,0.0,0.0,0.0,-0.14446339305477146,0.0,0.0,0.0,0.0,0.0,0.0,-13.72,0.0,0.0,0.0
471,0.0,0.0,0.0,-0.2218408203125,0.0,0.0,0.0,0.0,0.0,0.0,-0.527,0.0,0.0,0.0,0.0,0.0,0.0,-0.12075017426861448,0.0,0.0,0.0,0.0,0.0,0.0,-11.296,0.0,0.0,0.0
472,0.0,0.0,0.0,-0.22270703125,0.0,0.0,0.0,0.0,0.0,0.0,-0.299,0.0,0.0,0.0,0.0,0.0,0.0,-0.09743267298946516,0.0,0.0,0.0,0.0,0.0,0.0,-8.436,0.0,0.0,0.0
473,0.0,0.0,0.0,-0.2218408203125,0.0,0.0,0.0,0.0,0.0,0.0,0.015,0.0,0.0,0.0,0.0,0.0,0.0,-0.07364839293236103,0.0,0.0,0.0,0.0,0.0,0.0,-8.024,0.0,0.0,0.0
474,0.0,0.0,0.0,-0.219666015625,0.0,0.0,0.0,0.0,0.0,0.0,0.121,0.0,0.0,0.0,0.0,0.0,0.0,-0.04954525687356887,0.0,0.0,0.0,0.0,0.0,0.0,-7.088,0.0,0.0,0.0
475,0.0,0.0,0.0,-0.2160478515625,0.0,0.0,0.0,0.0,0.0,0.0,0.281,0.0,0.0,0.0,0.0,0.0,0.0,-0.025824377491132738,0.0,0.0,0.0,0.0,0.0,0.0,-8.184,0.0,0.0,0.0
476,0.0,0.0,0.0,-0.2122763671875,0.0,0.0,0.0,0.0,0.0,0.0,0.401,0.0,0.0,0.0,0.0,0.0,0.0,-0.0020315036073891048,0.0,0.0,0.0,0.0,0.0,0.0,-7.34,0.0,0.0,0.0
477,0.0,0.0,0.0,-0.207205078125,0.0,0.0,0.0,0.0,0.0,0.0,0.395,0.0,0.0,0.0,0.0,0.0,0.0,0.022181995679821837,0.0,0.0,0.0,0.0,0.0,0.0,-4.184,0.0,0.0,0.0
478,0.0,0.0,0.0,-0.201267578125,0.0,0.0,0.0,0.0,0.0,0.0,0.541,0.0,0.0,0.0,0.0,0.0,0.0,3.0899047837904675e-05,0.0,0.0,0.0,0.0,0.0,0.0,-4.824,0.0,0.0,0.0
479,0.0,0.0,0.0,-0.195330078125,0.0,0.0,0.0,0.0,0.0,0.0,0.611,0.0,0.0,0.0,0.0,0.0,0.0,0.02385635776169016,0.0,0.0,0.0,0.0,0.0,0.0,-4.388,0.0,0.0,0.0
480,0.0,0.0,0.0,-0.1873623046875,0.0,0.0,0.0,0.0,0.0,0.0,0.718,0.0,0.0,0.0,0.0,0.0,0.0,0.048175776349129354,0.0,0.0,0.0,0.0,0.0,0.0,-5.144,0.0,0.0,0.0
481,0.0,0.0,0.0,-0.17939453125,0.0,0.0,0.0,0.0,0.0,0.0,0.817,0.0,0.0,0.0,0.0,0.0,0.0,0.07183407327388183,0.0,0.0,0.0,0.0,0.0,0.0,-7.524,0.0,0.0,0.0
482,0.0,0.0,0.0,-0.171869140625,0.0,0.0,0.0,0.0,0.0,0.0,0.736,0.0,0.0,0.0,0.0,0.0,0.0,0.09548180703924412,0.0,0.0,0.0,0.0,0.0,0.0,-7.772,0.0,0.0,0.0
483,0.0,0.0,0.0,-0.1644794921875,0.0,0.0,0.0,0.0,0.0,0.0,0.697,0.0,0.0,0.0,0.0,0.0,0.0,0.1194297223689837,0.0,0.0,0.0,0.0,0.0,0.0,-8.072,0.0,0.0,0.0
484,0.0,0.0,0.0,-0.1569443359375,0.0,0.0,0.0,0.0,0.0,0.0,0.778,0.0,0.0,0.0,0.0,0.0,0.0,0.1426214424633056,0.0,0.0,0.0,0.0,0.0,0.0,-8.184,0.0,0.0,0.0
485,0.0,0.0,0.0,-0.148119140625,0.0,0.0,0.0,0.0,0.0,0.0,0.869,0.0,0.0,0.0,0.0,0.0,0.0,0.16563065328804477,0.0,0.0,0.0,0.0,0.0,0.0,-9.856,0.0,0.0,0.0
486,0.0,0.0,0.0,-0.1392763671875,0.0,0.0,0.0,0.0,0.0,0.0,0.843,0.0,0.0,0.0,0.0,0.0,0.0,0.18882612233925608,0.0,0.0,0.0,0.0,0.0,0.0,-12.256,0.0,0.0,0.0
487,0.0,0.0,0.0,-0.13203125,0.0,0.0,0.0,0.0,0.0,0.0,0.804,0.0,0.0,0.0,0.0,0.0,0.0,0.211395942788748,0.0,0.0,0.0,0.0,0.0,0.0,-13.24,0.0,0.0,0.0
488,0.0,0.0,0.0,-0.1233505859375,0.0,0.0,0.0,0.0,0.0,0.0,0.841,0.0,0.0,0.0,0.0,0.0,0.0,0.2337193073789348,0.0,0.0,0.0,0.0,0.0,0.0,-12.644,0.0,0.0,0.0
489,0.0,0.0,0.0,-0.115806640625,0.0,0.0,0.0,0.0,0.0,0.0,0.839,0.0,0.0,0.0,0.0,0.0,0.0,0.2555939953319079,0.0,0.0,0.0,0.0,0.0,0.0,-13.56,0.0,0.0,0.0
490,0.0,0.0,0.0,-0.1091474609375,0.0,0.0,0.0,0.0,0.0,0.0,0.705,0.0,0.0,0.0,0.0,0.0,0.0,0.2771692726935305,0.0,0.0,0.0,0.0,0.0,0.0,-13.24,0.0,0.0,0.0
491,0.0,0.0,0.0,-0.099736328125,0.0,0.0,0.0,0.0,0.0,0.0,0.757,0.0,0.0,0.0,0.0,0.0,0.0,0.29809455367384324,0.0,0.0,0.0,0.0,0.0,0.0,-15.208,0.0,0.0,0.0
492,0.0,0.0,0.0,-0.092345703125,0.0,0.0,0.0,0.0,0.0,0.0,0.858,0.0,0.0,0.0,0.0,0.0,0.0,0.3187662281989938,0.0,0.0,0.0,0.0,0.0,0.0,-16.28,0.0,0.0,0.0
493,0.0,0.0,0.0,-0.0846669921875,0.0,0.0,0.0,0.0,0.0,0.0,0.763,0.0,0.0,0.0,0.0,0.0,0.0,0.33907841533921185,0.0,0.0,0.0,0.0,0.0,0.0,-17.54,0.0,0.0,0.0
494,0.0,0.0,0.0,-0.07757421875,0.0,0.0,0.0,0.0,0.0,0.0,0.702,0.0,0.0,0.0,0.0,0.0,0.0,0.3581994658544411,0.0,0.0,0.0,0.0,0.0,0.0,-18.956,0.0,0.0,0.0
495,0.0,0.0,0.0,-0.0703291015625,0.0,0.0,0.0,0.0,0.0,0.0,0.711,0.0,0.0,0.0,0.0,0.0,0.0,0.37727373213174753,0.0,0.0,0.0,0.0,0.0,0.0,-17.516,0.0,0.0,0.0
496,0.0,0.0,0.0,-0.0626494140625,0.0,0.0,0.0,0.0,0.0,0.0,0.749,0.0,0.0,0.0,0.0,0.0,0.0,0.3956649072527416,0.0,0.0,0.0,0.0,0.0,0.0,-16.076,0.0,0.0,0.0
497,0.0,0.0,0.0,-0.0555576171875,0.0,0.0,0.0,0.0,0.0,0.0,0.763,0.0,0.0,0.0,0.0,0.0,0.0,0.4132899195956285,0.0,0.0,0.0,0.0,0.0,0.0,-18.408,0.0,0.0,0.0
498,0.0,0.0,0.0,-0.049466796875,0.0,0.0,0.0,0.0,0.0,0.0,0.663,0.0,0.0,0.0,0.0,0.0,0.0,0.43063732019050627,0.0,0.0,0.0,0.0,0.0,0.0,-19.072,0.0,0.0,0.0
499,0.0,0.0,0.0,-0.0422294921875,0.0,0.0,0.0,0.0,0.0,0.0,0.652,0.0,0.0,0.0,0.0,0.0,0.0,0.44682106849176945,0.0,0.0,0.0,0.0,0.0,0.0,-18.592,0.0,0.0,0.0
500,0.0,0.0,0.0,-0.0358505859375,0.0,0.0,0.0,0.0,0.0,0.0,0.703,0.0,0.0,0.0,0.0,0.0,0.0,0.4623270484290368,0.0,0.0,0.0,0.0,0.0,0.0,-17.424,0.0,0.0,0.0
501,0.0,0.0,0.0,-0.029759765625,0.0,0.0,0.0,0.0,0.0,0.0,0.623,0.0,0.0,0.0,0.0,0.0,0.0,0.4772663472966901,0.0,0.0,0.0,0.0,0.0,0.0,-16.44,0.0,0.0,0.0
502,0.0,0.0,0.0,-0.023388671875,0.0,0.0,0.0,0.0,0.0,0.0,0.636,0.0,0.0,0.0,0.0,0.0,0.0,0.4914982168177967,0.0,0.0,0.0,0.0,0.0,0.0,-19.46,0.0,0.0,0.0
503,0.0,0.0,0.0,-0.0177490234375,0.0,0.0,0.0,0.0,0.0,0.0,0.603,0.0,0.0,0.0,0.0,0.0,0.0,0.5047839443790189,0.0,0.0,0.0,0.0,0.0,0.0,-19.324,0.0,0.0,0.0
504,0.0,0.0,0.0,-0.0112255859375,0.0,0.0,0.0,0.0,0.0,0.0,0.603,0.0,0.0,0.0,0.0,0.0,0.0,0.5173851625434098,0.0,0.0,0.0,0.0,0.0,0.0,-17.724,0.0,0.0,0.0
505,0.0,0.0,0.0,-0.005576171875,0.0,0.0,0.0,0.0,0.0,0.0,0.623,0.0,0.0,0.0,0.0,0.0,0.0,0.5291689988270165,0.0,0.0,0.0,0.0,0.0,0.0,-16.488,0.0,0.0,0.0
506,0.0,0.0,0.0,-0.000361328125,0.0,0.0,0.0,0.0,0.0,0.0,0.536,0.0,0.0,0.0,0.0,0.0,0.0,0.539988915629923,0.0,0.0,0.0,0.0,0.0,0.0,-15.116,0.0,0.0,0.0
507,0.0,0.0,0.0,0.005142578125,0.0,0.0,0.0,0.0,0.0,0.0,0.543,0.0,0.0,0.0,0.0,0.0,0.0,0.5500146269079399,0.0,0.0,0.0,0.0,0.0,0.0,-16.512,0.0,0.0,0.0
508,0.0,0.0,0.0,0.009916015625,0.0,0.0,0.0,0.0,0.0,0.0,0.527,0.0,0.0,0.0,0.0,0.0,0.0,0.5592234101117716,0.0,0.0,0.0,0.0,0.0,0.0,-15.8,0.0,0.0,0.0
509,0.0,0.0,0.0,0.0154287109375,0.0,0.0,0.0,0.0,0.0,0.0,0.506,0.0,0.0,0.0,0.0,0.0,0.0,0.5674422858245604,0.0,0.0,0.0,0.0,0.0,0.0,-14.156,0.0,0.0,0.0
510,0.0,0.0,0.0,0.02035546875,0.0,0.0,0.0,0.0,0.0,0.0,0.538,0.0,0.0,0.0,0.0,0.0,0.0,0.5747777969386051,0.0,0.0,0.0,0.0,0.0,0.0,-14.384,0.0,0.0,0.0
511,0.0,0.0,0.0,0.024984375,0.0,0.0,0.0,0.0,0.0,0.0,0.476,0.0,0.0,0.0,0.0,0.0,0.0,0.5812646418090889,0.0,0.0,0.0,0.0,0.0,0.0,-13.812,0.0,0.0,0.0
512,0.0,0.0,0.0,0.0302001953125,0.0,0.0,0.0,0.0,0.0,0.0,0.494,0.0,0.0,0.0,0.0,0.0,0.0,0.5866784597926175,0.0,0.0,0.0,0.0,0.0,0.0,-14.976,0.0,0.0,0.0
513,0.0,0.0,0.0,0.03455859375,0.0,0.0,0.0,0.0,0.0,0.0,0.486,0.0,0.0,0.0,0.0,0.0,0.0,0.5912379675646949,0.0,0.0,0.0,0.0,0.0,0.0,-14.704,0.0,0.0,0.0
514,0.0,0.0,0.0,0.03933203125,0.0,0.0,0.0,0.0,0.0,0.0,0.449,0.0,0.0,0.0,0.0,0.0,0.0,0.5948881024523345,0.0,0.0,0.0,0.0,0.0,0.0,-13.492,0.0,0.0,0.0
515,0.0,0.0,0.0,0.0448359375,0.0,0.0,0.0,0.0,0.0,0.0,0.517,0.0,0.0,0.0,0.0,0.0,0.0,0.5975123719823583,0.0,0.0,0.0,0.0,0.0,0.0,-13.676,0.0,0.0,0.0
516,0.0,0.0,0.0,0.0497626953125,0.0,0.0,0.0,0.0,0.0,0.0,0.527,0.0,0.0,0.0,0.0,0.0,0.0,0.5992154303823805,0.0,0.0,0.0,0.0,0.0,0.0,-12.828,0.0,0.0,0.0
517,0.0,0.0,0.0,0.054978515625,0.0,0.0,0.0,0.0,0.0,0.0,0.507,0.0,0.0,0.0,0.0,0.0,0.0,0.5999663382529659,0.0,0.0,0.0,0.0,0.0,0.0,-13.24,0.0,0.0,0.0
518,0.0,0.0,0.0,0.0600498046875,0.0,0.0,0.0,0.0,0.0,0.0,0.519,0.0,0.0,0.0,0.0,0.0,0.0,0.5997490438134332,0.0,0.0,0.0,0.0,0.0,0.0,-13.492,0.0,0.0,0.0
519,0.0,0.0,0.0,0.0646787109375,0.0,0.0,0.0,0.0,0.0,0.0,0.486,0.0,0.0,0.0,0.0,0.0,0.0,0.598575778435653,0.0,0.0,0.0,0.0,0.0,0.0,-12.096,0.0,0.0,0.0
520,0.0,0.0,0.0,0.0701826171875,0.0,0.0,0.0,0.0,0.0,0.0,0.503,0.0,0.0,0.0,0.0,0.0,0.0,0.5964262131704341,0.0,0.0,0.0,0.0,0.0,0.0,-11.776,0.0,0.0,0.0
521,0.0,0.0,0.0,0.0755517578125,0.0,0.0,0.0,0.0,0.0,0.0,0.552,0.0,0.0,0.0,0.0,0.0,0.0,0.5933516862277954,0.0,0.0,0.0,0.0,0.0,0.0,-12.164,0.0,0.0,0.0
522,0.0,0.0,0.0,0.0812001953125,0.0,0.0,0.0,0.0,0.0,0.0,0.548,0.0,0.0,0.0,0.0,0.0,0.0,0.5893097765632512,0.0,0.0,0.0,0.0,0.0,0.0,-12.096,0.0,0.0,0.0
523,0.0,0.0,0.0,0.086705078125,0.0,0.0,0.0,0.0,0.0,0.0,0.566,0.0,0.0,0.0,0.0,0.0,0.0,0.5842403563278287,0.0,0.0,0.0,0.0,0.0,0.0,-13.056,0.0,0.0,0.0
524,0.0,0.0,0.0,0.0920556640625,0.0,0.0,0.0,0.0,0.0,0.0,0.544,0.0,0.0,0.0,0.0,0.0,0.0,0.5783963168462984,0.0,0.0,0.0,0.0,0.0,0.0,-13.012,0.0,0.0,0.0
525,0.0,0.0,0.0,0.0977138671875,0.0,0.0,0.0,0.0,0.0,0.0,0.542,0.0,0.0,0.0,0.0,0.0,0.0,0.5715794655574833,0.0,0.0,0.0,0.0,0.0,0.0,-12.896,0.0,0.0,0.0
526,0.0,0.0,0.0,0.1034970703125,0.0,0.0,0.0,0.0,0.0,0.0,0.578,0.0,0.0,0.0,0.0,0.0,0.0,0.5637553496555561,0.0,0.0,0.0,0.0,0.0,0.0,-13.192,0.0,0.0,0.0
527,0.0,0.0,0.0,0.1097236328125,0.0,0.0,0.0,0.0,0.0,0.0,0.6,0.0,0.0,0.0,0.0,0.0,0.0,0.5551379764584747,0.0,0.0,0.0,0.0,0.0,0.0,-12.736,0.0,0.0,0.0
528,0.0,0.0,0.0,0.115958984375,0.0,0.0,0.0,0.0,0.0,0.0,0.63,0.0,0.0,0.0,0.0,0.0,0.0,0.5455715503739897,0.0,0.0,0.0,0.0,0.0,0.0,-13.148,0.0,0.0,0.0
529,0.0,0.0,0.0,0.121896484375,0.0,0.0,0.0,0.0,0.0,0.0,0.609,0.0,0.0,0.0,0.0,0.0,0.0,0.5351269253312648,0.0,0.0,0.0,0.0,0.0,0.0,-13.216,0.0,0.0,0.0
530,0.0,0.0,0.0,0.127833984375,0.0,0.0,0.0,0.0,0.0,0.0,0.596,0.0,0.0,0.0,0.0,0.0,0.0,0.5238929196479475,0.0,0.0,0.0,0.0,0.0,0.0,-12.804,0.0,0.0,0.0
531,0.0,0.0,0.0,0.1339150390625,0.0,0.0,0.0,0.0,0.0,0.0,0.604,0.0,0.0,0.0,0.0,0.0,0.0,0.5118007621522254,0.0,0.0,0.0,0.0,0.0,0.0,-12.852,0.0,0.0,0.0
532,0.0,0.0,0.0,0.140150390625,0.0,0.0,0.0,0.0,0.0,0.0,0.616,0.0,0.0,0.0,0.0,0.0,0.0,0.4987289888230219,0.0,0.0,0.0,0.0,0.0,0.0,-12.852,0.0,0.0,0.0
533,0.0,0.0,0.0,0.146521484375,0.0,0.0,0.0,0.0,0.0,0.0,0.633,0.0,0.0,0.0,0.0,0.0,0.0,0.48508241899777466,0.0,0.0,0.0,0.0,0.0,0.0,-13.584,0.0,0.0,0.0
534,0.0,0.0,0.0,0.1527470703125,0.0,0.0,0.0,0.0,0.0,0.0,0.633,0.0,0.0,0.0,0.0,0.0,0.0,0.4705807657691178,0.0,0.0,0.0,0.0,0.0,0.0,-14.336,0.0,0.0,0.0
535,0.0,0.0,0.0,0.158837890625,0.0,0.0,0.0,0.0,0.0,0.0,0.627,0.0,0.0,0.0,0.0,0.0,0.0,0.4553035616728278,0.0,0.0,0.0,0.0,0.0,0.0,-14.748,0.0,0.0,0.0
536,0.0,0.0,0.0,0.165064453125,0.0,0.0,0.0,0.0,0.0,0.0,0.616,0.0,0.0,0.0,0.0,0.0,0.0,0.4393323661115088,0.0,0.0,0.0,0.0,0.0,0.0,-14.908,0.0,0.0,0.0
537,0.0,0.0,0.0,0.1714345703125,0.0,0.0,0.0,0.0,0.0,0.0,0.627,0.0,0.0,0.0,0.0,0.0,0.0,0.422694528276168,0.0,0.0,0.0,0.0,0.0,0.0,-14.268,0.0,0.0,0.0
538,0.0,0.0,0.0,0.177669921875,0.0,0.0,0.0,0.0,0.0,0.0,0.638,0.0,0.0,0.0,0.0,0.0,0.0,0.40493280696725736,0.0,0.0,0.0,0.0,0.0,0.0,-13.764,0.0,0.0,0.0
539,0.0,0.0,0.0,0.1840400390625,0.0,0.0,0.0,0.0,0.0,0.0,0.636,0.0,0.0,0.0,0.0,0.0,0.0,0.38731975397090396,0.0,0.0,0.0,0.0,0.0,0.0,-14.108,0.0,0.0,0.0
540,0.0,0.0,0.0,0.190275390625,0.0,0.0,0.0,0.0,0.0,0.0,0.636,0.0,0.0,0.0,0.0,0.0,0.0,0.36869474640849664,0.0,0.0,0.0,0.0,0.0,0.0,-14.476,0.0,0.0,0.0
541,0.0,0.0,0.0,0.1963662109375,0.0,0.0,0.0,0.0,0.0,0.0,0.617,0.0,0.0,0.0,0.0,0.0,0.0,0.3493497865079083,0.0,0.0,0.0,0.0,0.0,0.0,-14.248,0.0,0.0,0.0
542,0.0,0.0,0.0,0.202294921875,0.0,0.0,0.0,0.0,0.0,0.0,0.607,0.0,0.0,0.0,0.0,0.0,0.0,0.32966564373146484,0.0,0.0,0.0,0.0,0.0,0.0,-13.72,0.0,0.0,0.0
543,0.0,0.0,0.0,0.208232421875,0.0,0.0,0.0,0.0,0.0,0.0,0.595,0.0,0.0,0.0,0.0,0.0,0.0,0.30946976916984775,0.0,0.0,0.0,0.0,0.0,0.0,-13.72,0.0,0.0,0.0
544,0.0,0.0,0.0,0.214169921875,0.0,0.0,0.0,0.0,0.0,0.0,0.596,0.0,0.0,0.0,0.0,0.0,0.0,0.28840759053545734,0.0,0.0,0.0,0.0,0.0,0.0,-14.016,0.0,0.0,0.0
545,0.0,0.0,0.0,0.2202607421875,0.0,0.0,0.0,0.0,0.0,0.0,0.61,0.0,0.0,0.0,0.0,0.0,0.0,0.2673818936284281,0.0,0.0,0.0,0.0,0.0,0.0,-14.888,0.0,0.0,0.0
546,0.0,0.0,0.0,0.2261982421875,0.0,0.0,0.0,0.0,0.0,0.0,0.605,0.0,0.0,0.0,0.0,0.0,0.0,0.24572778208317694,0.0,0.0,0.0,0.0,0.0,0.0,-15.208,0.0,0.0,0.0
547,0.0,0.0,0.0,0.232279296875,0.0,0.0,0.0,0.0,0.0,0.0,0.6,0.0,0.0,0.0,0.0,0.0,0.0,0.22348868274349334,0.0,0.0,0.0,0.0,0.0,0.0,-14.748,0.0,0.0,0.0
548,0.0,0.0,0.0,0.23808203125,0.0,0.0,0.0,0.0,0.0,0.0,0.601,0.0,0.0,0.0,0.0,0.0,0.0,0.20113133623045,0.0,0.0,0.0,0.0,0.0,0.0,-13.652,0.0,0.0,0.0
549,0.0,0.0,0.0,0.2435859375,0.0,0.0,0.0,0.0,0.0,0.0,0.575,0.0,0.0,0.0,0.0,0.0,0.0,0.17839026843692093,0.0,0.0,0.0,0.0,0.0,0.0,-14.36,0.0,0.0,0.0
550,0.0,0.0,0.0,0.246771484375,0.0,0.0,0.0,0.0,0.0,0.0,0.474,0.0,0.0,0.0,0.0,0.0,0.0,0.15488465354765227,0.0,0.0,0.0,0.0,0.0,0.0,-18.064,0.0,0.0,0.0
551,0.0,0.0,0.0,0.246482421875,0.0,0.0,0.0,0.0,0.0,0.0,0.177,0.0,0.0,0.0,0.0,0.0,0.0,0.13198287934189973,0.0,0.0,0.0,0.0,0.0,0.0,-20.88,0.0,0.0,0.0
552,0.0,0.0,0.0,0.2448857421875,0.0,0.0,0.0,0.0,0.0,0.0,-0.093,0.0,0.0,0.0,0.0,0.0,0.0,0.10851869385184411,0.0,0.0,0.0,0.0,0.0,0.0,-21.496,0.0,0.0,0.0
553,0.0,0.0,0.0,0.2418447265625,0.0,0.0,0.0,0.0,0.0,0.0,-0.207,0.0,0.0,0.0,0.0,0.0,0.0,0.08459383010430452,0.0,0.0,0.0,0.0,0.0,0.0,-21.976,0.0,0.0,0.0
554,0.0,0.0,0.0,0.2376484375,0.0,0.0,0.0,0.0,0.0,0.0,-0.362,0.0,0.0,0.0,0.0,0.0,0.0,0.06080584330208231,0.0,0.0,0.0,0.0,0.0,0.0,-21.68,0.0,0.0,0.0
555,0.0,0.0,0.0,0.233876953125,0.0,0.0,0.0,0.0,0.0,0.0,-0.414,0.0,0.0,0.0,0.0,0.0,0.0,0.03706648831475203,0.0,0.0,0.0,0.0,0.0,0.0,-23.668,0.0,0.0,0.0
556,0.0,0.0,0.0,0.2293828125,0.0,0.0,0.0,0.0,0.0,0.0,-0.396,0.0,0.0,0.0,0.0,0.0,0.0,0.012880284728766594,0.0,0.0,0.0,0.0,0.0,0.0,-25.544,0.0,0.0,0.0
557,0.0,0.0,0.0,0.223734375,0.0,0.0,0.0,0.0,0.0,0.0,-0.493,0.0,0.0,0.0,0.0,0.0,0.0,-0.011271390667926118,0.0,0.0,0.0,0.0,0.0,0.0,-24.812,0.0,0.0,0.0
558,0.0,0.0,0.0,0.2167861328125,0.0,0.0,0.0,0.0,0.0,0.0,-0.623,0.0,0.0,0.0,0.0,0.0,0.0,-0.0348564291517155,0.0,0.0,0.0,0.0,0.0,0.0,-23.828,0.0,0.0,0.0
559,0.0,0.0,0.0,0.208376953125,0.0,0.0,0.0,0.0,0.0,0.0,-0.767,0.0,0.0,0.0,0.0,0.0,0.0,-0.05910675135705101,0.0,0.0,0.0,0.0,0.0,0.0,-23.144,0.0,0.0,0.0
560,0.0,0.0,0.0,0.2005625,0.0,0.0,0.0,0.0,0.0,0.0,-0.834,0.0,0.0,0.0,0.0,0.0,0.0,-0.08286493744300803,0.0,0.0,0.0,0.0,0.0,0.0,-20.236,0.0,0.0,0.0
561,0.0,0.0,0.0,0.1940380859375,0.0,0.0,0.0,0.0,0.0,0.0,-0.725,0.0,0.0,0.0,0.0,0.0,0.0,-0.10629763375198555,0.0,0.0,0.0,0.0,0.0,0.0,-19.004,0.0,0.0,0.0
562,0.0,0.0,0.0,0.1866484375,0.0,0.0,0.0,0.0,0.0,0.0,-0.675,0.0,0.0,0.0,0.0,0.0,0.0,-0.1300914304495722,0.0,0.0,0.0,0.0,0.0,0.0,-19.712,0.0,0.0,0.0
563,0.0,0.0,0.0,0.177525390625,0.0,0.0,0.0,0.0,0.0,0.0,-0.827,0.0,0.0,0.0,0.0,0.0,0.0,-0.15347546008777896,0.0,0.0,0.0,0.0,0.0,0.0,-20.924,0.0,0.0,0.0
564,0.0,0.0,0.0,0.16898046875,0.0,0.0,0.0,0.0,0.0,0.0,-0.909,0.0,0.0,0.0,0.0,0.0,0.0,-0.17623357067429826,0.0,0.0,0.0,0.0,0.0,0.0,-19.208,0.0,0.0,0.0
565,0.0,0.0,0.0,0.1614462890625,0.0,0.0,0.0,0.0,0.0,0.0,-0.807,0.0,0.0,0.0,0.0,0.0,0.0,-0.19900516849460573,0.0,0.0,0.0,0.0,0.0,0.0,-15.388,0.0,0.0,0.0
566,0.0,0.0,0.0,0.1531806640625,0.0,0.0,0.0,0.0,0.0,0.0,-0.779,0.0,0.0,0.0,0.0,0.0,0.0,-0.2216600448349665,0.0,0.0,0.0,0.0,0.0,0.0,-14.656,0.0,0.0,0.0
567,0.0,0.0,0.0,0.14464453125,0.0,0.0,0.0,0.0,0.0,0.0,-0.862,0.0,0.0,0.0,0.0,0.0,0.0,-0.24363201710491394,0.0,0.0,0.0,0.0,0.0,0.0,-15.16,0.0,0.0,0.0
568,0.0,0.0,0.0,0.1376875,0.0,0.0,0.0,0.0,0.0,0.0,-0.797,0.0,0.0,0.0,0.0,0.0,0.0,-0.26533542729169135,0.0,0.0,0.0,0.0,0.0,0.0,-15.664,0.0,0.0,0.0
569,0.0,0.0,0.0,0.130296875,0.0,0.0,0.0,0.0,0.0,0.0,-0.709,0.0,0.0,0.0,0.0,0.0,0.0,-0.2870245797358787,0.0,0.0,0.0,0.0,0.0,0.0,-14.132,0.0,0.0,0.0
570,0.0,0.0,0.0,0.1211748046875,0.0,0.0,0.0,0.0,0.0,0.0,-0.817,0.0,0.0,0.0,0.0,0.0,0.0,-0.30754383291428916,0.0,0.0,0.0,0.0,0.0,0.0,-12.188,0.0,0.0,0.0
571,0.0,0.0,0.0,0.1126201171875,0.0,0.0,0.0,0.0,0.0,0.0,-0.908,0.0,0.0,0.0,0.0,0.0,0.0,-0.3278839497458751,0.0,0.0,0.0,0.0,0.0,0.0,-12.004,0.0,0.0,0.0
572,0.0,0.0,0.0,0.105671875,0.0,0.0,0.0,0.0,0.0,0.0,-0.796,0.0,0.0,0.0,0.0,0.0,0.0,-0.34783090834679314,0.0,0.0,0.0,0.0,0.0,0.0,-11.752,0.0,0.0,0.0
573,0.0,0.0,0.0,0.099455078125,0.0,0.0,0.0,0.0,0.0,0.0,-0.658,0.0,0.0,0.0,0.0,0.0,0.0,-0.3670614165162424,0.0,0.0,0.0,0.0,0.0,0.0,-12.096,0.0,0.0,0.0
574,0.0,0.0,0.0,0.0917666015625,0.0,0.0,0.0,0.0,0.0,0.0,-0.684,0.0,0.0,0.0,0.0,0.0,0.0,-0.3857366444875829,0.0,0.0,0.0,0.0,0.0,0.0,-12.828,0.0,0.0,0.0
575,0.0,0.0,0.0,0.0842412109375,0.0,0.0,0.0,0.0,0.0,0.0,-0.775,0.0,0.0,0.0,0.0,0.0,0.0,-0.4040066590057433,0.0,0.0,0.0,0.0,0.0,0.0,-12.484,0.0,0.0,0.0
576,0.0,0.0,0.0,0.07758203125,0.0,0.0,0.0,0.0,0.0,0.0,-0.72,0.0,0.0,0.0,0.0,0.0,0.0,-0.4212482834795323,0.0,0.0,0.0,0.0,0.0,0.0,-11.044,0.0,0.0,0.0
577,0.0,0.0,0.0,0.0709052734375,0.0,0.0,0.0,0.0,0.0,0.0,-0.674,0.0,0.0,0.0,0.0,0.0,0.0,-0.43800218372348404,0.0,0.0,0.0,0.0,0.0,0.0,-9.488,0.0,0.0,0.0
578,0.0,0.0,0.0,0.0641015625,0.0,0.0,0.0,0.0,0.0,0.0,-0.671,0.0,0.0,0.0,0.0,0.0,0.0,-0.4542852755867773,0.0,0.0,0.0,0.0,0.0,0.0,-10.472,0.0,0.0,0.0
579,0.0,0.0,0.0,0.0574423828125,0.0,0.0,0.0,0.0,0.0,0.0,-0.683,0.0,0.0,0.0,0.0,0.0,0.0,-0.4692906685669096,0.0,0.0,0.0,0.0,0.0,0.0,-11.776,0.0,0.0,0.0
580,0.0,0.0,0.0,0.05120703125,0.0,0.0,0.0,0.0,0.0,0.0,-0.657,0.0,0.0,0.0,0.0,0.0,0.0,-0.4838484978098549,0.0,0.0,0.0,0.0,0.0,0.0,-11.8,0.0,0.0,0.0
581,0.0,0.0,0.0,0.04526953125,0.0,0.0,0.0,0.0,0.0,0.0,-0.619,0.0,0.0,0.0,0.0,0.0,0.0,-0.49777217496307014,0.0,0.0,0.0,0.0,0.0,0.0,-10.952,0.0,0.0,0.0
582,0.0,0.0,0.0,0.0391875,0.0,0.0,0.0,0.0,0.0,0.0,-0.599,0.0,0.0,0.0,0.0,0.0,0.0,-0.5106693911545767,0.0,0.0,0.0,0.0,0.0,0.0,-11.776,0.0,0.0,0.0
583,0.0,0.0,0.0,0.0328076171875,0.0,0.0,0.0,0.0,0.0,0.0,-0.632,0.0,0.0,0.0,0.0,0.0,0.0,-0.5228441051718437,0.0,0.0,0.0,0.0,0.0,0.0,-12.256,0.0,0.0,0.0
584,0.0,0.0,0.0,0.0274482421875,0.0,0.0,0.0,0.0,0.0,0.0,-0.595,0.0,0.0,0.0,0.0,0.0,0.0,-0.5343141738867087,0.0,0.0,0.0,0.0,0.0,0.0,-12.76,0.0,0.0,0.0
585,0.0,0.0,0.0,0.021943359375,0.0,0.0,0.0,0.0,0.0,0.0,-0.539,0.0,0.0,0.0,0.0,0.0,0.0,-0.5447148115428204,0.0,0.0,0.0,0.0,0.0,0.0,-12.44,0.0,0.0,0.0
586,0.0,0.0,0.0,0.0167373046875,0.0,0.0,0.0,0.0,0.0,0.0,-0.552,0.0,0.0,0.0,0.0,0.0,0.0,-0.554373002191504,0.0,0.0,0.0,0.0,0.0,0.0,-12.12,0.0,0.0,0.0
587,0.0,0.0,0.0,0.0115126953125,0.0,0.0,0.0,0.0,0.0,0.0,-0.52,0.0,0.0,0.0,0.0,0.0,0.0,-0.5632239964340043,0.0,0.0,0.0,0.0,0.0,0.0,-13.148,0.0,0.0,0.0
588,0.0,0.0,0.0,0.0058642578125,0.0,0.0,0.0,0.0,0.0,0.0,-0.541,0.0,0.0,0.0,0.0,0.0,0.0,-0.5709212409624786,0.0,0.0,0.0,0.0,0.0,0.0,-14.2,0.0,0.0,0.0
589,0.0,0.0,0.0,0.0006484375,0.0,0.0,0.0,0.0,0.0,0.0,-0.55,0.0,0.0,0.0,0.0,0.0,0.0,-0.5778667894838285,0.0,0.0,0.0,0.0,0.0,0.0,-14.336,0.0,0.0,0.0
590,0.0,0.0,0.0,-0.0044130859375,0.0,0.0,0.0,0.0,0.0,0.0,-0.518,0.0,0.0,0.0,0.0,0.0,0.0,-0.5838922730919954,0.0,0.0,0.0,0.0,0.0,0.0,-13.764,0.0,0.0,0.0
591,0.0,0.0,0.0,-0.00963671875,0.0,0.0,0.0,0.0,0.0,0.0,-0.519,0.0,0.0,0.0,0.0,0.0,0.0,-0.5889474841086721,0.0,0.0,0.0,0.0,0.0,0.0,-13.764,0.0,0.0,0.0
592,0.0,0.0,0.0,-0.01441015625,0.0,0.0,0.0,0.0,0.0,0.0,-0.514,0.0,0.0,0.0,0.0,0.0,0.0,-0.5930598123648566,0.0,0.0,0.0,0.0,0.0,0.0,-14.612,0.0,0.0,0.0
593,0.0,0.0,0.0,-0.0193369140625,0.0,0.0,0.0,0.0,0.0,0.0,-0.483,0.0,0.0,0.0,0.0,0.0,0.0,-0.5962156545638834,0.0,0.0,0.0,0.0,0.0,0.0,-16.028,0.0,0.0,0.0
594,0.0,0.0,0.0,-0.024697265625,0.0,0.0,0.0,0.0,0.0,0.0,-0.512,0.0,0.0,0.0,0.0,0.0,0.0,-0.5984331183173139,0.0,0.0,0.0,0.0,0.0,0.0,-15.94,0.0,0.0,0.0
595,0.0,0.0,0.0,-0.029470703125,0.0,0.0,0.0,0.0,0.0,0.0,-0.518,0.0,0.0,0.0,0.0,0.0,0.0,-0.5996813977163196,0.0,0.0,0.0,0.0,0.0,0.0,-15.548,0.0,0.0,0.0
596,0.0,0.0,0.0,-0.03440625,0.0,0.0,0.0,0.0,0.0,0.0,-0.491,0.0,0.0,0.0,0.0,0.0,0.0,-0.5999817163023957,0.0,0.0,0.0,0.0,0.0,0.0,-14.908,0.0,0.0,0.0
597,0.0,0.0,0.0,-0.0396220703125,0.0,0.0,0.0,0.0,0.0,0.0,-0.508,0.0,0.0,0.0,0.0,0.0,0.0,-0.5993181442355342,0.0,0.0,0.0,0.0,0.0,0.0,-15.068,0.0,0.0,0.0
598,0.0,0.0,0.0,-0.0445400390625,0.0,0.0,0.0,0.0,0.0,0.0,-0.507,0.0,0.0,0.0,0.0,0.0,0.0,-0.597713900764837,0.0,0.0,0.0,0.0,0.0,0.0,-16.188,0.0,0.0,0.0
599,0.0,0.0,0.0,-0.0500439453125,0.0,0.0,0.0,0.0,0.0,0.0,-0.523,0.0,0.0,0.0,0.0,0.0,0.0,-0.5950646433936417,0.0,0.0,0.0,0.0,0.0,0.0,-16.28,0.0,0.0,0.0
600,0.0,0.0,0.0,-0.0557021484375,0.0,0.0,0.0,0.0,0.0,0.0,-0.557,0.0,0.0,0.0,0.0,0.0,0.0,-0.5916165615456028,0.0,0.0,0.0,0.0,0.0,0.0,-15.824,0.0,0.0,0.0
601,0.0,0.0,0.0,-0.0612060546875,0.0,0.0,0.0,0.0,0.0,0.0,-0.566,0.0,0.0,0.0,0.0,0.0,0.0,-0.5871547966608903,0.0,0.0,0.0,0.0,0.0,0.0,-15.252,0.0,0.0,0.0
602,0.0,0.0,0.0,-0.066701171875,0.0,0.0,0.0,0.0,0.0,0.0,-0.551,0.0,0.0,0.0,0.0,0.0,0.0,-0.5817199024242944,0.0,0.0,0.0,0.0,0.0,0.0,-15.228,0.0,0.0,0.0
603,0.0,0.0,0.0,-0.0722060546875,0.0,0.0,0.0,0.0,0.0,0.0,-0.553,0.0,0.0,0.0,0.0,0.0,0.0,-0.5753892877556926,0.0,0.0,0.0,0.0,0.0,0.0,-16.304,0.0,0.0,0.0
604,0.0,0.0,0.0,-0.07786328125,0.0,0.0,0.0,0.0,0.0,0.0,-0.563,0.0,0.0,0.0,0.0,0.0,0.0,-0.5681447747877475,0.0,0.0,0.0,0.0,0.0,0.0,-16.624,0.0,0.0,0.0
605,0.0,0.0,0.0,-0.08351171875,0.0,0.0,0.0,0.0,0.0,0.0,-0.565,0.0,0.0,0.0,0.0,0.0,0.0,-0.5599252943706914,0.0,0.0,0.0,0.0,0.0,0.0,-16.624,0.0,0.0,0.0
606,0.0,0.0,0.0,-0.08959375,0.0,0.0,0.0,0.0,0.0,0.0,-0.593,0.0,0.0,0.0,0.0,0.0,0.0,-0.5508547870063638,0.0,0.0,0.0,0.0,0.0,0.0,-15.62,0.0,0.0,0.0
607,0.0,0.0,0.0,-0.0952421875,0.0,0.0,0.0,0.0,0.0,0.0,-0.591,0.0,0.0,0.0,0.0,0.0,0.0,-0.5409516371585174,0.0,0.0,0.0,0.0,0.0,0.0,-14.956,0.0,0.0,0.0
608,0.0,0.0,0.0,-0.1013330078125,0.0,0.0,0.0,0.0,0.0,0.0,-0.583,0.0,0.0,0.0,0.0,0.0,0.0,-0.5300347737935092,0.0,0.0,0.0,0.0,0.0,0.0,-15.208,0.0,0.0,0.0
609,0.0,0.0,0.0,-0.10726171875,0.0,0.0,0.0,0.0,0.0,0.0,-0.61,0.0,0.0,0.0,0.0,0.0,0.0,-0.5181390446975147,0.0,0.0,0.0,0.0,0.0,0.0,-15.0,0.0,0.0,0.0
610,0.0,0.0,0.0,-0.11334375,0.0,0.0,0.0,0.0,0.0,0.0,-0.604,0.0,0.0,0.0,0.0,0.0,0.0,-0.5059890088580752,0.0,0.0,0.0,0.0,0.0,0.0,-14.956,0.0,0.0,0.0
611,0.0,0.0,0.0,-0.11972265625,0.0,0.0,0.0,0.0,0.0,0.0,-0.621,0.0,0.0,0.0,0.0,0.0,0.0,-0.49258807109443836,0.0,0.0,0.0,0.0,0.0,0.0,-14.568,0.0,0.0,0.0
612,0.0,0.0,0.0,-0.12594921875,0.0,0.0,0.0,0.0,0.0,0.0,-0.645,0.0,0.0,0.0,0.0,0.0,0.0,-0.47841534402901104,0.0,0.0,0.0,0.0,0.0,0.0,-13.88,0.0,0.0,0.0
613,0.0,0.0,0.0,-0.1321748046875,0.0,0.0,0.0,0.0,0.0,0.0,-0.626,0.0,0.0,0.0,0.0,0.0,0.0,-0.4637045943807201,0.0,0.0,0.0,0.0,0.0,0.0,-14.316,0.0,0.0,0.0
614,0.0,0.0,0.0,-0.1385546875,0.0,0.0,0.0,0.0,0.0,0.0,-0.638,0.0,0.0,0.0,0.0,0.0,0.0,-0.44808491217413876,0.0,0.0,0.0,0.0,0.0,0.0,-14.52,0.0,0.0,0.0
615,0.0,0.0,0.0,-0.1444921875,0.0,0.0,0.0,0.0,0.0,0.0,-0.622,0.0,0.0,0.0,0.0,0.0,0.0,-0.43168636948667244,0.0,0.0,0.0,0.0,0.0,0.0,-14.68,0.0,0.0,0.0
616,0.0,0.0,0.0,-0.15057421875,0.0,0.0,0.0,0.0,0.0,0.0,-0.6,0.0,0.0,0.0,0.0,0.0,0.0,-0.4148107012414967,0.0,0.0,0.0,0.0,0.0,0.0,-14.84,0.0,0.0,0.0
617,0.0,0.0,0.0,-0.1567998046875,0.0,0.0,0.0,0.0,0.0,0.0,-0.619,0.0,0.0,0.0,0.0,0.0,0.0,-0.39711263017107634,0.0,0.0,0.0,0.0,0.0,0.0,-13.924,0.0,0.0,0.0
618,0.0,0.0,0.0,-0.1625927734375,0.0,0.0,0.0,0.0,0.0,0.0,-0.605,0.0,0.0,0.0,0.0,0.0,0.0,-0.3787061050070987,0.0,0.0,0.0,0.0,0.0,0.0,-14.156,0.0,0.0,0.0
619,0.0,0.0,0.0,-0.1691171875,0.0,0.0,0.0,0.0,0.0,0.0,-0.618,0.0,0.0,0.0,0.0,0.0,0.0,-0.35996589478552893,0.0,0.0,0.0,0.0,0.0,0.0,-14.016,0.0,0.0,0.0
620,0.0,0.0,0.0,-0.17491015625,0.0,0.0,0.0,0.0,0.0,0.0,-0.627,0.0,0.0,0.0,0.0,0.0,0.0,-0.3405291895258759,0.0,0.0,0.0,0.0,0.0,0.0,-13.444,0.0,0.0,0.0
621,0.0,0.0,0.0,-0.1809921875,0.0,0.0,0.0,0.0,0.0,0.0,-0.595,0.0,0.0,0.0,0.0,0.0,0.0,-0.3203456745059848,0.0,0.0,0.0,0.0,0.0,0.0,-13.996,0.0,0.0,0.0
622,0.0,0.0,0.0,-0.1872177734375,0.0,0.0,0.0,0.0,0.0,0.0,-0.621,0.0,0.0,0.0,0.0,0.0,0.0,-0.2999247767603359,0.0,0.0,0.0,0.0,0.0,0.0,-13.444,0.0,0.0,0.0
623,0.0,0.0,0.0,-0.1930205078125,0.0,0.0,0.0,0.0,0.0,0.0,-0.608,0.0,0.0,0.0,0.0,0.0,0.0,-0.27893600215914566,0.0,0.0,0.0,0.0,0.0,0.0,-13.972,0.0,0.0,0.0
624,0.0,0.0,0.0,-0.19924609375,0.0,0.0,0.0,0.0,0.0,0.0,-0.6,0.0,0.0,0.0,0.0,0.0,0.0,-0.25726818226943765,0.0,0.0,0.0,0.0,0.0,0.0,-14.452,0.0,0.0,0.0
625,0.0,0.0,0.0,-0.2050302734375,0.0,0.0,0.0,0.0,0.0,0.0,-0.618,0.0,0.0,0.0,0.0,0.0,0.0,-0.23553375120679096,0.0,0.0,0.0,0.0,0.0,0.0,-13.924,0.0,0.0,0.0
626,0.0,0.0,0.0,-0.2108232421875,0.0,0.0,0.0,0.0,0.0,0.0,-0.579,0.0,0.0,0.0,0.0,0.0,0.0,-0.2133093394498768,0.0,0.0,0.0,0.0,0.0,0.0,-14.36,0.0,0.0,0.0
627,0.0,0.0,0.0,-0.216625,0.0,0.0,0.0,0.0,0.0,0.0,-0.584,0.0,0.0,0.0,0.0,0.0,0.0,-0.190483123578633,0.0,0.0,0.0,0.0,0.0,0.0,-14.176,0.0,0.0,0.0
628,0.0,0.0,0.0,-0.22241796875,0.0,0.0,0.0,0.0,0.0,0.0,-0.584,0.0,0.0,0.0,0.0,0.0,0.0,-0.16759875220039644,0.0,0.0,0.0,0.0,0.0,0.0,-13.88,0.0,0.0,0.0
629,0.0,0.0,0.0,-0.2273359375,0.0,0.0,0.0,0.0,0.0,0.0,-0.555,0.0,0.0,0.0,0.0,0.0,0.0,-0.14460334243912543,0.0,0.0,0.0,0.0,0.0,0.0,-12.12,0.0,0.0,0.0
630,0.0,0.0,0.0,-0.2285,0.0,0.0,0.0,0.0,0.0,0.0,-0.363,0.0,0.0,0.0,0.0,0.0,0.0,-0.12052876931280876,0.0,0.0,0.0,0.0,0.0,0.0,-7.66,0.0,0.0,0.0
631,0.0,0.0,0.0,-0.2277783203125,0.0,0.0,0.0,0.0,0.0,0.0,-0.017,0.0,0.0,0.0,0.0,0.0,0.0,-0.09750832989724197,0.0,0.0,0.0,0.0,0.0,0.0,-7.864,0.0,0.0,0.0
632,0.0,0.0,0.0,-0.2264697265625,0.0,0.0,0.0,0.0,0.0,0.0,0.084,0.0,0.0,0.0,0.0,0.0,0.0,-0.07381307460404395,0.0,0.0,0.0,0.0,0.0,0.0,-6.4,0.0,0.0,0.0
633,0.0,0.0,0.0,-0.2222744140625,0.0,0.0,0.0,0.0,0.0,0.0,0.253,0.0,0.0,0.0,0.0,0.0,0.0,-0.049712908543518494,0.0,0.0,0.0,0.0,0.0,0.0,-7.888,0.0,0.0,0.0
634,0.0,0.0,0.0,-0.21851171875,0.0,0.0,0.0,0.0,0.0,0.0,0.425,0.0,0.0,0.0,0.0,0.0,0.0,-0.02586725300060396,0.0,0.0,0.0,0.0,0.0,0.0,-7.912,0.0,0.0,0.0
635,0.0,0.0,0.0,-0.214306640625,0.0,0.0,0.0,0.0,0.0,0.0,0.37,0.0,0.0,0.0,0.0,0.0,0.0,-0.0020601136705679073,0.0,0.0,0.0,0.0,0.0,0.0,-4.756,0.0,0.0,0.0
636,0.0,0.0,0.0,-0.208369140625,0.0,0.0,0.0,0.0,0.0,0.0,0.497,0.0,0.0,0.0,0.0,0.0,0.0,0.02213396328165844,0.0,0.0,0.0,0.0,0.0,0.0,-4.616,0.0,0.0,0.0
637,0.0,0.0,0.0,-0.2018447265625,0.0,0.0,0.0,0.0,0.0,0.0,0.619,0.0,0.0,0.0,0.0,0.0,0.0,4.520416255489193e-05,0.0,0.0,0.0,0.0,0.0,0.0,-4.412,0.0,0.0,0.0
638,0.0,0.0,0.0,-0.1937421875,0.0,0.0,0.0,0.0,0.0,0.0,0.719,0.0,0.0,0.0,0.0,0.0,0.0,0.023921537361157406,0.0,0.0,0.0,0.0,0.0,0.0,-4.936,0.0,0.0,0.0
639,0.0,0.0,0.0,-0.18562109375,0.0,0.0,0.0,0.0,0.0,0.0,0.83,0.0,0.0,0.0,0.0,0.0,0.0,0.04793907437848647,0.0,0.0,0.0,0.0,0.0,0.0,-7.112,0.0,0.0,0.0
640,0.0,0.0,0.0,-0.1786728515625,0.0,0.0,0.0,0.0,0.0,0.0,0.775,0.0,0.0,0.0,0.0,0.0,0.0,0.07188690525732176,0.0,0.0,0.0,0.0,0.0,0.0,-8.848,0.0,0.0,0.0
641,0.0,0.0,0.0,-0.171724609375,0.0,0.0,0.0,0.0,0.0,0.0,0.684,0.0,0.0,0.0,0.0,0.0,0.0,0.0954416980139794,0.0,0.0,0.0,0.0,0.0,0.0,-7.452,0.0,0.0,0.0
642,0.0,0.0,0.0,-0.1630263671875,0.0,0.0,0.0,0.0,0.0,0.0,0.765,0.0,0.0,0.0,0.0,0.0,0.0,0.11916166934236369,0.0,0.0,0.0,0.0,0.0,0.0,-7.796,0.0,0.0,0.0
643,0.0,0.0,0.0,-0.154490234375,0.0,0.0,0.0,0.0,0.0,0.0,0.877,0.0,0.0,0.0,0.0,0.0,0.0,0.1437727893230287,0.0,0.0,0.0,0.0,0.0,0.0,-9.376,0.0,0.0,0.0
644,0.0,0.0,0.0,-0.1465224609375,0.0,0.0,0.0,0.0,0.0,0.0,0.835,0.0,0.0,0.0,0.0,0.0,0.0,0.16566585108608678,0.0,0.0,0.0,0.0,0.0,0.0,-12.44,0.0,0.0,0.0
645,0.0,0.0,0.0,-0.1381123046875,0.0,0.0,0.0,0.0,0.0,0.0,0.811,0.0,0.0,0.0,0.0,0.0,0.0,0.1885914743257844,0.0,0.0,0.0,0.0,0.0,0.0,-13.536,0.0,0.0,0.0
646,0.0,0.0,0.0,-0.129720703125,0.0,0.0,0.0,0.0,0.0,0.0,0.851,0.0,0.0,0.0,0.0,0.0,0.0,0.21133275089455603,0.0,0.0,0.0,0.0,0.0,0.0,-12.92,0.0,0.0,0.0
647,0.0,0.0,0.0,-0.1221865234375,0.0,0.0,0.0,0.0,0.0,0.0,0.816,0.0,0.0,0.0,0.0,0.0,0.0,0.23353589580224723,0.0,0.0,0.0,0.0,0.0,0.0,-12.644,0.0,0.0,0.0
648,0.0,0.0,0.0,-0.1150849609375,0.0,0.0,0.0,0.0,0.0,0.0,0.727,0.0,0.0,0.0,0.0,0.0,0.0,0.25540709429965414,0.0,0.0,0.0,0.0,0.0,0.0,-13.72,0.0,0.0,0.0
649,0.0,0.0,0.0,-0.10697265625,0.0,0.0,0.0,0.0,0.0,0.0,0.75,0.0,0.0,0.0,0.0,0.0,0.0,0.2770951761710611,0.0,0.0,0.0,0.0,0.0,0.0,-14.588,0.0,0.0,0.0
650,0.0,0.0,0.0,-0.0984365234375,0.0,0.0,0.0,0.0,0.0,0.0,0.852,0.0,0.0,0.0,0.0,0.0,0.0,0.2980006936198625,0.0,0.0,0.0,0.0,0.0,0.0,-16.028,0.0,0.0,0.0
651,0.0,0.0,0.0,-0.091326171875,0.0,0.0,0.0,0.0,0.0,0.0,0.799,0.0,0.0,0.0,0.0,0.0,0.0,0.3186159353636607,0.0,0.0,0.0,0.0,0.0,0.0,-16.944,0.0,0.0,0.0
652,0.0,0.0,0.0,-0.0846669921875,0.0,0.0,0.0,0.0,0.0,0.0,0.686,0.0,0.0,0.0,0.0,0.0,0.0,0.33884895310912416,0.0,0.0,0.0,0.0,0.0,0.0,-18.432,0.0,0.0,0.0
653,0.0,0.0,0.0,-0.0772861328125,0.0,0.0,0.0,0.0,0.0,0.0,0.697,0.0,0.0,0.0,0.0,0.0,0.0,0.35821140095322773,0.0,0.0,0.0,0.0,0.0,0.0,-18.132,0.0,0.0,0.0
654,0.0,0.0,0.0,-0.06959765625,0.0,0.0,0.0,0.0,0.0,0.0,0.755,0.0,0.0,0.0,0.0,0.0,0.0,0.3771673835167639,0.0,0.0,0.0,0.0,0.0,0.0,-17.196,0.0,0.0,0.0
655,0.0,0.0,0.0,-0.062505859375,0.0,0.0,0.0,0.0,0.0,0.0,0.753,0.0,0.0,0.0,0.0,0.0,0.0,0.39572641619020643,0.0,0.0,0.0,0.0,0.0,0.0,-17.24,0.0,0.0,0.0
656,0.0,0.0,0.0,-0.0557021484375,0.0,0.0,0.0,0.0,0.0,0.0,0.704,0.0,0.0,0.0,0.0,0.0,0.0,0.41317002336468656,0.0,0.0,0.0,0.0,0.0,0.0,-19.116,0.0,0.0,0.0
657,0.0,0.0,0.0,-0.049177734375,0.0,0.0,0.0,0.0,0.0,0.0,0.662,0.0,0.0,0.0,0.0,0.0,0.0,0.430187631875505,0.0,0.0,0.0,0.0,0.0,0.0,-19.096,0.0,0.0,0.0
658,0.0,0.0,0.0,-0.0423740234375,0.0,0.0,0.0,0.0,0.0,0.0,0.671,0.0,0.0,0.0,0.0,0.0,0.0,0.4470562342868987,0.0,0.0,0.0,0.0,0.0,0.0,-17.492,0.0,0.0,0.0
659,0.0,0.0,0.0,-0.0362919921875,0.0,0.0,0.0,0.0,0.0,0.0,0.662,0.0,0.0,0.0,0.0,0.0,0.0,0.4622934928778776,0.0,0.0,0.0,0.0,0.0,0.0,-16.9,0.0,0.0,0.0
660,0.0,0.0,0.0,-0.030201171875,0.0,0.0,0.0,0.0,0.0,0.0,0.604,0.0,0.0,0.0,0.0,0.0,0.0,0.4771834564990188,0.0,0.0,0.0,0.0,0.0,0.0,-17.836,0.0,0.0,0.0
661,0.0,0.0,0.0,-0.0239755859375,0.0,0.0,0.0,0.0,0.0,0.0,0.625,0.0,0.0,0.0,0.0,0.0,0.0,0.4914998577799524,0.0,0.0,0.0,0.0,0.0,0.0,-19.46,0.0,0.0,0.0
662,0.0,0.0,0.0,-0.0180380859375,0.0,0.0,0.0,0.0,0.0,0.0,0.62,0.0,0.0,0.0,0.0,0.0,0.0,0.5047956978247352,0.0,0.0,0.0,0.0,0.0,0.0,-18.544,0.0,0.0,0.0
663,0.0,0.0,0.0,-0.0121005859375,0.0,0.0,0.0,0.0,0.0,0.0,0.586,0.0,0.0,0.0,0.0,0.0,0.0,0.5173135787668146,0.0,0.0,0.0,0.0,0.0,0.0,-16.6,0.0,0.0,0.0
664,0.0,0.0,0.0,-0.0070205078125,0.0,0.0,0.0,0.0,0.0,0.0,0.571,0.0,0.0,0.0,0.0,0.0,0.0,0.5291169365288358,0.0,0.0,0.0,0.0,0.0,0.0,-16.532,0.0,0.0,0.0
665,0.0,0.0,0.0,-0.0018046875,0.0,0.0,0.0,0.0,0.0,0.0,0.511,0.0,0.0,0.0,0.0,0.0,0.0,0.5400048787855882,0.0,0.0,0.0,0.0,0.0,0.0,-15.092,0.0,0.0,0.0
666,0.0,0.0,0.0,0.0039873046875,0.0,0.0,0.0,0.0,0.0,0.0,0.549,0.0,0.0,0.0,0.0,0.0,0.0,0.5499926741001784,0.0,0.0,0.0,0.0,0.0,0.0,-15.756,0.0,0.0,0.0
667,0.0,0.0,0.0,0.0087607421875,0.0,0.0,0.0,0.0,0.0,0.0,0.544,0.0,0.0,0.0,0.0,0.0,0.0,0.559174670493246,0.0,0.0,0.0,0.0,0.0,0.0,-14.772,0.0,0.0,0.0
668,0.0,0.0,0.0,0.0142734375,0.0,0.0,0.0,0.0,0.0,0.0,0.505,0.0,0.0,0.0,0.0,0.0,0.0,0.567455485410298,0.0,0.0,0.0,0.0,0.0,0.0,-13.88,0.0,0.0,0.0
