EmanuelSamir/lab201_ws_projsamir/sawyer_dev/data/sawyer/vel_sin_motion_incrf/test_joint4/training_data_random.csv
,j1,j2,j3,j4,j5,j6,j7,v1,v2,v3,v4,v5,v6,v7,jd1,jd2,jd3,jd4,jd5,jd6,jd7,e1,e2,e3,e4,e5,e6,e7
0,0.0,0.0,0.0,0.0,0.0,0.0,0.0,0.0,0.0,0.0,0.0,0.0,0.0,0.0,0.0,0.0,0.0,0.0,0.0,0.0,0.0,0.0,0.0,0.0,0.0,0.0,0.0,0.0
1,0.0,0.0,0.0,-0.004556640625,0.0,0.0,0.0,0.0,0.0,0.0,-0.001,0.0,0.0,0.0,0.0,0.0,0.0,-0.004463140107063789,0.0,0.0,0.0,0.0,0.0,0.0,-13.996,0.0,0.0,0.0
2,0.0,0.0,0.0,-0.004556640625,0.0,0.0,0.0,0.0,0.0,0.0,-0.001,0.0,0.0,0.0,0.0,0.0,0.0,-0.00012824546769216617,0.0,0.0,0.0,0.0,0.0,0.0,-13.924,0.0,0.0,0.0
3,0.0,0.0,0.0,-0.004556640625,0.0,0.0,0.0,0.0,0.0,0.0,-0.001,0.0,0.0,0.0,0.0,0.0,0.0,-0.002144208047603095,0.0,0.0,0.0,0.0,0.0,0.0,-13.924,0.0,0.0,0.0
4,0.0,0.0,0.0,-0.004556640625,0.0,0.0,0.0,0.0,0.0,0.0,-0.001,0.0,0.0,0.0,0.0,0.0,0.0,-0.0027410312994672155,0.0,0.0,0.0,0.0,0.0,0.0,-13.924,0.0,0.0,0.0
5,0.0,0.0,0.0,-0.004556640625,0.0,0.0,0.0,0.0,0.0,0.0,-0.001,0.0,0.0,0.0,0.0,0.0,0.0,-0.002632577425192479,0.0,0.0,0.0,0.0,0.0,0.0,-13.904,0.0,0.0,0.0
6,0.0,0.0,0.0,-0.004556640625,0.0,0.0,0.0,0.0,0.0,0.0,-0.001,0.0,0.0,0.0,0.0,0.0,0.0,-0.002814952635825832,0.0,0.0,0.0,0.0,0.0,0.0,-13.904,0.0,0.0,0.0
7,0.0,0.0,0.0,-0.004701171875,0.0,0.0,0.0,0.0,0.0,0.0,-0.007,0.0,0.0,0.0,0.0,0.0,0.0,-0.0027047162495435016,0.0,0.0,0.0,0.0,0.0,0.0,-14.292,0.0,0.0,0.0
8,0.0,0.0,0.0,-0.004701171875,0.0,0.0,0.0,0.0,0.0,0.0,-0.007,0.0,0.0,0.0,0.0,0.0,0.0,-0.0031268243614485138,0.0,0.0,0.0,0.0,0.0,0.0,-14.292,0.0,0.0,0.0
9,0.0,0.0,0.0,-0.004701171875,0.0,0.0,0.0,0.0,0.0,0.0,-0.007,0.0,0.0,0.0,0.0,0.0,0.0,-0.003090341733299789,0.0,0.0,0.0,0.0,0.0,0.0,-14.292,0.0,0.0,0.0
10,0.0,0.0,0.0,-0.004845703125,0.0,0.0,0.0,0.0,0.0,0.0,-0.02,0.0,0.0,0.0,0.0,0.0,0.0,-0.002473261143113123,0.0,0.0,0.0,0.0,0.0,0.0,-13.924,0.0,0.0,0.0
11,0.0,0.0,0.0,-0.004845703125,0.0,0.0,0.0,0.0,0.0,0.0,-0.02,0.0,0.0,0.0,0.0,0.0,0.0,-0.0029595180324392886,0.0,0.0,0.0,0.0,0.0,0.0,-13.924,0.0,0.0,0.0
12,0.0,0.0,0.0,-0.004701171875,0.0,0.0,0.0,0.0,0.0,0.0,0.005,0.0,0.0,0.0,0.0,0.0,0.0,-0.0028612734723340028,0.0,0.0,0.0,0.0,0.0,0.0,-14.108,0.0,0.0,0.0
13,0.0,0.0,0.0,-0.004701171875,0.0,0.0,0.0,0.0,0.0,0.0,0.005,0.0,0.0,0.0,0.0,0.0,0.0,-0.0031188785530522414,0.0,0.0,0.0,0.0,0.0,0.0,-14.108,0.0,0.0,0.0
14,0.0,0.0,0.0,-0.004701171875,0.0,0.0,0.0,0.0,0.0,0.0,0.005,0.0,0.0,0.0,0.0,0.0,0.0,-0.0031954479563237118,0.0,0.0,0.0,0.0,0.0,0.0,-14.108,0.0,0.0,0.0
15,0.0,0.0,0.0,-0.004701171875,0.0,0.0,0.0,0.0,0.0,0.0,0.005,0.0,0.0,0.0,0.0,0.0,0.0,-0.003152870233594743,0.0,0.0,0.0,0.0,0.0,0.0,-14.108,0.0,0.0,0.0
16,0.0,0.0,0.0,-0.004845703125,0.0,0.0,0.0,0.0,0.0,0.0,-0.006,0.0,0.0,0.0,0.0,0.0,0.0,-0.0029414309184154705,0.0,0.0,0.0,0.0,0.0,0.0,-13.788,0.0,0.0,0.0
17,0.0,0.0,0.0,-0.004845703125,0.0,0.0,0.0,0.0,0.0,0.0,-0.006,0.0,0.0,0.0,0.0,0.0,0.0,-0.0026894289088308793,0.0,0.0,0.0,0.0,0.0,0.0,-13.788,0.0,0.0,0.0
18,0.0,0.0,0.0,-0.004556640625,0.0,0.0,0.0,0.0,0.0,0.0,0.005,0.0,0.0,0.0,0.0,0.0,0.0,-0.0019292219174150728,0.0,0.0,0.0,0.0,0.0,0.0,-14.132,0.0,0.0,0.0
19,0.0,0.0,0.0,-0.004556640625,0.0,0.0,0.0,0.0,0.0,0.0,0.005,0.0,0.0,0.0,0.0,0.0,0.0,-0.0020334898968926325,0.0,0.0,0.0,0.0,0.0,0.0,-14.132,0.0,0.0,0.0
20,0.0,0.0,0.0,-0.004701171875,0.0,0.0,0.0,0.0,0.0,0.0,0.012,0.0,0.0,0.0,0.0,0.0,0.0,-0.0027593361063911886,0.0,0.0,0.0,0.0,0.0,0.0,-14.108,0.0,0.0,0.0
21,0.0,0.0,0.0,-0.004701171875,0.0,0.0,0.0,0.0,0.0,0.0,0.012,0.0,0.0,0.0,0.0,0.0,0.0,-0.003132270643267765,0.0,0.0,0.0,0.0,0.0,0.0,-14.108,0.0,0.0,0.0
22,0.0,0.0,0.0,-0.004701171875,0.0,0.0,0.0,0.0,0.0,0.0,0.012,0.0,0.0,0.0,0.0,0.0,0.0,-0.0029410806136600104,0.0,0.0,0.0,0.0,0.0,0.0,-14.108,0.0,0.0,0.0
23,0.0,0.0,0.0,-0.004701171875,0.0,0.0,0.0,0.0,0.0,0.0,-0.009,0.0,0.0,0.0,0.0,0.0,0.0,-0.0028296500175817377,0.0,0.0,0.0,0.0,0.0,0.0,-13.948,0.0,0.0,0.0
24,0.0,0.0,0.0,-0.004701171875,0.0,0.0,0.0,0.0,0.0,0.0,-0.009,0.0,0.0,0.0,0.0,0.0,0.0,-0.0028661265309862308,0.0,0.0,0.0,0.0,0.0,0.0,-13.948,0.0,0.0,0.0
25,0.0,0.0,0.0,-0.004701171875,0.0,0.0,0.0,0.0,0.0,0.0,-0.001,0.0,0.0,0.0,0.0,0.0,0.0,-0.002750459937905833,0.0,0.0,0.0,0.0,0.0,0.0,-13.88,0.0,0.0,0.0
26,0.0,0.0,0.0,-0.004701171875,0.0,0.0,0.0,0.0,0.0,0.0,-0.001,0.0,0.0,0.0,0.0,0.0,0.0,-0.0011019008674166136,0.0,0.0,0.0,0.0,0.0,0.0,-13.88,0.0,0.0,0.0
27,0.0,0.0,0.0,-0.004845703125,0.0,0.0,0.0,0.0,0.0,0.0,-0.008,0.0,0.0,0.0,0.0,0.0,0.0,-0.0019829455958661445,0.0,0.0,0.0,0.0,0.0,0.0,-13.764,0.0,0.0,0.0
28,0.0,0.0,0.0,-0.004701171875,0.0,0.0,0.0,0.0,0.0,0.0,-0.002,0.0,0.0,0.0,0.0,0.0,0.0,-0.0014546871695617011,0.0,0.0,0.0,0.0,0.0,0.0,-13.836,0.0,0.0,0.0
29,0.0,0.0,0.0,-0.004701171875,0.0,0.0,0.0,0.0,0.0,0.0,-0.002,0.0,0.0,0.0,0.0,0.0,0.0,-0.0025690339281527683,0.0,0.0,0.0,0.0,0.0,0.0,-13.836,0.0,0.0,0.0
30,0.0,0.0,0.0,-0.004701171875,0.0,0.0,0.0,0.0,0.0,0.0,-0.002,0.0,0.0,0.0,0.0,0.0,0.0,-0.0028634070108095946,0.0,0.0,0.0,0.0,0.0,0.0,-13.836,0.0,0.0,0.0
31,0.0,0.0,0.0,-0.004701171875,0.0,0.0,0.0,0.0,0.0,0.0,0.008,0.0,0.0,0.0,0.0,0.0,0.0,-0.0026613206025774896,0.0,0.0,0.0,0.0,0.0,0.0,-13.996,0.0,0.0,0.0
32,0.0,0.0,0.0,-0.004701171875,0.0,0.0,0.0,0.0,0.0,0.0,0.008,0.0,0.0,0.0,0.0,0.0,0.0,-0.0022932749565649432,0.0,0.0,0.0,0.0,0.0,0.0,-13.996,0.0,0.0,0.0
33,0.0,0.0,0.0,-0.004701171875,0.0,0.0,0.0,0.0,0.0,0.0,-0.001,0.0,0.0,0.0,0.0,0.0,0.0,-0.0028759359864981085,0.0,0.0,0.0,0.0,0.0,0.0,-13.948,0.0,0.0,0.0
34,0.0,0.0,0.0,-0.004701171875,0.0,0.0,0.0,0.0,0.0,0.0,-0.001,0.0,0.0,0.0,0.0,0.0,0.0,-0.0031126183972864582,0.0,0.0,0.0,0.0,0.0,0.0,-13.948,0.0,0.0,0.0
35,0.0,0.0,0.0,-0.004701171875,0.0,0.0,0.0,0.0,0.0,0.0,-0.001,0.0,0.0,0.0,0.0,0.0,0.0,-0.0027025250735839904,0.0,0.0,0.0,0.0,0.0,0.0,-13.948,0.0,0.0,0.0
36,0.0,0.0,0.0,-0.004701171875,0.0,0.0,0.0,0.0,0.0,0.0,-0.001,0.0,0.0,0.0,0.0,0.0,0.0,-0.002376307711943186,0.0,0.0,0.0,0.0,0.0,0.0,-13.996,0.0,0.0,0.0
37,0.0,0.0,0.0,-0.004701171875,0.0,0.0,0.0,0.0,0.0,0.0,-0.001,0.0,0.0,0.0,0.0,0.0,0.0,-0.003099744609691403,0.0,0.0,0.0,0.0,0.0,0.0,-13.996,0.0,0.0,0.0
38,0.0,0.0,0.0,-0.004701171875,0.0,0.0,0.0,0.0,0.0,0.0,-0.001,0.0,0.0,0.0,0.0,0.0,0.0,-0.0030481301175730793,0.0,0.0,0.0,0.0,0.0,0.0,-13.904,0.0,0.0,0.0
39,0.0,0.0,0.0,-0.004701171875,0.0,0.0,0.0,0.0,0.0,0.0,-0.001,0.0,0.0,0.0,0.0,0.0,0.0,-0.0029508105006655003,0.0,0.0,0.0,0.0,0.0,0.0,-13.904,0.0,0.0,0.0
40,0.0,0.0,0.0,-0.004701171875,0.0,0.0,0.0,0.0,0.0,0.0,-0.001,0.0,0.0,0.0,0.0,0.0,0.0,-0.002594307639053099,0.0,0.0,0.0,0.0,0.0,0.0,-13.904,0.0,0.0,0.0
41,0.0,0.0,0.0,-0.004701171875,0.0,0.0,0.0,0.0,0.0,0.0,-0.001,0.0,0.0,0.0,0.0,0.0,0.0,-0.0027963027379111147,0.0,0.0,0.0,0.0,0.0,0.0,-13.88,0.0,0.0,0.0
42,0.0,0.0,0.0,-0.004701171875,0.0,0.0,0.0,0.0,0.0,0.0,-0.001,0.0,0.0,0.0,0.0,0.0,0.0,-0.0031685417801000162,0.0,0.0,0.0,0.0,0.0,0.0,-13.88,0.0,0.0,0.0
43,0.0,0.0,0.0,-0.004701171875,0.0,0.0,0.0,0.0,0.0,0.0,-0.001,0.0,0.0,0.0,0.0,0.0,0.0,-0.0031426313984283596,0.0,0.0,0.0,0.0,0.0,0.0,-13.88,0.0,0.0,0.0
44,0.0,0.0,0.0,-0.004701171875,0.0,0.0,0.0,0.0,0.0,0.0,-0.001,0.0,0.0,0.0,0.0,0.0,0.0,-0.0026021502830735135,0.0,0.0,0.0,0.0,0.0,0.0,-13.996,0.0,0.0,0.0
45,0.0,0.0,0.0,-0.004701171875,0.0,0.0,0.0,0.0,0.0,0.0,-0.001,0.0,0.0,0.0,0.0,0.0,0.0,-0.0030814801687603158,0.0,0.0,0.0,0.0,0.0,0.0,-13.996,0.0,0.0,0.0
46,0.0,0.0,0.0,-0.004701171875,0.0,0.0,0.0,0.0,0.0,0.0,-0.001,0.0,0.0,0.0,0.0,0.0,0.0,-0.0029082723191413487,0.0,0.0,0.0,0.0,0.0,0.0,-13.948,0.0,0.0,0.0
47,0.0,0.0,0.0,-0.004701171875,0.0,0.0,0.0,0.0,0.0,0.0,-0.001,0.0,0.0,0.0,0.0,0.0,0.0,-0.0028336772594646023,0.0,0.0,0.0,0.0,0.0,0.0,-13.948,0.0,0.0,0.0
48,0.0,0.0,0.0,-0.004701171875,0.0,0.0,0.0,0.0,0.0,0.0,-0.001,0.0,0.0,0.0,0.0,0.0,0.0,-0.0029498478591248253,0.0,0.0,0.0,0.0,0.0,0.0,-13.948,0.0,0.0,0.0
49,0.0,0.0,0.0,-0.004701171875,0.0,0.0,0.0,0.0,0.0,0.0,-0.001,0.0,0.0,0.0,0.0,0.0,0.0,-0.002812272189927488,0.0,0.0,0.0,0.0,0.0,0.0,-14.016,0.0,0.0,0.0
50,0.0,0.0,0.0,-0.004701171875,0.0,0.0,0.0,0.0,0.0,0.0,-0.001,0.0,0.0,0.0,0.0,0.0,0.0,-0.0029967045421365954,0.0,0.0,0.0,0.0,0.0,0.0,-14.016,0.0,0.0,0.0
51,0.0,0.0,0.0,-0.004701171875,0.0,0.0,0.0,0.0,0.0,0.0,-0.001,0.0,0.0,0.0,0.0,0.0,0.0,-0.002901998024550871,0.0,0.0,0.0,0.0,0.0,0.0,-14.016,0.0,0.0,0.0
52,0.0,0.0,0.0,-0.004701171875,0.0,0.0,0.0,0.0,0.0,0.0,-0.001,0.0,0.0,0.0,0.0,0.0,0.0,-0.0031511751802029905,0.0,0.0,0.0,0.0,0.0,0.0,-14.016,0.0,0.0,0.0
53,0.0,0.0,0.0,-0.004701171875,0.0,0.0,0.0,0.0,0.0,0.0,-0.001,0.0,0.0,0.0,0.0,0.0,0.0,-0.0030062797117686377,0.0,0.0,0.0,0.0,0.0,0.0,-14.016,0.0,0.0,0.0
54,0.0,0.0,0.0,-0.004701171875,0.0,0.0,0.0,0.0,0.0,0.0,-0.001,0.0,0.0,0.0,0.0,0.0,0.0,-0.002969269073890897,0.0,0.0,0.0,0.0,0.0,0.0,-13.904,0.0,0.0,0.0
55,0.0,0.0,0.0,-0.004701171875,0.0,0.0,0.0,0.0,0.0,0.0,-0.001,0.0,0.0,0.0,0.0,0.0,0.0,-0.0030462677263909735,0.0,0.0,0.0,0.0,0.0,0.0,-13.904,0.0,0.0,0.0
56,0.0,0.0,0.0,-0.004701171875,0.0,0.0,0.0,0.0,0.0,0.0,-0.001,0.0,0.0,0.0,0.0,0.0,0.0,-0.0026040094658039623,0.0,0.0,0.0,0.0,0.0,0.0,-13.904,0.0,0.0,0.0
57,0.0,0.0,0.0,-0.004701171875,0.0,0.0,0.0,0.0,0.0,0.0,-0.001,0.0,0.0,0.0,0.0,0.0,0.0,-0.0027909196827139507,0.0,0.0,0.0,0.0,0.0,0.0,-14.016,0.0,0.0,0.0
58,0.0,0.0,0.0,-0.004701171875,0.0,0.0,0.0,0.0,0.0,0.0,-0.001,0.0,0.0,0.0,0.0,0.0,0.0,-0.0031256735172415437,0.0,0.0,0.0,0.0,0.0,0.0,-14.016,0.0,0.0,0.0
59,0.0,0.0,0.0,-0.004701171875,0.0,0.0,0.0,0.0,0.0,0.0,-0.001,0.0,0.0,0.0,0.0,0.0,0.0,-0.002808230403342528,0.0,0.0,0.0,0.0,0.0,0.0,-14.04,0.0,0.0,0.0
60,0.0,0.0,0.0,-0.004701171875,0.0,0.0,0.0,0.0,0.0,0.0,-0.001,0.0,0.0,0.0,0.0,0.0,0.0,-0.0031556284144045807,0.0,0.0,0.0,0.0,0.0,0.0,-14.04,0.0,0.0,0.0
61,0.0,0.0,0.0,-0.004701171875,0.0,0.0,0.0,0.0,0.0,0.0,-0.001,0.0,0.0,0.0,0.0,0.0,0.0,-0.0030284947289153305,0.0,0.0,0.0,0.0,0.0,0.0,-14.04,0.0,0.0,0.0
62,0.0,0.0,0.0,-0.004701171875,0.0,0.0,0.0,0.0,0.0,0.0,-0.001,0.0,0.0,0.0,0.0,0.0,0.0,-0.0024065055335759575,0.0,0.0,0.0,0.0,0.0,0.0,-14.156,0.0,0.0,0.0
63,0.0,0.0,0.0,-0.004701171875,0.0,0.0,0.0,0.0,0.0,0.0,-0.001,0.0,0.0,0.0,0.0,0.0,0.0,-0.002289250830948962,0.0,0.0,0.0,0.0,0.0,0.0,-14.156,0.0,0.0,0.0
64,0.0,0.0,0.0,-0.004701171875,0.0,0.0,0.0,0.0,0.0,0.0,-0.001,0.0,0.0,0.0,0.0,0.0,0.0,-0.002888241562724554,0.0,0.0,0.0,0.0,0.0,0.0,-13.924,0.0,0.0,0.0
65,0.0,0.0,0.0,-0.004701171875,0.0,0.0,0.0,0.0,0.0,0.0,-0.001,0.0,0.0,0.0,0.0,0.0,0.0,-0.0031709871216345845,0.0,0.0,0.0,0.0,0.0,0.0,-13.924,0.0,0.0,0.0
66,0.0,0.0,0.0,-0.004701171875,0.0,0.0,0.0,0.0,0.0,0.0,-0.001,0.0,0.0,0.0,0.0,0.0,0.0,-0.0026502769557086928,0.0,0.0,0.0,0.0,0.0,0.0,-13.924,0.0,0.0,0.0
67,0.0,0.0,0.0,-0.004701171875,0.0,0.0,0.0,0.0,0.0,0.0,-0.001,0.0,0.0,0.0,0.0,0.0,0.0,-0.002999058078086904,0.0,0.0,0.0,0.0,0.0,0.0,-14.016,0.0,0.0,0.0
68,0.0,0.0,0.0,-0.004701171875,0.0,0.0,0.0,0.0,0.0,0.0,-0.001,0.0,0.0,0.0,0.0,0.0,0.0,-0.00319865320571517,0.0,0.0,0.0,0.0,0.0,0.0,-14.016,0.0,0.0,0.0
69,0.0,0.0,0.0,-0.004701171875,0.0,0.0,0.0,0.0,0.0,0.0,-0.001,0.0,0.0,0.0,0.0,0.0,0.0,-0.002524061453666883,0.0,0.0,0.0,0.0,0.0,0.0,-14.084,0.0,0.0,0.0
70,0.0,0.0,0.0,-0.004701171875,0.0,0.0,0.0,0.0,0.0,0.0,-0.001,0.0,0.0,0.0,0.0,0.0,0.0,-0.00265516587569823,0.0,0.0,0.0,0.0,0.0,0.0,-14.084,0.0,0.0,0.0
71,0.0,0.0,0.0,-0.004701171875,0.0,0.0,0.0,0.0,0.0,0.0,-0.001,0.0,0.0,0.0,0.0,0.0,0.0,-0.0027345558551307506,0.0,0.0,0.0,0.0,0.0,0.0,-14.084,0.0,0.0,0.0
72,0.0,0.0,0.0,-0.004701171875,0.0,0.0,0.0,0.0,0.0,0.0,-0.001,0.0,0.0,0.0,0.0,0.0,0.0,-0.0029744542981973224,0.0,0.0,0.0,0.0,0.0,0.0,-13.948,0.0,0.0,0.0
73,0.0,0.0,0.0,-0.004701171875,0.0,0.0,0.0,0.0,0.0,0.0,-0.001,0.0,0.0,0.0,0.0,0.0,0.0,-0.003021748746436327,0.0,0.0,0.0,0.0,0.0,0.0,-13.948,0.0,0.0,0.0
74,0.0,0.0,0.0,-0.004701171875,0.0,0.0,0.0,0.0,0.0,0.0,-0.001,0.0,0.0,0.0,0.0,0.0,0.0,-0.002850667785731044,0.0,0.0,0.0,0.0,0.0,0.0,-14.04,0.0,0.0,0.0
75,0.0,0.0,0.0,-0.004701171875,0.0,0.0,0.0,0.0,0.0,0.0,-0.001,0.0,0.0,0.0,0.0,0.0,0.0,-0.0029618393095295972,0.0,0.0,0.0,0.0,0.0,0.0,-14.04,0.0,0.0,0.0
76,0.0,0.0,0.0,-0.004701171875,0.0,0.0,0.0,0.0,0.0,0.0,-0.001,0.0,0.0,0.0,0.0,0.0,0.0,-0.003115548574649414,0.0,0.0,0.0,0.0,0.0,0.0,-14.04,0.0,0.0,0.0
77,0.0,0.0,0.0,-0.004701171875,0.0,0.0,0.0,0.0,0.0,0.0,-0.001,0.0,0.0,0.0,0.0,0.0,0.0,-0.003017038719887462,0.0,0.0,0.0,0.0,0.0,0.0,-13.924,0.0,0.0,0.0
78,0.0,0.0,0.0,-0.004701171875,0.0,0.0,0.0,0.0,0.0,0.0,-0.001,0.0,0.0,0.0,0.0,0.0,0.0,-0.0030472549847425437,0.0,0.0,0.0,0.0,0.0,0.0,-13.924,0.0,0.0,0.0
79,0.0,0.0,0.0,-0.004701171875,0.0,0.0,0.0,0.0,0.0,0.0,-0.001,0.0,0.0,0.0,0.0,0.0,0.0,-0.002408977408215003,0.0,0.0,0.0,0.0,0.0,0.0,-13.948,0.0,0.0,0.0
80,0.0,0.0,0.0,-0.004701171875,0.0,0.0,0.0,0.0,0.0,0.0,-0.001,0.0,0.0,0.0,0.0,0.0,0.0,-0.0031096210188443565,0.0,0.0,0.0,0.0,0.0,0.0,-13.948,0.0,0.0,0.0
81,0.0,0.0,0.0,-0.004701171875,0.0,0.0,0.0,0.0,0.0,0.0,-0.001,0.0,0.0,0.0,0.0,0.0,0.0,-0.0031462510950502967,0.0,0.0,0.0,0.0,0.0,0.0,-13.948,0.0,0.0,0.0
82,0.0,0.0,0.0,-0.004701171875,0.0,0.0,0.0,0.0,0.0,0.0,-0.001,0.0,0.0,0.0,0.0,0.0,0.0,-0.003141958385590733,0.0,0.0,0.0,0.0,0.0,0.0,-13.812,0.0,0.0,0.0
83,0.0,0.0,0.0,-0.004701171875,0.0,0.0,0.0,0.0,0.0,0.0,-0.001,0.0,0.0,0.0,0.0,0.0,0.0,-0.003184210128612232,0.0,0.0,0.0,0.0,0.0,0.0,-13.812,0.0,0.0,0.0
84,0.0,0.0,0.0,-0.004701171875,0.0,0.0,0.0,0.0,0.0,0.0,-0.001,0.0,0.0,0.0,0.0,0.0,0.0,-0.0032837937673150866,0.0,0.0,0.0,0.0,0.0,0.0,-13.812,0.0,0.0,0.0
85,0.0,0.0,0.0,-0.004701171875,0.0,0.0,0.0,0.0,0.0,0.0,-0.001,0.0,0.0,0.0,0.0,0.0,0.0,-0.0030813050044301085,0.0,0.0,0.0,0.0,0.0,0.0,-13.904,0.0,0.0,0.0
86,0.0,0.0,0.0,-0.004701171875,0.0,0.0,0.0,0.0,0.0,0.0,-0.001,0.0,0.0,0.0,0.0,0.0,0.0,-0.003274287446469605,0.0,0.0,0.0,0.0,0.0,0.0,-13.904,0.0,0.0,0.0
87,0.0,0.0,0.0,-0.004701171875,0.0,0.0,0.0,0.0,0.0,0.0,-0.001,0.0,0.0,0.0,0.0,0.0,0.0,-0.0026143144161014445,0.0,0.0,0.0,0.0,0.0,0.0,-13.904,0.0,0.0,0.0
88,0.0,0.0,0.0,-0.004701171875,0.0,0.0,0.0,0.0,0.0,0.0,-0.001,0.0,0.0,0.0,0.0,0.0,0.0,-0.002306500031528637,0.0,0.0,0.0,0.0,0.0,0.0,-14.016,0.0,0.0,0.0
89,0.0,0.0,0.0,-0.004701171875,0.0,0.0,0.0,0.0,0.0,0.0,-0.001,0.0,0.0,0.0,0.0,0.0,0.0,-0.0024653648612288984,0.0,0.0,0.0,0.0,0.0,0.0,-14.016,0.0,0.0,0.0
90,0.0,0.0,0.0,-0.004701171875,0.0,0.0,0.0,0.0,0.0,0.0,-0.001,0.0,0.0,0.0,0.0,0.0,0.0,-0.0030493695855963523,0.0,0.0,0.0,0.0,0.0,0.0,-13.904,0.0,0.0,0.0
91,0.0,0.0,0.0,-0.004701171875,0.0,0.0,0.0,0.0,0.0,0.0,-0.001,0.0,0.0,0.0,0.0,0.0,0.0,-0.003029104915187965,0.0,0.0,0.0,0.0,0.0,0.0,-13.904,0.0,0.0,0.0
92,0.0,0.0,0.0,-0.004701171875,0.0,0.0,0.0,0.0,0.0,0.0,-0.001,0.0,0.0,0.0,0.0,0.0,0.0,-0.00223552746273057,0.0,0.0,0.0,0.0,0.0,0.0,-13.812,0.0,0.0,0.0
93,0.0,0.0,0.0,-0.004701171875,0.0,0.0,0.0,0.0,0.0,0.0,-0.001,0.0,0.0,0.0,0.0,0.0,0.0,-0.0029397596429451903,0.0,0.0,0.0,0.0,0.0,0.0,-13.812,0.0,0.0,0.0
94,0.0,0.0,0.0,-0.004701171875,0.0,0.0,0.0,0.0,0.0,0.0,-0.001,0.0,0.0,0.0,0.0,0.0,0.0,-0.0025282926262254826,0.0,0.0,0.0,0.0,0.0,0.0,-13.88,0.0,0.0,0.0
95,0.0,0.0,0.0,-0.004701171875,0.0,0.0,0.0,0.0,0.0,0.0,-0.001,0.0,0.0,0.0,0.0,0.0,0.0,-0.003063303151581327,0.0,0.0,0.0,0.0,0.0,0.0,-13.88,0.0,0.0,0.0
96,0.0,0.0,0.0,-0.004701171875,0.0,0.0,0.0,0.0,0.0,0.0,-0.001,0.0,0.0,0.0,0.0,0.0,0.0,-0.0031115485965621317,0.0,0.0,0.0,0.0,0.0,0.0,-13.88,0.0,0.0,0.0
97,0.0,0.0,0.0,-0.004701171875,0.0,0.0,0.0,0.0,0.0,0.0,-0.001,0.0,0.0,0.0,0.0,0.0,0.0,-0.003058812074771107,0.0,0.0,0.0,0.0,0.0,0.0,-13.948,0.0,0.0,0.0
98,0.0,0.0,0.0,-0.004701171875,0.0,0.0,0.0,0.0,0.0,0.0,-0.001,0.0,0.0,0.0,0.0,0.0,0.0,-0.003246373396231607,0.0,0.0,0.0,0.0,0.0,0.0,-13.948,0.0,0.0,0.0
99,0.0,0.0,0.0,-0.004701171875,0.0,0.0,0.0,0.0,0.0,0.0,-0.001,0.0,0.0,0.0,0.0,0.0,0.0,-0.0032832249378386205,0.0,0.0,0.0,0.0,0.0,0.0,-13.948,0.0,0.0,0.0
100,0.0,0.0,0.0,-0.004701171875,0.0,0.0,0.0,0.0,0.0,0.0,-0.001,0.0,0.0,0.0,0.0,0.0,0.0,-0.003062025095293165,0.0,0.0,0.0,0.0,0.0,0.0,-13.996,0.0,0.0,0.0
101,0.0,0.0,0.0,-0.004701171875,0.0,0.0,0.0,0.0,0.0,0.0,-0.001,0.0,0.0,0.0,0.0,0.0,0.0,-0.0029388983351935974,0.0,0.0,0.0,0.0,0.0,0.0,-13.996,0.0,0.0,0.0
102,0.0,0.0,0.0,-0.004701171875,0.0,0.0,0.0,0.0,0.0,0.0,-0.001,0.0,0.0,0.0,0.0,0.0,0.0,-0.0020207126998187733,0.0,0.0,0.0,0.0,0.0,0.0,-14.04,0.0,0.0,0.0
103,0.0,0.0,0.0,-0.004701171875,0.0,0.0,0.0,0.0,0.0,0.0,-0.001,0.0,0.0,0.0,0.0,0.0,0.0,-0.0030570286061405508,0.0,0.0,0.0,0.0,0.0,0.0,-14.04,0.0,0.0,0.0
104,0.0,0.0,0.0,-0.004701171875,0.0,0.0,0.0,0.0,0.0,0.0,-0.001,0.0,0.0,0.0,0.0,0.0,0.0,-0.0030621866685307877,0.0,0.0,0.0,0.0,0.0,0.0,-14.016,0.0,0.0,0.0
105,0.0,0.0,0.0,-0.004701171875,0.0,0.0,0.0,0.0,0.0,0.0,-0.001,0.0,0.0,0.0,0.0,0.0,0.0,-0.0030229174984438348,0.0,0.0,0.0,0.0,0.0,0.0,-14.016,0.0,0.0,0.0
106,0.0,0.0,0.0,-0.004701171875,0.0,0.0,0.0,0.0,0.0,0.0,-0.001,0.0,0.0,0.0,0.0,0.0,0.0,-0.003341002533506339,0.0,0.0,0.0,0.0,0.0,0.0,-14.016,0.0,0.0,0.0
107,0.0,0.0,0.0,-0.004701171875,0.0,0.0,0.0,0.0,0.0,0.0,-0.001,0.0,0.0,0.0,0.0,0.0,0.0,-0.0030532447570930446,0.0,0.0,0.0,0.0,0.0,0.0,-14.084,0.0,0.0,0.0
108,0.0,0.0,0.0,-0.004701171875,0.0,0.0,0.0,0.0,0.0,0.0,-0.001,0.0,0.0,0.0,0.0,0.0,0.0,-0.003053223795079059,0.0,0.0,0.0,0.0,0.0,0.0,-14.084,0.0,0.0,0.0
109,0.0,0.0,0.0,-0.004701171875,0.0,0.0,0.0,0.0,0.0,0.0,-0.001,0.0,0.0,0.0,0.0,0.0,0.0,-0.002700437430875953,0.0,0.0,0.0,0.0,0.0,0.0,-14.04,0.0,0.0,0.0
110,0.0,0.0,0.0,-0.004701171875,0.0,0.0,0.0,0.0,0.0,0.0,-0.001,0.0,0.0,0.0,0.0,0.0,0.0,-0.003066614100702615,0.0,0.0,0.0,0.0,0.0,0.0,-14.04,0.0,0.0,0.0
111,0.0,0.0,0.0,-0.004701171875,0.0,0.0,0.0,0.0,0.0,0.0,-0.001,0.0,0.0,0.0,0.0,0.0,0.0,-0.003326833236139644,0.0,0.0,0.0,0.0,0.0,0.0,-14.04,0.0,0.0,0.0
112,0.0,0.0,0.0,-0.004701171875,0.0,0.0,0.0,0.0,0.0,0.0,-0.001,0.0,0.0,0.0,0.0,0.0,0.0,-0.003184896000034361,0.0,0.0,0.0,0.0,0.0,0.0,-13.996,0.0,0.0,0.0
113,0.0,0.0,0.0,-0.004701171875,0.0,0.0,0.0,0.0,0.0,0.0,-0.001,0.0,0.0,0.0,0.0,0.0,0.0,-0.00335776247583678,0.0,0.0,0.0,0.0,0.0,0.0,-13.996,0.0,0.0,0.0
114,0.0,0.0,0.0,-0.004701171875,0.0,0.0,0.0,0.0,0.0,0.0,-0.001,0.0,0.0,0.0,0.0,0.0,0.0,-0.0033858802505067134,0.0,0.0,0.0,0.0,0.0,0.0,-13.996,0.0,0.0,0.0
115,0.0,0.0,0.0,-0.004701171875,0.0,0.0,0.0,0.0,0.0,0.0,-0.001,0.0,0.0,0.0,0.0,0.0,0.0,-0.0031675032662250094,0.0,0.0,0.0,0.0,0.0,0.0,-13.996,0.0,0.0,0.0
116,0.0,0.0,0.0,-0.004701171875,0.0,0.0,0.0,0.0,0.0,0.0,-0.001,0.0,0.0,0.0,0.0,0.0,0.0,-0.0031257389752486556,0.0,0.0,0.0,0.0,0.0,0.0,-13.996,0.0,0.0,0.0
117,0.0,0.0,0.0,-0.004701171875,0.0,0.0,0.0,0.0,0.0,0.0,-0.001,0.0,0.0,0.0,0.0,0.0,0.0,-0.0031382993001419293,0.0,0.0,0.0,0.0,0.0,0.0,-13.996,0.0,0.0,0.0
118,0.0,0.0,0.0,-0.004701171875,0.0,0.0,0.0,0.0,0.0,0.0,-0.001,0.0,0.0,0.0,0.0,0.0,0.0,-0.0028772355956653076,0.0,0.0,0.0,0.0,0.0,0.0,-13.972,0.0,0.0,0.0
119,0.0,0.0,0.0,-0.004701171875,0.0,0.0,0.0,0.0,0.0,0.0,-0.001,0.0,0.0,0.0,0.0,0.0,0.0,-0.0033196744970576744,0.0,0.0,0.0,0.0,0.0,0.0,-13.972,0.0,0.0,0.0
120,0.0,0.0,0.0,-0.004701171875,0.0,0.0,0.0,0.0,0.0,0.0,-0.001,0.0,0.0,0.0,0.0,0.0,0.0,-0.003119436649247749,0.0,0.0,0.0,0.0,0.0,0.0,-14.064,0.0,0.0,0.0
121,0.0,0.0,0.0,-0.004701171875,0.0,0.0,0.0,0.0,0.0,0.0,-0.001,0.0,0.0,0.0,0.0,0.0,0.0,-0.00333421565118789,0.0,0.0,0.0,0.0,0.0,0.0,-14.064,0.0,0.0,0.0
122,0.0,0.0,0.0,-0.004701171875,0.0,0.0,0.0,0.0,0.0,0.0,-0.001,0.0,0.0,0.0,0.0,0.0,0.0,-0.003382212126444857,0.0,0.0,0.0,0.0,0.0,0.0,-14.064,0.0,0.0,0.0
123,0.0,0.0,0.0,-0.004701171875,0.0,0.0,0.0,0.0,0.0,0.0,-0.001,0.0,0.0,0.0,0.0,0.0,0.0,-0.002989121324130102,0.0,0.0,0.0,0.0,0.0,0.0,-14.016,0.0,0.0,0.0
124,0.0,0.0,0.0,-0.004701171875,0.0,0.0,0.0,0.0,0.0,0.0,-0.001,0.0,0.0,0.0,0.0,0.0,0.0,-0.003359017538001781,0.0,0.0,0.0,0.0,0.0,0.0,-14.016,0.0,0.0,0.0
125,0.0,0.0,0.0,-0.004701171875,0.0,0.0,0.0,0.0,0.0,0.0,-0.001,0.0,0.0,0.0,0.0,0.0,0.0,-0.0033669285594799883,0.0,0.0,0.0,0.0,0.0,0.0,-14.016,0.0,0.0,0.0
126,0.0,0.0,0.0,-0.004701171875,0.0,0.0,0.0,0.0,0.0,0.0,-0.001,0.0,0.0,0.0,0.0,0.0,0.0,-0.0029189788709104506,0.0,0.0,0.0,0.0,0.0,0.0,-14.016,0.0,0.0,0.0
127,0.0,0.0,0.0,-0.004701171875,0.0,0.0,0.0,0.0,0.0,0.0,-0.001,0.0,0.0,0.0,0.0,0.0,0.0,-0.00336739659239408,0.0,0.0,0.0,0.0,0.0,0.0,-14.016,0.0,0.0,0.0
128,0.0,0.0,0.0,-0.004701171875,0.0,0.0,0.0,0.0,0.0,0.0,-0.001,0.0,0.0,0.0,0.0,0.0,0.0,-0.0030465817739860138,0.0,0.0,0.0,0.0,0.0,0.0,-13.972,0.0,0.0,0.0
129,0.0,0.0,0.0,-0.004701171875,0.0,0.0,0.0,0.0,0.0,0.0,-0.001,0.0,0.0,0.0,0.0,0.0,0.0,-0.003324757250194023,0.0,0.0,0.0,0.0,0.0,0.0,-13.972,0.0,0.0,0.0
130,0.0,0.0,0.0,-0.004701171875,0.0,0.0,0.0,0.0,0.0,0.0,-0.001,0.0,0.0,0.0,0.0,0.0,0.0,-0.003243818094031327,0.0,0.0,0.0,0.0,0.0,0.0,-13.972,0.0,0.0,0.0
131,0.0,0.0,0.0,-0.004701171875,0.0,0.0,0.0,0.0,0.0,0.0,-0.001,0.0,0.0,0.0,0.0,0.0,0.0,-0.003265243434147115,0.0,0.0,0.0,0.0,0.0,0.0,-13.948,0.0,0.0,0.0
132,0.0,0.0,0.0,-0.004701171875,0.0,0.0,0.0,0.0,0.0,0.0,-0.001,0.0,0.0,0.0,0.0,0.0,0.0,-0.003401912816550702,0.0,0.0,0.0,0.0,0.0,0.0,-13.948,0.0,0.0,0.0
133,0.0,0.0,0.0,-0.004701171875,0.0,0.0,0.0,0.0,0.0,0.0,-0.001,0.0,0.0,0.0,0.0,0.0,0.0,-0.0034121862802754047,0.0,0.0,0.0,0.0,0.0,0.0,-13.948,0.0,0.0,0.0
134,0.0,0.0,0.0,-0.004701171875,0.0,0.0,0.0,0.0,0.0,0.0,-0.001,0.0,0.0,0.0,0.0,0.0,0.0,-0.002805004237852911,0.0,0.0,0.0,0.0,0.0,0.0,-13.948,0.0,0.0,0.0
135,0.0,0.0,0.0,-0.004701171875,0.0,0.0,0.0,0.0,0.0,0.0,-0.001,0.0,0.0,0.0,0.0,0.0,0.0,-0.002748177691985744,0.0,0.0,0.0,0.0,0.0,0.0,-13.948,0.0,0.0,0.0
136,0.0,0.0,0.0,-0.004701171875,0.0,0.0,0.0,0.0,0.0,0.0,-0.001,0.0,0.0,0.0,0.0,0.0,0.0,-0.0029771575160761968,0.0,0.0,0.0,0.0,0.0,0.0,-13.948,0.0,0.0,0.0
137,0.0,0.0,0.0,-0.004701171875,0.0,0.0,0.0,0.0,0.0,0.0,-0.001,0.0,0.0,0.0,0.0,0.0,0.0,-0.0033677610811223904,0.0,0.0,0.0,0.0,0.0,0.0,-13.948,0.0,0.0,0.0
138,0.0,0.0,0.0,-0.004701171875,0.0,0.0,0.0,0.0,0.0,0.0,-0.001,0.0,0.0,0.0,0.0,0.0,0.0,-0.003389385249464978,0.0,0.0,0.0,0.0,0.0,0.0,-13.948,0.0,0.0,0.0
139,0.0,0.0,0.0,-0.004701171875,0.0,0.0,0.0,0.0,0.0,0.0,-0.001,0.0,0.0,0.0,0.0,0.0,0.0,-0.003138980526726738,0.0,0.0,0.0,0.0,0.0,0.0,-13.996,0.0,0.0,0.0
140,0.0,0.0,0.0,-0.004701171875,0.0,0.0,0.0,0.0,0.0,0.0,-0.001,0.0,0.0,0.0,0.0,0.0,0.0,-0.0032919075914393317,0.0,0.0,0.0,0.0,0.0,0.0,-13.996,0.0,0.0,0.0
141,0.0,0.0,0.0,-0.004701171875,0.0,0.0,0.0,0.0,0.0,0.0,-0.001,0.0,0.0,0.0,0.0,0.0,0.0,-0.0031460197407640403,0.0,0.0,0.0,0.0,0.0,0.0,-13.948,0.0,0.0,0.0
142,0.0,0.0,0.0,-0.004701171875,0.0,0.0,0.0,0.0,0.0,0.0,-0.001,0.0,0.0,0.0,0.0,0.0,0.0,-0.0029463507832414373,0.0,0.0,0.0,0.0,0.0,0.0,-13.948,0.0,0.0,0.0
143,0.0,0.0,0.0,-0.004701171875,0.0,0.0,0.0,0.0,0.0,0.0,-0.001,0.0,0.0,0.0,0.0,0.0,0.0,-0.0030513391112928293,0.0,0.0,0.0,0.0,0.0,0.0,-13.88,0.0,0.0,0.0
144,0.0,0.0,0.0,-0.004701171875,0.0,0.0,0.0,0.0,0.0,0.0,-0.001,0.0,0.0,0.0,0.0,0.0,0.0,-0.0033305704481440337,0.0,0.0,0.0,0.0,0.0,0.0,-13.88,0.0,0.0,0.0
145,0.0,0.0,0.0,-0.004701171875,0.0,0.0,0.0,0.0,0.0,0.0,-0.001,0.0,0.0,0.0,0.0,0.0,0.0,-0.003249534582610826,0.0,0.0,0.0,0.0,0.0,0.0,-13.88,0.0,0.0,0.0
146,0.0,0.0,0.0,-0.004701171875,0.0,0.0,0.0,0.0,0.0,0.0,-0.001,0.0,0.0,0.0,0.0,0.0,0.0,-0.0033216999257182148,0.0,0.0,0.0,0.0,0.0,0.0,-13.948,0.0,0.0,0.0
147,0.0,0.0,0.0,-0.004701171875,0.0,0.0,0.0,0.0,0.0,0.0,-0.001,0.0,0.0,0.0,0.0,0.0,0.0,-0.0034563237496222157,0.0,0.0,0.0,0.0,0.0,0.0,-13.948,0.0,0.0,0.0
148,0.0,0.0,0.0,-0.004701171875,0.0,0.0,0.0,0.0,0.0,0.0,-0.001,0.0,0.0,0.0,0.0,0.0,0.0,-0.0034990273388304863,0.0,0.0,0.0,0.0,0.0,0.0,-13.948,0.0,0.0,0.0
149,0.0,0.0,0.0,-0.004701171875,0.0,0.0,0.0,0.0,0.0,0.0,-0.001,0.0,0.0,0.0,0.0,0.0,0.0,-0.003201300043637202,0.0,0.0,0.0,0.0,0.0,0.0,-13.972,0.0,0.0,0.0
150,0.0,0.0,0.0,-0.004701171875,0.0,0.0,0.0,0.0,0.0,0.0,-0.001,0.0,0.0,0.0,0.0,0.0,0.0,-0.0028913636166740045,0.0,0.0,0.0,0.0,0.0,0.0,-13.972,0.0,0.0,0.0
151,0.0,0.0,0.0,-0.004701171875,0.0,0.0,0.0,0.0,0.0,0.0,-0.001,0.0,0.0,0.0,0.0,0.0,0.0,-0.003421315941797877,0.0,0.0,0.0,0.0,0.0,0.0,-13.996,0.0,0.0,0.0
152,0.0,0.0,0.0,-0.004701171875,0.0,0.0,0.0,0.0,0.0,0.0,-0.001,0.0,0.0,0.0,0.0,0.0,0.0,-0.003471207188185922,0.0,0.0,0.0,0.0,0.0,0.0,-13.996,0.0,0.0,0.0
153,0.0,0.0,0.0,-0.004701171875,0.0,0.0,0.0,0.0,0.0,0.0,-0.001,0.0,0.0,0.0,0.0,0.0,0.0,-0.003447687769880116,0.0,0.0,0.0,0.0,0.0,0.0,-13.996,0.0,0.0,0.0
154,0.0,0.0,0.0,-0.004701171875,0.0,0.0,0.0,0.0,0.0,0.0,-0.001,0.0,0.0,0.0,0.0,0.0,0.0,-0.00334429572184939,0.0,0.0,0.0,0.0,0.0,0.0,-13.924,0.0,0.0,0.0
155,0.0,0.0,0.0,-0.004701171875,0.0,0.0,0.0,0.0,0.0,0.0,-0.001,0.0,0.0,0.0,0.0,0.0,0.0,-0.00336253296494924,0.0,0.0,0.0,0.0,0.0,0.0,-13.924,0.0,0.0,0.0
156,0.0,0.0,0.0,-0.004701171875,0.0,0.0,0.0,0.0,0.0,0.0,-0.001,0.0,0.0,0.0,0.0,0.0,0.0,-0.003418795830826639,0.0,0.0,0.0,0.0,0.0,0.0,-13.924,0.0,0.0,0.0
157,0.0,0.0,0.0,-0.004701171875,0.0,0.0,0.0,0.0,0.0,0.0,-0.001,0.0,0.0,0.0,0.0,0.0,0.0,-0.003411706075954292,0.0,0.0,0.0,0.0,0.0,0.0,-13.856,0.0,0.0,0.0
158,0.0,0.0,0.0,-0.004701171875,0.0,0.0,0.0,0.0,0.0,0.0,-0.001,0.0,0.0,0.0,0.0,0.0,0.0,-0.0029737739904444407,0.0,0.0,0.0,0.0,0.0,0.0,-13.856,0.0,0.0,0.0
159,0.0,0.0,0.0,-0.004701171875,0.0,0.0,0.0,0.0,0.0,0.0,-0.001,0.0,0.0,0.0,0.0,0.0,0.0,-0.0031970705528862955,0.0,0.0,0.0,0.0,0.0,0.0,-14.04,0.0,0.0,0.0
160,0.0,0.0,0.0,-0.004701171875,0.0,0.0,0.0,0.0,0.0,0.0,-0.001,0.0,0.0,0.0,0.0,0.0,0.0,-0.003449584693196152,0.0,0.0,0.0,0.0,0.0,0.0,-14.04,0.0,0.0,0.0
161,0.0,0.0,0.0,-0.004701171875,0.0,0.0,0.0,0.0,0.0,0.0,-0.001,0.0,0.0,0.0,0.0,0.0,0.0,-0.00286293151577819,0.0,0.0,0.0,0.0,0.0,0.0,-13.996,0.0,0.0,0.0
162,0.0,0.0,0.0,-0.004701171875,0.0,0.0,0.0,0.0,0.0,0.0,-0.001,0.0,0.0,0.0,0.0,0.0,0.0,-0.003491501666354792,0.0,0.0,0.0,0.0,0.0,0.0,-13.996,0.0,0.0,0.0
163,0.0,0.0,0.0,-0.004701171875,0.0,0.0,0.0,0.0,0.0,0.0,-0.001,0.0,0.0,0.0,0.0,0.0,0.0,-0.0031502212524358933,0.0,0.0,0.0,0.0,0.0,0.0,-13.996,0.0,0.0,0.0
164,0.0,0.0,0.0,-0.004701171875,0.0,0.0,0.0,0.0,0.0,0.0,-0.001,0.0,0.0,0.0,0.0,0.0,0.0,-0.0032865078349347612,0.0,0.0,0.0,0.0,0.0,0.0,-14.04,0.0,0.0,0.0
165,0.0,0.0,0.0,-0.004701171875,0.0,0.0,0.0,0.0,0.0,0.0,-0.001,0.0,0.0,0.0,0.0,0.0,0.0,-0.003402212889728841,0.0,0.0,0.0,0.0,0.0,0.0,-14.04,0.0,0.0,0.0
166,0.0,0.0,0.0,-0.004701171875,0.0,0.0,0.0,0.0,0.0,0.0,-0.001,0.0,0.0,0.0,0.0,0.0,0.0,-0.003494357938071936,0.0,0.0,0.0,0.0,0.0,0.0,-14.04,0.0,0.0,0.0
167,0.0,0.0,0.0,-0.004701171875,0.0,0.0,0.0,0.0,0.0,0.0,-0.001,0.0,0.0,0.0,0.0,0.0,0.0,-0.003466913971800635,0.0,0.0,0.0,0.0,0.0,0.0,-14.064,0.0,0.0,0.0
168,0.0,0.0,0.0,-0.004701171875,0.0,0.0,0.0,0.0,0.0,0.0,-0.001,0.0,0.0,0.0,0.0,0.0,0.0,-0.0032103699719461046,0.0,0.0,0.0,0.0,0.0,0.0,-14.064,0.0,0.0,0.0
169,0.0,0.0,0.0,-0.004701171875,0.0,0.0,0.0,0.0,0.0,0.0,-0.001,0.0,0.0,0.0,0.0,0.0,0.0,-0.0034021129861866797,0.0,0.0,0.0,0.0,0.0,0.0,-13.948,0.0,0.0,0.0
170,0.0,0.0,0.0,-0.004701171875,0.0,0.0,0.0,0.0,0.0,0.0,-0.001,0.0,0.0,0.0,0.0,0.0,0.0,-0.0035990661235657875,0.0,0.0,0.0,0.0,0.0,0.0,-13.948,0.0,0.0,0.0
171,0.0,0.0,0.0,-0.004701171875,0.0,0.0,0.0,0.0,0.0,0.0,-0.001,0.0,0.0,0.0,0.0,0.0,0.0,-0.0035909893546980723,0.0,0.0,0.0,0.0,0.0,0.0,-13.948,0.0,0.0,0.0
172,0.0,0.0,0.0,-0.004701171875,0.0,0.0,0.0,0.0,0.0,0.0,-0.001,0.0,0.0,0.0,0.0,0.0,0.0,-0.0034891695507828016,0.0,0.0,0.0,0.0,0.0,0.0,-13.972,0.0,0.0,0.0
173,0.0,0.0,0.0,-0.004701171875,0.0,0.0,0.0,0.0,0.0,0.0,-0.001,0.0,0.0,0.0,0.0,0.0,0.0,-0.0033115345747093197,0.0,0.0,0.0,0.0,0.0,0.0,-13.972,0.0,0.0,0.0
174,0.0,0.0,0.0,-0.004701171875,0.0,0.0,0.0,0.0,0.0,0.0,-0.001,0.0,0.0,0.0,0.0,0.0,0.0,-0.003156222471932958,0.0,0.0,0.0,0.0,0.0,0.0,-14.016,0.0,0.0,0.0
175,0.0,0.0,0.0,-0.004701171875,0.0,0.0,0.0,0.0,0.0,0.0,-0.001,0.0,0.0,0.0,0.0,0.0,0.0,-0.0034640388512587675,0.0,0.0,0.0,0.0,0.0,0.0,-14.016,0.0,0.0,0.0
176,0.0,0.0,0.0,-0.004701171875,0.0,0.0,0.0,0.0,0.0,0.0,-0.001,0.0,0.0,0.0,0.0,0.0,0.0,-0.0034513826517607385,0.0,0.0,0.0,0.0,0.0,0.0,-14.016,0.0,0.0,0.0
177,0.0,0.0,0.0,-0.004701171875,0.0,0.0,0.0,0.0,0.0,0.0,-0.001,0.0,0.0,0.0,0.0,0.0,0.0,-0.0034488877332525605,0.0,0.0,0.0,0.0,0.0,0.0,-13.924,0.0,0.0,0.0
178,0.0,0.0,0.0,-0.004701171875,0.0,0.0,0.0,0.0,0.0,0.0,-0.001,0.0,0.0,0.0,0.0,0.0,0.0,-0.0035778074768111692,0.0,0.0,0.0,0.0,0.0,0.0,-13.924,0.0,0.0,0.0
179,0.0,0.0,0.0,-0.004701171875,0.0,0.0,0.0,0.0,0.0,0.0,-0.001,0.0,0.0,0.0,0.0,0.0,0.0,-0.0036592884700395803,0.0,0.0,0.0,0.0,0.0,0.0,-13.924,0.0,0.0,0.0
180,0.0,0.0,0.0,-0.004701171875,0.0,0.0,0.0,0.0,0.0,0.0,-0.001,0.0,0.0,0.0,0.0,0.0,0.0,-0.0034292590175441853,0.0,0.0,0.0,0.0,0.0,0.0,-14.084,0.0,0.0,0.0
181,0.0,0.0,0.0,-0.004701171875,0.0,0.0,0.0,0.0,0.0,0.0,-0.001,0.0,0.0,0.0,0.0,0.0,0.0,-0.003177489045162775,0.0,0.0,0.0,0.0,0.0,0.0,-14.084,0.0,0.0,0.0
182,0.0,0.0,0.0,-0.004701171875,0.0,0.0,0.0,0.0,0.0,0.0,-0.001,0.0,0.0,0.0,0.0,0.0,0.0,-0.0034705805603941556,0.0,0.0,0.0,0.0,0.0,0.0,-13.88,0.0,0.0,0.0
183,0.0,0.0,0.0,-0.004701171875,0.0,0.0,0.0,0.0,0.0,0.0,-0.001,0.0,0.0,0.0,0.0,0.0,0.0,-0.0036688214175037773,0.0,0.0,0.0,0.0,0.0,0.0,-13.88,0.0,0.0,0.0
184,0.0,0.0,0.0,-0.004701171875,0.0,0.0,0.0,0.0,0.0,0.0,-0.001,0.0,0.0,0.0,0.0,0.0,0.0,-0.0036758024977839657,0.0,0.0,0.0,0.0,0.0,0.0,-13.88,0.0,0.0,0.0
185,0.0,0.0,0.0,-0.004701171875,0.0,0.0,0.0,0.0,0.0,0.0,-0.001,0.0,0.0,0.0,0.0,0.0,0.0,-0.003293741972857679,0.0,0.0,0.0,0.0,0.0,0.0,-14.016,0.0,0.0,0.0
186,0.0,0.0,0.0,-0.004701171875,0.0,0.0,0.0,0.0,0.0,0.0,-0.001,0.0,0.0,0.0,0.0,0.0,0.0,-0.003674697497935843,0.0,0.0,0.0,0.0,0.0,0.0,-14.016,0.0,0.0,0.0
187,0.0,0.0,0.0,-0.004701171875,0.0,0.0,0.0,0.0,0.0,0.0,-0.001,0.0,0.0,0.0,0.0,0.0,0.0,-0.0036016436919621767,0.0,0.0,0.0,0.0,0.0,0.0,-13.948,0.0,0.0,0.0
188,0.0,0.0,0.0,-0.004701171875,0.0,0.0,0.0,0.0,0.0,0.0,-0.001,0.0,0.0,0.0,0.0,0.0,0.0,-0.0036278761425060715,0.0,0.0,0.0,0.0,0.0,0.0,-13.948,0.0,0.0,0.0
189,0.0,0.0,0.0,-0.004701171875,0.0,0.0,0.0,0.0,0.0,0.0,-0.001,0.0,0.0,0.0,0.0,0.0,0.0,-0.0032277829593502574,0.0,0.0,0.0,0.0,0.0,0.0,-13.948,0.0,0.0,0.0
190,0.0,0.0,0.0,-0.004701171875,0.0,0.0,0.0,0.0,0.0,0.0,-0.001,0.0,0.0,0.0,0.0,0.0,0.0,-0.0035045579905479754,0.0,0.0,0.0,0.0,0.0,0.0,-13.948,0.0,0.0,0.0
191,0.0,0.0,0.0,-0.004701171875,0.0,0.0,0.0,0.0,0.0,0.0,-0.001,0.0,0.0,0.0,0.0,0.0,0.0,-0.003641919759493163,0.0,0.0,0.0,0.0,0.0,0.0,-13.948,0.0,0.0,0.0
192,0.0,0.0,0.0,-0.004701171875,0.0,0.0,0.0,0.0,0.0,0.0,-0.001,0.0,0.0,0.0,0.0,0.0,0.0,-0.0035665619449294153,0.0,0.0,0.0,0.0,0.0,0.0,-13.904,0.0,0.0,0.0
193,0.0,0.0,0.0,-0.004701171875,0.0,0.0,0.0,0.0,0.0,0.0,-0.001,0.0,0.0,0.0,0.0,0.0,0.0,-0.0036427827409745497,0.0,0.0,0.0,0.0,0.0,0.0,-13.904,0.0,0.0,0.0
194,0.0,0.0,0.0,-0.004701171875,0.0,0.0,0.0,0.0,0.0,0.0,-0.001,0.0,0.0,0.0,0.0,0.0,0.0,-0.0035953956211102547,0.0,0.0,0.0,0.0,0.0,0.0,-13.904,0.0,0.0,0.0
195,0.0,0.0,0.0,-0.004701171875,0.0,0.0,0.0,0.0,0.0,0.0,-0.001,0.0,0.0,0.0,0.0,0.0,0.0,-0.003680822935466989,0.0,0.0,0.0,0.0,0.0,0.0,-13.924,0.0,0.0,0.0
196,0.0,0.0,0.0,-0.004701171875,0.0,0.0,0.0,0.0,0.0,0.0,-0.001,0.0,0.0,0.0,0.0,0.0,0.0,-0.0037599001693992898,0.0,0.0,0.0,0.0,0.0,0.0,-13.924,0.0,0.0,0.0
197,0.0,0.0,0.0,-0.004701171875,0.0,0.0,0.0,0.0,0.0,0.0,-0.001,0.0,0.0,0.0,0.0,0.0,0.0,-0.0033834333442897893,0.0,0.0,0.0,0.0,0.0,0.0,-13.924,0.0,0.0,0.0
198,0.0,0.0,0.0,-0.004701171875,0.0,0.0,0.0,0.0,0.0,0.0,-0.001,0.0,0.0,0.0,0.0,0.0,0.0,-0.003496259536510872,0.0,0.0,0.0,0.0,0.0,0.0,-13.836,0.0,0.0,0.0
199,0.0,0.0,0.0,-0.004701171875,0.0,0.0,0.0,0.0,0.0,0.0,-0.001,0.0,0.0,0.0,0.0,0.0,0.0,-0.0038344356113538605,0.0,0.0,0.0,0.0,0.0,0.0,-13.836,0.0,0.0,0.0
200,0.0,0.0,0.0,-0.004701171875,0.0,0.0,0.0,0.0,0.0,0.0,-0.001,0.0,0.0,0.0,0.0,0.0,0.0,-0.0037254231195019485,0.0,0.0,0.0,0.0,0.0,0.0,-13.904,0.0,0.0,0.0
201,0.0,0.0,0.0,-0.004701171875,0.0,0.0,0.0,0.0,0.0,0.0,-0.001,0.0,0.0,0.0,0.0,0.0,0.0,-0.0036022105106005356,0.0,0.0,0.0,0.0,0.0,0.0,-13.904,0.0,0.0,0.0
202,0.0,0.0,0.0,-0.004701171875,0.0,0.0,0.0,0.0,0.0,0.0,-0.001,0.0,0.0,0.0,0.0,0.0,0.0,-0.003663927946929914,0.0,0.0,0.0,0.0,0.0,0.0,-13.904,0.0,0.0,0.0
203,0.0,0.0,0.0,-0.004701171875,0.0,0.0,0.0,0.0,0.0,0.0,-0.001,0.0,0.0,0.0,0.0,0.0,0.0,-0.003587682958479034,0.0,0.0,0.0,0.0,0.0,0.0,-13.856,0.0,0.0,0.0
204,0.0,0.0,0.0,-0.004701171875,0.0,0.0,0.0,0.0,0.0,0.0,-0.001,0.0,0.0,0.0,0.0,0.0,0.0,-0.0035678341850768694,0.0,0.0,0.0,0.0,0.0,0.0,-13.856,0.0,0.0,0.0
205,0.0,0.0,0.0,-0.004701171875,0.0,0.0,0.0,0.0,0.0,0.0,-0.001,0.0,0.0,0.0,0.0,0.0,0.0,-0.0033467675968622337,0.0,0.0,0.0,0.0,0.0,0.0,-14.04,0.0,0.0,0.0
206,0.0,0.0,0.0,-0.004701171875,0.0,0.0,0.0,0.0,0.0,0.0,-0.001,0.0,0.0,0.0,0.0,0.0,0.0,-0.003696662308016331,0.0,0.0,0.0,0.0,0.0,0.0,-14.04,0.0,0.0,0.0
207,0.0,0.0,0.0,-0.004701171875,0.0,0.0,0.0,0.0,0.0,0.0,-0.001,0.0,0.0,0.0,0.0,0.0,0.0,-0.0037292918654441634,0.0,0.0,0.0,0.0,0.0,0.0,-14.04,0.0,0.0,0.0
208,0.0,0.0,0.0,-0.004701171875,0.0,0.0,0.0,0.0,0.0,0.0,-0.001,0.0,0.0,0.0,0.0,0.0,0.0,-0.003648131845860582,0.0,0.0,0.0,0.0,0.0,0.0,-13.88,0.0,0.0,0.0
209,0.0,0.0,0.0,-0.004701171875,0.0,0.0,0.0,0.0,0.0,0.0,-0.001,0.0,0.0,0.0,0.0,0.0,0.0,-0.0032690934506632643,0.0,0.0,0.0,0.0,0.0,0.0,-13.88,0.0,0.0,0.0
210,0.0,0.0,0.0,-0.004701171875,0.0,0.0,0.0,0.0,0.0,0.0,-0.001,0.0,0.0,0.0,0.0,0.0,0.0,-0.003369242997942591,0.0,0.0,0.0,0.0,0.0,0.0,-13.996,0.0,0.0,0.0
211,0.0,0.0,0.0,-0.004701171875,0.0,0.0,0.0,0.0,0.0,0.0,-0.001,0.0,0.0,0.0,0.0,0.0,0.0,-0.003422350458905578,0.0,0.0,0.0,0.0,0.0,0.0,-13.996,0.0,0.0,0.0
212,0.0,0.0,0.0,-0.004701171875,0.0,0.0,0.0,0.0,0.0,0.0,-0.001,0.0,0.0,0.0,0.0,0.0,0.0,-0.0036562439230200874,0.0,0.0,0.0,0.0,0.0,0.0,-13.972,0.0,0.0,0.0
213,0.0,0.0,0.0,-0.004701171875,0.0,0.0,0.0,0.0,0.0,0.0,-0.001,0.0,0.0,0.0,0.0,0.0,0.0,-0.003655725584436588,0.0,0.0,0.0,0.0,0.0,0.0,-13.972,0.0,0.0,0.0
214,0.0,0.0,0.0,-0.004701171875,0.0,0.0,0.0,0.0,0.0,0.0,-0.001,0.0,0.0,0.0,0.0,0.0,0.0,-0.0038305512486188423,0.0,0.0,0.0,0.0,0.0,0.0,-13.88,0.0,0.0,0.0
215,0.0,0.0,0.0,-0.004701171875,0.0,0.0,0.0,0.0,0.0,0.0,-0.001,0.0,0.0,0.0,0.0,0.0,0.0,-0.0038582433423752574,0.0,0.0,0.0,0.0,0.0,0.0,-13.88,0.0,0.0,0.0
216,0.0,0.0,0.0,-0.004701171875,0.0,0.0,0.0,0.0,0.0,0.0,-0.001,0.0,0.0,0.0,0.0,0.0,0.0,-0.003851468703084872,0.0,0.0,0.0,0.0,0.0,0.0,-13.88,0.0,0.0,0.0
217,0.0,0.0,0.0,-0.004701171875,0.0,0.0,0.0,0.0,0.0,0.0,-0.001,0.0,0.0,0.0,0.0,0.0,0.0,-0.0037992622745814733,0.0,0.0,0.0,0.0,0.0,0.0,-13.904,0.0,0.0,0.0
218,0.0,0.0,0.0,-0.004701171875,0.0,0.0,0.0,0.0,0.0,0.0,-0.001,0.0,0.0,0.0,0.0,0.0,0.0,-0.0038525747609047603,0.0,0.0,0.0,0.0,0.0,0.0,-13.904,0.0,0.0,0.0
219,0.0,0.0,0.0,-0.004701171875,0.0,0.0,0.0,0.0,0.0,0.0,-0.001,0.0,0.0,0.0,0.0,0.0,0.0,-0.0037968130012972848,0.0,0.0,0.0,0.0,0.0,0.0,-13.904,0.0,0.0,0.0
220,0.0,0.0,0.0,-0.004701171875,0.0,0.0,0.0,0.0,0.0,0.0,-0.001,0.0,0.0,0.0,0.0,0.0,0.0,-0.0036483980135770047,0.0,0.0,0.0,0.0,0.0,0.0,-13.924,0.0,0.0,0.0
221,0.0,0.0,0.0,-0.004701171875,0.0,0.0,0.0,0.0,0.0,0.0,-0.001,0.0,0.0,0.0,0.0,0.0,0.0,-0.00382440866370979,0.0,0.0,0.0,0.0,0.0,0.0,-13.924,0.0,0.0,0.0
222,0.0,0.0,0.0,-0.004701171875,0.0,0.0,0.0,0.0,0.0,0.0,-0.001,0.0,0.0,0.0,0.0,0.0,0.0,-0.0034708122062256166,0.0,0.0,0.0,0.0,0.0,0.0,-13.924,0.0,0.0,0.0
223,0.0,0.0,0.0,-0.004701171875,0.0,0.0,0.0,0.0,0.0,0.0,-0.001,0.0,0.0,0.0,0.0,0.0,0.0,-0.003888151549606346,0.0,0.0,0.0,0.0,0.0,0.0,-13.924,0.0,0.0,0.0
224,0.0,0.0,0.0,-0.004701171875,0.0,0.0,0.0,0.0,0.0,0.0,-0.001,0.0,0.0,0.0,0.0,0.0,0.0,-0.0038503755648760865,0.0,0.0,0.0,0.0,0.0,0.0,-13.924,0.0,0.0,0.0
225,0.0,0.0,0.0,-0.004701171875,0.0,0.0,0.0,0.0,0.0,0.0,-0.001,0.0,0.0,0.0,0.0,0.0,0.0,-0.0037885626627225735,0.0,0.0,0.0,0.0,0.0,0.0,-13.996,0.0,0.0,0.0
226,0.0,0.0,0.0,-0.004701171875,0.0,0.0,0.0,0.0,0.0,0.0,-0.001,0.0,0.0,0.0,0.0,0.0,0.0,-0.0036210527621548874,0.0,0.0,0.0,0.0,0.0,0.0,-13.996,0.0,0.0,0.0
227,0.0,0.0,0.0,-0.004701171875,0.0,0.0,0.0,0.0,0.0,0.0,-0.001,0.0,0.0,0.0,0.0,0.0,0.0,-0.003352365841783868,0.0,0.0,0.0,0.0,0.0,0.0,-13.996,0.0,0.0,0.0
228,0.0,0.0,0.0,-0.004701171875,0.0,0.0,0.0,0.0,0.0,0.0,-0.001,0.0,0.0,0.0,0.0,0.0,0.0,-0.003961348210557027,0.0,0.0,0.0,0.0,0.0,0.0,-13.996,0.0,0.0,0.0
229,0.0,0.0,0.0,-0.004701171875,0.0,0.0,0.0,0.0,0.0,0.0,-0.001,0.0,0.0,0.0,0.0,0.0,0.0,-0.0038020526994824513,0.0,0.0,0.0,0.0,0.0,0.0,-14.064,0.0,0.0,0.0
230,0.0,0.0,0.0,-0.004701171875,0.0,0.0,0.0,0.0,0.0,0.0,-0.001,0.0,0.0,0.0,0.0,0.0,0.0,-0.003882106626432326,0.0,0.0,0.0,0.0,0.0,0.0,-14.064,0.0,0.0,0.0
231,0.0,0.0,0.0,-0.004701171875,0.0,0.0,0.0,0.0,0.0,0.0,-0.001,0.0,0.0,0.0,0.0,0.0,0.0,-0.00387974298168884,0.0,0.0,0.0,0.0,0.0,0.0,-14.064,0.0,0.0,0.0
232,0.0,0.0,0.0,-0.004701171875,0.0,0.0,0.0,0.0,0.0,0.0,-0.001,0.0,0.0,0.0,0.0,0.0,0.0,-0.0038452832017665042,0.0,0.0,0.0,0.0,0.0,0.0,-13.996,0.0,0.0,0.0
233,0.0,0.0,0.0,-0.004701171875,0.0,0.0,0.0,0.0,0.0,0.0,-0.001,0.0,0.0,0.0,0.0,0.0,0.0,-0.003923663803573764,0.0,0.0,0.0,0.0,0.0,0.0,-13.996,0.0,0.0,0.0
234,0.0,0.0,0.0,-0.004701171875,0.0,0.0,0.0,0.0,0.0,0.0,-0.001,0.0,0.0,0.0,0.0,0.0,0.0,-0.003342926594478747,0.0,0.0,0.0,0.0,0.0,0.0,-13.948,0.0,0.0,0.0
235,0.0,0.0,0.0,-0.004701171875,0.0,0.0,0.0,0.0,0.0,0.0,-0.001,0.0,0.0,0.0,0.0,0.0,0.0,-0.00389276816637716,0.0,0.0,0.0,0.0,0.0,0.0,-13.948,0.0,0.0,0.0
236,0.0,0.0,0.0,-0.004701171875,0.0,0.0,0.0,0.0,0.0,0.0,-0.001,0.0,0.0,0.0,0.0,0.0,0.0,-0.003937733655064314,0.0,0.0,0.0,0.0,0.0,0.0,-13.972,0.0,0.0,0.0
237,0.0,0.0,0.0,-0.004701171875,0.0,0.0,0.0,0.0,0.0,0.0,-0.001,0.0,0.0,0.0,0.0,0.0,0.0,-0.003939019243560583,0.0,0.0,0.0,0.0,0.0,0.0,-13.972,0.0,0.0,0.0
238,0.0,0.0,0.0,-0.004701171875,0.0,0.0,0.0,0.0,0.0,0.0,-0.001,0.0,0.0,0.0,0.0,0.0,0.0,-0.003983162115780849,0.0,0.0,0.0,0.0,0.0,0.0,-13.972,0.0,0.0,0.0
239,0.0,0.0,0.0,-0.004701171875,0.0,0.0,0.0,0.0,0.0,0.0,-0.001,0.0,0.0,0.0,0.0,0.0,0.0,-0.003926820990468795,0.0,0.0,0.0,0.0,0.0,0.0,-13.948,0.0,0.0,0.0
240,0.0,0.0,0.0,-0.004701171875,0.0,0.0,0.0,0.0,0.0,0.0,-0.001,0.0,0.0,0.0,0.0,0.0,0.0,-0.004057402157595404,0.0,0.0,0.0,0.0,0.0,0.0,-13.948,0.0,0.0,0.0
241,0.0,0.0,0.0,-0.004701171875,0.0,0.0,0.0,0.0,0.0,0.0,-0.001,0.0,0.0,0.0,0.0,0.0,0.0,-0.004055807508739441,0.0,0.0,0.0,0.0,0.0,0.0,-13.948,0.0,0.0,0.0
242,0.0,0.0,0.0,-0.004701171875,0.0,0.0,0.0,0.0,0.0,0.0,-0.001,0.0,0.0,0.0,0.0,0.0,0.0,-0.0037504929665549205,0.0,0.0,0.0,0.0,0.0,0.0,-14.04,0.0,0.0,0.0
243,0.0,0.0,0.0,-0.004701171875,0.0,0.0,0.0,0.0,0.0,0.0,-0.001,0.0,0.0,0.0,0.0,0.0,0.0,-0.004012748587844596,0.0,0.0,0.0,0.0,0.0,0.0,-14.04,0.0,0.0,0.0
244,0.0,0.0,0.0,-0.004701171875,0.0,0.0,0.0,0.0,0.0,0.0,-0.001,0.0,0.0,0.0,0.0,0.0,0.0,-0.00404938069196218,0.0,0.0,0.0,0.0,0.0,0.0,-13.856,0.0,0.0,0.0
245,0.0,0.0,0.0,-0.004701171875,0.0,0.0,0.0,0.0,0.0,0.0,-0.001,0.0,0.0,0.0,0.0,0.0,0.0,-0.0039989338256383525,0.0,0.0,0.0,0.0,0.0,0.0,-13.856,0.0,0.0,0.0
246,0.0,0.0,0.0,-0.004701171875,0.0,0.0,0.0,0.0,0.0,0.0,-0.001,0.0,0.0,0.0,0.0,0.0,0.0,-0.004003663272543569,0.0,0.0,0.0,0.0,0.0,0.0,-13.856,0.0,0.0,0.0
247,0.0,0.0,0.0,-0.004701171875,0.0,0.0,0.0,0.0,0.0,0.0,-0.001,0.0,0.0,0.0,0.0,0.0,0.0,-0.003974899556757151,0.0,0.0,0.0,0.0,0.0,0.0,-13.924,0.0,0.0,0.0
248,0.0,0.0,0.0,-0.004701171875,0.0,0.0,0.0,0.0,0.0,0.0,-0.001,0.0,0.0,0.0,0.0,0.0,0.0,-0.00415800557191446,0.0,0.0,0.0,0.0,0.0,0.0,-13.924,0.0,0.0,0.0
249,0.0,0.0,0.0,-0.004701171875,0.0,0.0,0.0,0.0,0.0,0.0,-0.001,0.0,0.0,0.0,0.0,0.0,0.0,-0.003926025006867041,0.0,0.0,0.0,0.0,0.0,0.0,-13.924,0.0,0.0,0.0
250,0.0,0.0,0.0,-0.004701171875,0.0,0.0,0.0,0.0,0.0,0.0,-0.001,0.0,0.0,0.0,0.0,0.0,0.0,-0.0039266488242832645,0.0,0.0,0.0,0.0,0.0,0.0,-13.924,0.0,0.0,0.0
251,0.0,0.0,0.0,-0.004701171875,0.0,0.0,0.0,0.0,0.0,0.0,-0.001,0.0,0.0,0.0,0.0,0.0,0.0,-0.00405916052459613,0.0,0.0,0.0,0.0,0.0,0.0,-13.924,0.0,0.0,0.0
252,0.0,0.0,0.0,-0.004701171875,0.0,0.0,0.0,0.0,0.0,0.0,-0.001,0.0,0.0,0.0,0.0,0.0,0.0,-0.004036674171413825,0.0,0.0,0.0,0.0,0.0,0.0,-13.996,0.0,0.0,0.0
253,0.0,0.0,0.0,-0.004701171875,0.0,0.0,0.0,0.0,0.0,0.0,-0.001,0.0,0.0,0.0,0.0,0.0,0.0,-0.004153449365621377,0.0,0.0,0.0,0.0,0.0,0.0,-13.996,0.0,0.0,0.0
254,0.0,0.0,0.0,-0.004701171875,0.0,0.0,0.0,0.0,0.0,0.0,-0.001,0.0,0.0,0.0,0.0,0.0,0.0,-0.004094711803084496,0.0,0.0,0.0,0.0,0.0,0.0,-13.996,0.0,0.0,0.0
255,0.0,0.0,0.0,-0.004701171875,0.0,0.0,0.0,0.0,0.0,0.0,-0.001,0.0,0.0,0.0,0.0,0.0,0.0,-0.004121797389562233,0.0,0.0,0.0,0.0,0.0,0.0,-13.996,0.0,0.0,0.0
256,0.0,0.0,0.0,-0.004701171875,0.0,0.0,0.0,0.0,0.0,0.0,-0.001,0.0,0.0,0.0,0.0,0.0,0.0,-0.004106422821912682,0.0,0.0,0.0,0.0,0.0,0.0,-13.996,0.0,0.0,0.0
257,0.0,0.0,0.0,-0.004701171875,0.0,0.0,0.0,0.0,0.0,0.0,-0.001,0.0,0.0,0.0,0.0,0.0,0.0,-0.004054760474316112,0.0,0.0,0.0,0.0,0.0,0.0,-14.084,0.0,0.0,0.0
258,0.0,0.0,0.0,-0.004701171875,0.0,0.0,0.0,0.0,0.0,0.0,-0.001,0.0,0.0,0.0,0.0,0.0,0.0,-0.0039901340056340065,0.0,0.0,0.0,0.0,0.0,0.0,-14.084,0.0,0.0,0.0
259,0.0,0.0,0.0,-0.004701171875,0.0,0.0,0.0,0.0,0.0,0.0,-0.001,0.0,0.0,0.0,0.0,0.0,0.0,-0.004186915439008988,0.0,0.0,0.0,0.0,0.0,0.0,-14.084,0.0,0.0,0.0
260,0.0,0.0,0.0,-0.004701171875,0.0,0.0,0.0,0.0,0.0,0.0,-0.001,0.0,0.0,0.0,0.0,0.0,0.0,-0.004162455397189381,0.0,0.0,0.0,0.0,0.0,0.0,-13.88,0.0,0.0,0.0
261,0.0,0.0,0.0,-0.004701171875,0.0,0.0,0.0,0.0,0.0,0.0,-0.001,0.0,0.0,0.0,0.0,0.0,0.0,-0.003923301377554957,0.0,0.0,0.0,0.0,0.0,0.0,-13.88,0.0,0.0,0.0
262,0.0,0.0,0.0,-0.004701171875,0.0,0.0,0.0,0.0,0.0,0.0,-0.001,0.0,0.0,0.0,0.0,0.0,0.0,-0.0038522701782118043,0.0,0.0,0.0,0.0,0.0,0.0,-13.972,0.0,0.0,0.0
263,0.0,0.0,0.0,-0.004701171875,0.0,0.0,0.0,0.0,0.0,0.0,-0.001,0.0,0.0,0.0,0.0,0.0,0.0,-0.0041375855404826925,0.0,0.0,0.0,0.0,0.0,0.0,-13.972,0.0,0.0,0.0
264,0.0,0.0,0.0,-0.004701171875,0.0,0.0,0.0,0.0,0.0,0.0,-0.001,0.0,0.0,0.0,0.0,0.0,0.0,-0.004059200593776381,0.0,0.0,0.0,0.0,0.0,0.0,-13.972,0.0,0.0,0.0
265,0.0,0.0,0.0,-0.004701171875,0.0,0.0,0.0,0.0,0.0,0.0,-0.001,0.0,0.0,0.0,0.0,0.0,0.0,-0.0040908436205744705,0.0,0.0,0.0,0.0,0.0,0.0,-13.972,0.0,0.0,0.0
266,0.0,0.0,0.0,-0.004701171875,0.0,0.0,0.0,0.0,0.0,0.0,-0.001,0.0,0.0,0.0,0.0,0.0,0.0,-0.004181857292777626,0.0,0.0,0.0,0.0,0.0,0.0,-13.924,0.0,0.0,0.0
267,0.0,0.0,0.0,-0.004701171875,0.0,0.0,0.0,0.0,0.0,0.0,-0.001,0.0,0.0,0.0,0.0,0.0,0.0,-0.004211304854031962,0.0,0.0,0.0,0.0,0.0,0.0,-13.924,0.0,0.0,0.0
268,0.0,0.0,0.0,-0.004701171875,0.0,0.0,0.0,0.0,0.0,0.0,-0.001,0.0,0.0,0.0,0.0,0.0,0.0,-0.00420542970046698,0.0,0.0,0.0,0.0,0.0,0.0,-13.924,0.0,0.0,0.0
269,0.0,0.0,0.0,-0.004701171875,0.0,0.0,0.0,0.0,0.0,0.0,-0.001,0.0,0.0,0.0,0.0,0.0,0.0,-0.00423143903223825,0.0,0.0,0.0,0.0,0.0,0.0,-14.016,0.0,0.0,0.0
270,0.0,0.0,0.0,-0.004701171875,0.0,0.0,0.0,0.0,0.0,0.0,-0.001,0.0,0.0,0.0,0.0,0.0,0.0,-0.0042354685161533415,0.0,0.0,0.0,0.0,0.0,0.0,-14.016,0.0,0.0,0.0
271,0.0,0.0,0.0,-0.004701171875,0.0,0.0,0.0,0.0,0.0,0.0,-0.001,0.0,0.0,0.0,0.0,0.0,0.0,-0.0042063554283513285,0.0,0.0,0.0,0.0,0.0,0.0,-13.948,0.0,0.0,0.0
272,0.0,0.0,0.0,-0.004701171875,0.0,0.0,0.0,0.0,0.0,0.0,-0.001,0.0,0.0,0.0,0.0,0.0,0.0,-0.004087322443886744,0.0,0.0,0.0,0.0,0.0,0.0,-13.948,0.0,0.0,0.0
273,0.0,0.0,0.0,-0.004701171875,0.0,0.0,0.0,0.0,0.0,0.0,-0.001,0.0,0.0,0.0,0.0,0.0,0.0,-0.004160802841673118,0.0,0.0,0.0,0.0,0.0,0.0,-13.948,0.0,0.0,0.0
274,0.0,0.0,0.0,-0.004701171875,0.0,0.0,0.0,0.0,0.0,0.0,-0.001,0.0,0.0,0.0,0.0,0.0,0.0,-0.0042465368841123965,0.0,0.0,0.0,0.0,0.0,0.0,-14.064,0.0,0.0,0.0
275,0.0,0.0,0.0,-0.004701171875,0.0,0.0,0.0,0.0,0.0,0.0,-0.001,0.0,0.0,0.0,0.0,0.0,0.0,-0.004317691326242469,0.0,0.0,0.0,0.0,0.0,0.0,-14.064,0.0,0.0,0.0
276,0.0,0.0,0.0,-0.004701171875,0.0,0.0,0.0,0.0,0.0,0.0,-0.001,0.0,0.0,0.0,0.0,0.0,0.0,-0.004302526454802315,0.0,0.0,0.0,0.0,0.0,0.0,-13.924,0.0,0.0,0.0
277,0.0,0.0,0.0,-0.004701171875,0.0,0.0,0.0,0.0,0.0,0.0,-0.001,0.0,0.0,0.0,0.0,0.0,0.0,-0.004281773825026904,0.0,0.0,0.0,0.0,0.0,0.0,-13.924,0.0,0.0,0.0
278,0.0,0.0,0.0,-0.004701171875,0.0,0.0,0.0,0.0,0.0,0.0,-0.001,0.0,0.0,0.0,0.0,0.0,0.0,-0.004261936005966339,0.0,0.0,0.0,0.0,0.0,0.0,-13.924,0.0,0.0,0.0
279,0.0,0.0,0.0,-0.004701171875,0.0,0.0,0.0,0.0,0.0,0.0,-0.001,0.0,0.0,0.0,0.0,0.0,0.0,-0.0042334042874746305,0.0,0.0,0.0,0.0,0.0,0.0,-13.972,0.0,0.0,0.0
280,0.0,0.0,0.0,-0.004701171875,0.0,0.0,0.0,0.0,0.0,0.0,-0.001,0.0,0.0,0.0,0.0,0.0,0.0,-0.004148585039267828,0.0,0.0,0.0,0.0,0.0,0.0,-13.972,0.0,0.0,0.0
281,0.0,0.0,0.0,-0.004701171875,0.0,0.0,0.0,0.0,0.0,0.0,-0.001,0.0,0.0,0.0,0.0,0.0,0.0,-0.004199105659704307,0.0,0.0,0.0,0.0,0.0,0.0,-13.996,0.0,0.0,0.0
282,0.0,0.0,0.0,-0.004701171875,0.0,0.0,0.0,0.0,0.0,0.0,-0.001,0.0,0.0,0.0,0.0,0.0,0.0,-0.004313174851172476,0.0,0.0,0.0,0.0,0.0,0.0,-13.996,0.0,0.0,0.0
283,0.0,0.0,0.0,-0.004845703125,0.0,0.0,0.0,0.0,0.0,0.0,-0.002,0.0,0.0,0.0,0.0,0.0,0.0,-0.004477596644187686,0.0,0.0,0.0,0.0,0.0,0.0,-14.108,0.0,0.0,0.0
284,0.0,0.0,0.0,-0.004845703125,0.0,0.0,0.0,0.0,0.0,0.0,-0.002,0.0,0.0,0.0,0.0,0.0,0.0,-0.004499221322369195,0.0,0.0,0.0,0.0,0.0,0.0,-14.108,0.0,0.0,0.0
285,0.0,0.0,0.0,-0.004845703125,0.0,0.0,0.0,0.0,0.0,0.0,-0.002,0.0,0.0,0.0,0.0,0.0,0.0,-0.0045206324526877,0.0,0.0,0.0,0.0,0.0,0.0,-14.108,0.0,0.0,0.0
286,0.0,0.0,0.0,-0.004845703125,0.0,0.0,0.0,0.0,0.0,0.0,-0.011,0.0,0.0,0.0,0.0,0.0,0.0,-0.004462946361694264,0.0,0.0,0.0,0.0,0.0,0.0,-14.04,0.0,0.0,0.0
287,0.0,0.0,0.0,-0.004845703125,0.0,0.0,0.0,0.0,0.0,0.0,-0.011,0.0,0.0,0.0,0.0,0.0,0.0,-0.004369295326392419,0.0,0.0,0.0,0.0,0.0,0.0,-14.04,0.0,0.0,0.0
288,0.0,0.0,0.0,-0.004845703125,0.0,0.0,0.0,0.0,0.0,0.0,-0.001,0.0,0.0,0.0,0.0,0.0,0.0,-0.004428706881919608,0.0,0.0,0.0,0.0,0.0,0.0,-14.064,0.0,0.0,0.0
289,0.0,0.0,0.0,-0.004845703125,0.0,0.0,0.0,0.0,0.0,0.0,-0.001,0.0,0.0,0.0,0.0,0.0,0.0,-0.004460103021282535,0.0,0.0,0.0,0.0,0.0,0.0,-14.064,0.0,0.0,0.0
290,0.0,0.0,0.0,-0.004845703125,0.0,0.0,0.0,0.0,0.0,0.0,-0.001,0.0,0.0,0.0,0.0,0.0,0.0,-0.004460283336464654,0.0,0.0,0.0,0.0,0.0,0.0,-14.064,0.0,0.0,0.0
291,0.0,0.0,0.0,-0.004845703125,0.0,0.0,0.0,0.0,0.0,0.0,-0.001,0.0,0.0,0.0,0.0,0.0,0.0,-0.004483429477490929,0.0,0.0,0.0,0.0,0.0,0.0,-14.064,0.0,0.0,0.0
292,0.0,0.0,0.0,-0.004845703125,0.0,0.0,0.0,0.0,0.0,0.0,-0.001,0.0,0.0,0.0,0.0,0.0,0.0,-0.004489500376185018,0.0,0.0,0.0,0.0,0.0,0.0,-14.016,0.0,0.0,0.0
293,0.0,0.0,0.0,-0.004845703125,0.0,0.0,0.0,0.0,0.0,0.0,-0.001,0.0,0.0,0.0,0.0,0.0,0.0,-0.004467285309321289,0.0,0.0,0.0,0.0,0.0,0.0,-14.016,0.0,0.0,0.0
294,0.0,0.0,0.0,-0.004845703125,0.0,0.0,0.0,0.0,0.0,0.0,-0.001,0.0,0.0,0.0,0.0,0.0,0.0,-0.004516236877139267,0.0,0.0,0.0,0.0,0.0,0.0,-13.972,0.0,0.0,0.0
295,0.0,0.0,0.0,-0.004845703125,0.0,0.0,0.0,0.0,0.0,0.0,-0.001,0.0,0.0,0.0,0.0,0.0,0.0,-0.004552092637565629,0.0,0.0,0.0,0.0,0.0,0.0,-13.972,0.0,0.0,0.0
296,0.0,0.0,0.0,-0.004845703125,0.0,0.0,0.0,0.0,0.0,0.0,-0.001,0.0,0.0,0.0,0.0,0.0,0.0,-0.004556417674120305,0.0,0.0,0.0,0.0,0.0,0.0,-13.924,0.0,0.0,0.0
297,0.0,0.0,0.0,-0.004845703125,0.0,0.0,0.0,0.0,0.0,0.0,-0.001,0.0,0.0,0.0,0.0,0.0,0.0,-0.004579129191643504,0.0,0.0,0.0,0.0,0.0,0.0,-13.924,0.0,0.0,0.0
298,0.0,0.0,0.0,-0.004845703125,0.0,0.0,0.0,0.0,0.0,0.0,-0.001,0.0,0.0,0.0,0.0,0.0,0.0,-0.0045809274954418215,0.0,0.0,0.0,0.0,0.0,0.0,-14.04,0.0,0.0,0.0
299,0.0,0.0,0.0,-0.004845703125,0.0,0.0,0.0,0.0,0.0,0.0,-0.001,0.0,0.0,0.0,0.0,0.0,0.0,-0.004581067295553586,0.0,0.0,0.0,0.0,0.0,0.0,-14.04,0.0,0.0,0.0
300,0.0,0.0,0.0,-0.004845703125,0.0,0.0,0.0,0.0,0.0,0.0,-0.001,0.0,0.0,0.0,0.0,0.0,0.0,-0.004620272194498797,0.0,0.0,0.0,0.0,0.0,0.0,-13.924,0.0,0.0,0.0
301,0.0,0.0,0.0,-0.004845703125,0.0,0.0,0.0,0.0,0.0,0.0,-0.001,0.0,0.0,0.0,0.0,0.0,0.0,-0.004610865549212483,0.0,0.0,0.0,0.0,0.0,0.0,-13.924,0.0,0.0,0.0
302,0.0,0.0,0.0,-0.004845703125,0.0,0.0,0.0,0.0,0.0,0.0,-0.001,0.0,0.0,0.0,0.0,0.0,0.0,-0.004602077196422815,0.0,0.0,0.0,0.0,0.0,0.0,-14.016,0.0,0.0,0.0
303,0.0,0.0,0.0,-0.004845703125,0.0,0.0,0.0,0.0,0.0,0.0,-0.001,0.0,0.0,0.0,0.0,0.0,0.0,-0.004649735728340331,0.0,0.0,0.0,0.0,0.0,0.0,-14.064,0.0,0.0,0.0
304,0.0,0.0,0.0,-0.004845703125,0.0,0.0,0.0,0.0,0.0,0.0,-0.001,0.0,0.0,0.0,0.0,0.0,0.0,-0.004654998699383694,0.0,0.0,0.0,0.0,0.0,0.0,-14.064,0.0,0.0,0.0
305,0.0,0.0,0.0,-0.004845703125,0.0,0.0,0.0,0.0,0.0,0.0,-0.001,0.0,0.0,0.0,0.0,0.0,0.0,-0.004659788079117277,0.0,0.0,0.0,0.0,0.0,0.0,-13.972,0.0,0.0,0.0
306,0.0,0.0,0.0,-0.004845703125,0.0,0.0,0.0,0.0,0.0,0.0,-0.001,0.0,0.0,0.0,0.0,0.0,0.0,-0.0046961580578213195,0.0,0.0,0.0,0.0,0.0,0.0,-13.972,0.0,0.0,0.0
307,0.0,0.0,0.0,-0.004845703125,0.0,0.0,0.0,0.0,0.0,0.0,-0.001,0.0,0.0,0.0,0.0,0.0,0.0,-0.004687351802363304,0.0,0.0,0.0,0.0,0.0,0.0,-14.016,0.0,0.0,0.0
308,0.0,0.0,0.0,-0.004845703125,0.0,0.0,0.0,0.0,0.0,0.0,-0.001,0.0,0.0,0.0,0.0,0.0,0.0,-0.004742197911099099,0.0,0.0,0.0,0.0,0.0,0.0,-14.04,0.0,0.0,0.0
309,0.0,0.0,0.0,-0.004845703125,0.0,0.0,0.0,0.0,0.0,0.0,-0.001,0.0,0.0,0.0,0.0,0.0,0.0,-0.004765019380376111,0.0,0.0,0.0,0.0,0.0,0.0,-14.04,0.0,0.0,0.0
310,0.0,0.0,0.0,-0.004845703125,0.0,0.0,0.0,0.0,0.0,0.0,-0.001,0.0,0.0,0.0,0.0,0.0,0.0,-0.004763724253147538,0.0,0.0,0.0,0.0,0.0,0.0,-14.268,0.0,0.0,0.0
311,0.0,0.0,0.0,-0.004845703125,0.0,0.0,0.0,0.0,0.0,0.0,-0.001,0.0,0.0,0.0,0.0,0.0,0.0,-0.004789449344190799,0.0,0.0,0.0,0.0,0.0,0.0,-14.268,0.0,0.0,0.0
312,0.0,0.0,0.0,-0.004845703125,0.0,0.0,0.0,0.0,0.0,0.0,-0.001,0.0,0.0,0.0,0.0,0.0,0.0,-0.004805979939143178,0.0,0.0,0.0,0.0,0.0,0.0,-14.268,0.0,0.0,0.0
313,0.0,0.0,0.0,-0.005134765625,0.0,0.0,0.0,0.0,0.0,0.0,-0.017,0.0,0.0,0.0,0.0,0.0,0.0,-0.005124815248222299,0.0,0.0,0.0,0.0,0.0,0.0,-13.996,0.0,0.0,0.0
314,0.0,0.0,0.0,-0.005134765625,0.0,0.0,0.0,0.0,0.0,0.0,-0.017,0.0,0.0,0.0,0.0,0.0,0.0,-0.005146626188463861,0.0,0.0,0.0,0.0,0.0,0.0,-13.996,0.0,0.0,0.0
315,0.0,0.0,0.0,-0.005134765625,0.0,0.0,0.0,0.0,0.0,0.0,-0.009,0.0,0.0,0.0,0.0,0.0,0.0,-0.005187678349883281,0.0,0.0,0.0,0.0,0.0,0.0,-14.064,0.0,0.0,0.0
316,0.0,0.0,0.0,-0.005134765625,0.0,0.0,0.0,0.0,0.0,0.0,-0.001,0.0,0.0,0.0,0.0,0.0,0.0,-0.005211925659088919,0.0,0.0,0.0,0.0,0.0,0.0,-14.064,0.0,0.0,0.0
317,0.0,0.0,0.0,-0.005134765625,0.0,0.0,0.0,0.0,0.0,0.0,-0.001,0.0,0.0,0.0,0.0,0.0,0.0,-0.005251762620647656,0.0,0.0,0.0,0.0,0.0,0.0,-14.36,0.0,0.0,0.0
318,0.0,0.0,0.0,-0.005134765625,0.0,0.0,0.0,0.0,0.0,0.0,-0.001,0.0,0.0,0.0,0.0,0.0,0.0,-0.005246739018992992,0.0,0.0,0.0,0.0,0.0,0.0,-14.36,0.0,0.0,0.0
319,0.0,0.0,0.0,-0.005279296875,0.0,0.0,0.0,0.0,0.0,0.0,-0.005,0.0,0.0,0.0,0.0,0.0,0.0,-0.005421466688275028,0.0,0.0,0.0,0.0,0.0,0.0,-14.316,0.0,0.0,0.0
320,0.0,0.0,0.0,-0.005279296875,0.0,0.0,0.0,0.0,0.0,0.0,-0.005,0.0,0.0,0.0,0.0,0.0,0.0,-0.005380231227801729,0.0,0.0,0.0,0.0,0.0,0.0,-14.316,0.0,0.0,0.0
321,0.0,0.0,0.0,-0.0054326171875,0.0,0.0,0.0,0.0,0.0,0.0,-0.012,0.0,0.0,0.0,0.0,0.0,0.0,-0.005563117465140222,0.0,0.0,0.0,0.0,0.0,0.0,-14.156,0.0,0.0,0.0
322,0.0,0.0,0.0,-0.0054326171875,0.0,0.0,0.0,0.0,0.0,0.0,-0.012,0.0,0.0,0.0,0.0,0.0,0.0,-0.00565005918085294,0.0,0.0,0.0,0.0,0.0,0.0,-14.156,0.0,0.0,0.0
323,0.0,0.0,0.0,-0.0054326171875,0.0,0.0,0.0,0.0,0.0,0.0,-0.012,0.0,0.0,0.0,0.0,0.0,0.0,-0.005619257244360032,0.0,0.0,0.0,0.0,0.0,0.0,-13.972,0.0,0.0,0.0
324,0.0,0.0,0.0,-0.0054326171875,0.0,0.0,0.0,0.0,0.0,0.0,-0.001,0.0,0.0,0.0,0.0,0.0,0.0,-0.005667879813538179,0.0,0.0,0.0,0.0,0.0,0.0,-13.996,0.0,0.0,0.0
325,0.0,0.0,0.0,-0.0054326171875,0.0,0.0,0.0,0.0,0.0,0.0,-0.001,0.0,0.0,0.0,0.0,0.0,0.0,-0.00567299961130453,0.0,0.0,0.0,0.0,0.0,0.0,-13.996,0.0,0.0,0.0
326,0.0,0.0,0.0,-0.005720703125,0.0,0.0,0.0,0.0,0.0,0.0,-0.011,0.0,0.0,0.0,0.0,0.0,0.0,-0.005973675566773302,0.0,0.0,0.0,0.0,0.0,0.0,-14.428,0.0,0.0,0.0
327,0.0,0.0,0.0,-0.005865234375,0.0,0.0,0.0,0.0,0.0,0.0,-0.021,0.0,0.0,0.0,0.0,0.0,0.0,-0.006298824740000958,0.0,0.0,0.0,0.0,0.0,0.0,-14.224,0.0,0.0,0.0
328,0.0,0.0,0.0,-0.005865234375,0.0,0.0,0.0,0.0,0.0,0.0,-0.021,0.0,0.0,0.0,0.0,0.0,0.0,-0.00641223560257656,0.0,0.0,0.0,0.0,0.0,0.0,-14.224,0.0,0.0,0.0
329,0.0,0.0,0.0,-0.005865234375,0.0,0.0,0.0,0.0,0.0,0.0,-0.012,0.0,0.0,0.0,0.0,0.0,0.0,-0.006206474916819554,0.0,0.0,0.0,0.0,0.0,0.0,-14.176,0.0,0.0,0.0
330,0.0,0.0,0.0,-0.006009765625,0.0,0.0,0.0,0.0,0.0,0.0,-0.008,0.0,0.0,0.0,0.0,0.0,0.0,-0.006352902451037871,0.0,0.0,0.0,0.0,0.0,0.0,-13.996,0.0,0.0,0.0
331,0.0,0.0,0.0,-0.006443359375,0.0,0.0,0.0,0.0,0.0,0.0,-0.022,0.0,0.0,0.0,0.0,0.0,0.0,-0.008028023192751685,0.0,0.0,0.0,0.0,0.0,0.0,-14.108,0.0,0.0,0.0
332,0.0,0.0,0.0,-0.006443359375,0.0,0.0,0.0,0.0,0.0,0.0,-0.01,0.0,0.0,0.0,0.0,0.0,0.0,-0.007558562471183237,0.0,0.0,0.0,0.0,0.0,0.0,-14.04,0.0,0.0,0.0
333,0.0,0.0,0.0,-0.006443359375,0.0,0.0,0.0,0.0,0.0,0.0,-0.001,0.0,0.0,0.0,0.0,0.0,0.0,-0.0069087330099872205,0.0,0.0,0.0,0.0,0.0,0.0,-13.924,0.0,0.0,0.0
334,0.0,0.0,0.0,-0.0067314453125,0.0,0.0,0.0,0.0,0.0,0.0,-0.011,0.0,0.0,0.0,0.0,0.0,0.0,-0.007634667485864693,0.0,0.0,0.0,0.0,0.0,0.0,-14.544,0.0,0.0,0.0
335,0.0,0.0,0.0,-0.0067314453125,0.0,0.0,0.0,0.0,0.0,0.0,-0.011,0.0,0.0,0.0,0.0,0.0,0.0,-0.007213561342283264,0.0,0.0,0.0,0.0,0.0,0.0,-14.544,0.0,0.0,0.0
336,0.0,0.0,0.0,-0.0077421875,0.0,0.0,0.0,0.0,0.0,0.0,-0.058,0.0,0.0,0.0,0.0,0.0,0.0,-0.008310820850198745,0.0,0.0,0.0,0.0,0.0,0.0,-15.276,0.0,0.0,0.0
337,0.0,0.0,0.0,-0.0083193359375,0.0,0.0,0.0,0.0,0.0,0.0,-0.1,0.0,0.0,0.0,0.0,0.0,0.0,-0.008896839425888143,0.0,0.0,0.0,0.0,0.0,0.0,-14.064,0.0,0.0,0.0
338,0.0,0.0,0.0,-0.00876171875,0.0,0.0,0.0,0.0,0.0,0.0,-0.028,0.0,0.0,0.0,0.0,0.0,0.0,-0.011055123515781992,0.0,0.0,0.0,0.0,0.0,0.0,-13.676,0.0,0.0,0.0
339,0.0,0.0,0.0,-0.00876171875,0.0,0.0,0.0,0.0,0.0,0.0,-0.028,0.0,0.0,0.0,0.0,0.0,0.0,-0.009452962611663859,0.0,0.0,0.0,0.0,0.0,0.0,-13.676,0.0,0.0,0.0
340,0.0,0.0,0.0,-0.0086171875,0.0,0.0,0.0,0.0,0.0,0.0,-0.023,0.0,0.0,0.0,0.0,0.0,0.0,-0.009124159388671881,0.0,0.0,0.0,0.0,0.0,0.0,-14.428,0.0,0.0,0.0
341,0.0,0.0,0.0,-0.0086171875,0.0,0.0,0.0,0.0,0.0,0.0,-0.023,0.0,0.0,0.0,0.0,0.0,0.0,-0.0090430020060419,0.0,0.0,0.0,0.0,0.0,0.0,-14.428,0.0,0.0,0.0
342,0.0,0.0,0.0,-0.0086171875,0.0,0.0,0.0,0.0,0.0,0.0,-0.023,0.0,0.0,0.0,0.0,0.0,0.0,-0.009136196973727017,0.0,0.0,0.0,0.0,0.0,0.0,-14.428,0.0,0.0,0.0
343,0.0,0.0,0.0,-0.0086171875,0.0,0.0,0.0,0.0,0.0,0.0,0.023,0.0,0.0,0.0,0.0,0.0,0.0,-0.00940251702309418,0.0,0.0,0.0,0.0,0.0,0.0,-15.756,0.0,0.0,0.0
344,0.0,0.0,0.0,-0.0086171875,0.0,0.0,0.0,0.0,0.0,0.0,0.023,0.0,0.0,0.0,0.0,0.0,0.0,-0.009108015439565785,0.0,0.0,0.0,0.0,0.0,0.0,-15.756,0.0,0.0,0.0
345,0.0,0.0,0.0,-0.01021484375,0.0,0.0,0.0,0.0,0.0,0.0,-0.069,0.0,0.0,0.0,0.0,0.0,0.0,-0.010669113765757153,0.0,0.0,0.0,0.0,0.0,0.0,-16.28,0.0,0.0,0.0
346,0.0,0.0,0.0,-0.01021484375,0.0,0.0,0.0,0.0,0.0,0.0,-0.069,0.0,0.0,0.0,0.0,0.0,0.0,-0.010883675708352601,0.0,0.0,0.0,0.0,0.0,0.0,-16.28,0.0,0.0,0.0
347,0.0,0.0,0.0,-0.0113701171875,0.0,0.0,0.0,0.0,0.0,0.0,-0.156,0.0,0.0,0.0,0.0,0.0,0.0,-0.011968265935333317,0.0,0.0,0.0,0.0,0.0,0.0,-14.36,0.0,0.0,0.0
348,0.0,0.0,0.0,-0.0113701171875,0.0,0.0,0.0,0.0,0.0,0.0,-0.156,0.0,0.0,0.0,0.0,0.0,0.0,-0.011897047985365866,0.0,0.0,0.0,0.0,0.0,0.0,-14.36,0.0,0.0,0.0
349,0.0,0.0,0.0,-0.0113701171875,0.0,0.0,0.0,0.0,0.0,0.0,-0.059,0.0,0.0,0.0,0.0,0.0,0.0,-0.011966985051023421,0.0,0.0,0.0,0.0,0.0,0.0,-13.972,0.0,0.0,0.0
350,0.0,0.0,0.0,-0.0113701171875,0.0,0.0,0.0,0.0,0.0,0.0,-0.059,0.0,0.0,0.0,0.0,0.0,0.0,-0.012175286993466067,0.0,0.0,0.0,0.0,0.0,0.0,-13.972,0.0,0.0,0.0
351,0.0,0.0,0.0,-0.0119560546875,0.0,0.0,0.0,0.0,0.0,0.0,-0.03,0.0,0.0,0.0,0.0,0.0,0.0,-0.01261885892015197,0.0,0.0,0.0,0.0,0.0,0.0,-13.516,0.0,0.0,0.0
352,0.0,0.0,0.0,-0.0119560546875,0.0,0.0,0.0,0.0,0.0,0.0,-0.03,0.0,0.0,0.0,0.0,0.0,0.0,-0.012534419392604695,0.0,0.0,0.0,0.0,0.0,0.0,-13.516,0.0,0.0,0.0
353,0.0,0.0,0.0,-0.0119560546875,0.0,0.0,0.0,0.0,0.0,0.0,-0.03,0.0,0.0,0.0,0.0,0.0,0.0,-0.012511044487394157,0.0,0.0,0.0,0.0,0.0,0.0,-13.516,0.0,0.0,0.0
354,0.0,0.0,0.0,-0.0118115234375,0.0,0.0,0.0,0.0,0.0,0.0,-0.024,0.0,0.0,0.0,0.0,0.0,0.0,-0.012538789016595804,0.0,0.0,0.0,0.0,0.0,0.0,-15.16,0.0,0.0,0.0
355,0.0,0.0,0.0,-0.0118115234375,0.0,0.0,0.0,0.0,0.0,0.0,-0.024,0.0,0.0,0.0,0.0,0.0,0.0,-0.012556778743243709,0.0,0.0,0.0,0.0,0.0,0.0,-15.16,0.0,0.0,0.0
356,0.0,0.0,0.0,-0.0121005859375,0.0,0.0,0.0,0.0,0.0,0.0,0.0,0.0,0.0,0.0,0.0,0.0,0.0,-0.012771161500212439,0.0,0.0,0.0,0.0,0.0,0.0,-16.12,0.0,0.0,0.0
357,0.0,0.0,0.0,-0.0121005859375,0.0,0.0,0.0,0.0,0.0,0.0,0.0,0.0,0.0,0.0,0.0,0.0,0.0,-0.012890328026412304,0.0,0.0,0.0,0.0,0.0,0.0,-16.12,0.0,0.0,0.0
358,0.0,0.0,0.0,-0.012677734375,0.0,0.0,0.0,0.0,0.0,0.0,-0.051,0.0,0.0,0.0,0.0,0.0,0.0,-0.013404934760522819,0.0,0.0,0.0,0.0,0.0,0.0,-14.656,0.0,0.0,0.0
359,0.0,0.0,0.0,-0.012677734375,0.0,0.0,0.0,0.0,0.0,0.0,-0.051,0.0,0.0,0.0,0.0,0.0,0.0,-0.013379959672651348,0.0,0.0,0.0,0.0,0.0,0.0,-14.656,0.0,0.0,0.0
360,0.0,0.0,0.0,-0.012677734375,0.0,0.0,0.0,0.0,0.0,0.0,-0.051,0.0,0.0,0.0,0.0,0.0,0.0,-0.013311716679506841,0.0,0.0,0.0,0.0,0.0,0.0,-14.656,0.0,0.0,0.0
361,0.0,0.0,0.0,-0.013255859375,0.0,0.0,0.0,0.0,0.0,0.0,-0.053,0.0,0.0,0.0,0.0,0.0,0.0,-0.01389478054138653,0.0,0.0,0.0,0.0,0.0,0.0,-13.764,0.0,0.0,0.0
362,0.0,0.0,0.0,-0.013255859375,0.0,0.0,0.0,0.0,0.0,0.0,-0.053,0.0,0.0,0.0,0.0,0.0,0.0,-0.01381013884604103,0.0,0.0,0.0,0.0,0.0,0.0,-13.764,0.0,0.0,0.0
363,0.0,0.0,0.0,-0.013255859375,0.0,0.0,0.0,0.0,0.0,0.0,-0.053,0.0,0.0,0.0,0.0,0.0,0.0,-0.013813501745352107,0.0,0.0,0.0,0.0,0.0,0.0,-13.764,0.0,0.0,0.0
364,0.0,0.0,0.0,-0.0135439453125,0.0,0.0,0.0,0.0,0.0,0.0,-0.046,0.0,0.0,0.0,0.0,0.0,0.0,-0.014398222920535358,0.0,0.0,0.0,0.0,0.0,0.0,-13.192,0.0,0.0,0.0
365,0.0,0.0,0.0,-0.0135439453125,0.0,0.0,0.0,0.0,0.0,0.0,-0.018,0.0,0.0,0.0,0.0,0.0,0.0,-0.014545695089232952,0.0,0.0,0.0,0.0,0.0,0.0,-14.612,0.0,0.0,0.0
366,0.0,0.0,0.0,-0.0135439453125,0.0,0.0,0.0,0.0,0.0,0.0,-0.018,0.0,0.0,0.0,0.0,0.0,0.0,-0.014479689016313274,0.0,0.0,0.0,0.0,0.0,0.0,-14.612,0.0,0.0,0.0
367,0.0,0.0,0.0,-0.0138330078125,0.0,0.0,0.0,0.0,0.0,0.0,-0.012,0.0,0.0,0.0,0.0,0.0,0.0,-0.014790281039375276,0.0,0.0,0.0,0.0,0.0,0.0,-15.208,0.0,0.0,0.0
368,0.0,0.0,0.0,-0.0138330078125,0.0,0.0,0.0,0.0,0.0,0.0,-0.012,0.0,0.0,0.0,0.0,0.0,0.0,-0.014789250118464915,0.0,0.0,0.0,0.0,0.0,0.0,-15.208,0.0,0.0,0.0
369,0.0,0.0,0.0,-0.0139775390625,0.0,0.0,0.0,0.0,0.0,0.0,-0.022,0.0,0.0,0.0,0.0,0.0,0.0,-0.01494478547871021,0.0,0.0,0.0,0.0,0.0,0.0,-15.228,0.0,0.0,0.0
370,0.0,0.0,0.0,-0.0139775390625,0.0,0.0,0.0,0.0,0.0,0.0,-0.022,0.0,0.0,0.0,0.0,0.0,0.0,-0.014966250161723328,0.0,0.0,0.0,0.0,0.0,0.0,-15.228,0.0,0.0,0.0
371,0.0,0.0,0.0,-0.0147080078125,0.0,0.0,0.0,0.0,0.0,0.0,-0.045,0.0,0.0,0.0,0.0,0.0,0.0,-0.015797506310639496,0.0,0.0,0.0,0.0,0.0,0.0,-14.292,0.0,0.0,0.0
372,0.0,0.0,0.0,-0.0147080078125,0.0,0.0,0.0,0.0,0.0,0.0,-0.045,0.0,0.0,0.0,0.0,0.0,0.0,-0.015681268749285014,0.0,0.0,0.0,0.0,0.0,0.0,-14.292,0.0,0.0,0.0
373,0.0,0.0,0.0,-0.0149970703125,0.0,0.0,0.0,0.0,0.0,0.0,-0.059,0.0,0.0,0.0,0.0,0.0,0.0,-0.015983749658091323,0.0,0.0,0.0,0.0,0.0,0.0,-13.604,0.0,0.0,0.0
374,0.0,0.0,0.0,-0.0149970703125,0.0,0.0,0.0,0.0,0.0,0.0,-0.059,0.0,0.0,0.0,0.0,0.0,0.0,-0.01599478181660588,0.0,0.0,0.0,0.0,0.0,0.0,-13.604,0.0,0.0,0.0
375,0.0,0.0,0.0,-0.0149970703125,0.0,0.0,0.0,0.0,0.0,0.0,-0.011,0.0,0.0,0.0,0.0,0.0,0.0,-0.01603081869468795,0.0,0.0,0.0,0.0,0.0,0.0,-14.728,0.0,0.0,0.0
376,0.0,0.0,0.0,-0.0149970703125,0.0,0.0,0.0,0.0,0.0,0.0,-0.011,0.0,0.0,0.0,0.0,0.0,0.0,-0.016070588807596348,0.0,0.0,0.0,0.0,0.0,0.0,-14.728,0.0,0.0,0.0
377,0.0,0.0,0.0,-0.0154306640625,0.0,0.0,0.0,0.0,0.0,0.0,-0.016,0.0,0.0,0.0,0.0,0.0,0.0,-0.016599994415249744,0.0,0.0,0.0,0.0,0.0,0.0,-15.64,0.0,0.0,0.0
378,0.0,0.0,0.0,-0.0154306640625,0.0,0.0,0.0,0.0,0.0,0.0,-0.016,0.0,0.0,0.0,0.0,0.0,0.0,-0.016475069021512592,0.0,0.0,0.0,0.0,0.0,0.0,-15.64,0.0,0.0,0.0
379,0.0,0.0,0.0,-0.01557421875,0.0,0.0,0.0,0.0,0.0,0.0,-0.035,0.0,0.0,0.0,0.0,0.0,0.0,-0.01666506620582866,0.0,0.0,0.0,0.0,0.0,0.0,-15.688,0.0,0.0,0.0
380,0.0,0.0,0.0,-0.01557421875,0.0,0.0,0.0,0.0,0.0,0.0,-0.035,0.0,0.0,0.0,0.0,0.0,0.0,-0.01663162274015708,0.0,0.0,0.0,0.0,0.0,0.0,-15.688,0.0,0.0,0.0
381,0.0,0.0,0.0,-0.01571875,0.0,0.0,0.0,0.0,0.0,0.0,-0.013,0.0,0.0,0.0,0.0,0.0,0.0,-0.016787160785316498,0.0,0.0,0.0,0.0,0.0,0.0,-15.412,0.0,0.0,0.0
382,0.0,0.0,0.0,-0.01571875,0.0,0.0,0.0,0.0,0.0,0.0,-0.013,0.0,0.0,0.0,0.0,0.0,0.0,-0.01685210570690587,0.0,0.0,0.0,0.0,0.0,0.0,-15.412,0.0,0.0,0.0
383,0.0,0.0,0.0,-0.0164404296875,0.0,0.0,0.0,0.0,0.0,0.0,-0.043,0.0,0.0,0.0,0.0,0.0,0.0,-0.01767522153801495,0.0,0.0,0.0,0.0,0.0,0.0,-14.36,0.0,0.0,0.0
384,0.0,0.0,0.0,-0.0164404296875,0.0,0.0,0.0,0.0,0.0,0.0,-0.043,0.0,0.0,0.0,0.0,0.0,0.0,-0.017585825365667072,0.0,0.0,0.0,0.0,0.0,0.0,-14.36,0.0,0.0,0.0
385,0.0,0.0,0.0,-0.0164404296875,0.0,0.0,0.0,0.0,0.0,0.0,-0.045,0.0,0.0,0.0,0.0,0.0,0.0,-0.017641018608601976,0.0,0.0,0.0,0.0,0.0,0.0,-14.704,0.0,0.0,0.0
386,0.0,0.0,0.0,-0.0164404296875,0.0,0.0,0.0,0.0,0.0,0.0,-0.045,0.0,0.0,0.0,0.0,0.0,0.0,-0.01761466105820405,0.0,0.0,0.0,0.0,0.0,0.0,-14.704,0.0,0.0,0.0
387,0.0,0.0,0.0,-0.0164404296875,0.0,0.0,0.0,0.0,0.0,0.0,0.0,0.0,0.0,0.0,0.0,0.0,0.0,-0.01728740964360511,0.0,0.0,0.0,0.0,0.0,0.0,-15.368,0.0,0.0,0.0
388,0.0,0.0,0.0,-0.0164404296875,0.0,0.0,0.0,0.0,0.0,0.0,0.0,0.0,0.0,0.0,0.0,0.0,0.0,-0.0174279073340148,0.0,0.0,0.0,0.0,0.0,0.0,-15.368,0.0,0.0,0.0
389,0.0,0.0,0.0,-0.0165849609375,0.0,0.0,0.0,0.0,0.0,0.0,-0.005,0.0,0.0,0.0,0.0,0.0,0.0,-0.018002962897844584,0.0,0.0,0.0,0.0,0.0,0.0,-15.94,0.0,0.0,0.0
390,0.0,0.0,0.0,-0.0165849609375,0.0,0.0,0.0,0.0,0.0,0.0,-0.005,0.0,0.0,0.0,0.0,0.0,0.0,-0.017663550557968585,0.0,0.0,0.0,0.0,0.0,0.0,-15.94,0.0,0.0,0.0
391,0.0,0.0,0.0,-0.0165849609375,0.0,0.0,0.0,0.0,0.0,0.0,-0.005,0.0,0.0,0.0,0.0,0.0,0.0,-0.01750784355488116,0.0,0.0,0.0,0.0,0.0,0.0,-15.94,0.0,0.0,0.0
392,0.0,0.0,0.0,-0.0171630859375,0.0,0.0,0.0,0.0,0.0,0.0,-0.037,0.0,0.0,0.0,0.0,0.0,0.0,-0.018048216526945448,0.0,0.0,0.0,0.0,0.0,0.0,-15.732,0.0,0.0,0.0
393,0.0,0.0,0.0,-0.0171630859375,0.0,0.0,0.0,0.0,0.0,0.0,-0.037,0.0,0.0,0.0,0.0,0.0,0.0,-0.01796920009781484,0.0,0.0,0.0,0.0,0.0,0.0,-15.732,0.0,0.0,0.0
394,0.0,0.0,0.0,-0.0171630859375,0.0,0.0,0.0,0.0,0.0,0.0,-0.037,0.0,0.0,0.0,0.0,0.0,0.0,-0.01797438273155595,0.0,0.0,0.0,0.0,0.0,0.0,-15.732,0.0,0.0,0.0
395,0.0,0.0,0.0,-0.017451171875,0.0,0.0,0.0,0.0,0.0,0.0,-0.042,0.0,0.0,0.0,0.0,0.0,0.0,-0.01831558899043428,0.0,0.0,0.0,0.0,0.0,0.0,-14.976,0.0,0.0,0.0
396,0.0,0.0,0.0,-0.017451171875,0.0,0.0,0.0,0.0,0.0,0.0,-0.042,0.0,0.0,0.0,0.0,0.0,0.0,-0.018735802956823307,0.0,0.0,0.0,0.0,0.0,0.0,-14.976,0.0,0.0,0.0
397,0.0,0.0,0.0,-0.017595703125,0.0,0.0,0.0,0.0,0.0,0.0,-0.024,0.0,0.0,0.0,0.0,0.0,0.0,-0.018634739621780944,0.0,0.0,0.0,0.0,0.0,0.0,-14.568,0.0,0.0,0.0
398,0.0,0.0,0.0,-0.017595703125,0.0,0.0,0.0,0.0,0.0,0.0,-0.024,0.0,0.0,0.0,0.0,0.0,0.0,-0.01843895244186608,0.0,0.0,0.0,0.0,0.0,0.0,-14.568,0.0,0.0,0.0
399,0.0,0.0,0.0,-0.017595703125,0.0,0.0,0.0,0.0,0.0,0.0,-0.024,0.0,0.0,0.0,0.0,0.0,0.0,-0.018469183142340945,0.0,0.0,0.0,0.0,0.0,0.0,-14.568,0.0,0.0,0.0
400,0.0,0.0,0.0,-0.0177490234375,0.0,0.0,0.0,0.0,0.0,0.0,-0.021,0.0,0.0,0.0,0.0,0.0,0.0,-0.01863265486244513,0.0,0.0,0.0,0.0,0.0,0.0,-14.704,0.0,0.0,0.0
401,0.0,0.0,0.0,-0.0177490234375,0.0,0.0,0.0,0.0,0.0,0.0,-0.021,0.0,0.0,0.0,0.0,0.0,0.0,-0.018616089996510477,0.0,0.0,0.0,0.0,0.0,0.0,-14.704,0.0,0.0,0.0
402,0.0,0.0,0.0,-0.0177490234375,0.0,0.0,0.0,0.0,0.0,0.0,-0.021,0.0,0.0,0.0,0.0,0.0,0.0,-0.01860962844505919,0.0,0.0,0.0,0.0,0.0,0.0,-14.704,0.0,0.0,0.0
403,0.0,0.0,0.0,-0.017595703125,0.0,0.0,0.0,0.0,0.0,0.0,-0.004,0.0,0.0,0.0,0.0,0.0,0.0,-0.01851605837149392,0.0,0.0,0.0,0.0,0.0,0.0,-15.504,0.0,0.0,0.0
404,0.0,0.0,0.0,-0.017595703125,0.0,0.0,0.0,0.0,0.0,0.0,-0.004,0.0,0.0,0.0,0.0,0.0,0.0,-0.018520136190681075,0.0,0.0,0.0,0.0,0.0,0.0,-15.504,0.0,0.0,0.0
405,0.0,0.0,0.0,-0.0178935546875,0.0,0.0,0.0,0.0,0.0,0.0,-0.002,0.0,0.0,0.0,0.0,0.0,0.0,-0.019179550107749764,0.0,0.0,0.0,0.0,0.0,0.0,-15.756,0.0,0.0,0.0
406,0.0,0.0,0.0,-0.0178935546875,0.0,0.0,0.0,0.0,0.0,0.0,-0.002,0.0,0.0,0.0,0.0,0.0,0.0,-0.018817025085432947,0.0,0.0,0.0,0.0,0.0,0.0,-15.756,0.0,0.0,0.0
407,0.0,0.0,0.0,-0.0178935546875,0.0,0.0,0.0,0.0,0.0,0.0,-0.002,0.0,0.0,0.0,0.0,0.0,0.0,-0.01878591280913241,0.0,0.0,0.0,0.0,0.0,0.0,-15.756,0.0,0.0,0.0
408,0.0,0.0,0.0,-0.0181826171875,0.0,0.0,0.0,0.0,0.0,0.0,-0.027,0.0,0.0,0.0,0.0,0.0,0.0,-0.019113374046637127,0.0,0.0,0.0,0.0,0.0,0.0,-15.068,0.0,0.0,0.0
409,0.0,0.0,0.0,-0.0181826171875,0.0,0.0,0.0,0.0,0.0,0.0,-0.027,0.0,0.0,0.0,0.0,0.0,0.0,-0.01909919988937206,0.0,0.0,0.0,0.0,0.0,0.0,-15.068,0.0,0.0,0.0
410,0.0,0.0,0.0,-0.0181826171875,0.0,0.0,0.0,0.0,0.0,0.0,-0.027,0.0,0.0,0.0,0.0,0.0,0.0,-0.019104251728247784,0.0,0.0,0.0,0.0,0.0,0.0,-15.068,0.0,0.0,0.0
411,0.0,0.0,0.0,-0.0183271484375,0.0,0.0,0.0,0.0,0.0,0.0,-0.024,0.0,0.0,0.0,0.0,0.0,0.0,-0.019325628447840196,0.0,0.0,0.0,0.0,0.0,0.0,-14.796,0.0,0.0,0.0
412,0.0,0.0,0.0,-0.0183271484375,0.0,0.0,0.0,0.0,0.0,0.0,-0.024,0.0,0.0,0.0,0.0,0.0,0.0,-0.01934551038049154,0.0,0.0,0.0,0.0,0.0,0.0,-14.796,0.0,0.0,0.0
413,0.0,0.0,0.0,-0.018615234375,0.0,0.0,0.0,0.0,0.0,0.0,-0.025,0.0,0.0,0.0,0.0,0.0,0.0,-0.020232853592016698,0.0,0.0,0.0,0.0,0.0,0.0,-14.408,0.0,0.0,0.0
414,0.0,0.0,0.0,-0.018615234375,0.0,0.0,0.0,0.0,0.0,0.0,-0.025,0.0,0.0,0.0,0.0,0.0,0.0,-0.019624950610726877,0.0,0.0,0.0,0.0,0.0,0.0,-14.408,0.0,0.0,0.0
415,0.0,0.0,0.0,-0.018615234375,0.0,0.0,0.0,0.0,0.0,0.0,-0.025,0.0,0.0,0.0,0.0,0.0,0.0,-0.01958853564085088,0.0,0.0,0.0,0.0,0.0,0.0,-14.408,0.0,0.0,0.0
416,0.0,0.0,0.0,-0.018470703125,0.0,0.0,0.0,0.0,0.0,0.0,-0.009,0.0,0.0,0.0,0.0,0.0,0.0,-0.019569056268853538,0.0,0.0,0.0,0.0,0.0,0.0,-14.84,0.0,0.0,0.0
417,0.0,0.0,0.0,-0.018470703125,0.0,0.0,0.0,0.0,0.0,0.0,-0.009,0.0,0.0,0.0,0.0,0.0,0.0,-0.01951393277394782,0.0,0.0,0.0,0.0,0.0,0.0,-14.84,0.0,0.0,0.0
418,0.0,0.0,0.0,-0.018470703125,0.0,0.0,0.0,0.0,0.0,0.0,-0.009,0.0,0.0,0.0,0.0,0.0,0.0,-0.019525811179335176,0.0,0.0,0.0,0.0,0.0,0.0,-14.84,0.0,0.0,0.0
419,0.0,0.0,0.0,-0.018615234375,0.0,0.0,0.0,0.0,0.0,0.0,0.009,0.0,0.0,0.0,0.0,0.0,0.0,-0.0196396996839031,0.0,0.0,0.0,0.0,0.0,0.0,-15.64,0.0,0.0,0.0
420,0.0,0.0,0.0,-0.018615234375,0.0,0.0,0.0,0.0,0.0,0.0,0.009,0.0,0.0,0.0,0.0,0.0,0.0,-0.019727598991954743,0.0,0.0,0.0,0.0,0.0,0.0,-15.64,0.0,0.0,0.0
421,0.0,0.0,0.0,-0.019193359375,0.0,0.0,0.0,0.0,0.0,0.0,-0.035,0.0,0.0,0.0,0.0,0.0,0.0,-0.020744441468766698,0.0,0.0,0.0,0.0,0.0,0.0,-15.824,0.0,0.0,0.0
422,0.0,0.0,0.0,-0.019193359375,0.0,0.0,0.0,0.0,0.0,0.0,-0.035,0.0,0.0,0.0,0.0,0.0,0.0,-0.020246742093585072,0.0,0.0,0.0,0.0,0.0,0.0,-15.824,0.0,0.0,0.0
423,0.0,0.0,0.0,-0.019193359375,0.0,0.0,0.0,0.0,0.0,0.0,-0.035,0.0,0.0,0.0,0.0,0.0,0.0,-0.02019559857845227,0.0,0.0,0.0,0.0,0.0,0.0,-15.824,0.0,0.0,0.0
424,0.0,0.0,0.0,-0.0196259765625,0.0,0.0,0.0,0.0,0.0,0.0,-0.061,0.0,0.0,0.0,0.0,0.0,0.0,-0.020763072301443607,0.0,0.0,0.0,0.0,0.0,0.0,-15.024,0.0,0.0,0.0
425,0.0,0.0,0.0,-0.0196259765625,0.0,0.0,0.0,0.0,0.0,0.0,-0.061,0.0,0.0,0.0,0.0,0.0,0.0,-0.020606495302604187,0.0,0.0,0.0,0.0,0.0,0.0,-15.024,0.0,0.0,0.0
426,0.0,0.0,0.0,-0.0196259765625,0.0,0.0,0.0,0.0,0.0,0.0,-0.061,0.0,0.0,0.0,0.0,0.0,0.0,-0.020655261978945204,0.0,0.0,0.0,0.0,0.0,0.0,-15.024,0.0,0.0,0.0
427,0.0,0.0,0.0,-0.0199150390625,0.0,0.0,0.0,0.0,0.0,0.0,-0.035,0.0,0.0,0.0,0.0,0.0,0.0,-0.020975841733877593,0.0,0.0,0.0,0.0,0.0,0.0,-14.864,0.0,0.0,0.0
428,0.0,0.0,0.0,-0.0199150390625,0.0,0.0,0.0,0.0,0.0,0.0,-0.035,0.0,0.0,0.0,0.0,0.0,0.0,-0.020961698774860177,0.0,0.0,0.0,0.0,0.0,0.0,-14.864,0.0,0.0,0.0
429,0.0,0.0,0.0,-0.020203125,0.0,0.0,0.0,0.0,0.0,0.0,-0.029,0.0,0.0,0.0,0.0,0.0,0.0,-0.021835306923265695,0.0,0.0,0.0,0.0,0.0,0.0,-14.568,0.0,0.0,0.0
430,0.0,0.0,0.0,-0.020203125,0.0,0.0,0.0,0.0,0.0,0.0,-0.029,0.0,0.0,0.0,0.0,0.0,0.0,-0.021400070032724382,0.0,0.0,0.0,0.0,0.0,0.0,-14.568,0.0,0.0,0.0
431,0.0,0.0,0.0,-0.020203125,0.0,0.0,0.0,0.0,0.0,0.0,-0.029,0.0,0.0,0.0,0.0,0.0,0.0,-0.02121434018239605,0.0,0.0,0.0,0.0,0.0,0.0,-14.568,0.0,0.0,0.0
432,0.0,0.0,0.0,-0.0200595703125,0.0,0.0,0.0,0.0,0.0,0.0,-0.01,0.0,0.0,0.0,0.0,0.0,0.0,-0.02112675702009487,0.0,0.0,0.0,0.0,0.0,0.0,-15.228,0.0,0.0,0.0
433,0.0,0.0,0.0,-0.0200595703125,0.0,0.0,0.0,0.0,0.0,0.0,-0.01,0.0,0.0,0.0,0.0,0.0,0.0,-0.02118116095321471,0.0,0.0,0.0,0.0,0.0,0.0,-15.228,0.0,0.0,0.0
434,0.0,0.0,0.0,-0.0200595703125,0.0,0.0,0.0,0.0,0.0,0.0,-0.01,0.0,0.0,0.0,0.0,0.0,0.0,-0.021387922975668498,0.0,0.0,0.0,0.0,0.0,0.0,-15.228,0.0,0.0,0.0
435,0.0,0.0,0.0,-0.020203125,0.0,0.0,0.0,0.0,0.0,0.0,0.008,0.0,0.0,0.0,0.0,0.0,0.0,-0.021817643711264333,0.0,0.0,0.0,0.0,0.0,0.0,-16.212,0.0,0.0,0.0
436,0.0,0.0,0.0,-0.020203125,0.0,0.0,0.0,0.0,0.0,0.0,0.008,0.0,0.0,0.0,0.0,0.0,0.0,-0.021622313411078908,0.0,0.0,0.0,0.0,0.0,0.0,-16.212,0.0,0.0,0.0
437,0.0,0.0,0.0,-0.0207900390625,0.0,0.0,0.0,0.0,0.0,0.0,-0.035,0.0,0.0,0.0,0.0,0.0,0.0,-0.022464950660682617,0.0,0.0,0.0,0.0,0.0,0.0,-15.8,0.0,0.0,0.0
438,0.0,0.0,0.0,-0.0207900390625,0.0,0.0,0.0,0.0,0.0,0.0,-0.035,0.0,0.0,0.0,0.0,0.0,0.0,-0.021846130840463787,0.0,0.0,0.0,0.0,0.0,0.0,-15.8,0.0,0.0,0.0
439,0.0,0.0,0.0,-0.0209345703125,0.0,0.0,0.0,0.0,0.0,0.0,-0.043,0.0,0.0,0.0,0.0,0.0,0.0,-0.022264906184965006,0.0,0.0,0.0,0.0,0.0,0.0,-15.024,0.0,0.0,0.0
440,0.0,0.0,0.0,-0.0209345703125,0.0,0.0,0.0,0.0,0.0,0.0,-0.043,0.0,0.0,0.0,0.0,0.0,0.0,-0.022018497546407546,0.0,0.0,0.0,0.0,0.0,0.0,-15.024,0.0,0.0,0.0
441,0.0,0.0,0.0,-0.0209345703125,0.0,0.0,0.0,0.0,0.0,0.0,-0.043,0.0,0.0,0.0,0.0,0.0,0.0,-0.022082532087521468,0.0,0.0,0.0,0.0,0.0,0.0,-15.024,0.0,0.0,0.0
442,0.0,0.0,0.0,-0.0212236328125,0.0,0.0,0.0,0.0,0.0,0.0,-0.025,0.0,0.0,0.0,0.0,0.0,0.0,-0.022394981537666222,0.0,0.0,0.0,0.0,0.0,0.0,-14.568,0.0,0.0,0.0
443,0.0,0.0,0.0,-0.0212236328125,0.0,0.0,0.0,0.0,0.0,0.0,-0.025,0.0,0.0,0.0,0.0,0.0,0.0,-0.022305845437110502,0.0,0.0,0.0,0.0,0.0,0.0,-14.568,0.0,0.0,0.0
444,0.0,0.0,0.0,-0.0212236328125,0.0,0.0,0.0,0.0,0.0,0.0,-0.025,0.0,0.0,0.0,0.0,0.0,0.0,-0.022524531460566263,0.0,0.0,0.0,0.0,0.0,0.0,-14.568,0.0,0.0,0.0
445,0.0,0.0,0.0,-0.02151171875,0.0,0.0,0.0,0.0,0.0,0.0,-0.027,0.0,0.0,0.0,0.0,0.0,0.0,-0.02309594720424122,0.0,0.0,0.0,0.0,0.0,0.0,-15.092,0.0,0.0,0.0
446,0.0,0.0,0.0,-0.02151171875,0.0,0.0,0.0,0.0,0.0,0.0,-0.027,0.0,0.0,0.0,0.0,0.0,0.0,-0.022807510378513897,0.0,0.0,0.0,0.0,0.0,0.0,-15.092,0.0,0.0,0.0
447,0.0,0.0,0.0,-0.02180078125,0.0,0.0,0.0,0.0,0.0,0.0,-0.028,0.0,0.0,0.0,0.0,0.0,0.0,-0.022996494497343523,0.0,0.0,0.0,0.0,0.0,0.0,-15.688,0.0,0.0,0.0
448,0.0,0.0,0.0,-0.02180078125,0.0,0.0,0.0,0.0,0.0,0.0,-0.028,0.0,0.0,0.0,0.0,0.0,0.0,-0.023090463913438487,0.0,0.0,0.0,0.0,0.0,0.0,-15.688,0.0,0.0,0.0
449,0.0,0.0,0.0,-0.02180078125,0.0,0.0,0.0,0.0,0.0,0.0,-0.028,0.0,0.0,0.0,0.0,0.0,0.0,-0.022906395148954085,0.0,0.0,0.0,0.0,0.0,0.0,-15.688,0.0,0.0,0.0
450,0.0,0.0,0.0,-0.0219453125,0.0,0.0,0.0,0.0,0.0,0.0,-0.018,0.0,0.0,0.0,0.0,0.0,0.0,-0.023122471867582893,0.0,0.0,0.0,0.0,0.0,0.0,-15.436,0.0,0.0,0.0
451,0.0,0.0,0.0,-0.0219453125,0.0,0.0,0.0,0.0,0.0,0.0,-0.018,0.0,0.0,0.0,0.0,0.0,0.0,-0.02307379739522588,0.0,0.0,0.0,0.0,0.0,0.0,-15.436,0.0,0.0,0.0
452,0.0,0.0,0.0,-0.0219453125,0.0,0.0,0.0,0.0,0.0,0.0,-0.018,0.0,0.0,0.0,0.0,0.0,0.0,-0.023231177853935768,0.0,0.0,0.0,0.0,0.0,0.0,-15.436,0.0,0.0,0.0
453,0.0,0.0,0.0,-0.0222333984375,0.0,0.0,0.0,0.0,0.0,0.0,-0.017,0.0,0.0,0.0,0.0,0.0,0.0,-0.023968295089169703,0.0,0.0,0.0,0.0,0.0,0.0,-15.092,0.0,0.0,0.0
454,0.0,0.0,0.0,-0.0222333984375,0.0,0.0,0.0,0.0,0.0,0.0,-0.017,0.0,0.0,0.0,0.0,0.0,0.0,-0.023427917660120427,0.0,0.0,0.0,0.0,0.0,0.0,-15.092,0.0,0.0,0.0
455,0.0,0.0,0.0,-0.0222333984375,0.0,0.0,0.0,0.0,0.0,0.0,-0.017,0.0,0.0,0.0,0.0,0.0,0.0,-0.02337720982727443,0.0,0.0,0.0,0.0,0.0,0.0,-15.092,0.0,0.0,0.0
456,0.0,0.0,0.0,-0.0225224609375,0.0,0.0,0.0,0.0,0.0,0.0,-0.038,0.0,0.0,0.0,0.0,0.0,0.0,-0.023851090451541556,0.0,0.0,0.0,0.0,0.0,0.0,-14.268,0.0,0.0,0.0
457,0.0,0.0,0.0,-0.0225224609375,0.0,0.0,0.0,0.0,0.0,0.0,-0.038,0.0,0.0,0.0,0.0,0.0,0.0,-0.023775409658235335,0.0,0.0,0.0,0.0,0.0,0.0,-14.268,0.0,0.0,0.0
458,0.0,0.0,0.0,-0.0225224609375,0.0,0.0,0.0,0.0,0.0,0.0,-0.016,0.0,0.0,0.0,0.0,0.0,0.0,-0.02374937891571378,0.0,0.0,0.0,0.0,0.0,0.0,-14.84,0.0,0.0,0.0
459,0.0,0.0,0.0,-0.0225224609375,0.0,0.0,0.0,0.0,0.0,0.0,-0.016,0.0,0.0,0.0,0.0,0.0,0.0,-0.023659178816389525,0.0,0.0,0.0,0.0,0.0,0.0,-14.84,0.0,0.0,0.0
460,0.0,0.0,0.0,-0.0225224609375,0.0,0.0,0.0,0.0,0.0,0.0,-0.016,0.0,0.0,0.0,0.0,0.0,0.0,-0.023664696558312614,0.0,0.0,0.0,0.0,0.0,0.0,-14.84,0.0,0.0,0.0
461,0.0,0.0,0.0,-0.0231005859375,0.0,0.0,0.0,0.0,0.0,0.0,-0.022,0.0,0.0,0.0,0.0,0.0,0.0,-0.02495234005705252,0.0,0.0,0.0,0.0,0.0,0.0,-15.48,0.0,0.0,0.0
462,0.0,0.0,0.0,-0.0231005859375,0.0,0.0,0.0,0.0,0.0,0.0,-0.022,0.0,0.0,0.0,0.0,0.0,0.0,-0.024521845456941554,0.0,0.0,0.0,0.0,0.0,0.0,-15.48,0.0,0.0,0.0
463,0.0,0.0,0.0,-0.0231005859375,0.0,0.0,0.0,0.0,0.0,0.0,-0.022,0.0,0.0,0.0,0.0,0.0,0.0,-0.024276573198174806,0.0,0.0,0.0,0.0,0.0,0.0,-15.48,0.0,0.0,0.0
464,0.0,0.0,0.0,-0.023533203125,0.0,0.0,0.0,0.0,0.0,0.0,-0.055,0.0,0.0,0.0,0.0,0.0,0.0,-0.024922581645554207,0.0,0.0,0.0,0.0,0.0,0.0,-15.092,0.0,0.0,0.0
465,0.0,0.0,0.0,-0.023533203125,0.0,0.0,0.0,0.0,0.0,0.0,-0.055,0.0,0.0,0.0,0.0,0.0,0.0,-0.024740458679663277,0.0,0.0,0.0,0.0,0.0,0.0,-15.092,0.0,0.0,0.0
466,0.0,0.0,0.0,-0.023677734375,0.0,0.0,0.0,0.0,0.0,0.0,-0.028,0.0,0.0,0.0,0.0,0.0,0.0,-0.02500672208745121,0.0,0.0,0.0,0.0,0.0,0.0,-15.136,0.0,0.0,0.0
467,0.0,0.0,0.0,-0.023677734375,0.0,0.0,0.0,0.0,0.0,0.0,-0.028,0.0,0.0,0.0,0.0,0.0,0.0,-0.024929502857521452,0.0,0.0,0.0,0.0,0.0,0.0,-15.136,0.0,0.0,0.0
468,0.0,0.0,0.0,-0.023677734375,0.0,0.0,0.0,0.0,0.0,0.0,-0.028,0.0,0.0,0.0,0.0,0.0,0.0,-0.024900956436922934,0.0,0.0,0.0,0.0,0.0,0.0,-15.136,0.0,0.0,0.0
469,0.0,0.0,0.0,-0.024552734375,0.0,0.0,0.0,0.0,0.0,0.0,-0.047,0.0,0.0,0.0,0.0,0.0,0.0,-0.026284289265252506,0.0,0.0,0.0,0.0,0.0,0.0,-14.68,0.0,0.0,0.0
470,0.0,0.0,0.0,-0.024552734375,0.0,0.0,0.0,0.0,0.0,0.0,-0.047,0.0,0.0,0.0,0.0,0.0,0.0,-0.026216512594610556,0.0,0.0,0.0,0.0,0.0,0.0,-14.68,0.0,0.0,0.0
471,0.0,0.0,0.0,-0.024552734375,0.0,0.0,0.0,0.0,0.0,0.0,-0.047,0.0,0.0,0.0,0.0,0.0,0.0,-0.025823075177351554,0.0,0.0,0.0,0.0,0.0,0.0,-14.68,0.0,0.0,0.0
472,0.0,0.0,0.0,-0.024986328125,0.0,0.0,0.0,0.0,0.0,0.0,-0.072,0.0,0.0,0.0,0.0,0.0,0.0,-0.0264175489495133,0.0,0.0,0.0,0.0,0.0,0.0,-14.428,0.0,0.0,0.0
473,0.0,0.0,0.0,-0.024986328125,0.0,0.0,0.0,0.0,0.0,0.0,-0.072,0.0,0.0,0.0,0.0,0.0,0.0,-0.026258152463315435,0.0,0.0,0.0,0.0,0.0,0.0,-14.428,0.0,0.0,0.0
474,0.0,0.0,0.0,-0.024841796875,0.0,0.0,0.0,0.0,0.0,0.0,-0.015,0.0,0.0,0.0,0.0,0.0,0.0,-0.026146930988918387,0.0,0.0,0.0,0.0,0.0,0.0,-15.276,0.0,0.0,0.0
475,0.0,0.0,0.0,-0.024841796875,0.0,0.0,0.0,0.0,0.0,0.0,-0.015,0.0,0.0,0.0,0.0,0.0,0.0,-0.026078326149566382,0.0,0.0,0.0,0.0,0.0,0.0,-15.276,0.0,0.0,0.0
476,0.0,0.0,0.0,-0.024841796875,0.0,0.0,0.0,0.0,0.0,0.0,-0.015,0.0,0.0,0.0,0.0,0.0,0.0,-0.026153433026024724,0.0,0.0,0.0,0.0,0.0,0.0,-15.276,0.0,0.0,0.0
477,0.0,0.0,0.0,-0.0255634765625,0.0,0.0,0.0,0.0,0.0,0.0,-0.024,0.0,0.0,0.0,0.0,0.0,0.0,-0.02711996734645939,0.0,0.0,0.0,0.0,0.0,0.0,-15.732,0.0,0.0,0.0
478,0.0,0.0,0.0,-0.0255634765625,0.0,0.0,0.0,0.0,0.0,0.0,-0.024,0.0,0.0,0.0,0.0,0.0,0.0,-0.027394082698733342,0.0,0.0,0.0,0.0,0.0,0.0,-15.732,0.0,0.0,0.0
479,0.0,0.0,0.0,-0.0255634765625,0.0,0.0,0.0,0.0,0.0,0.0,-0.024,0.0,0.0,0.0,0.0,0.0,0.0,-0.026903960545426882,0.0,0.0,0.0,0.0,0.0,0.0,-15.732,0.0,0.0,0.0
480,0.0,0.0,0.0,-0.026140625,0.0,0.0,0.0,0.0,0.0,0.0,-0.07,0.0,0.0,0.0,0.0,0.0,0.0,-0.02752242721150369,0.0,0.0,0.0,0.0,0.0,0.0,-15.46,0.0,0.0,0.0
481,0.0,0.0,0.0,-0.026140625,0.0,0.0,0.0,0.0,0.0,0.0,-0.07,0.0,0.0,0.0,0.0,0.0,0.0,-0.027351658271038942,0.0,0.0,0.0,0.0,0.0,0.0,-15.46,0.0,0.0,0.0
482,0.0,0.0,0.0,-0.026140625,0.0,0.0,0.0,0.0,0.0,0.0,-0.07,0.0,0.0,0.0,0.0,0.0,0.0,-0.027411893725577757,0.0,0.0,0.0,0.0,0.0,0.0,-15.46,0.0,0.0,0.0
483,0.0,0.0,0.0,-0.02657421875,0.0,0.0,0.0,0.0,0.0,0.0,-0.049,0.0,0.0,0.0,0.0,0.0,0.0,-0.028071751553140106,0.0,0.0,0.0,0.0,0.0,0.0,-15.208,0.0,0.0,0.0
484,0.0,0.0,0.0,-0.02657421875,0.0,0.0,0.0,0.0,0.0,0.0,-0.049,0.0,0.0,0.0,0.0,0.0,0.0,-0.028047162437266192,0.0,0.0,0.0,0.0,0.0,0.0,-15.208,0.0,0.0,0.0
485,0.0,0.0,0.0,-0.0273046875,0.0,0.0,0.0,0.0,0.0,0.0,-0.055,0.0,0.0,0.0,0.0,0.0,0.0,-0.028851482788741438,0.0,0.0,0.0,0.0,0.0,0.0,-14.796,0.0,0.0,0.0
486,0.0,0.0,0.0,-0.0273046875,0.0,0.0,0.0,0.0,0.0,0.0,-0.055,0.0,0.0,0.0,0.0,0.0,0.0,-0.029440796150722974,0.0,0.0,0.0,0.0,0.0,0.0,-14.796,0.0,0.0,0.0
487,0.0,0.0,0.0,-0.02759375,0.0,0.0,0.0,0.0,0.0,0.0,-0.063,0.0,0.0,0.0,0.0,0.0,0.0,-0.02945368173842769,0.0,0.0,0.0,0.0,0.0,0.0,-14.612,0.0,0.0,0.0
488,0.0,0.0,0.0,-0.02759375,0.0,0.0,0.0,0.0,0.0,0.0,-0.063,0.0,0.0,0.0,0.0,0.0,0.0,-0.029649261686412687,0.0,0.0,0.0,0.0,0.0,0.0,-14.612,0.0,0.0,0.0
489,0.0,0.0,0.0,-0.02759375,0.0,0.0,0.0,0.0,0.0,0.0,-0.016,0.0,0.0,0.0,0.0,0.0,0.0,-0.029020012118839394,0.0,0.0,0.0,0.0,0.0,0.0,-15.412,0.0,0.0,0.0
490,0.0,0.0,0.0,-0.02759375,0.0,0.0,0.0,0.0,0.0,0.0,-0.016,0.0,0.0,0.0,0.0,0.0,0.0,-0.02909687298039043,0.0,0.0,0.0,0.0,0.0,0.0,-15.412,0.0,0.0,0.0
491,0.0,0.0,0.0,-0.02759375,0.0,0.0,0.0,0.0,0.0,0.0,-0.016,0.0,0.0,0.0,0.0,0.0,0.0,-0.02916677488707442,0.0,0.0,0.0,0.0,0.0,0.0,-15.412,0.0,0.0,0.0
492,0.0,0.0,0.0,-0.0284599609375,0.0,0.0,0.0,0.0,0.0,0.0,-0.032,0.0,0.0,0.0,0.0,0.0,0.0,-0.030229347195025347,0.0,0.0,0.0,0.0,0.0,0.0,-15.756,0.0,0.0,0.0
493,0.0,0.0,0.0,-0.0284599609375,0.0,0.0,0.0,0.0,0.0,0.0,-0.032,0.0,0.0,0.0,0.0,0.0,0.0,-0.030533493465790346,0.0,0.0,0.0,0.0,0.0,0.0,-15.756,0.0,0.0,0.0
494,0.0,0.0,0.0,-0.029181640625,0.0,0.0,0.0,0.0,0.0,0.0,-0.09,0.0,0.0,0.0,0.0,0.0,0.0,-0.030831795720683338,0.0,0.0,0.0,0.0,0.0,0.0,-14.976,0.0,0.0,0.0
495,0.0,0.0,0.0,-0.029181640625,0.0,0.0,0.0,0.0,0.0,0.0,-0.09,0.0,0.0,0.0,0.0,0.0,0.0,-0.03081235123012679,0.0,0.0,0.0,0.0,0.0,0.0,-14.976,0.0,0.0,0.0
496,0.0,0.0,0.0,-0.029181640625,0.0,0.0,0.0,0.0,0.0,0.0,-0.09,0.0,0.0,0.0,0.0,0.0,0.0,-0.03065503244978032,0.0,0.0,0.0,0.0,0.0,0.0,-14.976,0.0,0.0,0.0
497,0.0,0.0,0.0,-0.029615234375,0.0,0.0,0.0,0.0,0.0,0.0,-0.056,0.0,0.0,0.0,0.0,0.0,0.0,-0.03132548949761408,0.0,0.0,0.0,0.0,0.0,0.0,-14.496,0.0,0.0,0.0
498,0.0,0.0,0.0,-0.029615234375,0.0,0.0,0.0,0.0,0.0,0.0,-0.056,0.0,0.0,0.0,0.0,0.0,0.0,-0.03127097107603553,0.0,0.0,0.0,0.0,0.0,0.0,-14.496,0.0,0.0,0.0
499,0.0,0.0,0.0,-0.030345703125,0.0,0.0,0.0,0.0,0.0,0.0,-0.054,0.0,0.0,0.0,0.0,0.0,0.0,-0.03214494960040541,0.0,0.0,0.0,0.0,0.0,0.0,-14.064,0.0,0.0,0.0
500,0.0,0.0,0.0,-0.030345703125,0.0,0.0,0.0,0.0,0.0,0.0,-0.054,0.0,0.0,0.0,0.0,0.0,0.0,-0.03266675529249412,0.0,0.0,0.0,0.0,0.0,0.0,-14.064,0.0,0.0,0.0
501,0.0,0.0,0.0,-0.0309326171875,0.0,0.0,0.0,0.0,0.0,0.0,-0.072,0.0,0.0,0.0,0.0,0.0,0.0,-0.03304050388216724,0.0,0.0,0.0,0.0,0.0,0.0,-14.588,0.0,0.0,0.0
502,0.0,0.0,0.0,-0.0309326171875,0.0,0.0,0.0,0.0,0.0,0.0,-0.072,0.0,0.0,0.0,0.0,0.0,0.0,-0.03299635199611163,0.0,0.0,0.0,0.0,0.0,0.0,-14.588,0.0,0.0,0.0
503,0.0,0.0,0.0,-0.031365234375,0.0,0.0,0.0,0.0,0.0,0.0,-0.056,0.0,0.0,0.0,0.0,0.0,0.0,-0.03342565146184124,0.0,0.0,0.0,0.0,0.0,0.0,-15.068,0.0,0.0,0.0
504,0.0,0.0,0.0,-0.031365234375,0.0,0.0,0.0,0.0,0.0,0.0,-0.056,0.0,0.0,0.0,0.0,0.0,0.0,-0.03335739648364217,0.0,0.0,0.0,0.0,0.0,0.0,-15.068,0.0,0.0,0.0
505,0.0,0.0,0.0,-0.0322314453125,0.0,0.0,0.0,0.0,0.0,0.0,-0.062,0.0,0.0,0.0,0.0,0.0,0.0,-0.03452856018089285,0.0,0.0,0.0,0.0,0.0,0.0,-15.412,0.0,0.0,0.0
506,0.0,0.0,0.0,-0.0322314453125,0.0,0.0,0.0,0.0,0.0,0.0,-0.062,0.0,0.0,0.0,0.0,0.0,0.0,-0.0343035904933646,0.0,0.0,0.0,0.0,0.0,0.0,-15.412,0.0,0.0,0.0
507,0.0,0.0,0.0,-0.0335400390625,0.0,0.0,0.0,0.0,0.0,0.0,-0.112,0.0,0.0,0.0,0.0,0.0,0.0,-0.03510217305613042,0.0,0.0,0.0,0.0,0.0,0.0,-14.796,0.0,0.0,0.0
508,0.0,0.0,0.0,-0.0335400390625,0.0,0.0,0.0,0.0,0.0,0.0,-0.112,0.0,0.0,0.0,0.0,0.0,0.0,-0.035053793678335665,0.0,0.0,0.0,0.0,0.0,0.0,-14.796,0.0,0.0,0.0
509,0.0,0.0,0.0,-0.0335400390625,0.0,0.0,0.0,0.0,0.0,0.0,-0.112,0.0,0.0,0.0,0.0,0.0,0.0,-0.03490399212491538,0.0,0.0,0.0,0.0,0.0,0.0,-14.796,0.0,0.0,0.0
510,0.0,0.0,0.0,-0.03426171875,0.0,0.0,0.0,0.0,0.0,0.0,-0.111,0.0,0.0,0.0,0.0,0.0,0.0,-0.035770525314994556,0.0,0.0,0.0,0.0,0.0,0.0,-14.084,0.0,0.0,0.0
511,0.0,0.0,0.0,-0.03426171875,0.0,0.0,0.0,0.0,0.0,0.0,-0.111,0.0,0.0,0.0,0.0,0.0,0.0,-0.035662582004287596,0.0,0.0,0.0,0.0,0.0,0.0,-14.084,0.0,0.0,0.0
512,0.0,0.0,0.0,-0.03426171875,0.0,0.0,0.0,0.0,0.0,0.0,-0.111,0.0,0.0,0.0,0.0,0.0,0.0,-0.035662749810827926,0.0,0.0,0.0,0.0,0.0,0.0,-14.084,0.0,0.0,0.0
513,0.0,0.0,0.0,-0.0351279296875,0.0,0.0,0.0,0.0,0.0,0.0,-0.072,0.0,0.0,0.0,0.0,0.0,0.0,-0.03677339173971122,0.0,0.0,0.0,0.0,0.0,0.0,-14.476,0.0,0.0,0.0
514,0.0,0.0,0.0,-0.0351279296875,0.0,0.0,0.0,0.0,0.0,0.0,-0.072,0.0,0.0,0.0,0.0,0.0,0.0,-0.03709945319615781,0.0,0.0,0.0,0.0,0.0,0.0,-14.476,0.0,0.0,0.0
515,0.0,0.0,0.0,-0.035994140625,0.0,0.0,0.0,0.0,0.0,0.0,-0.094,0.0,0.0,0.0,0.0,0.0,0.0,-0.03794752378741572,0.0,0.0,0.0,0.0,0.0,0.0,-14.36,0.0,0.0,0.0
516,0.0,0.0,0.0,-0.035994140625,0.0,0.0,0.0,0.0,0.0,0.0,-0.094,0.0,0.0,0.0,0.0,0.0,0.0,-0.037513470932161334,0.0,0.0,0.0,0.0,0.0,0.0,-14.36,0.0,0.0,0.0
517,0.0,0.0,0.0,-0.035994140625,0.0,0.0,0.0,0.0,0.0,0.0,-0.094,0.0,0.0,0.0,0.0,0.0,0.0,-0.037467946301069165,0.0,0.0,0.0,0.0,0.0,0.0,-14.36,0.0,0.0,0.0
518,0.0,0.0,0.0,-0.0364365234375,0.0,0.0,0.0,0.0,0.0,0.0,-0.067,0.0,0.0,0.0,0.0,0.0,0.0,-0.038084671838009974,0.0,0.0,0.0,0.0,0.0,0.0,-15.16,0.0,0.0,0.0
519,0.0,0.0,0.0,-0.0364365234375,0.0,0.0,0.0,0.0,0.0,0.0,-0.067,0.0,0.0,0.0,0.0,0.0,0.0,-0.03799296849171609,0.0,0.0,0.0,0.0,0.0,0.0,-15.16,0.0,0.0,0.0
520,0.0,0.0,0.0,-0.037736328125,0.0,0.0,0.0,0.0,0.0,0.0,-0.075,0.0,0.0,0.0,0.0,0.0,0.0,-0.039418274604278776,0.0,0.0,0.0,0.0,0.0,0.0,-15.3,0.0,0.0,0.0
521,0.0,0.0,0.0,-0.037736328125,0.0,0.0,0.0,0.0,0.0,0.0,-0.075,0.0,0.0,0.0,0.0,0.0,0.0,-0.039945203410763054,0.0,0.0,0.0,0.0,0.0,0.0,-15.3,0.0,0.0,0.0
522,0.0,0.0,0.0,-0.0388916015625,0.0,0.0,0.0,0.0,0.0,0.0,-0.134,0.0,0.0,0.0,0.0,0.0,0.0,-0.040981204737384966,0.0,0.0,0.0,0.0,0.0,0.0,-14.224,0.0,0.0,0.0
523,0.0,0.0,0.0,-0.0388916015625,0.0,0.0,0.0,0.0,0.0,0.0,-0.134,0.0,0.0,0.0,0.0,0.0,0.0,-0.04051801115775601,0.0,0.0,0.0,0.0,0.0,0.0,-14.224,0.0,0.0,0.0
524,0.0,0.0,0.0,-0.0388916015625,0.0,0.0,0.0,0.0,0.0,0.0,-0.134,0.0,0.0,0.0,0.0,0.0,0.0,-0.04064472018494948,0.0,0.0,0.0,0.0,0.0,0.0,-14.224,0.0,0.0,0.0
525,0.0,0.0,0.0,-0.0394775390625,0.0,0.0,0.0,0.0,0.0,0.0,-0.089,0.0,0.0,0.0,0.0,0.0,0.0,-0.04119383758713967,0.0,0.0,0.0,0.0,0.0,0.0,-14.04,0.0,0.0,0.0
526,0.0,0.0,0.0,-0.0394775390625,0.0,0.0,0.0,0.0,0.0,0.0,-0.089,0.0,0.0,0.0,0.0,0.0,0.0,-0.04108188965522268,0.0,0.0,0.0,0.0,0.0,0.0,-14.04,0.0,0.0,0.0
527,0.0,0.0,0.0,-0.0394775390625,0.0,0.0,0.0,0.0,0.0,0.0,-0.089,0.0,0.0,0.0,0.0,0.0,0.0,-0.04092290269501368,0.0,0.0,0.0,0.0,0.0,0.0,-14.04,0.0,0.0,0.0
528,0.0,0.0,0.0,-0.0406328125,0.0,0.0,0.0,0.0,0.0,0.0,-0.078,0.0,0.0,0.0,0.0,0.0,0.0,-0.042539808039189574,0.0,0.0,0.0,0.0,0.0,0.0,-14.292,0.0,0.0,0.0
529,0.0,0.0,0.0,-0.0416435546875,0.0,0.0,0.0,0.0,0.0,0.0,-0.119,0.0,0.0,0.0,0.0,0.0,0.0,-0.044263806663066785,0.0,0.0,0.0,0.0,0.0,0.0,-14.336,0.0,0.0,0.0
530,0.0,0.0,0.0,-0.0416435546875,0.0,0.0,0.0,0.0,0.0,0.0,-0.119,0.0,0.0,0.0,0.0,0.0,0.0,-0.043917087880380096,0.0,0.0,0.0,0.0,0.0,0.0,-14.336,0.0,0.0,0.0
531,0.0,0.0,0.0,-0.042076171875,0.0,0.0,0.0,0.0,0.0,0.0,-0.073,0.0,0.0,0.0,0.0,0.0,0.0,-0.044246806282784004,0.0,0.0,0.0,0.0,0.0,0.0,-14.636,0.0,0.0,0.0
532,0.0,0.0,0.0,-0.042076171875,0.0,0.0,0.0,0.0,0.0,0.0,-0.073,0.0,0.0,0.0,0.0,0.0,0.0,-0.044208013189731846,0.0,0.0,0.0,0.0,0.0,0.0,-14.636,0.0,0.0,0.0
533,0.0,0.0,0.0,-0.043240234375,0.0,0.0,0.0,0.0,0.0,0.0,-0.069,0.0,0.0,0.0,0.0,0.0,0.0,-0.045479597555379704,0.0,0.0,0.0,0.0,0.0,0.0,-14.68,0.0,0.0,0.0
534,0.0,0.0,0.0,-0.043240234375,0.0,0.0,0.0,0.0,0.0,0.0,-0.069,0.0,0.0,0.0,0.0,0.0,0.0,-0.04493654997198394,0.0,0.0,0.0,0.0,0.0,0.0,-14.68,0.0,0.0,0.0
535,0.0,0.0,0.0,-0.043240234375,0.0,0.0,0.0,0.0,0.0,0.0,-0.069,0.0,0.0,0.0,0.0,0.0,0.0,-0.0458836293305934,0.0,0.0,0.0,0.0,0.0,0.0,-14.68,0.0,0.0,0.0
536,0.0,0.0,0.0,-0.0451171875,0.0,0.0,0.0,0.0,0.0,0.0,-0.153,0.0,0.0,0.0,0.0,0.0,0.0,-0.047031921749638786,0.0,0.0,0.0,0.0,0.0,0.0,-14.68,0.0,0.0,0.0
537,0.0,0.0,0.0,-0.0451171875,0.0,0.0,0.0,0.0,0.0,0.0,-0.153,0.0,0.0,0.0,0.0,0.0,0.0,-0.04687797206163165,0.0,0.0,0.0,0.0,0.0,0.0,-14.68,0.0,0.0,0.0
538,0.0,0.0,0.0,-0.04628125,0.0,0.0,0.0,0.0,0.0,0.0,-0.166,0.0,0.0,0.0,0.0,0.0,0.0,-0.04820337624167021,0.0,0.0,0.0,0.0,0.0,0.0,-13.948,0.0,0.0,0.0
539,0.0,0.0,0.0,-0.04628125,0.0,0.0,0.0,0.0,0.0,0.0,-0.166,0.0,0.0,0.0,0.0,0.0,0.0,-0.04845007134513422,0.0,0.0,0.0,0.0,0.0,0.0,-13.948,0.0,0.0,0.0
540,0.0,0.0,0.0,-0.0470029296875,0.0,0.0,0.0,0.0,0.0,0.0,-0.083,0.0,0.0,0.0,0.0,0.0,0.0,-0.04931088215648563,0.0,0.0,0.0,0.0,0.0,0.0,-14.248,0.0,0.0,0.0
541,0.0,0.0,0.0,-0.0470029296875,0.0,0.0,0.0,0.0,0.0,0.0,-0.083,0.0,0.0,0.0,0.0,0.0,0.0,-0.049643737176697705,0.0,0.0,0.0,0.0,0.0,0.0,-14.248,0.0,0.0,0.0
542,0.0,0.0,0.0,-0.0484560546875,0.0,0.0,0.0,0.0,0.0,0.0,-0.11,0.0,0.0,0.0,0.0,0.0,0.0,-0.0509654593681641,0.0,0.0,0.0,0.0,0.0,0.0,-13.972,0.0,0.0,0.0
543,0.0,0.0,0.0,-0.0484560546875,0.0,0.0,0.0,0.0,0.0,0.0,-0.11,0.0,0.0,0.0,0.0,0.0,0.0,-0.050712219409856124,0.0,0.0,0.0,0.0,0.0,0.0,-13.972,0.0,0.0,0.0
544,0.0,0.0,0.0,-0.049466796875,0.0,0.0,0.0,0.0,0.0,0.0,-0.131,0.0,0.0,0.0,0.0,0.0,0.0,-0.0518278850481085,0.0,0.0,0.0,0.0,0.0,0.0,-15.228,0.0,0.0,0.0
545,0.0,0.0,0.0,-0.049466796875,0.0,0.0,0.0,0.0,0.0,0.0,-0.131,0.0,0.0,0.0,0.0,0.0,0.0,-0.05172433512952037,0.0,0.0,0.0,0.0,0.0,0.0,-15.228,0.0,0.0,0.0
546,0.0,0.0,0.0,-0.05091015625,0.0,0.0,0.0,0.0,0.0,0.0,-0.12,0.0,0.0,0.0,0.0,0.0,0.0,-0.05322889600730706,0.0,0.0,0.0,0.0,0.0,0.0,-15.46,0.0,0.0,0.0
547,0.0,0.0,0.0,-0.0525166015625,0.0,0.0,0.0,0.0,0.0,0.0,-0.155,0.0,0.0,0.0,0.0,0.0,0.0,-0.05546305844844275,0.0,0.0,0.0,0.0,0.0,0.0,-14.384,0.0,0.0,0.0
548,0.0,0.0,0.0,-0.0525166015625,0.0,0.0,0.0,0.0,0.0,0.0,-0.155,0.0,0.0,0.0,0.0,0.0,0.0,-0.05415668612260201,0.0,0.0,0.0,0.0,0.0,0.0,-14.384,0.0,0.0,0.0
549,0.0,0.0,0.0,-0.0525166015625,0.0,0.0,0.0,0.0,0.0,0.0,-0.155,0.0,0.0,0.0,0.0,0.0,0.0,-0.054319873199989,0.0,0.0,0.0,0.0,0.0,0.0,-14.384,0.0,0.0,0.0
550,0.0,0.0,0.0,-0.05352734375,0.0,0.0,0.0,0.0,0.0,0.0,-0.134,0.0,0.0,0.0,0.0,0.0,0.0,-0.055341908954101085,0.0,0.0,0.0,0.0,0.0,0.0,-14.04,0.0,0.0,0.0
551,0.0,0.0,0.0,-0.05352734375,0.0,0.0,0.0,0.0,0.0,0.0,-0.134,0.0,0.0,0.0,0.0,0.0,0.0,-0.05525608003435602,0.0,0.0,0.0,0.0,0.0,0.0,-14.04,0.0,0.0,0.0
552,0.0,0.0,0.0,-0.0548359375,0.0,0.0,0.0,0.0,0.0,0.0,-0.121,0.0,0.0,0.0,0.0,0.0,0.0,-0.05683831903116472,0.0,0.0,0.0,0.0,0.0,0.0,-14.36,0.0,0.0,0.0
553,0.0,0.0,0.0,-0.0548359375,0.0,0.0,0.0,0.0,0.0,0.0,-0.121,0.0,0.0,0.0,0.0,0.0,0.0,-0.05652224018786131,0.0,0.0,0.0,0.0,0.0,0.0,-14.36,0.0,0.0,0.0
554,0.0,0.0,0.0,-0.0548359375,0.0,0.0,0.0,0.0,0.0,0.0,-0.121,0.0,0.0,0.0,0.0,0.0,0.0,-0.0572047409908019,0.0,0.0,0.0,0.0,0.0,0.0,-14.36,0.0,0.0,0.0
555,0.0,0.0,0.0,-0.056423828125,0.0,0.0,0.0,0.0,0.0,0.0,-0.142,0.0,0.0,0.0,0.0,0.0,0.0,-0.05872072319665871,0.0,0.0,0.0,0.0,0.0,0.0,-14.908,0.0,0.0,0.0
556,0.0,0.0,0.0,-0.056423828125,0.0,0.0,0.0,0.0,0.0,0.0,-0.142,0.0,0.0,0.0,0.0,0.0,0.0,-0.05879166648518381,0.0,0.0,0.0,0.0,0.0,0.0,-14.908,0.0,0.0,0.0
557,0.0,0.0,0.0,-0.0574345703125,0.0,0.0,0.0,0.0,0.0,0.0,-0.143,0.0,0.0,0.0,0.0,0.0,0.0,-0.06006070859051223,0.0,0.0,0.0,0.0,0.0,0.0,-14.568,0.0,0.0,0.0
558,0.0,0.0,0.0,-0.0585986328125,0.0,0.0,0.0,0.0,0.0,0.0,-0.101,0.0,0.0,0.0,0.0,0.0,0.0,-0.061017974558104225,0.0,0.0,0.0,0.0,0.0,0.0,-14.612,0.0,0.0,0.0
559,0.0,0.0,0.0,-0.0585986328125,0.0,0.0,0.0,0.0,0.0,0.0,-0.101,0.0,0.0,0.0,0.0,0.0,0.0,-0.06083751965456955,0.0,0.0,0.0,0.0,0.0,0.0,-14.612,0.0,0.0,0.0
560,0.0,0.0,0.0,-0.060619140625,0.0,0.0,0.0,0.0,0.0,0.0,-0.157,0.0,0.0,0.0,0.0,0.0,0.0,-0.06335675032081306,0.0,0.0,0.0,0.0,0.0,0.0,-13.764,0.0,0.0,0.0
561,0.0,0.0,0.0,-0.060619140625,0.0,0.0,0.0,0.0,0.0,0.0,-0.157,0.0,0.0,0.0,0.0,0.0,0.0,-0.06297315984316787,0.0,0.0,0.0,0.0,0.0,0.0,-13.764,0.0,0.0,0.0
562,0.0,0.0,0.0,-0.061927734375,0.0,0.0,0.0,0.0,0.0,0.0,-0.171,0.0,0.0,0.0,0.0,0.0,0.0,-0.06432110353808068,0.0,0.0,0.0,0.0,0.0,0.0,-13.904,0.0,0.0,0.0
563,0.0,0.0,0.0,-0.061927734375,0.0,0.0,0.0,0.0,0.0,0.0,-0.171,0.0,0.0,0.0,0.0,0.0,0.0,-0.06418651386512683,0.0,0.0,0.0,0.0,0.0,0.0,-13.904,0.0,0.0,0.0
564,0.0,0.0,0.0,-0.0633720703125,0.0,0.0,0.0,0.0,0.0,0.0,-0.127,0.0,0.0,0.0,0.0,0.0,0.0,-0.06574662015210997,0.0,0.0,0.0,0.0,0.0,0.0,-14.452,0.0,0.0,0.0
565,0.0,0.0,0.0,-0.0633720703125,0.0,0.0,0.0,0.0,0.0,0.0,-0.127,0.0,0.0,0.0,0.0,0.0,0.0,-0.06550844864504797,0.0,0.0,0.0,0.0,0.0,0.0,-14.452,0.0,0.0,0.0
566,0.0,0.0,0.0,-0.0652578125,0.0,0.0,0.0,0.0,0.0,0.0,-0.173,0.0,0.0,0.0,0.0,0.0,0.0,-0.06811411665546405,0.0,0.0,0.0,0.0,0.0,0.0,-14.428,0.0,0.0,0.0
567,0.0,0.0,0.0,-0.0652578125,0.0,0.0,0.0,0.0,0.0,0.0,-0.173,0.0,0.0,0.0,0.0,0.0,0.0,-0.06760601270937738,0.0,0.0,0.0,0.0,0.0,0.0,-14.428,0.0,0.0,0.0
568,0.0,0.0,0.0,-0.066845703125,0.0,0.0,0.0,0.0,0.0,0.0,-0.179,0.0,0.0,0.0,0.0,0.0,0.0,-0.06909396202487311,0.0,0.0,0.0,0.0,0.0,0.0,-14.2,0.0,0.0,0.0
569,0.0,0.0,0.0,-0.066845703125,0.0,0.0,0.0,0.0,0.0,0.0,-0.179,0.0,0.0,0.0,0.0,0.0,0.0,-0.06839050059664241,0.0,0.0,0.0,0.0,0.0,0.0,-14.2,0.0,0.0,0.0
570,0.0,0.0,0.0,-0.066845703125,0.0,0.0,0.0,0.0,0.0,0.0,-0.179,0.0,0.0,0.0,0.0,0.0,0.0,-0.06868680103533295,0.0,0.0,0.0,0.0,0.0,0.0,-14.2,0.0,0.0,0.0
571,0.0,0.0,0.0,-0.0685869140625,0.0,0.0,0.0,0.0,0.0,0.0,-0.169,0.0,0.0,0.0,0.0,0.0,0.0,-0.07037790395813084,0.0,0.0,0.0,0.0,0.0,0.0,-13.924,0.0,0.0,0.0
572,0.0,0.0,0.0,-0.0685869140625,0.0,0.0,0.0,0.0,0.0,0.0,-0.169,0.0,0.0,0.0,0.0,0.0,0.0,-0.07016450434064128,0.0,0.0,0.0,0.0,0.0,0.0,-13.924,0.0,0.0,0.0
573,0.0,0.0,0.0,-0.0706171875,0.0,0.0,0.0,0.0,0.0,0.0,-0.185,0.0,0.0,0.0,0.0,0.0,0.0,-0.07339741223879673,0.0,0.0,0.0,0.0,0.0,0.0,-14.156,0.0,0.0,0.0
574,0.0,0.0,0.0,-0.0706171875,0.0,0.0,0.0,0.0,0.0,0.0,-0.185,0.0,0.0,0.0,0.0,0.0,0.0,-0.07302560545009107,0.0,0.0,0.0,0.0,0.0,0.0,-14.156,0.0,0.0,0.0
575,0.0,0.0,0.0,-0.0720615234375,0.0,0.0,0.0,0.0,0.0,0.0,-0.179,0.0,0.0,0.0,0.0,0.0,0.0,-0.07442504062525726,0.0,0.0,0.0,0.0,0.0,0.0,-14.132,0.0,0.0,0.0
576,0.0,0.0,0.0,-0.0720615234375,0.0,0.0,0.0,0.0,0.0,0.0,-0.179,0.0,0.0,0.0,0.0,0.0,0.0,-0.07431456333700343,0.0,0.0,0.0,0.0,0.0,0.0,-14.132,0.0,0.0,0.0
577,0.0,0.0,0.0,-0.072927734375,0.0,0.0,0.0,0.0,0.0,0.0,-0.123,0.0,0.0,0.0,0.0,0.0,0.0,-0.07538487249200047,0.0,0.0,0.0,0.0,0.0,0.0,-13.996,0.0,0.0,0.0
578,0.0,0.0,0.0,-0.072927734375,0.0,0.0,0.0,0.0,0.0,0.0,-0.123,0.0,0.0,0.0,0.0,0.0,0.0,-0.07535870618661622,0.0,0.0,0.0,0.0,0.0,0.0,-13.996,0.0,0.0,0.0
579,0.0,0.0,0.0,-0.0742451171875,0.0,0.0,0.0,0.0,0.0,0.0,-0.097,0.0,0.0,0.0,0.0,0.0,0.0,-0.077127674438087,0.0,0.0,0.0,0.0,0.0,0.0,-15.208,0.0,0.0,0.0
580,0.0,0.0,0.0,-0.0742451171875,0.0,0.0,0.0,0.0,0.0,0.0,-0.097,0.0,0.0,0.0,0.0,0.0,0.0,-0.07661810030807387,0.0,0.0,0.0,0.0,0.0,0.0,-15.208,0.0,0.0,0.0
581,0.0,0.0,0.0,-0.0768525390625,0.0,0.0,0.0,0.0,0.0,0.0,-0.197,0.0,0.0,0.0,0.0,0.0,0.0,-0.07930487691542223,0.0,0.0,0.0,0.0,0.0,0.0,-15.228,0.0,0.0,0.0
582,0.0,0.0,0.0,-0.0768525390625,0.0,0.0,0.0,0.0,0.0,0.0,-0.197,0.0,0.0,0.0,0.0,0.0,0.0,-0.07916339253462111,0.0,0.0,0.0,0.0,0.0,0.0,-15.228,0.0,0.0,0.0
583,0.0,0.0,0.0,-0.07786328125,0.0,0.0,0.0,0.0,0.0,0.0,-0.201,0.0,0.0,0.0,0.0,0.0,0.0,-0.08024906959632899,0.0,0.0,0.0,0.0,0.0,0.0,-14.2,0.0,0.0,0.0
584,0.0,0.0,0.0,-0.07786328125,0.0,0.0,0.0,0.0,0.0,0.0,-0.201,0.0,0.0,0.0,0.0,0.0,0.0,-0.08031884930309263,0.0,0.0,0.0,0.0,0.0,0.0,-14.2,0.0,0.0,0.0
585,0.0,0.0,0.0,-0.0791630859375,0.0,0.0,0.0,0.0,0.0,0.0,-0.102,0.0,0.0,0.0,0.0,0.0,0.0,-0.08213394082706965,0.0,0.0,0.0,0.0,0.0,0.0,-14.476,0.0,0.0,0.0
586,0.0,0.0,0.0,-0.081193359375,0.0,0.0,0.0,0.0,0.0,0.0,-0.178,0.0,0.0,0.0,0.0,0.0,0.0,-0.08363995785978506,0.0,0.0,0.0,0.0,0.0,0.0,-13.904,0.0,0.0,0.0
587,0.0,0.0,0.0,-0.081193359375,0.0,0.0,0.0,0.0,0.0,0.0,-0.178,0.0,0.0,0.0,0.0,0.0,0.0,-0.08343087424642226,0.0,0.0,0.0,0.0,0.0,0.0,-13.904,0.0,0.0,0.0
588,0.0,0.0,0.0,-0.082203125,0.0,0.0,0.0,0.0,0.0,0.0,-0.156,0.0,0.0,0.0,0.0,0.0,0.0,-0.08465619021896154,0.0,0.0,0.0,0.0,0.0,0.0,-15.136,0.0,0.0,0.0
589,0.0,0.0,0.0,-0.082203125,0.0,0.0,0.0,0.0,0.0,0.0,-0.156,0.0,0.0,0.0,0.0,0.0,0.0,-0.08448945283581581,0.0,0.0,0.0,0.0,0.0,0.0,-15.136,0.0,0.0,0.0
590,0.0,0.0,0.0,-0.08365625,0.0,0.0,0.0,0.0,0.0,0.0,-0.108,0.0,0.0,0.0,0.0,0.0,0.0,-0.0862895205293283,0.0,0.0,0.0,0.0,0.0,0.0,-15.708,0.0,0.0,0.0
591,0.0,0.0,0.0,-0.08365625,0.0,0.0,0.0,0.0,0.0,0.0,-0.108,0.0,0.0,0.0,0.0,0.0,0.0,-0.0862007606625104,0.0,0.0,0.0,0.0,0.0,0.0,-15.708,0.0,0.0,0.0
592,0.0,0.0,0.0,-0.0855419921875,0.0,0.0,0.0,0.0,0.0,0.0,-0.175,0.0,0.0,0.0,0.0,0.0,0.0,-0.08775422750394987,0.0,0.0,0.0,0.0,0.0,0.0,-14.748,0.0,0.0,0.0
593,0.0,0.0,0.0,-0.0855419921875,0.0,0.0,0.0,0.0,0.0,0.0,-0.175,0.0,0.0,0.0,0.0,0.0,0.0,-0.08732844839201917,0.0,0.0,0.0,0.0,0.0,0.0,-14.748,0.0,0.0,0.0
594,0.0,0.0,0.0,-0.0855419921875,0.0,0.0,0.0,0.0,0.0,0.0,-0.175,0.0,0.0,0.0,0.0,0.0,0.0,-0.08726620118368912,0.0,0.0,0.0,0.0,0.0,0.0,-14.748,0.0,0.0,0.0
595,0.0,0.0,0.0,-0.086841796875,0.0,0.0,0.0,0.0,0.0,0.0,-0.17,0.0,0.0,0.0,0.0,0.0,0.0,-0.08873542044435412,0.0,0.0,0.0,0.0,0.0,0.0,-14.064,0.0,0.0,0.0
596,0.0,0.0,0.0,-0.086841796875,0.0,0.0,0.0,0.0,0.0,0.0,-0.17,0.0,0.0,0.0,0.0,0.0,0.0,-0.08865195658072418,0.0,0.0,0.0,0.0,0.0,0.0,-14.064,0.0,0.0,0.0
597,0.0,0.0,0.0,-0.088140625,0.0,0.0,0.0,0.0,0.0,0.0,-0.119,0.0,0.0,0.0,0.0,0.0,0.0,-0.0901647684988117,0.0,0.0,0.0,0.0,0.0,0.0,-14.408,0.0,0.0,0.0
598,0.0,0.0,0.0,-0.088140625,0.0,0.0,0.0,0.0,0.0,0.0,-0.119,0.0,0.0,0.0,0.0,0.0,0.0,-0.09049259649230977,0.0,0.0,0.0,0.0,0.0,0.0,-14.408,0.0,0.0,0.0
599,0.0,0.0,0.0,-0.08973828125,0.0,0.0,0.0,0.0,0.0,0.0,-0.154,0.0,0.0,0.0,0.0,0.0,0.0,-0.09165518962972571,0.0,0.0,0.0,0.0,0.0,0.0,-14.452,0.0,0.0,0.0
600,0.0,0.0,0.0,-0.08973828125,0.0,0.0,0.0,0.0,0.0,0.0,-0.154,0.0,0.0,0.0,0.0,0.0,0.0,-0.09128091377590561,0.0,0.0,0.0,0.0,0.0,0.0,-14.452,0.0,0.0,0.0
601,0.0,0.0,0.0,-0.08973828125,0.0,0.0,0.0,0.0,0.0,0.0,-0.154,0.0,0.0,0.0,0.0,0.0,0.0,-0.09148032501298678,0.0,0.0,0.0,0.0,0.0,0.0,-14.452,0.0,0.0,0.0
602,0.0,0.0,0.0,-0.0906044921875,0.0,0.0,0.0,0.0,0.0,0.0,-0.13,0.0,0.0,0.0,0.0,0.0,0.0,-0.0925736087563942,0.0,0.0,0.0,0.0,0.0,0.0,-15.0,0.0,0.0,0.0
603,0.0,0.0,0.0,-0.0906044921875,0.0,0.0,0.0,0.0,0.0,0.0,-0.13,0.0,0.0,0.0,0.0,0.0,0.0,-0.09241953006416581,0.0,0.0,0.0,0.0,0.0,0.0,-15.0,0.0,0.0,0.0
604,0.0,0.0,0.0,-0.0906044921875,0.0,0.0,0.0,0.0,0.0,0.0,-0.13,0.0,0.0,0.0,0.0,0.0,0.0,-0.09241404427318768,0.0,0.0,0.0,0.0,0.0,0.0,-15.0,0.0,0.0,0.0
605,0.0,0.0,0.0,-0.0919130859375,0.0,0.0,0.0,0.0,0.0,0.0,-0.093,0.0,0.0,0.0,0.0,0.0,0.0,-0.09456664420367551,0.0,0.0,0.0,0.0,0.0,0.0,-15.548,0.0,0.0,0.0
606,0.0,0.0,0.0,-0.0919130859375,0.0,0.0,0.0,0.0,0.0,0.0,-0.093,0.0,0.0,0.0,0.0,0.0,0.0,-0.09397551935139153,0.0,0.0,0.0,0.0,0.0,0.0,-15.548,0.0,0.0,0.0
607,0.0,0.0,0.0,-0.0936455078125,0.0,0.0,0.0,0.0,0.0,0.0,-0.162,0.0,0.0,0.0,0.0,0.0,0.0,-0.09560766166736029,0.0,0.0,0.0,0.0,0.0,0.0,-14.176,0.0,0.0,0.0
608,0.0,0.0,0.0,-0.0936455078125,0.0,0.0,0.0,0.0,0.0,0.0,-0.162,0.0,0.0,0.0,0.0,0.0,0.0,-0.09536498277425728,0.0,0.0,0.0,0.0,0.0,0.0,-14.176,0.0,0.0,0.0
609,0.0,0.0,0.0,-0.0943671875,0.0,0.0,0.0,0.0,0.0,0.0,-0.136,0.0,0.0,0.0,0.0,0.0,0.0,-0.09617854097149048,0.0,0.0,0.0,0.0,0.0,0.0,-13.812,0.0,0.0,0.0
610,0.0,0.0,0.0,-0.0943671875,0.0,0.0,0.0,0.0,0.0,0.0,-0.136,0.0,0.0,0.0,0.0,0.0,0.0,-0.09616294920342962,0.0,0.0,0.0,0.0,0.0,0.0,-13.812,0.0,0.0,0.0
611,0.0,0.0,0.0,-0.0943671875,0.0,0.0,0.0,0.0,0.0,0.0,-0.136,0.0,0.0,0.0,0.0,0.0,0.0,-0.09620407723602503,0.0,0.0,0.0,0.0,0.0,0.0,-13.812,0.0,0.0,0.0
612,0.0,0.0,0.0,-0.0952421875,0.0,0.0,0.0,0.0,0.0,0.0,-0.071,0.0,0.0,0.0,0.0,0.0,0.0,-0.09810051374994189,0.0,0.0,0.0,0.0,0.0,0.0,-14.108,0.0,0.0,0.0
613,0.0,0.0,0.0,-0.0952421875,0.0,0.0,0.0,0.0,0.0,0.0,-0.071,0.0,0.0,0.0,0.0,0.0,0.0,-0.09748766730770972,0.0,0.0,0.0,0.0,0.0,0.0,-14.108,0.0,0.0,0.0
614,0.0,0.0,0.0,-0.09683984375,0.0,0.0,0.0,0.0,0.0,0.0,-0.123,0.0,0.0,0.0,0.0,0.0,0.0,-0.09860273939698316,0.0,0.0,0.0,0.0,0.0,0.0,-15.16,0.0,0.0,0.0
615,0.0,0.0,0.0,-0.09683984375,0.0,0.0,0.0,0.0,0.0,0.0,-0.123,0.0,0.0,0.0,0.0,0.0,0.0,-0.09853440193119853,0.0,0.0,0.0,0.0,0.0,0.0,-15.16,0.0,0.0,0.0
616,0.0,0.0,0.0,-0.09800390625,0.0,0.0,0.0,0.0,0.0,0.0,-0.149,0.0,0.0,0.0,0.0,0.0,0.0,-0.09980101537409267,0.0,0.0,0.0,0.0,0.0,0.0,-14.544,0.0,0.0,0.0
617,0.0,0.0,0.0,-0.09800390625,0.0,0.0,0.0,0.0,0.0,0.0,-0.149,0.0,0.0,0.0,0.0,0.0,0.0,-0.0996609602449657,0.0,0.0,0.0,0.0,0.0,0.0,-14.544,0.0,0.0,0.0
618,0.0,0.0,0.0,-0.09800390625,0.0,0.0,0.0,0.0,0.0,0.0,-0.149,0.0,0.0,0.0,0.0,0.0,0.0,-0.09953212541773285,0.0,0.0,0.0,0.0,0.0,0.0,-14.544,0.0,0.0,0.0
619,0.0,0.0,0.0,-0.0984365234375,0.0,0.0,0.0,0.0,0.0,0.0,-0.079,0.0,0.0,0.0,0.0,0.0,0.0,-0.10004889300796714,0.0,0.0,0.0,0.0,0.0,0.0,-14.408,0.0,0.0,0.0
620,0.0,0.0,0.0,-0.0984365234375,0.0,0.0,0.0,0.0,0.0,0.0,-0.079,0.0,0.0,0.0,0.0,0.0,0.0,-0.10051658069989869,0.0,0.0,0.0,0.0,0.0,0.0,-14.408,0.0,0.0,0.0
621,0.0,0.0,0.0,-0.0984365234375,0.0,0.0,0.0,0.0,0.0,0.0,-0.079,0.0,0.0,0.0,0.0,0.0,0.0,-0.10030224615430514,0.0,0.0,0.0,0.0,0.0,0.0,-14.408,0.0,0.0,0.0
622,0.0,0.0,0.0,-0.1003134765625,0.0,0.0,0.0,0.0,0.0,0.0,-0.106,0.0,0.0,0.0,0.0,0.0,0.0,-0.10195403808572437,0.0,0.0,0.0,0.0,0.0,0.0,-14.224,0.0,0.0,0.0
623,0.0,0.0,0.0,-0.1003134765625,0.0,0.0,0.0,0.0,0.0,0.0,-0.106,0.0,0.0,0.0,0.0,0.0,0.0,-0.10198225804633607,0.0,0.0,0.0,0.0,0.0,0.0,-14.224,0.0,0.0,0.0
624,0.0,0.0,0.0,-0.1003134765625,0.0,0.0,0.0,0.0,0.0,0.0,-0.106,0.0,0.0,0.0,0.0,0.0,0.0,-0.10200416187366756,0.0,0.0,0.0,0.0,0.0,0.0,-14.224,0.0,0.0,0.0
625,0.0,0.0,0.0,-0.1016220703125,0.0,0.0,0.0,0.0,0.0,0.0,-0.181,0.0,0.0,0.0,0.0,0.0,0.0,-0.10338079635323694,0.0,0.0,0.0,0.0,0.0,0.0,-13.904,0.0,0.0,0.0
626,0.0,0.0,0.0,-0.1016220703125,0.0,0.0,0.0,0.0,0.0,0.0,-0.181,0.0,0.0,0.0,0.0,0.0,0.0,-0.1033937083009519,0.0,0.0,0.0,0.0,0.0,0.0,-13.904,0.0,0.0,0.0
627,0.0,0.0,0.0,-0.1020546875,0.0,0.0,0.0,0.0,0.0,0.0,-0.089,0.0,0.0,0.0,0.0,0.0,0.0,-0.10376367358827585,0.0,0.0,0.0,0.0,0.0,0.0,-14.68,0.0,0.0,0.0
628,0.0,0.0,0.0,-0.1020546875,0.0,0.0,0.0,0.0,0.0,0.0,-0.089,0.0,0.0,0.0,0.0,0.0,0.0,-0.10417968569999617,0.0,0.0,0.0,0.0,0.0,0.0,-14.68,0.0,0.0,0.0
629,0.0,0.0,0.0,-0.1020546875,0.0,0.0,0.0,0.0,0.0,0.0,-0.089,0.0,0.0,0.0,0.0,0.0,0.0,-0.10384729038007967,0.0,0.0,0.0,0.0,0.0,0.0,-14.68,0.0,0.0,0.0
630,0.0,0.0,0.0,-0.1033544921875,0.0,0.0,0.0,0.0,0.0,0.0,-0.075,0.0,0.0,0.0,0.0,0.0,0.0,-0.10495162883157066,0.0,0.0,0.0,0.0,0.0,0.0,-14.52,0.0,0.0,0.0
631,0.0,0.0,0.0,-0.1033544921875,0.0,0.0,0.0,0.0,0.0,0.0,-0.075,0.0,0.0,0.0,0.0,0.0,0.0,-0.10495899095625826,0.0,0.0,0.0,0.0,0.0,0.0,-14.52,0.0,0.0,0.0
632,0.0,0.0,0.0,-0.1033544921875,0.0,0.0,0.0,0.0,0.0,0.0,-0.075,0.0,0.0,0.0,0.0,0.0,0.0,-0.1049366153153528,0.0,0.0,0.0,0.0,0.0,0.0,-14.52,0.0,0.0,0.0
633,0.0,0.0,0.0,-0.1046630859375,0.0,0.0,0.0,0.0,0.0,0.0,-0.139,0.0,0.0,0.0,0.0,0.0,0.0,-0.10622495598750327,0.0,0.0,0.0,0.0,0.0,0.0,-14.084,0.0,0.0,0.0
634,0.0,0.0,0.0,-0.1046630859375,0.0,0.0,0.0,0.0,0.0,0.0,-0.139,0.0,0.0,0.0,0.0,0.0,0.0,-0.1061394360265917,0.0,0.0,0.0,0.0,0.0,0.0,-14.084,0.0,0.0,0.0
635,0.0,0.0,0.0,-0.1046630859375,0.0,0.0,0.0,0.0,0.0,0.0,-0.139,0.0,0.0,0.0,0.0,0.0,0.0,-0.10617415082591909,0.0,0.0,0.0,0.0,0.0,0.0,-14.084,0.0,0.0,0.0
636,0.0,0.0,0.0,-0.105384765625,0.0,0.0,0.0,0.0,0.0,0.0,-0.098,0.0,0.0,0.0,0.0,0.0,0.0,-0.10739468175937938,0.0,0.0,0.0,0.0,0.0,0.0,-14.656,0.0,0.0,0.0
637,0.0,0.0,0.0,-0.105384765625,0.0,0.0,0.0,0.0,0.0,0.0,-0.098,0.0,0.0,0.0,0.0,0.0,0.0,-0.10735068469361952,0.0,0.0,0.0,0.0,0.0,0.0,-14.656,0.0,0.0,0.0
638,0.0,0.0,0.0,-0.106828125,0.0,0.0,0.0,0.0,0.0,0.0,-0.108,0.0,0.0,0.0,0.0,0.0,0.0,-0.10842352136820997,0.0,0.0,0.0,0.0,0.0,0.0,-14.268,0.0,0.0,0.0
639,0.0,0.0,0.0,-0.106828125,0.0,0.0,0.0,0.0,0.0,0.0,-0.108,0.0,0.0,0.0,0.0,0.0,0.0,-0.10832791235115377,0.0,0.0,0.0,0.0,0.0,0.0,-14.268,0.0,0.0,0.0
640,0.0,0.0,0.0,-0.106828125,0.0,0.0,0.0,0.0,0.0,0.0,-0.108,0.0,0.0,0.0,0.0,0.0,0.0,-0.10821961689584748,0.0,0.0,0.0,0.0,0.0,0.0,-14.268,0.0,0.0,0.0
641,0.0,0.0,0.0,-0.1077041015625,0.0,0.0,0.0,0.0,0.0,0.0,-0.126,0.0,0.0,0.0,0.0,0.0,0.0,-0.10927456600803889,0.0,0.0,0.0,0.0,0.0,0.0,-13.972,0.0,0.0,0.0
642,0.0,0.0,0.0,-0.1077041015625,0.0,0.0,0.0,0.0,0.0,0.0,-0.126,0.0,0.0,0.0,0.0,0.0,0.0,-0.10920739492125796,0.0,0.0,0.0,0.0,0.0,0.0,-13.972,0.0,0.0,0.0
643,0.0,0.0,0.0,-0.1077041015625,0.0,0.0,0.0,0.0,0.0,0.0,-0.126,0.0,0.0,0.0,0.0,0.0,0.0,-0.10921428282457712,0.0,0.0,0.0,0.0,0.0,0.0,-13.972,0.0,0.0,0.0
644,0.0,0.0,0.0,-0.1087138671875,0.0,0.0,0.0,0.0,0.0,0.0,-0.086,0.0,0.0,0.0,0.0,0.0,0.0,-0.11028729882338693,0.0,0.0,0.0,0.0,0.0,0.0,-14.496,0.0,0.0,0.0
645,0.0,0.0,0.0,-0.1087138671875,0.0,0.0,0.0,0.0,0.0,0.0,-0.086,0.0,0.0,0.0,0.0,0.0,0.0,-0.11087584737517656,0.0,0.0,0.0,0.0,0.0,0.0,-14.496,0.0,0.0,0.0
646,0.0,0.0,0.0,-0.1087138671875,0.0,0.0,0.0,0.0,0.0,0.0,-0.086,0.0,0.0,0.0,0.0,0.0,0.0,-0.11055477694875766,0.0,0.0,0.0,0.0,0.0,0.0,-14.496,0.0,0.0,0.0
647,0.0,0.0,0.0,-0.110158203125,0.0,0.0,0.0,0.0,0.0,0.0,-0.122,0.0,0.0,0.0,0.0,0.0,0.0,-0.11185261715855244,0.0,0.0,0.0,0.0,0.0,0.0,-14.292,0.0,0.0,0.0
648,0.0,0.0,0.0,-0.110158203125,0.0,0.0,0.0,0.0,0.0,0.0,-0.122,0.0,0.0,0.0,0.0,0.0,0.0,-0.11168511893562946,0.0,0.0,0.0,0.0,0.0,0.0,-14.292,0.0,0.0,0.0
649,0.0,0.0,0.0,-0.111177734375,0.0,0.0,0.0,0.0,0.0,0.0,-0.125,0.0,0.0,0.0,0.0,0.0,0.0,-0.11269523147406757,0.0,0.0,0.0,0.0,0.0,0.0,-14.568,0.0,0.0,0.0
650,0.0,0.0,0.0,-0.111177734375,0.0,0.0,0.0,0.0,0.0,0.0,-0.125,0.0,0.0,0.0,0.0,0.0,0.0,-0.11275789616911591,0.0,0.0,0.0,0.0,0.0,0.0,-14.568,0.0,0.0,0.0
651,0.0,0.0,0.0,-0.111177734375,0.0,0.0,0.0,0.0,0.0,0.0,-0.125,0.0,0.0,0.0,0.0,0.0,0.0,-0.11300028696397224,0.0,0.0,0.0,0.0,0.0,0.0,-14.568,0.0,0.0,0.0
652,0.0,0.0,0.0,-0.1124775390625,0.0,0.0,0.0,0.0,0.0,0.0,-0.113,0.0,0.0,0.0,0.0,0.0,0.0,-0.11498354794356712,0.0,0.0,0.0,0.0,0.0,0.0,-14.588,0.0,0.0,0.0
653,0.0,0.0,0.0,-0.1124775390625,0.0,0.0,0.0,0.0,0.0,0.0,-0.113,0.0,0.0,0.0,0.0,0.0,0.0,-0.11469693324582111,0.0,0.0,0.0,0.0,0.0,0.0,-14.588,0.0,0.0,0.0
654,0.0,0.0,0.0,-0.1136416015625,0.0,0.0,0.0,0.0,0.0,0.0,-0.134,0.0,0.0,0.0,0.0,0.0,0.0,-0.11577530277342872,0.0,0.0,0.0,0.0,0.0,0.0,-14.2,0.0,0.0,0.0
