EmanuelSamir/lab201_ws_projsamir/sawyer_dev/data/sawyer/vel_sin_motion_incrf/test_joint4/validation_data_1.csv
,j1,j2,j3,j4,j5,j6,j7,v1,v2,v3,v4,v5,v6,v7,jd1,jd2,jd3,jd4,jd5,jd6,jd7,e1,e2,e3,e4,e5,e6,e7
0,0.0,0.0,0.0,0.0,0.0,0.0,0.0,0.0,0.0,0.0,0.0,0.0,0.0,0.0,0.0,0.0,0.0,0.0,0.0,0.0,0.0,0.0,0.0,0.0,0.0,0.0,0.0,0.0
1,0.0,0.0,0.0,-0.0039794921875,0.0,0.0,0.0,0.0,0.0,0.0,-0.001,0.0,0.0,0.0,0.0,0.0,0.0,2.6321411124369948e-05,0.0,0.0,0.0,0.0,0.0,0.0,-13.948,0.0,0.0,0.0
2,0.0,0.0,0.0,-0.0039794921875,0.0,0.0,0.0,0.0,0.0,0.0,-0.001,0.0,0.0,0.0,0.0,0.0,0.0,0.003501013915861905,0.0,0.0,0.0,0.0,0.0,0.0,-13.972,0.0,0.0,0.0
3,0.0,0.0,0.0,-0.0039794921875,0.0,0.0,0.0,0.0,0.0,0.0,-0.001,0.0,0.0,0.0,0.0,0.0,0.0,0.010263705303662198,0.0,0.0,0.0,0.0,0.0,0.0,-14.016,0.0,0.0,0.0
4,0.0,0.0,0.0,-0.0039794921875,0.0,0.0,0.0,0.0,0.0,0.0,-0.001,0.0,0.0,0.0,0.0,0.0,0.0,0.015532903816158131,0.0,0.0,0.0,0.0,0.0,0.0,-14.04,0.0,0.0,0.0
5,0.0,0.0,0.0,-0.0036904296875,0.0,0.0,0.0,0.0,0.0,0.0,0.006,0.0,0.0,0.0,0.0,0.0,0.0,0.024042176048706194,0.0,0.0,0.0,0.0,0.0,0.0,-13.4,0.0,0.0,0.0
6,0.0,0.0,0.0,-0.00311328125,0.0,0.0,0.0,0.0,0.0,0.0,0.043,0.0,0.0,0.0,0.0,0.0,0.0,0.027488953345819626,0.0,0.0,0.0,0.0,0.0,0.0,-13.056,0.0,0.0,0.0
7,0.0,0.0,0.0,-0.00166015625,0.0,0.0,0.0,0.0,0.0,0.0,0.091,0.0,0.0,0.0,0.0,0.0,0.0,0.03349674124113886,0.0,0.0,0.0,0.0,0.0,0.0,-11.684,0.0,0.0,0.0
8,0.0,0.0,0.0,0.0013798828125,0.0,0.0,0.0,0.0,0.0,0.0,0.21,0.0,0.0,0.0,0.0,0.0,0.0,0.03961977889200432,0.0,0.0,0.0,0.0,0.0,0.0,-10.496,0.0,0.0,0.0
9,0.0,0.0,0.0,0.005142578125,0.0,0.0,0.0,0.0,0.0,0.0,0.339,0.0,0.0,0.0,0.0,0.0,0.0,0.0456338376837913,0.0,0.0,0.0,0.0,0.0,0.0,-10.336,0.0,0.0,0.0
10,0.0,0.0,0.0,0.009337890625,0.0,0.0,0.0,0.0,0.0,0.0,0.391,0.0,0.0,0.0,0.0,0.0,0.0,0.051472974604572806,0.0,0.0,0.0,0.0,0.0,0.0,-9.9,0.0,0.0,0.0
11,0.0,0.0,0.0,0.0145625,0.0,0.0,0.0,0.0,0.0,0.0,0.471,0.0,0.0,0.0,0.0,0.0,0.0,0.05755340420564847,0.0,0.0,0.0,0.0,0.0,0.0,-10.084,0.0,0.0,0.0
12,0.0,0.0,0.0,0.0194892578125,0.0,0.0,0.0,0.0,0.0,0.0,0.509,0.0,0.0,0.0,0.0,0.0,0.0,0.06339857109472362,0.0,0.0,0.0,0.0,0.0,0.0,-9.536,0.0,0.0,0.0
13,0.0,0.0,0.0,0.0255712890625,0.0,0.0,0.0,0.0,0.0,0.0,0.533,0.0,0.0,0.0,0.0,0.0,0.0,0.06936895391832215,0.0,0.0,0.0,0.0,0.0,0.0,-9.216,0.0,0.0,0.0
14,0.0,0.0,0.0,0.0320859375,0.0,0.0,0.0,0.0,0.0,0.0,0.642,0.0,0.0,0.0,0.0,0.0,0.0,0.07573527422791396,0.0,0.0,0.0,0.0,0.0,0.0,-10.336,0.0,0.0,0.0
15,0.0,0.0,0.0,0.0384658203125,0.0,0.0,0.0,0.0,0.0,0.0,0.649,0.0,0.0,0.0,0.0,0.0,0.0,0.08144317121939754,0.0,0.0,0.0,0.0,0.0,0.0,-10.7,0.0,0.0,0.0
16,0.0,0.0,0.0,0.0455576171875,0.0,0.0,0.0,0.0,0.0,0.0,0.67,0.0,0.0,0.0,0.0,0.0,0.0,0.08722438420596094,0.0,0.0,0.0,0.0,0.0,0.0,-11.364,0.0,0.0,0.0
17,0.0,0.0,0.0,0.0522177734375,0.0,0.0,0.0,0.0,0.0,0.0,0.695,0.0,0.0,0.0,0.0,0.0,0.0,0.09438528967158087,0.0,0.0,0.0,0.0,0.0,0.0,-10.724,0.0,0.0,0.0
18,0.0,0.0,0.0,0.05918359375,0.0,0.0,0.0,0.0,0.0,0.0,0.673,0.0,0.0,0.0,0.0,0.0,0.0,0.09921649805858564,0.0,0.0,0.0,0.0,0.0,0.0,-9.672,0.0,0.0,0.0
19,0.0,0.0,0.0,0.066708984375,0.0,0.0,0.0,0.0,0.0,0.0,0.737,0.0,0.0,0.0,0.0,0.0,0.0,0.10498235688787448,0.0,0.0,0.0,0.0,0.0,0.0,-10.768,0.0,0.0,0.0
20,0.0,0.0,0.0,0.066708984375,0.0,0.0,0.0,0.0,0.0,0.0,0.737,0.0,0.0,0.0,0.0,0.0,0.0,0.11131250401894817,0.0,0.0,0.0,0.0,0.0,0.0,-10.768,0.0,0.0,0.0
21,0.0,0.0,0.0,0.080623046875,0.0,0.0,0.0,0.0,0.0,0.0,0.685,0.0,0.0,0.0,0.0,0.0,0.0,0.11683016876536638,0.0,0.0,0.0,0.0,0.0,0.0,-12.212,0.0,0.0,0.0
22,0.0,0.0,0.0,0.0875712890625,0.0,0.0,0.0,0.0,0.0,0.0,0.722,0.0,0.0,0.0,0.0,0.0,0.0,0.12265953023220916,0.0,0.0,0.0,0.0,0.0,0.0,-12.92,0.0,0.0,0.0
23,0.0,0.0,0.0,0.09451953125,0.0,0.0,0.0,0.0,0.0,0.0,0.695,0.0,0.0,0.0,0.0,0.0,0.0,0.12853649859798175,0.0,0.0,0.0,0.0,0.0,0.0,-13.012,0.0,0.0,0.0
24,0.0,0.0,0.0,0.1014765625,0.0,0.0,0.0,0.0,0.0,0.0,0.703,0.0,0.0,0.0,0.0,0.0,0.0,0.13574460261310323,0.0,0.0,0.0,0.0,0.0,0.0,-14.568,0.0,0.0,0.0
25,0.0,0.0,0.0,0.1082802734375,0.0,0.0,0.0,0.0,0.0,0.0,0.69,0.0,0.0,0.0,0.0,0.0,0.0,0.14132217518756499,0.0,0.0,0.0,0.0,0.0,0.0,-15.436,0.0,0.0,0.0
26,0.0,0.0,0.0,0.115380859375,0.0,0.0,0.0,0.0,0.0,0.0,0.699,0.0,0.0,0.0,0.0,0.0,0.0,0.14647016068572263,0.0,0.0,0.0,0.0,0.0,0.0,-14.316,0.0,0.0,0.0
27,0.0,0.0,0.0,0.1224736328125,0.0,0.0,0.0,0.0,0.0,0.0,0.713,0.0,0.0,0.0,0.0,0.0,0.0,0.15193872446322187,0.0,0.0,0.0,0.0,0.0,0.0,-14.268,0.0,0.0,0.0
28,0.0,0.0,0.0,0.12898828125,0.0,0.0,0.0,0.0,0.0,0.0,0.693,0.0,0.0,0.0,0.0,0.0,0.0,0.15773904854782755,0.0,0.0,0.0,0.0,0.0,0.0,-14.932,0.0,0.0,0.0
29,0.0,0.0,0.0,0.1352236328125,0.0,0.0,0.0,0.0,0.0,0.0,0.641,0.0,0.0,0.0,0.0,0.0,0.0,0.1634247543581632,0.0,0.0,0.0,0.0,0.0,0.0,-15.136,0.0,0.0,0.0
30,0.0,0.0,0.0,0.1485517578125,0.0,0.0,0.0,0.0,0.0,0.0,0.673,0.0,0.0,0.0,0.0,0.0,0.0,0.17223986288275678,0.0,0.0,0.0,0.0,0.0,0.0,-15.16,0.0,0.0,0.0
31,0.0,0.0,0.0,0.1485517578125,0.0,0.0,0.0,0.0,0.0,0.0,0.673,0.0,0.0,0.0,0.0,0.0,0.0,0.17703806913996756,0.0,0.0,0.0,0.0,0.0,0.0,-15.16,0.0,0.0,0.0
32,0.0,0.0,0.0,0.15535546875,0.0,0.0,0.0,0.0,0.0,0.0,0.657,0.0,0.0,0.0,0.0,0.0,0.0,0.1809798585877337,0.0,0.0,0.0,0.0,0.0,0.0,-15.824,0.0,0.0,0.0
33,0.0,0.0,0.0,0.161734375,0.0,0.0,0.0,0.0,0.0,0.0,0.673,0.0,0.0,0.0,0.0,0.0,0.0,0.18714621888368974,0.0,0.0,0.0,0.0,0.0,0.0,-17.516,0.0,0.0,0.0
34,0.0,0.0,0.0,0.16781640625,0.0,0.0,0.0,0.0,0.0,0.0,0.618,0.0,0.0,0.0,0.0,0.0,0.0,0.19230714996335724,0.0,0.0,0.0,0.0,0.0,0.0,-17.22,0.0,0.0,0.0
35,0.0,0.0,0.0,0.1744755859375,0.0,0.0,0.0,0.0,0.0,0.0,0.641,0.0,0.0,0.0,0.0,0.0,0.0,0.1980030477295866,0.0,0.0,0.0,0.0,0.0,0.0,-16.212,0.0,0.0,0.0
36,0.0,0.0,0.0,0.1807109375,0.0,0.0,0.0,0.0,0.0,0.0,0.657,0.0,0.0,0.0,0.0,0.0,0.0,0.20395547957380694,0.0,0.0,0.0,0.0,0.0,0.0,-15.048,0.0,0.0,0.0
37,0.0,0.0,0.0,0.18679296875,0.0,0.0,0.0,0.0,0.0,0.0,0.618,0.0,0.0,0.0,0.0,0.0,0.0,0.20912337669568273,0.0,0.0,0.0,0.0,0.0,0.0,-15.0,0.0,0.0,0.0
38,0.0,0.0,0.0,0.19273046875,0.0,0.0,0.0,0.0,0.0,0.0,0.609,0.0,0.0,0.0,0.0,0.0,0.0,0.21465817624066055,0.0,0.0,0.0,0.0,0.0,0.0,-15.732,0.0,0.0,0.0
39,0.0,0.0,0.0,0.19273046875,0.0,0.0,0.0,0.0,0.0,0.0,0.609,0.0,0.0,0.0,0.0,0.0,0.0,0.22027483450555008,0.0,0.0,0.0,0.0,0.0,0.0,-15.732,0.0,0.0,0.0
40,0.0,0.0,0.0,0.2040361328125,0.0,0.0,0.0,0.0,0.0,0.0,0.575,0.0,0.0,0.0,0.0,0.0,0.0,0.22584581312625798,0.0,0.0,0.0,0.0,0.0,0.0,-14.268,0.0,0.0,0.0
41,0.0,0.0,0.0,0.209541015625,0.0,0.0,0.0,0.0,0.0,0.0,0.56,0.0,0.0,0.0,0.0,0.0,0.0,0.2313660856713185,0.0,0.0,0.0,0.0,0.0,0.0,-13.948,0.0,0.0,0.0
42,0.0,0.0,0.0,0.2150537109375,0.0,0.0,0.0,0.0,0.0,0.0,0.551,0.0,0.0,0.0,0.0,0.0,0.0,0.23740181283422362,0.0,0.0,0.0,0.0,0.0,0.0,-14.292,0.0,0.0,0.0
43,0.0,0.0,0.0,0.2204052734375,0.0,0.0,0.0,0.0,0.0,0.0,0.552,0.0,0.0,0.0,0.0,0.0,0.0,0.242483782196667,0.0,0.0,0.0,0.0,0.0,0.0,-15.412,0.0,0.0,0.0
44,0.0,0.0,0.0,0.2254755859375,0.0,0.0,0.0,0.0,0.0,0.0,0.527,0.0,0.0,0.0,0.0,0.0,0.0,0.24794333188347692,0.0,0.0,0.0,0.0,0.0,0.0,-15.388,0.0,0.0,0.0
45,0.0,0.0,0.0,0.2308359375,0.0,0.0,0.0,0.0,0.0,0.0,0.521,0.0,0.0,0.0,0.0,0.0,0.0,0.25342932500995274,0.0,0.0,0.0,0.0,0.0,0.0,-14.224,0.0,0.0,0.0
46,0.0,0.0,0.0,0.236349609375,0.0,0.0,0.0,0.0,0.0,0.0,0.549,0.0,0.0,0.0,0.0,0.0,0.0,0.2587691119475094,0.0,0.0,0.0,0.0,0.0,0.0,-13.264,0.0,0.0,0.0
47,0.0,0.0,0.0,0.2415556640625,0.0,0.0,0.0,0.0,0.0,0.0,0.541,0.0,0.0,0.0,0.0,0.0,0.0,0.2641633450424626,0.0,0.0,0.0,0.0,0.0,0.0,-13.056,0.0,0.0,0.0
48,0.0,0.0,0.0,0.247060546875,0.0,0.0,0.0,0.0,0.0,0.0,0.531,0.0,0.0,0.0,0.0,0.0,0.0,0.2696197864393736,0.0,0.0,0.0,0.0,0.0,0.0,-13.284,0.0,0.0,0.0
49,0.0,0.0,0.0,0.252275390625,0.0,0.0,0.0,0.0,0.0,0.0,0.545,0.0,0.0,0.0,0.0,0.0,0.0,0.2769765344238218,0.0,0.0,0.0,0.0,0.0,0.0,-13.492,0.0,0.0,0.0
50,0.0,0.0,0.0,0.2574912109375,0.0,0.0,0.0,0.0,0.0,0.0,0.521,0.0,0.0,0.0,0.0,0.0,0.0,0.28059830789305107,0.0,0.0,0.0,0.0,0.0,0.0,-12.784,0.0,0.0,0.0
51,0.0,0.0,0.0,0.2629951171875,0.0,0.0,0.0,0.0,0.0,0.0,0.533,0.0,0.0,0.0,0.0,0.0,0.0,0.28593453360886945,0.0,0.0,0.0,0.0,0.0,0.0,-12.624,0.0,0.0,0.0
52,0.0,0.0,0.0,0.2718291015625,0.0,0.0,0.0,0.0,0.0,0.0,0.44,0.0,0.0,0.0,0.0,0.0,0.0,0.2949301645409492,0.0,0.0,0.0,0.0,0.0,0.0,-13.468,0.0,0.0,0.0
53,0.0,0.0,0.0,0.2718291015625,0.0,0.0,0.0,0.0,0.0,0.0,0.44,0.0,0.0,0.0,0.0,0.0,0.0,0.2982306087234796,0.0,0.0,0.0,0.0,0.0,0.0,-13.468,0.0,0.0,0.0
54,0.0,0.0,0.0,0.2770537109375,0.0,0.0,0.0,0.0,0.0,0.0,0.47,0.0,0.0,0.0,0.0,0.0,0.0,0.30200922860605356,0.0,0.0,0.0,0.0,0.0,0.0,-13.332,0.0,0.0,0.0
55,0.0,0.0,0.0,0.28558984375,0.0,0.0,0.0,0.0,0.0,0.0,0.424,0.0,0.0,0.0,0.0,0.0,0.0,0.30923974800854825,0.0,0.0,0.0,0.0,0.0,0.0,-14.384,0.0,0.0,0.0
56,0.0,0.0,0.0,0.28558984375,0.0,0.0,0.0,0.0,0.0,0.0,0.424,0.0,0.0,0.0,0.0,0.0,0.0,0.31249959062550486,0.0,0.0,0.0,0.0,0.0,0.0,-14.384,0.0,0.0,0.0
57,0.0,0.0,0.0,0.2909501953125,0.0,0.0,0.0,0.0,0.0,0.0,0.451,0.0,0.0,0.0,0.0,0.0,0.0,0.31772949066159145,0.0,0.0,0.0,0.0,0.0,0.0,-14.52,0.0,0.0,0.0
58,0.0,0.0,0.0,0.2963193359375,0.0,0.0,0.0,0.0,0.0,0.0,0.546,0.0,0.0,0.0,0.0,0.0,0.0,0.3218558015748092,0.0,0.0,0.0,0.0,0.0,0.0,-14.084,0.0,0.0,0.0
59,0.0,0.0,0.0,0.3013896484375,0.0,0.0,0.0,0.0,0.0,0.0,0.524,0.0,0.0,0.0,0.0,0.0,0.0,0.3267292294727745,0.0,0.0,0.0,0.0,0.0,0.0,-12.348,0.0,0.0,0.0
60,0.0,0.0,0.0,0.3067412109375,0.0,0.0,0.0,0.0,0.0,0.0,0.524,0.0,0.0,0.0,0.0,0.0,0.0,0.3317706873539627,0.0,0.0,0.0,0.0,0.0,0.0,-12.736,0.0,0.0,0.0
61,0.0,0.0,0.0,0.3067412109375,0.0,0.0,0.0,0.0,0.0,0.0,0.524,0.0,0.0,0.0,0.0,0.0,0.0,0.3367100774278668,0.0,0.0,0.0,0.0,0.0,0.0,-12.736,0.0,0.0,0.0
62,0.0,0.0,0.0,0.315728515625,0.0,0.0,0.0,0.0,0.0,0.0,0.441,0.0,0.0,0.0,0.0,0.0,0.0,0.34168893618963714,0.0,0.0,0.0,0.0,0.0,0.0,-12.92,0.0,0.0,0.0
63,0.0,0.0,0.0,0.3207998046875,0.0,0.0,0.0,0.0,0.0,0.0,0.492,0.0,0.0,0.0,0.0,0.0,0.0,0.34660028660608483,0.0,0.0,0.0,0.0,0.0,0.0,-12.92,0.0,0.0,0.0
64,0.0,0.0,0.0,0.3251396484375,0.0,0.0,0.0,0.0,0.0,0.0,0.466,0.0,0.0,0.0,0.0,0.0,0.0,0.3514956925296338,0.0,0.0,0.0,0.0,0.0,0.0,-12.392,0.0,0.0,0.0
65,0.0,0.0,0.0,0.3302109375,0.0,0.0,0.0,0.0,0.0,0.0,0.466,0.0,0.0,0.0,0.0,0.0,0.0,0.35633432272656207,0.0,0.0,0.0,0.0,0.0,0.0,-12.14,0.0,0.0,0.0
66,0.0,0.0,0.0,0.335580078125,0.0,0.0,0.0,0.0,0.0,0.0,0.531,0.0,0.0,0.0,0.0,0.0,0.0,0.36115717594454455,0.0,0.0,0.0,0.0,0.0,0.0,-12.804,0.0,0.0,0.0
67,0.0,0.0,0.0,0.3407861328125,0.0,0.0,0.0,0.0,0.0,0.0,0.537,0.0,0.0,0.0,0.0,0.0,0.0,0.3659392890989774,0.0,0.0,0.0,0.0,0.0,0.0,-13.56,0.0,0.0,0.0
68,0.0,0.0,0.0,0.345857421875,0.0,0.0,0.0,0.0,0.0,0.0,0.514,0.0,0.0,0.0,0.0,0.0,0.0,0.37067252218804203,0.0,0.0,0.0,0.0,0.0,0.0,-13.924,0.0,0.0,0.0
69,0.0,0.0,0.0,0.3512177734375,0.0,0.0,0.0,0.0,0.0,0.0,0.515,0.0,0.0,0.0,0.0,0.0,0.0,0.37534251333126173,0.0,0.0,0.0,0.0,0.0,0.0,-13.676,0.0,0.0,0.0
70,0.0,0.0,0.0,0.3565771484375,0.0,0.0,0.0,0.0,0.0,0.0,0.547,0.0,0.0,0.0,0.0,0.0,0.0,0.3800376567081375,0.0,0.0,0.0,0.0,0.0,0.0,-13.696,0.0,0.0,0.0
71,0.0,0.0,0.0,0.361359375,0.0,0.0,0.0,0.0,0.0,0.0,0.504,0.0,0.0,0.0,0.0,0.0,0.0,0.38460763247125473,0.0,0.0,0.0,0.0,0.0,0.0,-12.92,0.0,0.0,0.0
72,0.0,0.0,0.0,0.3667109375,0.0,0.0,0.0,0.0,0.0,0.0,0.503,0.0,0.0,0.0,0.0,0.0,0.0,0.38923509078413404,0.0,0.0,0.0,0.0,0.0,0.0,-12.004,0.0,0.0,0.0
73,0.0,0.0,0.0,0.3720791015625,0.0,0.0,0.0,0.0,0.0,0.0,0.546,0.0,0.0,0.0,0.0,0.0,0.0,0.39386359922574954,0.0,0.0,0.0,0.0,0.0,0.0,-12.44,0.0,0.0,0.0
74,0.0,0.0,0.0,0.377005859375,0.0,0.0,0.0,0.0,0.0,0.0,0.519,0.0,0.0,0.0,0.0,0.0,0.0,0.39828665566324,0.0,0.0,0.0,0.0,0.0,0.0,-12.324,0.0,0.0,0.0
75,0.0,0.0,0.0,0.382068359375,0.0,0.0,0.0,0.0,0.0,0.0,0.506,0.0,0.0,0.0,0.0,0.0,0.0,0.40273487180165785,0.0,0.0,0.0,0.0,0.0,0.0,-12.872,0.0,0.0,0.0
76,0.0,0.0,0.0,0.3871396484375,0.0,0.0,0.0,0.0,0.0,0.0,0.504,0.0,0.0,0.0,0.0,0.0,0.0,0.40718687128182063,0.0,0.0,0.0,0.0,0.0,0.0,-12.964,0.0,0.0,0.0
77,0.0,0.0,0.0,0.3914892578125,0.0,0.0,0.0,0.0,0.0,0.0,0.489,0.0,0.0,0.0,0.0,0.0,0.0,0.4115662602790273,0.0,0.0,0.0,0.0,0.0,0.0,-14.336,0.0,0.0,0.0
78,0.0,0.0,0.0,0.395396484375,0.0,0.0,0.0,0.0,0.0,0.0,0.411,0.0,0.0,0.0,0.0,0.0,0.0,0.41592019333409813,0.0,0.0,0.0,0.0,0.0,0.0,-13.332,0.0,0.0,0.0
79,0.0,0.0,0.0,0.4001787109375,0.0,0.0,0.0,0.0,0.0,0.0,0.433,0.0,0.0,0.0,0.0,0.0,0.0,0.4202050031419032,0.0,0.0,0.0,0.0,0.0,0.0,-13.264,0.0,0.0,0.0
80,0.0,0.0,0.0,0.4046630859375,0.0,0.0,0.0,0.0,0.0,0.0,0.472,0.0,0.0,0.0,0.0,0.0,0.0,0.42445999027664594,0.0,0.0,0.0,0.0,0.0,0.0,-13.628,0.0,0.0,0.0
81,0.0,0.0,0.0,0.409310546875,0.0,0.0,0.0,0.0,0.0,0.0,0.447,0.0,0.0,0.0,0.0,0.0,0.0,0.42867346806487716,0.0,0.0,0.0,0.0,0.0,0.0,-14.084,0.0,0.0,0.0
82,0.0,0.0,0.0,0.413794921875,0.0,0.0,0.0,0.0,0.0,0.0,0.457,0.0,0.0,0.0,0.0,0.0,0.0,0.4328915494980622,0.0,0.0,0.0,0.0,0.0,0.0,-14.52,0.0,0.0,0.0
83,0.0,0.0,0.0,0.4188662109375,0.0,0.0,0.0,0.0,0.0,0.0,0.475,0.0,0.0,0.0,0.0,0.0,0.0,0.437004704933922,0.0,0.0,0.0,0.0,0.0,0.0,-14.176,0.0,0.0,0.0
84,0.0,0.0,0.0,0.4232060546875,0.0,0.0,0.0,0.0,0.0,0.0,0.492,0.0,0.0,0.0,0.0,0.0,0.0,0.44110260406386603,0.0,0.0,0.0,0.0,0.0,0.0,-13.88,0.0,0.0,0.0
85,0.0,0.0,0.0,0.42740234375,0.0,0.0,0.0,0.0,0.0,0.0,0.422,0.0,0.0,0.0,0.0,0.0,0.0,0.4451735679435557,0.0,0.0,0.0,0.0,0.0,0.0,-12.304,0.0,0.0,0.0
86,0.0,0.0,0.0,0.4317607421875,0.0,0.0,0.0,0.0,0.0,0.0,0.439,0.0,0.0,0.0,0.0,0.0,0.0,0.44913134366427093,0.0,0.0,0.0,0.0,0.0,0.0,-12.852,0.0,0.0,0.0
87,0.0,0.0,0.0,0.43537890625,0.0,0.0,0.0,0.0,0.0,0.0,0.405,0.0,0.0,0.0,0.0,0.0,0.0,0.45310377672176283,0.0,0.0,0.0,0.0,0.0,0.0,-13.376,0.0,0.0,0.0
88,0.0,0.0,0.0,0.4392861328125,0.0,0.0,0.0,0.0,0.0,0.0,0.37,0.0,0.0,0.0,0.0,0.0,0.0,0.45701309373307086,0.0,0.0,0.0,0.0,0.0,0.0,-12.712,0.0,0.0,0.0
89,0.0,0.0,0.0,0.443193359375,0.0,0.0,0.0,0.0,0.0,0.0,0.394,0.0,0.0,0.0,0.0,0.0,0.0,0.46087050751912984,0.0,0.0,0.0,0.0,0.0,0.0,-12.324,0.0,0.0,0.0
90,0.0,0.0,0.0,0.447109375,0.0,0.0,0.0,0.0,0.0,0.0,0.395,0.0,0.0,0.0,0.0,0.0,0.0,0.46468734956261853,0.0,0.0,0.0,0.0,0.0,0.0,-12.624,0.0,0.0,0.0
91,0.0,0.0,0.0,0.4510166015625,0.0,0.0,0.0,0.0,0.0,0.0,0.389,0.0,0.0,0.0,0.0,0.0,0.0,0.4684634008965112,0.0,0.0,0.0,0.0,0.0,0.0,-12.76,0.0,0.0,0.0
92,0.0,0.0,0.0,0.454923828125,0.0,0.0,0.0,0.0,0.0,0.0,0.398,0.0,0.0,0.0,0.0,0.0,0.0,0.47219215947215404,0.0,0.0,0.0,0.0,0.0,0.0,-12.712,0.0,0.0,0.0
93,0.0,0.0,0.0,0.4586865234375,0.0,0.0,0.0,0.0,0.0,0.0,0.388,0.0,0.0,0.0,0.0,0.0,0.0,0.4758684731775168,0.0,0.0,0.0,0.0,0.0,0.0,-12.944,0.0,0.0,0.0
94,0.0,0.0,0.0,0.4623046875,0.0,0.0,0.0,0.0,0.0,0.0,0.373,0.0,0.0,0.0,0.0,0.0,0.0,0.4795145316566485,0.0,0.0,0.0,0.0,0.0,0.0,-13.056,0.0,0.0,0.0
95,0.0,0.0,0.0,0.4659228515625,0.0,0.0,0.0,0.0,0.0,0.0,0.362,0.0,0.0,0.0,0.0,0.0,0.0,0.483736356299154,0.0,0.0,0.0,0.0,0.0,0.0,-13.056,0.0,0.0,0.0
96,0.0,0.0,0.0,0.46940625,0.0,0.0,0.0,0.0,0.0,0.0,0.355,0.0,0.0,0.0,0.0,0.0,0.0,0.48660194931924605,0.0,0.0,0.0,0.0,0.0,0.0,-13.056,0.0,0.0,0.0
97,0.0,0.0,0.0,0.473322265625,0.0,0.0,0.0,0.0,0.0,0.0,0.372,0.0,0.0,0.0,0.0,0.0,0.0,0.49012865474671796,0.0,0.0,0.0,0.0,0.0,0.0,-13.376,0.0,0.0,0.0
98,0.0,0.0,0.0,0.4767958984375,0.0,0.0,0.0,0.0,0.0,0.0,0.37,0.0,0.0,0.0,0.0,0.0,0.0,0.49353523320441917,0.0,0.0,0.0,0.0,0.0,0.0,-13.924,0.0,0.0,0.0
99,0.0,0.0,0.0,0.4805595703125,0.0,0.0,0.0,0.0,0.0,0.0,0.352,0.0,0.0,0.0,0.0,0.0,0.0,0.4969131976233938,0.0,0.0,0.0,0.0,0.0,0.0,-12.852,0.0,0.0,0.0
100,0.0,0.0,0.0,0.484322265625,0.0,0.0,0.0,0.0,0.0,0.0,0.386,0.0,0.0,0.0,0.0,0.0,0.0,0.500264258360689,0.0,0.0,0.0,0.0,0.0,0.0,-12.872,0.0,0.0,0.0
101,0.0,0.0,0.0,0.4873720703125,0.0,0.0,0.0,0.0,0.0,0.0,0.346,0.0,0.0,0.0,0.0,0.0,0.0,0.5035420236729719,0.0,0.0,0.0,0.0,0.0,0.0,-12.188,0.0,0.0,0.0
102,0.0,0.0,0.0,0.490845703125,0.0,0.0,0.0,0.0,0.0,0.0,0.33,0.0,0.0,0.0,0.0,0.0,0.0,0.5067842115404866,0.0,0.0,0.0,0.0,0.0,0.0,-11.98,0.0,0.0,0.0
103,0.0,0.0,0.0,0.49403125,0.0,0.0,0.0,0.0,0.0,0.0,0.337,0.0,0.0,0.0,0.0,0.0,0.0,0.5099483600416104,0.0,0.0,0.0,0.0,0.0,0.0,-12.096,0.0,0.0,0.0
104,0.0,0.0,0.0,0.496927734375,0.0,0.0,0.0,0.0,0.0,0.0,0.306,0.0,0.0,0.0,0.0,0.0,0.0,0.5131051734116264,0.0,0.0,0.0,0.0,0.0,0.0,-12.464,0.0,0.0,0.0
105,0.0,0.0,0.0,0.49996875,0.0,0.0,0.0,0.0,0.0,0.0,0.296,0.0,0.0,0.0,0.0,0.0,0.0,0.5161879657054851,0.0,0.0,0.0,0.0,0.0,0.0,-12.028,0.0,0.0,0.0
106,0.0,0.0,0.0,0.5031533203125,0.0,0.0,0.0,0.0,0.0,0.0,0.317,0.0,0.0,0.0,0.0,0.0,0.0,0.5192161804476295,0.0,0.0,0.0,0.0,0.0,0.0,-12.28,0.0,0.0,0.0
107,0.0,0.0,0.0,0.5062041015625,0.0,0.0,0.0,0.0,0.0,0.0,0.31,0.0,0.0,0.0,0.0,0.0,0.0,0.5222065785799701,0.0,0.0,0.0,0.0,0.0,0.0,-12.416,0.0,0.0,0.0
108,0.0,0.0,0.0,0.509677734375,0.0,0.0,0.0,0.0,0.0,0.0,0.322,0.0,0.0,0.0,0.0,0.0,0.0,0.5254924925427619,0.0,0.0,0.0,0.0,0.0,0.0,-12.576,0.0,0.0,0.0
109,0.0,0.0,0.0,0.51257421875,0.0,0.0,0.0,0.0,0.0,0.0,0.325,0.0,0.0,0.0,0.0,0.0,0.0,0.5279805574615424,0.0,0.0,0.0,0.0,0.0,0.0,-12.76,0.0,0.0,0.0
110,0.0,0.0,0.0,0.5154619140625,0.0,0.0,0.0,0.0,0.0,0.0,0.292,0.0,0.0,0.0,0.0,0.0,0.0,0.5315481727942669,0.0,0.0,0.0,0.0,0.0,0.0,-12.44,0.0,0.0,0.0
111,0.0,0.0,0.0,0.5185029296875,0.0,0.0,0.0,0.0,0.0,0.0,0.298,0.0,0.0,0.0,0.0,0.0,0.0,0.533585386084759,0.0,0.0,0.0,0.0,0.0,0.0,-12.004,0.0,0.0,0.0
112,0.0,0.0,0.0,0.5213994140625,0.0,0.0,0.0,0.0,0.0,0.0,0.299,0.0,0.0,0.0,0.0,0.0,0.0,0.5363111587748777,0.0,0.0,0.0,0.0,0.0,0.0,-11.82,0.0,0.0,0.0
113,0.0,0.0,0.0,0.5243046875,0.0,0.0,0.0,0.0,0.0,0.0,0.291,0.0,0.0,0.0,0.0,0.0,0.0,0.5390305886927572,0.0,0.0,0.0,0.0,0.0,0.0,-12.188,0.0,0.0,0.0
114,0.0,0.0,0.0,0.527345703125,0.0,0.0,0.0,0.0,0.0,0.0,0.292,0.0,0.0,0.0,0.0,0.0,0.0,0.5416357752658929,0.0,0.0,0.0,0.0,0.0,0.0,-12.576,0.0,0.0,0.0
115,0.0,0.0,0.0,0.53009765625,0.0,0.0,0.0,0.0,0.0,0.0,0.302,0.0,0.0,0.0,0.0,0.0,0.0,0.5441368495003229,0.0,0.0,0.0,0.0,0.0,0.0,-13.124,0.0,0.0,0.0
116,0.0,0.0,0.0,0.532994140625,0.0,0.0,0.0,0.0,0.0,0.0,0.282,0.0,0.0,0.0,0.0,0.0,0.0,0.5466916322242388,0.0,0.0,0.0,0.0,0.0,0.0,-13.032,0.0,0.0,0.0
117,0.0,0.0,0.0,0.5357373046875,0.0,0.0,0.0,0.0,0.0,0.0,0.287,0.0,0.0,0.0,0.0,0.0,0.0,0.5495413387751574,0.0,0.0,0.0,0.0,0.0,0.0,-13.356,0.0,0.0,0.0
118,0.0,0.0,0.0,0.5383447265625,0.0,0.0,0.0,0.0,0.0,0.0,0.264,0.0,0.0,0.0,0.0,0.0,0.0,0.5514731504237161,0.0,0.0,0.0,0.0,0.0,0.0,-13.124,0.0,0.0,0.0
119,0.0,0.0,0.0,0.5412412109375,0.0,0.0,0.0,0.0,0.0,0.0,0.266,0.0,0.0,0.0,0.0,0.0,0.0,0.5538045310349179,0.0,0.0,0.0,0.0,0.0,0.0,-12.576,0.0,0.0,0.0
120,0.0,0.0,0.0,0.5438583984375,0.0,0.0,0.0,0.0,0.0,0.0,0.288,0.0,0.0,0.0,0.0,0.0,0.0,0.5562763748187766,0.0,0.0,0.0,0.0,0.0,0.0,-12.464,0.0,0.0,0.0
121,0.0,0.0,0.0,0.5464658203125,0.0,0.0,0.0,0.0,0.0,0.0,0.261,0.0,0.0,0.0,0.0,0.0,0.0,0.5583097435760268,0.0,0.0,0.0,0.0,0.0,0.0,-12.484,0.0,0.0,0.0
122,0.0,0.0,0.0,0.5512392578125,0.0,0.0,0.0,0.0,0.0,0.0,0.242,0.0,0.0,0.0,0.0,0.0,0.0,0.5619733085585379,0.0,0.0,0.0,0.0,0.0,0.0,-11.82,0.0,0.0,0.0
123,0.0,0.0,0.0,0.5512392578125,0.0,0.0,0.0,0.0,0.0,0.0,0.242,0.0,0.0,0.0,0.0,0.0,0.0,0.5629056451451743,0.0,0.0,0.0,0.0,0.0,0.0,-11.82,0.0,0.0,0.0
124,0.0,0.0,0.0,0.5534140625,0.0,0.0,0.0,0.0,0.0,0.0,0.231,0.0,0.0,0.0,0.0,0.0,0.0,0.5646502817263364,0.0,0.0,0.0,0.0,0.0,0.0,-11.936,0.0,0.0,0.0
125,0.0,0.0,0.0,0.5573212890625,0.0,0.0,0.0,0.0,0.0,0.0,0.186,0.0,0.0,0.0,0.0,0.0,0.0,0.5677071258070685,0.0,0.0,0.0,0.0,0.0,0.0,-12.004,0.0,0.0,0.0
126,0.0,0.0,0.0,0.5573212890625,0.0,0.0,0.0,0.0,0.0,0.0,0.186,0.0,0.0,0.0,0.0,0.0,0.0,0.5690997006551606,0.0,0.0,0.0,0.0,0.0,0.0,-12.004,0.0,0.0,0.0
127,0.0,0.0,0.0,0.5594873046875,0.0,0.0,0.0,0.0,0.0,0.0,0.217,0.0,0.0,0.0,0.0,0.0,0.0,0.5704753650492927,0.0,0.0,0.0,0.0,0.0,0.0,-12.348,0.0,0.0,0.0
128,0.0,0.0,0.0,0.561083984375,0.0,0.0,0.0,0.0,0.0,0.0,0.195,0.0,0.0,0.0,0.0,0.0,0.0,0.5723317245662217,0.0,0.0,0.0,0.0,0.0,0.0,-12.072,0.0,0.0,0.0
129,0.0,0.0,0.0,0.563267578125,0.0,0.0,0.0,0.0,0.0,0.0,0.18,0.0,0.0,0.0,0.0,0.0,0.0,0.5744138905549494,0.0,0.0,0.0,0.0,0.0,0.0,-11.616,0.0,0.0,0.0
130,0.0,0.0,0.0,0.565,0.0,0.0,0.0,0.0,0.0,0.0,0.205,0.0,0.0,0.0,0.0,0.0,0.0,0.575805691330814,0.0,0.0,0.0,0.0,0.0,0.0,-12.028,0.0,0.0,0.0
131,0.0,0.0,0.0,0.5668857421875,0.0,0.0,0.0,0.0,0.0,0.0,0.175,0.0,0.0,0.0,0.0,0.0,0.0,0.5774667816336406,0.0,0.0,0.0,0.0,0.0,0.0,-11.82,0.0,0.0,0.0
132,0.0,0.0,0.0,0.5689072265625,0.0,0.0,0.0,0.0,0.0,0.0,0.196,0.0,0.0,0.0,0.0,0.0,0.0,0.5791016058605518,0.0,0.0,0.0,0.0,0.0,0.0,-12.304,0.0,0.0,0.0
133,0.0,0.0,0.0,0.5705048828125,0.0,0.0,0.0,0.0,0.0,0.0,0.183,0.0,0.0,0.0,0.0,0.0,0.0,0.5806012682567208,0.0,0.0,0.0,0.0,0.0,0.0,-12.052,0.0,0.0,0.0
134,0.0,0.0,0.0,0.5722373046875,0.0,0.0,0.0,0.0,0.0,0.0,0.172,0.0,0.0,0.0,0.0,0.0,0.0,0.5820949938288639,0.0,0.0,0.0,0.0,0.0,0.0,-11.868,0.0,0.0,0.0
135,0.0,0.0,0.0,0.573833984375,0.0,0.0,0.0,0.0,0.0,0.0,0.17,0.0,0.0,0.0,0.0,0.0,0.0,0.5835278223632525,0.0,0.0,0.0,0.0,0.0,0.0,-11.548,0.0,0.0,0.0
136,0.0,0.0,0.0,0.575421875,0.0,0.0,0.0,0.0,0.0,0.0,0.16,0.0,0.0,0.0,0.0,0.0,0.0,0.5848864548611505,0.0,0.0,0.0,0.0,0.0,0.0,-11.432,0.0,0.0,0.0
137,0.0,0.0,0.0,0.576875,0.0,0.0,0.0,0.0,0.0,0.0,0.153,0.0,0.0,0.0,0.0,0.0,0.0,0.5862039606065824,0.0,0.0,0.0,0.0,0.0,0.0,-11.548,0.0,0.0,0.0
138,0.0,0.0,0.0,0.578462890625,0.0,0.0,0.0,0.0,0.0,0.0,0.149,0.0,0.0,0.0,0.0,0.0,0.0,0.587455221100245,0.0,0.0,0.0,0.0,0.0,0.0,-11.48,0.0,0.0,0.0
139,0.0,0.0,0.0,0.5799072265625,0.0,0.0,0.0,0.0,0.0,0.0,0.155,0.0,0.0,0.0,0.0,0.0,0.0,0.5886304300634202,0.0,0.0,0.0,0.0,0.0,0.0,-11.82,0.0,0.0,0.0
140,0.0,0.0,0.0,0.5812158203125,0.0,0.0,0.0,0.0,0.0,0.0,0.136,0.0,0.0,0.0,0.0,0.0,0.0,0.5897718503750795,0.0,0.0,0.0,0.0,0.0,0.0,-11.524,0.0,0.0,0.0
141,0.0,0.0,0.0,0.58266796875,0.0,0.0,0.0,0.0,0.0,0.0,0.139,0.0,0.0,0.0,0.0,0.0,0.0,0.5909923368925198,0.0,0.0,0.0,0.0,0.0,0.0,-11.8,0.0,0.0,0.0
142,0.0,0.0,0.0,0.58383203125,0.0,0.0,0.0,0.0,0.0,0.0,0.128,0.0,0.0,0.0,0.0,0.0,0.0,0.5918633875050616,0.0,0.0,0.0,0.0,0.0,0.0,-11.708,0.0,0.0,0.0
143,0.0,0.0,0.0,0.5849873046875,0.0,0.0,0.0,0.0,0.0,0.0,0.123,0.0,0.0,0.0,0.0,0.0,0.0,0.5928133612878832,0.0,0.0,0.0,0.0,0.0,0.0,-11.98,0.0,0.0,0.0
144,0.0,0.0,0.0,0.5862861328125,0.0,0.0,0.0,0.0,0.0,0.0,0.123,0.0,0.0,0.0,0.0,0.0,0.0,0.5937183295691839,0.0,0.0,0.0,0.0,0.0,0.0,-12.14,0.0,0.0,0.0
145,0.0,0.0,0.0,0.587306640625,0.0,0.0,0.0,0.0,0.0,0.0,0.114,0.0,0.0,0.0,0.0,0.0,0.0,0.5945505312433373,0.0,0.0,0.0,0.0,0.0,0.0,-12.372,0.0,0.0,0.0
146,0.0,0.0,0.0,0.5884609375,0.0,0.0,0.0,0.0,0.0,0.0,0.109,0.0,0.0,0.0,0.0,0.0,0.0,0.5953278464321895,0.0,0.0,0.0,0.0,0.0,0.0,-12.324,0.0,0.0,0.0
147,0.0,0.0,0.0,0.5894716796875,0.0,0.0,0.0,0.0,0.0,0.0,0.112,0.0,0.0,0.0,0.0,0.0,0.0,0.5960436574987513,0.0,0.0,0.0,0.0,0.0,0.0,-12.44,0.0,0.0,0.0
148,0.0,0.0,0.0,0.5904912109375,0.0,0.0,0.0,0.0,0.0,0.0,0.103,0.0,0.0,0.0,0.0,0.0,0.0,0.596700672236944,0.0,0.0,0.0,0.0,0.0,0.0,-12.508,0.0,0.0,0.0
149,0.0,0.0,0.0,0.591357421875,0.0,0.0,0.0,0.0,0.0,0.0,0.097,0.0,0.0,0.0,0.0,0.0,0.0,0.5973180891587501,0.0,0.0,0.0,0.0,0.0,0.0,-12.552,0.0,0.0,0.0
150,0.0,0.0,0.0,0.5920791015625,0.0,0.0,0.0,0.0,0.0,0.0,0.085,0.0,0.0,0.0,0.0,0.0,0.0,0.5978409583867209,0.0,0.0,0.0,0.0,0.0,0.0,-12.828,0.0,0.0,0.0
151,0.0,0.0,0.0,0.5928017578125,0.0,0.0,0.0,0.0,0.0,0.0,0.067,0.0,0.0,0.0,0.0,0.0,0.0,0.5984688010712235,0.0,0.0,0.0,0.0,0.0,0.0,-12.6,0.0,0.0,0.0
152,0.0,0.0,0.0,0.59337890625,0.0,0.0,0.0,0.0,0.0,0.0,0.067,0.0,0.0,0.0,0.0,0.0,0.0,0.5987417991768477,0.0,0.0,0.0,0.0,0.0,0.0,-12.692,0.0,0.0,0.0
153,0.0,0.0,0.0,0.5939658203125,0.0,0.0,0.0,0.0,0.0,0.0,0.058,0.0,0.0,0.0,0.0,0.0,0.0,0.5991809364491898,0.0,0.0,0.0,0.0,0.0,0.0,-12.828,0.0,0.0,0.0
154,0.0,0.0,0.0,0.5943984375,0.0,0.0,0.0,0.0,0.0,0.0,0.051,0.0,0.0,0.0,0.0,0.0,0.0,0.5993990805359259,0.0,0.0,0.0,0.0,0.0,0.0,-12.712,0.0,0.0,0.0
155,0.0,0.0,0.0,0.5949755859375,0.0,0.0,0.0,0.0,0.0,0.0,0.055,0.0,0.0,0.0,0.0,0.0,0.0,0.5996490339947798,0.0,0.0,0.0,0.0,0.0,0.0,-12.852,0.0,0.0,0.0
156,0.0,0.0,0.0,0.5952646484375,0.0,0.0,0.0,0.0,0.0,0.0,0.042,0.0,0.0,0.0,0.0,0.0,0.0,0.5998132538275353,0.0,0.0,0.0,0.0,0.0,0.0,-12.92,0.0,0.0,0.0
157,0.0,0.0,0.0,0.5955537109375,0.0,0.0,0.0,0.0,0.0,0.0,0.031,0.0,0.0,0.0,0.0,0.0,0.0,0.5999348793436321,0.0,0.0,0.0,0.0,0.0,0.0,-12.712,0.0,0.0,0.0
158,0.0,0.0,0.0,0.5958427734375,0.0,0.0,0.0,0.0,0.0,0.0,0.028,0.0,0.0,0.0,0.0,0.0,0.0,0.5999954595553979,0.0,0.0,0.0,0.0,0.0,0.0,-12.6,0.0,0.0,0.0
159,0.0,0.0,0.0,0.596130859375,0.0,0.0,0.0,0.0,0.0,0.0,0.023,0.0,0.0,0.0,0.0,0.0,0.0,0.5999898642394169,0.0,0.0,0.0,0.0,0.0,0.0,-12.804,0.0,0.0,0.0
160,0.0,0.0,0.0,0.596130859375,0.0,0.0,0.0,0.0,0.0,0.0,0.018,0.0,0.0,0.0,0.0,0.0,0.0,0.5999299890555256,0.0,0.0,0.0,0.0,0.0,0.0,-12.872,0.0,0.0,0.0
161,0.0,0.0,0.0,0.596275390625,0.0,0.0,0.0,0.0,0.0,0.0,0.007,0.0,0.0,0.0,0.0,0.0,0.0,0.5998075929655354,0.0,0.0,0.0,0.0,0.0,0.0,-12.644,0.0,0.0,0.0
162,0.0,0.0,0.0,0.596275390625,0.0,0.0,0.0,0.0,0.0,0.0,0.009,0.0,0.0,0.0,0.0,0.0,0.0,0.5996309487556327,0.0,0.0,0.0,0.0,0.0,0.0,-12.576,0.0,0.0,0.0
163,0.0,0.0,0.0,0.596275390625,0.0,0.0,0.0,0.0,0.0,0.0,-0.001,0.0,0.0,0.0,0.0,0.0,0.0,0.5993843246527983,0.0,0.0,0.0,0.0,0.0,0.0,-12.668,0.0,0.0,0.0
164,0.0,0.0,0.0,0.596275390625,0.0,0.0,0.0,0.0,0.0,0.0,-0.001,0.0,0.0,0.0,0.0,0.0,0.0,0.5990908249829975,0.0,0.0,0.0,0.0,0.0,0.0,-12.532,0.0,0.0,0.0
165,0.0,0.0,0.0,0.596275390625,0.0,0.0,0.0,0.0,0.0,0.0,-0.001,0.0,0.0,0.0,0.0,0.0,0.0,0.5984301752040854,0.0,0.0,0.0,0.0,0.0,0.0,-12.464,0.0,0.0,0.0
166,0.0,0.0,0.0,0.596275390625,0.0,0.0,0.0,0.0,0.0,0.0,-0.001,0.0,0.0,0.0,0.0,0.0,0.0,0.5981274126925943,0.0,0.0,0.0,0.0,0.0,0.0,-12.464,0.0,0.0,0.0
167,0.0,0.0,0.0,0.596275390625,0.0,0.0,0.0,0.0,0.0,0.0,-0.001,0.0,0.0,0.0,0.0,0.0,0.0,0.597747242876679,0.0,0.0,0.0,0.0,0.0,0.0,-12.576,0.0,0.0,0.0
168,0.0,0.0,0.0,0.596275390625,0.0,0.0,0.0,0.0,0.0,0.0,-0.001,0.0,0.0,0.0,0.0,0.0,0.0,0.5972887410840941,0.0,0.0,0.0,0.0,0.0,0.0,-12.464,0.0,0.0,0.0
169,0.0,0.0,0.0,0.596275390625,0.0,0.0,0.0,0.0,0.0,0.0,-0.001,0.0,0.0,0.0,0.0,0.0,0.0,0.5966691013767363,0.0,0.0,0.0,0.0,0.0,0.0,-12.392,0.0,0.0,0.0
170,0.0,0.0,0.0,0.596275390625,0.0,0.0,0.0,0.0,0.0,0.0,-0.001,0.0,0.0,0.0,0.0,0.0,0.0,0.5959155624053566,0.0,0.0,0.0,0.0,0.0,0.0,-12.372,0.0,0.0,0.0
171,0.0,0.0,0.0,0.596275390625,0.0,0.0,0.0,0.0,0.0,0.0,-0.001,0.0,0.0,0.0,0.0,0.0,0.0,0.595305898992483,0.0,0.0,0.0,0.0,0.0,0.0,-12.44,0.0,0.0,0.0
172,0.0,0.0,0.0,0.596275390625,0.0,0.0,0.0,0.0,0.0,0.0,-0.001,0.0,0.0,0.0,0.0,0.0,0.0,0.5945254692670108,0.0,0.0,0.0,0.0,0.0,0.0,-12.304,0.0,0.0,0.0
173,0.0,0.0,0.0,0.596275390625,0.0,0.0,0.0,0.0,0.0,0.0,-0.001,0.0,0.0,0.0,0.0,0.0,0.0,0.5937000166940736,0.0,0.0,0.0,0.0,0.0,0.0,-12.372,0.0,0.0,0.0
174,0.0,0.0,0.0,0.595986328125,0.0,0.0,0.0,0.0,0.0,0.0,-0.013,0.0,0.0,0.0,0.0,0.0,0.0,0.5928006548260197,0.0,0.0,0.0,0.0,0.0,0.0,-13.264,0.0,0.0,0.0
175,0.0,0.0,0.0,0.5952646484375,0.0,0.0,0.0,0.0,0.0,0.0,-0.051,0.0,0.0,0.0,0.0,0.0,0.0,0.591621812011463,0.0,0.0,0.0,0.0,0.0,0.0,-13.492,0.0,0.0,0.0
176,0.0,0.0,0.0,0.5946875,0.0,0.0,0.0,0.0,0.0,0.0,-0.069,0.0,0.0,0.0,0.0,0.0,0.0,0.5908355377051855,0.0,0.0,0.0,0.0,0.0,0.0,-13.376,0.0,0.0,0.0
177,0.0,0.0,0.0,0.5938212890625,0.0,0.0,0.0,0.0,0.0,0.0,-0.067,0.0,0.0,0.0,0.0,0.0,0.0,0.5897300853341761,0.0,0.0,0.0,0.0,0.0,0.0,-13.192,0.0,0.0,0.0
178,0.0,0.0,0.0,0.59337890625,0.0,0.0,0.0,0.0,0.0,0.0,-0.069,0.0,0.0,0.0,0.0,0.0,0.0,0.5886201625679356,0.0,0.0,0.0,0.0,0.0,0.0,-12.988,0.0,0.0,0.0
179,0.0,0.0,0.0,0.5925126953125,0.0,0.0,0.0,0.0,0.0,0.0,-0.06,0.0,0.0,0.0,0.0,0.0,0.0,0.5874201508424605,0.0,0.0,0.0,0.0,0.0,0.0,-13.88,0.0,0.0,0.0
180,0.0,0.0,0.0,0.591212890625,0.0,0.0,0.0,0.0,0.0,0.0,-0.112,0.0,0.0,0.0,0.0,0.0,0.0,0.5861727001452233,0.0,0.0,0.0,0.0,0.0,0.0,-13.836,0.0,0.0,0.0
181,0.0,0.0,0.0,0.590193359375,0.0,0.0,0.0,0.0,0.0,0.0,-0.112,0.0,0.0,0.0,0.0,0.0,0.0,0.5848565653087411,0.0,0.0,0.0,0.0,0.0,0.0,-13.676,0.0,0.0,0.0
182,0.0,0.0,0.0,0.5890390625,0.0,0.0,0.0,0.0,0.0,0.0,-0.11,0.0,0.0,0.0,0.0,0.0,0.0,0.5834839060162746,0.0,0.0,0.0,0.0,0.0,0.0,-13.332,0.0,0.0,0.0
183,0.0,0.0,0.0,0.5875947265625,0.0,0.0,0.0,0.0,0.0,0.0,-0.132,0.0,0.0,0.0,0.0,0.0,0.0,0.5820777728058422,0.0,0.0,0.0,0.0,0.0,0.0,-13.424,0.0,0.0,0.0
184,0.0,0.0,0.0,0.585998046875,0.0,0.0,0.0,0.0,0.0,0.0,-0.153,0.0,0.0,0.0,0.0,0.0,0.0,0.5805330391418516,0.0,0.0,0.0,0.0,0.0,0.0,-13.172,0.0,0.0,0.0
185,0.0,0.0,0.0,0.5846982421875,0.0,0.0,0.0,0.0,0.0,0.0,-0.145,0.0,0.0,0.0,0.0,0.0,0.0,0.5790365336827505,0.0,0.0,0.0,0.0,0.0,0.0,-12.828,0.0,0.0,0.0
186,0.0,0.0,0.0,0.58295703125,0.0,0.0,0.0,0.0,0.0,0.0,-0.151,0.0,0.0,0.0,0.0,0.0,0.0,0.5774343285116368,0.0,0.0,0.0,0.0,0.0,0.0,-13.124,0.0,0.0,0.0
187,0.0,0.0,0.0,0.5810712890625,0.0,0.0,0.0,0.0,0.0,0.0,-0.187,0.0,0.0,0.0,0.0,0.0,0.0,0.5757600944444327,0.0,0.0,0.0,0.0,0.0,0.0,-12.896,0.0,0.0,0.0
188,0.0,0.0,0.0,0.579041015625,0.0,0.0,0.0,0.0,0.0,0.0,-0.195,0.0,0.0,0.0,0.0,0.0,0.0,0.5740705121758873,0.0,0.0,0.0,0.0,0.0,0.0,-12.532,0.0,0.0,0.0
189,0.0,0.0,0.0,0.5774521484375,0.0,0.0,0.0,0.0,0.0,0.0,-0.187,0.0,0.0,0.0,0.0,0.0,0.0,0.5722793844348206,0.0,0.0,0.0,0.0,0.0,0.0,-12.028,0.0,0.0,0.0
190,0.0,0.0,0.0,0.5757109375,0.0,0.0,0.0,0.0,0.0,0.0,-0.166,0.0,0.0,0.0,0.0,0.0,0.0,0.5704470207929567,0.0,0.0,0.0,0.0,0.0,0.0,-12.712,0.0,0.0,0.0
191,0.0,0.0,0.0,0.573833984375,0.0,0.0,0.0,0.0,0.0,0.0,-0.183,0.0,0.0,0.0,0.0,0.0,0.0,0.5685495011781724,0.0,0.0,0.0,0.0,0.0,0.0,-12.304,0.0,0.0,0.0
192,0.0,0.0,0.0,0.5719482421875,0.0,0.0,0.0,0.0,0.0,0.0,-0.19,0.0,0.0,0.0,0.0,0.0,0.0,0.5666356104017324,0.0,0.0,0.0,0.0,0.0,0.0,-12.576,0.0,0.0,0.0
193,0.0,0.0,0.0,0.56962890625,0.0,0.0,0.0,0.0,0.0,0.0,-0.21,0.0,0.0,0.0,0.0,0.0,0.0,0.5646281043629732,0.0,0.0,0.0,0.0,0.0,0.0,-12.052,0.0,0.0,0.0
194,0.0,0.0,0.0,0.568041015625,0.0,0.0,0.0,0.0,0.0,0.0,-0.202,0.0,0.0,0.0,0.0,0.0,0.0,0.5625040760827809,0.0,0.0,0.0,0.0,0.0,0.0,-11.48,0.0,0.0,0.0
195,0.0,0.0,0.0,0.5658662109375,0.0,0.0,0.0,0.0,0.0,0.0,-0.178,0.0,0.0,0.0,0.0,0.0,0.0,0.5603746904860961,0.0,0.0,0.0,0.0,0.0,0.0,-12.392,0.0,0.0,0.0
196,0.0,0.0,0.0,0.563556640625,0.0,0.0,0.0,0.0,0.0,0.0,-0.234,0.0,0.0,0.0,0.0,0.0,0.0,0.5582828952014542,0.0,0.0,0.0,0.0,0.0,0.0,-12.14,0.0,0.0,0.0
197,0.0,0.0,0.0,0.561517578125,0.0,0.0,0.0,0.0,0.0,0.0,-0.218,0.0,0.0,0.0,0.0,0.0,0.0,0.5560579627316473,0.0,0.0,0.0,0.0,0.0,0.0,-12.644,0.0,0.0,0.0
198,0.0,0.0,0.0,0.5590537109375,0.0,0.0,0.0,0.0,0.0,0.0,-0.228,0.0,0.0,0.0,0.0,0.0,0.0,0.5537737916810436,0.0,0.0,0.0,0.0,0.0,0.0,-12.212,0.0,0.0,0.0
199,0.0,0.0,0.0,0.556888671875,0.0,0.0,0.0,0.0,0.0,0.0,-0.241,0.0,0.0,0.0,0.0,0.0,0.0,0.5514407185347227,0.0,0.0,0.0,0.0,0.0,0.0,-11.708,0.0,0.0,0.0
200,0.0,0.0,0.0,0.5544248046875,0.0,0.0,0.0,0.0,0.0,0.0,-0.227,0.0,0.0,0.0,0.0,0.0,0.0,0.5490236683879669,0.0,0.0,0.0,0.0,0.0,0.0,-11.936,0.0,0.0,0.0
201,0.0,0.0,0.0,0.5518173828125,0.0,0.0,0.0,0.0,0.0,0.0,-0.256,0.0,0.0,0.0,0.0,0.0,0.0,0.5465540618767696,0.0,0.0,0.0,0.0,0.0,0.0,-12.14,0.0,0.0,0.0
202,0.0,0.0,0.0,0.5497958984375,0.0,0.0,0.0,0.0,0.0,0.0,-0.23,0.0,0.0,0.0,0.0,0.0,0.0,0.5441046960856459,0.0,0.0,0.0,0.0,0.0,0.0,-12.416,0.0,0.0,0.0
203,0.0,0.0,0.0,0.54733203125,0.0,0.0,0.0,0.0,0.0,0.0,-0.217,0.0,0.0,0.0,0.0,0.0,0.0,0.5406573645696751,0.0,0.0,0.0,0.0,0.0,0.0,-13.424,0.0,0.0,0.0
204,0.0,0.0,0.0,0.544724609375,0.0,0.0,0.0,0.0,0.0,0.0,-0.266,0.0,0.0,0.0,0.0,0.0,0.0,0.538944334691278,0.0,0.0,0.0,0.0,0.0,0.0,-13.148,0.0,0.0,0.0
205,0.0,0.0,0.0,0.540375,0.0,0.0,0.0,0.0,0.0,0.0,-0.216,0.0,0.0,0.0,0.0,0.0,0.0,0.5344680187236157,0.0,0.0,0.0,0.0,0.0,0.0,-12.692,0.0,0.0,0.0
206,0.0,0.0,0.0,0.540375,0.0,0.0,0.0,0.0,0.0,0.0,-0.216,0.0,0.0,0.0,0.0,0.0,0.0,0.5332251684974998,0.0,0.0,0.0,0.0,0.0,0.0,-12.692,0.0,0.0,0.0
207,0.0,0.0,0.0,0.537912109375,0.0,0.0,0.0,0.0,0.0,0.0,-0.227,0.0,0.0,0.0,0.0,0.0,0.0,0.5307980838366415,0.0,0.0,0.0,0.0,0.0,0.0,-13.604,0.0,0.0,0.0
208,0.0,0.0,0.0,0.5358818359375,0.0,0.0,0.0,0.0,0.0,0.0,-0.24,0.0,0.0,0.0,0.0,0.0,0.0,0.527951105592986,0.0,0.0,0.0,0.0,0.0,0.0,-11.912,0.0,0.0,0.0
209,0.0,0.0,0.0,0.5347265625,0.0,0.0,0.0,0.0,0.0,0.0,-0.154,0.0,0.0,0.0,0.0,0.0,0.0,0.5250882699290845,0.0,0.0,0.0,0.0,0.0,0.0,-12.712,0.0,0.0,0.0
210,0.0,0.0,0.0,0.5313974609375,0.0,0.0,0.0,0.0,0.0,0.0,-0.204,0.0,0.0,0.0,0.0,0.0,0.0,0.522108042126017,0.0,0.0,0.0,0.0,0.0,0.0,-14.384,0.0,0.0,0.0
211,0.0,0.0,0.0,0.52864453125,0.0,0.0,0.0,0.0,0.0,0.0,-0.326,0.0,0.0,0.0,0.0,0.0,0.0,0.5191980873116334,0.0,0.0,0.0,0.0,0.0,0.0,-13.536,0.0,0.0,0.0
212,0.0,0.0,0.0,0.5259013671875,0.0,0.0,0.0,0.0,0.0,0.0,-0.263,0.0,0.0,0.0,0.0,0.0,0.0,0.5161401683832868,0.0,0.0,0.0,0.0,0.0,0.0,-13.4,0.0,0.0,0.0
213,0.0,0.0,0.0,0.52270703125,0.0,0.0,0.0,0.0,0.0,0.0,-0.303,0.0,0.0,0.0,0.0,0.0,0.0,0.513069625512395,0.0,0.0,0.0,0.0,0.0,0.0,-12.872,0.0,0.0,0.0
214,0.0,0.0,0.0,0.519810546875,0.0,0.0,0.0,0.0,0.0,0.0,-0.308,0.0,0.0,0.0,0.0,0.0,0.0,0.5099435082318469,0.0,0.0,0.0,0.0,0.0,0.0,-13.468,0.0,0.0,0.0
215,0.0,0.0,0.0,0.5166259765625,0.0,0.0,0.0,0.0,0.0,0.0,-0.303,0.0,0.0,0.0,0.0,0.0,0.0,0.5067346300557525,0.0,0.0,0.0,0.0,0.0,0.0,-13.628,0.0,0.0,0.0
216,0.0,0.0,0.0,0.5134404296875,0.0,0.0,0.0,0.0,0.0,0.0,-0.323,0.0,0.0,0.0,0.0,0.0,0.0,0.5035142235821524,0.0,0.0,0.0,0.0,0.0,0.0,-13.604,0.0,0.0,0.0
217,0.0,0.0,0.0,0.5102548828125,0.0,0.0,0.0,0.0,0.0,0.0,-0.315,0.0,0.0,0.0,0.0,0.0,0.0,0.5002244201498625,0.0,0.0,0.0,0.0,0.0,0.0,-13.788,0.0,0.0,0.0
218,0.0,0.0,0.0,0.50692578125,0.0,0.0,0.0,0.0,0.0,0.0,-0.326,0.0,0.0,0.0,0.0,0.0,0.0,0.4968660216534676,0.0,0.0,0.0,0.0,0.0,0.0,-13.536,0.0,0.0,0.0
219,0.0,0.0,0.0,0.5034423828125,0.0,0.0,0.0,0.0,0.0,0.0,-0.354,0.0,0.0,0.0,0.0,0.0,0.0,0.4934989996859625,0.0,0.0,0.0,0.0,0.0,0.0,-12.372,0.0,0.0,0.0
220,0.0,0.0,0.0,0.5004013671875,0.0,0.0,0.0,0.0,0.0,0.0,-0.331,0.0,0.0,0.0,0.0,0.0,0.0,0.49004271358640766,0.0,0.0,0.0,0.0,0.0,0.0,-13.172,0.0,0.0,0.0
221,0.0,0.0,0.0,0.496783203125,0.0,0.0,0.0,0.0,0.0,0.0,-0.326,0.0,0.0,0.0,0.0,0.0,0.0,0.4864842219038189,0.0,0.0,0.0,0.0,0.0,0.0,-13.104,0.0,0.0,0.0
222,0.0,0.0,0.0,0.4933095703125,0.0,0.0,0.0,0.0,0.0,0.0,-0.366,0.0,0.0,0.0,0.0,0.0,0.0,0.48304169046951556,0.0,0.0,0.0,0.0,0.0,0.0,-12.44,0.0,0.0,0.0
223,0.0,0.0,0.0,0.48940234375,0.0,0.0,0.0,0.0,0.0,0.0,-0.357,0.0,0.0,0.0,0.0,0.0,0.0,0.47946359234524755,0.0,0.0,0.0,0.0,0.0,0.0,-13.356,0.0,0.0,0.0
224,0.0,0.0,0.0,0.485341796875,0.0,0.0,0.0,0.0,0.0,0.0,-0.409,0.0,0.0,0.0,0.0,0.0,0.0,0.4758047429888,0.0,0.0,0.0,0.0,0.0,0.0,-12.944,0.0,0.0,0.0
225,0.0,0.0,0.0,0.4818583984375,0.0,0.0,0.0,0.0,0.0,0.0,-0.385,0.0,0.0,0.0,0.0,0.0,0.0,0.4721535557011707,0.0,0.0,0.0,0.0,0.0,0.0,-13.24,0.0,0.0,0.0
226,0.0,0.0,0.0,0.477951171875,0.0,0.0,0.0,0.0,0.0,0.0,-0.366,0.0,0.0,0.0,0.0,0.0,0.0,0.46843101060018033,0.0,0.0,0.0,0.0,0.0,0.0,-13.516,0.0,0.0,0.0
227,0.0,0.0,0.0,0.4746220703125,0.0,0.0,0.0,0.0,0.0,0.0,-0.371,0.0,0.0,0.0,0.0,0.0,0.0,0.46462613631624944,0.0,0.0,0.0,0.0,0.0,0.0,-13.696,0.0,0.0,0.0
228,0.0,0.0,0.0,0.470859375,0.0,0.0,0.0,0.0,0.0,0.0,-0.351,0.0,0.0,0.0,0.0,0.0,0.0,0.4608220154898914,0.0,0.0,0.0,0.0,0.0,0.0,-13.856,0.0,0.0,0.0
229,0.0,0.0,0.0,0.467095703125,0.0,0.0,0.0,0.0,0.0,0.0,-0.381,0.0,0.0,0.0,0.0,0.0,0.0,0.45697755793235784,0.0,0.0,0.0,0.0,0.0,0.0,-13.192,0.0,0.0,0.0
230,0.0,0.0,0.0,0.46390234375,0.0,0.0,0.0,0.0,0.0,0.0,-0.358,0.0,0.0,0.0,0.0,0.0,0.0,0.4530407205972784,0.0,0.0,0.0,0.0,0.0,0.0,-12.484,0.0,0.0,0.0
231,0.0,0.0,0.0,0.460138671875,0.0,0.0,0.0,0.0,0.0,0.0,-0.338,0.0,0.0,0.0,0.0,0.0,0.0,0.4490815071378759,0.0,0.0,0.0,0.0,0.0,0.0,-13.332,0.0,0.0,0.0
232,0.0,0.0,0.0,0.4556455078125,0.0,0.0,0.0,0.0,0.0,0.0,-0.417,0.0,0.0,0.0,0.0,0.0,0.0,0.44508893167578006,0.0,0.0,0.0,0.0,0.0,0.0,-13.516,0.0,0.0,0.0
233,0.0,0.0,0.0,0.45202734375,0.0,0.0,0.0,0.0,0.0,0.0,-0.419,0.0,0.0,0.0,0.0,0.0,0.0,0.4410142168261511,0.0,0.0,0.0,0.0,0.0,0.0,-13.584,0.0,0.0,0.0
234,0.0,0.0,0.0,0.4481201171875,0.0,0.0,0.0,0.0,0.0,0.0,-0.368,0.0,0.0,0.0,0.0,0.0,0.0,0.4369330091850064,0.0,0.0,0.0,0.0,0.0,0.0,-13.492,0.0,0.0,0.0
235,0.0,0.0,0.0,0.443923828125,0.0,0.0,0.0,0.0,0.0,0.0,-0.412,0.0,0.0,0.0,0.0,0.0,0.0,0.43282415159303494,0.0,0.0,0.0,0.0,0.0,0.0,-12.804,0.0,0.0,0.0
236,0.0,0.0,0.0,0.43986328125,0.0,0.0,0.0,0.0,0.0,0.0,-0.412,0.0,0.0,0.0,0.0,0.0,0.0,0.428643503328608,0.0,0.0,0.0,0.0,0.0,0.0,-13.192,0.0,0.0,0.0
237,0.0,0.0,0.0,0.43566796875,0.0,0.0,0.0,0.0,0.0,0.0,-0.414,0.0,0.0,0.0,0.0,0.0,0.0,0.4243941282722762,0.0,0.0,0.0,0.0,0.0,0.0,-12.988,0.0,0.0,0.0
238,0.0,0.0,0.0,0.4316162109375,0.0,0.0,0.0,0.0,0.0,0.0,-0.413,0.0,0.0,0.0,0.0,0.0,0.0,0.4201529880915633,0.0,0.0,0.0,0.0,0.0,0.0,-13.424,0.0,0.0,0.0
239,0.0,0.0,0.0,0.42711328125,0.0,0.0,0.0,0.0,0.0,0.0,-0.427,0.0,0.0,0.0,0.0,0.0,0.0,0.415860867163007,0.0,0.0,0.0,0.0,0.0,0.0,-13.516,0.0,0.0,0.0
240,0.0,0.0,0.0,0.4227734375,0.0,0.0,0.0,0.0,0.0,0.0,-0.449,0.0,0.0,0.0,0.0,0.0,0.0,0.41149283155904987,0.0,0.0,0.0,0.0,0.0,0.0,-13.444,0.0,0.0,0.0
241,0.0,0.0,0.0,0.4187216796875,0.0,0.0,0.0,0.0,0.0,0.0,-0.425,0.0,0.0,0.0,0.0,0.0,0.0,0.40713744903660465,0.0,0.0,0.0,0.0,0.0,0.0,-13.996,0.0,0.0,0.0
242,0.0,0.0,0.0,0.4145166015625,0.0,0.0,0.0,0.0,0.0,0.0,-0.416,0.0,0.0,0.0,0.0,0.0,0.0,0.4027005817027431,0.0,0.0,0.0,0.0,0.0,0.0,-14.064,0.0,0.0,0.0
243,0.0,0.0,0.0,0.41046484375,0.0,0.0,0.0,0.0,0.0,0.0,-0.418,0.0,0.0,0.0,0.0,0.0,0.0,0.39820883017315456,0.0,0.0,0.0,0.0,0.0,0.0,-13.788,0.0,0.0,0.0
244,0.0,0.0,0.0,0.4062607421875,0.0,0.0,0.0,0.0,0.0,0.0,-0.409,0.0,0.0,0.0,0.0,0.0,0.0,0.39371947349763664,0.0,0.0,0.0,0.0,0.0,0.0,-14.292,0.0,0.0,0.0
245,0.0,0.0,0.0,0.4017666015625,0.0,0.0,0.0,0.0,0.0,0.0,-0.438,0.0,0.0,0.0,0.0,0.0,0.0,0.38918420840911555,0.0,0.0,0.0,0.0,0.0,0.0,-13.744,0.0,0.0,0.0
246,0.0,0.0,0.0,0.3975703125,0.0,0.0,0.0,0.0,0.0,0.0,-0.444,0.0,0.0,0.0,0.0,0.0,0.0,0.3845369888053232,0.0,0.0,0.0,0.0,0.0,0.0,-13.08,0.0,0.0,0.0
247,0.0,0.0,0.0,0.392796875,0.0,0.0,0.0,0.0,0.0,0.0,-0.438,0.0,0.0,0.0,0.0,0.0,0.0,0.3799632228865058,0.0,0.0,0.0,0.0,0.0,0.0,-13.924,0.0,0.0,0.0
248,0.0,0.0,0.0,0.388005859375,0.0,0.0,0.0,0.0,0.0,0.0,-0.492,0.0,0.0,0.0,0.0,0.0,0.0,0.375304860701885,0.0,0.0,0.0,0.0,0.0,0.0,-13.308,0.0,0.0,0.0
249,0.0,0.0,0.0,0.383666015625,0.0,0.0,0.0,0.0,0.0,0.0,-0.462,0.0,0.0,0.0,0.0,0.0,0.0,0.37057235865868876,0.0,0.0,0.0,0.0,0.0,0.0,-13.492,0.0,0.0,0.0
250,0.0,0.0,0.0,0.379171875,0.0,0.0,0.0,0.0,0.0,0.0,-0.443,0.0,0.0,0.0,0.0,0.0,0.0,0.365853084062561,0.0,0.0,0.0,0.0,0.0,0.0,-12.784,0.0,0.0,0.0
251,0.0,0.0,0.0,0.37483203125,0.0,0.0,0.0,0.0,0.0,0.0,-0.44,0.0,0.0,0.0,0.0,0.0,0.0,0.36109658742703166,0.0,0.0,0.0,0.0,0.0,0.0,-13.424,0.0,0.0,0.0
252,0.0,0.0,0.0,0.369751953125,0.0,0.0,0.0,0.0,0.0,0.0,-0.468,0.0,0.0,0.0,0.0,0.0,0.0,0.35621538049437623,0.0,0.0,0.0,0.0,0.0,0.0,-13.628,0.0,0.0,0.0
253,0.0,0.0,0.0,0.364978515625,0.0,0.0,0.0,0.0,0.0,0.0,-0.506,0.0,0.0,0.0,0.0,0.0,0.0,0.35144440527783355,0.0,0.0,0.0,0.0,0.0,0.0,-13.972,0.0,0.0,0.0
254,0.0,0.0,0.0,0.3599072265625,0.0,0.0,0.0,0.0,0.0,0.0,-0.493,0.0,0.0,0.0,0.0,0.0,0.0,0.34655516959825394,0.0,0.0,0.0,0.0,0.0,0.0,-14.612,0.0,0.0,0.0
255,0.0,0.0,0.0,0.3551337890625,0.0,0.0,0.0,0.0,0.0,0.0,-0.506,0.0,0.0,0.0,0.0,0.0,0.0,0.3416049298346317,0.0,0.0,0.0,0.0,0.0,0.0,-13.516,0.0,0.0,0.0
256,0.0,0.0,0.0,0.350919921875,0.0,0.0,0.0,0.0,0.0,0.0,-0.445,0.0,0.0,0.0,0.0,0.0,0.0,0.3366816169290279,0.0,0.0,0.0,0.0,0.0,0.0,-14.132,0.0,0.0,0.0
257,0.0,0.0,0.0,0.3464345703125,0.0,0.0,0.0,0.0,0.0,0.0,-0.445,0.0,0.0,0.0,0.0,0.0,0.0,0.3317285676345671,0.0,0.0,0.0,0.0,0.0,0.0,-14.084,0.0,0.0,0.0
258,0.0,0.0,0.0,0.3419501953125,0.0,0.0,0.0,0.0,0.0,0.0,-0.446,0.0,0.0,0.0,0.0,0.0,0.0,0.3266576733946594,0.0,0.0,0.0,0.0,0.0,0.0,-14.496,0.0,0.0,0.0
259,0.0,0.0,0.0,0.336734375,0.0,0.0,0.0,0.0,0.0,0.0,-0.489,0.0,0.0,0.0,0.0,0.0,0.0,0.3216236850475675,0.0,0.0,0.0,0.0,0.0,0.0,-14.064,0.0,0.0,0.0
260,0.0,0.0,0.0,0.3318076171875,0.0,0.0,0.0,0.0,0.0,0.0,-0.517,0.0,0.0,0.0,0.0,0.0,0.0,0.3165532297754638,0.0,0.0,0.0,0.0,0.0,0.0,-13.56,0.0,0.0,0.0
261,0.0,0.0,0.0,0.3267373046875,0.0,0.0,0.0,0.0,0.0,0.0,-0.493,0.0,0.0,0.0,0.0,0.0,0.0,0.3114168939016025,0.0,0.0,0.0,0.0,0.0,0.0,-13.652,0.0,0.0,0.0
262,0.0,0.0,0.0,0.321521484375,0.0,0.0,0.0,0.0,0.0,0.0,-0.521,0.0,0.0,0.0,0.0,0.0,0.0,0.3063012856508153,0.0,0.0,0.0,0.0,0.0,0.0,-13.744,0.0,0.0,0.0
263,0.0,0.0,0.0,0.3165947265625,0.0,0.0,0.0,0.0,0.0,0.0,-0.516,0.0,0.0,0.0,0.0,0.0,0.0,0.30113459774907625,0.0,0.0,0.0,0.0,0.0,0.0,-13.72,0.0,0.0,0.0
264,0.0,0.0,0.0,0.3118125,0.0,0.0,0.0,0.0,0.0,0.0,-0.479,0.0,0.0,0.0,0.0,0.0,0.0,0.29588985197436285,0.0,0.0,0.0,0.0,0.0,0.0,-14.04,0.0,0.0,0.0
265,0.0,0.0,0.0,0.3061630859375,0.0,0.0,0.0,0.0,0.0,0.0,-0.519,0.0,0.0,0.0,0.0,0.0,0.0,0.29069014773678997,0.0,0.0,0.0,0.0,0.0,0.0,-14.156,0.0,0.0,0.0
266,0.0,0.0,0.0,0.3005146484375,0.0,0.0,0.0,0.0,0.0,0.0,-0.577,0.0,0.0,0.0,0.0,0.0,0.0,0.28543218849419444,0.0,0.0,0.0,0.0,0.0,0.0,-14.176,0.0,0.0,0.0
267,0.0,0.0,0.0,0.2955966796875,0.0,0.0,0.0,0.0,0.0,0.0,-0.538,0.0,0.0,0.0,0.0,0.0,0.0,0.2800746474645437,0.0,0.0,0.0,0.0,0.0,0.0,-14.04,0.0,0.0,0.0
268,0.0,0.0,0.0,0.2906611328125,0.0,0.0,0.0,0.0,0.0,0.0,-0.491,0.0,0.0,0.0,0.0,0.0,0.0,0.2748168436687172,0.0,0.0,0.0,0.0,0.0,0.0,-14.384,0.0,0.0,0.0
269,0.0,0.0,0.0,0.2853017578125,0.0,0.0,0.0,0.0,0.0,0.0,-0.511,0.0,0.0,0.0,0.0,0.0,0.0,0.2694331434199195,0.0,0.0,0.0,0.0,0.0,0.0,-14.956,0.0,0.0,0.0
270,0.0,0.0,0.0,0.2803837890625,0.0,0.0,0.0,0.0,0.0,0.0,-0.53,0.0,0.0,0.0,0.0,0.0,0.0,0.2640604122667405,0.0,0.0,0.0,0.0,0.0,0.0,-14.728,0.0,0.0,0.0
271,0.0,0.0,0.0,0.27487890625,0.0,0.0,0.0,0.0,0.0,0.0,-0.517,0.0,0.0,0.0,0.0,0.0,0.0,0.2586709723296975,0.0,0.0,0.0,0.0,0.0,0.0,-14.248,0.0,0.0,0.0
272,0.0,0.0,0.0,0.2690771484375,0.0,0.0,0.0,0.0,0.0,0.0,-0.567,0.0,0.0,0.0,0.0,0.0,0.0,0.2532627768689126,0.0,0.0,0.0,0.0,0.0,0.0,-13.904,0.0,0.0,0.0
273,0.0,0.0,0.0,0.2637177734375,0.0,0.0,0.0,0.0,0.0,0.0,-0.572,0.0,0.0,0.0,0.0,0.0,0.0,0.2477715817907318,0.0,0.0,0.0,0.0,0.0,0.0,-13.012,0.0,0.0,0.0
274,0.0,0.0,0.0,0.2586552734375,0.0,0.0,0.0,0.0,0.0,0.0,-0.521,0.0,0.0,0.0,0.0,0.0,0.0,0.2423468591436099,0.0,0.0,0.0,0.0,0.0,0.0,-13.744,0.0,0.0,0.0
275,0.0,0.0,0.0,0.2531416015625,0.0,0.0,0.0,0.0,0.0,0.0,-0.526,0.0,0.0,0.0,0.0,0.0,0.0,0.23684670723716372,0.0,0.0,0.0,0.0,0.0,0.0,-14.084,0.0,0.0,0.0
276,0.0,0.0,0.0,0.2480703125,0.0,0.0,0.0,0.0,0.0,0.0,-0.535,0.0,0.0,0.0,0.0,0.0,0.0,0.23126625071281004,0.0,0.0,0.0,0.0,0.0,0.0,-13.88,0.0,0.0,0.0
277,0.0,0.0,0.0,0.2425751953125,0.0,0.0,0.0,0.0,0.0,0.0,-0.525,0.0,0.0,0.0,0.0,0.0,0.0,0.2257634607920152,0.0,0.0,0.0,0.0,0.0,0.0,-14.384,0.0,0.0,0.0
278,0.0,0.0,0.0,0.236349609375,0.0,0.0,0.0,0.0,0.0,0.0,-0.595,0.0,0.0,0.0,0.0,0.0,0.0,0.22020266419738582,0.0,0.0,0.0,0.0,0.0,0.0,-14.428,0.0,0.0,0.0
279,0.0,0.0,0.0,0.230546875,0.0,0.0,0.0,0.0,0.0,0.0,-0.608,0.0,0.0,0.0,0.0,0.0,0.0,0.21457183015433554,0.0,0.0,0.0,0.0,0.0,0.0,-14.316,0.0,0.0,0.0
280,0.0,0.0,0.0,0.22504296875,0.0,0.0,0.0,0.0,0.0,0.0,-0.569,0.0,0.0,0.0,0.0,0.0,0.0,0.2089793176522236,0.0,0.0,0.0,0.0,0.0,0.0,-14.748,0.0,0.0,0.0
281,0.0,0.0,0.0,0.2195390625,0.0,0.0,0.0,0.0,0.0,0.0,-0.561,0.0,0.0,0.0,0.0,0.0,0.0,0.20332380578711667,0.0,0.0,0.0,0.0,0.0,0.0,-14.568,0.0,0.0,0.0
282,0.0,0.0,0.0,0.214169921875,0.0,0.0,0.0,0.0,0.0,0.0,-0.544,0.0,0.0,0.0,0.0,0.0,0.0,0.19764092277300263,0.0,0.0,0.0,0.0,0.0,0.0,-14.2,0.0,0.0,0.0
283,0.0,0.0,0.0,0.208818359375,0.0,0.0,0.0,0.0,0.0,0.0,-0.536,0.0,0.0,0.0,0.0,0.0,0.0,0.19200300086305214,0.0,0.0,0.0,0.0,0.0,0.0,-14.224,0.0,0.0,0.0
284,0.0,0.0,0.0,0.203314453125,0.0,0.0,0.0,0.0,0.0,0.0,-0.549,0.0,0.0,0.0,0.0,0.0,0.0,0.1862399266923256,0.0,0.0,0.0,0.0,0.0,0.0,-14.156,0.0,0.0,0.0
285,0.0,0.0,0.0,0.197521484375,0.0,0.0,0.0,0.0,0.0,0.0,-0.569,0.0,0.0,0.0,0.0,0.0,0.0,0.1805665044995485,0.0,0.0,0.0,0.0,0.0,0.0,-13.904,0.0,0.0,0.0
286,0.0,0.0,0.0,0.1920078125,0.0,0.0,0.0,0.0,0.0,0.0,-0.579,0.0,0.0,0.0,0.0,0.0,0.0,0.1748105472131324,0.0,0.0,0.0,0.0,0.0,0.0,-13.744,0.0,0.0,0.0
287,0.0,0.0,0.0,0.1866484375,0.0,0.0,0.0,0.0,0.0,0.0,-0.544,0.0,0.0,0.0,0.0,0.0,0.0,0.16910942556713898,0.0,0.0,0.0,0.0,0.0,0.0,-13.516,0.0,0.0,0.0
288,0.0,0.0,0.0,0.1810087890625,0.0,0.0,0.0,0.0,0.0,0.0,-0.545,0.0,0.0,0.0,0.0,0.0,0.0,0.1633350966053408,0.0,0.0,0.0,0.0,0.0,0.0,-13.812,0.0,0.0,0.0
289,0.0,0.0,0.0,0.17520703125,0.0,0.0,0.0,0.0,0.0,0.0,-0.578,0.0,0.0,0.0,0.0,0.0,0.0,0.15754134537728687,0.0,0.0,0.0,0.0,0.0,0.0,-14.704,0.0,0.0,0.0
290,0.0,0.0,0.0,0.1694130859375,0.0,0.0,0.0,0.0,0.0,0.0,-0.584,0.0,0.0,0.0,0.0,0.0,0.0,0.15176277494843377,0.0,0.0,0.0,0.0,0.0,0.0,-15.092,0.0,0.0,0.0
291,0.0,0.0,0.0,0.1637646484375,0.0,0.0,0.0,0.0,0.0,0.0,-0.573,0.0,0.0,0.0,0.0,0.0,0.0,0.1459491453764876,0.0,0.0,0.0,0.0,0.0,0.0,-14.748,0.0,0.0,0.0
292,0.0,0.0,0.0,0.1581162109375,0.0,0.0,0.0,0.0,0.0,0.0,-0.578,0.0,0.0,0.0,0.0,0.0,0.0,0.14009949396496169,0.0,0.0,0.0,0.0,0.0,0.0,-14.476,0.0,0.0,0.0
293,0.0,0.0,0.0,0.1526025390625,0.0,0.0,0.0,0.0,0.0,0.0,-0.559,0.0,0.0,0.0,0.0,0.0,0.0,0.1343098967150397,0.0,0.0,0.0,0.0,0.0,0.0,-14.496,0.0,0.0,0.0
294,0.0,0.0,0.0,0.1468095703125,0.0,0.0,0.0,0.0,0.0,0.0,-0.566,0.0,0.0,0.0,0.0,0.0,0.0,0.12841557814044663,0.0,0.0,0.0,0.0,0.0,0.0,-15.068,0.0,0.0,0.0
295,0.0,0.0,0.0,0.140728515625,0.0,0.0,0.0,0.0,0.0,0.0,-0.595,0.0,0.0,0.0,0.0,0.0,0.0,0.12255305407088349,0.0,0.0,0.0,0.0,0.0,0.0,-14.796,0.0,0.0,0.0
296,0.0,0.0,0.0,0.13492578125,0.0,0.0,0.0,0.0,0.0,0.0,-0.6,0.0,0.0,0.0,0.0,0.0,0.0,0.11662286766312349,0.0,0.0,0.0,0.0,0.0,0.0,-14.496,0.0,0.0,0.0
297,0.0,0.0,0.0,0.1288447265625,0.0,0.0,0.0,0.0,0.0,0.0,-0.601,0.0,0.0,0.0,0.0,0.0,0.0,0.11078879348329862,0.0,0.0,0.0,0.0,0.0,0.0,-14.064,0.0,0.0,0.0
298,0.0,0.0,0.0,0.123060546875,0.0,0.0,0.0,0.0,0.0,0.0,-0.597,0.0,0.0,0.0,0.0,0.0,0.0,0.10483272513337662,0.0,0.0,0.0,0.0,0.0,0.0,-13.836,0.0,0.0,0.0
299,0.0,0.0,0.0,0.117267578125,0.0,0.0,0.0,0.0,0.0,0.0,-0.582,0.0,0.0,0.0,0.0,0.0,0.0,0.09893173181508243,0.0,0.0,0.0,0.0,0.0,0.0,-14.748,0.0,0.0,0.0
300,0.0,0.0,0.0,0.1111767578125,0.0,0.0,0.0,0.0,0.0,0.0,-0.602,0.0,0.0,0.0,0.0,0.0,0.0,0.09298823959944547,0.0,0.0,0.0,0.0,0.0,0.0,-15.136,0.0,0.0,0.0
301,0.0,0.0,0.0,0.099599609375,0.0,0.0,0.0,0.0,0.0,0.0,-0.577,0.0,0.0,0.0,0.0,0.0,0.0,0.08403820922132203,0.0,0.0,0.0,0.0,0.0,0.0,-14.612,0.0,0.0,0.0
302,0.0,0.0,0.0,0.099599609375,0.0,0.0,0.0,0.0,0.0,0.0,-0.577,0.0,0.0,0.0,0.0,0.0,0.0,0.08057736367243747,0.0,0.0,0.0,0.0,0.0,0.0,-14.612,0.0,0.0,0.0
303,0.0,0.0,0.0,0.09394140625,0.0,0.0,0.0,0.0,0.0,0.0,-0.592,0.0,0.0,0.0,0.0,0.0,0.0,0.07523270269767003,0.0,0.0,0.0,0.0,0.0,0.0,-14.064,0.0,0.0,0.0
304,0.0,0.0,0.0,0.0884375,0.0,0.0,0.0,0.0,0.0,0.0,-0.559,0.0,0.0,0.0,0.0,0.0,0.0,0.06818315082165531,0.0,0.0,0.0,0.0,0.0,0.0,-14.292,0.0,0.0,0.0
305,0.0,0.0,0.0,0.08264453125,0.0,0.0,0.0,0.0,0.0,0.0,-0.567,0.0,0.0,0.0,0.0,0.0,0.0,0.06334062275264517,0.0,0.0,0.0,0.0,0.0,0.0,-14.316,0.0,0.0,0.0
306,0.0,0.0,0.0,0.07670703125,0.0,0.0,0.0,0.0,0.0,0.0,-0.594,0.0,0.0,0.0,0.0,0.0,0.0,0.05733221403221984,0.0,0.0,0.0,0.0,0.0,0.0,-13.88,0.0,0.0,0.0
307,0.0,0.0,0.0,0.0707607421875,0.0,0.0,0.0,0.0,0.0,0.0,-0.587,0.0,0.0,0.0,0.0,0.0,0.0,0.05128222291806333,0.0,0.0,0.0,0.0,0.0,0.0,-13.904,0.0,0.0,0.0
308,0.0,0.0,0.0,0.0649677734375,0.0,0.0,0.0,0.0,0.0,0.0,-0.598,0.0,0.0,0.0,0.0,0.0,0.0,0.04516349779156111,0.0,0.0,0.0,0.0,0.0,0.0,-13.764,0.0,0.0,0.0
309,0.0,0.0,0.0,0.05918359375,0.0,0.0,0.0,0.0,0.0,0.0,-0.585,0.0,0.0,0.0,0.0,0.0,0.0,0.03753892884211237,0.0,0.0,0.0,0.0,0.0,0.0,-13.996,0.0,0.0,0.0
310,0.0,0.0,0.0,0.0532373046875,0.0,0.0,0.0,0.0,0.0,0.0,-0.587,0.0,0.0,0.0,0.0,0.0,0.0,0.033290443189056856,0.0,0.0,0.0,0.0,0.0,0.0,-14.816,0.0,0.0,0.0
311,0.0,0.0,0.0,0.0472998046875,0.0,0.0,0.0,0.0,0.0,0.0,-0.605,0.0,0.0,0.0,0.0,0.0,0.0,0.027378438057117403,0.0,0.0,0.0,0.0,0.0,0.0,-14.976,0.0,0.0,0.0
312,0.0,0.0,0.0,0.0416513671875,0.0,0.0,0.0,0.0,0.0,0.0,-0.581,0.0,0.0,0.0,0.0,0.0,0.0,0.021424882933350688,0.0,0.0,0.0,0.0,0.0,0.0,-14.932,0.0,0.0,0.0
313,0.0,0.0,0.0,0.036001953125,0.0,0.0,0.0,0.0,0.0,0.0,-0.567,0.0,0.0,0.0,0.0,0.0,0.0,0.013020013141833823,0.0,0.0,0.0,0.0,0.0,0.0,-14.428,0.0,0.0,0.0
314,0.0,0.0,0.0,0.0306337890625,0.0,0.0,0.0,0.0,0.0,0.0,-0.561,0.0,0.0,0.0,0.0,0.0,0.0,0.009079915576271531,0.0,0.0,0.0,0.0,0.0,0.0,-14.428,0.0,0.0,0.0
315,0.0,0.0,0.0,0.024984375,0.0,0.0,0.0,0.0,0.0,0.0,-0.548,0.0,0.0,0.0,0.0,0.0,0.0,0.003428721838201068,0.0,0.0,0.0,0.0,0.0,0.0,-14.816,0.0,0.0,0.0
316,0.0,0.0,0.0,0.0189033203125,0.0,0.0,0.0,0.0,0.0,0.0,-0.59,0.0,0.0,0.0,0.0,0.0,0.0,-0.002900546221882078,0.0,0.0,0.0,0.0,0.0,0.0,-14.748,0.0,0.0,0.0
317,0.0,0.0,0.0,0.013263671875,0.0,0.0,0.0,0.0,0.0,0.0,-0.595,0.0,0.0,0.0,0.0,0.0,0.0,-0.008546354238271736,0.0,0.0,0.0,0.0,0.0,0.0,-14.248,0.0,0.0,0.0
318,0.0,0.0,0.0,0.0071728515625,0.0,0.0,0.0,0.0,0.0,0.0,-0.585,0.0,0.0,0.0,0.0,0.0,0.0,-0.014568522988960511,0.0,0.0,0.0,0.0,0.0,0.0,-14.156,0.0,0.0,0.0
319,0.0,0.0,0.0,0.0013798828125,0.0,0.0,0.0,0.0,0.0,0.0,-0.604,0.0,0.0,0.0,0.0,0.0,0.0,-0.020613384946218696,0.0,0.0,0.0,0.0,0.0,0.0,-13.948,0.0,0.0,0.0
320,0.0,0.0,0.0,-0.0042685546875,0.0,0.0,0.0,0.0,0.0,0.0,-0.572,0.0,0.0,0.0,0.0,0.0,0.0,-0.026555972609929392,0.0,0.0,0.0,0.0,0.0,0.0,-14.568,0.0,0.0,0.0
321,0.0,0.0,0.0,-0.010359375,0.0,0.0,0.0,0.0,0.0,0.0,-0.59,0.0,0.0,0.0,0.0,0.0,0.0,-0.03255937252835065,0.0,0.0,0.0,0.0,0.0,0.0,-15.228,0.0,0.0,0.0
322,0.0,0.0,0.0,-0.01615234375,0.0,0.0,0.0,0.0,0.0,0.0,-0.605,0.0,0.0,0.0,0.0,0.0,0.0,-0.03857635001448658,0.0,0.0,0.0,0.0,0.0,0.0,-14.932,0.0,0.0,0.0
323,0.0,0.0,0.0,-0.0219453125,0.0,0.0,0.0,0.0,0.0,0.0,-0.571,0.0,0.0,0.0,0.0,0.0,0.0,-0.044528948129972046,0.0,0.0,0.0,0.0,0.0,0.0,-15.136,0.0,0.0,0.0
324,0.0,0.0,0.0,-0.02773828125,0.0,0.0,0.0,0.0,0.0,0.0,-0.586,0.0,0.0,0.0,0.0,0.0,0.0,-0.050554400744764943,0.0,0.0,0.0,0.0,0.0,0.0,-14.568,0.0,0.0,0.0
325,0.0,0.0,0.0,-0.033251953125,0.0,0.0,0.0,0.0,0.0,0.0,-0.571,0.0,0.0,0.0,0.0,0.0,0.0,-0.05650294575787962,0.0,0.0,0.0,0.0,0.0,0.0,-14.636,0.0,0.0,0.0
326,0.0,0.0,0.0,-0.0391884765625,0.0,0.0,0.0,0.0,0.0,0.0,-0.568,0.0,0.0,0.0,0.0,0.0,0.0,-0.06246979444193221,0.0,0.0,0.0,0.0,0.0,0.0,-14.908,0.0,0.0,0.0
327,0.0,0.0,0.0,-0.04526171875,0.0,0.0,0.0,0.0,0.0,0.0,-0.608,0.0,0.0,0.0,0.0,0.0,0.0,-0.06841960269648666,0.0,0.0,0.0,0.0,0.0,0.0,-14.452,0.0,0.0,0.0
328,0.0,0.0,0.0,-0.05091015625,0.0,0.0,0.0,0.0,0.0,0.0,-0.59,0.0,0.0,0.0,0.0,0.0,0.0,-0.0743894301106411,0.0,0.0,0.0,0.0,0.0,0.0,-14.2,0.0,0.0,0.0
329,0.0,0.0,0.0,-0.0570009765625,0.0,0.0,0.0,0.0,0.0,0.0,-0.597,0.0,0.0,0.0,0.0,0.0,0.0,-0.08045527286964183,0.0,0.0,0.0,0.0,0.0,0.0,-14.064,0.0,0.0,0.0
330,0.0,0.0,0.0,-0.0629384765625,0.0,0.0,0.0,0.0,0.0,0.0,-0.608,0.0,0.0,0.0,0.0,0.0,0.0,-0.08628597379893142,0.0,0.0,0.0,0.0,0.0,0.0,-14.084,0.0,0.0,0.0
331,0.0,0.0,0.0,-0.0687314453125,0.0,0.0,0.0,0.0,0.0,0.0,-0.585,0.0,0.0,0.0,0.0,0.0,0.0,-0.0922386933042148,0.0,0.0,0.0,0.0,0.0,0.0,-14.772,0.0,0.0,0.0
332,0.0,0.0,0.0,-0.074966796875,0.0,0.0,0.0,0.0,0.0,0.0,-0.606,0.0,0.0,0.0,0.0,0.0,0.0,-0.09811184833875455,0.0,0.0,0.0,0.0,0.0,0.0,-15.0,0.0,0.0,0.0
333,0.0,0.0,0.0,-0.080759765625,0.0,0.0,0.0,0.0,0.0,0.0,-0.608,0.0,0.0,0.0,0.0,0.0,0.0,-0.10407214785210557,0.0,0.0,0.0,0.0,0.0,0.0,-14.864,0.0,0.0,0.0
334,0.0,0.0,0.0,-0.086697265625,0.0,0.0,0.0,0.0,0.0,0.0,-0.585,0.0,0.0,0.0,0.0,0.0,0.0,-0.11004367424098578,0.0,0.0,0.0,0.0,0.0,0.0,-14.748,0.0,0.0,0.0
335,0.0,0.0,0.0,-0.092345703125,0.0,0.0,0.0,0.0,0.0,0.0,-0.594,0.0,0.0,0.0,0.0,0.0,0.0,-0.11588337717684538,0.0,0.0,0.0,0.0,0.0,0.0,-14.268,0.0,0.0,0.0
336,0.0,0.0,0.0,-0.09800390625,0.0,0.0,0.0,0.0,0.0,0.0,-0.565,0.0,0.0,0.0,0.0,0.0,0.0,-0.12172976915063641,0.0,0.0,0.0,0.0,0.0,0.0,-14.728,0.0,0.0,0.0
337,0.0,0.0,0.0,-0.104076171875,0.0,0.0,0.0,0.0,0.0,0.0,-0.587,0.0,0.0,0.0,0.0,0.0,0.0,-0.12760410877592399,0.0,0.0,0.0,0.0,0.0,0.0,-14.704,0.0,0.0,0.0
338,0.0,0.0,0.0,-0.110013671875,0.0,0.0,0.0,0.0,0.0,0.0,-0.611,0.0,0.0,0.0,0.0,0.0,0.0,-0.13345394972548205,0.0,0.0,0.0,0.0,0.0,0.0,-13.904,0.0,0.0,0.0
339,0.0,0.0,0.0,-0.115951171875,0.0,0.0,0.0,0.0,0.0,0.0,-0.588,0.0,0.0,0.0,0.0,0.0,0.0,-0.13928588295055314,0.0,0.0,0.0,0.0,0.0,0.0,-14.132,0.0,0.0,0.0
340,0.0,0.0,0.0,-0.1220419921875,0.0,0.0,0.0,0.0,0.0,0.0,-0.611,0.0,0.0,0.0,0.0,0.0,0.0,-0.1451380858901031,0.0,0.0,0.0,0.0,0.0,0.0,-13.764,0.0,0.0,0.0
341,0.0,0.0,0.0,-0.1276904296875,0.0,0.0,0.0,0.0,0.0,0.0,-0.592,0.0,0.0,0.0,0.0,0.0,0.0,-0.1509821664312958,0.0,0.0,0.0,0.0,0.0,0.0,-14.176,0.0,0.0,0.0
342,0.0,0.0,0.0,-0.1337724609375,0.0,0.0,0.0,0.0,0.0,0.0,-0.582,0.0,0.0,0.0,0.0,0.0,0.0,-0.1567130940518087,0.0,0.0,0.0,0.0,0.0,0.0,-14.888,0.0,0.0,0.0
343,0.0,0.0,0.0,-0.1397099609375,0.0,0.0,0.0,0.0,0.0,0.0,-0.613,0.0,0.0,0.0,0.0,0.0,0.0,-0.1625368173985807,0.0,0.0,0.0,0.0,0.0,0.0,-14.52,0.0,0.0,0.0
344,0.0,0.0,0.0,-0.1453671875,0.0,0.0,0.0,0.0,0.0,0.0,-0.581,0.0,0.0,0.0,0.0,0.0,0.0,-0.16827430944618424,0.0,0.0,0.0,0.0,0.0,0.0,-14.816,0.0,0.0,0.0
345,0.0,0.0,0.0,-0.15116015625,0.0,0.0,0.0,0.0,0.0,0.0,-0.577,0.0,0.0,0.0,0.0,0.0,0.0,-0.17403580878401081,0.0,0.0,0.0,0.0,0.0,0.0,-14.496,0.0,0.0,0.0
346,0.0,0.0,0.0,-0.1567998046875,0.0,0.0,0.0,0.0,0.0,0.0,-0.582,0.0,0.0,0.0,0.0,0.0,0.0,-0.179781749798386,0.0,0.0,0.0,0.0,0.0,0.0,-14.2,0.0,0.0,0.0
347,0.0,0.0,0.0,-0.1625927734375,0.0,0.0,0.0,0.0,0.0,0.0,-0.565,0.0,0.0,0.0,0.0,0.0,0.0,-0.18547643844223297,0.0,0.0,0.0,0.0,0.0,0.0,-14.68,0.0,0.0,0.0
348,0.0,0.0,0.0,-0.16868359375,0.0,0.0,0.0,0.0,0.0,0.0,-0.602,0.0,0.0,0.0,0.0,0.0,0.0,-0.19119081532943868,0.0,0.0,0.0,0.0,0.0,0.0,-14.248,0.0,0.0,0.0
349,0.0,0.0,0.0,-0.1744765625,0.0,0.0,0.0,0.0,0.0,0.0,-0.604,0.0,0.0,0.0,0.0,0.0,0.0,-0.19683892867470756,0.0,0.0,0.0,0.0,0.0,0.0,-13.836,0.0,0.0,0.0
350,0.0,0.0,0.0,-0.1804140625,0.0,0.0,0.0,0.0,0.0,0.0,-0.582,0.0,0.0,0.0,0.0,0.0,0.0,-0.20252236826619496,0.0,0.0,0.0,0.0,0.0,0.0,-13.972,0.0,0.0,0.0
351,0.0,0.0,0.0,-0.1863515625,0.0,0.0,0.0,0.0,0.0,0.0,-0.604,0.0,0.0,0.0,0.0,0.0,0.0,-0.20814257399311234,0.0,0.0,0.0,0.0,0.0,0.0,-13.924,0.0,0.0,0.0
352,0.0,0.0,0.0,-0.1920009765625,0.0,0.0,0.0,0.0,0.0,0.0,-0.58,0.0,0.0,0.0,0.0,0.0,0.0,-0.2137661542497628,0.0,0.0,0.0,0.0,0.0,0.0,-14.292,0.0,0.0,0.0
353,0.0,0.0,0.0,-0.1982265625,0.0,0.0,0.0,0.0,0.0,0.0,-0.591,0.0,0.0,0.0,0.0,0.0,0.0,-0.2194001289474106,0.0,0.0,0.0,0.0,0.0,0.0,-14.932,0.0,0.0,0.0
354,0.0,0.0,0.0,-0.20401953125,0.0,0.0,0.0,0.0,0.0,0.0,-0.61,0.0,0.0,0.0,0.0,0.0,0.0,-0.2249680982075218,0.0,0.0,0.0,0.0,0.0,0.0,-14.384,0.0,0.0,0.0
355,0.0,0.0,0.0,-0.20966796875,0.0,0.0,0.0,0.0,0.0,0.0,-0.575,0.0,0.0,0.0,0.0,0.0,0.0,-0.23062917334700075,0.0,0.0,0.0,0.0,0.0,0.0,-14.772,0.0,0.0,0.0
356,0.0,0.0,0.0,-0.215615234375,0.0,0.0,0.0,0.0,0.0,0.0,-0.586,0.0,0.0,0.0,0.0,0.0,0.0,-0.2360545376489388,0.0,0.0,0.0,0.0,0.0,0.0,-14.268,0.0,0.0,0.0
357,0.0,0.0,0.0,-0.221119140625,0.0,0.0,0.0,0.0,0.0,0.0,-0.58,0.0,0.0,0.0,0.0,0.0,0.0,-0.24151438872891884,0.0,0.0,0.0,0.0,0.0,0.0,-14.156,0.0,0.0,0.0
358,0.0,0.0,0.0,-0.2270478515625,0.0,0.0,0.0,0.0,0.0,0.0,-0.571,0.0,0.0,0.0,0.0,0.0,0.0,-0.246992456742154,0.0,0.0,0.0,0.0,0.0,0.0,-14.588,0.0,0.0,0.0
359,0.0,0.0,0.0,-0.23312890625,0.0,0.0,0.0,0.0,0.0,0.0,-0.608,0.0,0.0,0.0,0.0,0.0,0.0,-0.2524577848460735,0.0,0.0,0.0,0.0,0.0,0.0,-13.856,0.0,0.0,0.0
360,0.0,0.0,0.0,-0.238931640625,0.0,0.0,0.0,0.0,0.0,0.0,-0.6,0.0,0.0,0.0,0.0,0.0,0.0,-0.25789467716523246,0.0,0.0,0.0,0.0,0.0,0.0,-13.584,0.0,0.0,0.0
361,0.0,0.0,0.0,-0.2450126953125,0.0,0.0,0.0,0.0,0.0,0.0,-0.593,0.0,0.0,0.0,0.0,0.0,0.0,-0.26327705260436335,0.0,0.0,0.0,0.0,0.0,0.0,-13.676,0.0,0.0,0.0
362,0.0,0.0,0.0,-0.2508056640625,0.0,0.0,0.0,0.0,0.0,0.0,-0.603,0.0,0.0,0.0,0.0,0.0,0.0,-0.26869292162597613,0.0,0.0,0.0,0.0,0.0,0.0,-13.628,0.0,0.0,0.0
363,0.0,0.0,0.0,-0.25658984375,0.0,0.0,0.0,0.0,0.0,0.0,-0.576,0.0,0.0,0.0,0.0,0.0,0.0,-0.2739789720635177,0.0,0.0,0.0,0.0,0.0,0.0,-14.336,0.0,0.0,0.0
364,0.0,0.0,0.0,-0.2626806640625,0.0,0.0,0.0,0.0,0.0,0.0,-0.598,0.0,0.0,0.0,0.0,0.0,0.0,-0.27932754920991854,0.0,0.0,0.0,0.0,0.0,0.0,-14.656,0.0,0.0,0.0
365,0.0,0.0,0.0,-0.2684736328125,0.0,0.0,0.0,0.0,0.0,0.0,-0.602,0.0,0.0,0.0,0.0,0.0,0.0,-0.28467488451163736,0.0,0.0,0.0,0.0,0.0,0.0,-14.2,0.0,0.0,0.0
366,0.0,0.0,0.0,-0.2742666015625,0.0,0.0,0.0,0.0,0.0,0.0,-0.583,0.0,0.0,0.0,0.0,0.0,0.0,-0.28990590601124017,0.0,0.0,0.0,0.0,0.0,0.0,-14.496,0.0,0.0,0.0
367,0.0,0.0,0.0,-0.2800595703125,0.0,0.0,0.0,0.0,0.0,0.0,-0.583,0.0,0.0,0.0,0.0,0.0,0.0,-0.29514869067843075,0.0,0.0,0.0,0.0,0.0,0.0,-14.108,0.0,0.0,0.0
368,0.0,0.0,0.0,-0.28569921875,0.0,0.0,0.0,0.0,0.0,0.0,-0.574,0.0,0.0,0.0,0.0,0.0,0.0,-0.3003733057555615,0.0,0.0,0.0,0.0,0.0,0.0,-13.972,0.0,0.0,0.0
369,0.0,0.0,0.0,-0.291501953125,0.0,0.0,0.0,0.0,0.0,0.0,-0.577,0.0,0.0,0.0,0.0,0.0,0.0,-0.3055051609592199,0.0,0.0,0.0,0.0,0.0,0.0,-14.384,0.0,0.0,0.0
370,0.0,0.0,0.0,-0.297439453125,0.0,0.0,0.0,0.0,0.0,0.0,-0.595,0.0,0.0,0.0,0.0,0.0,0.0,-0.31068302132368436,0.0,0.0,0.0,0.0,0.0,0.0,-13.308,0.0,0.0,0.0
371,0.0,0.0,0.0,-0.302943359375,0.0,0.0,0.0,0.0,0.0,0.0,-0.579,0.0,0.0,0.0,0.0,0.0,0.0,-0.3157994157384688,0.0,0.0,0.0,0.0,0.0,0.0,-12.92,0.0,0.0,0.0
372,0.0,0.0,0.0,-0.3082939453125,0.0,0.0,0.0,0.0,0.0,0.0,-0.544,0.0,0.0,0.0,0.0,0.0,0.0,-0.32088726443802645,0.0,0.0,0.0,0.0,0.0,0.0,-12.828,0.0,0.0,0.0
373,0.0,0.0,0.0,-0.313220703125,0.0,0.0,0.0,0.0,0.0,0.0,-0.525,0.0,0.0,0.0,0.0,0.0,0.0,-0.32592125983581904,0.0,0.0,0.0,0.0,0.0,0.0,-12.988,0.0,0.0,0.0
374,0.0,0.0,0.0,-0.3185810546875,0.0,0.0,0.0,0.0,0.0,0.0,-0.514,0.0,0.0,0.0,0.0,0.0,0.0,-0.33097351037296396,0.0,0.0,0.0,0.0,0.0,0.0,-13.652,0.0,0.0,0.0
375,0.0,0.0,0.0,-0.3240849609375,0.0,0.0,0.0,0.0,0.0,0.0,-0.543,0.0,0.0,0.0,0.0,0.0,0.0,-0.3359515994799789,0.0,0.0,0.0,0.0,0.0,0.0,-13.88,0.0,0.0,0.0
376,0.0,0.0,0.0,-0.3291474609375,0.0,0.0,0.0,0.0,0.0,0.0,-0.544,0.0,0.0,0.0,0.0,0.0,0.0,-0.34089905185701797,0.0,0.0,0.0,0.0,0.0,0.0,-12.692,0.0,0.0,0.0
377,0.0,0.0,0.0,-0.33378515625,0.0,0.0,0.0,0.0,0.0,0.0,-0.485,0.0,0.0,0.0,0.0,0.0,0.0,-0.34584290421459857,0.0,0.0,0.0,0.0,0.0,0.0,-12.852,0.0,0.0,0.0
378,0.0,0.0,0.0,-0.338703125,0.0,0.0,0.0,0.0,0.0,0.0,-0.48,0.0,0.0,0.0,0.0,0.0,0.0,-0.35073976983189986,0.0,0.0,0.0,0.0,0.0,0.0,-13.056,0.0,0.0,0.0
379,0.0,0.0,0.0,-0.343638671875,0.0,0.0,0.0,0.0,0.0,0.0,-0.496,0.0,0.0,0.0,0.0,0.0,0.0,-0.35559160564593867,0.0,0.0,0.0,0.0,0.0,0.0,-13.696,0.0,0.0,0.0
380,0.0,0.0,0.0,-0.348556640625,0.0,0.0,0.0,0.0,0.0,0.0,-0.491,0.0,0.0,0.0,0.0,0.0,0.0,-0.3604156392852178,0.0,0.0,0.0,0.0,0.0,0.0,-13.652,0.0,0.0,0.0
381,0.0,0.0,0.0,-0.3534833984375,0.0,0.0,0.0,0.0,0.0,0.0,-0.499,0.0,0.0,0.0,0.0,0.0,0.0,-0.3651549142688871,0.0,0.0,0.0,0.0,0.0,0.0,-13.216,0.0,0.0,0.0
382,0.0,0.0,0.0,-0.3581123046875,0.0,0.0,0.0,0.0,0.0,0.0,-0.492,0.0,0.0,0.0,0.0,0.0,0.0,-0.3698912801085989,0.0,0.0,0.0,0.0,0.0,0.0,-12.188,0.0,0.0,0.0
383,0.0,0.0,0.0,-0.362453125,0.0,0.0,0.0,0.0,0.0,0.0,-0.451,0.0,0.0,0.0,0.0,0.0,0.0,-0.3746161202338067,0.0,0.0,0.0,0.0,0.0,0.0,-12.508,0.0,0.0,0.0
384,0.0,0.0,0.0,-0.3670908203125,0.0,0.0,0.0,0.0,0.0,0.0,-0.442,0.0,0.0,0.0,0.0,0.0,0.0,-0.37928745175671386,0.0,0.0,0.0,0.0,0.0,0.0,-13.924,0.0,0.0,0.0
385,0.0,0.0,0.0,-0.3715849609375,0.0,0.0,0.0,0.0,0.0,0.0,-0.468,0.0,0.0,0.0,0.0,0.0,0.0,-0.38391750265796415,0.0,0.0,0.0,0.0,0.0,0.0,-13.604,0.0,0.0,0.0
386,0.0,0.0,0.0,-0.3757802734375,0.0,0.0,0.0,0.0,0.0,0.0,-0.437,0.0,0.0,0.0,0.0,0.0,0.0,-0.3885064368831783,0.0,0.0,0.0,0.0,0.0,0.0,-13.4,0.0,0.0,0.0
387,0.0,0.0,0.0,-0.3805625,0.0,0.0,0.0,0.0,0.0,0.0,-0.444,0.0,0.0,0.0,0.0,0.0,0.0,-0.39307742654935723,0.0,0.0,0.0,0.0,0.0,0.0,-13.08,0.0,0.0,0.0
388,0.0,0.0,0.0,-0.3853359375,0.0,0.0,0.0,0.0,0.0,0.0,-0.482,0.0,0.0,0.0,0.0,0.0,0.0,-0.3975696889606883,0.0,0.0,0.0,0.0,0.0,0.0,-13.332,0.0,0.0,0.0
389,0.0,0.0,0.0,-0.3896767578125,0.0,0.0,0.0,0.0,0.0,0.0,-0.463,0.0,0.0,0.0,0.0,0.0,0.0,-0.4020349915528013,0.0,0.0,0.0,0.0,0.0,0.0,-14.016,0.0,0.0,0.0
390,0.0,0.0,0.0,-0.3938720703125,0.0,0.0,0.0,0.0,0.0,0.0,-0.436,0.0,0.0,0.0,0.0,0.0,0.0,-0.40648802315969074,0.0,0.0,0.0,0.0,0.0,0.0,-14.064,0.0,0.0,0.0
391,0.0,0.0,0.0,-0.39823046875,0.0,0.0,0.0,0.0,0.0,0.0,-0.423,0.0,0.0,0.0,0.0,0.0,0.0,-0.41087263268438634,0.0,0.0,0.0,0.0,0.0,0.0,-14.108,0.0,0.0,0.0
392,0.0,0.0,0.0,-0.4025712890625,0.0,0.0,0.0,0.0,0.0,0.0,-0.445,0.0,0.0,0.0,0.0,0.0,0.0,-0.41522963092338266,0.0,0.0,0.0,0.0,0.0,0.0,-13.124,0.0,0.0,0.0
393,0.0,0.0,0.0,-0.406333984375,0.0,0.0,0.0,0.0,0.0,0.0,-0.408,0.0,0.0,0.0,0.0,0.0,0.0,-0.41994549940425374,0.0,0.0,0.0,0.0,0.0,0.0,-13.284,0.0,0.0,0.0
394,0.0,0.0,0.0,-0.410962890625,0.0,0.0,0.0,0.0,0.0,0.0,-0.413,0.0,0.0,0.0,0.0,0.0,0.0,-0.4237933184494946,0.0,0.0,0.0,0.0,0.0,0.0,-13.284,0.0,0.0,0.0
395,0.0,0.0,0.0,-0.4154560546875,0.0,0.0,0.0,0.0,0.0,0.0,-0.468,0.0,0.0,0.0,0.0,0.0,0.0,-0.4280404489082904,0.0,0.0,0.0,0.0,0.0,0.0,-13.516,0.0,0.0,0.0
396,0.0,0.0,0.0,-0.4200859375,0.0,0.0,0.0,0.0,0.0,0.0,-0.449,0.0,0.0,0.0,0.0,0.0,0.0,-0.43226468428545844,0.0,0.0,0.0,0.0,0.0,0.0,-13.744,0.0,0.0,0.0
397,0.0,0.0,0.0,-0.42471484375,0.0,0.0,0.0,0.0,0.0,0.0,-0.471,0.0,0.0,0.0,0.0,0.0,0.0,-0.43632672666298616,0.0,0.0,0.0,0.0,0.0,0.0,-13.192,0.0,0.0,0.0
398,0.0,0.0,0.0,-0.429361328125,0.0,0.0,0.0,0.0,0.0,0.0,-0.474,0.0,0.0,0.0,0.0,0.0,0.0,-0.44045712623658795,0.0,0.0,0.0,0.0,0.0,0.0,-13.124,0.0,0.0,0.0
399,0.0,0.0,0.0,-0.4335576171875,0.0,0.0,0.0,0.0,0.0,0.0,-0.449,0.0,0.0,0.0,0.0,0.0,0.0,-0.4444727015218817,0.0,0.0,0.0,0.0,0.0,0.0,-12.964,0.0,0.0,0.0
400,0.0,0.0,0.0,-0.4377529296875,0.0,0.0,0.0,0.0,0.0,0.0,-0.418,0.0,0.0,0.0,0.0,0.0,0.0,-0.44849195970173356,0.0,0.0,0.0,0.0,0.0,0.0,-13.284,0.0,0.0,0.0
401,0.0,0.0,0.0,-0.44209375,0.0,0.0,0.0,0.0,0.0,0.0,-0.43,0.0,0.0,0.0,0.0,0.0,0.0,-0.452479177185685,0.0,0.0,0.0,0.0,0.0,0.0,-13.444,0.0,0.0,0.0
402,0.0,0.0,0.0,-0.4467314453125,0.0,0.0,0.0,0.0,0.0,0.0,-0.45,0.0,0.0,0.0,0.0,0.0,0.0,-0.4563925498483466,0.0,0.0,0.0,0.0,0.0,0.0,-13.676,0.0,0.0,0.0
403,0.0,0.0,0.0,-0.450927734375,0.0,0.0,0.0,0.0,0.0,0.0,-0.448,0.0,0.0,0.0,0.0,0.0,0.0,-0.46021265924332433,0.0,0.0,0.0,0.0,0.0,0.0,-13.148,0.0,0.0,0.0
404,0.0,0.0,0.0,-0.4549794921875,0.0,0.0,0.0,0.0,0.0,0.0,-0.415,0.0,0.0,0.0,0.0,0.0,0.0,-0.46404266753066997,0.0,0.0,0.0,0.0,0.0,0.0,-12.804,0.0,0.0,0.0
405,0.0,0.0,0.0,-0.4590400390625,0.0,0.0,0.0,0.0,0.0,0.0,-0.407,0.0,0.0,0.0,0.0,0.0,0.0,-0.4678541346993182,0.0,0.0,0.0,0.0,0.0,0.0,-13.104,0.0,0.0,0.0
406,0.0,0.0,0.0,-0.4629462890625,0.0,0.0,0.0,0.0,0.0,0.0,-0.403,0.0,0.0,0.0,0.0,0.0,0.0,-0.47159451111861744,0.0,0.0,0.0,0.0,0.0,0.0,-13.284,0.0,0.0,0.0
407,0.0,0.0,0.0,-0.4667099609375,0.0,0.0,0.0,0.0,0.0,0.0,-0.384,0.0,0.0,0.0,0.0,0.0,0.0,-0.4752759294524097,0.0,0.0,0.0,0.0,0.0,0.0,-13.376,0.0,0.0,0.0
408,0.0,0.0,0.0,-0.4706162109375,0.0,0.0,0.0,0.0,0.0,0.0,-0.383,0.0,0.0,0.0,0.0,0.0,0.0,-0.4789287196728864,0.0,0.0,0.0,0.0,0.0,0.0,-12.552,0.0,0.0,0.0
409,0.0,0.0,0.0,-0.47437890625,0.0,0.0,0.0,0.0,0.0,0.0,-0.391,0.0,0.0,0.0,0.0,0.0,0.0,-0.48251036186619406,0.0,0.0,0.0,0.0,0.0,0.0,-12.164,0.0,0.0,0.0
410,0.0,0.0,0.0,-0.477853515625,0.0,0.0,0.0,0.0,0.0,0.0,-0.375,0.0,0.0,0.0,0.0,0.0,0.0,-0.4860623535712473,0.0,0.0,0.0,0.0,0.0,0.0,-11.66,0.0,0.0,0.0
411,0.0,0.0,0.0,-0.4811826171875,0.0,0.0,0.0,0.0,0.0,0.0,-0.343,0.0,0.0,0.0,0.0,0.0,0.0,-0.4897665161041165,0.0,0.0,0.0,0.0,0.0,0.0,-11.844,0.0,0.0,0.0
412,0.0,0.0,0.0,-0.4846572265625,0.0,0.0,0.0,0.0,0.0,0.0,-0.332,0.0,0.0,0.0,0.0,0.0,0.0,-0.4929645527471468,0.0,0.0,0.0,0.0,0.0,0.0,-12.508,0.0,0.0,0.0
413,0.0,0.0,0.0,-0.4884287109375,0.0,0.0,0.0,0.0,0.0,0.0,-0.367,0.0,0.0,0.0,0.0,0.0,0.0,-0.4963769615690672,0.0,0.0,0.0,0.0,0.0,0.0,-13.056,0.0,0.0,0.0
414,0.0,0.0,0.0,-0.4923359375,0.0,0.0,0.0,0.0,0.0,0.0,-0.391,0.0,0.0,0.0,0.0,0.0,0.0,-0.49973963313564884,0.0,0.0,0.0,0.0,0.0,0.0,-12.668,0.0,0.0,0.0
415,0.0,0.0,0.0,-0.495521484375,0.0,0.0,0.0,0.0,0.0,0.0,-0.362,0.0,0.0,0.0,0.0,0.0,0.0,-0.5030148606887056,0.0,0.0,0.0,0.0,0.0,0.0,-11.776,0.0,0.0,0.0
416,0.0,0.0,0.0,-0.4988505859375,0.0,0.0,0.0,0.0,0.0,0.0,-0.326,0.0,0.0,0.0,0.0,0.0,0.0,-0.5062487782761852,0.0,0.0,0.0,0.0,0.0,0.0,-11.96,0.0,0.0,0.0
417,0.0,0.0,0.0,-0.5024697265625,0.0,0.0,0.0,0.0,0.0,0.0,-0.349,0.0,0.0,0.0,0.0,0.0,0.0,-0.5094546530857372,0.0,0.0,0.0,0.0,0.0,0.0,-12.804,0.0,0.0,0.0
418,0.0,0.0,0.0,-0.505798828125,0.0,0.0,0.0,0.0,0.0,0.0,-0.355,0.0,0.0,0.0,0.0,0.0,0.0,-0.5125886406562475,0.0,0.0,0.0,0.0,0.0,0.0,-13.308,0.0,0.0,0.0
419,0.0,0.0,0.0,-0.50912890625,0.0,0.0,0.0,0.0,0.0,0.0,-0.332,0.0,0.0,0.0,0.0,0.0,0.0,-0.5156756458551394,0.0,0.0,0.0,0.0,0.0,0.0,-13.356,0.0,0.0,0.0
420,0.0,0.0,0.0,-0.51216015625,0.0,0.0,0.0,0.0,0.0,0.0,-0.321,0.0,0.0,0.0,0.0,0.0,0.0,-0.5187351489111428,0.0,0.0,0.0,0.0,0.0,0.0,-12.508,0.0,0.0,0.0
421,0.0,0.0,0.0,-0.515345703125,0.0,0.0,0.0,0.0,0.0,0.0,-0.31,0.0,0.0,0.0,0.0,0.0,0.0,-0.5217148845532251,0.0,0.0,0.0,0.0,0.0,0.0,-12.784,0.0,0.0,0.0
422,0.0,0.0,0.0,-0.51853125,0.0,0.0,0.0,0.0,0.0,0.0,-0.33,0.0,0.0,0.0,0.0,0.0,0.0,-0.5246479875782892,0.0,0.0,0.0,0.0,0.0,0.0,-12.392,0.0,0.0,0.0
423,0.0,0.0,0.0,-0.520859375,0.0,0.0,0.0,0.0,0.0,0.0,-0.279,0.0,0.0,0.0,0.0,0.0,0.0,-0.528814889853652,0.0,0.0,0.0,0.0,0.0,0.0,-12.552,0.0,0.0,0.0
424,0.0,0.0,0.0,-0.5233134765625,0.0,0.0,0.0,0.0,0.0,0.0,-0.232,0.0,0.0,0.0,0.0,0.0,0.0,-0.5305863584908576,0.0,0.0,0.0,0.0,0.0,0.0,-13.148,0.0,0.0,0.0
425,0.0,0.0,0.0,-0.5262099609375,0.0,0.0,0.0,0.0,0.0,0.0,-0.273,0.0,0.0,0.0,0.0,0.0,0.0,-0.5331573855127626,0.0,0.0,0.0,0.0,0.0,0.0,-12.76,0.0,0.0,0.0
426,0.0,0.0,0.0,-0.5288173828125,0.0,0.0,0.0,0.0,0.0,0.0,-0.282,0.0,0.0,0.0,0.0,0.0,0.0,-0.5358833424505851,0.0,0.0,0.0,0.0,0.0,0.0,-12.28,0.0,0.0,0.0
427,0.0,0.0,0.0,-0.5318583984375,0.0,0.0,0.0,0.0,0.0,0.0,-0.275,0.0,0.0,0.0,0.0,0.0,0.0,-0.5385472407644063,0.0,0.0,0.0,0.0,0.0,0.0,-12.804,0.0,0.0,0.0
428,0.0,0.0,0.0,-0.5350439453125,0.0,0.0,0.0,0.0,0.0,0.0,-0.319,0.0,0.0,0.0,0.0,0.0,0.0,-0.5411612530329165,0.0,0.0,0.0,0.0,0.0,0.0,-12.212,0.0,0.0,0.0
429,0.0,0.0,0.0,-0.537353515625,0.0,0.0,0.0,0.0,0.0,0.0,-0.285,0.0,0.0,0.0,0.0,0.0,0.0,-0.5437345082181321,0.0,0.0,0.0,0.0,0.0,0.0,-11.892,0.0,0.0,0.0
430,0.0,0.0,0.0,-0.54025,0.0,0.0,0.0,0.0,0.0,0.0,-0.257,0.0,0.0,0.0,0.0,0.0,0.0,-0.5462463110408475,0.0,0.0,0.0,0.0,0.0,0.0,-12.784,0.0,0.0,0.0
431,0.0,0.0,0.0,-0.543146484375,0.0,0.0,0.0,0.0,0.0,0.0,-0.297,0.0,0.0,0.0,0.0,0.0,0.0,-0.5486929728277092,0.0,0.0,0.0,0.0,0.0,0.0,-12.532,0.0,0.0,0.0
432,0.0,0.0,0.0,-0.54545703125,0.0,0.0,0.0,0.0,0.0,0.0,-0.252,0.0,0.0,0.0,0.0,0.0,0.0,-0.5510957720621971,0.0,0.0,0.0,0.0,0.0,0.0,-12.736,0.0,0.0,0.0
433,0.0,0.0,0.0,-0.548208984375,0.0,0.0,0.0,0.0,0.0,0.0,-0.253,0.0,0.0,0.0,0.0,0.0,0.0,-0.5534412418320525,0.0,0.0,0.0,0.0,0.0,0.0,-12.324,0.0,0.0,0.0
434,0.0,0.0,0.0,-0.5506728515625,0.0,0.0,0.0,0.0,0.0,0.0,-0.275,0.0,0.0,0.0,0.0,0.0,0.0,-0.5557196437467969,0.0,0.0,0.0,0.0,0.0,0.0,-11.96,0.0,0.0,0.0
435,0.0,0.0,0.0,-0.553126953125,0.0,0.0,0.0,0.0,0.0,0.0,-0.248,0.0,0.0,0.0,0.0,0.0,0.0,-0.5579511289068094,0.0,0.0,0.0,0.0,0.0,0.0,-12.212,0.0,0.0,0.0
436,0.0,0.0,0.0,-0.5557431640625,0.0,0.0,0.0,0.0,0.0,0.0,-0.252,0.0,0.0,0.0,0.0,0.0,0.0,-0.5601549588888938,0.0,0.0,0.0,0.0,0.0,0.0,-12.072,0.0,0.0,0.0
437,0.0,0.0,0.0,-0.55791796875,0.0,0.0,0.0,0.0,0.0,0.0,-0.239,0.0,0.0,0.0,0.0,0.0,0.0,-0.5622601707725586,0.0,0.0,0.0,0.0,0.0,0.0,-12.348,0.0,0.0,0.0
438,0.0,0.0,0.0,-0.560083984375,0.0,0.0,0.0,0.0,0.0,0.0,-0.221,0.0,0.0,0.0,0.0,0.0,0.0,-0.5643376061764992,0.0,0.0,0.0,0.0,0.0,0.0,-12.232,0.0,0.0,0.0
439,0.0,0.0,0.0,-0.5624033203125,0.0,0.0,0.0,0.0,0.0,0.0,-0.23,0.0,0.0,0.0,0.0,0.0,0.0,-0.5663492474025316,0.0,0.0,0.0,0.0,0.0,0.0,-11.776,0.0,0.0,0.0
440,0.0,0.0,0.0,-0.564712890625,0.0,0.0,0.0,0.0,0.0,0.0,-0.229,0.0,0.0,0.0,0.0,0.0,0.0,-0.5682897222127454,0.0,0.0,0.0,0.0,0.0,0.0,-12.028,0.0,0.0,0.0
441,0.0,0.0,0.0,-0.5670322265625,0.0,0.0,0.0,0.0,0.0,0.0,-0.234,0.0,0.0,0.0,0.0,0.0,0.0,-0.5701865628034923,0.0,0.0,0.0,0.0,0.0,0.0,-11.96,0.0,0.0,0.0
442,0.0,0.0,0.0,-0.569052734375,0.0,0.0,0.0,0.0,0.0,0.0,-0.229,0.0,0.0,0.0,0.0,0.0,0.0,-0.572039086464188,0.0,0.0,0.0,0.0,0.0,0.0,-11.752,0.0,0.0,0.0
443,0.0,0.0,0.0,-0.570939453125,0.0,0.0,0.0,0.0,0.0,0.0,-0.199,0.0,0.0,0.0,0.0,0.0,0.0,-0.5738077372754333,0.0,0.0,0.0,0.0,0.0,0.0,-11.892,0.0,0.0,0.0
444,0.0,0.0,0.0,-0.57252734375,0.0,0.0,0.0,0.0,0.0,0.0,-0.177,0.0,0.0,0.0,0.0,0.0,0.0,-0.5755473505276215,0.0,0.0,0.0,0.0,0.0,0.0,-11.388,0.0,0.0,0.0
445,0.0,0.0,0.0,-0.5741240234375,0.0,0.0,0.0,0.0,0.0,0.0,-0.156,0.0,0.0,0.0,0.0,0.0,0.0,-0.5772105495450065,0.0,0.0,0.0,0.0,0.0,0.0,-12.304,0.0,0.0,0.0
446,0.0,0.0,0.0,-0.5761455078125,0.0,0.0,0.0,0.0,0.0,0.0,-0.18,0.0,0.0,0.0,0.0,0.0,0.0,-0.578814536918233,0.0,0.0,0.0,0.0,0.0,0.0,-12.392,0.0,0.0,0.0
447,0.0,0.0,0.0,-0.5773095703125,0.0,0.0,0.0,0.0,0.0,0.0,-0.17,0.0,0.0,0.0,0.0,0.0,0.0,-0.5803704495681905,0.0,0.0,0.0,0.0,0.0,0.0,-11.868,0.0,0.0,0.0
448,0.0,0.0,0.0,-0.5788974609375,0.0,0.0,0.0,0.0,0.0,0.0,-0.134,0.0,0.0,0.0,0.0,0.0,0.0,-0.5818667898747643,0.0,0.0,0.0,0.0,0.0,0.0,-12.416,0.0,0.0,0.0
449,0.0,0.0,0.0,-0.5806298828125,0.0,0.0,0.0,0.0,0.0,0.0,-0.173,0.0,0.0,0.0,0.0,0.0,0.0,-0.5832941645170582,0.0,0.0,0.0,0.0,0.0,0.0,-11.96,0.0,0.0,0.0
450,0.0,0.0,0.0,-0.5816494140625,0.0,0.0,0.0,0.0,0.0,0.0,-0.142,0.0,0.0,0.0,0.0,0.0,0.0,-0.5846685498382619,0.0,0.0,0.0,0.0,0.0,0.0,-11.82,0.0,0.0,0.0
451,0.0,0.0,0.0,-0.5828046875,0.0,0.0,0.0,0.0,0.0,0.0,-0.104,0.0,0.0,0.0,0.0,0.0,0.0,-0.5859916238328251,0.0,0.0,0.0,0.0,0.0,0.0,-11.98,0.0,0.0,0.0
452,0.0,0.0,0.0,-0.5836708984375,0.0,0.0,0.0,0.0,0.0,0.0,-0.106,0.0,0.0,0.0,0.0,0.0,0.0,-0.5872460848055475,0.0,0.0,0.0,0.0,0.0,0.0,-12.392,0.0,0.0,0.0
453,0.0,0.0,0.0,-0.5849794921875,0.0,0.0,0.0,0.0,0.0,0.0,-0.105,0.0,0.0,0.0,0.0,0.0,0.0,-0.5884543815855581,0.0,0.0,0.0,0.0,0.0,0.0,-13.056,0.0,0.0,0.0
454,0.0,0.0,0.0,-0.5864228515625,0.0,0.0,0.0,0.0,0.0,0.0,-0.139,0.0,0.0,0.0,0.0,0.0,0.0,-0.5895963240659999,0.0,0.0,0.0,0.0,0.0,0.0,-12.896,0.0,0.0,0.0
455,0.0,0.0,0.0,-0.58772265625,0.0,0.0,0.0,0.0,0.0,0.0,-0.141,0.0,0.0,0.0,0.0,0.0,0.0,-0.5906871924883912,0.0,0.0,0.0,0.0,0.0,0.0,-12.532,0.0,0.0,0.0
456,0.0,0.0,0.0,-0.5887333984375,0.0,0.0,0.0,0.0,0.0,0.0,-0.113,0.0,0.0,0.0,0.0,0.0,0.0,-0.5916946631809197,0.0,0.0,0.0,0.0,0.0,0.0,-12.256,0.0,0.0,0.0
457,0.0,0.0,0.0,-0.5897529296875,0.0,0.0,0.0,0.0,0.0,0.0,-0.103,0.0,0.0,0.0,0.0,0.0,0.0,-0.5926682375936668,0.0,0.0,0.0,0.0,0.0,0.0,-12.372,0.0,0.0,0.0
458,0.0,0.0,0.0,-0.590619140625,0.0,0.0,0.0,0.0,0.0,0.0,-0.099,0.0,0.0,0.0,0.0,0.0,0.0,-0.5935677484720823,0.0,0.0,0.0,0.0,0.0,0.0,-12.644,0.0,0.0,0.0
459,0.0,0.0,0.0,-0.591494140625,0.0,0.0,0.0,0.0,0.0,0.0,-0.088,0.0,0.0,0.0,0.0,0.0,0.0,-0.5944213643831157,0.0,0.0,0.0,0.0,0.0,0.0,-12.896,0.0,0.0,0.0
460,0.0,0.0,0.0,-0.5925048828125,0.0,0.0,0.0,0.0,0.0,0.0,-0.095,0.0,0.0,0.0,0.0,0.0,0.0,-0.5952086738491359,0.0,0.0,0.0,0.0,0.0,0.0,-12.508,0.0,0.0,0.0
461,0.0,0.0,0.0,-0.5935244140625,0.0,0.0,0.0,0.0,0.0,0.0,-0.103,0.0,0.0,0.0,0.0,0.0,0.0,-0.5959315389629359,0.0,0.0,0.0,0.0,0.0,0.0,-12.464,0.0,0.0,0.0
462,0.0,0.0,0.0,-0.5946796875,0.0,0.0,0.0,0.0,0.0,0.0,-0.12,0.0,0.0,0.0,0.0,0.0,0.0,-0.5966008657499036,0.0,0.0,0.0,0.0,0.0,0.0,-11.708,0.0,0.0,0.0
463,0.0,0.0,0.0,-0.5954013671875,0.0,0.0,0.0,0.0,0.0,0.0,-0.098,0.0,0.0,0.0,0.0,0.0,0.0,-0.5972076843411053,0.0,0.0,0.0,0.0,0.0,0.0,-11.96,0.0,0.0,0.0
464,0.0,0.0,0.0,-0.596123046875,0.0,0.0,0.0,0.0,0.0,0.0,-0.07,0.0,0.0,0.0,0.0,0.0,0.0,-0.5977555295957078,0.0,0.0,0.0,0.0,0.0,0.0,-11.82,0.0,0.0,0.0
465,0.0,0.0,0.0,-0.596556640625,0.0,0.0,0.0,0.0,0.0,0.0,-0.056,0.0,0.0,0.0,0.0,0.0,0.0,-0.5982449985379898,0.0,0.0,0.0,0.0,0.0,0.0,-11.892,0.0,0.0,0.0
466,0.0,0.0,0.0,-0.597287109375,0.0,0.0,0.0,0.0,0.0,0.0,-0.051,0.0,0.0,0.0,0.0,0.0,0.0,-0.5986814954866374,0.0,0.0,0.0,0.0,0.0,0.0,-12.348,0.0,0.0,0.0
467,0.0,0.0,0.0,-0.5981533203125,0.0,0.0,0.0,0.0,0.0,0.0,-0.085,0.0,0.0,0.0,0.0,0.0,0.0,-0.5990413613814898,0.0,0.0,0.0,0.0,0.0,0.0,-12.12,0.0,0.0,0.0
468,0.0,0.0,0.0,-0.5985869140625,0.0,0.0,0.0,0.0,0.0,0.0,-0.07,0.0,0.0,0.0,0.0,0.0,0.0,-0.5993518021335986,0.0,0.0,0.0,0.0,0.0,0.0,-11.616,0.0,0.0,0.0
469,0.0,0.0,0.0,-0.59901953125,0.0,0.0,0.0,0.0,0.0,0.0,-0.049,0.0,0.0,0.0,0.0,0.0,0.0,-0.5996010276074943,0.0,0.0,0.0,0.0,0.0,0.0,-11.272,0.0,0.0,0.0
470,0.0,0.0,0.0,-0.599453125,0.0,0.0,0.0,0.0,0.0,0.0,-0.045,0.0,0.0,0.0,0.0,0.0,0.0,-0.599789322568529,0.0,0.0,0.0,0.0,0.0,0.0,-11.34,0.0,0.0,0.0
471,0.0,0.0,0.0,-0.599453125,0.0,0.0,0.0,0.0,0.0,0.0,-0.022,0.0,0.0,0.0,0.0,0.0,0.0,-0.5999181475324863,0.0,0.0,0.0,0.0,0.0,0.0,-11.364,0.0,0.0,0.0
472,0.0,0.0,0.0,-0.599453125,0.0,0.0,0.0,0.0,0.0,0.0,-0.001,0.0,0.0,0.0,0.0,0.0,0.0,-0.5999874918848151,0.0,0.0,0.0,0.0,0.0,0.0,-11.48,0.0,0.0,0.0
473,0.0,0.0,0.0,-0.599453125,0.0,0.0,0.0,0.0,0.0,0.0,-0.001,0.0,0.0,0.0,0.0,0.0,0.0,-0.5999964022060714,0.0,0.0,0.0,0.0,0.0,0.0,-11.572,0.0,0.0,0.0
474,0.0,0.0,0.0,-0.59959765625,0.0,0.0,0.0,0.0,0.0,0.0,-0.001,0.0,0.0,0.0,0.0,0.0,0.0,-0.5999453664808306,0.0,0.0,0.0,0.0,0.0,0.0,-11.524,0.0,0.0,0.0
475,0.0,0.0,0.0,-0.59959765625,0.0,0.0,0.0,0.0,0.0,0.0,-0.011,0.0,0.0,0.0,0.0,0.0,0.0,-0.5998344304062299,0.0,0.0,0.0,0.0,0.0,0.0,-11.388,0.0,0.0,0.0
476,0.0,0.0,0.0,-0.59959765625,0.0,0.0,0.0,0.0,0.0,0.0,-0.002,0.0,0.0,0.0,0.0,0.0,0.0,-0.5996625325169284,0.0,0.0,0.0,0.0,0.0,0.0,-11.572,0.0,0.0,0.0
477,0.0,0.0,0.0,-0.599453125,0.0,0.0,0.0,0.0,0.0,0.0,0.01,0.0,0.0,0.0,0.0,0.0,0.0,-0.5994336404197953,0.0,0.0,0.0,0.0,0.0,0.0,-11.708,0.0,0.0,0.0
478,0.0,0.0,0.0,-0.59930859375,0.0,0.0,0.0,0.0,0.0,0.0,0.014,0.0,0.0,0.0,0.0,0.0,0.0,-0.5991420744634678,0.0,0.0,0.0,0.0,0.0,0.0,-11.98,0.0,0.0,0.0
479,0.0,0.0,0.0,-0.59930859375,0.0,0.0,0.0,0.0,0.0,0.0,0.006,0.0,0.0,0.0,0.0,0.0,0.0,-0.5987903524362177,0.0,0.0,0.0,0.0,0.0,0.0,-12.052,0.0,0.0,0.0
480,0.0,0.0,0.0,-0.59930859375,0.0,0.0,0.0,0.0,0.0,0.0,-0.001,0.0,0.0,0.0,0.0,0.0,0.0,-0.5983793956955261,0.0,0.0,0.0,0.0,0.0,0.0,-12.096,0.0,0.0,0.0
481,0.0,0.0,0.0,-0.59930859375,0.0,0.0,0.0,0.0,0.0,0.0,-0.001,0.0,0.0,0.0,0.0,0.0,0.0,-0.597913038299177,0.0,0.0,0.0,0.0,0.0,0.0,-12.072,0.0,0.0,0.0
482,0.0,0.0,0.0,-0.5991640625,0.0,0.0,0.0,0.0,0.0,0.0,0.01,0.0,0.0,0.0,0.0,0.0,0.0,-0.5973779444401659,0.0,0.0,0.0,0.0,0.0,0.0,-12.256,0.0,0.0,0.0
483,0.0,0.0,0.0,-0.5991640625,0.0,0.0,0.0,0.0,0.0,0.0,0.004,0.0,0.0,0.0,0.0,0.0,0.0,-0.5967894353671485,0.0,0.0,0.0,0.0,0.0,0.0,-12.304,0.0,0.0,0.0
484,0.0,0.0,0.0,-0.5991640625,0.0,0.0,0.0,0.0,0.0,0.0,-0.001,0.0,0.0,0.0,0.0,0.0,0.0,-0.5961404838081084,0.0,0.0,0.0,0.0,0.0,0.0,-12.464,0.0,0.0,0.0
485,0.0,0.0,0.0,-0.5991640625,0.0,0.0,0.0,0.0,0.0,0.0,-0.001,0.0,0.0,0.0,0.0,0.0,0.0,-0.5954273265860666,0.0,0.0,0.0,0.0,0.0,0.0,-12.484,0.0,0.0,0.0
486,0.0,0.0,0.0,-0.5991640625,0.0,0.0,0.0,0.0,0.0,0.0,-0.001,0.0,0.0,0.0,0.0,0.0,0.0,-0.5946595003411442,0.0,0.0,0.0,0.0,0.0,0.0,-12.324,0.0,0.0,0.0
487,0.0,0.0,0.0,-0.59930859375,0.0,0.0,0.0,0.0,0.0,0.0,-0.005,0.0,0.0,0.0,0.0,0.0,0.0,-0.5938307822699685,0.0,0.0,0.0,0.0,0.0,0.0,-12.052,0.0,0.0,0.0
488,0.0,0.0,0.0,-0.5991640625,0.0,0.0,0.0,0.0,0.0,0.0,-0.004,0.0,0.0,0.0,0.0,0.0,0.0,-0.5929422539690999,0.0,0.0,0.0,0.0,0.0,0.0,-11.708,0.0,0.0,0.0
489,0.0,0.0,0.0,-0.59901953125,0.0,0.0,0.0,0.0,0.0,0.0,0.015,0.0,0.0,0.0,0.0,0.0,0.0,-0.5919979800815375,0.0,0.0,0.0,0.0,0.0,0.0,-11.432,0.0,0.0,0.0
490,0.0,0.0,0.0,-0.5985869140625,0.0,0.0,0.0,0.0,0.0,0.0,0.031,0.0,0.0,0.0,0.0,0.0,0.0,-0.5909930842974911,0.0,0.0,0.0,0.0,0.0,0.0,-11.34,0.0,0.0,0.0
491,0.0,0.0,0.0,-0.5980087890625,0.0,0.0,0.0,0.0,0.0,0.0,0.048,0.0,0.0,0.0,0.0,0.0,0.0,-0.5899213844250164,0.0,0.0,0.0,0.0,0.0,0.0,-11.388,0.0,0.0,0.0
492,0.0,0.0,0.0,-0.597431640625,0.0,0.0,0.0,0.0,0.0,0.0,0.055,0.0,0.0,0.0,0.0,0.0,0.0,-0.5887971510276033,0.0,0.0,0.0,0.0,0.0,0.0,-11.252,0.0,0.0,0.0
493,0.0,0.0,0.0,-0.596556640625,0.0,0.0,0.0,0.0,0.0,0.0,0.07,0.0,0.0,0.0,0.0,0.0,0.0,-0.5876221702515211,0.0,0.0,0.0,0.0,0.0,0.0,-11.088,0.0,0.0,0.0
494,0.0,0.0,0.0,-0.5956904296875,0.0,0.0,0.0,0.0,0.0,0.0,0.081,0.0,0.0,0.0,0.0,0.0,0.0,-0.5858360051631631,0.0,0.0,0.0,0.0,0.0,0.0,-10.928,0.0,0.0,0.0
495,0.0,0.0,0.0,-0.59482421875,0.0,0.0,0.0,0.0,0.0,0.0,0.089,0.0,0.0,0.0,0.0,0.0,0.0,-0.585014580709924,0.0,0.0,0.0,0.0,0.0,0.0,-11.0,0.0,0.0,0.0
496,0.0,0.0,0.0,-0.5936689453125,0.0,0.0,0.0,0.0,0.0,0.0,0.102,0.0,0.0,0.0,0.0,0.0,0.0,-0.583722237699641,0.0,0.0,0.0,0.0,0.0,0.0,-11.044,0.0,0.0,0.0
497,0.0,0.0,0.0,-0.5925048828125,0.0,0.0,0.0,0.0,0.0,0.0,0.116,0.0,0.0,0.0,0.0,0.0,0.0,-0.5823014883946086,0.0,0.0,0.0,0.0,0.0,0.0,-11.388,0.0,0.0,0.0
498,0.0,0.0,0.0,-0.591349609375,0.0,0.0,0.0,0.0,0.0,0.0,0.118,0.0,0.0,0.0,0.0,0.0,0.0,-0.5808339591919051,0.0,0.0,0.0,0.0,0.0,0.0,-11.708,0.0,0.0,0.0
499,0.0,0.0,0.0,-0.5900419921875,0.0,0.0,0.0,0.0,0.0,0.0,0.118,0.0,0.0,0.0,0.0,0.0,0.0,-0.5793007399151938,0.0,0.0,0.0,0.0,0.0,0.0,-11.48,0.0,0.0,0.0
500,0.0,0.0,0.0,-0.5882998046875,0.0,0.0,0.0,0.0,0.0,0.0,0.149,0.0,0.0,0.0,0.0,0.0,0.0,-0.5776524748318504,0.0,0.0,0.0,0.0,0.0,0.0,-11.524,0.0,0.0,0.0
501,0.0,0.0,0.0,-0.5867119140625,0.0,0.0,0.0,0.0,0.0,0.0,0.165,0.0,0.0,0.0,0.0,0.0,0.0,-0.5760396664447855,0.0,0.0,0.0,0.0,0.0,0.0,-11.752,0.0,0.0,0.0
502,0.0,0.0,0.0,-0.5849794921875,0.0,0.0,0.0,0.0,0.0,0.0,0.162,0.0,0.0,0.0,0.0,0.0,0.0,-0.5743374288248375,0.0,0.0,0.0,0.0,0.0,0.0,-12.12,0.0,0.0,0.0
503,0.0,0.0,0.0,-0.58323828125,0.0,0.0,0.0,0.0,0.0,0.0,0.177,0.0,0.0,0.0,0.0,0.0,0.0,-0.5722207149365184,0.0,0.0,0.0,0.0,0.0,0.0,-12.28,0.0,0.0,0.0
504,0.0,0.0,0.0,-0.581505859375,0.0,0.0,0.0,0.0,0.0,0.0,0.17,0.0,0.0,0.0,0.0,0.0,0.0,-0.5707654714645836,0.0,0.0,0.0,0.0,0.0,0.0,-12.072,0.0,0.0,0.0
505,0.0,0.0,0.0,-0.579619140625,0.0,0.0,0.0,0.0,0.0,0.0,0.179,0.0,0.0,0.0,0.0,0.0,0.0,-0.5688743224214621,0.0,0.0,0.0,0.0,0.0,0.0,-12.188,0.0,0.0,0.0
506,0.0,0.0,0.0,-0.57817578125,0.0,0.0,0.0,0.0,0.0,0.0,0.175,0.0,0.0,0.0,0.0,0.0,0.0,-0.5669359301449174,0.0,0.0,0.0,0.0,0.0,0.0,-12.304,0.0,0.0,0.0
507,0.0,0.0,0.0,-0.5762900390625,0.0,0.0,0.0,0.0,0.0,0.0,0.164,0.0,0.0,0.0,0.0,0.0,0.0,-0.5649635793684771,0.0,0.0,0.0,0.0,0.0,0.0,-11.98,0.0,0.0,0.0
508,0.0,0.0,0.0,-0.5741240234375,0.0,0.0,0.0,0.0,0.0,0.0,0.204,0.0,0.0,0.0,0.0,0.0,0.0,-0.5628984283287485,0.0,0.0,0.0,0.0,0.0,0.0,-12.372,0.0,0.0,0.0
509,0.0,0.0,0.0,-0.5723828125,0.0,0.0,0.0,0.0,0.0,0.0,0.196,0.0,0.0,0.0,0.0,0.0,0.0,-0.5607675862822562,0.0,0.0,0.0,0.0,0.0,0.0,-12.484,0.0,0.0,0.0
510,0.0,0.0,0.0,-0.570216796875,0.0,0.0,0.0,0.0,0.0,0.0,0.199,0.0,0.0,0.0,0.0,0.0,0.0,-0.5586382091133986,0.0,0.0,0.0,0.0,0.0,0.0,-12.188,0.0,0.0,0.0
511,0.0,0.0,0.0,-0.5683310546875,0.0,0.0,0.0,0.0,0.0,0.0,0.207,0.0,0.0,0.0,0.0,0.0,0.0,-0.5564056529535057,0.0,0.0,0.0,0.0,0.0,0.0,-12.644,0.0,0.0,0.0
512,0.0,0.0,0.0,-0.5663095703125,0.0,0.0,0.0,0.0,0.0,0.0,0.18,0.0,0.0,0.0,0.0,0.0,0.0,-0.5532285090973318,0.0,0.0,0.0,0.0,0.0,0.0,-11.66,0.0,0.0,0.0
513,0.0,0.0,0.0,-0.5639912109375,0.0,0.0,0.0,0.0,0.0,0.0,0.222,0.0,0.0,0.0,0.0,0.0,0.0,-0.5518311948230169,0.0,0.0,0.0,0.0,0.0,0.0,-12.052,0.0,0.0,0.0
514,0.0,0.0,0.0,-0.5624033203125,0.0,0.0,0.0,0.0,0.0,0.0,0.205,0.0,0.0,0.0,0.0,0.0,0.0,-0.5493814306913312,0.0,0.0,0.0,0.0,0.0,0.0,-12.028,0.0,0.0,0.0
515,0.0,0.0,0.0,-0.560228515625,0.0,0.0,0.0,0.0,0.0,0.0,0.184,0.0,0.0,0.0,0.0,0.0,0.0,-0.5466039595309536,0.0,0.0,0.0,0.0,0.0,0.0,-11.616,0.0,0.0,0.0
516,0.0,0.0,0.0,-0.55791796875,0.0,0.0,0.0,0.0,0.0,0.0,0.228,0.0,0.0,0.0,0.0,0.0,0.0,-0.5444966404719662,0.0,0.0,0.0,0.0,0.0,0.0,-12.212,0.0,0.0,0.0
517,0.0,0.0,0.0,-0.5558876953125,0.0,0.0,0.0,0.0,0.0,0.0,0.208,0.0,0.0,0.0,0.0,0.0,0.0,-0.5419534335836036,0.0,0.0,0.0,0.0,0.0,0.0,-11.732,0.0,0.0,0.0
518,0.0,0.0,0.0,-0.5535595703125,0.0,0.0,0.0,0.0,0.0,0.0,0.221,0.0,0.0,0.0,0.0,0.0,0.0,-0.5393376007449229,0.0,0.0,0.0,0.0,0.0,0.0,-11.752,0.0,0.0,0.0
519,0.0,0.0,0.0,-0.55110546875,0.0,0.0,0.0,0.0,0.0,0.0,0.248,0.0,0.0,0.0,0.0,0.0,0.0,-0.5366870809116083,0.0,0.0,0.0,0.0,0.0,0.0,-11.572,0.0,0.0,0.0
520,0.0,0.0,0.0,-0.548642578125,0.0,0.0,0.0,0.0,0.0,0.0,0.243,0.0,0.0,0.0,0.0,0.0,0.0,-0.5339773669983597,0.0,0.0,0.0,0.0,0.0,0.0,-11.684,0.0,0.0,0.0
521,0.0,0.0,0.0,-0.54633203125,0.0,0.0,0.0,0.0,0.0,0.0,0.239,0.0,0.0,0.0,0.0,0.0,0.0,-0.5312133811276739,0.0,0.0,0.0,0.0,0.0,0.0,-11.844,0.0,0.0,0.0
522,0.0,0.0,0.0,-0.5441572265625,0.0,0.0,0.0,0.0,0.0,0.0,0.232,0.0,0.0,0.0,0.0,0.0,0.0,-0.5283296665630418,0.0,0.0,0.0,0.0,0.0,0.0,-12.028,0.0,0.0,0.0
523,0.0,0.0,0.0,-0.541982421875,0.0,0.0,0.0,0.0,0.0,0.0,0.209,0.0,0.0,0.0,0.0,0.0,0.0,-0.5255412469353675,0.0,0.0,0.0,0.0,0.0,0.0,-11.524,0.0,0.0,0.0
524,0.0,0.0,0.0,-0.539095703125,0.0,0.0,0.0,0.0,0.0,0.0,0.252,0.0,0.0,0.0,0.0,0.0,0.0,-0.5226015353411348,0.0,0.0,0.0,0.0,0.0,0.0,-11.364,0.0,0.0,0.0
525,0.0,0.0,0.0,-0.5363427734375,0.0,0.0,0.0,0.0,0.0,0.0,0.283,0.0,0.0,0.0,0.0,0.0,0.0,-0.5195854413573835,0.0,0.0,0.0,0.0,0.0,0.0,-11.32,0.0,0.0,0.0
526,0.0,0.0,0.0,-0.533302734375,0.0,0.0,0.0,0.0,0.0,0.0,0.282,0.0,0.0,0.0,0.0,0.0,0.0,-0.5164952386397827,0.0,0.0,0.0,0.0,0.0,0.0,-11.776,0.0,0.0,0.0
527,0.0,0.0,0.0,-0.5305498046875,0.0,0.0,0.0,0.0,0.0,0.0,0.297,0.0,0.0,0.0,0.0,0.0,0.0,-0.5135426821413797,0.0,0.0,0.0,0.0,0.0,0.0,-12.804,0.0,0.0,0.0
528,0.0,0.0,0.0,-0.527951171875,0.0,0.0,0.0,0.0,0.0,0.0,0.265,0.0,0.0,0.0,0.0,0.0,0.0,-0.5103376150732741,0.0,0.0,0.0,0.0,0.0,0.0,-12.44,0.0,0.0,0.0
529,0.0,0.0,0.0,-0.5250546875,0.0,0.0,0.0,0.0,0.0,0.0,0.279,0.0,0.0,0.0,0.0,0.0,0.0,-0.5072347892593954,0.0,0.0,0.0,0.0,0.0,0.0,-12.532,0.0,0.0,0.0
530,0.0,0.0,0.0,-0.522302734375,0.0,0.0,0.0,0.0,0.0,0.0,0.285,0.0,0.0,0.0,0.0,0.0,0.0,-0.5039254939225485,0.0,0.0,0.0,0.0,0.0,0.0,-12.372,0.0,0.0,0.0
531,0.0,0.0,0.0,-0.5189638671875,0.0,0.0,0.0,0.0,0.0,0.0,0.294,0.0,0.0,0.0,0.0,0.0,0.0,-0.5000031762136269,0.0,0.0,0.0,0.0,0.0,0.0,-11.892,0.0,0.0,0.0
532,0.0,0.0,0.0,-0.515345703125,0.0,0.0,0.0,0.0,0.0,0.0,0.353,0.0,0.0,0.0,0.0,0.0,0.0,-0.4972570609624123,0.0,0.0,0.0,0.0,0.0,0.0,-12.484,0.0,0.0,0.0
533,0.0,0.0,0.0,-0.51216015625,0.0,0.0,0.0,0.0,0.0,0.0,0.348,0.0,0.0,0.0,0.0,0.0,0.0,-0.49401465230482866,0.0,0.0,0.0,0.0,0.0,0.0,-13.492,0.0,0.0,0.0
534,0.0,0.0,0.0,-0.5092734375,0.0,0.0,0.0,0.0,0.0,0.0,0.302,0.0,0.0,0.0,0.0,0.0,0.0,-0.4905713684836232,0.0,0.0,0.0,0.0,0.0,0.0,-12.964,0.0,0.0,0.0
535,0.0,0.0,0.0,-0.505654296875,0.0,0.0,0.0,0.0,0.0,0.0,0.324,0.0,0.0,0.0,0.0,0.0,0.0,-0.4870944309137376,0.0,0.0,0.0,0.0,0.0,0.0,-11.34,0.0,0.0,0.0
536,0.0,0.0,0.0,-0.5017470703125,0.0,0.0,0.0,0.0,0.0,0.0,0.384,0.0,0.0,0.0,0.0,0.0,0.0,-0.48358095202282064,0.0,0.0,0.0,0.0,0.0,0.0,-11.02,0.0,0.0,0.0
537,0.0,0.0,0.0,-0.4947998046875,0.0,0.0,0.0,0.0,0.0,0.0,0.334,0.0,0.0,0.0,0.0,0.0,0.0,-0.4777192299262634,0.0,0.0,0.0,0.0,0.0,0.0,-12.004,0.0,0.0,0.0
538,0.0,0.0,0.0,-0.4947998046875,0.0,0.0,0.0,0.0,0.0,0.0,0.334,0.0,0.0,0.0,0.0,0.0,0.0,-0.4755684395923741,0.0,0.0,0.0,0.0,0.0,0.0,-12.004,0.0,0.0,0.0
539,0.0,0.0,0.0,-0.490748046875,0.0,0.0,0.0,0.0,0.0,0.0,0.389,0.0,0.0,0.0,0.0,0.0,0.0,-0.4727019550517084,0.0,0.0,0.0,0.0,0.0,0.0,-12.896,0.0,0.0,0.0
540,0.0,0.0,0.0,-0.48770703125,0.0,0.0,0.0,0.0,0.0,0.0,0.366,0.0,0.0,0.0,0.0,0.0,0.0,-0.4688790242389033,0.0,0.0,0.0,0.0,0.0,0.0,-12.852,0.0,0.0,0.0
541,0.0,0.0,0.0,-0.4843681640625,0.0,0.0,0.0,0.0,0.0,0.0,0.315,0.0,0.0,0.0,0.0,0.0,0.0,-0.46521613139644147,0.0,0.0,0.0,0.0,0.0,0.0,-11.364,0.0,0.0,0.0
542,0.0,0.0,0.0,-0.4801728515625,0.0,0.0,0.0,0.0,0.0,0.0,0.378,0.0,0.0,0.0,0.0,0.0,0.0,-0.46008513581293,0.0,0.0,0.0,0.0,0.0,0.0,-11.228,0.0,0.0,0.0
543,0.0,0.0,0.0,-0.4766982421875,0.0,0.0,0.0,0.0,0.0,0.0,0.394,0.0,0.0,0.0,0.0,0.0,0.0,-0.4573850554973995,0.0,0.0,0.0,0.0,0.0,0.0,-13.104,0.0,0.0,0.0
544,0.0,0.0,0.0,-0.472791015625,0.0,0.0,0.0,0.0,0.0,0.0,0.359,0.0,0.0,0.0,0.0,0.0,0.0,-0.4536407955550236,0.0,0.0,0.0,0.0,0.0,0.0,-12.736,0.0,0.0,0.0
545,0.0,0.0,0.0,-0.4688837890625,0.0,0.0,0.0,0.0,0.0,0.0,0.4,0.0,0.0,0.0,0.0,0.0,0.0,-0.44972417951060284,0.0,0.0,0.0,0.0,0.0,0.0,-13.424,0.0,0.0,0.0
546,0.0,0.0,0.0,-0.46541015625,0.0,0.0,0.0,0.0,0.0,0.0,0.371,0.0,0.0,0.0,0.0,0.0,0.0,-0.44569103422822554,0.0,0.0,0.0,0.0,0.0,0.0,-12.872,0.0,0.0,0.0
547,0.0,0.0,0.0,-0.4610703125,0.0,0.0,0.0,0.0,0.0,0.0,0.381,0.0,0.0,0.0,0.0,0.0,0.0,-0.4416807169436617,0.0,0.0,0.0,0.0,0.0,0.0,-12.852,0.0,0.0,0.0
548,0.0,0.0,0.0,-0.4572978515625,0.0,0.0,0.0,0.0,0.0,0.0,0.415,0.0,0.0,0.0,0.0,0.0,0.0,-0.4375919187988247,0.0,0.0,0.0,0.0,0.0,0.0,-13.104,0.0,0.0,0.0
549,0.0,0.0,0.0,-0.4528046875,0.0,0.0,0.0,0.0,0.0,0.0,0.396,0.0,0.0,0.0,0.0,0.0,0.0,-0.4334622060520268,0.0,0.0,0.0,0.0,0.0,0.0,-12.416,0.0,0.0,0.0
550,0.0,0.0,0.0,-0.44817578125,0.0,0.0,0.0,0.0,0.0,0.0,0.471,0.0,0.0,0.0,0.0,0.0,0.0,-0.42929868169773366,0.0,0.0,0.0,0.0,0.0,0.0,-13.696,0.0,0.0,0.0
551,0.0,0.0,0.0,-0.444845703125,0.0,0.0,0.0,0.0,0.0,0.0,0.414,0.0,0.0,0.0,0.0,0.0,0.0,-0.4250868124178338,0.0,0.0,0.0,0.0,0.0,0.0,-13.536,0.0,0.0,0.0
552,0.0,0.0,0.0,-0.4406494140625,0.0,0.0,0.0,0.0,0.0,0.0,0.359,0.0,0.0,0.0,0.0,0.0,0.0,-0.42081155608272536,0.0,0.0,0.0,0.0,0.0,0.0,-11.844,0.0,0.0,0.0
553,0.0,0.0,0.0,-0.43601171875,0.0,0.0,0.0,0.0,0.0,0.0,0.45,0.0,0.0,0.0,0.0,0.0,0.0,-0.41648219491660415,0.0,0.0,0.0,0.0,0.0,0.0,-12.256,0.0,0.0,0.0
554,0.0,0.0,0.0,-0.4323935546875,0.0,0.0,0.0,0.0,0.0,0.0,0.416,0.0,0.0,0.0,0.0,0.0,0.0,-0.412173785075791,0.0,0.0,0.0,0.0,0.0,0.0,-11.96,0.0,0.0,0.0
555,0.0,0.0,0.0,-0.428052734375,0.0,0.0,0.0,0.0,0.0,0.0,0.394,0.0,0.0,0.0,0.0,0.0,0.0,-0.4078097450881006,0.0,0.0,0.0,0.0,0.0,0.0,-12.392,0.0,0.0,0.0
556,0.0,0.0,0.0,-0.4238486328125,0.0,0.0,0.0,0.0,0.0,0.0,0.444,0.0,0.0,0.0,0.0,0.0,0.0,-0.4033707110435604,0.0,0.0,0.0,0.0,0.0,0.0,-13.948,0.0,0.0,0.0
557,0.0,0.0,0.0,-0.4202294921875,0.0,0.0,0.0,0.0,0.0,0.0,0.382,0.0,0.0,0.0,0.0,0.0,0.0,-0.3989276701177641,0.0,0.0,0.0,0.0,0.0,0.0,-12.76,0.0,0.0,0.0
558,0.0,0.0,0.0,-0.4157451171875,0.0,0.0,0.0,0.0,0.0,0.0,0.406,0.0,0.0,0.0,0.0,0.0,0.0,-0.39439710038471965,0.0,0.0,0.0,0.0,0.0,0.0,-12.164,0.0,0.0,0.0
559,0.0,0.0,0.0,-0.411693359375,0.0,0.0,0.0,0.0,0.0,0.0,0.44,0.0,0.0,0.0,0.0,0.0,0.0,-0.3898749730891694,0.0,0.0,0.0,0.0,0.0,0.0,-12.712,0.0,0.0,0.0
560,0.0,0.0,0.0,-0.4076328125,0.0,0.0,0.0,0.0,0.0,0.0,0.396,0.0,0.0,0.0,0.0,0.0,0.0,-0.38530135539390065,0.0,0.0,0.0,0.0,0.0,0.0,-12.232,0.0,0.0,0.0
561,0.0,0.0,0.0,-0.4027158203125,0.0,0.0,0.0,0.0,0.0,0.0,0.458,0.0,0.0,0.0,0.0,0.0,0.0,-0.3806925227869644,0.0,0.0,0.0,0.0,0.0,0.0,-13.72,0.0,0.0,0.0
562,0.0,0.0,0.0,-0.39823046875,0.0,0.0,0.0,0.0,0.0,0.0,0.475,0.0,0.0,0.0,0.0,0.0,0.0,-0.3759737673406857,0.0,0.0,0.0,0.0,0.0,0.0,-13.812,0.0,0.0,0.0
563,0.0,0.0,0.0,-0.393728515625,0.0,0.0,0.0,0.0,0.0,0.0,0.446,0.0,0.0,0.0,0.0,0.0,0.0,-0.3712428179189882,0.0,0.0,0.0,0.0,0.0,0.0,-13.652,0.0,0.0,0.0
564,0.0,0.0,0.0,-0.3890986328125,0.0,0.0,0.0,0.0,0.0,0.0,0.46,0.0,0.0,0.0,0.0,0.0,0.0,-0.3665862945577782,0.0,0.0,0.0,0.0,0.0,0.0,-12.804,0.0,0.0,0.0
565,0.0,0.0,0.0,-0.384037109375,0.0,0.0,0.0,0.0,0.0,0.0,0.481,0.0,0.0,0.0,0.0,0.0,0.0,-0.3618157633625211,0.0,0.0,0.0,0.0,0.0,0.0,-12.188,0.0,0.0,0.0
566,0.0,0.0,0.0,-0.3792548828125,0.0,0.0,0.0,0.0,0.0,0.0,0.504,0.0,0.0,0.0,0.0,0.0,0.0,-0.3570254555526255,0.0,0.0,0.0,0.0,0.0,0.0,-12.964,0.0,0.0,0.0
567,0.0,0.0,0.0,-0.37505859375,0.0,0.0,0.0,0.0,0.0,0.0,0.458,0.0,0.0,0.0,0.0,0.0,0.0,-0.35219513625473914,0.0,0.0,0.0,0.0,0.0,0.0,-13.4,0.0,0.0,0.0
568,0.0,0.0,0.0,-0.3708623046875,0.0,0.0,0.0,0.0,0.0,0.0,0.416,0.0,0.0,0.0,0.0,0.0,0.0,-0.34729170959264255,0.0,0.0,0.0,0.0,0.0,0.0,-13.104,0.0,0.0,0.0
569,0.0,0.0,0.0,-0.3659267578125,0.0,0.0,0.0,0.0,0.0,0.0,0.455,0.0,0.0,0.0,0.0,0.0,0.0,-0.3423940319751637,0.0,0.0,0.0,0.0,0.0,0.0,-12.304,0.0,0.0,0.0
570,0.0,0.0,0.0,-0.3611533203125,0.0,0.0,0.0,0.0,0.0,0.0,0.492,0.0,0.0,0.0,0.0,0.0,0.0,-0.33744336140477166,0.0,0.0,0.0,0.0,0.0,0.0,-11.5,0.0,0.0,0.0
571,0.0,0.0,0.0,-0.3565244140625,0.0,0.0,0.0,0.0,0.0,0.0,0.477,0.0,0.0,0.0,0.0,0.0,0.0,-0.33242396612250896,0.0,0.0,0.0,0.0,0.0,0.0,-12.484,0.0,0.0,0.0
572,0.0,0.0,0.0,-0.35203125,0.0,0.0,0.0,0.0,0.0,0.0,0.454,0.0,0.0,0.0,0.0,0.0,0.0,-0.32745372858483096,0.0,0.0,0.0,0.0,0.0,0.0,-13.924,0.0,0.0,0.0
573,0.0,0.0,0.0,-0.34696875,0.0,0.0,0.0,0.0,0.0,0.0,0.466,0.0,0.0,0.0,0.0,0.0,0.0,-0.3223182068916193,0.0,0.0,0.0,0.0,0.0,0.0,-13.308,0.0,0.0,0.0
574,0.0,0.0,0.0,-0.3417529296875,0.0,0.0,0.0,0.0,0.0,0.0,0.528,0.0,0.0,0.0,0.0,0.0,0.0,-0.31730858196468875,0.0,0.0,0.0,0.0,0.0,0.0,-13.24,0.0,0.0,0.0
575,0.0,0.0,0.0,-0.336681640625,0.0,0.0,0.0,0.0,0.0,0.0,0.508,0.0,0.0,0.0,0.0,0.0,0.0,-0.3122287242962065,0.0,0.0,0.0,0.0,0.0,0.0,-12.232,0.0,0.0,0.0
576,0.0,0.0,0.0,-0.330744140625,0.0,0.0,0.0,0.0,0.0,0.0,0.547,0.0,0.0,0.0,0.0,0.0,0.0,-0.3070931628014566,0.0,0.0,0.0,0.0,0.0,0.0,-13.24,0.0,0.0,0.0
577,0.0,0.0,0.0,-0.325384765625,0.0,0.0,0.0,0.0,0.0,0.0,0.581,0.0,0.0,0.0,0.0,0.0,0.0,-0.3019207537564755,0.0,0.0,0.0,0.0,0.0,0.0,-14.156,0.0,0.0,0.0
578,0.0,0.0,0.0,-0.320466796875,0.0,0.0,0.0,0.0,0.0,0.0,0.516,0.0,0.0,0.0,0.0,0.0,0.0,-0.29669101740548576,0.0,0.0,0.0,0.0,0.0,0.0,-13.216,0.0,0.0,0.0
579,0.0,0.0,0.0,-0.314962890625,0.0,0.0,0.0,0.0,0.0,0.0,0.518,0.0,0.0,0.0,0.0,0.0,0.0,-0.29150579596618575,0.0,0.0,0.0,0.0,0.0,0.0,-12.256,0.0,0.0,0.0
580,0.0,0.0,0.0,-0.3100361328125,0.0,0.0,0.0,0.0,0.0,0.0,0.535,0.0,0.0,0.0,0.0,0.0,0.0,-0.28621749149946735,0.0,0.0,0.0,0.0,0.0,0.0,-12.576,0.0,0.0,0.0
581,0.0,0.0,0.0,-0.305109375,0.0,0.0,0.0,0.0,0.0,0.0,0.484,0.0,0.0,0.0,0.0,0.0,0.0,-0.2809548497351602,0.0,0.0,0.0,0.0,0.0,0.0,-11.892,0.0,0.0,0.0
582,0.0,0.0,0.0,-0.299171875,0.0,0.0,0.0,0.0,0.0,0.0,0.542,0.0,0.0,0.0,0.0,0.0,0.0,-0.27561698188196443,0.0,0.0,0.0,0.0,0.0,0.0,-13.124,0.0,0.0,0.0
583,0.0,0.0,0.0,-0.2936767578125,0.0,0.0,0.0,0.0,0.0,0.0,0.586,0.0,0.0,0.0,0.0,0.0,0.0,-0.27028235597829636,0.0,0.0,0.0,0.0,0.0,0.0,-13.468,0.0,0.0,0.0
584,0.0,0.0,0.0,-0.2888935546875,0.0,0.0,0.0,0.0,0.0,0.0,0.517,0.0,0.0,0.0,0.0,0.0,0.0,-0.2649170661864871,0.0,0.0,0.0,0.0,0.0,0.0,-13.652,0.0,0.0,0.0
585,0.0,0.0,0.0,-0.283966796875,0.0,0.0,0.0,0.0,0.0,0.0,0.488,0.0,0.0,0.0,0.0,0.0,0.0,-0.25952791247371254,0.0,0.0,0.0,0.0,0.0,0.0,-14.108,0.0,0.0,0.0
586,0.0,0.0,0.0,-0.2793291015625,0.0,0.0,0.0,0.0,0.0,0.0,0.483,0.0,0.0,0.0,0.0,0.0,0.0,-0.25406622533010426,0.0,0.0,0.0,0.0,0.0,0.0,-14.248,0.0,0.0,0.0
587,0.0,0.0,0.0,-0.2742666015625,0.0,0.0,0.0,0.0,0.0,0.0,0.483,0.0,0.0,0.0,0.0,0.0,0.0,-0.24850455019765527,0.0,0.0,0.0,0.0,0.0,0.0,-13.856,0.0,0.0,0.0
588,0.0,0.0,0.0,-0.2687626953125,0.0,0.0,0.0,0.0,0.0,0.0,0.533,0.0,0.0,0.0,0.0,0.0,0.0,-0.24312755548889123,0.0,0.0,0.0,0.0,0.0,0.0,-14.84,0.0,0.0,0.0
589,0.0,0.0,0.0,-0.263412109375,0.0,0.0,0.0,0.0,0.0,0.0,0.546,0.0,0.0,0.0,0.0,0.0,0.0,-0.2376549865748572,0.0,0.0,0.0,0.0,0.0,0.0,-14.336,0.0,0.0,0.0
590,0.0,0.0,0.0,-0.2578984375,0.0,0.0,0.0,0.0,0.0,0.0,0.541,0.0,0.0,0.0,0.0,0.0,0.0,-0.2320868419947521,0.0,0.0,0.0,0.0,0.0,0.0,-13.516,0.0,0.0,0.0
591,0.0,0.0,0.0,-0.25225,0.0,0.0,0.0,0.0,0.0,0.0,0.561,0.0,0.0,0.0,0.0,0.0,0.0,-0.2265717885669502,0.0,0.0,0.0,0.0,0.0,0.0,-13.376,0.0,0.0,0.0
592,0.0,0.0,0.0,-0.2468896484375,0.0,0.0,0.0,0.0,0.0,0.0,0.555,0.0,0.0,0.0,0.0,0.0,0.0,-0.22050544784678675,0.0,0.0,0.0,0.0,0.0,0.0,-12.852,0.0,0.0,0.0
593,0.0,0.0,0.0,-0.24139453125,0.0,0.0,0.0,0.0,0.0,0.0,0.538,0.0,0.0,0.0,0.0,0.0,0.0,-0.21542691266028516,0.0,0.0,0.0,0.0,0.0,0.0,-12.464,0.0,0.0,0.0
594,0.0,0.0,0.0,-0.2353037109375,0.0,0.0,0.0,0.0,0.0,0.0,0.579,0.0,0.0,0.0,0.0,0.0,0.0,-0.2098500907929359,0.0,0.0,0.0,0.0,0.0,0.0,-12.92,0.0,0.0,0.0
595,0.0,0.0,0.0,-0.2296552734375,0.0,0.0,0.0,0.0,0.0,0.0,0.599,0.0,0.0,0.0,0.0,0.0,0.0,-0.2041983282055778,0.0,0.0,0.0,0.0,0.0,0.0,-12.944,0.0,0.0,0.0
596,0.0,0.0,0.0,-0.2240068359375,0.0,0.0,0.0,0.0,0.0,0.0,0.567,0.0,0.0,0.0,0.0,0.0,0.0,-0.1983758787909643,0.0,0.0,0.0,0.0,0.0,0.0,-13.356,0.0,0.0,0.0
597,0.0,0.0,0.0,-0.2183671875,0.0,0.0,0.0,0.0,0.0,0.0,0.561,0.0,0.0,0.0,0.0,0.0,0.0,-0.19288812839492517,0.0,0.0,0.0,0.0,0.0,0.0,-13.836,0.0,0.0,0.0
598,0.0,0.0,0.0,-0.2130068359375,0.0,0.0,0.0,0.0,0.0,0.0,0.562,0.0,0.0,0.0,0.0,0.0,0.0,-0.18722617103604758,0.0,0.0,0.0,0.0,0.0,0.0,-14.176,0.0,0.0,0.0
599,0.0,0.0,0.0,-0.207205078125,0.0,0.0,0.0,0.0,0.0,0.0,0.56,0.0,0.0,0.0,0.0,0.0,0.0,-0.18149250622192165,0.0,0.0,0.0,0.0,0.0,0.0,-14.2,0.0,0.0,0.0
600,0.0,0.0,0.0,-0.201267578125,0.0,0.0,0.0,0.0,0.0,0.0,0.59,0.0,0.0,0.0,0.0,0.0,0.0,-0.1757583206794719,0.0,0.0,0.0,0.0,0.0,0.0,-13.88,0.0,0.0,0.0
601,0.0,0.0,0.0,-0.1957724609375,0.0,0.0,0.0,0.0,0.0,0.0,0.578,0.0,0.0,0.0,0.0,0.0,0.0,-0.17001914222908865,0.0,0.0,0.0,0.0,0.0,0.0,-13.788,0.0,0.0,0.0
602,0.0,0.0,0.0,-0.1898349609375,0.0,0.0,0.0,0.0,0.0,0.0,0.567,0.0,0.0,0.0,0.0,0.0,0.0,-0.1641054574074397,0.0,0.0,0.0,0.0,0.0,0.0,-13.604,0.0,0.0,0.0
603,0.0,0.0,0.0,-0.184033203125,0.0,0.0,0.0,0.0,0.0,0.0,0.6,0.0,0.0,0.0,0.0,0.0,0.0,-0.15852578633824957,0.0,0.0,0.0,0.0,0.0,0.0,-14.108,0.0,0.0,0.0
604,0.0,0.0,0.0,-0.1786728515625,0.0,0.0,0.0,0.0,0.0,0.0,0.553,0.0,0.0,0.0,0.0,0.0,0.0,-0.15270848275405519,0.0,0.0,0.0,0.0,0.0,0.0,-13.264,0.0,0.0,0.0
605,0.0,0.0,0.0,-0.1727353515625,0.0,0.0,0.0,0.0,0.0,0.0,0.566,0.0,0.0,0.0,0.0,0.0,0.0,-0.14684208475493643,0.0,0.0,0.0,0.0,0.0,0.0,-13.4,0.0,0.0,0.0
606,0.0,0.0,0.0,-0.166951171875,0.0,0.0,0.0,0.0,0.0,0.0,0.603,0.0,0.0,0.0,0.0,0.0,0.0,-0.14103899870912798,0.0,0.0,0.0,0.0,0.0,0.0,-13.516,0.0,0.0,0.0
607,0.0,0.0,0.0,-0.1610048828125,0.0,0.0,0.0,0.0,0.0,0.0,0.584,0.0,0.0,0.0,0.0,0.0,0.0,-0.13524630341675467,0.0,0.0,0.0,0.0,0.0,0.0,-13.676,0.0,0.0,0.0
608,0.0,0.0,0.0,-0.1550673828125,0.0,0.0,0.0,0.0,0.0,0.0,0.599,0.0,0.0,0.0,0.0,0.0,0.0,-0.1293542503672082,0.0,0.0,0.0,0.0,0.0,0.0,-14.908,0.0,0.0,0.0
609,0.0,0.0,0.0,-0.14999609375,0.0,0.0,0.0,0.0,0.0,0.0,0.553,0.0,0.0,0.0,0.0,0.0,0.0,-0.12352411956958034,0.0,0.0,0.0,0.0,0.0,0.0,-15.136,0.0,0.0,0.0
610,0.0,0.0,0.0,-0.144203125,0.0,0.0,0.0,0.0,0.0,0.0,0.534,0.0,0.0,0.0,0.0,0.0,0.0,-0.11764194619074819,0.0,0.0,0.0,0.0,0.0,0.0,-14.636,0.0,0.0,0.0
611,0.0,0.0,0.0,-0.1382568359375,0.0,0.0,0.0,0.0,0.0,0.0,0.596,0.0,0.0,0.0,0.0,0.0,0.0,-0.1117201615540892,0.0,0.0,0.0,0.0,0.0,0.0,-13.836,0.0,0.0,0.0
612,0.0,0.0,0.0,-0.1326171875,0.0,0.0,0.0,0.0,0.0,0.0,0.583,0.0,0.0,0.0,0.0,0.0,0.0,-0.10585734514136308,0.0,0.0,0.0,0.0,0.0,0.0,-13.24,0.0,0.0,0.0
613,0.0,0.0,0.0,-0.1262470703125,0.0,0.0,0.0,0.0,0.0,0.0,0.597,0.0,0.0,0.0,0.0,0.0,0.0,-0.09995812446994273,0.0,0.0,0.0,0.0,0.0,0.0,-13.652,0.0,0.0,0.0
614,0.0,0.0,0.0,-0.1204541015625,0.0,0.0,0.0,0.0,0.0,0.0,0.621,0.0,0.0,0.0,0.0,0.0,0.0,-0.0939973794948163,0.0,0.0,0.0,0.0,0.0,0.0,-14.408,0.0,0.0,0.0
615,0.0,0.0,0.0,-0.1150849609375,0.0,0.0,0.0,0.0,0.0,0.0,0.563,0.0,0.0,0.0,0.0,0.0,0.0,-0.0880562580692884,0.0,0.0,0.0,0.0,0.0,0.0,-13.676,0.0,0.0,0.0
616,0.0,0.0,0.0,-0.1091474609375,0.0,0.0,0.0,0.0,0.0,0.0,0.569,0.0,0.0,0.0,0.0,0.0,0.0,-0.08212217056612585,0.0,0.0,0.0,0.0,0.0,0.0,-13.192,0.0,0.0,0.0
617,0.0,0.0,0.0,-0.1036435546875,0.0,0.0,0.0,0.0,0.0,0.0,0.579,0.0,0.0,0.0,0.0,0.0,0.0,-0.07617520292641465,0.0,0.0,0.0,0.0,0.0,0.0,-13.032,0.0,0.0,0.0
618,0.0,0.0,0.0,-0.0978505859375,0.0,0.0,0.0,0.0,0.0,0.0,0.56,0.0,0.0,0.0,0.0,0.0,0.0,-0.07015569376766251,0.0,0.0,0.0,0.0,0.0,0.0,-13.332,0.0,0.0,0.0
619,0.0,0.0,0.0,-0.091615234375,0.0,0.0,0.0,0.0,0.0,0.0,0.605,0.0,0.0,0.0,0.0,0.0,0.0,-0.0642703932759507,0.0,0.0,0.0,0.0,0.0,0.0,-14.68,0.0,0.0,0.0
620,0.0,0.0,0.0,-0.0861201171875,0.0,0.0,0.0,0.0,0.0,0.0,0.59,0.0,0.0,0.0,0.0,0.0,0.0,-0.05830066758269375,0.0,0.0,0.0,0.0,0.0,0.0,-14.864,0.0,0.0,0.0
621,0.0,0.0,0.0,-0.0800380859375,0.0,0.0,0.0,0.0,0.0,0.0,0.575,0.0,0.0,0.0,0.0,0.0,0.0,-0.052342922901722745,0.0,0.0,0.0,0.0,0.0,0.0,-14.52,0.0,0.0,0.0
622,0.0,0.0,0.0,-0.074091796875,0.0,0.0,0.0,0.0,0.0,0.0,0.611,0.0,0.0,0.0,0.0,0.0,0.0,-0.04637355509977173,0.0,0.0,0.0,0.0,0.0,0.0,-13.764,0.0,0.0,0.0
623,0.0,0.0,0.0,-0.0684423828125,0.0,0.0,0.0,0.0,0.0,0.0,0.581,0.0,0.0,0.0,0.0,0.0,0.0,-0.0403694505532896,0.0,0.0,0.0,0.0,0.0,0.0,-13.104,0.0,0.0,0.0
624,0.0,0.0,0.0,-0.062216796875,0.0,0.0,0.0,0.0,0.0,0.0,0.592,0.0,0.0,0.0,0.0,0.0,0.0,-0.0343565693608964,0.0,0.0,0.0,0.0,0.0,0.0,-13.788,0.0,0.0,0.0
625,0.0,0.0,0.0,-0.056423828125,0.0,0.0,0.0,0.0,0.0,0.0,0.61,0.0,0.0,0.0,0.0,0.0,0.0,-0.02839723788505122,0.0,0.0,0.0,0.0,0.0,0.0,-14.108,0.0,0.0,0.0
626,0.0,0.0,0.0,-0.05062109375,0.0,0.0,0.0,0.0,0.0,0.0,0.574,0.0,0.0,0.0,0.0,0.0,0.0,-0.022385779160057843,0.0,0.0,0.0,0.0,0.0,0.0,-13.652,0.0,0.0,0.0
627,0.0,0.0,0.0,-0.0446845703125,0.0,0.0,0.0,0.0,0.0,0.0,0.597,0.0,0.0,0.0,0.0,0.0,0.0,-0.01635962844757684,0.0,0.0,0.0,0.0,0.0,0.0,-13.492,0.0,0.0,0.0
628,0.0,0.0,0.0,-0.0391884765625,0.0,0.0,0.0,0.0,0.0,0.0,0.575,0.0,0.0,0.0,0.0,0.0,0.0,-0.010425939329584825,0.0,0.0,0.0,0.0,0.0,0.0,-13.628,0.0,0.0,0.0
629,0.0,0.0,0.0,-0.033107421875,0.0,0.0,0.0,0.0,0.0,0.0,0.574,0.0,0.0,0.0,0.0,0.0,0.0,-0.004381941938434018,0.0,0.0,0.0,0.0,0.0,0.0,-14.108,0.0,0.0,0.0
630,0.0,0.0,0.0,-0.0271611328125,0.0,0.0,0.0,0.0,0.0,0.0,0.611,0.0,0.0,0.0,0.0,0.0,0.0,0.0016221598922057663,0.0,0.0,0.0,0.0,0.0,0.0,-15.068,0.0,0.0,0.0
631,0.0,0.0,0.0,-0.0213671875,0.0,0.0,0.0,0.0,0.0,0.0,0.58,0.0,0.0,0.0,0.0,0.0,0.0,7.724761962677221e-06,0.0,0.0,0.0,0.0,0.0,0.0,-14.888,0.0,0.0,0.0
632,0.0,0.0,0.0,-0.0151416015625,0.0,0.0,0.0,0.0,0.0,0.0,0.609,0.0,0.0,0.0,0.0,0.0,0.0,0.00679120821087582,0.0,0.0,0.0,0.0,0.0,0.0,-14.612,0.0,0.0,0.0
633,0.0,0.0,0.0,-0.0093486328125,0.0,0.0,0.0,0.0,0.0,0.0,0.613,0.0,0.0,0.0,0.0,0.0,0.0,0.01200991526264586,0.0,0.0,0.0,0.0,0.0,0.0,-13.996,0.0,0.0,0.0
634,0.0,0.0,0.0,-0.0036904296875,0.0,0.0,0.0,0.0,0.0,0.0,0.57,0.0,0.0,0.0,0.0,0.0,0.0,0.01799184946472831,0.0,0.0,0.0,0.0,0.0,0.0,-14.316,0.0,0.0,0.0
635,0.0,0.0,0.0,0.00079296875,0.0,0.0,0.0,0.0,0.0,0.0,0.534,0.0,0.0,0.0,0.0,0.0,0.0,0.024013302896753238,0.0,0.0,0.0,0.0,0.0,0.0,-15.572,0.0,0.0,0.0
636,0.0,0.0,0.0,0.0054306640625,0.0,0.0,0.0,0.0,0.0,0.0,0.445,0.0,0.0,0.0,0.0,0.0,0.0,0.030057623116519,0.0,0.0,0.0,0.0,0.0,0.0,-13.996,0.0,0.0,0.0
637,0.0,0.0,0.0,0.011080078125,0.0,0.0,0.0,0.0,0.0,0.0,0.514,0.0,0.0,0.0,0.0,0.0,0.0,0.035953237888473266,0.0,0.0,0.0,0.0,0.0,0.0,-14.156,0.0,0.0,0.0
638,0.0,0.0,0.0,0.0157177734375,0.0,0.0,0.0,0.0,0.0,0.0,0.529,0.0,0.0,0.0,0.0,0.0,0.0,0.04194297898641428,0.0,0.0,0.0,0.0,0.0,0.0,-14.04,0.0,0.0,0.0
639,0.0,0.0,0.0,0.02093359375,0.0,0.0,0.0,0.0,0.0,0.0,0.483,0.0,0.0,0.0,0.0,0.0,0.0,0.047966737527126733,0.0,0.0,0.0,0.0,0.0,0.0,-14.04,0.0,0.0,0.0
640,0.0,0.0,0.0,0.02658203125,0.0,0.0,0.0,0.0,0.0,0.0,0.557,0.0,0.0,0.0,0.0,0.0,0.0,0.053903142858929186,0.0,0.0,0.0,0.0,0.0,0.0,-15.344,0.0,0.0,0.0
641,0.0,0.0,0.0,0.0315087890625,0.0,0.0,0.0,0.0,0.0,0.0,0.529,0.0,0.0,0.0,0.0,0.0,0.0,0.059901274081764086,0.0,0.0,0.0,0.0,0.0,0.0,-14.292,0.0,0.0,0.0
642,0.0,0.0,0.0,0.0371572265625,0.0,0.0,0.0,0.0,0.0,0.0,0.52,0.0,0.0,0.0,0.0,0.0,0.0,0.0659152611548312,0.0,0.0,0.0,0.0,0.0,0.0,-14.2,0.0,0.0,0.0
643,0.0,0.0,0.0,0.0428056640625,0.0,0.0,0.0,0.0,0.0,0.0,0.576,0.0,0.0,0.0,0.0,0.0,0.0,0.07181177573493785,0.0,0.0,0.0,0.0,0.0,0.0,-14.36,0.0,0.0,0.0
644,0.0,0.0,0.0,0.0487431640625,0.0,0.0,0.0,0.0,0.0,0.0,0.573,0.0,0.0,0.0,0.0,0.0,0.0,0.0777828231614353,0.0,0.0,0.0,0.0,0.0,0.0,-13.264,0.0,0.0,0.0
645,0.0,0.0,0.0,0.0545458984375,0.0,0.0,0.0,0.0,0.0,0.0,0.6,0.0,0.0,0.0,0.0,0.0,0.0,0.08375072005850283,0.0,0.0,0.0,0.0,0.0,0.0,-13.604,0.0,0.0,0.0
646,0.0,0.0,0.0,0.0601943359375,0.0,0.0,0.0,0.0,0.0,0.0,0.574,0.0,0.0,0.0,0.0,0.0,0.0,0.08966222883785414,0.0,0.0,0.0,0.0,0.0,0.0,-13.104,0.0,0.0,0.0
647,0.0,0.0,0.0,0.0659873046875,0.0,0.0,0.0,0.0,0.0,0.0,0.567,0.0,0.0,0.0,0.0,0.0,0.0,0.0955767111581051,0.0,0.0,0.0,0.0,0.0,0.0,-12.6,0.0,0.0,0.0
648,0.0,0.0,0.0,0.0716357421875,0.0,0.0,0.0,0.0,0.0,0.0,0.576,0.0,0.0,0.0,0.0,0.0,0.0,0.10152298947697556,0.0,0.0,0.0,0.0,0.0,0.0,-12.852,0.0,0.0,0.0
649,0.0,0.0,0.0,0.07758203125,0.0,0.0,0.0,0.0,0.0,0.0,0.575,0.0,0.0,0.0,0.0,0.0,0.0,0.107404694619307,0.0,0.0,0.0,0.0,0.0,0.0,-12.804,0.0,0.0,0.0
650,0.0,0.0,0.0,0.08351953125,0.0,0.0,0.0,0.0,0.0,0.0,0.602,0.0,0.0,0.0,0.0,0.0,0.0,0.11331410640859924,0.0,0.0,0.0,0.0,0.0,0.0,-13.56,0.0,0.0,0.0
651,0.0,0.0,0.0,0.0891591796875,0.0,0.0,0.0,0.0,0.0,0.0,0.584,0.0,0.0,0.0,0.0,0.0,0.0,0.11923036730225237,0.0,0.0,0.0,0.0,0.0,0.0,-13.628,0.0,0.0,0.0
652,0.0,0.0,0.0,0.0949521484375,0.0,0.0,0.0,0.0,0.0,0.0,0.574,0.0,0.0,0.0,0.0,0.0,0.0,0.125087015037858,0.0,0.0,0.0,0.0,0.0,0.0,-13.788,0.0,0.0,0.0
653,0.0,0.0,0.0,0.1008984375,0.0,0.0,0.0,0.0,0.0,0.0,0.593,0.0,0.0,0.0,0.0,0.0,0.0,0.13093653417136875,0.0,0.0,0.0,0.0,0.0,0.0,-14.268,0.0,0.0,0.0
654,0.0,0.0,0.0,0.1068271484375,0.0,0.0,0.0,0.0,0.0,0.0,0.59,0.0,0.0,0.0,0.0,0.0,0.0,0.13679641441494655,0.0,0.0,0.0,0.0,0.0,0.0,-13.996,0.0,0.0,0.0
655,0.0,0.0,0.0,0.113197265625,0.0,0.0,0.0,0.0,0.0,0.0,0.62,0.0,0.0,0.0,0.0,0.0,0.0,0.14261810763649901,0.0,0.0,0.0,0.0,0.0,0.0,-13.604,0.0,0.0,0.0
656,0.0,0.0,0.0,0.11914453125,0.0,0.0,0.0,0.0,0.0,0.0,0.62,0.0,0.0,0.0,0.0,0.0,0.0,0.14843530673602087,0.0,0.0,0.0,0.0,0.0,0.0,-13.492,0.0,0.0,0.0
657,0.0,0.0,0.0,0.1252255859375,0.0,0.0,0.0,0.0,0.0,0.0,0.608,0.0,0.0,0.0,0.0,0.0,0.0,0.15423961626684154,0.0,0.0,0.0,0.0,0.0,0.0,-13.696,0.0,0.0,0.0
658,0.0,0.0,0.0,0.1311630859375,0.0,0.0,0.0,0.0,0.0,0.0,0.605,0.0,0.0,0.0,0.0,0.0,0.0,0.16006835464163183,0.0,0.0,0.0,0.0,0.0,0.0,-13.536,0.0,0.0,0.0
659,0.0,0.0,0.0,0.137109375,0.0,0.0,0.0,0.0,0.0,0.0,0.592,0.0,0.0,0.0,0.0,0.0,0.0,0.165820246633294,0.0,0.0,0.0,0.0,0.0,0.0,-13.444,0.0,0.0,0.0
660,0.0,0.0,0.0,0.14319140625,0.0,0.0,0.0,0.0,0.0,0.0,0.602,0.0,0.0,0.0,0.0,0.0,0.0,0.17169783186527673,0.0,0.0,0.0,0.0,0.0,0.0,-13.4,0.0,0.0,0.0
661,0.0,0.0,0.0,0.14912890625,0.0,0.0,0.0,0.0,0.0,0.0,0.601,0.0,0.0,0.0,0.0,0.0,0.0,0.17732589947328056,0.0,0.0,0.0,0.0,0.0,0.0,-13.88,0.0,0.0,0.0
662,0.0,0.0,0.0,0.1552109375,0.0,0.0,0.0,0.0,0.0,0.0,0.602,0.0,0.0,0.0,0.0,0.0,0.0,0.1830562650692278,0.0,0.0,0.0,0.0,0.0,0.0,-14.336,0.0,0.0,0.0
663,0.0,0.0,0.0,0.1611572265625,0.0,0.0,0.0,0.0,0.0,0.0,0.609,0.0,0.0,0.0,0.0,0.0,0.0,0.18877180851884032,0.0,0.0,0.0,0.0,0.0,0.0,-14.976,0.0,0.0,0.0
664,0.0,0.0,0.0,0.1672392578125,0.0,0.0,0.0,0.0,0.0,0.0,0.604,0.0,0.0,0.0,0.0,0.0,0.0,0.1945188798375351,0.0,0.0,0.0,0.0,0.0,0.0,-14.864,0.0,0.0,0.0
665,0.0,0.0,0.0,0.1733203125,0.0,0.0,0.0,0.0,0.0,0.0,0.614,0.0,0.0,0.0,0.0,0.0,0.0,0.20011931379464462,0.0,0.0,0.0,0.0,0.0,0.0,-14.2,0.0,0.0,0.0
666,0.0,0.0,0.0,0.179267578125,0.0,0.0,0.0,0.0,0.0,0.0,0.609,0.0,0.0,0.0,0.0,0.0,0.0,0.2057257303465253,0.0,0.0,0.0,0.0,0.0,0.0,-13.744,0.0,0.0,0.0
667,0.0,0.0,0.0,0.1852041015625,0.0,0.0,0.0,0.0,0.0,0.0,0.597,0.0,0.0,0.0,0.0,0.0,0.0,0.21141615827446986,0.0,0.0,0.0,0.0,0.0,0.0,-13.56,0.0,0.0,0.0
668,0.0,0.0,0.0,0.190998046875,0.0,0.0,0.0,0.0,0.0,0.0,0.592,0.0,0.0,0.0,0.0,0.0,0.0,0.21698213204185865,0.0,0.0,0.0,0.0,0.0,0.0,-13.744,0.0,0.0,0.0
