EmanuelSamir/lab201_ws_projsamir/sawyer_dev/data/sawyer/vel_sin_motion_incrf/test_joint4/validation_data_4.csv
,j1,j2,j3,j4,j5,j6,j7,v1,v2,v3,v4,v5,v6,v7,jd1,jd2,jd3,jd4,jd5,jd6,jd7,e1,e2,e3,e4,e5,e6,e7
0,0.0,0.0,0.0,0.0,0.0,0.0,0.0,0.0,0.0,0.0,0.0,0.0,0.0,0.0,0.0,0.0,0.0,0.0,0.0,0.0,0.0,0.0,0.0,0.0,0.0,0.0,0.0,0.0
1,0.0,0.0,0.0,-0.0042685546875,0.0,0.0,0.0,0.0,0.0,0.0,-0.001,0.0,0.0,0.0,0.0,0.0,0.0,0.00019969939816843988,0.0,0.0,0.0,0.0,0.0,0.0,-14.108,0.0,0.0,0.0
2,0.0,0.0,0.0,-0.0042685546875,0.0,0.0,0.0,0.0,0.0,0.0,-0.001,0.0,0.0,0.0,0.0,0.0,0.0,0.023768307679721146,0.0,0.0,0.0,0.0,0.0,0.0,-14.176,0.0,0.0,0.0
3,0.0,0.0,0.0,-0.0042685546875,0.0,0.0,0.0,0.0,0.0,0.0,-0.001,0.0,0.0,0.0,0.0,0.0,0.0,0.04765502210500878,0.0,0.0,0.0,0.0,0.0,0.0,-14.224,0.0,0.0,0.0
4,0.0,0.0,0.0,-0.0042685546875,0.0,0.0,0.0,0.0,0.0,0.0,-0.001,0.0,0.0,0.0,0.0,0.0,0.0,0.07153468137319552,0.0,0.0,0.0,0.0,0.0,0.0,-14.132,0.0,0.0,0.0
5,0.0,0.0,0.0,-0.0041240234375,0.0,0.0,0.0,0.0,0.0,0.0,0.004,0.0,0.0,0.0,0.0,0.0,0.0,0.09535413453730036,0.0,0.0,0.0,0.0,0.0,0.0,-13.468,0.0,0.0,0.0
6,0.0,0.0,0.0,-0.00282421875,0.0,0.0,0.0,0.0,0.0,0.0,0.061,0.0,0.0,0.0,0.0,0.0,0.0,0.11869840640514423,0.0,0.0,0.0,0.0,0.0,0.0,-11.96,0.0,0.0,0.0
7,0.0,0.0,0.0,-7.32421875e-05,0.0,0.0,0.0,0.0,0.0,0.0,0.191,0.0,0.0,0.0,0.0,0.0,0.0,0.14223012427731685,0.0,0.0,0.0,0.0,0.0,0.0,-11.068,0.0,0.0,0.0
8,0.0,0.0,0.0,0.003400390625,0.0,0.0,0.0,0.0,0.0,0.0,0.303,0.0,0.0,0.0,0.0,0.0,0.0,0.16549535600906698,0.0,0.0,0.0,0.0,0.0,0.0,-10.448,0.0,0.0,0.0
9,0.0,0.0,0.0,0.00760546875,0.0,0.0,0.0,0.0,0.0,0.0,0.38,0.0,0.0,0.0,0.0,0.0,0.0,0.18857843738609478,0.0,0.0,0.0,0.0,0.0,0.0,-10.496,0.0,0.0,0.0
10,0.0,0.0,0.0,0.0123876953125,0.0,0.0,0.0,0.0,0.0,0.0,0.451,0.0,0.0,0.0,0.0,0.0,0.0,0.21117850859524653,0.0,0.0,0.0,0.0,0.0,0.0,-10.288,0.0,0.0,0.0
11,0.0,0.0,0.0,0.017314453125,0.0,0.0,0.0,0.0,0.0,0.0,0.49,0.0,0.0,0.0,0.0,0.0,0.0,0.23327970900772707,0.0,0.0,0.0,0.0,0.0,0.0,-9.696,0.0,0.0,0.0
12,0.0,0.0,0.0,0.0228193359375,0.0,0.0,0.0,0.0,0.0,0.0,0.504,0.0,0.0,0.0,0.0,0.0,0.0,0.2550363090813168,0.0,0.0,0.0,0.0,0.0,0.0,-8.848,0.0,0.0,0.0
13,0.0,0.0,0.0,0.029333984375,0.0,0.0,0.0,0.0,0.0,0.0,0.604,0.0,0.0,0.0,0.0,0.0,0.0,0.27649256204063977,0.0,0.0,0.0,0.0,0.0,0.0,-9.488,0.0,0.0,0.0
14,0.0,0.0,0.0,0.0358583984375,0.0,0.0,0.0,0.0,0.0,0.0,0.658,0.0,0.0,0.0,0.0,0.0,0.0,0.29771160345199016,0.0,0.0,0.0,0.0,0.0,0.0,-10.54,0.0,0.0,0.0
15,0.0,0.0,0.0,0.0426611328125,0.0,0.0,0.0,0.0,0.0,0.0,0.66,0.0,0.0,0.0,0.0,0.0,0.0,0.3182706412484377,0.0,0.0,0.0,0.0,0.0,0.0,-11.16,0.0,0.0,0.0
16,0.0,0.0,0.0,0.0493212890625,0.0,0.0,0.0,0.0,0.0,0.0,0.683,0.0,0.0,0.0,0.0,0.0,0.0,0.3382428421086562,0.0,0.0,0.0,0.0,0.0,0.0,-11.5,0.0,0.0,0.0
17,0.0,0.0,0.0,0.0558447265625,0.0,0.0,0.0,0.0,0.0,0.0,0.661,0.0,0.0,0.0,0.0,0.0,0.0,0.35815172325709194,0.0,0.0,0.0,0.0,0.0,0.0,-9.948,0.0,0.0,0.0
18,0.0,0.0,0.0,0.0635234375,0.0,0.0,0.0,0.0,0.0,0.0,0.713,0.0,0.0,0.0,0.0,0.0,0.0,0.3768183869300303,0.0,0.0,0.0,0.0,0.0,0.0,-10.2,0.0,0.0,0.0
19,0.0,0.0,0.0,0.0704716796875,0.0,0.0,0.0,0.0,0.0,0.0,0.741,0.0,0.0,0.0,0.0,0.0,0.0,0.3952500676381859,0.0,0.0,0.0,0.0,0.0,0.0,-11.572,0.0,0.0,0.0
20,0.0,0.0,0.0,0.0774375,0.0,0.0,0.0,0.0,0.0,0.0,0.692,0.0,0.0,0.0,0.0,0.0,0.0,0.413079976844045,0.0,0.0,0.0,0.0,0.0,0.0,-12.12,0.0,0.0,0.0
21,0.0,0.0,0.0,0.0845302734375,0.0,0.0,0.0,0.0,0.0,0.0,0.721,0.0,0.0,0.0,0.0,0.0,0.0,0.43007433400872347,0.0,0.0,0.0,0.0,0.0,0.0,-12.988,0.0,0.0,0.0
22,0.0,0.0,0.0,0.091333984375,0.0,0.0,0.0,0.0,0.0,0.0,0.696,0.0,0.0,0.0,0.0,0.0,0.0,0.4464060987273767,0.0,0.0,0.0,0.0,0.0,0.0,-12.828,0.0,0.0,0.0
23,0.0,0.0,0.0,0.0985888671875,0.0,0.0,0.0,0.0,0.0,0.0,0.7,0.0,0.0,0.0,0.0,0.0,0.0,0.4621574105418996,0.0,0.0,0.0,0.0,0.0,0.0,-13.836,0.0,0.0,0.0
24,0.0,0.0,0.0,0.1052392578125,0.0,0.0,0.0,0.0,0.0,0.0,0.704,0.0,0.0,0.0,0.0,0.0,0.0,0.4769901796500164,0.0,0.0,0.0,0.0,0.0,0.0,-15.092,0.0,0.0,0.0
25,0.0,0.0,0.0,0.1124755859375,0.0,0.0,0.0,0.0,0.0,0.0,0.693,0.0,0.0,0.0,0.0,0.0,0.0,0.4911803160759189,0.0,0.0,0.0,0.0,0.0,0.0,-14.588,0.0,0.0,0.0
26,0.0,0.0,0.0,0.1194326171875,0.0,0.0,0.0,0.0,0.0,0.0,0.716,0.0,0.0,0.0,0.0,0.0,0.0,0.5045570968874937,0.0,0.0,0.0,0.0,0.0,0.0,-14.336,0.0,0.0,0.0
27,0.0,0.0,0.0,0.1262451171875,0.0,0.0,0.0,0.0,0.0,0.0,0.698,0.0,0.0,0.0,0.0,0.0,0.0,0.5172118050757948,0.0,0.0,0.0,0.0,0.0,0.0,-14.496,0.0,0.0,0.0
28,0.0,0.0,0.0,0.1326162109375,0.0,0.0,0.0,0.0,0.0,0.0,0.666,0.0,0.0,0.0,0.0,0.0,0.0,0.5289087782712268,0.0,0.0,0.0,0.0,0.0,0.0,-14.888,0.0,0.0,0.0
29,0.0,0.0,0.0,0.1392841796875,0.0,0.0,0.0,0.0,0.0,0.0,0.646,0.0,0.0,0.0,0.0,0.0,0.0,0.5398656323379148,0.0,0.0,0.0,0.0,0.0,0.0,-15.16,0.0,0.0,0.0
30,0.0,0.0,0.0,0.145943359375,0.0,0.0,0.0,0.0,0.0,0.0,0.679,0.0,0.0,0.0,0.0,0.0,0.0,0.5499045878797107,0.0,0.0,0.0,0.0,0.0,0.0,-15.252,0.0,0.0,0.0
31,0.0,0.0,0.0,0.1526025390625,0.0,0.0,0.0,0.0,0.0,0.0,0.662,0.0,0.0,0.0,0.0,0.0,0.0,0.5590276596690563,0.0,0.0,0.0,0.0,0.0,0.0,-15.116,0.0,0.0,0.0
32,0.0,0.0,0.0,0.159271484375,0.0,0.0,0.0,0.0,0.0,0.0,0.674,0.0,0.0,0.0,0.0,0.0,0.0,0.5673034399585983,0.0,0.0,0.0,0.0,0.0,0.0,-17.08,0.0,0.0,0.0
33,0.0,0.0,0.0,0.165208984375,0.0,0.0,0.0,0.0,0.0,0.0,0.643,0.0,0.0,0.0,0.0,0.0,0.0,0.5746862782846879,0.0,0.0,0.0,0.0,0.0,0.0,-17.54,0.0,0.0,0.0
34,0.0,0.0,0.0,0.171876953125,0.0,0.0,0.0,0.0,0.0,0.0,0.618,0.0,0.0,0.0,0.0,0.0,0.0,0.581094866721733,0.0,0.0,0.0,0.0,0.0,0.0,-16.44,0.0,0.0,0.0
35,0.0,0.0,0.0,0.1782568359375,0.0,0.0,0.0,0.0,0.0,0.0,0.662,0.0,0.0,0.0,0.0,0.0,0.0,0.5866065398947732,0.0,0.0,0.0,0.0,0.0,0.0,-15.48,0.0,0.0,0.0
36,0.0,0.0,0.0,0.184337890625,0.0,0.0,0.0,0.0,0.0,0.0,0.624,0.0,0.0,0.0,0.0,0.0,0.0,0.5912237367563647,0.0,0.0,0.0,0.0,0.0,0.0,-14.796,0.0,0.0,0.0
37,0.0,0.0,0.0,0.190419921875,0.0,0.0,0.0,0.0,0.0,0.0,0.619,0.0,0.0,0.0,0.0,0.0,0.0,0.5948037589833779,0.0,0.0,0.0,0.0,0.0,0.0,-15.528,0.0,0.0,0.0
38,0.0,0.0,0.0,0.1959248046875,0.0,0.0,0.0,0.0,0.0,0.0,0.586,0.0,0.0,0.0,0.0,0.0,0.0,0.5974883185202493,0.0,0.0,0.0,0.0,0.0,0.0,-15.252,0.0,0.0,0.0
39,0.0,0.0,0.0,0.201861328125,0.0,0.0,0.0,0.0,0.0,0.0,0.574,0.0,0.0,0.0,0.0,0.0,0.0,0.5992085703540987,0.0,0.0,0.0,0.0,0.0,0.0,-14.476,0.0,0.0,0.0
40,0.0,0.0,0.0,0.2072216796875,0.0,0.0,0.0,0.0,0.0,0.0,0.572,0.0,0.0,0.0,0.0,0.0,0.0,0.5999593275694215,0.0,0.0,0.0,0.0,0.0,0.0,-13.904,0.0,0.0,0.0
41,0.0,0.0,0.0,0.2127255859375,0.0,0.0,0.0,0.0,0.0,0.0,0.545,0.0,0.0,0.0,0.0,0.0,0.0,0.5997586634848293,0.0,0.0,0.0,0.0,0.0,0.0,-13.924,0.0,0.0,0.0
42,0.0,0.0,0.0,0.2183837890625,0.0,0.0,0.0,0.0,0.0,0.0,0.565,0.0,0.0,0.0,0.0,0.0,0.0,0.5985854549297674,0.0,0.0,0.0,0.0,0.0,0.0,-14.728,0.0,0.0,0.0
43,0.0,0.0,0.0,0.223734375,0.0,0.0,0.0,0.0,0.0,0.0,0.559,0.0,0.0,0.0,0.0,0.0,0.0,0.5964865710105346,0.0,0.0,0.0,0.0,0.0,0.0,-15.16,0.0,0.0,0.0
44,0.0,0.0,0.0,0.2290947265625,0.0,0.0,0.0,0.0,0.0,0.0,0.53,0.0,0.0,0.0,0.0,0.0,0.0,0.593411354082889,0.0,0.0,0.0,0.0,0.0,0.0,-14.588,0.0,0.0,0.0
45,0.0,0.0,0.0,0.234751953125,0.0,0.0,0.0,0.0,0.0,0.0,0.548,0.0,0.0,0.0,0.0,0.0,0.0,0.5893754862629147,0.0,0.0,0.0,0.0,0.0,0.0,-13.788,0.0,0.0,0.0
46,0.0,0.0,0.0,0.2401123046875,0.0,0.0,0.0,0.0,0.0,0.0,0.559,0.0,0.0,0.0,0.0,0.0,0.0,0.5844337610407492,0.0,0.0,0.0,0.0,0.0,0.0,-13.284,0.0,0.0,0.0
47,0.0,0.0,0.0,0.245318359375,0.0,0.0,0.0,0.0,0.0,0.0,0.525,0.0,0.0,0.0,0.0,0.0,0.0,0.5785083182596215,0.0,0.0,0.0,0.0,0.0,0.0,-12.828,0.0,0.0,0.0
48,0.0,0.0,0.0,0.250966796875,0.0,0.0,0.0,0.0,0.0,0.0,0.547,0.0,0.0,0.0,0.0,0.0,0.0,0.5716797892307957,0.0,0.0,0.0,0.0,0.0,0.0,-13.356,0.0,0.0,0.0
49,0.0,0.0,0.0,0.2560478515625,0.0,0.0,0.0,0.0,0.0,0.0,0.545,0.0,0.0,0.0,0.0,0.0,0.0,0.5639626765798618,0.0,0.0,0.0,0.0,0.0,0.0,-13.056,0.0,0.0,0.0
50,0.0,0.0,0.0,0.2615517578125,0.0,0.0,0.0,0.0,0.0,0.0,0.526,0.0,0.0,0.0,0.0,0.0,0.0,0.5553470246035365,0.0,0.0,0.0,0.0,0.0,0.0,-12.508,0.0,0.0,0.0
51,0.0,0.0,0.0,0.267046875,0.0,0.0,0.0,0.0,0.0,0.0,0.551,0.0,0.0,0.0,0.0,0.0,0.0,0.5457531033249468,0.0,0.0,0.0,0.0,0.0,0.0,-12.532,0.0,0.0,0.0
52,0.0,0.0,0.0,0.2722626953125,0.0,0.0,0.0,0.0,0.0,0.0,0.538,0.0,0.0,0.0,0.0,0.0,0.0,0.5354237003058258,0.0,0.0,0.0,0.0,0.0,0.0,-12.852,0.0,0.0,0.0
53,0.0,0.0,0.0,0.277919921875,0.0,0.0,0.0,0.0,0.0,0.0,0.544,0.0,0.0,0.0,0.0,0.0,0.0,0.5241835709299145,0.0,0.0,0.0,0.0,0.0,0.0,-12.872,0.0,0.0,0.0
54,0.0,0.0,0.0,0.2834248046875,0.0,0.0,0.0,0.0,0.0,0.0,0.563,0.0,0.0,0.0,0.0,0.0,0.0,0.5119682251682477,0.0,0.0,0.0,0.0,0.0,0.0,-13.652,0.0,0.0,0.0
55,0.0,0.0,0.0,0.2890732421875,0.0,0.0,0.0,0.0,0.0,0.0,0.557,0.0,0.0,0.0,0.0,0.0,0.0,0.4991539067749747,0.0,0.0,0.0,0.0,0.0,0.0,-13.744,0.0,0.0,0.0
56,0.0,0.0,0.0,0.29501953125,0.0,0.0,0.0,0.0,0.0,0.0,0.581,0.0,0.0,0.0,0.0,0.0,0.0,0.4854744487094038,0.0,0.0,0.0,0.0,0.0,0.0,-12.896,0.0,0.0,0.0
57,0.0,0.0,0.0,0.3009482421875,0.0,0.0,0.0,0.0,0.0,0.0,0.602,0.0,0.0,0.0,0.0,0.0,0.0,0.4707397558073458,0.0,0.0,0.0,0.0,0.0,0.0,-12.508,0.0,0.0,0.0
58,0.0,0.0,0.0,0.3065966796875,0.0,0.0,0.0,0.0,0.0,0.0,0.584,0.0,0.0,0.0,0.0,0.0,0.0,0.4556890472932257,0.0,0.0,0.0,0.0,0.0,0.0,-12.576,0.0,0.0,0.0
59,0.0,0.0,0.0,0.31254296875,0.0,0.0,0.0,0.0,0.0,0.0,0.58,0.0,0.0,0.0,0.0,0.0,0.0,0.4397374483216496,0.0,0.0,0.0,0.0,0.0,0.0,-12.6,0.0,0.0,0.0
60,0.0,0.0,0.0,0.3183359375,0.0,0.0,0.0,0.0,0.0,0.0,0.592,0.0,0.0,0.0,0.0,0.0,0.0,0.42289834256000874,0.0,0.0,0.0,0.0,0.0,0.0,-12.464,0.0,0.0,0.0
61,0.0,0.0,0.0,0.3242734375,0.0,0.0,0.0,0.0,0.0,0.0,0.586,0.0,0.0,0.0,0.0,0.0,0.0,0.4056298467734364,0.0,0.0,0.0,0.0,0.0,0.0,-12.348,0.0,0.0,0.0
62,0.0,0.0,0.0,0.3302109375,0.0,0.0,0.0,0.0,0.0,0.0,0.601,0.0,0.0,0.0,0.0,0.0,0.0,0.3877151048093547,0.0,0.0,0.0,0.0,0.0,0.0,-12.348,0.0,0.0,0.0
63,0.0,0.0,0.0,0.3360126953125,0.0,0.0,0.0,0.0,0.0,0.0,0.59,0.0,0.0,0.0,0.0,0.0,0.0,0.36894433355183825,0.0,0.0,0.0,0.0,0.0,0.0,-12.828,0.0,0.0,0.0
64,0.0,0.0,0.0,0.3420947265625,0.0,0.0,0.0,0.0,0.0,0.0,0.598,0.0,0.0,0.0,0.0,0.0,0.0,0.3495446808000494,0.0,0.0,0.0,0.0,0.0,0.0,-13.492,0.0,0.0,0.0
65,0.0,0.0,0.0,0.3481767578125,0.0,0.0,0.0,0.0,0.0,0.0,0.612,0.0,0.0,0.0,0.0,0.0,0.0,0.3300900737259843,0.0,0.0,0.0,0.0,0.0,0.0,-13.904,0.0,0.0,0.0
66,0.0,0.0,0.0,0.3542578125,0.0,0.0,0.0,0.0,0.0,0.0,0.606,0.0,0.0,0.0,0.0,0.0,0.0,0.3097099425408912,0.0,0.0,0.0,0.0,0.0,0.0,-14.292,0.0,0.0,0.0
67,0.0,0.0,0.0,0.358607421875,0.0,0.0,0.0,0.0,0.0,0.0,0.563,0.0,0.0,0.0,0.0,0.0,0.0,0.28873518659699327,0.0,0.0,0.0,0.0,0.0,0.0,-18.5,0.0,0.0,0.0
68,0.0,0.0,0.0,0.358462890625,0.0,0.0,0.0,0.0,0.0,0.0,0.251,0.0,0.0,0.0,0.0,0.0,0.0,0.2674674352462004,0.0,0.0,0.0,0.0,0.0,0.0,-22.112,0.0,0.0,0.0
69,0.0,0.0,0.0,0.3575966796875,0.0,0.0,0.0,0.0,0.0,0.0,-0.054,0.0,0.0,0.0,0.0,0.0,0.0,0.24562702880578355,0.0,0.0,0.0,0.0,0.0,0.0,-22.412,0.0,0.0,0.0
70,0.0,0.0,0.0,0.355421875,0.0,0.0,0.0,0.0,0.0,0.0,-0.129,0.0,0.0,0.0,0.0,0.0,0.0,0.22376903750571958,0.0,0.0,0.0,0.0,0.0,0.0,-23.072,0.0,0.0,0.0
71,0.0,0.0,0.0,0.351515625,0.0,0.0,0.0,0.0,0.0,0.0,-0.31,0.0,0.0,0.0,0.0,0.0,0.0,0.20156686684035308,0.0,0.0,0.0,0.0,0.0,0.0,-21.612,0.0,0.0,0.0
72,0.0,0.0,0.0,0.34787890625,0.0,0.0,0.0,0.0,0.0,0.0,-0.384,0.0,0.0,0.0,0.0,0.0,0.0,0.1787448016396428,0.0,0.0,0.0,0.0,0.0,0.0,-22.48,0.0,0.0,0.0
73,0.0,0.0,0.0,0.3438271484375,0.0,0.0,0.0,0.0,0.0,0.0,-0.369,0.0,0.0,0.0,0.0,0.0,0.0,0.15563026719373224,0.0,0.0,0.0,0.0,0.0,0.0,-24.376,0.0,0.0,0.0
74,0.0,0.0,0.0,0.3381787109375,0.0,0.0,0.0,0.0,0.0,0.0,-0.466,0.0,0.0,0.0,0.0,0.0,0.0,0.1323847444105272,0.0,0.0,0.0,0.0,0.0,0.0,-25.064,0.0,0.0,0.0
75,0.0,0.0,0.0,0.3310771484375,0.0,0.0,0.0,0.0,0.0,0.0,-0.632,0.0,0.0,0.0,0.0,0.0,0.0,0.1087775565923122,0.0,0.0,0.0,0.0,0.0,0.0,-23.76,0.0,0.0,0.0
76,0.0,0.0,0.0,0.3232626953125,0.0,0.0,0.0,0.0,0.0,0.0,-0.748,0.0,0.0,0.0,0.0,0.0,0.0,0.08515631553874316,0.0,0.0,0.0,0.0,0.0,0.0,-22.388,0.0,0.0,0.0
77,0.0,0.0,0.0,0.315294921875,0.0,0.0,0.0,0.0,0.0,0.0,-0.805,0.0,0.0,0.0,0.0,0.0,0.0,0.06132099963848974,0.0,0.0,0.0,0.0,0.0,0.0,-19.78,0.0,0.0,0.0
78,0.0,0.0,0.0,0.308482421875,0.0,0.0,0.0,0.0,0.0,0.0,-0.75,0.0,0.0,0.0,0.0,0.0,0.0,0.03740629376021939,0.0,0.0,0.0,0.0,0.0,0.0,-18.5,0.0,0.0,0.0
79,0.0,0.0,0.0,0.3009482421875,0.0,0.0,0.0,0.0,0.0,0.0,-0.701,0.0,0.0,0.0,0.0,0.0,0.0,0.013234967547797493,0.0,0.0,0.0,0.0,0.0,0.0,-20.1,0.0,0.0,0.0
80,0.0,0.0,0.0,0.29240234375,0.0,0.0,0.0,0.0,0.0,0.0,-0.809,0.0,0.0,0.0,0.0,0.0,0.0,-0.010564262932830054,0.0,0.0,0.0,0.0,0.0,0.0,-21.312,0.0,0.0,0.0
81,0.0,0.0,0.0,0.2834248046875,0.0,0.0,0.0,0.0,0.0,0.0,-0.882,0.0,0.0,0.0,0.0,0.0,0.0,-0.034607937541652437,0.0,0.0,0.0,0.0,0.0,0.0,-18.82,0.0,0.0,0.0
82,0.0,0.0,0.0,0.2757451171875,0.0,0.0,0.0,0.0,0.0,0.0,-0.859,0.0,0.0,0.0,0.0,0.0,0.0,-0.05894446409088515,0.0,0.0,0.0,0.0,0.0,0.0,-14.384,0.0,0.0,0.0
83,0.0,0.0,0.0,0.26806640625,0.0,0.0,0.0,0.0,0.0,0.0,-0.749,0.0,0.0,0.0,0.0,0.0,0.0,-0.08249201857959883,0.0,0.0,0.0,0.0,0.0,0.0,-14.976,0.0,0.0,0.0
84,0.0,0.0,0.0,0.259087890625,0.0,0.0,0.0,0.0,0.0,0.0,-0.845,0.0,0.0,0.0,0.0,0.0,0.0,-0.10599126411241136,0.0,0.0,0.0,0.0,0.0,0.0,-14.612,0.0,0.0,0.0
85,0.0,0.0,0.0,0.251544921875,0.0,0.0,0.0,0.0,0.0,0.0,-0.852,0.0,0.0,0.0,0.0,0.0,0.0,-0.1296188185846049,0.0,0.0,0.0,0.0,0.0,0.0,-14.796,0.0,0.0,0.0
86,0.0,0.0,0.0,0.2441630859375,0.0,0.0,0.0,0.0,0.0,0.0,-0.742,0.0,0.0,0.0,0.0,0.0,0.0,-0.15279329758794238,0.0,0.0,0.0,0.0,0.0,0.0,-13.516,0.0,0.0,0.0
87,0.0,0.0,0.0,0.235330078125,0.0,0.0,0.0,0.0,0.0,0.0,-0.8,0.0,0.0,0.0,0.0,0.0,0.0,-0.1758533912861059,0.0,0.0,0.0,0.0,0.0,0.0,-12.76,0.0,0.0,0.0
88,0.0,0.0,0.0,0.226630859375,0.0,0.0,0.0,0.0,0.0,0.0,-0.898,0.0,0.0,0.0,0.0,0.0,0.0,-0.19870878326108946,0.0,0.0,0.0,0.0,0.0,0.0,-12.072,0.0,0.0,0.0
89,0.0,0.0,0.0,0.2196826171875,0.0,0.0,0.0,0.0,0.0,0.0,-0.801,0.0,0.0,0.0,0.0,0.0,0.0,-0.2211941762287515,0.0,0.0,0.0,0.0,0.0,0.0,-12.004,0.0,0.0,0.0
90,0.0,0.0,0.0,0.2130146484375,0.0,0.0,0.0,0.0,0.0,0.0,-0.687,0.0,0.0,0.0,0.0,0.0,0.0,-0.24319112629813822,0.0,0.0,0.0,0.0,0.0,0.0,-11.02,0.0,0.0,0.0
91,0.0,0.0,0.0,0.2056337890625,0.0,0.0,0.0,0.0,0.0,0.0,-0.698,0.0,0.0,0.0,0.0,0.0,0.0,-0.2652712738479225,0.0,0.0,0.0,0.0,0.0,0.0,-11.96,0.0,0.0,0.0
92,0.0,0.0,0.0,0.197810546875,0.0,0.0,0.0,0.0,0.0,0.0,-0.764,0.0,0.0,0.0,0.0,0.0,0.0,-0.2863570497559481,0.0,0.0,0.0,0.0,0.0,0.0,-11.912,0.0,0.0,0.0
93,0.0,0.0,0.0,0.190853515625,0.0,0.0,0.0,0.0,0.0,0.0,-0.749,0.0,0.0,0.0,0.0,0.0,0.0,-0.3072308054598042,0.0,0.0,0.0,0.0,0.0,0.0,-11.136,0.0,0.0,0.0
94,0.0,0.0,0.0,0.184337890625,0.0,0.0,0.0,0.0,0.0,0.0,-0.68,0.0,0.0,0.0,0.0,0.0,0.0,-0.32760883528082124,0.0,0.0,0.0,0.0,0.0,0.0,-9.696,0.0,0.0,0.0
95,0.0,0.0,0.0,0.1772373046875,0.0,0.0,0.0,0.0,0.0,0.0,-0.682,0.0,0.0,0.0,0.0,0.0,0.0,-0.34737570548997204,0.0,0.0,0.0,0.0,0.0,0.0,-10.108,0.0,0.0,0.0
96,0.0,0.0,0.0,0.1702802734375,0.0,0.0,0.0,0.0,0.0,0.0,-0.713,0.0,0.0,0.0,0.0,0.0,0.0,-0.36677483189531024,0.0,0.0,0.0,0.0,0.0,0.0,-11.456,0.0,0.0,0.0
97,0.0,0.0,0.0,0.1641982421875,0.0,0.0,0.0,0.0,0.0,0.0,-0.659,0.0,0.0,0.0,0.0,0.0,0.0,-0.3855271052080042,0.0,0.0,0.0,0.0,0.0,0.0,-12.12,0.0,0.0,0.0
98,0.0,0.0,0.0,0.1582607421875,0.0,0.0,0.0,0.0,0.0,0.0,-0.604,0.0,0.0,0.0,0.0,0.0,0.0,-0.40373710327333123,0.0,0.0,0.0,0.0,0.0,0.0,-11.136,0.0,0.0,0.0
99,0.0,0.0,0.0,0.1526025390625,0.0,0.0,0.0,0.0,0.0,0.0,-0.588,0.0,0.0,0.0,0.0,0.0,0.0,-0.4210844513864003,0.0,0.0,0.0,0.0,0.0,0.0,-11.16,0.0,0.0,0.0
100,0.0,0.0,0.0,0.146376953125,0.0,0.0,0.0,0.0,0.0,0.0,-0.596,0.0,0.0,0.0,0.0,0.0,0.0,-0.4377760790967722,0.0,0.0,0.0,0.0,0.0,0.0,-11.96,0.0,0.0,0.0
101,0.0,0.0,0.0,0.140294921875,0.0,0.0,0.0,0.0,0.0,0.0,-0.625,0.0,0.0,0.0,0.0,0.0,0.0,-0.4538854551259599,0.0,0.0,0.0,0.0,0.0,0.0,-12.12,0.0,0.0,0.0
102,0.0,0.0,0.0,0.13478125,0.0,0.0,0.0,0.0,0.0,0.0,-0.583,0.0,0.0,0.0,0.0,0.0,0.0,-0.46908915859275474,0.0,0.0,0.0,0.0,0.0,0.0,-11.936,0.0,0.0,0.0
103,0.0,0.0,0.0,0.1294306640625,0.0,0.0,0.0,0.0,0.0,0.0,-0.545,0.0,0.0,0.0,0.0,0.0,0.0,-0.48371819126693893,0.0,0.0,0.0,0.0,0.0,0.0,-11.616,0.0,0.0,0.0
104,0.0,0.0,0.0,0.12421484375,0.0,0.0,0.0,0.0,0.0,0.0,-0.536,0.0,0.0,0.0,0.0,0.0,0.0,-0.4977494908944745,0.0,0.0,0.0,0.0,0.0,0.0,-12.348,0.0,0.0,0.0
105,0.0,0.0,0.0,0.119,0.0,0.0,0.0,0.0,0.0,0.0,-0.522,0.0,0.0,0.0,0.0,0.0,0.0,-0.5105903712192887,0.0,0.0,0.0,0.0,0.0,0.0,-13.788,0.0,0.0,0.0
106,0.0,0.0,0.0,0.113341796875,0.0,0.0,0.0,0.0,0.0,0.0,-0.548,0.0,0.0,0.0,0.0,0.0,0.0,-0.5228384910513774,0.0,0.0,0.0,0.0,0.0,0.0,-14.932,0.0,0.0,0.0
107,0.0,0.0,0.0,0.1082802734375,0.0,0.0,0.0,0.0,0.0,0.0,-0.544,0.0,0.0,0.0,0.0,0.0,0.0,-0.5341625870740709,0.0,0.0,0.0,0.0,0.0,0.0,-14.248,0.0,0.0,0.0
108,0.0,0.0,0.0,0.1034970703125,0.0,0.0,0.0,0.0,0.0,0.0,-0.5,0.0,0.0,0.0,0.0,0.0,0.0,-0.5445659704940772,0.0,0.0,0.0,0.0,0.0,0.0,-14.2,0.0,0.0,0.0
109,0.0,0.0,0.0,0.0985888671875,0.0,0.0,0.0,0.0,0.0,0.0,-0.495,0.0,0.0,0.0,0.0,0.0,0.0,-0.5542290964955314,0.0,0.0,0.0,0.0,0.0,0.0,-14.084,0.0,0.0,0.0
110,0.0,0.0,0.0,0.0940859375,0.0,0.0,0.0,0.0,0.0,0.0,-0.466,0.0,0.0,0.0,0.0,0.0,0.0,-0.5629920735622248,0.0,0.0,0.0,0.0,0.0,0.0,-15.412,0.0,0.0,0.0
111,0.0,0.0,0.0,0.0888701171875,0.0,0.0,0.0,0.0,0.0,0.0,-0.476,0.0,0.0,0.0,0.0,0.0,0.0,-0.5707640643857752,0.0,0.0,0.0,0.0,0.0,0.0,-15.62,0.0,0.0,0.0
112,0.0,0.0,0.0,0.083375,0.0,0.0,0.0,0.0,0.0,0.0,-0.547,0.0,0.0,0.0,0.0,0.0,0.0,-0.5777052821328604,0.0,0.0,0.0,0.0,0.0,0.0,-15.048,0.0,0.0,0.0
113,0.0,0.0,0.0,0.0783037109375,0.0,0.0,0.0,0.0,0.0,0.0,-0.534,0.0,0.0,0.0,0.0,0.0,0.0,-0.5837718131265248,0.0,0.0,0.0,0.0,0.0,0.0,-14.704,0.0,0.0,0.0
114,0.0,0.0,0.0,0.0732236328125,0.0,0.0,0.0,0.0,0.0,0.0,-0.517,0.0,0.0,0.0,0.0,0.0,0.0,-0.5888119516190928,0.0,0.0,0.0,0.0,0.0,0.0,-14.796,0.0,0.0,0.0
115,0.0,0.0,0.0,0.0683056640625,0.0,0.0,0.0,0.0,0.0,0.0,-0.505,0.0,0.0,0.0,0.0,0.0,0.0,-0.5929605333401167,0.0,0.0,0.0,0.0,0.0,0.0,-15.504,0.0,0.0,0.0
116,0.0,0.0,0.0,0.0632353515625,0.0,0.0,0.0,0.0,0.0,0.0,-0.495,0.0,0.0,0.0,0.0,0.0,0.0,-0.5961603365195113,0.0,0.0,0.0,0.0,0.0,0.0,-16.44,0.0,0.0,0.0
117,0.0,0.0,0.0,0.0574423828125,0.0,0.0,0.0,0.0,0.0,0.0,-0.537,0.0,0.0,0.0,0.0,0.0,0.0,-0.5983881267351437,0.0,0.0,0.0,0.0,0.0,0.0,-16.008,0.0,0.0,0.0
118,0.0,0.0,0.0,0.0514951171875,0.0,0.0,0.0,0.0,0.0,0.0,-0.595,0.0,0.0,0.0,0.0,0.0,0.0,-0.5996670320440901,0.0,0.0,0.0,0.0,0.0,0.0,-15.892,0.0,0.0,0.0
119,0.0,0.0,0.0,0.0459912109375,0.0,0.0,0.0,0.0,0.0,0.0,-0.582,0.0,0.0,0.0,0.0,0.0,0.0,-0.5999860669148611,0.0,0.0,0.0,0.0,0.0,0.0,-15.548,0.0,0.0,0.0
120,0.0,0.0,0.0,0.04078515625,0.0,0.0,0.0,0.0,0.0,0.0,-0.541,0.0,0.0,0.0,0.0,0.0,0.0,-0.5993457580467897,0.0,0.0,0.0,0.0,0.0,0.0,-15.756,0.0,0.0,0.0
121,0.0,0.0,0.0,0.0355693359375,0.0,0.0,0.0,0.0,0.0,0.0,-0.52,0.0,0.0,0.0,0.0,0.0,0.0,-0.5977330730206641,0.0,0.0,0.0,0.0,0.0,0.0,-16.532,0.0,0.0,0.0
122,0.0,0.0,0.0,0.0300556640625,0.0,0.0,0.0,0.0,0.0,0.0,-0.536,0.0,0.0,0.0,0.0,0.0,0.0,-0.5951526511925802,0.0,0.0,0.0,0.0,0.0,0.0,-16.396,0.0,0.0,0.0
123,0.0,0.0,0.0,0.0239736328125,0.0,0.0,0.0,0.0,0.0,0.0,-0.578,0.0,0.0,0.0,0.0,0.0,0.0,-0.5916583547330829,0.0,0.0,0.0,0.0,0.0,0.0,-15.32,0.0,0.0,0.0
124,0.0,0.0,0.0,0.017603515625,0.0,0.0,0.0,0.0,0.0,0.0,-0.632,0.0,0.0,0.0,0.0,0.0,0.0,-0.5872463752502939,0.0,0.0,0.0,0.0,0.0,0.0,-14.84,0.0,0.0,0.0
125,0.0,0.0,0.0,0.0115126953125,0.0,0.0,0.0,0.0,0.0,0.0,-0.633,0.0,0.0,0.0,0.0,0.0,0.0,-0.5817885208693702,0.0,0.0,0.0,0.0,0.0,0.0,-14.176,0.0,0.0,0.0
126,0.0,0.0,0.0,0.0055751953125,0.0,0.0,0.0,0.0,0.0,0.0,-0.598,0.0,0.0,0.0,0.0,0.0,0.0,-0.5755048039123899,0.0,0.0,0.0,0.0,0.0,0.0,-14.588,0.0,0.0,0.0
127,0.0,0.0,0.0,-0.000216796875,0.0,0.0,0.0,0.0,0.0,0.0,-0.594,0.0,0.0,0.0,0.0,0.0,0.0,-0.5682949029546022,0.0,0.0,0.0,0.0,0.0,0.0,-14.888,0.0,0.0,0.0
128,0.0,0.0,0.0,-0.006298828125,0.0,0.0,0.0,0.0,0.0,0.0,-0.593,0.0,0.0,0.0,0.0,0.0,0.0,-0.5601000864930816,0.0,0.0,0.0,0.0,0.0,0.0,-15.136,0.0,0.0,0.0
129,0.0,0.0,0.0,-0.012966796875,0.0,0.0,0.0,0.0,0.0,0.0,-0.643,0.0,0.0,0.0,0.0,0.0,0.0,-0.5510788512402718,0.0,0.0,0.0,0.0,0.0,0.0,-15.528,0.0,0.0,0.0
130,0.0,0.0,0.0,-0.019193359375,0.0,0.0,0.0,0.0,0.0,0.0,-0.657,0.0,0.0,0.0,0.0,0.0,0.0,-0.5411566750757412,0.0,0.0,0.0,0.0,0.0,0.0,-14.476,0.0,0.0,0.0
131,0.0,0.0,0.0,-0.0252744140625,0.0,0.0,0.0,0.0,0.0,0.0,-0.611,0.0,0.0,0.0,0.0,0.0,0.0,-0.5302962641653884,0.0,0.0,0.0,0.0,0.0,0.0,-14.568,0.0,0.0,0.0
132,0.0,0.0,0.0,-0.0312216796875,0.0,0.0,0.0,0.0,0.0,0.0,-0.611,0.0,0.0,0.0,0.0,0.0,0.0,-0.51867402644766,0.0,0.0,0.0,0.0,0.0,0.0,-14.156,0.0,0.0,0.0
133,0.0,0.0,0.0,-0.0368701171875,0.0,0.0,0.0,0.0,0.0,0.0,-0.585,0.0,0.0,0.0,0.0,0.0,0.0,-0.5062837030696263,0.0,0.0,0.0,0.0,0.0,0.0,-14.68,0.0,0.0,0.0
134,0.0,0.0,0.0,-0.043384765625,0.0,0.0,0.0,0.0,0.0,0.0,-0.601,0.0,0.0,0.0,0.0,0.0,0.0,-0.49290704712704464,0.0,0.0,0.0,0.0,0.0,0.0,-15.0,0.0,0.0,0.0
135,0.0,0.0,0.0,-0.049611328125,0.0,0.0,0.0,0.0,0.0,0.0,-0.656,0.0,0.0,0.0,0.0,0.0,0.0,-0.4788214942724828,0.0,0.0,0.0,0.0,0.0,0.0,-13.468,0.0,0.0,0.0
136,0.0,0.0,0.0,-0.055845703125,0.0,0.0,0.0,0.0,0.0,0.0,-0.616,0.0,0.0,0.0,0.0,0.0,0.0,-0.4640163595789501,0.0,0.0,0.0,0.0,0.0,0.0,-13.972,0.0,0.0,0.0
137,0.0,0.0,0.0,-0.062216796875,0.0,0.0,0.0,0.0,0.0,0.0,-0.637,0.0,0.0,0.0,0.0,0.0,0.0,-0.44839111371408125,0.0,0.0,0.0,0.0,0.0,0.0,-13.216,0.0,0.0,0.0
138,0.0,0.0,0.0,-0.067865234375,0.0,0.0,0.0,0.0,0.0,0.0,-0.613,0.0,0.0,0.0,0.0,0.0,0.0,-0.4320228308455828,0.0,0.0,0.0,0.0,0.0,0.0,-13.72,0.0,0.0,0.0
139,0.0,0.0,0.0,-0.073947265625,0.0,0.0,0.0,0.0,0.0,0.0,-0.582,0.0,0.0,0.0,0.0,0.0,0.0,-0.41511033782436924,0.0,0.0,0.0,0.0,0.0,0.0,-15.252,0.0,0.0,0.0
140,0.0,0.0,0.0,-0.0801826171875,0.0,0.0,0.0,0.0,0.0,0.0,-0.632,0.0,0.0,0.0,0.0,0.0,0.0,-0.39743252120903555,0.0,0.0,0.0,0.0,0.0,0.0,-14.156,0.0,0.0,0.0
141,0.0,0.0,0.0,-0.0859755859375,0.0,0.0,0.0,0.0,0.0,0.0,-0.599,0.0,0.0,0.0,0.0,0.0,0.0,-0.37913955677595595,0.0,0.0,0.0,0.0,0.0,0.0,-14.568,0.0,0.0,0.0
142,0.0,0.0,0.0,-0.092201171875,0.0,0.0,0.0,0.0,0.0,0.0,-0.603,0.0,0.0,0.0,0.0,0.0,0.0,-0.36030502583172674,0.0,0.0,0.0,0.0,0.0,0.0,-13.904,0.0,0.0,0.0
143,0.0,0.0,0.0,-0.0977060546875,0.0,0.0,0.0,0.0,0.0,0.0,-0.596,0.0,0.0,0.0,0.0,0.0,0.0,-0.34065920653045006,0.0,0.0,0.0,0.0,0.0,0.0,-13.628,0.0,0.0,0.0
144,0.0,0.0,0.0,-0.1034990234375,0.0,0.0,0.0,0.0,0.0,0.0,-0.556,0.0,0.0,0.0,0.0,0.0,0.0,-0.32067025400402294,0.0,0.0,0.0,0.0,0.0,0.0,-14.52,0.0,0.0,0.0
145,0.0,0.0,0.0,-0.1095810546875,0.0,0.0,0.0,0.0,0.0,0.0,-0.605,0.0,0.0,0.0,0.0,0.0,0.0,-0.3002607207535242,0.0,0.0,0.0,0.0,0.0,0.0,-13.676,0.0,0.0,0.0
146,0.0,0.0,0.0,-0.1152294921875,0.0,0.0,0.0,0.0,0.0,0.0,-0.591,0.0,0.0,0.0,0.0,0.0,0.0,-0.278421154641785,0.0,0.0,0.0,0.0,0.0,0.0,-13.924,0.0,0.0,0.0
147,0.0,0.0,0.0,-0.12146484375,0.0,0.0,0.0,0.0,0.0,0.0,-0.596,0.0,0.0,0.0,0.0,0.0,0.0,-0.25759690536964275,0.0,0.0,0.0,0.0,0.0,0.0,-13.516,0.0,0.0,0.0
148,0.0,0.0,0.0,-0.12711328125,0.0,0.0,0.0,0.0,0.0,0.0,-0.61,0.0,0.0,0.0,0.0,0.0,0.0,-0.23597048361685077,0.0,0.0,0.0,0.0,0.0,0.0,-13.424,0.0,0.0,0.0
149,0.0,0.0,0.0,-0.13290625,0.0,0.0,0.0,0.0,0.0,0.0,-0.573,0.0,0.0,0.0,0.0,0.0,0.0,-0.21365639848338516,0.0,0.0,0.0,0.0,0.0,0.0,-14.496,0.0,0.0,0.0
150,0.0,0.0,0.0,-0.13884375,0.0,0.0,0.0,0.0,0.0,0.0,-0.59,0.0,0.0,0.0,0.0,0.0,0.0,-0.19095132550869298,0.0,0.0,0.0,0.0,0.0,0.0,-14.796,0.0,0.0,0.0
151,0.0,0.0,0.0,-0.14434765625,0.0,0.0,0.0,0.0,0.0,0.0,-0.577,0.0,0.0,0.0,0.0,0.0,0.0,-0.16816732831077674,0.0,0.0,0.0,0.0,0.0,0.0,-14.956,0.0,0.0,0.0
152,0.0,0.0,0.0,-0.150140625,0.0,0.0,0.0,0.0,0.0,0.0,-0.561,0.0,0.0,0.0,0.0,0.0,0.0,-0.14517360525486384,0.0,0.0,0.0,0.0,0.0,0.0,-14.796,0.0,0.0,0.0
153,0.0,0.0,0.0,-0.1556455078125,0.0,0.0,0.0,0.0,0.0,0.0,-0.58,0.0,0.0,0.0,0.0,0.0,0.0,-0.12152971939778148,0.0,0.0,0.0,0.0,0.0,0.0,-14.248,0.0,0.0,0.0
154,0.0,0.0,0.0,-0.1611494140625,0.0,0.0,0.0,0.0,0.0,0.0,-0.552,0.0,0.0,0.0,0.0,0.0,0.0,-0.09801699650011612,0.0,0.0,0.0,0.0,0.0,0.0,-14.084,0.0,0.0,0.0
155,0.0,0.0,0.0,-0.1649208984375,0.0,0.0,0.0,0.0,0.0,0.0,-0.5,0.0,0.0,0.0,0.0,0.0,0.0,-0.07427188199438144,0.0,0.0,0.0,0.0,0.0,0.0,-10.428,0.0,0.0,0.0
156,0.0,0.0,0.0,-0.1641904296875,0.0,0.0,0.0,0.0,0.0,0.0,-0.192,0.0,0.0,0.0,0.0,0.0,0.0,-0.05034356304597743,0.0,0.0,0.0,0.0,0.0,0.0,-7.772,0.0,0.0,0.0
157,0.0,0.0,0.0,-0.1633154296875,0.0,0.0,0.0,0.0,0.0,0.0,0.093,0.0,0.0,0.0,0.0,0.0,0.0,-0.026418334356676502,0.0,0.0,0.0,0.0,0.0,0.0,-8.024,0.0,0.0,0.0
158,0.0,0.0,0.0,-0.1608603515625,0.0,0.0,0.0,0.0,0.0,0.0,0.127,0.0,0.0,0.0,0.0,0.0,0.0,-0.0025636499568950943,0.0,0.0,0.0,0.0,0.0,0.0,-6.608,0.0,0.0,0.0
159,0.0,0.0,0.0,-0.15593359375,0.0,0.0,0.0,0.0,0.0,0.0,0.377,0.0,0.0,0.0,0.0,0.0,0.0,0.021832042110300952,0.0,0.0,0.0,0.0,0.0,0.0,-9.076,0.0,0.0,0.0
160,0.0,0.0,0.0,-0.152892578125,0.0,0.0,0.0,0.0,0.0,0.0,0.413,0.0,0.0,0.0,0.0,0.0,0.0,3.147125242697552e-05,0.0,0.0,0.0,0.0,0.0,0.0,-6.744,0.0,0.0,0.0
161,0.0,0.0,0.0,-0.147533203125,0.0,0.0,0.0,0.0,0.0,0.0,0.382,0.0,0.0,0.0,0.0,0.0,0.0,0.02408219814729698,0.0,0.0,0.0,0.0,0.0,0.0,-4.116,0.0,0.0,0.0
162,0.0,0.0,0.0,-0.1412978515625,0.0,0.0,0.0,0.0,0.0,0.0,0.592,0.0,0.0,0.0,0.0,0.0,0.0,0.04832920082677524,0.0,0.0,0.0,0.0,0.0,0.0,-5.1,0.0,0.0,0.0
163,0.0,0.0,0.0,-0.134494140625,0.0,0.0,0.0,0.0,0.0,0.0,0.637,0.0,0.0,0.0,0.0,0.0,0.0,0.07192269434420284,0.0,0.0,0.0,0.0,0.0,0.0,-3.816,0.0,0.0,0.0
164,0.0,0.0,0.0,-0.12566015625,0.0,0.0,0.0,0.0,0.0,0.0,0.768,0.0,0.0,0.0,0.0,0.0,0.0,0.0955812303406834,0.0,0.0,0.0,0.0,0.0,0.0,-5.852,0.0,0.0,0.0
165,0.0,0.0,0.0,-0.1184140625,0.0,0.0,0.0,0.0,0.0,0.0,0.846,0.0,0.0,0.0,0.0,0.0,0.0,0.11941794650159428,0.0,0.0,0.0,0.0,0.0,0.0,-8.756,0.0,0.0,0.0
166,0.0,0.0,0.0,-0.1118994140625,0.0,0.0,0.0,0.0,0.0,0.0,0.677,0.0,0.0,0.0,0.0,0.0,0.0,0.142675354848619,0.0,0.0,0.0,0.0,0.0,0.0,-7.452,0.0,0.0,0.0
167,0.0,0.0,0.0,-0.103787109375,0.0,0.0,0.0,0.0,0.0,0.0,0.72,0.0,0.0,0.0,0.0,0.0,0.0,0.16595400983378222,0.0,0.0,0.0,0.0,0.0,0.0,-7.912,0.0,0.0,0.0
168,0.0,0.0,0.0,-0.09567578125,0.0,0.0,0.0,0.0,0.0,0.0,0.825,0.0,0.0,0.0,0.0,0.0,0.0,0.18895646850046996,0.0,0.0,0.0,0.0,0.0,0.0,-8.256,0.0,0.0,0.0
169,0.0,0.0,0.0,-0.0871298828125,0.0,0.0,0.0,0.0,0.0,0.0,0.833,0.0,0.0,0.0,0.0,0.0,0.0,0.21141843417292025,0.0,0.0,0.0,0.0,0.0,0.0,-10.404,0.0,0.0,0.0
170,0.0,0.0,0.0,-0.0787294921875,0.0,0.0,0.0,0.0,0.0,0.0,0.861,0.0,0.0,0.0,0.0,0.0,0.0,0.2339074356083908,0.0,0.0,0.0,0.0,0.0,0.0,-14.108,0.0,0.0,0.0
171,0.0,0.0,0.0,-0.07090625,0.0,0.0,0.0,0.0,0.0,0.0,0.805,0.0,0.0,0.0,0.0,0.0,0.0,0.2557461859794139,0.0,0.0,0.0,0.0,0.0,0.0,-12.896,0.0,0.0,0.0
172,0.0,0.0,0.0,-0.062361328125,0.0,0.0,0.0,0.0,0.0,0.0,0.829,0.0,0.0,0.0,0.0,0.0,0.0,0.27719718437374663,0.0,0.0,0.0,0.0,0.0,0.0,-12.392,0.0,0.0,0.0
173,0.0,0.0,0.0,-0.0554130859375,0.0,0.0,0.0,0.0,0.0,0.0,0.801,0.0,0.0,0.0,0.0,0.0,0.0,0.2983194804054867,0.0,0.0,0.0,0.0,0.0,0.0,-13.516,0.0,0.0,0.0
174,0.0,0.0,0.0,-0.048158203125,0.0,0.0,0.0,0.0,0.0,0.0,0.677,0.0,0.0,0.0,0.0,0.0,0.0,0.3188723860221569,0.0,0.0,0.0,0.0,0.0,0.0,-13.172,0.0,0.0,0.0
175,0.0,0.0,0.0,-0.03903515625,0.0,0.0,0.0,0.0,0.0,0.0,0.829,0.0,0.0,0.0,0.0,0.0,0.0,0.3391081551110162,0.0,0.0,0.0,0.0,0.0,0.0,-16.12,0.0,0.0,0.0
176,0.0,0.0,0.0,-0.031798828125,0.0,0.0,0.0,0.0,0.0,0.0,0.844,0.0,0.0,0.0,0.0,0.0,0.0,0.358594584089307,0.0,0.0,0.0,0.0,0.0,0.0,-16.12,0.0,0.0,0.0
177,0.0,0.0,0.0,-0.024697265625,0.0,0.0,0.0,0.0,0.0,0.0,0.713,0.0,0.0,0.0,0.0,0.0,0.0,0.3775183929787968,0.0,0.0,0.0,0.0,0.0,0.0,-17.404,0.0,0.0,0.0
178,0.0,0.0,0.0,-0.0177490234375,0.0,0.0,0.0,0.0,0.0,0.0,0.717,0.0,0.0,0.0,0.0,0.0,0.0,0.3958150105327313,0.0,0.0,0.0,0.0,0.0,0.0,-19.208,0.0,0.0,0.0
179,0.0,0.0,0.0,-0.0106474609375,0.0,0.0,0.0,0.0,0.0,0.0,0.692,0.0,0.0,0.0,0.0,0.0,0.0,0.4134052226776946,0.0,0.0,0.0,0.0,0.0,0.0,-16.672,0.0,0.0,0.0
180,0.0,0.0,0.0,-0.0023916015625,0.0,0.0,0.0,0.0,0.0,0.0,0.779,0.0,0.0,0.0,0.0,0.0,0.0,0.43054726296746726,0.0,0.0,0.0,0.0,0.0,0.0,-17.172,0.0,0.0,0.0
181,0.0,0.0,0.0,0.0041318359375,0.0,0.0,0.0,0.0,0.0,0.0,0.763,0.0,0.0,0.0,0.0,0.0,0.0,0.4468546730483052,0.0,0.0,0.0,0.0,0.0,0.0,-18.456,0.0,0.0,0.0
182,0.0,0.0,0.0,0.010791015625,0.0,0.0,0.0,0.0,0.0,0.0,0.644,0.0,0.0,0.0,0.0,0.0,0.0,0.4624955018370826,0.0,0.0,0.0,0.0,0.0,0.0,-18.796,0.0,0.0,0.0
183,0.0,0.0,0.0,0.017892578125,0.0,0.0,0.0,0.0,0.0,0.0,0.7,0.0,0.0,0.0,0.0,0.0,0.0,0.477491657093976,0.0,0.0,0.0,0.0,0.0,0.0,-18.98,0.0,0.0,0.0
184,0.0,0.0,0.0,0.0239736328125,0.0,0.0,0.0,0.0,0.0,0.0,0.666,0.0,0.0,0.0,0.0,0.0,0.0,0.49161272914072995,0.0,0.0,0.0,0.0,0.0,0.0,-16.624,0.0,0.0,0.0
185,0.0,0.0,0.0,0.0304892578125,0.0,0.0,0.0,0.0,0.0,0.0,0.621,0.0,0.0,0.0,0.0,0.0,0.0,0.5049267965643156,0.0,0.0,0.0,0.0,0.0,0.0,-16.808,0.0,0.0,0.0
186,0.0,0.0,0.0,0.036724609375,0.0,0.0,0.0,0.0,0.0,0.0,0.658,0.0,0.0,0.0,0.0,0.0,0.0,0.5175713775594779,0.0,0.0,0.0,0.0,0.0,0.0,-19.392,0.0,0.0,0.0
187,0.0,0.0,0.0,0.042373046875,0.0,0.0,0.0,0.0,0.0,0.0,0.596,0.0,0.0,0.0,0.0,0.0,0.0,0.5292571670867484,0.0,0.0,0.0,0.0,0.0,0.0,-18.66,0.0,0.0,0.0
188,0.0,0.0,0.0,0.0488876953125,0.0,0.0,0.0,0.0,0.0,0.0,0.606,0.0,0.0,0.0,0.0,0.0,0.0,0.5400739461225339,0.0,0.0,0.0,0.0,0.0,0.0,-17.652,0.0,0.0,0.0
189,0.0,0.0,0.0,0.0539677734375,0.0,0.0,0.0,0.0,0.0,0.0,0.608,0.0,0.0,0.0,0.0,0.0,0.0,0.5502275124187815,0.0,0.0,0.0,0.0,0.0,0.0,-16.852,0.0,0.0,0.0
190,0.0,0.0,0.0,0.05918359375,0.0,0.0,0.0,0.0,0.0,0.0,0.501,0.0,0.0,0.0,0.0,0.0,0.0,0.5593321950221086,0.0,0.0,0.0,0.0,0.0,0.0,-14.84,0.0,0.0,0.0
191,0.0,0.0,0.0,0.06512109375,0.0,0.0,0.0,0.0,0.0,0.0,0.561,0.0,0.0,0.0,0.0,0.0,0.0,0.5675117867934001,0.0,0.0,0.0,0.0,0.0,0.0,-16.212,0.0,0.0,0.0
192,0.0,0.0,0.0,0.06975,0.0,0.0,0.0,0.0,0.0,0.0,0.543,0.0,0.0,0.0,0.0,0.0,0.0,0.5748755439244052,0.0,0.0,0.0,0.0,0.0,0.0,-15.136,0.0,0.0,0.0
193,0.0,0.0,0.0,0.075263671875,0.0,0.0,0.0,0.0,0.0,0.0,0.499,0.0,0.0,0.0,0.0,0.0,0.0,0.5813284318563631,0.0,0.0,0.0,0.0,0.0,0.0,-14.04,0.0,0.0,0.0
194,0.0,0.0,0.0,0.080478515625,0.0,0.0,0.0,0.0,0.0,0.0,0.553,0.0,0.0,0.0,0.0,0.0,0.0,0.586771944268019,0.0,0.0,0.0,0.0,0.0,0.0,-14.428,0.0,0.0,0.0
195,0.0,0.0,0.0,0.0845302734375,0.0,0.0,0.0,0.0,0.0,0.0,0.462,0.0,0.0,0.0,0.0,0.0,0.0,0.5912971068500334,0.0,0.0,0.0,0.0,0.0,0.0,-13.696,0.0,0.0,0.0
196,0.0,0.0,0.0,0.08974609375,0.0,0.0,0.0,0.0,0.0,0.0,0.456,0.0,0.0,0.0,0.0,0.0,0.0,0.5948997231821062,0.0,0.0,0.0,0.0,0.0,0.0,-14.132,0.0,0.0,0.0
197,0.0,0.0,0.0,0.094375,0.0,0.0,0.0,0.0,0.0,0.0,0.507,0.0,0.0,0.0,0.0,0.0,0.0,0.5975293637509568,0.0,0.0,0.0,0.0,0.0,0.0,-14.316,0.0,0.0,0.0
198,0.0,0.0,0.0,0.099166015625,0.0,0.0,0.0,0.0,0.0,0.0,0.459,0.0,0.0,0.0,0.0,0.0,0.0,0.5992247342317802,0.0,0.0,0.0,0.0,0.0,0.0,-13.284,0.0,0.0,0.0
199,0.0,0.0,0.0,0.10465234375,0.0,0.0,0.0,0.0,0.0,0.0,0.516,0.0,0.0,0.0,0.0,0.0,0.0,0.5999680257922495,0.0,0.0,0.0,0.0,0.0,0.0,-14.156,0.0,0.0,0.0
200,0.0,0.0,0.0,0.1095791015625,0.0,0.0,0.0,0.0,0.0,0.0,0.535,0.0,0.0,0.0,0.0,0.0,0.0,0.5997442386763953,0.0,0.0,0.0,0.0,0.0,0.0,-13.56,0.0,0.0,0.0
201,0.0,0.0,0.0,0.114650390625,0.0,0.0,0.0,0.0,0.0,0.0,0.499,0.0,0.0,0.0,0.0,0.0,0.0,0.5985644871120095,0.0,0.0,0.0,0.0,0.0,0.0,-12.76,0.0,0.0,0.0
202,0.0,0.0,0.0,0.1197216796875,0.0,0.0,0.0,0.0,0.0,0.0,0.506,0.0,0.0,0.0,0.0,0.0,0.0,0.5963554628272165,0.0,0.0,0.0,0.0,0.0,0.0,-12.828,0.0,0.0,0.0
203,0.0,0.0,0.0,0.1246484375,0.0,0.0,0.0,0.0,0.0,0.0,0.501,0.0,0.0,0.0,0.0,0.0,0.0,0.5933306031637381,0.0,0.0,0.0,0.0,0.0,0.0,-12.212,0.0,0.0,0.0
204,0.0,0.0,0.0,0.13015234375,0.0,0.0,0.0,0.0,0.0,0.0,0.519,0.0,0.0,0.0,0.0,0.0,0.0,0.5892804001351521,0.0,0.0,0.0,0.0,0.0,0.0,-11.66,0.0,0.0,0.0
205,0.0,0.0,0.0,0.135810546875,0.0,0.0,0.0,0.0,0.0,0.0,0.566,0.0,0.0,0.0,0.0,0.0,0.0,0.5842124632482376,0.0,0.0,0.0,0.0,0.0,0.0,-12.6,0.0,0.0,0.0
206,0.0,0.0,0.0,0.1410166015625,0.0,0.0,0.0,0.0,0.0,0.0,0.548,0.0,0.0,0.0,0.0,0.0,0.0,0.5783757700187724,0.0,0.0,0.0,0.0,0.0,0.0,-12.14,0.0,0.0,0.0
207,0.0,0.0,0.0,0.146521484375,0.0,0.0,0.0,0.0,0.0,0.0,0.542,0.0,0.0,0.0,0.0,0.0,0.0,0.5715099897324006,0.0,0.0,0.0,0.0,0.0,0.0,-12.6,0.0,0.0,0.0
208,0.0,0.0,0.0,0.151880859375,0.0,0.0,0.0,0.0,0.0,0.0,0.541,0.0,0.0,0.0,0.0,0.0,0.0,0.5636442127965341,0.0,0.0,0.0,0.0,0.0,0.0,-12.6,0.0,0.0,0.0
209,0.0,0.0,0.0,0.1575390625,0.0,0.0,0.0,0.0,0.0,0.0,0.549,0.0,0.0,0.0,0.0,0.0,0.0,0.5550339284487167,0.0,0.0,0.0,0.0,0.0,0.0,-12.552,0.0,0.0,0.0
210,0.0,0.0,0.0,0.1636201171875,0.0,0.0,0.0,0.0,0.0,0.0,0.592,0.0,0.0,0.0,0.0,0.0,0.0,0.5454955598977722,0.0,0.0,0.0,0.0,0.0,0.0,-13.4,0.0,0.0,0.0
211,0.0,0.0,0.0,0.1698466796875,0.0,0.0,0.0,0.0,0.0,0.0,0.616,0.0,0.0,0.0,0.0,0.0,0.0,0.5349487597467462,0.0,0.0,0.0,0.0,0.0,0.0,-13.308,0.0,0.0,0.0
212,0.0,0.0,0.0,0.1759375,0.0,0.0,0.0,0.0,0.0,0.0,0.625,0.0,0.0,0.0,0.0,0.0,0.0,0.523770987398205,0.0,0.0,0.0,0.0,0.0,0.0,-12.896,0.0,0.0,0.0
213,0.0,0.0,0.0,0.18173046875,0.0,0.0,0.0,0.0,0.0,0.0,0.599,0.0,0.0,0.0,0.0,0.0,0.0,0.5115811370441689,0.0,0.0,0.0,0.0,0.0,0.0,-12.644,0.0,0.0,0.0
214,0.0,0.0,0.0,0.1878125,0.0,0.0,0.0,0.0,0.0,0.0,0.59,0.0,0.0,0.0,0.0,0.0,0.0,0.4985991590162308,0.0,0.0,0.0,0.0,0.0,0.0,-12.736,0.0,0.0,0.0
215,0.0,0.0,0.0,0.19389453125,0.0,0.0,0.0,0.0,0.0,0.0,0.608,0.0,0.0,0.0,0.0,0.0,0.0,0.48500596237457305,0.0,0.0,0.0,0.0,0.0,0.0,-12.624,0.0,0.0,0.0
216,0.0,0.0,0.0,0.20041796875,0.0,0.0,0.0,0.0,0.0,0.0,0.629,0.0,0.0,0.0,0.0,0.0,0.0,0.470567276054473,0.0,0.0,0.0,0.0,0.0,0.0,-12.944,0.0,0.0,0.0
217,0.0,0.0,0.0,0.20664453125,0.0,0.0,0.0,0.0,0.0,0.0,0.646,0.0,0.0,0.0,0.0,0.0,0.0,0.4551127033182123,0.0,0.0,0.0,0.0,0.0,0.0,-13.332,0.0,0.0,0.0
218,0.0,0.0,0.0,0.2127255859375,0.0,0.0,0.0,0.0,0.0,0.0,0.62,0.0,0.0,0.0,0.0,0.0,0.0,0.43923570575333765,0.0,0.0,0.0,0.0,0.0,0.0,-13.996,0.0,0.0,0.0
219,0.0,0.0,0.0,0.2189609375,0.0,0.0,0.0,0.0,0.0,0.0,0.619,0.0,0.0,0.0,0.0,0.0,0.0,0.4225629313567279,0.0,0.0,0.0,0.0,0.0,0.0,-14.384,0.0,0.0,0.0
220,0.0,0.0,0.0,0.22504296875,0.0,0.0,0.0,0.0,0.0,0.0,0.617,0.0,0.0,0.0,0.0,0.0,0.0,0.4050957646712824,0.0,0.0,0.0,0.0,0.0,0.0,-14.496,0.0,0.0,0.0
221,0.0,0.0,0.0,0.2314130859375,0.0,0.0,0.0,0.0,0.0,0.0,0.62,0.0,0.0,0.0,0.0,0.0,0.0,0.3870426180834145,0.0,0.0,0.0,0.0,0.0,0.0,-14.2,0.0,0.0,0.0
222,0.0,0.0,0.0,0.2379375,0.0,0.0,0.0,0.0,0.0,0.0,0.648,0.0,0.0,0.0,0.0,0.0,0.0,0.3685317598737924,0.0,0.0,0.0,0.0,0.0,0.0,-13.764,0.0,0.0,0.0
223,0.0,0.0,0.0,0.24401953125,0.0,0.0,0.0,0.0,0.0,0.0,0.639,0.0,0.0,0.0,0.0,0.0,0.0,0.3492227728617829,0.0,0.0,0.0,0.0,0.0,0.0,-13.904,0.0,0.0,0.0
224,0.0,0.0,0.0,0.2502451171875,0.0,0.0,0.0,0.0,0.0,0.0,0.621,0.0,0.0,0.0,0.0,0.0,0.0,0.329504986927485,0.0,0.0,0.0,0.0,0.0,0.0,-14.132,0.0,0.0,0.0
225,0.0,0.0,0.0,0.25619140625,0.0,0.0,0.0,0.0,0.0,0.0,0.616,0.0,0.0,0.0,0.0,0.0,0.0,0.30921236556760695,0.0,0.0,0.0,0.0,0.0,0.0,-13.676,0.0,0.0,0.0
226,0.0,0.0,0.0,0.26212890625,0.0,0.0,0.0,0.0,0.0,0.0,0.596,0.0,0.0,0.0,0.0,0.0,0.0,0.28835239488918013,0.0,0.0,0.0,0.0,0.0,0.0,-13.4,0.0,0.0,0.0
227,0.0,0.0,0.0,0.2682109375,0.0,0.0,0.0,0.0,0.0,0.0,0.607,0.0,0.0,0.0,0.0,0.0,0.0,0.26710883221183973,0.0,0.0,0.0,0.0,0.0,0.0,-13.284,0.0,0.0,0.0
228,0.0,0.0,0.0,0.2741572265625,0.0,0.0,0.0,0.0,0.0,0.0,0.599,0.0,0.0,0.0,0.0,0.0,0.0,0.2454693567218793,0.0,0.0,0.0,0.0,0.0,0.0,-13.856,0.0,0.0,0.0
229,0.0,0.0,0.0,0.2800947265625,0.0,0.0,0.0,0.0,0.0,0.0,0.603,0.0,0.0,0.0,0.0,0.0,0.0,0.22332139864890269,0.0,0.0,0.0,0.0,0.0,0.0,-14.816,0.0,0.0,0.0
230,0.0,0.0,0.0,0.283857421875,0.0,0.0,0.0,0.0,0.0,0.0,0.527,0.0,0.0,0.0,0.0,0.0,0.0,0.20090220349603374,0.0,0.0,0.0,0.0,0.0,0.0,-19.416,0.0,0.0,0.0
231,0.0,0.0,0.0,0.283712890625,0.0,0.0,0.0,0.0,0.0,0.0,0.22,0.0,0.0,0.0,0.0,0.0,0.0,0.17816516720512626,0.0,0.0,0.0,0.0,0.0,0.0,-21.772,0.0,0.0,0.0
232,0.0,0.0,0.0,0.2828466796875,0.0,0.0,0.0,0.0,0.0,0.0,-0.058,0.0,0.0,0.0,0.0,0.0,0.0,0.15503722401400383,0.0,0.0,0.0,0.0,0.0,0.0,-21.976,0.0,0.0,0.0
233,0.0,0.0,0.0,0.2803837890625,0.0,0.0,0.0,0.0,0.0,0.0,-0.139,0.0,0.0,0.0,0.0,0.0,0.0,0.13166413376378264,0.0,0.0,0.0,0.0,0.0,0.0,-22.8,0.0,0.0,0.0
234,0.0,0.0,0.0,0.2760341796875,0.0,0.0,0.0,0.0,0.0,0.0,-0.341,0.0,0.0,0.0,0.0,0.0,0.0,0.10828682514495665,0.0,0.0,0.0,0.0,0.0,0.0,-21.428,0.0,0.0,0.0
235,0.0,0.0,0.0,0.2719736328125,0.0,0.0,0.0,0.0,0.0,0.0,-0.424,0.0,0.0,0.0,0.0,0.0,0.0,0.0845320823602362,0.0,0.0,0.0,0.0,0.0,0.0,-22.844,0.0,0.0,0.0
236,0.0,0.0,0.0,0.2673447265625,0.0,0.0,0.0,0.0,0.0,0.0,-0.424,0.0,0.0,0.0,0.0,0.0,0.0,0.06071476121600465,0.0,0.0,0.0,0.0,0.0,0.0,-24.628,0.0,0.0,0.0
237,0.0,0.0,0.0,0.2615517578125,0.0,0.0,0.0,0.0,0.0,0.0,-0.515,0.0,0.0,0.0,0.0,0.0,0.0,0.03682661845524031,0.0,0.0,0.0,0.0,0.0,0.0,-24.516,0.0,0.0,0.0
238,0.0,0.0,0.0,0.2545947265625,0.0,0.0,0.0,0.0,0.0,0.0,-0.637,0.0,0.0,0.0,0.0,0.0,0.0,0.012788752942727955,0.0,0.0,0.0,0.0,0.0,0.0,-23.144,0.0,0.0,0.0
239,0.0,0.0,0.0,0.246626953125,0.0,0.0,0.0,0.0,0.0,0.0,-0.737,0.0,0.0,0.0,0.0,0.0,0.0,-0.011418420957027121,0.0,0.0,0.0,0.0,0.0,0.0,-22.868,0.0,0.0,0.0
240,0.0,0.0,0.0,0.2379375,0.0,0.0,0.0,0.0,0.0,0.0,-0.839,0.0,0.0,0.0,0.0,0.0,0.0,-0.035120337809164175,0.0,0.0,0.0,0.0,0.0,0.0,-21.452,0.0,0.0,0.0
241,0.0,0.0,0.0,0.2314130859375,0.0,0.0,0.0,0.0,0.0,0.0,-0.791,0.0,0.0,0.0,0.0,0.0,0.0,-0.05904696181899153,0.0,0.0,0.0,0.0,0.0,0.0,-19.916,0.0,0.0,0.0
242,0.0,0.0,0.0,0.2241767578125,0.0,0.0,0.0,0.0,0.0,0.0,-0.664,0.0,0.0,0.0,0.0,0.0,0.0,-0.08301228241526924,0.0,0.0,0.0,0.0,0.0,0.0,-20.948,0.0,0.0,0.0
243,0.0,0.0,0.0,0.2151982421875,0.0,0.0,0.0,0.0,0.0,0.0,-0.812,0.0,0.0,0.0,0.0,0.0,0.0,-0.10658370309885636,0.0,0.0,0.0,0.0,0.0,0.0,-19.644,0.0,0.0,0.0
244,0.0,0.0,0.0,0.20664453125,0.0,0.0,0.0,0.0,0.0,0.0,-0.895,0.0,0.0,0.0,0.0,0.0,0.0,-0.13008249294836857,0.0,0.0,0.0,0.0,0.0,0.0,-18.844,0.0,0.0,0.0
245,0.0,0.0,0.0,0.19896484375,0.0,0.0,0.0,0.0,0.0,0.0,-0.83,0.0,0.0,0.0,0.0,0.0,0.0,-0.15357060297554756,0.0,0.0,0.0,0.0,0.0,0.0,-14.932,0.0,0.0,0.0
246,0.0,0.0,0.0,0.190708984375,0.0,0.0,0.0,0.0,0.0,0.0,-0.774,0.0,0.0,0.0,0.0,0.0,0.0,-0.1764840638456171,0.0,0.0,0.0,0.0,0.0,0.0,-14.52,0.0,0.0,0.0
247,0.0,0.0,0.0,0.1815859375,0.0,0.0,0.0,0.0,0.0,0.0,-0.888,0.0,0.0,0.0,0.0,0.0,0.0,-0.1992658776103262,0.0,0.0,0.0,0.0,0.0,0.0,-13.996,0.0,0.0,0.0
248,0.0,0.0,0.0,0.1741865234375,0.0,0.0,0.0,0.0,0.0,0.0,-0.847,0.0,0.0,0.0,0.0,0.0,0.0,-0.22190780689903924,0.0,0.0,0.0,0.0,0.0,0.0,-15.8,0.0,0.0,0.0
249,0.0,0.0,0.0,0.1666611328125,0.0,0.0,0.0,0.0,0.0,0.0,-0.736,0.0,0.0,0.0,0.0,0.0,0.0,-0.24386887204989097,0.0,0.0,0.0,0.0,0.0,0.0,-14.064,0.0,0.0,0.0
250,0.0,0.0,0.0,0.1582607421875,0.0,0.0,0.0,0.0,0.0,0.0,-0.792,0.0,0.0,0.0,0.0,0.0,0.0,-0.2656007258760615,0.0,0.0,0.0,0.0,0.0,0.0,-13.536,0.0,0.0,0.0
251,0.0,0.0,0.0,0.14941796875,0.0,0.0,0.0,0.0,0.0,0.0,-0.882,0.0,0.0,0.0,0.0,0.0,0.0,-0.28704417644908486,0.0,0.0,0.0,0.0,0.0,0.0,-12.052,0.0,0.0,0.0
252,0.0,0.0,0.0,0.1424697265625,0.0,0.0,0.0,0.0,0.0,0.0,-0.818,0.0,0.0,0.0,0.0,0.0,0.0,-0.30773591757812657,0.0,0.0,0.0,0.0,0.0,0.0,-11.068,0.0,0.0,0.0
253,0.0,0.0,0.0,0.135955078125,0.0,0.0,0.0,0.0,0.0,0.0,-0.665,0.0,0.0,0.0,0.0,0.0,0.0,-0.3280669854136247,0.0,0.0,0.0,0.0,0.0,0.0,-10.976,0.0,0.0,0.0
254,0.0,0.0,0.0,0.1282666015625,0.0,0.0,0.0,0.0,0.0,0.0,-0.705,0.0,0.0,0.0,0.0,0.0,0.0,-0.34826903605907383,0.0,0.0,0.0,0.0,0.0,0.0,-11.66,0.0,0.0,0.0
255,0.0,0.0,0.0,0.1205966796875,0.0,0.0,0.0,0.0,0.0,0.0,-0.784,0.0,0.0,0.0,0.0,0.0,0.0,-0.36720035963031555,0.0,0.0,0.0,0.0,0.0,0.0,-11.82,0.0,0.0,0.0
256,0.0,0.0,0.0,0.113775390625,0.0,0.0,0.0,0.0,0.0,0.0,-0.734,0.0,0.0,0.0,0.0,0.0,0.0,-0.38585628263410854,0.0,0.0,0.0,0.0,0.0,0.0,-11.136,0.0,0.0,0.0
257,0.0,0.0,0.0,0.1069716796875,0.0,0.0,0.0,0.0,0.0,0.0,-0.683,0.0,0.0,0.0,0.0,0.0,0.0,-0.4040350023575285,0.0,0.0,0.0,0.0,0.0,0.0,-9.788,0.0,0.0,0.0
258,0.0,0.0,0.0,0.1003212890625,0.0,0.0,0.0,0.0,0.0,0.0,-0.678,0.0,0.0,0.0,0.0,0.0,0.0,-0.4213065471318232,0.0,0.0,0.0,0.0,0.0,0.0,-10.952,0.0,0.0,0.0
259,0.0,0.0,0.0,0.0936533203125,0.0,0.0,0.0,0.0,0.0,0.0,-0.678,0.0,0.0,0.0,0.0,0.0,0.0,-0.43807921665870575,0.0,0.0,0.0,0.0,0.0,0.0,-12.14,0.0,0.0,0.0
260,0.0,0.0,0.0,0.0878603515625,0.0,0.0,0.0,0.0,0.0,0.0,-0.638,0.0,0.0,0.0,0.0,0.0,0.0,-0.45432452154815595,0.0,0.0,0.0,0.0,0.0,0.0,-11.708,0.0,0.0,0.0
261,0.0,0.0,0.0,0.0819228515625,0.0,0.0,0.0,0.0,0.0,0.0,-0.581,0.0,0.0,0.0,0.0,0.0,0.0,-0.4694211315170926,0.0,0.0,0.0,0.0,0.0,0.0,-11.0,0.0,0.0,0.0
262,0.0,0.0,0.0,0.0755517578125,0.0,0.0,0.0,0.0,0.0,0.0,-0.614,0.0,0.0,0.0,0.0,0.0,0.0,-0.48397366600963937,0.0,0.0,0.0,0.0,0.0,0.0,-10.724,0.0,0.0,0.0
263,0.0,0.0,0.0,0.0694609375,0.0,0.0,0.0,0.0,0.0,0.0,-0.631,0.0,0.0,0.0,0.0,0.0,0.0,-0.4979315380414542,0.0,0.0,0.0,0.0,0.0,0.0,-12.028,0.0,0.0,0.0
264,0.0,0.0,0.0,0.0635234375,0.0,0.0,0.0,0.0,0.0,0.0,-0.605,0.0,0.0,0.0,0.0,0.0,0.0,-0.510877453317526,0.0,0.0,0.0,0.0,0.0,0.0,-12.44,0.0,0.0,0.0
265,0.0,0.0,0.0,0.0581640625,0.0,0.0,0.0,0.0,0.0,0.0,-0.576,0.0,0.0,0.0,0.0,0.0,0.0,-0.5230301055873986,0.0,0.0,0.0,0.0,0.0,0.0,-11.5,0.0,0.0,0.0
266,0.0,0.0,0.0,0.0530927734375,0.0,0.0,0.0,0.0,0.0,0.0,-0.528,0.0,0.0,0.0,0.0,0.0,0.0,-0.5344518136004472,0.0,0.0,0.0,0.0,0.0,0.0,-12.052,0.0,0.0,0.0
267,0.0,0.0,0.0,0.047732421875,0.0,0.0,0.0,0.0,0.0,0.0,-0.526,0.0,0.0,0.0,0.0,0.0,0.0,-0.544911133824786,0.0,0.0,0.0,0.0,0.0,0.0,-13.468,0.0,0.0,0.0
268,0.0,0.0,0.0,0.042517578125,0.0,0.0,0.0,0.0,0.0,0.0,-0.533,0.0,0.0,0.0,0.0,0.0,0.0,-0.554473191276694,0.0,0.0,0.0,0.0,0.0,0.0,-14.932,0.0,0.0,0.0
269,0.0,0.0,0.0,0.0373017578125,0.0,0.0,0.0,0.0,0.0,0.0,-0.519,0.0,0.0,0.0,0.0,0.0,0.0,-0.5632166978834888,0.0,0.0,0.0,0.0,0.0,0.0,-15.208,0.0,0.0,0.0
270,0.0,0.0,0.0,0.03223046875,0.0,0.0,0.0,0.0,0.0,0.0,-0.526,0.0,0.0,0.0,0.0,0.0,0.0,-0.5711387004954626,0.0,0.0,0.0,0.0,0.0,0.0,-13.924,0.0,0.0,0.0
271,0.0,0.0,0.0,0.0277373046875,0.0,0.0,0.0,0.0,0.0,0.0,-0.485,0.0,0.0,0.0,0.0,0.0,0.0,-0.5778746418900349,0.0,0.0,0.0,0.0,0.0,0.0,-13.652,0.0,0.0,0.0
272,0.0,0.0,0.0,0.0226748046875,0.0,0.0,0.0,0.0,0.0,0.0,-0.474,0.0,0.0,0.0,0.0,0.0,0.0,-0.5838802865372217,0.0,0.0,0.0,0.0,0.0,0.0,-14.176,0.0,0.0,0.0
273,0.0,0.0,0.0,0.017748046875,0.0,0.0,0.0,0.0,0.0,0.0,-0.51,0.0,0.0,0.0,0.0,0.0,0.0,-0.5889676997185802,0.0,0.0,0.0,0.0,0.0,0.0,-15.412,0.0,0.0,0.0
274,0.0,0.0,0.0,0.0125322265625,0.0,0.0,0.0,0.0,0.0,0.0,-0.505,0.0,0.0,0.0,0.0,0.0,0.0,-0.5930580766683474,0.0,0.0,0.0,0.0,0.0,0.0,-15.94,0.0,0.0,0.0
275,0.0,0.0,0.0,0.0070283203125,0.0,0.0,0.0,0.0,0.0,0.0,-0.537,0.0,0.0,0.0,0.0,0.0,0.0,-0.5962275158645581,0.0,0.0,0.0,0.0,0.0,0.0,-15.0,0.0,0.0,0.0
276,0.0,0.0,0.0,0.0021015625,0.0,0.0,0.0,0.0,0.0,0.0,-0.532,0.0,0.0,0.0,0.0,0.0,0.0,-0.5984392286286272,0.0,0.0,0.0,0.0,0.0,0.0,-14.476,0.0,0.0,0.0
277,0.0,0.0,0.0,-0.0026796875,0.0,0.0,0.0,0.0,0.0,0.0,-0.483,0.0,0.0,0.0,0.0,0.0,0.0,-0.5996884986680432,0.0,0.0,0.0,0.0,0.0,0.0,-15.208,0.0,0.0,0.0
278,0.0,0.0,0.0,-0.00788671875,0.0,0.0,0.0,0.0,0.0,0.0,-0.507,0.0,0.0,0.0,0.0,0.0,0.0,-0.599982292406028,0.0,0.0,0.0,0.0,0.0,0.0,-16.144,0.0,0.0,0.0
279,0.0,0.0,0.0,-0.013400390625,0.0,0.0,0.0,0.0,0.0,0.0,-0.537,0.0,0.0,0.0,0.0,0.0,0.0,-0.5993080438383892,0.0,0.0,0.0,0.0,0.0,0.0,-17.196,0.0,0.0,0.0
280,0.0,0.0,0.0,-0.018904296875,0.0,0.0,0.0,0.0,0.0,0.0,-0.554,0.0,0.0,0.0,0.0,0.0,0.0,-0.5976951991304444,0.0,0.0,0.0,0.0,0.0,0.0,-16.488,0.0,0.0,0.0
281,0.0,0.0,0.0,-0.024552734375,0.0,0.0,0.0,0.0,0.0,0.0,-0.563,0.0,0.0,0.0,0.0,0.0,0.0,-0.5951145408502135,0.0,0.0,0.0,0.0,0.0,0.0,-15.436,0.0,0.0,0.0
282,0.0,0.0,0.0,-0.029615234375,0.0,0.0,0.0,0.0,0.0,0.0,-0.545,0.0,0.0,0.0,0.0,0.0,0.0,-0.5915315145492259,0.0,0.0,0.0,0.0,0.0,0.0,-15.368,0.0,0.0,0.0
283,0.0,0.0,0.0,-0.0346953125,0.0,0.0,0.0,0.0,0.0,0.0,-0.51,0.0,0.0,0.0,0.0,0.0,0.0,-0.5870606484337954,0.0,0.0,0.0,0.0,0.0,0.0,-15.848,0.0,0.0,0.0
284,0.0,0.0,0.0,-0.04048828125,0.0,0.0,0.0,0.0,0.0,0.0,-0.535,0.0,0.0,0.0,0.0,0.0,0.0,-0.5816475056814258,0.0,0.0,0.0,0.0,0.0,0.0,-16.58,0.0,0.0,0.0
285,0.0,0.0,0.0,-0.04642578125,0.0,0.0,0.0,0.0,0.0,0.0,-0.591,0.0,0.0,0.0,0.0,0.0,0.0,-0.5751991546552105,0.0,0.0,0.0,0.0,0.0,0.0,-15.824,0.0,0.0,0.0
286,0.0,0.0,0.0,-0.0525166015625,0.0,0.0,0.0,0.0,0.0,0.0,-0.605,0.0,0.0,0.0,0.0,0.0,0.0,-0.568016424627199,0.0,0.0,0.0,0.0,0.0,0.0,-15.136,0.0,0.0,0.0
287,0.0,0.0,0.0,-0.0587421875,0.0,0.0,0.0,0.0,0.0,0.0,-0.618,0.0,0.0,0.0,0.0,0.0,0.0,-0.5598518581306721,0.0,0.0,0.0,0.0,0.0,0.0,-14.36,0.0,0.0,0.0
288,0.0,0.0,0.0,-0.0645361328125,0.0,0.0,0.0,0.0,0.0,0.0,-0.608,0.0,0.0,0.0,0.0,0.0,0.0,-0.5507174788251484,0.0,0.0,0.0,0.0,0.0,0.0,-14.476,0.0,0.0,0.0
289,0.0,0.0,0.0,-0.07047265625,0.0,0.0,0.0,0.0,0.0,0.0,-0.587,0.0,0.0,0.0,0.0,0.0,0.0,-0.5408538222244238,0.0,0.0,0.0,0.0,0.0,0.0,-15.64,0.0,0.0,0.0
290,0.0,0.0,0.0,-0.0767080078125,0.0,0.0,0.0,0.0,0.0,0.0,-0.617,0.0,0.0,0.0,0.0,0.0,0.0,-0.5299974954875524,0.0,0.0,0.0,0.0,0.0,0.0,-15.8,0.0,0.0,0.0
291,0.0,0.0,0.0,-0.0827900390625,0.0,0.0,0.0,0.0,0.0,0.0,-0.623,0.0,0.0,0.0,0.0,0.0,0.0,-0.518244037289232,0.0,0.0,0.0,0.0,0.0,0.0,-15.388,0.0,0.0,0.0
292,0.0,0.0,0.0,-0.0893046875,0.0,0.0,0.0,0.0,0.0,0.0,-0.625,0.0,0.0,0.0,0.0,0.0,0.0,-0.5058133433858016,0.0,0.0,0.0,0.0,0.0,0.0,-14.568,0.0,0.0,0.0
293,0.0,0.0,0.0,-0.0952421875,0.0,0.0,0.0,0.0,0.0,0.0,-0.639,0.0,0.0,0.0,0.0,0.0,0.0,-0.49251945335739084,0.0,0.0,0.0,0.0,0.0,0.0,-13.788,0.0,0.0,0.0
294,0.0,0.0,0.0,-0.1011884765625,0.0,0.0,0.0,0.0,0.0,0.0,-0.595,0.0,0.0,0.0,0.0,0.0,0.0,-0.4782395154323051,0.0,0.0,0.0,0.0,0.0,0.0,-14.408,0.0,0.0,0.0
295,0.0,0.0,0.0,-0.1075595703125,0.0,0.0,0.0,0.0,0.0,0.0,-0.621,0.0,0.0,0.0,0.0,0.0,0.0,-0.46347138388317977,0.0,0.0,0.0,0.0,0.0,0.0,-14.336,0.0,0.0,0.0
296,0.0,0.0,0.0,-0.1134873046875,0.0,0.0,0.0,0.0,0.0,0.0,-0.626,0.0,0.0,0.0,0.0,0.0,0.0,-0.44799204861243225,0.0,0.0,0.0,0.0,0.0,0.0,-13.924,0.0,0.0,0.0
297,0.0,0.0,0.0,-0.1200205078125,0.0,0.0,0.0,0.0,0.0,0.0,-0.617,0.0,0.0,0.0,0.0,0.0,0.0,-0.43148284655658375,0.0,0.0,0.0,0.0,0.0,0.0,-13.996,0.0,0.0,0.0
298,0.0,0.0,0.0,-0.1263916015625,0.0,0.0,0.0,0.0,0.0,0.0,-0.656,0.0,0.0,0.0,0.0,0.0,0.0,-0.41463702794603774,0.0,0.0,0.0,0.0,0.0,0.0,-13.172,0.0,0.0,0.0
299,0.0,0.0,0.0,-0.1323291015625,0.0,0.0,0.0,0.0,0.0,0.0,-0.621,0.0,0.0,0.0,0.0,0.0,0.0,-0.39685691594120803,0.0,0.0,0.0,0.0,0.0,0.0,-13.948,0.0,0.0,0.0
300,0.0,0.0,0.0,-0.1385546875,0.0,0.0,0.0,0.0,0.0,0.0,-0.615,0.0,0.0,0.0,0.0,0.0,0.0,-0.37859069908170057,0.0,0.0,0.0,0.0,0.0,0.0,-14.384,0.0,0.0,0.0
301,0.0,0.0,0.0,-0.1444921875,0.0,0.0,0.0,0.0,0.0,0.0,-0.618,0.0,0.0,0.0,0.0,0.0,0.0,-0.3595601661103061,0.0,0.0,0.0,0.0,0.0,0.0,-14.268,0.0,0.0,0.0
302,0.0,0.0,0.0,-0.1504296875,0.0,0.0,0.0,0.0,0.0,0.0,-0.589,0.0,0.0,0.0,0.0,0.0,0.0,-0.3399933273082724,0.0,0.0,0.0,0.0,0.0,0.0,-14.544,0.0,0.0,0.0
303,0.0,0.0,0.0,-0.15651171875,0.0,0.0,0.0,0.0,0.0,0.0,-0.61,0.0,0.0,0.0,0.0,0.0,0.0,-0.32008581965651156,0.0,0.0,0.0,0.0,0.0,0.0,-13.744,0.0,0.0,0.0
304,0.0,0.0,0.0,-0.1623046875,0.0,0.0,0.0,0.0,0.0,0.0,-0.599,0.0,0.0,0.0,0.0,0.0,0.0,-0.2997121456474622,0.0,0.0,0.0,0.0,0.0,0.0,-13.88,0.0,0.0,0.0
305,0.0,0.0,0.0,-0.1683955078125,0.0,0.0,0.0,0.0,0.0,0.0,-0.593,0.0,0.0,0.0,0.0,0.0,0.0,-0.27875512590973633,0.0,0.0,0.0,0.0,0.0,0.0,-14.016,0.0,0.0,0.0
306,0.0,0.0,0.0,-0.1741884765625,0.0,0.0,0.0,0.0,0.0,0.0,-0.603,0.0,0.0,0.0,0.0,0.0,0.0,-0.2570314016623974,0.0,0.0,0.0,0.0,0.0,0.0,-13.4,0.0,0.0,0.0
307,0.0,0.0,0.0,-0.1799814453125,0.0,0.0,0.0,0.0,0.0,0.0,-0.574,0.0,0.0,0.0,0.0,0.0,0.0,-0.2353858601557885,0.0,0.0,0.0,0.0,0.0,0.0,-13.924,0.0,0.0,0.0
308,0.0,0.0,0.0,-0.18591015625,0.0,0.0,0.0,0.0,0.0,0.0,-0.598,0.0,0.0,0.0,0.0,0.0,0.0,-0.21311839539752123,0.0,0.0,0.0,0.0,0.0,0.0,-13.788,0.0,0.0,0.0
309,0.0,0.0,0.0,-0.1918564453125,0.0,0.0,0.0,0.0,0.0,0.0,-0.594,0.0,0.0,0.0,0.0,0.0,0.0,-0.1903800258585802,0.0,0.0,0.0,0.0,0.0,0.0,-13.744,0.0,0.0,0.0
310,0.0,0.0,0.0,-0.1977939453125,0.0,0.0,0.0,0.0,0.0,0.0,-0.596,0.0,0.0,0.0,0.0,0.0,0.0,-0.16751084179031228,0.0,0.0,0.0,0.0,0.0,0.0,-14.476,0.0,0.0,0.0
311,0.0,0.0,0.0,-0.2034423828125,0.0,0.0,0.0,0.0,0.0,0.0,-0.596,0.0,0.0,0.0,0.0,0.0,0.0,-0.1444189629335597,0.0,0.0,0.0,0.0,0.0,0.0,-14.132,0.0,0.0,0.0
312,0.0,0.0,0.0,-0.207494140625,0.0,0.0,0.0,0.0,0.0,0.0,-0.524,0.0,0.0,0.0,0.0,0.0,0.0,-0.1209541879694666,0.0,0.0,0.0,0.0,0.0,0.0,-11.388,0.0,0.0,0.0
313,0.0,0.0,0.0,-0.207494140625,0.0,0.0,0.0,0.0,0.0,0.0,-0.24,0.0,0.0,0.0,0.0,0.0,0.0,-0.09736830690477297,0.0,0.0,0.0,0.0,0.0,0.0,-8.208,0.0,0.0,0.0
314,0.0,0.0,0.0,-0.2063388671875,0.0,0.0,0.0,0.0,0.0,0.0,0.068,0.0,0.0,0.0,0.0,0.0,0.0,-0.07364839293236103,0.0,0.0,0.0,0.0,0.0,0.0,-8.62,0.0,0.0,0.0
315,0.0,0.0,0.0,-0.2041640625,0.0,0.0,0.0,0.0,0.0,0.0,0.132,0.0,0.0,0.0,0.0,0.0,0.0,-0.04959543873483152,0.0,0.0,0.0,0.0,0.0,0.0,-6.744,0.0,0.0,0.0
316,0.0,0.0,0.0,-0.19982421875,0.0,0.0,0.0,0.0,0.0,0.0,0.324,0.0,0.0,0.0,0.0,0.0,0.0,-0.025735196008494342,0.0,0.0,0.0,0.0,0.0,0.0,-8.14,0.0,0.0,0.0
317,0.0,0.0,0.0,-0.196349609375,0.0,0.0,0.0,0.0,0.0,0.0,0.407,0.0,0.0,0.0,0.0,0.0,0.0,-0.001731097677570333,0.0,0.0,0.0,0.0,0.0,0.0,-5.988,0.0,0.0,0.0
318,0.0,0.0,0.0,-0.1915673828125,0.0,0.0,0.0,0.0,0.0,0.0,0.385,0.0,0.0,0.0,0.0,0.0,0.0,0.022441025079742216,0.0,0.0,0.0,0.0,0.0,0.0,-3.064,0.0,0.0,0.0
319,0.0,0.0,0.0,-0.18533203125,0.0,0.0,0.0,0.0,0.0,0.0,0.558,0.0,0.0,0.0,0.0,0.0,0.0,2.8610229481345475e-05,0.0,0.0,0.0,0.0,0.0,0.0,-4.32,0.0,0.0,0.0
320,0.0,0.0,0.0,-0.1786728515625,0.0,0.0,0.0,0.0,0.0,0.0,0.634,0.0,0.0,0.0,0.0,0.0,0.0,0.023806615246030286,0.0,0.0,0.0,0.0,0.0,0.0,-4.252,0.0,0.0,0.0
321,0.0,0.0,0.0,-0.17028125,0.0,0.0,0.0,0.0,0.0,0.0,0.753,0.0,0.0,0.0,0.0,0.0,0.0,0.047936792877112555,0.0,0.0,0.0,0.0,0.0,0.0,-5.76,0.0,0.0,0.0
322,0.0,0.0,0.0,-0.16244921875,0.0,0.0,0.0,0.0,0.0,0.0,0.832,0.0,0.0,0.0,0.0,0.0,0.0,0.07177215119772938,0.0,0.0,0.0,0.0,0.0,0.0,-8.368,0.0,0.0,0.0
323,0.0,0.0,0.0,-0.1557890625,0.0,0.0,0.0,0.0,0.0,0.0,0.723,0.0,0.0,0.0,0.0,0.0,0.0,0.09538916017810464,0.0,0.0,0.0,0.0,0.0,0.0,-8.664,0.0,0.0,0.0
324,0.0,0.0,0.0,-0.148119140625,0.0,0.0,0.0,0.0,0.0,0.0,0.702,0.0,0.0,0.0,0.0,0.0,0.0,0.11921774943158632,0.0,0.0,0.0,0.0,0.0,0.0,-8.46,0.0,0.0,0.0
325,0.0,0.0,0.0,-0.1391318359375,0.0,0.0,0.0,0.0,0.0,0.0,0.831,0.0,0.0,0.0,0.0,0.0,0.0,0.14247470566784304,0.0,0.0,0.0,0.0,0.0,0.0,-7.752,0.0,0.0,0.0
326,0.0,0.0,0.0,-0.1305869140625,0.0,0.0,0.0,0.0,0.0,0.0,0.893,0.0,0.0,0.0,0.0,0.0,0.0,0.16558720515520958,0.0,0.0,0.0,0.0,0.0,0.0,-9.628,0.0,0.0,0.0
327,0.0,0.0,0.0,-0.122763671875,0.0,0.0,0.0,0.0,0.0,0.0,0.826,0.0,0.0,0.0,0.0,0.0,0.0,0.18861211594490293,0.0,0.0,0.0,0.0,0.0,0.0,-12.212,0.0,0.0,0.0
328,0.0,0.0,0.0,-0.1145078125,0.0,0.0,0.0,0.0,0.0,0.0,0.798,0.0,0.0,0.0,0.0,0.0,0.0,0.21126312960770985,0.0,0.0,0.0,0.0,0.0,0.0,-13.012,0.0,0.0,0.0
329,0.0,0.0,0.0,-0.1062509765625,0.0,0.0,0.0,0.0,0.0,0.0,0.845,0.0,0.0,0.0,0.0,0.0,0.0,0.233482659464476,0.0,0.0,0.0,0.0,0.0,0.0,-12.464,0.0,0.0,0.0
330,0.0,0.0,0.0,-0.099302734375,0.0,0.0,0.0,0.0,0.0,0.0,0.776,0.0,0.0,0.0,0.0,0.0,0.0,0.25539829211947657,0.0,0.0,0.0,0.0,0.0,0.0,-12.872,0.0,0.0,0.0
331,0.0,0.0,0.0,-0.0919130859375,0.0,0.0,0.0,0.0,0.0,0.0,0.703,0.0,0.0,0.0,0.0,0.0,0.0,0.2770012790259704,0.0,0.0,0.0,0.0,0.0,0.0,-13.836,0.0,0.0,0.0
332,0.0,0.0,0.0,-0.0830791015625,0.0,0.0,0.0,0.0,0.0,0.0,0.81,0.0,0.0,0.0,0.0,0.0,0.0,0.2979485449618846,0.0,0.0,0.0,0.0,0.0,0.0,-16.624,0.0,0.0,0.0
333,0.0,0.0,0.0,-0.075255859375,0.0,0.0,0.0,0.0,0.0,0.0,0.851,0.0,0.0,0.0,0.0,0.0,0.0,0.3185141082653489,0.0,0.0,0.0,0.0,0.0,0.0,-16.968,0.0,0.0,0.0
334,0.0,0.0,0.0,-0.068298828125,0.0,0.0,0.0,0.0,0.0,0.0,0.756,0.0,0.0,0.0,0.0,0.0,0.0,0.3388862574809034,0.0,0.0,0.0,0.0,0.0,0.0,-17.22,0.0,0.0,0.0
335,0.0,0.0,0.0,-0.0613505859375,0.0,0.0,0.0,0.0,0.0,0.0,0.692,0.0,0.0,0.0,0.0,0.0,0.0,0.35809938597779045,0.0,0.0,0.0,0.0,0.0,0.0,-16.92,0.0,0.0,0.0
336,0.0,0.0,0.0,-0.0538154296875,0.0,0.0,0.0,0.0,0.0,0.0,0.721,0.0,0.0,0.0,0.0,0.0,0.0,0.3770423209623487,0.0,0.0,0.0,0.0,0.0,0.0,-16.9,0.0,0.0,0.0
337,0.0,0.0,0.0,-0.04628125,0.0,0.0,0.0,0.0,0.0,0.0,0.764,0.0,0.0,0.0,0.0,0.0,0.0,0.39561457628500407,0.0,0.0,0.0,0.0,0.0,0.0,-17.172,0.0,0.0,0.0
338,0.0,0.0,0.0,-0.0394775390625,0.0,0.0,0.0,0.0,0.0,0.0,0.731,0.0,0.0,0.0,0.0,0.0,0.0,0.4132048753320063,0.0,0.0,0.0,0.0,0.0,0.0,-18.592,0.0,0.0,0.0
339,0.0,0.0,0.0,-0.033107421875,0.0,0.0,0.0,0.0,0.0,0.0,0.66,0.0,0.0,0.0,0.0,0.0,0.0,0.43038024555974963,0.0,0.0,0.0,0.0,0.0,0.0,-18.728,0.0,0.0,0.0
340,0.0,0.0,0.0,-0.026140625,0.0,0.0,0.0,0.0,0.0,0.0,0.668,0.0,0.0,0.0,0.0,0.0,0.0,0.44676492658845185,0.0,0.0,0.0,0.0,0.0,0.0,-18.544,0.0,0.0,0.0
341,0.0,0.0,0.0,-0.0196259765625,0.0,0.0,0.0,0.0,0.0,0.0,0.682,0.0,0.0,0.0,0.0,0.0,0.0,0.46238357418880693,0.0,0.0,0.0,0.0,0.0,0.0,-18.296,0.0,0.0,0.0
342,0.0,0.0,0.0,-0.013255859375,0.0,0.0,0.0,0.0,0.0,0.0,0.639,0.0,0.0,0.0,0.0,0.0,0.0,0.47717617202230195,0.0,0.0,0.0,0.0,0.0,0.0,-17.952,0.0,0.0,0.0
343,0.0,0.0,0.0,-0.0070205078125,0.0,0.0,0.0,0.0,0.0,0.0,0.646,0.0,0.0,0.0,0.0,0.0,0.0,0.4914365085313277,0.0,0.0,0.0,0.0,0.0,0.0,-19.256,0.0,0.0,0.0
344,0.0,0.0,0.0,-0.0009384765625,0.0,0.0,0.0,0.0,0.0,0.0,0.621,0.0,0.0,0.0,0.0,0.0,0.0,0.5047811605710915,0.0,0.0,0.0,0.0,0.0,0.0,-17.332,0.0,0.0,0.0
345,0.0,0.0,0.0,0.0054306640625,0.0,0.0,0.0,0.0,0.0,0.0,0.631,0.0,0.0,0.0,0.0,0.0,0.0,0.5176645567388913,0.0,0.0,0.0,0.0,0.0,0.0,-16.944,0.0,0.0,0.0
346,0.0,0.0,0.0,0.010646484375,0.0,0.0,0.0,0.0,0.0,0.0,0.592,0.0,0.0,0.0,0.0,0.0,0.0,0.5291112706378359,0.0,0.0,0.0,0.0,0.0,0.0,-16.26,0.0,0.0,0.0
347,0.0,0.0,0.0,0.0158623046875,0.0,0.0,0.0,0.0,0.0,0.0,0.519,0.0,0.0,0.0,0.0,0.0,0.0,0.5399462542057729,0.0,0.0,0.0,0.0,0.0,0.0,-16.076,0.0,0.0,0.0
348,0.0,0.0,0.0,0.0212216796875,0.0,0.0,0.0,0.0,0.0,0.0,0.536,0.0,0.0,0.0,0.0,0.0,0.0,0.549958134834774,0.0,0.0,0.0,0.0,0.0,0.0,-16.532,0.0,0.0,0.0
349,0.0,0.0,0.0,0.02629296875,0.0,0.0,0.0,0.0,0.0,0.0,0.514,0.0,0.0,0.0,0.0,0.0,0.0,0.559177367461346,0.0,0.0,0.0,0.0,0.0,0.0,-14.728,0.0,0.0,0.0
350,0.0,0.0,0.0,0.0317978515625,0.0,0.0,0.0,0.0,0.0,0.0,0.533,0.0,0.0,0.0,0.0,0.0,0.0,0.5674781603125549,0.0,0.0,0.0,0.0,0.0,0.0,-14.476,0.0,0.0,0.0
351,0.0,0.0,0.0,0.036724609375,0.0,0.0,0.0,0.0,0.0,0.0,0.533,0.0,0.0,0.0,0.0,0.0,0.0,0.5747536596529139,0.0,0.0,0.0,0.0,0.0,0.0,-15.116,0.0,0.0,0.0
352,0.0,0.0,0.0,0.0415068359375,0.0,0.0,0.0,0.0,0.0,0.0,0.481,0.0,0.0,0.0,0.0,0.0,0.0,0.5812558445670206,0.0,0.0,0.0,0.0,0.0,0.0,-15.16,0.0,0.0,0.0
353,0.0,0.0,0.0,0.0464248046875,0.0,0.0,0.0,0.0,0.0,0.0,0.497,0.0,0.0,0.0,0.0,0.0,0.0,0.5867047065875013,0.0,0.0,0.0,0.0,0.0,0.0,-15.664,0.0,0.0,0.0
354,0.0,0.0,0.0,0.0510625,0.0,0.0,0.0,0.0,0.0,0.0,0.481,0.0,0.0,0.0,0.0,0.0,0.0,0.5912563726153341,0.0,0.0,0.0,0.0,0.0,0.0,-13.468,0.0,0.0,0.0
355,0.0,0.0,0.0,0.056142578125,0.0,0.0,0.0,0.0,0.0,0.0,0.479,0.0,0.0,0.0,0.0,0.0,0.0,0.5948887732369575,0.0,0.0,0.0,0.0,0.0,0.0,-12.304,0.0,0.0,0.0
356,0.0,0.0,0.0,0.0614931640625,0.0,0.0,0.0,0.0,0.0,0.0,0.535,0.0,0.0,0.0,0.0,0.0,0.0,0.5975504313524246,0.0,0.0,0.0,0.0,0.0,0.0,-13.104,0.0,0.0,0.0
357,0.0,0.0,0.0,0.066419921875,0.0,0.0,0.0,0.0,0.0,0.0,0.51,0.0,0.0,0.0,0.0,0.0,0.0,0.5992231631848791,0.0,0.0,0.0,0.0,0.0,0.0,-13.032,0.0,0.0,0.0
358,0.0,0.0,0.0,0.0714912109375,0.0,0.0,0.0,0.0,0.0,0.0,0.498,0.0,0.0,0.0,0.0,0.0,0.0,0.5999650842573854,0.0,0.0,0.0,0.0,0.0,0.0,-13.516,0.0,0.0,0.0
359,0.0,0.0,0.0,0.0761298828125,0.0,0.0,0.0,0.0,0.0,0.0,0.495,0.0,0.0,0.0,0.0,0.0,0.0,0.5997314704917565,0.0,0.0,0.0,0.0,0.0,0.0,-12.944,0.0,0.0,0.0
360,0.0,0.0,0.0,0.0812001953125,0.0,0.0,0.0,0.0,0.0,0.0,0.479,0.0,0.0,0.0,0.0,0.0,0.0,0.598575778435653,0.0,0.0,0.0,0.0,0.0,0.0,-11.524,0.0,0.0,0.0
361,0.0,0.0,0.0,0.086560546875,0.0,0.0,0.0,0.0,0.0,0.0,0.521,0.0,0.0,0.0,0.0,0.0,0.0,0.5964397948002278,0.0,0.0,0.0,0.0,0.0,0.0,-12.052,0.0,0.0,0.0
362,0.0,0.0,0.0,0.0920556640625,0.0,0.0,0.0,0.0,0.0,0.0,0.544,0.0,0.0,0.0,0.0,0.0,0.0,0.5933163874008045,0.0,0.0,0.0,0.0,0.0,0.0,-12.712,0.0,0.0,0.0
363,0.0,0.0,0.0,0.0975693359375,0.0,0.0,0.0,0.0,0.0,0.0,0.557,0.0,0.0,0.0,0.0,0.0,0.0,0.5892984826642422,0.0,0.0,0.0,0.0,0.0,0.0,-13.604,0.0,0.0,0.0
364,0.0,0.0,0.0,0.102919921875,0.0,0.0,0.0,0.0,0.0,0.0,0.552,0.0,0.0,0.0,0.0,0.0,0.0,0.5843636273789912,0.0,0.0,0.0,0.0,0.0,0.0,-13.764,0.0,0.0,0.0
365,0.0,0.0,0.0,0.108568359375,0.0,0.0,0.0,0.0,0.0,0.0,0.547,0.0,0.0,0.0,0.0,0.0,0.0,0.5783687666876625,0.0,0.0,0.0,0.0,0.0,0.0,-12.804,0.0,0.0,0.0
366,0.0,0.0,0.0,0.114361328125,0.0,0.0,0.0,0.0,0.0,0.0,0.573,0.0,0.0,0.0,0.0,0.0,0.0,0.5715472627454188,0.0,0.0,0.0,0.0,0.0,0.0,-11.892,0.0,0.0,0.0
367,0.0,0.0,0.0,0.1203076171875,0.0,0.0,0.0,0.0,0.0,0.0,0.588,0.0,0.0,0.0,0.0,0.0,0.0,0.563840697282637,0.0,0.0,0.0,0.0,0.0,0.0,-12.052,0.0,0.0,0.0
368,0.0,0.0,0.0,0.1265341796875,0.0,0.0,0.0,0.0,0.0,0.0,0.608,0.0,0.0,0.0,0.0,0.0,0.0,0.5550895509812471,0.0,0.0,0.0,0.0,0.0,0.0,-12.76,0.0,0.0,0.0
369,0.0,0.0,0.0,0.1323271484375,0.0,0.0,0.0,0.0,0.0,0.0,0.609,0.0,0.0,0.0,0.0,0.0,0.0,0.5456593885977624,0.0,0.0,0.0,0.0,0.0,0.0,-13.104,0.0,0.0,0.0
370,0.0,0.0,0.0,0.1381201171875,0.0,0.0,0.0,0.0,0.0,0.0,0.585,0.0,0.0,0.0,0.0,0.0,0.0,0.5352322142580936,0.0,0.0,0.0,0.0,0.0,0.0,-12.668,0.0,0.0,0.0
371,0.0,0.0,0.0,0.1442021484375,0.0,0.0,0.0,0.0,0.0,0.0,0.597,0.0,0.0,0.0,0.0,0.0,0.0,0.5237827102389963,0.0,0.0,0.0,0.0,0.0,0.0,-12.372,0.0,0.0,0.0
372,0.0,0.0,0.0,0.1502841796875,0.0,0.0,0.0,0.0,0.0,0.0,0.605,0.0,0.0,0.0,0.0,0.0,0.0,0.5118345053456459,0.0,0.0,0.0,0.0,0.0,0.0,-12.964,0.0,0.0,0.0
373,0.0,0.0,0.0,0.1566728515625,0.0,0.0,0.0,0.0,0.0,0.0,0.626,0.0,0.0,0.0,0.0,0.0,0.0,0.4988994347914811,0.0,0.0,0.0,0.0,0.0,0.0,-13.996,0.0,0.0,0.0
374,0.0,0.0,0.0,0.1628984375,0.0,0.0,0.0,0.0,0.0,0.0,0.641,0.0,0.0,0.0,0.0,0.0,0.0,0.485024489193655,0.0,0.0,0.0,0.0,0.0,0.0,-14.976,0.0,0.0,0.0
375,0.0,0.0,0.0,0.16926953125,0.0,0.0,0.0,0.0,0.0,0.0,0.629,0.0,0.0,0.0,0.0,0.0,0.0,0.4707503993922836,0.0,0.0,0.0,0.0,0.0,0.0,-14.796,0.0,0.0,0.0
376,0.0,0.0,0.0,0.1756484375,0.0,0.0,0.0,0.0,0.0,0.0,0.637,0.0,0.0,0.0,0.0,0.0,0.0,0.4553989501456688,0.0,0.0,0.0,0.0,0.0,0.0,-13.584,0.0,0.0,0.0
377,0.0,0.0,0.0,0.18173046875,0.0,0.0,0.0,0.0,0.0,0.0,0.626,0.0,0.0,0.0,0.0,0.0,0.0,0.43921972324659947,0.0,0.0,0.0,0.0,0.0,0.0,-13.492,0.0,0.0,0.0
378,0.0,0.0,0.0,0.18795703125,0.0,0.0,0.0,0.0,0.0,0.0,0.62,0.0,0.0,0.0,0.0,0.0,0.0,0.4228423235904131,0.0,0.0,0.0,0.0,0.0,0.0,-13.56,0.0,0.0,0.0
379,0.0,0.0,0.0,0.1941826171875,0.0,0.0,0.0,0.0,0.0,0.0,0.63,0.0,0.0,0.0,0.0,0.0,0.0,0.40551852297109303,0.0,0.0,0.0,0.0,0.0,0.0,-13.904,0.0,0.0,0.0
380,0.0,0.0,0.0,0.2005625,0.0,0.0,0.0,0.0,0.0,0.0,0.632,0.0,0.0,0.0,0.0,0.0,0.0,0.3870413063784332,0.0,0.0,0.0,0.0,0.0,0.0,-13.904,0.0,0.0,0.0
381,0.0,0.0,0.0,0.2065,0.0,0.0,0.0,0.0,0.0,0.0,0.621,0.0,0.0,0.0,0.0,0.0,0.0,0.3688464065221352,0.0,0.0,0.0,0.0,0.0,0.0,-13.764,0.0,0.0,0.0
382,0.0,0.0,0.0,0.2124375,0.0,0.0,0.0,0.0,0.0,0.0,0.599,0.0,0.0,0.0,0.0,0.0,0.0,0.34962699408045744,0.0,0.0,0.0,0.0,0.0,0.0,-13.948,0.0,0.0,0.0
383,0.0,0.0,0.0,0.2185283203125,0.0,0.0,0.0,0.0,0.0,0.0,0.605,0.0,0.0,0.0,0.0,0.0,0.0,0.32975982260558023,0.0,0.0,0.0,0.0,0.0,0.0,-14.52,0.0,0.0,0.0
384,0.0,0.0,0.0,0.2244658203125,0.0,0.0,0.0,0.0,0.0,0.0,0.606,0.0,0.0,0.0,0.0,0.0,0.0,0.30952712283264666,0.0,0.0,0.0,0.0,0.0,0.0,-14.772,0.0,0.0,0.0
385,0.0,0.0,0.0,0.23069140625,0.0,0.0,0.0,0.0,0.0,0.0,0.606,0.0,0.0,0.0,0.0,0.0,0.0,0.2886875340966233,0.0,0.0,0.0,0.0,0.0,0.0,-14.796,0.0,0.0,0.0
386,0.0,0.0,0.0,0.2367822265625,0.0,0.0,0.0,0.0,0.0,0.0,0.623,0.0,0.0,0.0,0.0,0.0,0.0,0.2672830257059799,0.0,0.0,0.0,0.0,0.0,0.0,-14.04,0.0,0.0,0.0
387,0.0,0.0,0.0,0.2427197265625,0.0,0.0,0.0,0.0,0.0,0.0,0.61,0.0,0.0,0.0,0.0,0.0,0.0,0.24572569401681685,0.0,0.0,0.0,0.0,0.0,0.0,-13.764,0.0,0.0,0.0
388,0.0,0.0,0.0,0.24850390625,0.0,0.0,0.0,0.0,0.0,0.0,0.591,0.0,0.0,0.0,0.0,0.0,0.0,0.22352213714265665,0.0,0.0,0.0,0.0,0.0,0.0,-13.856,0.0,0.0,0.0
389,0.0,0.0,0.0,0.25415234375,0.0,0.0,0.0,0.0,0.0,0.0,0.582,0.0,0.0,0.0,0.0,0.0,0.0,0.20105639998212502,0.0,0.0,0.0,0.0,0.0,0.0,-14.016,0.0,0.0,0.0
390,0.0,0.0,0.0,0.2574912109375,0.0,0.0,0.0,0.0,0.0,0.0,0.501,0.0,0.0,0.0,0.0,0.0,0.0,0.17821379577237034,0.0,0.0,0.0,0.0,0.0,0.0,-18.5,0.0,0.0,0.0
391,0.0,0.0,0.0,0.25676953125,0.0,0.0,0.0,0.0,0.0,0.0,0.156,0.0,0.0,0.0,0.0,0.0,0.0,0.15521355113431823,0.0,0.0,0.0,0.0,0.0,0.0,-21.288,0.0,0.0,0.0
392,0.0,0.0,0.0,0.2556142578125,0.0,0.0,0.0,0.0,0.0,0.0,-0.107,0.0,0.0,0.0,0.0,0.0,0.0,0.13186565696677188,0.0,0.0,0.0,0.0,0.0,0.0,-21.772,0.0,0.0,0.0
393,0.0,0.0,0.0,0.252564453125,0.0,0.0,0.0,0.0,0.0,0.0,-0.176,0.0,0.0,0.0,0.0,0.0,0.0,0.10819283476484136,0.0,0.0,0.0,0.0,0.0,0.0,-22.708,0.0,0.0,0.0
394,0.0,0.0,0.0,0.2479267578125,0.0,0.0,0.0,0.0,0.0,0.0,-0.394,0.0,0.0,0.0,0.0,0.0,0.0,0.08476943795545021,0.0,0.0,0.0,0.0,0.0,0.0,-20.696,0.0,0.0,0.0
395,0.0,0.0,0.0,0.24401953125,0.0,0.0,0.0,0.0,0.0,0.0,-0.432,0.0,0.0,0.0,0.0,0.0,0.0,0.059332418298422174,0.0,0.0,0.0,0.0,0.0,0.0,-22.892,0.0,0.0,0.0
396,0.0,0.0,0.0,0.2390927734375,0.0,0.0,0.0,0.0,0.0,0.0,-0.427,0.0,0.0,0.0,0.0,0.0,0.0,0.03695626313926758,0.0,0.0,0.0,0.0,0.0,0.0,-25.544,0.0,0.0,0.0
397,0.0,0.0,0.0,0.2331552734375,0.0,0.0,0.0,0.0,0.0,0.0,-0.542,0.0,0.0,0.0,0.0,0.0,0.0,0.012968955860531227,0.0,0.0,0.0,0.0,0.0,0.0,-25.224,0.0,0.0,0.0
398,0.0,0.0,0.0,0.2261982421875,0.0,0.0,0.0,0.0,0.0,0.0,-0.641,0.0,0.0,0.0,0.0,0.0,0.0,-0.010969318542900675,0.0,0.0,0.0,0.0,0.0,0.0,-24.124,0.0,0.0,0.0
399,0.0,0.0,0.0,0.2185283203125,0.0,0.0,0.0,0.0,0.0,0.0,-0.728,0.0,0.0,0.0,0.0,0.0,0.0,-0.03677560727554607,0.0,0.0,0.0,0.0,0.0,0.0,-22.572,0.0,0.0,0.0
400,0.0,0.0,0.0,0.2105517578125,0.0,0.0,0.0,0.0,0.0,0.0,-0.797,0.0,0.0,0.0,0.0,0.0,0.0,-0.05875540817154767,0.0,0.0,0.0,0.0,0.0,0.0,-20.444,0.0,0.0,0.0
401,0.0,0.0,0.0,0.2038916015625,0.0,0.0,0.0,0.0,0.0,0.0,-0.744,0.0,0.0,0.0,0.0,0.0,0.0,-0.08277482781432476,0.0,0.0,0.0,0.0,0.0,0.0,-19.596,0.0,0.0,0.0
402,0.0,0.0,0.0,0.196212890625,0.0,0.0,0.0,0.0,0.0,0.0,-0.69,0.0,0.0,0.0,0.0,0.0,0.0,-0.10661636296985148,0.0,0.0,0.0,0.0,0.0,0.0,-20.536,0.0,0.0,0.0
403,0.0,0.0,0.0,0.18737890625,0.0,0.0,0.0,0.0,0.0,0.0,-0.844,0.0,0.0,0.0,0.0,0.0,0.0,-0.12996741991584648,0.0,0.0,0.0,0.0,0.0,0.0,-18.684,0.0,0.0,0.0
404,0.0,0.0,0.0,0.178978515625,0.0,0.0,0.0,0.0,0.0,0.0,-0.872,0.0,0.0,0.0,0.0,0.0,0.0,-0.15318060155273502,0.0,0.0,0.0,0.0,0.0,0.0,-18.064,0.0,0.0,0.0
405,0.0,0.0,0.0,0.170857421875,0.0,0.0,0.0,0.0,0.0,0.0,-0.838,0.0,0.0,0.0,0.0,0.0,0.0,-0.17640093447122443,0.0,0.0,0.0,0.0,0.0,0.0,-15.252,0.0,0.0,0.0
406,0.0,0.0,0.0,0.16304296875,0.0,0.0,0.0,0.0,0.0,0.0,-0.79,0.0,0.0,0.0,0.0,0.0,0.0,-0.19897817756061842,0.0,0.0,0.0,0.0,0.0,0.0,-15.664,0.0,0.0,0.0
407,0.0,0.0,0.0,0.1543447265625,0.0,0.0,0.0,0.0,0.0,0.0,-0.838,0.0,0.0,0.0,0.0,0.0,0.0,-0.2214925413853672,0.0,0.0,0.0,0.0,0.0,0.0,-15.32,0.0,0.0,0.0
408,0.0,0.0,0.0,0.1470986328125,0.0,0.0,0.0,0.0,0.0,0.0,-0.818,0.0,0.0,0.0,0.0,0.0,0.0,-0.24398493004325733,0.0,0.0,0.0,0.0,0.0,0.0,-14.748,0.0,0.0,0.0
409,0.0,0.0,0.0,0.1395732421875,0.0,0.0,0.0,0.0,0.0,0.0,-0.72,0.0,0.0,0.0,0.0,0.0,0.0,-0.2654216435805555,0.0,0.0,0.0,0.0,0.0,0.0,-13.788,0.0,0.0,0.0
410,0.0,0.0,0.0,0.1310185546875,0.0,0.0,0.0,0.0,0.0,0.0,-0.807,0.0,0.0,0.0,0.0,0.0,0.0,-0.2867868751765816,0.0,0.0,0.0,0.0,0.0,0.0,-12.232,0.0,0.0,0.0
411,0.0,0.0,0.0,0.1226181640625,0.0,0.0,0.0,0.0,0.0,0.0,-0.866,0.0,0.0,0.0,0.0,0.0,0.0,-0.3076759878242543,0.0,0.0,0.0,0.0,0.0,0.0,-11.684,0.0,0.0,0.0
412,0.0,0.0,0.0,0.115380859375,0.0,0.0,0.0,0.0,0.0,0.0,-0.801,0.0,0.0,0.0,0.0,0.0,0.0,-0.32786382274975173,0.0,0.0,0.0,0.0,0.0,0.0,-11.02,0.0,0.0,0.0
413,0.0,0.0,0.0,0.108712890625,0.0,0.0,0.0,0.0,0.0,0.0,-0.687,0.0,0.0,0.0,0.0,0.0,0.0,-0.3477017471615924,0.0,0.0,0.0,0.0,0.0,0.0,-11.592,0.0,0.0,0.0
414,0.0,0.0,0.0,0.1011875,0.0,0.0,0.0,0.0,0.0,0.0,-0.712,0.0,0.0,0.0,0.0,0.0,0.0,-0.3671922139970448,0.0,0.0,0.0,0.0,0.0,0.0,-12.644,0.0,0.0,0.0
415,0.0,0.0,0.0,0.093796875,0.0,0.0,0.0,0.0,0.0,0.0,-0.756,0.0,0.0,0.0,0.0,0.0,0.0,-0.385769514715477,0.0,0.0,0.0,0.0,0.0,0.0,-12.668,0.0,0.0,0.0
416,0.0,0.0,0.0,0.0871376953125,0.0,0.0,0.0,0.0,0.0,0.0,-0.714,0.0,0.0,0.0,0.0,0.0,0.0,-0.40375995993318575,0.0,0.0,0.0,0.0,0.0,0.0,-11.296,0.0,0.0,0.0
417,0.0,0.0,0.0,0.080623046875,0.0,0.0,0.0,0.0,0.0,0.0,-0.663,0.0,0.0,0.0,0.0,0.0,0.0,-0.4212397266190823,0.0,0.0,0.0,0.0,0.0,0.0,-10.244,0.0,0.0,0.0
418,0.0,0.0,0.0,0.0736572265625,0.0,0.0,0.0,0.0,0.0,0.0,-0.684,0.0,0.0,0.0,0.0,0.0,0.0,-0.43797754556271423,0.0,0.0,0.0,0.0,0.0,0.0,-10.244,0.0,0.0,0.0
419,0.0,0.0,0.0,0.066998046875,0.0,0.0,0.0,0.0,0.0,0.0,-0.686,0.0,0.0,0.0,0.0,0.0,0.0,-0.45397151808111014,0.0,0.0,0.0,0.0,0.0,0.0,-11.572,0.0,0.0,0.0
420,0.0,0.0,0.0,0.060771484375,0.0,0.0,0.0,0.0,0.0,0.0,-0.647,0.0,0.0,0.0,0.0,0.0,0.0,-0.4695928561258252,0.0,0.0,0.0,0.0,0.0,0.0,-11.48,0.0,0.0,0.0
421,0.0,0.0,0.0,0.054689453125,0.0,0.0,0.0,0.0,0.0,0.0,-0.626,0.0,0.0,0.0,0.0,0.0,0.0,-0.4840713906076855,0.0,0.0,0.0,0.0,0.0,0.0,-10.404,0.0,0.0,0.0
422,0.0,0.0,0.0,0.0485986328125,0.0,0.0,0.0,0.0,0.0,0.0,-0.607,0.0,0.0,0.0,0.0,0.0,0.0,-0.49767695046257443,0.0,0.0,0.0,0.0,0.0,0.0,-11.524,0.0,0.0,0.0
423,0.0,0.0,0.0,0.042228515625,0.0,0.0,0.0,0.0,0.0,0.0,-0.63,0.0,0.0,0.0,0.0,0.0,0.0,-0.5107525827378591,0.0,0.0,0.0,0.0,0.0,0.0,-12.348,0.0,0.0,0.0
424,0.0,0.0,0.0,0.036724609375,0.0,0.0,0.0,0.0,0.0,0.0,-0.598,0.0,0.0,0.0,0.0,0.0,0.0,-0.5228101368374071,0.0,0.0,0.0,0.0,0.0,0.0,-13.104,0.0,0.0,0.0
425,0.0,0.0,0.0,0.0315087890625,0.0,0.0,0.0,0.0,0.0,0.0,-0.55,0.0,0.0,0.0,0.0,0.0,0.0,-0.5341852574204491,0.0,0.0,0.0,0.0,0.0,0.0,-12.644,0.0,0.0,0.0
426,0.0,0.0,0.0,0.0264375,0.0,0.0,0.0,0.0,0.0,0.0,-0.524,0.0,0.0,0.0,0.0,0.0,0.0,-0.5446996960631746,0.0,0.0,0.0,0.0,0.0,0.0,-12.12,0.0,0.0,0.0
427,0.0,0.0,0.0,0.0210771484375,0.0,0.0,0.0,0.0,0.0,0.0,-0.514,0.0,0.0,0.0,0.0,0.0,0.0,-0.5543335976163204,0.0,0.0,0.0,0.0,0.0,0.0,-13.536,0.0,0.0,0.0
428,0.0,0.0,0.0,0.0155732421875,0.0,0.0,0.0,0.0,0.0,0.0,-0.546,0.0,0.0,0.0,0.0,0.0,0.0,-0.5630260961712009,0.0,0.0,0.0,0.0,0.0,0.0,-14.084,0.0,0.0,0.0
429,0.0,0.0,0.0,0.010357421875,0.0,0.0,0.0,0.0,0.0,0.0,-0.537,0.0,0.0,0.0,0.0,0.0,0.0,-0.5709177213514216,0.0,0.0,0.0,0.0,0.0,0.0,-14.336,0.0,0.0,0.0
430,0.0,0.0,0.0,0.005142578125,0.0,0.0,0.0,0.0,0.0,0.0,-0.525,0.0,0.0,0.0,0.0,0.0,0.0,-0.5778313596881048,0.0,0.0,0.0,0.0,0.0,0.0,-13.628,0.0,0.0,0.0
431,0.0,0.0,0.0,0.000359375,0.0,0.0,0.0,0.0,0.0,0.0,-0.512,0.0,0.0,0.0,0.0,0.0,0.0,-0.5838160639737485,0.0,0.0,0.0,0.0,0.0,0.0,-13.284,0.0,0.0,0.0
432,0.0,0.0,0.0,-0.0044130859375,0.0,0.0,0.0,0.0,0.0,0.0,-0.483,0.0,0.0,0.0,0.0,0.0,0.0,-0.5888777366148639,0.0,0.0,0.0,0.0,0.0,0.0,-14.248,0.0,0.0,0.0
433,0.0,0.0,0.0,-0.00963671875,0.0,0.0,0.0,0.0,0.0,0.0,-0.501,0.0,0.0,0.0,0.0,0.0,0.0,-0.5930241004626681,0.0,0.0,0.0,0.0,0.0,0.0,-15.916,0.0,0.0,0.0
434,0.0,0.0,0.0,-0.0149970703125,0.0,0.0,0.0,0.0,0.0,0.0,-0.535,0.0,0.0,0.0,0.0,0.0,0.0,-0.5961833108226838,0.0,0.0,0.0,0.0,0.0,0.0,-15.824,0.0,0.0,0.0
435,0.0,0.0,0.0,-0.0199150390625,0.0,0.0,0.0,0.0,0.0,0.0,-0.515,0.0,0.0,0.0,0.0,0.0,0.0,-0.5984138428093387,0.0,0.0,0.0,0.0,0.0,0.0,-15.78,0.0,0.0,0.0
436,0.0,0.0,0.0,-0.025130859375,0.0,0.0,0.0,0.0,0.0,0.0,-0.515,0.0,0.0,0.0,0.0,0.0,0.0,-0.59968195681458,0.0,0.0,0.0,0.0,0.0,0.0,-14.908,0.0,0.0,0.0
437,0.0,0.0,0.0,-0.029759765625,0.0,0.0,0.0,0.0,0.0,0.0,-0.499,0.0,0.0,0.0,0.0,0.0,0.0,-0.5999844346117531,0.0,0.0,0.0,0.0,0.0,0.0,-15.344,0.0,0.0,0.0
438,0.0,0.0,0.0,-0.03455078125,0.0,0.0,0.0,0.0,0.0,0.0,-0.462,0.0,0.0,0.0,0.0,0.0,0.0,-0.5987936912275325,0.0,0.0,0.0,0.0,0.0,0.0,-16.352,0.0,0.0,0.0
439,0.0,0.0,0.0,-0.04019921875,0.0,0.0,0.0,0.0,0.0,0.0,-0.522,0.0,0.0,0.0,0.0,0.0,0.0,-0.597591083497065,0.0,0.0,0.0,0.0,0.0,0.0,-16.28,0.0,0.0,0.0
440,0.0,0.0,0.0,-0.0458486328125,0.0,0.0,0.0,0.0,0.0,0.0,-0.57,0.0,0.0,0.0,0.0,0.0,0.0,-0.5951578761145069,0.0,0.0,0.0,0.0,0.0,0.0,-15.848,0.0,0.0,0.0
441,0.0,0.0,0.0,-0.0514970703125,0.0,0.0,0.0,0.0,0.0,0.0,-0.563,0.0,0.0,0.0,0.0,0.0,0.0,-0.5916100786101112,0.0,0.0,0.0,0.0,0.0,0.0,-15.228,0.0,0.0,0.0
442,0.0,0.0,0.0,-0.0570009765625,0.0,0.0,0.0,0.0,0.0,0.0,-0.576,0.0,0.0,0.0,0.0,0.0,0.0,-0.5871532656425019,0.0,0.0,0.0,0.0,0.0,0.0,-14.748,0.0,0.0,0.0
443,0.0,0.0,0.0,-0.062216796875,0.0,0.0,0.0,0.0,0.0,0.0,-0.531,0.0,0.0,0.0,0.0,0.0,0.0,-0.5817346170711725,0.0,0.0,0.0,0.0,0.0,0.0,-15.892,0.0,0.0,0.0
444,0.0,0.0,0.0,-0.067865234375,0.0,0.0,0.0,0.0,0.0,0.0,-0.541,0.0,0.0,0.0,0.0,0.0,0.0,-0.5753417404534394,0.0,0.0,0.0,0.0,0.0,0.0,-16.168,0.0,0.0,0.0
445,0.0,0.0,0.0,-0.073947265625,0.0,0.0,0.0,0.0,0.0,0.0,-0.597,0.0,0.0,0.0,0.0,0.0,0.0,-0.5680937962420693,0.0,0.0,0.0,0.0,0.0,0.0,-16.396,0.0,0.0,0.0
446,0.0,0.0,0.0,-0.0800380859375,0.0,0.0,0.0,0.0,0.0,0.0,-0.61,0.0,0.0,0.0,0.0,0.0,0.0,-0.5600175632079065,0.0,0.0,0.0,0.0,0.0,0.0,-15.96,0.0,0.0,0.0
447,0.0,0.0,0.0,-0.0861201171875,0.0,0.0,0.0,0.0,0.0,0.0,-0.612,0.0,0.0,0.0,0.0,0.0,0.0,-0.5509375371399209,0.0,0.0,0.0,0.0,0.0,0.0,-14.908,0.0,0.0,0.0
448,0.0,0.0,0.0,-0.0917685546875,0.0,0.0,0.0,0.0,0.0,0.0,-0.595,0.0,0.0,0.0,0.0,0.0,0.0,-0.5408694282320182,0.0,0.0,0.0,0.0,0.0,0.0,-14.956,0.0,0.0,0.0
449,0.0,0.0,0.0,-0.0974169921875,0.0,0.0,0.0,0.0,0.0,0.0,-0.563,0.0,0.0,0.0,0.0,0.0,0.0,-0.530045767774034,0.0,0.0,0.0,0.0,0.0,0.0,-15.252,0.0,0.0,0.0
450,0.0,0.0,0.0,-0.1034990234375,0.0,0.0,0.0,0.0,0.0,0.0,-0.591,0.0,0.0,0.0,0.0,0.0,0.0,-0.5184788903850512,0.0,0.0,0.0,0.0,0.0,0.0,-15.388,0.0,0.0,0.0
451,0.0,0.0,0.0,-0.109869140625,0.0,0.0,0.0,0.0,0.0,0.0,-0.629,0.0,0.0,0.0,0.0,0.0,0.0,-0.505941031083939,0.0,0.0,0.0,0.0,0.0,0.0,-14.636,0.0,0.0,0.0
452,0.0,0.0,0.0,-0.116240234375,0.0,0.0,0.0,0.0,0.0,0.0,-0.639,0.0,0.0,0.0,0.0,0.0,0.0,-0.49259231820975596,0.0,0.0,0.0,0.0,0.0,0.0,-14.04,0.0,0.0,0.0
453,0.0,0.0,0.0,-0.122763671875,0.0,0.0,0.0,0.0,0.0,0.0,-0.65,0.0,0.0,0.0,0.0,0.0,0.0,-0.4786148712454878,0.0,0.0,0.0,0.0,0.0,0.0,-13.516,0.0,0.0,0.0
454,0.0,0.0,0.0,-0.128701171875,0.0,0.0,0.0,0.0,0.0,0.0,-0.626,0.0,0.0,0.0,0.0,0.0,0.0,-0.46372274989713475,0.0,0.0,0.0,0.0,0.0,0.0,-13.856,0.0,0.0,0.0
455,0.0,0.0,0.0,-0.134783203125,0.0,0.0,0.0,0.0,0.0,0.0,-0.606,0.0,0.0,0.0,0.0,0.0,0.0,-0.4481598703802724,0.0,0.0,0.0,0.0,0.0,0.0,-14.816,0.0,0.0,0.0
456,0.0,0.0,0.0,-0.1411533203125,0.0,0.0,0.0,0.0,0.0,0.0,-0.627,0.0,0.0,0.0,0.0,0.0,0.0,-0.43196485406525736,0.0,0.0,0.0,0.0,0.0,0.0,-14.612,0.0,0.0,0.0
457,0.0,0.0,0.0,-0.147244140625,0.0,0.0,0.0,0.0,0.0,0.0,-0.622,0.0,0.0,0.0,0.0,0.0,0.0,-0.4144550131448815,0.0,0.0,0.0,0.0,0.0,0.0,-14.816,0.0,0.0,0.0
458,0.0,0.0,0.0,-0.153470703125,0.0,0.0,0.0,0.0,0.0,0.0,-0.623,0.0,0.0,0.0,0.0,0.0,0.0,-0.3972241431722643,0.0,0.0,0.0,0.0,0.0,0.0,-13.948,0.0,0.0,0.0
459,0.0,0.0,0.0,-0.159408203125,0.0,0.0,0.0,0.0,0.0,0.0,-0.621,0.0,0.0,0.0,0.0,0.0,0.0,-0.37891821360561756,0.0,0.0,0.0,0.0,0.0,0.0,-13.444,0.0,0.0,0.0
460,0.0,0.0,0.0,-0.1652099609375,0.0,0.0,0.0,0.0,0.0,0.0,-0.581,0.0,0.0,0.0,0.0,0.0,0.0,-0.3599906148636447,0.0,0.0,0.0,0.0,0.0,0.0,-14.176,0.0,0.0,0.0
461,0.0,0.0,0.0,-0.1714365234375,0.0,0.0,0.0,0.0,0.0,0.0,-0.614,0.0,0.0,0.0,0.0,0.0,0.0,-0.34058666372045143,0.0,0.0,0.0,0.0,0.0,0.0,-13.856,0.0,0.0,0.0
462,0.0,0.0,0.0,-0.1772294921875,0.0,0.0,0.0,0.0,0.0,0.0,-0.605,0.0,0.0,0.0,0.0,0.0,0.0,-0.3205425662560846,0.0,0.0,0.0,0.0,0.0,0.0,-13.924,0.0,0.0,0.0
463,0.0,0.0,0.0,-0.183455078125,0.0,0.0,0.0,0.0,0.0,0.0,-0.605,0.0,0.0,0.0,0.0,0.0,0.0,-0.2998747212717497,0.0,0.0,0.0,0.0,0.0,0.0,-13.604,0.0,0.0,0.0
464,0.0,0.0,0.0,-0.1895458984375,0.0,0.0,0.0,0.0,0.0,0.0,-0.625,0.0,0.0,0.0,0.0,0.0,0.0,-0.2789441079008615,0.0,0.0,0.0,0.0,0.0,0.0,-13.192,0.0,0.0,0.0
465,0.0,0.0,0.0,-0.1954833984375,0.0,0.0,0.0,0.0,0.0,0.0,-0.595,0.0,0.0,0.0,0.0,0.0,0.0,-0.25746718476756497,0.0,0.0,0.0,0.0,0.0,0.0,-14.016,0.0,0.0,0.0
466,0.0,0.0,0.0,-0.201412109375,0.0,0.0,0.0,0.0,0.0,0.0,-0.601,0.0,0.0,0.0,0.0,0.0,0.0,-0.23545007115885339,0.0,0.0,0.0,0.0,0.0,0.0,-14.176,0.0,0.0,0.0
467,0.0,0.0,0.0,-0.207060546875,0.0,0.0,0.0,0.0,0.0,0.0,-0.587,0.0,0.0,0.0,0.0,0.0,0.0,-0.21303548482517082,0.0,0.0,0.0,0.0,0.0,0.0,-14.452,0.0,0.0,0.0
468,0.0,0.0,0.0,-0.2128623046875,0.0,0.0,0.0,0.0,0.0,0.0,-0.574,0.0,0.0,0.0,0.0,0.0,0.0,-0.19068278979353628,0.0,0.0,0.0,0.0,0.0,0.0,-14.336,0.0,0.0,0.0
469,0.0,0.0,0.0,-0.2186552734375,0.0,0.0,0.0,0.0,0.0,0.0,-0.587,0.0,0.0,0.0,0.0,0.0,0.0,-0.16752952307885854,0.0,0.0,0.0,0.0,0.0,0.0,-13.924,0.0,0.0,0.0
470,0.0,0.0,0.0,-0.2238623046875,0.0,0.0,0.0,0.0,0.0,0.0,-0.563,0.0,0.0,0.0,0.0,0.0,0.0,-0.14420013232648882,0.0,0.0,0.0,0.0,0.0,0.0,-12.44,0.0,0.0,0.0
471,0.0,0.0,0.0,-0.226037109375,0.0,0.0,0.0,0.0,0.0,0.0,-0.416,0.0,0.0,0.0,0.0,0.0,0.0,-0.12105058497850348,0.0,0.0,0.0,0.0,0.0,0.0,-8.848,0.0,0.0,0.0
472,0.0,0.0,0.0,-0.225603515625,0.0,0.0,0.0,0.0,0.0,0.0,-0.098,0.0,0.0,0.0,0.0,0.0,0.0,-0.09714132258445951,0.0,0.0,0.0,0.0,0.0,0.0,-8.072,0.0,0.0,0.0
473,0.0,0.0,0.0,-0.2245927734375,0.0,0.0,0.0,0.0,0.0,0.0,0.065,0.0,0.0,0.0,0.0,0.0,0.0,-0.07384828167759146,0.0,0.0,0.0,0.0,0.0,0.0,-7.064,0.0,0.0,0.0
474,0.0,0.0,0.0,-0.2209658203125,0.0,0.0,0.0,0.0,0.0,0.0,0.197,0.0,0.0,0.0,0.0,0.0,0.0,-0.05009780828378053,0.0,0.0,0.0,0.0,0.0,0.0,-7.408,0.0,0.0,0.0
475,0.0,0.0,0.0,-0.21705859375,0.0,0.0,0.0,0.0,0.0,0.0,0.399,0.0,0.0,0.0,0.0,0.0,0.0,-0.02601817373972967,0.0,0.0,0.0,0.0,0.0,0.0,-7.932,0.0,0.0,0.0
476,0.0,0.0,0.0,-0.2131513671875,0.0,0.0,0.0,0.0,0.0,0.0,0.38,0.0,0.0,0.0,0.0,0.0,0.0,-0.002093873539089113,0.0,0.0,0.0,0.0,0.0,0.0,-5.168,0.0,0.0,0.0
477,0.0,0.0,0.0,-0.207349609375,0.0,0.0,0.0,0.0,0.0,0.0,0.47,0.0,0.0,0.0,0.0,0.0,0.0,0.021853199646364813,0.0,0.0,0.0,0.0,0.0,0.0,-4.688,0.0,0.0,0.0
478,0.0,0.0,0.0,-0.201123046875,0.0,0.0,0.0,0.0,0.0,0.0,0.598,0.0,0.0,0.0,0.0,0.0,0.0,3.0899047837904675e-05,0.0,0.0,0.0,0.0,0.0,0.0,-4.504,0.0,0.0,0.0
479,0.0,0.0,0.0,-0.19359765625,0.0,0.0,0.0,0.0,0.0,0.0,0.676,0.0,0.0,0.0,0.0,0.0,0.0,0.02394555082656979,0.0,0.0,0.0,0.0,0.0,0.0,-4.64,0.0,0.0,0.0
480,0.0,0.0,0.0,-0.1851875,0.0,0.0,0.0,0.0,0.0,0.0,0.807,0.0,0.0,0.0,0.0,0.0,0.0,0.04780275344816858,0.0,0.0,0.0,0.0,0.0,0.0,-6.56,0.0,0.0,0.0
481,0.0,0.0,0.0,-0.177951171875,0.0,0.0,0.0,0.0,0.0,0.0,0.8,0.0,0.0,0.0,0.0,0.0,0.0,0.07177442358120859,0.0,0.0,0.0,0.0,0.0,0.0,-8.14,0.0,0.0,0.0
482,0.0,0.0,0.0,-0.1710029296875,0.0,0.0,0.0,0.0,0.0,0.0,0.703,0.0,0.0,0.0,0.0,0.0,0.0,0.09573996309707368,0.0,0.0,0.0,0.0,0.0,0.0,-7.704,0.0,0.0,0.0
483,0.0,0.0,0.0,-0.1627373046875,0.0,0.0,0.0,0.0,0.0,0.0,0.742,0.0,0.0,0.0,0.0,0.0,0.0,0.1190270727074227,0.0,0.0,0.0,0.0,0.0,0.0,-7.844,0.0,0.0,0.0
484,0.0,0.0,0.0,-0.1540478515625,0.0,0.0,0.0,0.0,0.0,0.0,0.86,0.0,0.0,0.0,0.0,0.0,0.0,0.14247692902002784,0.0,0.0,0.0,0.0,0.0,0.0,-9.124,0.0,0.0,0.0
485,0.0,0.0,0.0,-0.1459453125,0.0,0.0,0.0,0.0,0.0,0.0,0.859,0.0,0.0,0.0,0.0,0.0,0.0,0.16604858726213892,0.0,0.0,0.0,0.0,0.0,0.0,-11.708,0.0,0.0,0.0
486,0.0,0.0,0.0,-0.13782421875,0.0,0.0,0.0,0.0,0.0,0.0,0.811,0.0,0.0,0.0,0.0,0.0,0.0,0.18869413677279376,0.0,0.0,0.0,0.0,0.0,0.0,-13.104,0.0,0.0,0.0
487,0.0,0.0,0.0,-0.129134765625,0.0,0.0,0.0,0.0,0.0,0.0,0.84,0.0,0.0,0.0,0.0,0.0,0.0,0.21137559314892207,0.0,0.0,0.0,0.0,0.0,0.0,-12.76,0.0,0.0,0.0
488,0.0,0.0,0.0,-0.12117578125,0.0,0.0,0.0,0.0,0.0,0.0,0.851,0.0,0.0,0.0,0.0,0.0,0.0,0.2336992809296854,0.0,0.0,0.0,0.0,0.0,0.0,-12.784,0.0,0.0,0.0
489,0.0,0.0,0.0,-0.11436328125,0.0,0.0,0.0,0.0,0.0,0.0,0.747,0.0,0.0,0.0,0.0,0.0,0.0,0.2556090082279807,0.0,0.0,0.0,0.0,0.0,0.0,-13.536,0.0,0.0,0.0
490,0.0,0.0,0.0,-0.1065400390625,0.0,0.0,0.0,0.0,0.0,0.0,0.718,0.0,0.0,0.0,0.0,0.0,0.0,0.27698858956119576,0.0,0.0,0.0,0.0,0.0,0.0,-14.156,0.0,0.0,0.0
491,0.0,0.0,0.0,-0.0978505859375,0.0,0.0,0.0,0.0,0.0,0.0,0.839,0.0,0.0,0.0,0.0,0.0,0.0,0.29818641789243816,0.0,0.0,0.0,0.0,0.0,0.0,-15.8,0.0,0.0,0.0
492,0.0,0.0,0.0,-0.0904599609375,0.0,0.0,0.0,0.0,0.0,0.0,0.824,0.0,0.0,0.0,0.0,0.0,0.0,0.31853883887820145,0.0,0.0,0.0,0.0,0.0,0.0,-16.692,0.0,0.0,0.0
493,0.0,0.0,0.0,-0.08365625,0.0,0.0,0.0,0.0,0.0,0.0,0.709,0.0,0.0,0.0,0.0,0.0,0.0,0.33857548642635615,0.0,0.0,0.0,0.0,0.0,0.0,-18.384,0.0,0.0,0.0
494,0.0,0.0,0.0,-0.0765634765625,0.0,0.0,0.0,0.0,0.0,0.0,0.694,0.0,0.0,0.0,0.0,0.0,0.0,0.35871752162195175,0.0,0.0,0.0,0.0,0.0,0.0,-18.364,0.0,0.0,0.0
495,0.0,0.0,0.0,-0.0688759765625,0.0,0.0,0.0,0.0,0.0,0.0,0.745,0.0,0.0,0.0,0.0,0.0,0.0,0.37710374296750787,0.0,0.0,0.0,0.0,0.0,0.0,-16.92,0.0,0.0,0.0
496,0.0,0.0,0.0,-0.0614951171875,0.0,0.0,0.0,0.0,0.0,0.0,0.76,0.0,0.0,0.0,0.0,0.0,0.0,0.3953779117310439,0.0,0.0,0.0,0.0,0.0,0.0,-16.9,0.0,0.0,0.0
497,0.0,0.0,0.0,-0.0548359375,0.0,0.0,0.0,0.0,0.0,0.0,0.716,0.0,0.0,0.0,0.0,0.0,0.0,0.41333015454668554,0.0,0.0,0.0,0.0,0.0,0.0,-19.256,0.0,0.0,0.0
498,0.0,0.0,0.0,-0.048302734375,0.0,0.0,0.0,0.0,0.0,0.0,0.657,0.0,0.0,0.0,0.0,0.0,0.0,0.4302729833638658,0.0,0.0,0.0,0.0,0.0,0.0,-19.184,0.0,0.0,0.0
499,0.0,0.0,0.0,-0.0413544921875,0.0,0.0,0.0,0.0,0.0,0.0,0.68,0.0,0.0,0.0,0.0,0.0,0.0,0.44662854541319474,0.0,0.0,0.0,0.0,0.0,0.0,-17.928,0.0,0.0,0.0
500,0.0,0.0,0.0,-0.0351279296875,0.0,0.0,0.0,0.0,0.0,0.0,0.668,0.0,0.0,0.0,0.0,0.0,0.0,0.4624171201843037,0.0,0.0,0.0,0.0,0.0,0.0,-16.832,0.0,0.0,0.0
501,0.0,0.0,0.0,-0.029037109375,0.0,0.0,0.0,0.0,0.0,0.0,0.609,0.0,0.0,0.0,0.0,0.0,0.0,0.4773228652931354,0.0,0.0,0.0,0.0,0.0,0.0,-17.54,0.0,0.0,0.0
502,0.0,0.0,0.0,-0.0228115234375,0.0,0.0,0.0,0.0,0.0,0.0,0.629,0.0,0.0,0.0,0.0,0.0,0.0,0.49141418462238334,0.0,0.0,0.0,0.0,0.0,0.0,-19.576,0.0,0.0,0.0
503,0.0,0.0,0.0,-0.0167294921875,0.0,0.0,0.0,0.0,0.0,0.0,0.613,0.0,0.0,0.0,0.0,0.0,0.0,0.5049212327296548,0.0,0.0,0.0,0.0,0.0,0.0,-18.616,0.0,0.0,0.0
504,0.0,0.0,0.0,-0.0107919921875,0.0,0.0,0.0,0.0,0.0,0.0,0.606,0.0,0.0,0.0,0.0,0.0,0.0,0.5174181915270774,0.0,0.0,0.0,0.0,0.0,0.0,-16.944,0.0,0.0,0.0
505,0.0,0.0,0.0,-0.005576171875,0.0,0.0,0.0,0.0,0.0,0.0,0.575,0.0,0.0,0.0,0.0,0.0,0.0,0.5290907637347283,0.0,0.0,0.0,0.0,0.0,0.0,-15.916,0.0,0.0,0.0
506,0.0,0.0,0.0,-0.000216796875,0.0,0.0,0.0,0.0,0.0,0.0,0.521,0.0,0.0,0.0,0.0,0.0,0.0,0.540050761652261,0.0,0.0,0.0,0.0,0.0,0.0,-15.504,0.0,0.0,0.0
507,0.0,0.0,0.0,0.005142578125,0.0,0.0,0.0,0.0,0.0,0.0,0.54,0.0,0.0,0.0,0.0,0.0,0.0,0.5502215794458711,0.0,0.0,0.0,0.0,0.0,0.0,-16.028,0.0,0.0,0.0
508,0.0,0.0,0.0,0.0100693359375,0.0,0.0,0.0,0.0,0.0,0.0,0.522,0.0,0.0,0.0,0.0,0.0,0.0,0.5592503603873017,0.0,0.0,0.0,0.0,0.0,0.0,-14.796,0.0,0.0,0.0
509,0.0,0.0,0.0,0.0154287109375,0.0,0.0,0.0,0.0,0.0,0.0,0.515,0.0,0.0,0.0,0.0,0.0,0.0,0.5675459532869438,0.0,0.0,0.0,0.0,0.0,0.0,-14.084,0.0,0.0,0.0
510,0.0,0.0,0.0,0.0202109375,0.0,0.0,0.0,0.0,0.0,0.0,0.522,0.0,0.0,0.0,0.0,0.0,0.0,0.5748198049733411,0.0,0.0,0.0,0.0,0.0,0.0,-14.428,0.0,0.0,0.0
511,0.0,0.0,0.0,0.02483984375,0.0,0.0,0.0,0.0,0.0,0.0,0.466,0.0,0.0,0.0,0.0,0.0,0.0,0.5812415092243481,0.0,0.0,0.0,0.0,0.0,0.0,-13.972,0.0,0.0,0.0
512,0.0,0.0,0.0,0.029767578125,0.0,0.0,0.0,0.0,0.0,0.0,0.482,0.0,0.0,0.0,0.0,0.0,0.0,0.5867217113804898,0.0,0.0,0.0,0.0,0.0,0.0,-14.452,0.0,0.0,0.0
513,0.0,0.0,0.0,0.0342607421875,0.0,0.0,0.0,0.0,0.0,0.0,0.479,0.0,0.0,0.0,0.0,0.0,0.0,0.5912751473679734,0.0,0.0,0.0,0.0,0.0,0.0,-13.904,0.0,0.0,0.0
514,0.0,0.0,0.0,0.03933203125,0.0,0.0,0.0,0.0,0.0,0.0,0.472,0.0,0.0,0.0,0.0,0.0,0.0,0.5948787068660248,0.0,0.0,0.0,0.0,0.0,0.0,-13.356,0.0,0.0,0.0
515,0.0,0.0,0.0,0.0448359375,0.0,0.0,0.0,0.0,0.0,0.0,0.537,0.0,0.0,0.0,0.0,0.0,0.0,0.5975437119281174,0.0,0.0,0.0,0.0,0.0,0.0,-13.948,0.0,0.0,0.0
516,0.0,0.0,0.0,0.0497626953125,0.0,0.0,0.0,0.0,0.0,0.0,0.528,0.0,0.0,0.0,0.0,0.0,0.0,0.5992303362795995,0.0,0.0,0.0,0.0,0.0,0.0,-13.264,0.0,0.0,0.0
517,0.0,0.0,0.0,0.054689453125,0.0,0.0,0.0,0.0,0.0,0.0,0.493,0.0,0.0,0.0,0.0,0.0,0.0,0.5999633534071352,0.0,0.0,0.0,0.0,0.0,0.0,-12.872,0.0,0.0,0.0
518,0.0,0.0,0.0,0.0597607421875,0.0,0.0,0.0,0.0,0.0,0.0,0.501,0.0,0.0,0.0,0.0,0.0,0.0,0.5997474526965474,0.0,0.0,0.0,0.0,0.0,0.0,-12.668,0.0,0.0,0.0
519,0.0,0.0,0.0,0.0646787109375,0.0,0.0,0.0,0.0,0.0,0.0,0.496,0.0,0.0,0.0,0.0,0.0,0.0,0.5985428471535152,0.0,0.0,0.0,0.0,0.0,0.0,-11.684,0.0,0.0,0.0
520,0.0,0.0,0.0,0.0703271484375,0.0,0.0,0.0,0.0,0.0,0.0,0.529,0.0,0.0,0.0,0.0,0.0,0.0,0.5964214722300805,0.0,0.0,0.0,0.0,0.0,0.0,-12.188,0.0,0.0,0.0
521,0.0,0.0,0.0,0.0758408203125,0.0,0.0,0.0,0.0,0.0,0.0,0.566,0.0,0.0,0.0,0.0,0.0,0.0,0.5933617060325592,0.0,0.0,0.0,0.0,0.0,0.0,-12.552,0.0,0.0,0.0
522,0.0,0.0,0.0,0.0813447265625,0.0,0.0,0.0,0.0,0.0,0.0,0.554,0.0,0.0,0.0,0.0,0.0,0.0,0.5892908424885842,0.0,0.0,0.0,0.0,0.0,0.0,-12.416,0.0,0.0,0.0
523,0.0,0.0,0.0,0.086705078125,0.0,0.0,0.0,0.0,0.0,0.0,0.546,0.0,0.0,0.0,0.0,0.0,0.0,0.5843342833336967,0.0,0.0,0.0,0.0,0.0,0.0,-12.576,0.0,0.0,0.0
524,0.0,0.0,0.0,0.0922001953125,0.0,0.0,0.0,0.0,0.0,0.0,0.54,0.0,0.0,0.0,0.0,0.0,0.0,0.5784344932420038,0.0,0.0,0.0,0.0,0.0,0.0,-12.624,0.0,0.0,0.0
525,0.0,0.0,0.0,0.097857421875,0.0,0.0,0.0,0.0,0.0,0.0,0.559,0.0,0.0,0.0,0.0,0.0,0.0,0.5714770512480393,0.0,0.0,0.0,0.0,0.0,0.0,-12.896,0.0,0.0,0.0
526,0.0,0.0,0.0,0.1039306640625,0.0,0.0,0.0,0.0,0.0,0.0,0.587,0.0,0.0,0.0,0.0,0.0,0.0,0.5638628012891538,0.0,0.0,0.0,0.0,0.0,0.0,-13.356,0.0,0.0,0.0
527,0.0,0.0,0.0,0.11030078125,0.0,0.0,0.0,0.0,0.0,0.0,0.62,0.0,0.0,0.0,0.0,0.0,0.0,0.5552152314619586,0.0,0.0,0.0,0.0,0.0,0.0,-13.172,0.0,0.0,0.0
528,0.0,0.0,0.0,0.116248046875,0.0,0.0,0.0,0.0,0.0,0.0,0.625,0.0,0.0,0.0,0.0,0.0,0.0,0.5455505925270202,0.0,0.0,0.0,0.0,0.0,0.0,-12.944,0.0,0.0,0.0
529,0.0,0.0,0.0,0.1221845703125,0.0,0.0,0.0,0.0,0.0,0.0,0.598,0.0,0.0,0.0,0.0,0.0,0.0,0.5352526418306642,0.0,0.0,0.0,0.0,0.0,0.0,-12.944,0.0,0.0,0.0
530,0.0,0.0,0.0,0.1282666015625,0.0,0.0,0.0,0.0,0.0,0.0,0.605,0.0,0.0,0.0,0.0,0.0,0.0,0.5239980375181992,0.0,0.0,0.0,0.0,0.0,0.0,-12.804,0.0,0.0,0.0
531,0.0,0.0,0.0,0.1344931640625,0.0,0.0,0.0,0.0,0.0,0.0,0.612,0.0,0.0,0.0,0.0,0.0,0.0,0.5116791776791604,0.0,0.0,0.0,0.0,0.0,0.0,-12.896,0.0,0.0,0.0
532,0.0,0.0,0.0,0.1408720703125,0.0,0.0,0.0,0.0,0.0,0.0,0.637,0.0,0.0,0.0,0.0,0.0,0.0,0.49892073137254767,0.0,0.0,0.0,0.0,0.0,0.0,-13.124,0.0,0.0,0.0
533,0.0,0.0,0.0,0.1470986328125,0.0,0.0,0.0,0.0,0.0,0.0,0.642,0.0,0.0,0.0,0.0,0.0,0.0,0.48523492747678015,0.0,0.0,0.0,0.0,0.0,0.0,-13.904,0.0,0.0,0.0
534,0.0,0.0,0.0,0.1533251953125,0.0,0.0,0.0,0.0,0.0,0.0,0.621,0.0,0.0,0.0,0.0,0.0,0.0,0.4704021545006861,0.0,0.0,0.0,0.0,0.0,0.0,-14.292,0.0,0.0,0.0
535,0.0,0.0,0.0,0.1595595703125,0.0,0.0,0.0,0.0,0.0,0.0,0.626,0.0,0.0,0.0,0.0,0.0,0.0,0.45541459722518873,0.0,0.0,0.0,0.0,0.0,0.0,-14.796,0.0,0.0,0.0
536,0.0,0.0,0.0,0.1656416015625,0.0,0.0,0.0,0.0,0.0,0.0,0.616,0.0,0.0,0.0,0.0,0.0,0.0,0.4394827643876527,0.0,0.0,0.0,0.0,0.0,0.0,-14.68,0.0,0.0,0.0
537,0.0,0.0,0.0,0.172166015625,0.0,0.0,0.0,0.0,0.0,0.0,0.632,0.0,0.0,0.0,0.0,0.0,0.0,0.4224694893047739,0.0,0.0,0.0,0.0,0.0,0.0,-14.084,0.0,0.0,0.0
538,0.0,0.0,0.0,0.178544921875,0.0,0.0,0.0,0.0,0.0,0.0,0.652,0.0,0.0,0.0,0.0,0.0,0.0,0.40537553539329185,0.0,0.0,0.0,0.0,0.0,0.0,-14.064,0.0,0.0,0.0
539,0.0,0.0,0.0,0.184771484375,0.0,0.0,0.0,0.0,0.0,0.0,0.63,0.0,0.0,0.0,0.0,0.0,0.0,0.3873271831105623,0.0,0.0,0.0,0.0,0.0,0.0,-14.2,0.0,0.0,0.0
540,0.0,0.0,0.0,0.190853515625,0.0,0.0,0.0,0.0,0.0,0.0,0.625,0.0,0.0,0.0,0.0,0.0,0.0,0.3685340176033737,0.0,0.0,0.0,0.0,0.0,0.0,-14.292,0.0,0.0,0.0
541,0.0,0.0,0.0,0.1967998046875,0.0,0.0,0.0,0.0,0.0,0.0,0.607,0.0,0.0,0.0,0.0,0.0,0.0,0.34950189256215386,0.0,0.0,0.0,0.0,0.0,0.0,-14.04,0.0,0.0,0.0
542,0.0,0.0,0.0,0.2028818359375,0.0,0.0,0.0,0.0,0.0,0.0,0.598,0.0,0.0,0.0,0.0,0.0,0.0,0.32975791045993275,0.0,0.0,0.0,0.0,0.0,0.0,-13.696,0.0,0.0,0.0
543,0.0,0.0,0.0,0.208818359375,0.0,0.0,0.0,0.0,0.0,0.0,0.601,0.0,0.0,0.0,0.0,0.0,0.0,0.30897597629443213,0.0,0.0,0.0,0.0,0.0,0.0,-13.972,0.0,0.0,0.0
544,0.0,0.0,0.0,0.214755859375,0.0,0.0,0.0,0.0,0.0,0.0,0.597,0.0,0.0,0.0,0.0,0.0,0.0,0.2886810130438259,0.0,0.0,0.0,0.0,0.0,0.0,-14.248,0.0,0.0,0.0
545,0.0,0.0,0.0,0.220837890625,0.0,0.0,0.0,0.0,0.0,0.0,0.606,0.0,0.0,0.0,0.0,0.0,0.0,0.2674162135353711,0.0,0.0,0.0,0.0,0.0,0.0,-14.956,0.0,0.0,0.0
546,0.0,0.0,0.0,0.226630859375,0.0,0.0,0.0,0.0,0.0,0.0,0.598,0.0,0.0,0.0,0.0,0.0,0.0,0.24557691008677127,0.0,0.0,0.0,0.0,0.0,0.0,-15.3,0.0,0.0,0.0
547,0.0,0.0,0.0,0.232568359375,0.0,0.0,0.0,0.0,0.0,0.0,0.592,0.0,0.0,0.0,0.0,0.0,0.0,0.2236177166938537,0.0,0.0,0.0,0.0,0.0,0.0,-14.612,0.0,0.0,0.0
548,0.0,0.0,0.0,0.2385146484375,0.0,0.0,0.0,0.0,0.0,0.0,0.6,0.0,0.0,0.0,0.0,0.0,0.0,0.20133240667754745,0.0,0.0,0.0,0.0,0.0,0.0,-13.652,0.0,0.0,0.0
549,0.0,0.0,0.0,0.24373046875,0.0,0.0,0.0,0.0,0.0,0.0,0.571,0.0,0.0,0.0,0.0,0.0,0.0,0.17827061853884937,0.0,0.0,0.0,0.0,0.0,0.0,-14.748,0.0,0.0,0.0
550,0.0,0.0,0.0,0.246482421875,0.0,0.0,0.0,0.0,0.0,0.0,0.438,0.0,0.0,0.0,0.0,0.0,0.0,0.15529701131465792,0.0,0.0,0.0,0.0,0.0,0.0,-19.116,0.0,0.0,0.0
551,0.0,0.0,0.0,0.2457607421875,0.0,0.0,0.0,0.0,0.0,0.0,0.123,0.0,0.0,0.0,0.0,0.0,0.0,0.13210902703145652,0.0,0.0,0.0,0.0,0.0,0.0,-20.74,0.0,0.0,0.0
552,0.0,0.0,0.0,0.24401953125,0.0,0.0,0.0,0.0,0.0,0.0,-0.114,0.0,0.0,0.0,0.0,0.0,0.0,0.10853951619311744,0.0,0.0,0.0,0.0,0.0,0.0,-21.632,0.0,0.0,0.0
553,0.0,0.0,0.0,0.240833984375,0.0,0.0,0.0,0.0,0.0,0.0,-0.231,0.0,0.0,0.0,0.0,0.0,0.0,0.08472921874634583,0.0,0.0,0.0,0.0,0.0,0.0,-21.792,0.0,0.0,0.0
554,0.0,0.0,0.0,0.2366376953125,0.0,0.0,0.0,0.0,0.0,0.0,-0.381,0.0,0.0,0.0,0.0,0.0,0.0,0.06100849586106583,0.0,0.0,0.0,0.0,0.0,0.0,-22.0,0.0,0.0,0.0
555,0.0,0.0,0.0,0.232712890625,0.0,0.0,0.0,0.0,0.0,0.0,-0.407,0.0,0.0,0.0,0.0,0.0,0.0,0.0369465541259356,0.0,0.0,0.0,0.0,0.0,0.0,-24.148,0.0,0.0,0.0
556,0.0,0.0,0.0,0.228228515625,0.0,0.0,0.0,0.0,0.0,0.0,-0.405,0.0,0.0,0.0,0.0,0.0,0.0,0.013053050155965988,0.0,0.0,0.0,0.0,0.0,0.0,-25.612,0.0,0.0,0.0
557,0.0,0.0,0.0,0.222146484375,0.0,0.0,0.0,0.0,0.0,0.0,-0.524,0.0,0.0,0.0,0.0,0.0,0.0,-0.010949866832654758,0.0,0.0,0.0,0.0,0.0,0.0,-24.196,0.0,0.0,0.0
558,0.0,0.0,0.0,0.214755859375,0.0,0.0,0.0,0.0,0.0,0.0,-0.658,0.0,0.0,0.0,0.0,0.0,0.0,-0.03488042112822635,0.0,0.0,0.0,0.0,0.0,0.0,-23.508,0.0,0.0,0.0
559,0.0,0.0,0.0,0.20635546875,0.0,0.0,0.0,0.0,0.0,0.0,-0.793,0.0,0.0,0.0,0.0,0.0,0.0,-0.05886303410198665,0.0,0.0,0.0,0.0,0.0,0.0,-22.616,0.0,0.0,0.0
560,0.0,0.0,0.0,0.1988212890625,0.0,0.0,0.0,0.0,0.0,0.0,-0.828,0.0,0.0,0.0,0.0,0.0,0.0,-0.08255833023945895,0.0,0.0,0.0,0.0,0.0,0.0,-19.804,0.0,0.0,0.0
561,0.0,0.0,0.0,0.192296875,0.0,0.0,0.0,0.0,0.0,0.0,-0.705,0.0,0.0,0.0,0.0,0.0,0.0,-0.10638492133844059,0.0,0.0,0.0,0.0,0.0,0.0,-18.864,0.0,0.0,0.0
562,0.0,0.0,0.0,0.184482421875,0.0,0.0,0.0,0.0,0.0,0.0,-0.698,0.0,0.0,0.0,0.0,0.0,0.0,-0.1300305431230378,0.0,0.0,0.0,0.0,0.0,0.0,-19.756,0.0,0.0,0.0
563,0.0,0.0,0.0,0.1750625,0.0,0.0,0.0,0.0,0.0,0.0,-0.861,0.0,0.0,0.0,0.0,0.0,0.0,-0.15318281452225424,0.0,0.0,0.0,0.0,0.0,0.0,-21.016,0.0,0.0,0.0
564,0.0,0.0,0.0,0.1669501953125,0.0,0.0,0.0,0.0,0.0,0.0,-0.903,0.0,0.0,0.0,0.0,0.0,0.0,-0.17634131967710515,0.0,0.0,0.0,0.0,0.0,0.0,-18.02,0.0,0.0,0.0
565,0.0,0.0,0.0,0.159416015625,0.0,0.0,0.0,0.0,0.0,0.0,-0.782,0.0,0.0,0.0,0.0,0.0,0.0,-0.19911852547549738,0.0,0.0,0.0,0.0,0.0,0.0,-15.136,0.0,0.0,0.0
566,0.0,0.0,0.0,0.1508701171875,0.0,0.0,0.0,0.0,0.0,0.0,-0.801,0.0,0.0,0.0,0.0,0.0,0.0,-0.22151487633386868,0.0,0.0,0.0,0.0,0.0,0.0,-14.476,0.0,0.0,0.0
567,0.0,0.0,0.0,0.1424697265625,0.0,0.0,0.0,0.0,0.0,0.0,-0.87,0.0,0.0,0.0,0.0,0.0,0.0,-0.24368012377697262,0.0,0.0,0.0,0.0,0.0,0.0,-15.46,0.0,0.0,0.0
568,0.0,0.0,0.0,0.135666015625,0.0,0.0,0.0,0.0,0.0,0.0,-0.769,0.0,0.0,0.0,0.0,0.0,0.0,-0.2654647491701527,0.0,0.0,0.0,0.0,0.0,0.0,-15.208,0.0,0.0,0.0
569,0.0,0.0,0.0,0.127833984375,0.0,0.0,0.0,0.0,0.0,0.0,-0.715,0.0,0.0,0.0,0.0,0.0,0.0,-0.28675269720640306,0.0,0.0,0.0,0.0,0.0,0.0,-13.492,0.0,0.0,0.0
570,0.0,0.0,0.0,0.1187109375,0.0,0.0,0.0,0.0,0.0,0.0,-0.852,0.0,0.0,0.0,0.0,0.0,0.0,-0.30758903315389413,0.0,0.0,0.0,0.0,0.0,0.0,-11.912,0.0,0.0,0.0
571,0.0,0.0,0.0,0.1104453125,0.0,0.0,0.0,0.0,0.0,0.0,-0.895,0.0,0.0,0.0,0.0,0.0,0.0,-0.32802051189357256,0.0,0.0,0.0,0.0,0.0,0.0,-12.212,0.0,0.0,0.0
572,0.0,0.0,0.0,0.1037861328125,0.0,0.0,0.0,0.0,0.0,0.0,-0.764,0.0,0.0,0.0,0.0,0.0,0.0,-0.3477702942062416,0.0,0.0,0.0,0.0,0.0,0.0,-11.412,0.0,0.0,0.0
573,0.0,0.0,0.0,0.0972802734375,0.0,0.0,0.0,0.0,0.0,0.0,-0.648,0.0,0.0,0.0,0.0,0.0,0.0,-0.36703878436472887,0.0,0.0,0.0,0.0,0.0,0.0,-12.304,0.0,0.0,0.0
574,0.0,0.0,0.0,0.0896015625,0.0,0.0,0.0,0.0,0.0,0.0,-0.708,0.0,0.0,0.0,0.0,0.0,0.0,-0.3861261392725054,0.0,0.0,0.0,0.0,0.0,0.0,-12.804,0.0,0.0,0.0
575,0.0,0.0,0.0,0.0822109375,0.0,0.0,0.0,0.0,0.0,0.0,-0.769,0.0,0.0,0.0,0.0,0.0,0.0,-0.4037938196831849,0.0,0.0,0.0,0.0,0.0,0.0,-12.348,0.0,0.0,0.0
576,0.0,0.0,0.0,0.0755517578125,0.0,0.0,0.0,0.0,0.0,0.0,-0.713,0.0,0.0,0.0,0.0,0.0,0.0,-0.42121405502402304,0.0,0.0,0.0,0.0,0.0,0.0,-10.2,0.0,0.0,0.0
577,0.0,0.0,0.0,0.0688837890625,0.0,0.0,0.0,0.0,0.0,0.0,-0.666,0.0,0.0,0.0,0.0,0.0,0.0,-0.4381957142497173,0.0,0.0,0.0,0.0,0.0,0.0,-9.604,0.0,0.0,0.0
578,0.0,0.0,0.0,0.062080078125,0.0,0.0,0.0,0.0,0.0,0.0,-0.685,0.0,0.0,0.0,0.0,0.0,0.0,-0.45399022452913634,0.0,0.0,0.0,0.0,0.0,0.0,-10.748,0.0,0.0,0.0
579,0.0,0.0,0.0,0.0555556640625,0.0,0.0,0.0,0.0,0.0,0.0,-0.676,0.0,0.0,0.0,0.0,0.0,0.0,-0.46942077513885316,0.0,0.0,0.0,0.0,0.0,0.0,-12.028,0.0,0.0,0.0
580,0.0,0.0,0.0,0.0493212890625,0.0,0.0,0.0,0.0,0.0,0.0,-0.641,0.0,0.0,0.0,0.0,0.0,0.0,-0.4838880845381938,0.0,0.0,0.0,0.0,0.0,0.0,-11.98,0.0,0.0,0.0
581,0.0,0.0,0.0,0.0433837890625,0.0,0.0,0.0,0.0,0.0,0.0,-0.618,0.0,0.0,0.0,0.0,0.0,0.0,-0.49765553539236546,0.0,0.0,0.0,0.0,0.0,0.0,-10.792,0.0,0.0,0.0
582,0.0,0.0,0.0,0.0371572265625,0.0,0.0,0.0,0.0,0.0,0.0,-0.598,0.0,0.0,0.0,0.0,0.0,0.0,-0.5106354435593782,0.0,0.0,0.0,0.0,0.0,0.0,-11.892,0.0,0.0,0.0
583,0.0,0.0,0.0,0.03106640625,0.0,0.0,0.0,0.0,0.0,0.0,-0.632,0.0,0.0,0.0,0.0,0.0,0.0,-0.522886485641968,0.0,0.0,0.0,0.0,0.0,0.0,-12.416,0.0,0.0,0.0
584,0.0,0.0,0.0,0.02600390625,0.0,0.0,0.0,0.0,0.0,0.0,-0.57,0.0,0.0,0.0,0.0,0.0,0.0,-0.5342399637950078,0.0,0.0,0.0,0.0,0.0,0.0,-12.872,0.0,0.0,0.0
585,0.0,0.0,0.0,0.0202109375,0.0,0.0,0.0,0.0,0.0,0.0,-0.54,0.0,0.0,0.0,0.0,0.0,0.0,-0.5447208092040754,0.0,0.0,0.0,0.0,0.0,0.0,-12.256,0.0,0.0,0.0
586,0.0,0.0,0.0,0.01499609375,0.0,0.0,0.0,0.0,0.0,0.0,-0.558,0.0,0.0,0.0,0.0,0.0,0.0,-0.554383288474309,0.0,0.0,0.0,0.0,0.0,0.0,-11.892,0.0,0.0,0.0
587,0.0,0.0,0.0,0.009771484375,0.0,0.0,0.0,0.0,0.0,0.0,-0.519,0.0,0.0,0.0,0.0,0.0,0.0,-0.5630956766100127,0.0,0.0,0.0,0.0,0.0,0.0,-13.492,0.0,0.0,0.0
588,0.0,0.0,0.0,0.0041318359375,0.0,0.0,0.0,0.0,0.0,0.0,-0.552,0.0,0.0,0.0,0.0,0.0,0.0,-0.5709258161463411,0.0,0.0,0.0,0.0,0.0,0.0,-13.948,0.0,0.0,0.0
589,0.0,0.0,0.0,-0.0007939453125,0.0,0.0,0.0,0.0,0.0,0.0,-0.539,0.0,0.0,0.0,0.0,0.0,0.0,-0.577874026064442,0.0,0.0,0.0,0.0,0.0,0.0,-14.064,0.0,0.0,0.0
590,0.0,0.0,0.0,-0.006009765625,0.0,0.0,0.0,0.0,0.0,0.0,-0.507,0.0,0.0,0.0,0.0,0.0,0.0,-0.5838486525529962,0.0,0.0,0.0,0.0,0.0,0.0,-13.696,0.0,0.0,0.0
591,0.0,0.0,0.0,-0.0112255859375,0.0,0.0,0.0,0.0,0.0,0.0,-0.531,0.0,0.0,0.0,0.0,0.0,0.0,-0.5889108308094909,0.0,0.0,0.0,0.0,0.0,0.0,-13.764,0.0,0.0,0.0
592,0.0,0.0,0.0,-0.01586328125,0.0,0.0,0.0,0.0,0.0,0.0,-0.499,0.0,0.0,0.0,0.0,0.0,0.0,-0.5930641506622052,0.0,0.0,0.0,0.0,0.0,0.0,-15.16,0.0,0.0,0.0
593,0.0,0.0,0.0,-0.0210791015625,0.0,0.0,0.0,0.0,0.0,0.0,-0.488,0.0,0.0,0.0,0.0,0.0,0.0,-0.5962191828350947,0.0,0.0,0.0,0.0,0.0,0.0,-16.188,0.0,0.0,0.0
594,0.0,0.0,0.0,-0.026140625,0.0,0.0,0.0,0.0,0.0,0.0,-0.521,0.0,0.0,0.0,0.0,0.0,0.0,-0.5984162534901577,0.0,0.0,0.0,0.0,0.0,0.0,-15.732,0.0,0.0,0.0
595,0.0,0.0,0.0,-0.0309326171875,0.0,0.0,0.0,0.0,0.0,0.0,-0.498,0.0,0.0,0.0,0.0,0.0,0.0,-0.5996914964738022,0.0,0.0,0.0,0.0,0.0,0.0,-15.3,0.0,0.0,0.0
596,0.0,0.0,0.0,-0.0361484375,0.0,0.0,0.0,0.0,0.0,0.0,-0.499,0.0,0.0,0.0,0.0,0.0,0.0,-0.5999821823330735,0.0,0.0,0.0,0.0,0.0,0.0,-14.612,0.0,0.0,0.0
597,0.0,0.0,0.0,-0.0410654296875,0.0,0.0,0.0,0.0,0.0,0.0,-0.511,0.0,0.0,0.0,0.0,0.0,0.0,-0.5993122955926536,0.0,0.0,0.0,0.0,0.0,0.0,-15.504,0.0,0.0,0.0
598,0.0,0.0,0.0,-0.04628125,0.0,0.0,0.0,0.0,0.0,0.0,-0.504,0.0,0.0,0.0,0.0,0.0,0.0,-0.5976888814562823,0.0,0.0,0.0,0.0,0.0,0.0,-16.212,0.0,0.0,0.0
599,0.0,0.0,0.0,-0.0516416015625,0.0,0.0,0.0,0.0,0.0,0.0,-0.535,0.0,0.0,0.0,0.0,0.0,0.0,-0.5950796464537014,0.0,0.0,0.0,0.0,0.0,0.0,-16.188,0.0,0.0,0.0
600,0.0,0.0,0.0,-0.0572900390625,0.0,0.0,0.0,0.0,0.0,0.0,-0.554,0.0,0.0,0.0,0.0,0.0,0.0,-0.591592524074919,0.0,0.0,0.0,0.0,0.0,0.0,-15.732,0.0,0.0,0.0
601,0.0,0.0,0.0,-0.0629384765625,0.0,0.0,0.0,0.0,0.0,0.0,-0.569,0.0,0.0,0.0,0.0,0.0,0.0,-0.5871230979704845,0.0,0.0,0.0,0.0,0.0,0.0,-14.932,0.0,0.0,0.0
602,0.0,0.0,0.0,-0.068298828125,0.0,0.0,0.0,0.0,0.0,0.0,-0.55,0.0,0.0,0.0,0.0,0.0,0.0,-0.5816493313600305,0.0,0.0,0.0,0.0,0.0,0.0,-15.436,0.0,0.0,0.0
603,0.0,0.0,0.0,-0.073947265625,0.0,0.0,0.0,0.0,0.0,0.0,-0.552,0.0,0.0,0.0,0.0,0.0,0.0,-0.5753824748597434,0.0,0.0,0.0,0.0,0.0,0.0,-16.42,0.0,0.0,0.0
604,0.0,0.0,0.0,-0.0794599609375,0.0,0.0,0.0,0.0,0.0,0.0,-0.568,0.0,0.0,0.0,0.0,0.0,0.0,-0.5680613849444779,0.0,0.0,0.0,0.0,0.0,0.0,-16.556,0.0,0.0,0.0
605,0.0,0.0,0.0,-0.085244140625,0.0,0.0,0.0,0.0,0.0,0.0,-0.567,0.0,0.0,0.0,0.0,0.0,0.0,-0.5598209832054909,0.0,0.0,0.0,0.0,0.0,0.0,-16.396,0.0,0.0,0.0
606,0.0,0.0,0.0,-0.091326171875,0.0,0.0,0.0,0.0,0.0,0.0,-0.599,0.0,0.0,0.0,0.0,0.0,0.0,-0.5508899356283875,0.0,0.0,0.0,0.0,0.0,0.0,-15.32,0.0,0.0,0.0
607,0.0,0.0,0.0,-0.096984375,0.0,0.0,0.0,0.0,0.0,0.0,-0.587,0.0,0.0,0.0,0.0,0.0,0.0,-0.5408976627113339,0.0,0.0,0.0,0.0,0.0,0.0,-14.816,0.0,0.0,0.0
608,0.0,0.0,0.0,-0.1030654296875,0.0,0.0,0.0,0.0,0.0,0.0,-0.588,0.0,0.0,0.0,0.0,0.0,0.0,-0.5291005633216311,0.0,0.0,0.0,0.0,0.0,0.0,-15.136,0.0,0.0,0.0
609,0.0,0.0,0.0,-0.1091474609375,0.0,0.0,0.0,0.0,0.0,0.0,-0.615,0.0,0.0,0.0,0.0,0.0,0.0,-0.5184051543121915,0.0,0.0,0.0,0.0,0.0,0.0,-14.704,0.0,0.0,0.0
610,0.0,0.0,0.0,-0.1152294921875,0.0,0.0,0.0,0.0,0.0,0.0,-0.605,0.0,0.0,0.0,0.0,0.0,0.0,-0.505932110904361,0.0,0.0,0.0,0.0,0.0,0.0,-14.888,0.0,0.0,0.0
611,0.0,0.0,0.0,-0.1216083984375,0.0,0.0,0.0,0.0,0.0,0.0,-0.628,0.0,0.0,0.0,0.0,0.0,0.0,-0.49244133580311217,0.0,0.0,0.0,0.0,0.0,0.0,-14.292,0.0,0.0,0.0
612,0.0,0.0,0.0,-0.1278349609375,0.0,0.0,0.0,0.0,0.0,0.0,-0.644,0.0,0.0,0.0,0.0,0.0,0.0,-0.47860900487336455,0.0,0.0,0.0,0.0,0.0,0.0,-13.88,0.0,0.0,0.0
613,0.0,0.0,0.0,-0.134205078125,0.0,0.0,0.0,0.0,0.0,0.0,-0.626,0.0,0.0,0.0,0.0,0.0,0.0,-0.4637532487910623,0.0,0.0,0.0,0.0,0.0,0.0,-14.476,0.0,0.0,0.0
614,0.0,0.0,0.0,-0.140431640625,0.0,0.0,0.0,0.0,0.0,0.0,-0.636,0.0,0.0,0.0,0.0,0.0,0.0,-0.447870985103688,0.0,0.0,0.0,0.0,0.0,0.0,-14.384,0.0,0.0,0.0
615,0.0,0.0,0.0,-0.1463779296875,0.0,0.0,0.0,0.0,0.0,0.0,-0.611,0.0,0.0,0.0,0.0,0.0,0.0,-0.4317714052149151,0.0,0.0,0.0,0.0,0.0,0.0,-14.772,0.0,0.0,0.0
616,0.0,0.0,0.0,-0.1524599609375,0.0,0.0,0.0,0.0,0.0,0.0,-0.607,0.0,0.0,0.0,0.0,0.0,0.0,-0.4148193831595612,0.0,0.0,0.0,0.0,0.0,0.0,-14.496,0.0,0.0,0.0
617,0.0,0.0,0.0,-0.1585419921875,0.0,0.0,0.0,0.0,0.0,0.0,-0.616,0.0,0.0,0.0,0.0,0.0,0.0,-0.3970710209898334,0.0,0.0,0.0,0.0,0.0,0.0,-13.788,0.0,0.0,0.0
618,0.0,0.0,0.0,-0.164623046875,0.0,0.0,0.0,0.0,0.0,0.0,-0.602,0.0,0.0,0.0,0.0,0.0,0.0,-0.37891111500969615,0.0,0.0,0.0,0.0,0.0,0.0,-14.176,0.0,0.0,0.0
619,0.0,0.0,0.0,-0.1708583984375,0.0,0.0,0.0,0.0,0.0,0.0,-0.629,0.0,0.0,0.0,0.0,0.0,0.0,-0.35997733938481985,0.0,0.0,0.0,0.0,0.0,0.0,-13.744,0.0,0.0,0.0
620,0.0,0.0,0.0,-0.1767958984375,0.0,0.0,0.0,0.0,0.0,0.0,-0.61,0.0,0.0,0.0,0.0,0.0,0.0,-0.34018141950340214,0.0,0.0,0.0,0.0,0.0,0.0,-13.676,0.0,0.0,0.0
621,0.0,0.0,0.0,-0.1828779296875,0.0,0.0,0.0,0.0,0.0,0.0,-0.601,0.0,0.0,0.0,0.0,0.0,0.0,-0.3204206635423453,0.0,0.0,0.0,0.0,0.0,0.0,-13.744,0.0,0.0,0.0
622,0.0,0.0,0.0,-0.1889599609375,0.0,0.0,0.0,0.0,0.0,0.0,-0.619,0.0,0.0,0.0,0.0,0.0,0.0,-0.29989950156435974,0.0,0.0,0.0,0.0,0.0,0.0,-13.628,0.0,0.0,0.0
623,0.0,0.0,0.0,-0.1948974609375,0.0,0.0,0.0,0.0,0.0,0.0,-0.602,0.0,0.0,0.0,0.0,0.0,0.0,-0.27882099495252616,0.0,0.0,0.0,0.0,0.0,0.0,-14.176,0.0,0.0,0.0
624,0.0,0.0,0.0,-0.201123046875,0.0,0.0,0.0,0.0,0.0,0.0,-0.615,0.0,0.0,0.0,0.0,0.0,0.0,-0.2573958579914805,0.0,0.0,0.0,0.0,0.0,0.0,-14.084,0.0,0.0,0.0
625,0.0,0.0,0.0,-0.206771484375,0.0,0.0,0.0,0.0,0.0,0.0,-0.605,0.0,0.0,0.0,0.0,0.0,0.0,-0.23554059273224845,0.0,0.0,0.0,0.0,0.0,0.0,-14.084,0.0,0.0,0.0
626,0.0,0.0,0.0,-0.21271875,0.0,0.0,0.0,0.0,0.0,0.0,-0.574,0.0,0.0,0.0,0.0,0.0,0.0,-0.2131633256331155,0.0,0.0,0.0,0.0,0.0,0.0,-14.2,0.0,0.0,0.0
627,0.0,0.0,0.0,-0.2183671875,0.0,0.0,0.0,0.0,0.0,0.0,-0.587,0.0,0.0,0.0,0.0,0.0,0.0,-0.19072836248595978,0.0,0.0,0.0,0.0,0.0,0.0,-13.996,0.0,0.0,0.0
628,0.0,0.0,0.0,-0.2240068359375,0.0,0.0,0.0,0.0,0.0,0.0,-0.575,0.0,0.0,0.0,0.0,0.0,0.0,-0.16776961689409306,0.0,0.0,0.0,0.0,0.0,0.0,-14.064,0.0,0.0,0.0
629,0.0,0.0,0.0,-0.2287890625,0.0,0.0,0.0,0.0,0.0,0.0,-0.552,0.0,0.0,0.0,0.0,0.0,0.0,-0.14454947402147275,0.0,0.0,0.0,0.0,0.0,0.0,-11.136,0.0,0.0,0.0
630,0.0,0.0,0.0,-0.2293662109375,0.0,0.0,0.0,0.0,0.0,0.0,-0.316,0.0,0.0,0.0,0.0,0.0,0.0,-0.12124336922284414,0.0,0.0,0.0,0.0,0.0,0.0,-7.132,0.0,0.0,0.0
631,0.0,0.0,0.0,-0.22835546875,0.0,0.0,0.0,0.0,0.0,0.0,0.033,0.0,0.0,0.0,0.0,0.0,0.0,-0.09761729562982731,0.0,0.0,0.0,0.0,0.0,0.0,-7.592,0.0,0.0,0.0
632,0.0,0.0,0.0,-0.2266142578125,0.0,0.0,0.0,0.0,0.0,0.0,0.112,0.0,0.0,0.0,0.0,0.0,0.0,-0.07373187020868296,0.0,0.0,0.0,0.0,0.0,0.0,-6.312,0.0,0.0,0.0
633,0.0,0.0,0.0,-0.2219853515625,0.0,0.0,0.0,0.0,0.0,0.0,0.305,0.0,0.0,0.0,0.0,0.0,0.0,-0.050009425729414074,0.0,0.0,0.0,0.0,0.0,0.0,-8.208,0.0,0.0,0.0
634,0.0,0.0,0.0,-0.21822265625,0.0,0.0,0.0,0.0,0.0,0.0,0.44,0.0,0.0,0.0,0.0,0.0,0.0,-0.02613822315040938,0.0,0.0,0.0,0.0,0.0,0.0,-7.452,0.0,0.0,0.0
635,0.0,0.0,0.0,-0.213728515625,0.0,0.0,0.0,0.0,0.0,0.0,0.381,0.0,0.0,0.0,0.0,0.0,0.0,-0.0019428123824697897,0.0,0.0,0.0,0.0,0.0,0.0,-4.548,0.0,0.0,0.0
636,0.0,0.0,0.0,-0.2077822265625,0.0,0.0,0.0,0.0,0.0,0.0,0.523,0.0,0.0,0.0,0.0,0.0,0.0,0.02190123287043473,0.0,0.0,0.0,0.0,0.0,0.0,-4.276,0.0,0.0,0.0
637,0.0,0.0,0.0,-0.200833984375,0.0,0.0,0.0,0.0,0.0,0.0,0.641,0.0,0.0,0.0,0.0,0.0,0.0,2.6321411124369948e-05,0.0,0.0,0.0,0.0,0.0,0.0,-4.16,0.0,0.0,0.0
638,0.0,0.0,0.0,-0.1925869140625,0.0,0.0,0.0,0.0,0.0,0.0,0.753,0.0,0.0,0.0,0.0,0.0,0.0,0.024245144153103453,0.0,0.0,0.0,0.0,0.0,0.0,-5.28,0.0,0.0,0.0
639,0.0,0.0,0.0,-0.1844658203125,0.0,0.0,0.0,0.0,0.0,0.0,0.838,0.0,0.0,0.0,0.0,0.0,0.0,0.04804174121778719,0.0,0.0,0.0,0.0,0.0,0.0,-7.66,0.0,0.0,0.0
640,0.0,0.0,0.0,-0.177662109375,0.0,0.0,0.0,0.0,0.0,0.0,0.758,0.0,0.0,0.0,0.0,0.0,0.0,0.07194371321072983,0.0,0.0,0.0,0.0,0.0,0.0,-8.596,0.0,0.0,0.0
641,0.0,0.0,0.0,-0.17042578125,0.0,0.0,0.0,0.0,0.0,0.0,0.69,0.0,0.0,0.0,0.0,0.0,0.0,0.09576820663955839,0.0,0.0,0.0,0.0,0.0,0.0,-7.156,0.0,0.0,0.0
642,0.0,0.0,0.0,-0.1615830078125,0.0,0.0,0.0,0.0,0.0,0.0,0.801,0.0,0.0,0.0,0.0,0.0,0.0,0.11935401952870517,0.0,0.0,0.0,0.0,0.0,0.0,-7.82,0.0,0.0,0.0
643,0.0,0.0,0.0,-0.153037109375,0.0,0.0,0.0,0.0,0.0,0.0,0.881,0.0,0.0,0.0,0.0,0.0,0.0,0.14269147274737926,0.0,0.0,0.0,0.0,0.0,0.0,-10.2,0.0,0.0,0.0
644,0.0,0.0,0.0,-0.14522265625,0.0,0.0,0.0,0.0,0.0,0.0,0.827,0.0,0.0,0.0,0.0,0.0,0.0,0.16593311421822368,0.0,0.0,0.0,0.0,0.0,0.0,-12.944,0.0,0.0,0.0
645,0.0,0.0,0.0,-0.1365244140625,0.0,0.0,0.0,0.0,0.0,0.0,0.825,0.0,0.0,0.0,0.0,0.0,0.0,0.18885599420849009,0.0,0.0,0.0,0.0,0.0,0.0,-13.604,0.0,0.0,0.0
646,0.0,0.0,0.0,-0.1281240234375,0.0,0.0,0.0,0.0,0.0,0.0,0.866,0.0,0.0,0.0,0.0,0.0,0.0,0.21142486022038534,0.0,0.0,0.0,0.0,0.0,0.0,-12.76,0.0,0.0,0.0
647,0.0,0.0,0.0,-0.12103125,0.0,0.0,0.0,0.0,0.0,0.0,0.789,0.0,0.0,0.0,0.0,0.0,0.0,0.23377253408081144,0.0,0.0,0.0,0.0,0.0,0.0,-12.76,0.0,0.0,0.0
648,0.0,0.0,0.0,-0.11378515625,0.0,0.0,0.0,0.0,0.0,0.0,0.711,0.0,0.0,0.0,0.0,0.0,0.0,0.25568924625368344,0.0,0.0,0.0,0.0,0.0,0.0,-13.788,0.0,0.0,0.0
649,0.0,0.0,0.0,-0.105240234375,0.0,0.0,0.0,0.0,0.0,0.0,0.786,0.0,0.0,0.0,0.0,0.0,0.0,0.27713730019556404,0.0,0.0,0.0,0.0,0.0,0.0,-14.908,0.0,0.0,0.0
650,0.0,0.0,0.0,-0.0971279296875,0.0,0.0,0.0,0.0,0.0,0.0,0.853,0.0,0.0,0.0,0.0,0.0,0.0,0.2982464970365045,0.0,0.0,0.0,0.0,0.0,0.0,-16.144,0.0,0.0,0.0
651,0.0,0.0,0.0,-0.0901708984375,0.0,0.0,0.0,0.0,0.0,0.0,0.767,0.0,0.0,0.0,0.0,0.0,0.0,0.31884960446505844,0.0,0.0,0.0,0.0,0.0,0.0,-17.356,0.0,0.0,0.0
652,0.0,0.0,0.0,-0.0833671875,0.0,0.0,0.0,0.0,0.0,0.0,0.69,0.0,0.0,0.0,0.0,0.0,0.0,0.3388484808895587,0.0,0.0,0.0,0.0,0.0,0.0,-18.524,0.0,0.0,0.0
653,0.0,0.0,0.0,-0.0758330078125,0.0,0.0,0.0,0.0,0.0,0.0,0.708,0.0,0.0,0.0,0.0,0.0,0.0,0.358476670497852,0.0,0.0,0.0,0.0,0.0,0.0,-17.564,0.0,0.0,0.0
654,0.0,0.0,0.0,-0.068298828125,0.0,0.0,0.0,0.0,0.0,0.0,0.765,0.0,0.0,0.0,0.0,0.0,0.0,0.3773613771330328,0.0,0.0,0.0,0.0,0.0,0.0,-17.104,0.0,0.0,0.0
655,0.0,0.0,0.0,-0.0612060546875,0.0,0.0,0.0,0.0,0.0,0.0,0.739,0.0,0.0,0.0,0.0,0.0,0.0,0.3957208247727264,0.0,0.0,0.0,0.0,0.0,0.0,-17.744,0.0,0.0,0.0
656,0.0,0.0,0.0,-0.0545380859375,0.0,0.0,0.0,0.0,0.0,0.0,0.695,0.0,0.0,0.0,0.0,0.0,0.0,0.4134222253499121,0.0,0.0,0.0,0.0,0.0,0.0,-19.3,0.0,0.0,0.0
657,0.0,0.0,0.0,-0.047869140625,0.0,0.0,0.0,0.0,0.0,0.0,0.671,0.0,0.0,0.0,0.0,0.0,0.0,0.4305588201014505,0.0,0.0,0.0,0.0,0.0,0.0,-18.912,0.0,0.0,0.0
658,0.0,0.0,0.0,-0.0412099609375,0.0,0.0,0.0,0.0,0.0,0.0,0.67,0.0,0.0,0.0,0.0,0.0,0.0,0.44682106849176945,0.0,0.0,0.0,0.0,0.0,0.0,-17.24,0.0,0.0,0.0
659,0.0,0.0,0.0,-0.0351279296875,0.0,0.0,0.0,0.0,0.0,0.0,0.649,0.0,0.0,0.0,0.0,0.0,0.0,0.4624645160656353,0.0,0.0,0.0,0.0,0.0,0.0,-17.264,0.0,0.0,0.0
660,0.0,0.0,0.0,-0.029037109375,0.0,0.0,0.0,0.0,0.0,0.0,0.606,0.0,0.0,0.0,0.0,0.0,0.0,0.4774829947247701,0.0,0.0,0.0,0.0,0.0,0.0,-18.272,0.0,0.0,0.0
661,0.0,0.0,0.0,-0.0226669921875,0.0,0.0,0.0,0.0,0.0,0.0,0.629,0.0,0.0,0.0,0.0,0.0,0.0,0.4916619297388093,0.0,0.0,0.0,0.0,0.0,0.0,-19.392,0.0,0.0,0.0
662,0.0,0.0,0.0,-0.0168740234375,0.0,0.0,0.0,0.0,0.0,0.0,0.612,0.0,0.0,0.0,0.0,0.0,0.0,0.5049796455724619,0.0,0.0,0.0,0.0,0.0,0.0,-17.836,0.0,0.0,0.0
663,0.0,0.0,0.0,-0.0110810546875,0.0,0.0,0.0,0.0,0.0,0.0,0.582,0.0,0.0,0.0,0.0,0.0,0.0,0.5176026356436785,0.0,0.0,0.0,0.0,0.0,0.0,-16.624,0.0,0.0,0.0
664,0.0,0.0,0.0,-0.006154296875,0.0,0.0,0.0,0.0,0.0,0.0,0.551,0.0,0.0,0.0,0.0,0.0,0.0,0.5292628275097806,0.0,0.0,0.0,0.0,0.0,0.0,-16.188,0.0,0.0,0.0
665,0.0,0.0,0.0,-0.0006494140625,0.0,0.0,0.0,0.0,0.0,0.0,0.514,0.0,0.0,0.0,0.0,0.0,0.0,0.5401123282688292,0.0,0.0,0.0,0.0,0.0,0.0,-15.092,0.0,0.0,0.0
666,0.0,0.0,0.0,0.004853515625,0.0,0.0,0.0,0.0,0.0,0.0,0.562,0.0,0.0,0.0,0.0,0.0,0.0,0.5501889420480932,0.0,0.0,0.0,0.0,0.0,0.0,-15.8,0.0,0.0,0.0
667,0.0,0.0,0.0,0.009771484375,0.0,0.0,0.0,0.0,0.0,0.0,0.526,0.0,0.0,0.0,0.0,0.0,0.0,0.5593085850724653,0.0,0.0,0.0,0.0,0.0,0.0,-14.36,0.0,0.0,0.0
668,0.0,0.0,0.0,0.015140625,0.0,0.0,0.0,0.0,0.0,0.0,0.51,0.0,0.0,0.0,0.0,0.0,0.0,0.5675311004369981,0.0,0.0,0.0,0.0,0.0,0.0,-14.268,0.0,0.0,0.0
