EmanuelSamir/lab201_ws_projsamir/sawyer_dev/data/sawyer/vel_sin_motion_incrf/test_joint4/validation_data_05.csv
,j1,j2,j3,j4,j5,j6,j7,v1,v2,v3,v4,v5,v6,v7,jd1,jd2,jd3,jd4,jd5,jd6,jd7,e1,e2,e3,e4,e5,e6,e7
0,0.0,0.0,0.0,0.0,0.0,0.0,0.0,0.0,0.0,0.0,0.0,0.0,0.0,0.0,0.0,0.0,0.0,0.0,0.0,0.0,0.0,0.0,0.0,0.0,0.0,0.0,0.0,0.0
1,0.0,0.0,0.0,-0.000361328125,0.0,0.0,0.0,0.0,0.0,0.0,-0.001,0.0,0.0,0.0,0.0,0.0,0.0,9.298324584588751e-06,0.0,0.0,0.0,0.0,0.0,0.0,-13.948,0.0,0.0,0.0
2,0.0,0.0,0.0,-0.000361328125,0.0,0.0,0.0,0.0,0.0,0.0,-0.001,0.0,0.0,0.0,0.0,0.0,0.0,0.0011471979780872813,0.0,0.0,0.0,0.0,0.0,0.0,-13.948,0.0,0.0,0.0
3,0.0,0.0,0.0,-0.000361328125,0.0,0.0,0.0,0.0,0.0,0.0,-0.001,0.0,0.0,0.0,0.0,0.0,0.0,0.0041735550958430295,0.0,0.0,0.0,0.0,0.0,0.0,-13.88,0.0,0.0,0.0
4,0.0,0.0,0.0,-0.000361328125,0.0,0.0,0.0,0.0,0.0,0.0,-0.001,0.0,0.0,0.0,0.0,0.0,0.0,0.007171913058074939,0.0,0.0,0.0,0.0,0.0,0.0,-13.972,0.0,0.0,0.0
5,0.0,0.0,0.0,-0.000361328125,0.0,0.0,0.0,0.0,0.0,0.0,-0.001,0.0,0.0,0.0,0.0,0.0,0.0,0.010184466474682284,0.0,0.0,0.0,0.0,0.0,0.0,-13.904,0.0,0.0,0.0
6,0.0,0.0,0.0,-0.000361328125,0.0,0.0,0.0,0.0,0.0,0.0,-0.001,0.0,0.0,0.0,0.0,0.0,0.0,0.013161724015363427,0.0,0.0,0.0,0.0,0.0,0.0,-13.924,0.0,0.0,0.0
7,0.0,0.0,0.0,-0.000216796875,0.0,0.0,0.0,0.0,0.0,0.0,0.003,0.0,0.0,0.0,0.0,0.0,0.0,0.016168329713839164,0.0,0.0,0.0,0.0,0.0,0.0,-13.444,0.0,0.0,0.0
8,0.0,0.0,0.0,0.00050390625,0.0,0.0,0.0,0.0,0.0,0.0,0.04,0.0,0.0,0.0,0.0,0.0,0.0,0.019167022828632013,0.0,0.0,0.0,0.0,0.0,0.0,-12.784,0.0,0.0,0.0
9,0.0,0.0,0.0,0.0018125,0.0,0.0,0.0,0.0,0.0,0.0,0.096,0.0,0.0,0.0,0.0,0.0,0.0,0.022168238793031553,0.0,0.0,0.0,0.0,0.0,0.0,-12.44,0.0,0.0,0.0
10,0.0,0.0,0.0,0.003689453125,0.0,0.0,0.0,0.0,0.0,0.0,0.149,0.0,0.0,0.0,0.0,0.0,0.0,0.025153606435175356,0.0,0.0,0.0,0.0,0.0,0.0,-12.348,0.0,0.0,0.0
11,0.0,0.0,0.0,0.0057197265625,0.0,0.0,0.0,0.0,0.0,0.0,0.198,0.0,0.0,0.0,0.0,0.0,0.0,0.02815542617837705,0.0,0.0,0.0,0.0,0.0,0.0,-12.484,0.0,0.0,0.0
12,0.0,0.0,0.0,0.00789453125,0.0,0.0,0.0,0.0,0.0,0.0,0.211,0.0,0.0,0.0,0.0,0.0,0.0,0.031146111138459682,0.0,0.0,0.0,0.0,0.0,0.0,-12.164,0.0,0.0,0.0
13,0.0,0.0,0.0,0.010501953125,0.0,0.0,0.0,0.0,0.0,0.0,0.239,0.0,0.0,0.0,0.0,0.0,0.0,0.034150945000369616,0.0,0.0,0.0,0.0,0.0,0.0,-11.752,0.0,0.0,0.0
14,0.0,0.0,0.0,0.013263671875,0.0,0.0,0.0,0.0,0.0,0.0,0.269,0.0,0.0,0.0,0.0,0.0,0.0,0.03713935712888077,0.0,0.0,0.0,0.0,0.0,0.0,-11.456,0.0,0.0,0.0
15,0.0,0.0,0.0,0.0164482421875,0.0,0.0,0.0,0.0,0.0,0.0,0.288,0.0,0.0,0.0,0.0,0.0,0.0,0.040153749399137406,0.0,0.0,0.0,0.0,0.0,0.0,-11.272,0.0,0.0,0.0
16,0.0,0.0,0.0,0.0194892578125,0.0,0.0,0.0,0.0,0.0,0.0,0.318,0.0,0.0,0.0,0.0,0.0,0.0,0.04313452140331537,0.0,0.0,0.0,0.0,0.0,0.0,-12.12,0.0,0.0,0.0
17,0.0,0.0,0.0,0.0226748046875,0.0,0.0,0.0,0.0,0.0,0.0,0.314,0.0,0.0,0.0,0.0,0.0,0.0,0.04614538782977464,0.0,0.0,0.0,0.0,0.0,0.0,-11.96,0.0,0.0,0.0
18,0.0,0.0,0.0,0.02629296875,0.0,0.0,0.0,0.0,0.0,0.0,0.341,0.0,0.0,0.0,0.0,0.0,0.0,0.04913619519469975,0.0,0.0,0.0,0.0,0.0,0.0,-12.188,0.0,0.0,0.0
19,0.0,0.0,0.0,0.029767578125,0.0,0.0,0.0,0.0,0.0,0.0,0.353,0.0,0.0,0.0,0.0,0.0,0.0,0.05213354073154886,0.0,0.0,0.0,0.0,0.0,0.0,-12.256,0.0,0.0,0.0
20,0.0,0.0,0.0,0.03339453125,0.0,0.0,0.0,0.0,0.0,0.0,0.352,0.0,0.0,0.0,0.0,0.0,0.0,0.05513320827539185,0.0,0.0,0.0,0.0,0.0,0.0,-12.784,0.0,0.0,0.0
21,0.0,0.0,0.0,0.0370126953125,0.0,0.0,0.0,0.0,0.0,0.0,0.377,0.0,0.0,0.0,0.0,0.0,0.0,0.05809532253459898,0.0,0.0,0.0,0.0,0.0,0.0,-13.924,0.0,0.0,0.0
22,0.0,0.0,0.0,0.0403427734375,0.0,0.0,0.0,0.0,0.0,0.0,0.348,0.0,0.0,0.0,0.0,0.0,0.0,0.06106198509914238,0.0,0.0,0.0,0.0,0.0,0.0,-14.084,0.0,0.0,0.0
23,0.0,0.0,0.0,0.0441142578125,0.0,0.0,0.0,0.0,0.0,0.0,0.349,0.0,0.0,0.0,0.0,0.0,0.0,0.06406682322163142,0.0,0.0,0.0,0.0,0.0,0.0,-14.156,0.0,0.0,0.0
24,0.0,0.0,0.0,0.047876953125,0.0,0.0,0.0,0.0,0.0,0.0,0.377,0.0,0.0,0.0,0.0,0.0,0.0,0.06704082399150968,0.0,0.0,0.0,0.0,0.0,0.0,-13.972,0.0,0.0,0.0
25,0.0,0.0,0.0,0.0517841796875,0.0,0.0,0.0,0.0,0.0,0.0,0.382,0.0,0.0,0.0,0.0,0.0,0.0,0.07000832725116905,0.0,0.0,0.0,0.0,0.0,0.0,-13.88,0.0,0.0,0.0
26,0.0,0.0,0.0,0.0557001953125,0.0,0.0,0.0,0.0,0.0,0.0,0.397,0.0,0.0,0.0,0.0,0.0,0.0,0.07302151953718036,0.0,0.0,0.0,0.0,0.0,0.0,-14.52,0.0,0.0,0.0
27,0.0,0.0,0.0,0.05947265625,0.0,0.0,0.0,0.0,0.0,0.0,0.386,0.0,0.0,0.0,0.0,0.0,0.0,0.07597778693626421,0.0,0.0,0.0,0.0,0.0,0.0,-14.268,0.0,0.0,0.0
28,0.0,0.0,0.0,0.0630908203125,0.0,0.0,0.0,0.0,0.0,0.0,0.379,0.0,0.0,0.0,0.0,0.0,0.0,0.07893983860335319,0.0,0.0,0.0,0.0,0.0,0.0,-14.568,0.0,0.0,0.0
29,0.0,0.0,0.0,0.0661318359375,0.0,0.0,0.0,0.0,0.0,0.0,0.34,0.0,0.0,0.0,0.0,0.0,0.0,0.08193890445749105,0.0,0.0,0.0,0.0,0.0,0.0,-15.0,0.0,0.0,0.0
30,0.0,0.0,0.0,0.0691728515625,0.0,0.0,0.0,0.0,0.0,0.0,0.296,0.0,0.0,0.0,0.0,0.0,0.0,0.08489644691157225,0.0,0.0,0.0,0.0,0.0,0.0,-14.796,0.0,0.0,0.0
31,0.0,0.0,0.0,0.072501953125,0.0,0.0,0.0,0.0,0.0,0.0,0.325,0.0,0.0,0.0,0.0,0.0,0.0,0.0878533010405984,0.0,0.0,0.0,0.0,0.0,0.0,-15.276,0.0,0.0,0.0
32,0.0,0.0,0.0,0.0756962890625,0.0,0.0,0.0,0.0,0.0,0.0,0.324,0.0,0.0,0.0,0.0,0.0,0.0,0.09084297356515421,0.0,0.0,0.0,0.0,0.0,0.0,-14.728,0.0,0.0,0.0
33,0.0,0.0,0.0,0.079314453125,0.0,0.0,0.0,0.0,0.0,0.0,0.335,0.0,0.0,0.0,0.0,0.0,0.0,0.09380752089313363,0.0,0.0,0.0,0.0,0.0,0.0,-15.068,0.0,0.0,0.0
34,0.0,0.0,0.0,0.08235546875,0.0,0.0,0.0,0.0,0.0,0.0,0.346,0.0,0.0,0.0,0.0,0.0,0.0,0.0967638636887199,0.0,0.0,0.0,0.0,0.0,0.0,-15.344,0.0,0.0,0.0
35,0.0,0.0,0.0,0.085396484375,0.0,0.0,0.0,0.0,0.0,0.0,0.301,0.0,0.0,0.0,0.0,0.0,0.0,0.09970735792093724,0.0,0.0,0.0,0.0,0.0,0.0,-14.704,0.0,0.0,0.0
36,0.0,0.0,0.0,0.08858203125,0.0,0.0,0.0,0.0,0.0,0.0,0.316,0.0,0.0,0.0,0.0,0.0,0.0,0.10266677928801989,0.0,0.0,0.0,0.0,0.0,0.0,-14.568,0.0,0.0,0.0
37,0.0,0.0,0.0,0.091478515625,0.0,0.0,0.0,0.0,0.0,0.0,0.307,0.0,0.0,0.0,0.0,0.0,0.0,0.10563510640959575,0.0,0.0,0.0,0.0,0.0,0.0,-14.496,0.0,0.0,0.0
38,0.0,0.0,0.0,0.09451953125,0.0,0.0,0.0,0.0,0.0,0.0,0.3,0.0,0.0,0.0,0.0,0.0,0.0,0.10858486997517548,0.0,0.0,0.0,0.0,0.0,0.0,-14.68,0.0,0.0,0.0
39,0.0,0.0,0.0,0.0972802734375,0.0,0.0,0.0,0.0,0.0,0.0,0.296,0.0,0.0,0.0,0.0,0.0,0.0,0.11154070754124047,0.0,0.0,0.0,0.0,0.0,0.0,-15.528,0.0,0.0,0.0
40,0.0,0.0,0.0,0.0998876953125,0.0,0.0,0.0,0.0,0.0,0.0,0.267,0.0,0.0,0.0,0.0,0.0,0.0,0.11448145682700549,0.0,0.0,0.0,0.0,0.0,0.0,-15.412,0.0,0.0,0.0
41,0.0,0.0,0.0,0.102630859375,0.0,0.0,0.0,0.0,0.0,0.0,0.269,0.0,0.0,0.0,0.0,0.0,0.0,0.11742489611569343,0.0,0.0,0.0,0.0,0.0,0.0,-15.368,0.0,0.0,0.0
42,0.0,0.0,0.0,0.1053837890625,0.0,0.0,0.0,0.0,0.0,0.0,0.27,0.0,0.0,0.0,0.0,0.0,0.0,0.1203518759511199,0.0,0.0,0.0,0.0,0.0,0.0,-14.544,0.0,0.0,0.0
43,0.0,0.0,0.0,0.108423828125,0.0,0.0,0.0,0.0,0.0,0.0,0.295,0.0,0.0,0.0,0.0,0.0,0.0,0.12330289434870732,0.0,0.0,0.0,0.0,0.0,0.0,-15.024,0.0,0.0,0.0
44,0.0,0.0,0.0,0.1111767578125,0.0,0.0,0.0,0.0,0.0,0.0,0.299,0.0,0.0,0.0,0.0,0.0,0.0,0.12622730711175917,0.0,0.0,0.0,0.0,0.0,0.0,-14.84,0.0,0.0,0.0
45,0.0,0.0,0.0,0.1142177734375,0.0,0.0,0.0,0.0,0.0,0.0,0.286,0.0,0.0,0.0,0.0,0.0,0.0,0.12915976149885655,0.0,0.0,0.0,0.0,0.0,0.0,-14.476,0.0,0.0,0.0
46,0.0,0.0,0.0,0.1168251953125,0.0,0.0,0.0,0.0,0.0,0.0,0.287,0.0,0.0,0.0,0.0,0.0,0.0,0.13208926336995225,0.0,0.0,0.0,0.0,0.0,0.0,-13.948,0.0,0.0,0.0
47,0.0,0.0,0.0,0.1192880859375,0.0,0.0,0.0,0.0,0.0,0.0,0.257,0.0,0.0,0.0,0.0,0.0,0.0,0.13500695738127091,0.0,0.0,0.0,0.0,0.0,0.0,-13.376,0.0,0.0,0.0
48,0.0,0.0,0.0,0.1221845703125,0.0,0.0,0.0,0.0,0.0,0.0,0.267,0.0,0.0,0.0,0.0,0.0,0.0,0.13796020428252945,0.0,0.0,0.0,0.0,0.0,0.0,-13.172,0.0,0.0,0.0
49,0.0,0.0,0.0,0.1249375,0.0,0.0,0.0,0.0,0.0,0.0,0.288,0.0,0.0,0.0,0.0,0.0,0.0,0.1408561829410245,0.0,0.0,0.0,0.0,0.0,0.0,-13.996,0.0,0.0,0.0
50,0.0,0.0,0.0,0.127255859375,0.0,0.0,0.0,0.0,0.0,0.0,0.255,0.0,0.0,0.0,0.0,0.0,0.0,0.14376792839353297,0.0,0.0,0.0,0.0,0.0,0.0,-13.904,0.0,0.0,0.0
51,0.0,0.0,0.0,0.1300078125,0.0,0.0,0.0,0.0,0.0,0.0,0.26,0.0,0.0,0.0,0.0,0.0,0.0,0.14669564432320784,0.0,0.0,0.0,0.0,0.0,0.0,-13.72,0.0,0.0,0.0
52,0.0,0.0,0.0,0.1326162109375,0.0,0.0,0.0,0.0,0.0,0.0,0.271,0.0,0.0,0.0,0.0,0.0,0.0,0.14964832603733566,0.0,0.0,0.0,0.0,0.0,0.0,-13.856,0.0,0.0,0.0
53,0.0,0.0,0.0,0.1352236328125,0.0,0.0,0.0,0.0,0.0,0.0,0.253,0.0,0.0,0.0,0.0,0.0,0.0,0.15254727348160033,0.0,0.0,0.0,0.0,0.0,0.0,-13.284,0.0,0.0,0.0
54,0.0,0.0,0.0,0.1382734375,0.0,0.0,0.0,0.0,0.0,0.0,0.285,0.0,0.0,0.0,0.0,0.0,0.0,0.15539896470255168,0.0,0.0,0.0,0.0,0.0,0.0,-13.744,0.0,0.0,0.0
55,0.0,0.0,0.0,0.1410166015625,0.0,0.0,0.0,0.0,0.0,0.0,0.293,0.0,0.0,0.0,0.0,0.0,0.0,0.15827987651163497,0.0,0.0,0.0,0.0,0.0,0.0,-13.856,0.0,0.0,0.0
56,0.0,0.0,0.0,0.1439130859375,0.0,0.0,0.0,0.0,0.0,0.0,0.281,0.0,0.0,0.0,0.0,0.0,0.0,0.16120833721555933,0.0,0.0,0.0,0.0,0.0,0.0,-13.308,0.0,0.0,0.0
57,0.0,0.0,0.0,0.1469541015625,0.0,0.0,0.0,0.0,0.0,0.0,0.301,0.0,0.0,0.0,0.0,0.0,0.0,0.1640844371393561,0.0,0.0,0.0,0.0,0.0,0.0,-13.536,0.0,0.0,0.0
58,0.0,0.0,0.0,0.1495625,0.0,0.0,0.0,0.0,0.0,0.0,0.278,0.0,0.0,0.0,0.0,0.0,0.0,0.16694698704328503,0.0,0.0,0.0,0.0,0.0,0.0,-13.308,0.0,0.0,0.0
59,0.0,0.0,0.0,0.1526025390625,0.0,0.0,0.0,0.0,0.0,0.0,0.282,0.0,0.0,0.0,0.0,0.0,0.0,0.16982614148180233,0.0,0.0,0.0,0.0,0.0,0.0,-13.424,0.0,0.0,0.0
60,0.0,0.0,0.0,0.1552109375,0.0,0.0,0.0,0.0,0.0,0.0,0.291,0.0,0.0,0.0,0.0,0.0,0.0,0.17270194157520938,0.0,0.0,0.0,0.0,0.0,0.0,-14.268,0.0,0.0,0.0
61,0.0,0.0,0.0,0.1578271484375,0.0,0.0,0.0,0.0,0.0,0.0,0.256,0.0,0.0,0.0,0.0,0.0,0.0,0.17556644600549182,0.0,0.0,0.0,0.0,0.0,0.0,-13.72,0.0,0.0,0.0
62,0.0,0.0,0.0,0.1607236328125,0.0,0.0,0.0,0.0,0.0,0.0,0.281,0.0,0.0,0.0,0.0,0.0,0.0,0.1784527355237844,0.0,0.0,0.0,0.0,0.0,0.0,-14.452,0.0,0.0,0.0
63,0.0,0.0,0.0,0.1636201171875,0.0,0.0,0.0,0.0,0.0,0.0,0.29,0.0,0.0,0.0,0.0,0.0,0.0,0.18131500201776404,0.0,0.0,0.0,0.0,0.0,0.0,-14.2,0.0,0.0,0.0
64,0.0,0.0,0.0,0.1669501953125,0.0,0.0,0.0,0.0,0.0,0.0,0.31,0.0,0.0,0.0,0.0,0.0,0.0,0.18415387857473506,0.0,0.0,0.0,0.0,0.0,0.0,-14.2,0.0,0.0,0.0
65,0.0,0.0,0.0,0.1701357421875,0.0,0.0,0.0,0.0,0.0,0.0,0.333,0.0,0.0,0.0,0.0,0.0,0.0,0.18705637704585992,0.0,0.0,0.0,0.0,0.0,0.0,-14.748,0.0,0.0,0.0
66,0.0,0.0,0.0,0.1733203125,0.0,0.0,0.0,0.0,0.0,0.0,0.315,0.0,0.0,0.0,0.0,0.0,0.0,0.18985986142314112,0.0,0.0,0.0,0.0,0.0,0.0,-14.36,0.0,0.0,0.0
67,0.0,0.0,0.0,0.1765146484375,0.0,0.0,0.0,0.0,0.0,0.0,0.316,0.0,0.0,0.0,0.0,0.0,0.0,0.1926907868512656,0.0,0.0,0.0,0.0,0.0,0.0,-14.016,0.0,0.0,0.0
68,0.0,0.0,0.0,0.1794111328125,0.0,0.0,0.0,0.0,0.0,0.0,0.316,0.0,0.0,0.0,0.0,0.0,0.0,0.1956049106877353,0.0,0.0,0.0,0.0,0.0,0.0,-13.744,0.0,0.0,0.0
69,0.0,0.0,0.0,0.1824521484375,0.0,0.0,0.0,0.0,0.0,0.0,0.302,0.0,0.0,0.0,0.0,0.0,0.0,0.19837510025804322,0.0,0.0,0.0,0.0,0.0,0.0,-13.264,0.0,0.0,0.0
70,0.0,0.0,0.0,0.1856376953125,0.0,0.0,0.0,0.0,0.0,0.0,0.303,0.0,0.0,0.0,0.0,0.0,0.0,0.20119910826259377,0.0,0.0,0.0,0.0,0.0,0.0,-13.676,0.0,0.0,0.0
71,0.0,0.0,0.0,0.1883896484375,0.0,0.0,0.0,0.0,0.0,0.0,0.298,0.0,0.0,0.0,0.0,0.0,0.0,0.2040367352547204,0.0,0.0,0.0,0.0,0.0,0.0,-13.856,0.0,0.0,0.0
72,0.0,0.0,0.0,0.1911416015625,0.0,0.0,0.0,0.0,0.0,0.0,0.279,0.0,0.0,0.0,0.0,0.0,0.0,0.20684745766312343,0.0,0.0,0.0,0.0,0.0,0.0,-13.856,0.0,0.0,0.0
73,0.0,0.0,0.0,0.19389453125,0.0,0.0,0.0,0.0,0.0,0.0,0.285,0.0,0.0,0.0,0.0,0.0,0.0,0.2096480116779414,0.0,0.0,0.0,0.0,0.0,0.0,-14.176,0.0,0.0,0.0
74,0.0,0.0,0.0,0.1967998046875,0.0,0.0,0.0,0.0,0.0,0.0,0.281,0.0,0.0,0.0,0.0,0.0,0.0,0.2124742764222487,0.0,0.0,0.0,0.0,0.0,0.0,-13.88,0.0,0.0,0.0
75,0.0,0.0,0.0,0.1996962890625,0.0,0.0,0.0,0.0,0.0,0.0,0.29,0.0,0.0,0.0,0.0,0.0,0.0,0.21525703920005604,0.0,0.0,0.0,0.0,0.0,0.0,-13.812,0.0,0.0,0.0
76,0.0,0.0,0.0,0.2025927734375,0.0,0.0,0.0,0.0,0.0,0.0,0.291,0.0,0.0,0.0,0.0,0.0,0.0,0.21807361250259566,0.0,0.0,0.0,0.0,0.0,0.0,-13.948,0.0,0.0,0.0
77,0.0,0.0,0.0,0.2053359375,0.0,0.0,0.0,0.0,0.0,0.0,0.287,0.0,0.0,0.0,0.0,0.0,0.0,0.22092821799695012,0.0,0.0,0.0,0.0,0.0,0.0,-13.516,0.0,0.0,0.0
78,0.0,0.0,0.0,0.208087890625,0.0,0.0,0.0,0.0,0.0,0.0,0.276,0.0,0.0,0.0,0.0,0.0,0.0,0.2236528759224576,0.0,0.0,0.0,0.0,0.0,0.0,-13.836,0.0,0.0,0.0
79,0.0,0.0,0.0,0.2106953125,0.0,0.0,0.0,0.0,0.0,0.0,0.265,0.0,0.0,0.0,0.0,0.0,0.0,0.2264288216724831,0.0,0.0,0.0,0.0,0.0,0.0,-13.468,0.0,0.0,0.0
80,0.0,0.0,0.0,0.2133037109375,0.0,0.0,0.0,0.0,0.0,0.0,0.266,0.0,0.0,0.0,0.0,0.0,0.0,0.2292124796129001,0.0,0.0,0.0,0.0,0.0,0.0,-13.444,0.0,0.0,0.0
81,0.0,0.0,0.0,0.216208984375,0.0,0.0,0.0,0.0,0.0,0.0,0.274,0.0,0.0,0.0,0.0,0.0,0.0,0.23198371052819408,0.0,0.0,0.0,0.0,0.0,0.0,-13.744,0.0,0.0,0.0
82,0.0,0.0,0.0,0.21881640625,0.0,0.0,0.0,0.0,0.0,0.0,0.287,0.0,0.0,0.0,0.0,0.0,0.0,0.23479830449254926,0.0,0.0,0.0,0.0,0.0,0.0,-14.636,0.0,0.0,0.0
83,0.0,0.0,0.0,0.2214248046875,0.0,0.0,0.0,0.0,0.0,0.0,0.257,0.0,0.0,0.0,0.0,0.0,0.0,0.23750402017735622,0.0,0.0,0.0,0.0,0.0,0.0,-14.384,0.0,0.0,0.0
84,0.0,0.0,0.0,0.2243212890625,0.0,0.0,0.0,0.0,0.0,0.0,0.272,0.0,0.0,0.0,0.0,0.0,0.0,0.24024033134025857,0.0,0.0,0.0,0.0,0.0,0.0,-14.52,0.0,0.0,0.0
85,0.0,0.0,0.0,0.2270732421875,0.0,0.0,0.0,0.0,0.0,0.0,0.283,0.0,0.0,0.0,0.0,0.0,0.0,0.24299294008539135,0.0,0.0,0.0,0.0,0.0,0.0,-14.2,0.0,0.0,0.0
86,0.0,0.0,0.0,0.2299609375,0.0,0.0,0.0,0.0,0.0,0.0,0.278,0.0,0.0,0.0,0.0,0.0,0.0,0.24575477872060025,0.0,0.0,0.0,0.0,0.0,0.0,-13.924,0.0,0.0,0.0
87,0.0,0.0,0.0,0.233001953125,0.0,0.0,0.0,0.0,0.0,0.0,0.306,0.0,0.0,0.0,0.0,0.0,0.0,0.24847840912964303,0.0,0.0,0.0,0.0,0.0,0.0,-13.764,0.0,0.0,0.0
88,0.0,0.0,0.0,0.2357626953125,0.0,0.0,0.0,0.0,0.0,0.0,0.298,0.0,0.0,0.0,0.0,0.0,0.0,0.25119204105228404,0.0,0.0,0.0,0.0,0.0,0.0,-13.536,0.0,0.0,0.0
89,0.0,0.0,0.0,0.2383701171875,0.0,0.0,0.0,0.0,0.0,0.0,0.267,0.0,0.0,0.0,0.0,0.0,0.0,0.253910344458072,0.0,0.0,0.0,0.0,0.0,0.0,-13.172,0.0,0.0,0.0
90,0.0,0.0,0.0,0.241123046875,0.0,0.0,0.0,0.0,0.0,0.0,0.261,0.0,0.0,0.0,0.0,0.0,0.0,0.25662199077972925,0.0,0.0,0.0,0.0,0.0,0.0,-12.532,0.0,0.0,0.0
91,0.0,0.0,0.0,0.243875,0.0,0.0,0.0,0.0,0.0,0.0,0.284,0.0,0.0,0.0,0.0,0.0,0.0,0.2593291721605582,0.0,0.0,0.0,0.0,0.0,0.0,-13.012,0.0,0.0,0.0
92,0.0,0.0,0.0,0.246193359375,0.0,0.0,0.0,0.0,0.0,0.0,0.254,0.0,0.0,0.0,0.0,0.0,0.0,0.26203367313846276,0.0,0.0,0.0,0.0,0.0,0.0,-13.012,0.0,0.0,0.0
93,0.0,0.0,0.0,0.249234375,0.0,0.0,0.0,0.0,0.0,0.0,0.269,0.0,0.0,0.0,0.0,0.0,0.0,0.26472782438587517,0.0,0.0,0.0,0.0,0.0,0.0,-13.332,0.0,0.0,0.0
94,0.0,0.0,0.0,0.2518427734375,0.0,0.0,0.0,0.0,0.0,0.0,0.287,0.0,0.0,0.0,0.0,0.0,0.0,0.2674199741467868,0.0,0.0,0.0,0.0,0.0,0.0,-13.836,0.0,0.0,0.0
95,0.0,0.0,0.0,0.2543056640625,0.0,0.0,0.0,0.0,0.0,0.0,0.248,0.0,0.0,0.0,0.0,0.0,0.0,0.2701026758374563,0.0,0.0,0.0,0.0,0.0,0.0,-13.376,0.0,0.0,0.0
96,0.0,0.0,0.0,0.25676953125,0.0,0.0,0.0,0.0,0.0,0.0,0.254,0.0,0.0,0.0,0.0,0.0,0.0,0.2727805336019486,0.0,0.0,0.0,0.0,0.0,0.0,-13.604,0.0,0.0,0.0
97,0.0,0.0,0.0,0.259376953125,0.0,0.0,0.0,0.0,0.0,0.0,0.254,0.0,0.0,0.0,0.0,0.0,0.0,0.2754483188332289,0.0,0.0,0.0,0.0,0.0,0.0,-13.628,0.0,0.0,0.0
98,0.0,0.0,0.0,0.26212890625,0.0,0.0,0.0,0.0,0.0,0.0,0.262,0.0,0.0,0.0,0.0,0.0,0.0,0.2781060532463028,0.0,0.0,0.0,0.0,0.0,0.0,-13.192,0.0,0.0,0.0
99,0.0,0.0,0.0,0.264880859375,0.0,0.0,0.0,0.0,0.0,0.0,0.277,0.0,0.0,0.0,0.0,0.0,0.0,0.2807608382486221,0.0,0.0,0.0,0.0,0.0,0.0,-13.172,0.0,0.0,0.0
100,0.0,0.0,0.0,0.2676337890625,0.0,0.0,0.0,0.0,0.0,0.0,0.276,0.0,0.0,0.0,0.0,0.0,0.0,0.2834014803143226,0.0,0.0,0.0,0.0,0.0,0.0,-12.944,0.0,0.0,0.0
101,0.0,0.0,0.0,0.270087890625,0.0,0.0,0.0,0.0,0.0,0.0,0.262,0.0,0.0,0.0,0.0,0.0,0.0,0.2860485305945263,0.0,0.0,0.0,0.0,0.0,0.0,-13.08,0.0,0.0,0.0
102,0.0,0.0,0.0,0.2726953125,0.0,0.0,0.0,0.0,0.0,0.0,0.252,0.0,0.0,0.0,0.0,0.0,0.0,0.2886749768516667,0.0,0.0,0.0,0.0,0.0,0.0,-12.896,0.0,0.0,0.0
103,0.0,0.0,0.0,0.2753125,0.0,0.0,0.0,0.0,0.0,0.0,0.262,0.0,0.0,0.0,0.0,0.0,0.0,0.2913075640337107,0.0,0.0,0.0,0.0,0.0,0.0,-13.24,0.0,0.0,0.0
104,0.0,0.0,0.0,0.277919921875,0.0,0.0,0.0,0.0,0.0,0.0,0.264,0.0,0.0,0.0,0.0,0.0,0.0,0.29392659827232925,0.0,0.0,0.0,0.0,0.0,0.0,-13.444,0.0,0.0,0.0
105,0.0,0.0,0.0,0.280671875,0.0,0.0,0.0,0.0,0.0,0.0,0.265,0.0,0.0,0.0,0.0,0.0,0.0,0.2965325638533797,0.0,0.0,0.0,0.0,0.0,0.0,-13.652,0.0,0.0,0.0
106,0.0,0.0,0.0,0.2834248046875,0.0,0.0,0.0,0.0,0.0,0.0,0.281,0.0,0.0,0.0,0.0,0.0,0.0,0.2991475171864115,0.0,0.0,0.0,0.0,0.0,0.0,-14.016,0.0,0.0,0.0
107,0.0,0.0,0.0,0.2861767578125,0.0,0.0,0.0,0.0,0.0,0.0,0.273,0.0,0.0,0.0,0.0,0.0,0.0,0.3017409585832079,0.0,0.0,0.0,0.0,0.0,0.0,-14.176,0.0,0.0,0.0
108,0.0,0.0,0.0,0.2889287109375,0.0,0.0,0.0,0.0,0.0,0.0,0.274,0.0,0.0,0.0,0.0,0.0,0.0,0.3043291566591776,0.0,0.0,0.0,0.0,0.0,0.0,-14.156,0.0,0.0,0.0
109,0.0,0.0,0.0,0.29181640625,0.0,0.0,0.0,0.0,0.0,0.0,0.283,0.0,0.0,0.0,0.0,0.0,0.0,0.30690071803011165,0.0,0.0,0.0,0.0,0.0,0.0,-13.924,0.0,0.0,0.0
110,0.0,0.0,0.0,0.2947216796875,0.0,0.0,0.0,0.0,0.0,0.0,0.291,0.0,0.0,0.0,0.0,0.0,0.0,0.30948733924610455,0.0,0.0,0.0,0.0,0.0,0.0,-13.764,0.0,0.0,0.0
111,0.0,0.0,0.0,0.2974736328125,0.0,0.0,0.0,0.0,0.0,0.0,0.281,0.0,0.0,0.0,0.0,0.0,0.0,0.3120507523187514,0.0,0.0,0.0,0.0,0.0,0.0,-13.216,0.0,0.0,0.0
112,0.0,0.0,0.0,0.3002255859375,0.0,0.0,0.0,0.0,0.0,0.0,0.283,0.0,0.0,0.0,0.0,0.0,0.0,0.31461326343527823,0.0,0.0,0.0,0.0,0.0,0.0,-13.172,0.0,0.0,0.0
113,0.0,0.0,0.0,0.302689453125,0.0,0.0,0.0,0.0,0.0,0.0,0.266,0.0,0.0,0.0,0.0,0.0,0.0,0.31716150896129613,0.0,0.0,0.0,0.0,0.0,0.0,-13.056,0.0,0.0,0.0
114,0.0,0.0,0.0,0.305296875,0.0,0.0,0.0,0.0,0.0,0.0,0.253,0.0,0.0,0.0,0.0,0.0,0.0,0.31969403191816115,0.0,0.0,0.0,0.0,0.0,0.0,-12.872,0.0,0.0,0.0
115,0.0,0.0,0.0,0.3079052734375,0.0,0.0,0.0,0.0,0.0,0.0,0.256,0.0,0.0,0.0,0.0,0.0,0.0,0.322227676465672,0.0,0.0,0.0,0.0,0.0,0.0,-13.104,0.0,0.0,0.0
116,0.0,0.0,0.0,0.310359375,0.0,0.0,0.0,0.0,0.0,0.0,0.255,0.0,0.0,0.0,0.0,0.0,0.0,0.3247625939710017,0.0,0.0,0.0,0.0,0.0,0.0,-13.4,0.0,0.0,0.0
117,0.0,0.0,0.0,0.3129765625,0.0,0.0,0.0,0.0,0.0,0.0,0.254,0.0,0.0,0.0,0.0,0.0,0.0,0.327276090488587,0.0,0.0,0.0,0.0,0.0,0.0,-13.652,0.0,0.0,0.0
118,0.0,0.0,0.0,0.315439453125,0.0,0.0,0.0,0.0,0.0,0.0,0.251,0.0,0.0,0.0,0.0,0.0,0.0,0.3297929099338955,0.0,0.0,0.0,0.0,0.0,0.0,-13.676,0.0,0.0,0.0
119,0.0,0.0,0.0,0.3177587890625,0.0,0.0,0.0,0.0,0.0,0.0,0.246,0.0,0.0,0.0,0.0,0.0,0.0,0.3322884587863361,0.0,0.0,0.0,0.0,0.0,0.0,-13.536,0.0,0.0,0.0
120,0.0,0.0,0.0,0.3202216796875,0.0,0.0,0.0,0.0,0.0,0.0,0.238,0.0,0.0,0.0,0.0,0.0,0.0,0.3347809669605439,0.0,0.0,0.0,0.0,0.0,0.0,-13.424,0.0,0.0,0.0
121,0.0,0.0,0.0,0.3226767578125,0.0,0.0,0.0,0.0,0.0,0.0,0.247,0.0,0.0,0.0,0.0,0.0,0.0,0.33726582389666493,0.0,0.0,0.0,0.0,0.0,0.0,-13.24,0.0,0.0,0.0
122,0.0,0.0,0.0,0.3252841796875,0.0,0.0,0.0,0.0,0.0,0.0,0.257,0.0,0.0,0.0,0.0,0.0,0.0,0.33979348239959495,0.0,0.0,0.0,0.0,0.0,0.0,-13.148,0.0,0.0,0.0
123,0.0,0.0,0.0,0.3277470703125,0.0,0.0,0.0,0.0,0.0,0.0,0.254,0.0,0.0,0.0,0.0,0.0,0.0,0.3422260545547731,0.0,0.0,0.0,0.0,0.0,0.0,-13.032,0.0,0.0,0.0
124,0.0,0.0,0.0,0.33006640625,0.0,0.0,0.0,0.0,0.0,0.0,0.246,0.0,0.0,0.0,0.0,0.0,0.0,0.3446856795356301,0.0,0.0,0.0,0.0,0.0,0.0,-12.644,0.0,0.0,0.0
125,0.0,0.0,0.0,0.3323857421875,0.0,0.0,0.0,0.0,0.0,0.0,0.229,0.0,0.0,0.0,0.0,0.0,0.0,0.3471474233537635,0.0,0.0,0.0,0.0,0.0,0.0,-12.692,0.0,0.0,0.0
126,0.0,0.0,0.0,0.3347041015625,0.0,0.0,0.0,0.0,0.0,0.0,0.229,0.0,0.0,0.0,0.0,0.0,0.0,0.3495760571323346,0.0,0.0,0.0,0.0,0.0,0.0,-12.464,0.0,0.0,0.0
127,0.0,0.0,0.0,0.3370234375,0.0,0.0,0.0,0.0,0.0,0.0,0.236,0.0,0.0,0.0,0.0,0.0,0.0,0.35203005126085374,0.0,0.0,0.0,0.0,0.0,0.0,-12.896,0.0,0.0,0.0
128,0.0,0.0,0.0,0.3394873046875,0.0,0.0,0.0,0.0,0.0,0.0,0.233,0.0,0.0,0.0,0.0,0.0,0.0,0.3544431844298171,0.0,0.0,0.0,0.0,0.0,0.0,-12.828,0.0,0.0,0.0
129,0.0,0.0,0.0,0.3420947265625,0.0,0.0,0.0,0.0,0.0,0.0,0.254,0.0,0.0,0.0,0.0,0.0,0.0,0.3568499004727011,0.0,0.0,0.0,0.0,0.0,0.0,-13.56,0.0,0.0,0.0
130,0.0,0.0,0.0,0.344404296875,0.0,0.0,0.0,0.0,0.0,0.0,0.248,0.0,0.0,0.0,0.0,0.0,0.0,0.35926340425798514,0.0,0.0,0.0,0.0,0.0,0.0,-13.652,0.0,0.0,0.0
131,0.0,0.0,0.0,0.3471572265625,0.0,0.0,0.0,0.0,0.0,0.0,0.252,0.0,0.0,0.0,0.0,0.0,0.0,0.36165715035076945,0.0,0.0,0.0,0.0,0.0,0.0,-13.584,0.0,0.0,0.0
132,0.0,0.0,0.0,0.3494755859375,0.0,0.0,0.0,0.0,0.0,0.0,0.264,0.0,0.0,0.0,0.0,0.0,0.0,0.36405661458134014,0.0,0.0,0.0,0.0,0.0,0.0,-14.156,0.0,0.0,0.0
133,0.0,0.0,0.0,0.3520927734375,0.0,0.0,0.0,0.0,0.0,0.0,0.241,0.0,0.0,0.0,0.0,0.0,0.0,0.36643341965244614,0.0,0.0,0.0,0.0,0.0,0.0,-13.812,0.0,0.0,0.0
134,0.0,0.0,0.0,0.3548447265625,0.0,0.0,0.0,0.0,0.0,0.0,0.274,0.0,0.0,0.0,0.0,0.0,0.0,0.36880244328132844,0.0,0.0,0.0,0.0,0.0,0.0,-13.836,0.0,0.0,0.0
135,0.0,0.0,0.0,0.357443359375,0.0,0.0,0.0,0.0,0.0,0.0,0.266,0.0,0.0,0.0,0.0,0.0,0.0,0.371155237053361,0.0,0.0,0.0,0.0,0.0,0.0,-13.444,0.0,0.0,0.0
136,0.0,0.0,0.0,0.3600517578125,0.0,0.0,0.0,0.0,0.0,0.0,0.258,0.0,0.0,0.0,0.0,0.0,0.0,0.37351712653728303,0.0,0.0,0.0,0.0,0.0,0.0,-13.104,0.0,0.0,0.0
137,0.0,0.0,0.0,0.3622255859375,0.0,0.0,0.0,0.0,0.0,0.0,0.242,0.0,0.0,0.0,0.0,0.0,0.0,0.3758632474729519,0.0,0.0,0.0,0.0,0.0,0.0,-12.828,0.0,0.0,0.0
138,0.0,0.0,0.0,0.364833984375,0.0,0.0,0.0,0.0,0.0,0.0,0.239,0.0,0.0,0.0,0.0,0.0,0.0,0.37818228977476404,0.0,0.0,0.0,0.0,0.0,0.0,-12.484,0.0,0.0,0.0
139,0.0,0.0,0.0,0.36715234375,0.0,0.0,0.0,0.0,0.0,0.0,0.255,0.0,0.0,0.0,0.0,0.0,0.0,0.38051378559514926,0.0,0.0,0.0,0.0,0.0,0.0,-12.944,0.0,0.0,0.0
140,0.0,0.0,0.0,0.369318359375,0.0,0.0,0.0,0.0,0.0,0.0,0.222,0.0,0.0,0.0,0.0,0.0,0.0,0.3829096136425803,0.0,0.0,0.0,0.0,0.0,0.0,-12.736,0.0,0.0,0.0
141,0.0,0.0,0.0,0.371791015625,0.0,0.0,0.0,0.0,0.0,0.0,0.239,0.0,0.0,0.0,0.0,0.0,0.0,0.385133743555883,0.0,0.0,0.0,0.0,0.0,0.0,-13.124,0.0,0.0,0.0
142,0.0,0.0,0.0,0.3739658203125,0.0,0.0,0.0,0.0,0.0,0.0,0.233,0.0,0.0,0.0,0.0,0.0,0.0,0.38743045581464863,0.0,0.0,0.0,0.0,0.0,0.0,-13.08,0.0,0.0,0.0
143,0.0,0.0,0.0,0.376275390625,0.0,0.0,0.0,0.0,0.0,0.0,0.223,0.0,0.0,0.0,0.0,0.0,0.0,0.3897388993263066,0.0,0.0,0.0,0.0,0.0,0.0,-13.104,0.0,0.0,0.0
144,0.0,0.0,0.0,0.3785947265625,0.0,0.0,0.0,0.0,0.0,0.0,0.224,0.0,0.0,0.0,0.0,0.0,0.0,0.3919995020442791,0.0,0.0,0.0,0.0,0.0,0.0,-12.852,0.0,0.0,0.0
145,0.0,0.0,0.0,0.3809130859375,0.0,0.0,0.0,0.0,0.0,0.0,0.235,0.0,0.0,0.0,0.0,0.0,0.0,0.3942646714907506,0.0,0.0,0.0,0.0,0.0,0.0,-13.172,0.0,0.0,0.0
146,0.0,0.0,0.0,0.382943359375,0.0,0.0,0.0,0.0,0.0,0.0,0.221,0.0,0.0,0.0,0.0,0.0,0.0,0.39652246350965603,0.0,0.0,0.0,0.0,0.0,0.0,-13.216,0.0,0.0,0.0
147,0.0,0.0,0.0,0.38525390625,0.0,0.0,0.0,0.0,0.0,0.0,0.214,0.0,0.0,0.0,0.0,0.0,0.0,0.39876183321444736,0.0,0.0,0.0,0.0,0.0,0.0,-12.736,0.0,0.0,0.0
148,0.0,0.0,0.0,0.3872841796875,0.0,0.0,0.0,0.0,0.0,0.0,0.226,0.0,0.0,0.0,0.0,0.0,0.0,0.40100114053728275,0.0,0.0,0.0,0.0,0.0,0.0,-12.804,0.0,0.0,0.0
149,0.0,0.0,0.0,0.3894677734375,0.0,0.0,0.0,0.0,0.0,0.0,0.201,0.0,0.0,0.0,0.0,0.0,0.0,0.40322965696599306,0.0,0.0,0.0,0.0,0.0,0.0,-12.232,0.0,0.0,0.0
150,0.0,0.0,0.0,0.3916337890625,0.0,0.0,0.0,0.0,0.0,0.0,0.226,0.0,0.0,0.0,0.0,0.0,0.0,0.4054463877319493,0.0,0.0,0.0,0.0,0.0,0.0,-12.44,0.0,0.0,0.0
151,0.0,0.0,0.0,0.39351953125,0.0,0.0,0.0,0.0,0.0,0.0,0.205,0.0,0.0,0.0,0.0,0.0,0.0,0.40764500266860115,0.0,0.0,0.0,0.0,0.0,0.0,-12.304,0.0,0.0,0.0
152,0.0,0.0,0.0,0.395837890625,0.0,0.0,0.0,0.0,0.0,0.0,0.211,0.0,0.0,0.0,0.0,0.0,0.0,0.4098464531359716,0.0,0.0,0.0,0.0,0.0,0.0,-12.392,0.0,0.0,0.0
153,0.0,0.0,0.0,0.39800390625,0.0,0.0,0.0,0.0,0.0,0.0,0.227,0.0,0.0,0.0,0.0,0.0,0.0,0.4120345404873233,0.0,0.0,0.0,0.0,0.0,0.0,-12.392,0.0,0.0,0.0
154,0.0,0.0,0.0,0.4001787109375,0.0,0.0,0.0,0.0,0.0,0.0,0.214,0.0,0.0,0.0,0.0,0.0,0.0,0.4142083736069705,0.0,0.0,0.0,0.0,0.0,0.0,-12.668,0.0,0.0,0.0
155,0.0,0.0,0.0,0.4024970703125,0.0,0.0,0.0,0.0,0.0,0.0,0.226,0.0,0.0,0.0,0.0,0.0,0.0,0.41637619430719214,0.0,0.0,0.0,0.0,0.0,0.0,-12.804,0.0,0.0,0.0
156,0.0,0.0,0.0,0.4048076171875,0.0,0.0,0.0,0.0,0.0,0.0,0.232,0.0,0.0,0.0,0.0,0.0,0.0,0.4185452144629044,0.0,0.0,0.0,0.0,0.0,0.0,-13.376,0.0,0.0,0.0
157,0.0,0.0,0.0,0.407126953125,0.0,0.0,0.0,0.0,0.0,0.0,0.223,0.0,0.0,0.0,0.0,0.0,0.0,0.42065916060253,0.0,0.0,0.0,0.0,0.0,0.0,-13.192,0.0,0.0,0.0
158,0.0,0.0,0.0,0.409310546875,0.0,0.0,0.0,0.0,0.0,0.0,0.232,0.0,0.0,0.0,0.0,0.0,0.0,0.4227958249913654,0.0,0.0,0.0,0.0,0.0,0.0,-13.536,0.0,0.0,0.0
159,0.0,0.0,0.0,0.41162890625,0.0,0.0,0.0,0.0,0.0,0.0,0.224,0.0,0.0,0.0,0.0,0.0,0.0,0.424933809576522,0.0,0.0,0.0,0.0,0.0,0.0,-13.536,0.0,0.0,0.0
160,0.0,0.0,0.0,0.413939453125,0.0,0.0,0.0,0.0,0.0,0.0,0.233,0.0,0.0,0.0,0.0,0.0,0.0,0.42703735946166005,0.0,0.0,0.0,0.0,0.0,0.0,-13.764,0.0,0.0,0.0
161,0.0,0.0,0.0,0.416546875,0.0,0.0,0.0,0.0,0.0,0.0,0.247,0.0,0.0,0.0,0.0,0.0,0.0,0.4291477713210456,0.0,0.0,0.0,0.0,0.0,0.0,-13.264,0.0,0.0,0.0
162,0.0,0.0,0.0,0.419154296875,0.0,0.0,0.0,0.0,0.0,0.0,0.259,0.0,0.0,0.0,0.0,0.0,0.0,0.4312461251639907,0.0,0.0,0.0,0.0,0.0,0.0,-13.192,0.0,0.0,0.0
163,0.0,0.0,0.0,0.4213291015625,0.0,0.0,0.0,0.0,0.0,0.0,0.244,0.0,0.0,0.0,0.0,0.0,0.0,0.4333105699073407,0.0,0.0,0.0,0.0,0.0,0.0,-13.124,0.0,0.0,0.0
164,0.0,0.0,0.0,0.4236396484375,0.0,0.0,0.0,0.0,0.0,0.0,0.229,0.0,0.0,0.0,0.0,0.0,0.0,0.4353823120689087,0.0,0.0,0.0,0.0,0.0,0.0,-12.76,0.0,0.0,0.0
165,0.0,0.0,0.0,0.425669921875,0.0,0.0,0.0,0.0,0.0,0.0,0.221,0.0,0.0,0.0,0.0,0.0,0.0,0.4374540157093516,0.0,0.0,0.0,0.0,0.0,0.0,-12.372,0.0,0.0,0.0
166,0.0,0.0,0.0,0.427853515625,0.0,0.0,0.0,0.0,0.0,0.0,0.205,0.0,0.0,0.0,0.0,0.0,0.0,0.4394881077568811,0.0,0.0,0.0,0.0,0.0,0.0,-12.256,0.0,0.0,0.0
167,0.0,0.0,0.0,0.42973046875,0.0,0.0,0.0,0.0,0.0,0.0,0.206,0.0,0.0,0.0,0.0,0.0,0.0,0.4415276324970705,0.0,0.0,0.0,0.0,0.0,0.0,-12.6,0.0,0.0,0.0
168,0.0,0.0,0.0,0.4317607421875,0.0,0.0,0.0,0.0,0.0,0.0,0.193,0.0,0.0,0.0,0.0,0.0,0.0,0.443556475456643,0.0,0.0,0.0,0.0,0.0,0.0,-12.644,0.0,0.0,0.0
169,0.0,0.0,0.0,0.4336376953125,0.0,0.0,0.0,0.0,0.0,0.0,0.203,0.0,0.0,0.0,0.0,0.0,0.0,0.44556552596953874,0.0,0.0,0.0,0.0,0.0,0.0,-13.012,0.0,0.0,0.0
170,0.0,0.0,0.0,0.4355234375,0.0,0.0,0.0,0.0,0.0,0.0,0.192,0.0,0.0,0.0,0.0,0.0,0.0,0.44757212217655745,0.0,0.0,0.0,0.0,0.0,0.0,-12.828,0.0,0.0,0.0
171,0.0,0.0,0.0,0.4375537109375,0.0,0.0,0.0,0.0,0.0,0.0,0.194,0.0,0.0,0.0,0.0,0.0,0.0,0.4495720901639864,0.0,0.0,0.0,0.0,0.0,0.0,-12.896,0.0,0.0,0.0
172,0.0,0.0,0.0,0.4394306640625,0.0,0.0,0.0,0.0,0.0,0.0,0.193,0.0,0.0,0.0,0.0,0.0,0.0,0.451537983940436,0.0,0.0,0.0,0.0,0.0,0.0,-12.392,0.0,0.0,0.0
173,0.0,0.0,0.0,0.4414609375,0.0,0.0,0.0,0.0,0.0,0.0,0.196,0.0,0.0,0.0,0.0,0.0,0.0,0.45351261927485564,0.0,0.0,0.0,0.0,0.0,0.0,-12.828,0.0,0.0,0.0
174,0.0,0.0,0.0,0.443193359375,0.0,0.0,0.0,0.0,0.0,0.0,0.187,0.0,0.0,0.0,0.0,0.0,0.0,0.4554795403176267,0.0,0.0,0.0,0.0,0.0,0.0,-12.6,0.0,0.0,0.0
175,0.0,0.0,0.0,0.4452236328125,0.0,0.0,0.0,0.0,0.0,0.0,0.19,0.0,0.0,0.0,0.0,0.0,0.0,0.45741886878190785,0.0,0.0,0.0,0.0,0.0,0.0,-12.644,0.0,0.0,0.0
176,0.0,0.0,0.0,0.44696484375,0.0,0.0,0.0,0.0,0.0,0.0,0.191,0.0,0.0,0.0,0.0,0.0,0.0,0.45935131671462337,0.0,0.0,0.0,0.0,0.0,0.0,-12.464,0.0,0.0,0.0
177,0.0,0.0,0.0,0.448986328125,0.0,0.0,0.0,0.0,0.0,0.0,0.186,0.0,0.0,0.0,0.0,0.0,0.0,0.46128169651084727,0.0,0.0,0.0,0.0,0.0,0.0,-11.8,0.0,0.0,0.0
178,0.0,0.0,0.0,0.4508720703125,0.0,0.0,0.0,0.0,0.0,0.0,0.201,0.0,0.0,0.0,0.0,0.0,0.0,0.463194014667531,0.0,0.0,0.0,0.0,0.0,0.0,-12.072,0.0,0.0,0.0
179,0.0,0.0,0.0,0.4527490234375,0.0,0.0,0.0,0.0,0.0,0.0,0.189,0.0,0.0,0.0,0.0,0.0,0.0,0.465093989247953,0.0,0.0,0.0,0.0,0.0,0.0,-12.028,0.0,0.0,0.0
180,0.0,0.0,0.0,0.454779296875,0.0,0.0,0.0,0.0,0.0,0.0,0.197,0.0,0.0,0.0,0.0,0.0,0.0,0.46698100307781526,0.0,0.0,0.0,0.0,0.0,0.0,-11.98,0.0,0.0,0.0
181,0.0,0.0,0.0,0.4566650390625,0.0,0.0,0.0,0.0,0.0,0.0,0.189,0.0,0.0,0.0,0.0,0.0,0.0,0.46885940796640463,0.0,0.0,0.0,0.0,0.0,0.0,-11.912,0.0,0.0,0.0
182,0.0,0.0,0.0,0.4585419921875,0.0,0.0,0.0,0.0,0.0,0.0,0.186,0.0,0.0,0.0,0.0,0.0,0.0,0.4707264389583409,0.0,0.0,0.0,0.0,0.0,0.0,-11.98,0.0,0.0,0.0
183,0.0,0.0,0.0,0.460427734375,0.0,0.0,0.0,0.0,0.0,0.0,0.19,0.0,0.0,0.0,0.0,0.0,0.0,0.4725829680709918,0.0,0.0,0.0,0.0,0.0,0.0,-11.96,0.0,0.0,0.0
184,0.0,0.0,0.0,0.4623046875,0.0,0.0,0.0,0.0,0.0,0.0,0.196,0.0,0.0,0.0,0.0,0.0,0.0,0.4744252899612479,0.0,0.0,0.0,0.0,0.0,0.0,-12.464,0.0,0.0,0.0
185,0.0,0.0,0.0,0.4641904296875,0.0,0.0,0.0,0.0,0.0,0.0,0.19,0.0,0.0,0.0,0.0,0.0,0.0,0.476261974548124,0.0,0.0,0.0,0.0,0.0,0.0,-12.692,0.0,0.0,0.0
186,0.0,0.0,0.0,0.466220703125,0.0,0.0,0.0,0.0,0.0,0.0,0.197,0.0,0.0,0.0,0.0,0.0,0.0,0.4780743130206797,0.0,0.0,0.0,0.0,0.0,0.0,-13.148,0.0,0.0,0.0
187,0.0,0.0,0.0,0.4681064453125,0.0,0.0,0.0,0.0,0.0,0.0,0.196,0.0,0.0,0.0,0.0,0.0,0.0,0.47988809290911866,0.0,0.0,0.0,0.0,0.0,0.0,-13.332,0.0,0.0,0.0
188,0.0,0.0,0.0,0.4699931640625,0.0,0.0,0.0,0.0,0.0,0.0,0.182,0.0,0.0,0.0,0.0,0.0,0.0,0.48166440696687596,0.0,0.0,0.0,0.0,0.0,0.0,-13.192,0.0,0.0,0.0
189,0.0,0.0,0.0,0.472013671875,0.0,0.0,0.0,0.0,0.0,0.0,0.2,0.0,0.0,0.0,0.0,0.0,0.0,0.48345472515531257,0.0,0.0,0.0,0.0,0.0,0.0,-13.308,0.0,0.0,0.0
190,0.0,0.0,0.0,0.4738994140625,0.0,0.0,0.0,0.0,0.0,0.0,0.195,0.0,0.0,0.0,0.0,0.0,0.0,0.48522431429365254,0.0,0.0,0.0,0.0,0.0,0.0,-13.4,0.0,0.0,0.0
191,0.0,0.0,0.0,0.4760654296875,0.0,0.0,0.0,0.0,0.0,0.0,0.198,0.0,0.0,0.0,0.0,0.0,0.0,0.48697781852892585,0.0,0.0,0.0,0.0,0.0,0.0,-13.536,0.0,0.0,0.0
192,0.0,0.0,0.0,0.478095703125,0.0,0.0,0.0,0.0,0.0,0.0,0.212,0.0,0.0,0.0,0.0,0.0,0.0,0.4887301725019029,0.0,0.0,0.0,0.0,0.0,0.0,-13.24,0.0,0.0,0.0
193,0.0,0.0,0.0,0.4802705078125,0.0,0.0,0.0,0.0,0.0,0.0,0.208,0.0,0.0,0.0,0.0,0.0,0.0,0.49045790610297907,0.0,0.0,0.0,0.0,0.0,0.0,-12.944,0.0,0.0,0.0
194,0.0,0.0,0.0,0.4821474609375,0.0,0.0,0.0,0.0,0.0,0.0,0.213,0.0,0.0,0.0,0.0,0.0,0.0,0.4921848417721402,0.0,0.0,0.0,0.0,0.0,0.0,-13.032,0.0,0.0,0.0
195,0.0,0.0,0.0,0.484033203125,0.0,0.0,0.0,0.0,0.0,0.0,0.187,0.0,0.0,0.0,0.0,0.0,0.0,0.49389188778680704,0.0,0.0,0.0,0.0,0.0,0.0,-12.668,0.0,0.0,0.0
196,0.0,0.0,0.0,0.4857744140625,0.0,0.0,0.0,0.0,0.0,0.0,0.187,0.0,0.0,0.0,0.0,0.0,0.0,0.49559222791361035,0.0,0.0,0.0,0.0,0.0,0.0,-12.392,0.0,0.0,0.0
197,0.0,0.0,0.0,0.4875166015625,0.0,0.0,0.0,0.0,0.0,0.0,0.17,0.0,0.0,0.0,0.0,0.0,0.0,0.49727204880572345,0.0,0.0,0.0,0.0,0.0,0.0,-11.936,0.0,0.0,0.0
198,0.0,0.0,0.0,0.4891044921875,0.0,0.0,0.0,0.0,0.0,0.0,0.167,0.0,0.0,0.0,0.0,0.0,0.0,0.4989495235488419,0.0,0.0,0.0,0.0,0.0,0.0,-11.98,0.0,0.0,0.0
199,0.0,0.0,0.0,0.490556640625,0.0,0.0,0.0,0.0,0.0,0.0,0.156,0.0,0.0,0.0,0.0,0.0,0.0,0.5006031732488013,0.0,0.0,0.0,0.0,0.0,0.0,-11.96,0.0,0.0,0.0
200,0.0,0.0,0.0,0.4922890625,0.0,0.0,0.0,0.0,0.0,0.0,0.16,0.0,0.0,0.0,0.0,0.0,0.0,0.5022503510340047,0.0,0.0,0.0,0.0,0.0,0.0,-12.188,0.0,0.0,0.0
201,0.0,0.0,0.0,0.49388671875,0.0,0.0,0.0,0.0,0.0,0.0,0.17,0.0,0.0,0.0,0.0,0.0,0.0,0.5038975191237777,0.0,0.0,0.0,0.0,0.0,0.0,-12.348,0.0,0.0,0.0
202,0.0,0.0,0.0,0.495474609375,0.0,0.0,0.0,0.0,0.0,0.0,0.151,0.0,0.0,0.0,0.0,0.0,0.0,0.5055158730358272,0.0,0.0,0.0,0.0,0.0,0.0,-12.324,0.0,0.0,0.0
203,0.0,0.0,0.0,0.496927734375,0.0,0.0,0.0,0.0,0.0,0.0,0.156,0.0,0.0,0.0,0.0,0.0,0.0,0.5071252049299774,0.0,0.0,0.0,0.0,0.0,0.0,-12.372,0.0,0.0,0.0
204,0.0,0.0,0.0,0.49837109375,0.0,0.0,0.0,0.0,0.0,0.0,0.147,0.0,0.0,0.0,0.0,0.0,0.0,0.5087176919865083,0.0,0.0,0.0,0.0,0.0,0.0,-12.164,0.0,0.0,0.0
205,0.0,0.0,0.0,0.49996875,0.0,0.0,0.0,0.0,0.0,0.0,0.153,0.0,0.0,0.0,0.0,0.0,0.0,0.5103072010044027,0.0,0.0,0.0,0.0,0.0,0.0,-12.096,0.0,0.0,0.0
206,0.0,0.0,0.0,0.501412109375,0.0,0.0,0.0,0.0,0.0,0.0,0.154,0.0,0.0,0.0,0.0,0.0,0.0,0.5118777481616152,0.0,0.0,0.0,0.0,0.0,0.0,-11.892,0.0,0.0,0.0
207,0.0,0.0,0.0,0.502865234375,0.0,0.0,0.0,0.0,0.0,0.0,0.145,0.0,0.0,0.0,0.0,0.0,0.0,0.5134361058268178,0.0,0.0,0.0,0.0,0.0,0.0,-11.98,0.0,0.0,0.0
208,0.0,0.0,0.0,0.5043173828125,0.0,0.0,0.0,0.0,0.0,0.0,0.145,0.0,0.0,0.0,0.0,0.0,0.0,0.5149811927132697,0.0,0.0,0.0,0.0,0.0,0.0,-11.868,0.0,0.0,0.0
209,0.0,0.0,0.0,0.5059150390625,0.0,0.0,0.0,0.0,0.0,0.0,0.155,0.0,0.0,0.0,0.0,0.0,0.0,0.5165122169469737,0.0,0.0,0.0,0.0,0.0,0.0,-11.936,0.0,0.0,0.0
210,0.0,0.0,0.0,0.5075029296875,0.0,0.0,0.0,0.0,0.0,0.0,0.15,0.0,0.0,0.0,0.0,0.0,0.0,0.5180345839060476,0.0,0.0,0.0,0.0,0.0,0.0,-11.96,0.0,0.0,0.0
211,0.0,0.0,0.0,0.5090908203125,0.0,0.0,0.0,0.0,0.0,0.0,0.157,0.0,0.0,0.0,0.0,0.0,0.0,0.5195409557817228,0.0,0.0,0.0,0.0,0.0,0.0,-11.776,0.0,0.0,0.0
212,0.0,0.0,0.0,0.5106884765625,0.0,0.0,0.0,0.0,0.0,0.0,0.166,0.0,0.0,0.0,0.0,0.0,0.0,0.5210350970179082,0.0,0.0,0.0,0.0,0.0,0.0,-11.64,0.0,0.0,0.0
213,0.0,0.0,0.0,0.5122763671875,0.0,0.0,0.0,0.0,0.0,0.0,0.162,0.0,0.0,0.0,0.0,0.0,0.0,0.5225163530565982,0.0,0.0,0.0,0.0,0.0,0.0,-11.776,0.0,0.0,0.0
214,0.0,0.0,0.0,0.5137294921875,0.0,0.0,0.0,0.0,0.0,0.0,0.152,0.0,0.0,0.0,0.0,0.0,0.0,0.5239795956732731,0.0,0.0,0.0,0.0,0.0,0.0,-11.776,0.0,0.0,0.0
215,0.0,0.0,0.0,0.5151728515625,0.0,0.0,0.0,0.0,0.0,0.0,0.145,0.0,0.0,0.0,0.0,0.0,0.0,0.5254354539170506,0.0,0.0,0.0,0.0,0.0,0.0,-11.572,0.0,0.0,0.0
216,0.0,0.0,0.0,0.5167705078125,0.0,0.0,0.0,0.0,0.0,0.0,0.149,0.0,0.0,0.0,0.0,0.0,0.0,0.5268774420544903,0.0,0.0,0.0,0.0,0.0,0.0,-11.48,0.0,0.0,0.0
217,0.0,0.0,0.0,0.5182138671875,0.0,0.0,0.0,0.0,0.0,0.0,0.156,0.0,0.0,0.0,0.0,0.0,0.0,0.5283044249130191,0.0,0.0,0.0,0.0,0.0,0.0,-11.708,0.0,0.0,0.0
218,0.0,0.0,0.0,0.519810546875,0.0,0.0,0.0,0.0,0.0,0.0,0.151,0.0,0.0,0.0,0.0,0.0,0.0,0.5297196424785906,0.0,0.0,0.0,0.0,0.0,0.0,-11.868,0.0,0.0,0.0
219,0.0,0.0,0.0,0.5213994140625,0.0,0.0,0.0,0.0,0.0,0.0,0.162,0.0,0.0,0.0,0.0,0.0,0.0,0.5311235520418554,0.0,0.0,0.0,0.0,0.0,0.0,-12.072,0.0,0.0,0.0
220,0.0,0.0,0.0,0.5228515625,0.0,0.0,0.0,0.0,0.0,0.0,0.154,0.0,0.0,0.0,0.0,0.0,0.0,0.5325113835383808,0.0,0.0,0.0,0.0,0.0,0.0,-12.14,0.0,0.0,0.0
221,0.0,0.0,0.0,0.52444921875,0.0,0.0,0.0,0.0,0.0,0.0,0.154,0.0,0.0,0.0,0.0,0.0,0.0,0.5338882738927612,0.0,0.0,0.0,0.0,0.0,0.0,-12.232,0.0,0.0,0.0
222,0.0,0.0,0.0,0.5259013671875,0.0,0.0,0.0,0.0,0.0,0.0,0.153,0.0,0.0,0.0,0.0,0.0,0.0,0.535268048847652,0.0,0.0,0.0,0.0,0.0,0.0,-12.44,0.0,0.0,0.0
223,0.0,0.0,0.0,0.527345703125,0.0,0.0,0.0,0.0,0.0,0.0,0.145,0.0,0.0,0.0,0.0,0.0,0.0,0.5366066103477025,0.0,0.0,0.0,0.0,0.0,0.0,-12.76,0.0,0.0,0.0
224,0.0,0.0,0.0,0.52893359375,0.0,0.0,0.0,0.0,0.0,0.0,0.152,0.0,0.0,0.0,0.0,0.0,0.0,0.5379401645701968,0.0,0.0,0.0,0.0,0.0,0.0,-12.964,0.0,0.0,0.0
225,0.0,0.0,0.0,0.5302421875,0.0,0.0,0.0,0.0,0.0,0.0,0.145,0.0,0.0,0.0,0.0,0.0,0.0,0.539270844237014,0.0,0.0,0.0,0.0,0.0,0.0,-12.92,0.0,0.0,0.0
226,0.0,0.0,0.0,0.531685546875,0.0,0.0,0.0,0.0,0.0,0.0,0.139,0.0,0.0,0.0,0.0,0.0,0.0,0.5405888875841719,0.0,0.0,0.0,0.0,0.0,0.0,-12.896,0.0,0.0,0.0
227,0.0,0.0,0.0,0.533138671875,0.0,0.0,0.0,0.0,0.0,0.0,0.145,0.0,0.0,0.0,0.0,0.0,0.0,0.5418667128117477,0.0,0.0,0.0,0.0,0.0,0.0,-12.644,0.0,0.0,0.0
228,0.0,0.0,0.0,0.5347265625,0.0,0.0,0.0,0.0,0.0,0.0,0.15,0.0,0.0,0.0,0.0,0.0,0.0,0.5431494296283953,0.0,0.0,0.0,0.0,0.0,0.0,-12.944,0.0,0.0,0.0
229,0.0,0.0,0.0,0.5361796875,0.0,0.0,0.0,0.0,0.0,0.0,0.155,0.0,0.0,0.0,0.0,0.0,0.0,0.544416375824171,0.0,0.0,0.0,0.0,0.0,0.0,-13.24,0.0,0.0,0.0
230,0.0,0.0,0.0,0.537623046875,0.0,0.0,0.0,0.0,0.0,0.0,0.145,0.0,0.0,0.0,0.0,0.0,0.0,0.5456732405535177,0.0,0.0,0.0,0.0,0.0,0.0,-13.124,0.0,0.0,0.0
231,0.0,0.0,0.0,0.5390673828125,0.0,0.0,0.0,0.0,0.0,0.0,0.145,0.0,0.0,0.0,0.0,0.0,0.0,0.5469139648028216,0.0,0.0,0.0,0.0,0.0,0.0,-13.216,0.0,0.0,0.0
232,0.0,0.0,0.0,0.540375,0.0,0.0,0.0,0.0,0.0,0.0,0.138,0.0,0.0,0.0,0.0,0.0,0.0,0.5481330424854357,0.0,0.0,0.0,0.0,0.0,0.0,-12.896,0.0,0.0,0.0
233,0.0,0.0,0.0,0.5418193359375,0.0,0.0,0.0,0.0,0.0,0.0,0.137,0.0,0.0,0.0,0.0,0.0,0.0,0.5493527438106306,0.0,0.0,0.0,0.0,0.0,0.0,-12.552,0.0,0.0,0.0
234,0.0,0.0,0.0,0.54313671875,0.0,0.0,0.0,0.0,0.0,0.0,0.139,0.0,0.0,0.0,0.0,0.0,0.0,0.5505710459148968,0.0,0.0,0.0,0.0,0.0,0.0,-12.552,0.0,0.0,0.0
235,0.0,0.0,0.0,0.5442919921875,0.0,0.0,0.0,0.0,0.0,0.0,0.123,0.0,0.0,0.0,0.0,0.0,0.0,0.5517373509796736,0.0,0.0,0.0,0.0,0.0,0.0,-12.692,0.0,0.0,0.0
236,0.0,0.0,0.0,0.5453017578125,0.0,0.0,0.0,0.0,0.0,0.0,0.115,0.0,0.0,0.0,0.0,0.0,0.0,0.5529065869725721,0.0,0.0,0.0,0.0,0.0,0.0,-12.624,0.0,0.0,0.0
237,0.0,0.0,0.0,0.546322265625,0.0,0.0,0.0,0.0,0.0,0.0,0.101,0.0,0.0,0.0,0.0,0.0,0.0,0.5540749913421262,0.0,0.0,0.0,0.0,0.0,0.0,-12.508,0.0,0.0,0.0
238,0.0,0.0,0.0,0.54733203125,0.0,0.0,0.0,0.0,0.0,0.0,0.098,0.0,0.0,0.0,0.0,0.0,0.0,0.555212214438119,0.0,0.0,0.0,0.0,0.0,0.0,-11.936,0.0,0.0,0.0
239,0.0,0.0,0.0,0.5484873046875,0.0,0.0,0.0,0.0,0.0,0.0,0.109,0.0,0.0,0.0,0.0,0.0,0.0,0.5563412440448765,0.0,0.0,0.0,0.0,0.0,0.0,-11.936,0.0,0.0,0.0
240,0.0,0.0,0.0,0.5495068359375,0.0,0.0,0.0,0.0,0.0,0.0,0.109,0.0,0.0,0.0,0.0,0.0,0.0,0.5574695710682631,0.0,0.0,0.0,0.0,0.0,0.0,-11.8,0.0,0.0,0.0
241,0.0,0.0,0.0,0.550517578125,0.0,0.0,0.0,0.0,0.0,0.0,0.102,0.0,0.0,0.0,0.0,0.0,0.0,0.5585658510685744,0.0,0.0,0.0,0.0,0.0,0.0,-11.732,0.0,0.0,0.0
242,0.0,0.0,0.0,0.5513837890625,0.0,0.0,0.0,0.0,0.0,0.0,0.093,0.0,0.0,0.0,0.0,0.0,0.0,0.5596469814099806,0.0,0.0,0.0,0.0,0.0,0.0,-11.684,0.0,0.0,0.0
243,0.0,0.0,0.0,0.55210546875,0.0,0.0,0.0,0.0,0.0,0.0,0.085,0.0,0.0,0.0,0.0,0.0,0.0,0.5607285394387496,0.0,0.0,0.0,0.0,0.0,0.0,-11.684,0.0,0.0,0.0
244,0.0,0.0,0.0,0.553125,0.0,0.0,0.0,0.0,0.0,0.0,0.081,0.0,0.0,0.0,0.0,0.0,0.0,0.5617856738408195,0.0,0.0,0.0,0.0,0.0,0.0,-11.32,0.0,0.0,0.0
245,0.0,0.0,0.0,0.5541357421875,0.0,0.0,0.0,0.0,0.0,0.0,0.099,0.0,0.0,0.0,0.0,0.0,0.0,0.5628322733657001,0.0,0.0,0.0,0.0,0.0,0.0,-11.34,0.0,0.0,0.0
246,0.0,0.0,0.0,0.555146484375,0.0,0.0,0.0,0.0,0.0,0.0,0.099,0.0,0.0,0.0,0.0,0.0,0.0,0.5638638949093638,0.0,0.0,0.0,0.0,0.0,0.0,-11.228,0.0,0.0,0.0
247,0.0,0.0,0.0,0.556310546875,0.0,0.0,0.0,0.0,0.0,0.0,0.109,0.0,0.0,0.0,0.0,0.0,0.0,0.5648885063296918,0.0,0.0,0.0,0.0,0.0,0.0,-11.34,0.0,0.0,0.0
248,0.0,0.0,0.0,0.5571767578125,0.0,0.0,0.0,0.0,0.0,0.0,0.104,0.0,0.0,0.0,0.0,0.0,0.0,0.5658883367113413,0.0,0.0,0.0,0.0,0.0,0.0,-11.364,0.0,0.0,0.0
249,0.0,0.0,0.0,0.5581875,0.0,0.0,0.0,0.0,0.0,0.0,0.09,0.0,0.0,0.0,0.0,0.0,0.0,0.56687789162647,0.0,0.0,0.0,0.0,0.0,0.0,-11.228,0.0,0.0,0.0
250,0.0,0.0,0.0,0.5590537109375,0.0,0.0,0.0,0.0,0.0,0.0,0.1,0.0,0.0,0.0,0.0,0.0,0.0,0.5678504939333221,0.0,0.0,0.0,0.0,0.0,0.0,-11.0,0.0,0.0,0.0
251,0.0,0.0,0.0,0.5602177734375,0.0,0.0,0.0,0.0,0.0,0.0,0.1,0.0,0.0,0.0,0.0,0.0,0.0,0.5688141398366992,0.0,0.0,0.0,0.0,0.0,0.0,-11.18,0.0,0.0,0.0
252,0.0,0.0,0.0,0.561228515625,0.0,0.0,0.0,0.0,0.0,0.0,0.106,0.0,0.0,0.0,0.0,0.0,0.0,0.5697645397137703,0.0,0.0,0.0,0.0,0.0,0.0,-11.136,0.0,0.0,0.0
253,0.0,0.0,0.0,0.562103515625,0.0,0.0,0.0,0.0,0.0,0.0,0.099,0.0,0.0,0.0,0.0,0.0,0.0,0.570693298794134,0.0,0.0,0.0,0.0,0.0,0.0,-11.34,0.0,0.0,0.0
254,0.0,0.0,0.0,0.563123046875,0.0,0.0,0.0,0.0,0.0,0.0,0.1,0.0,0.0,0.0,0.0,0.0,0.0,0.5716152101342191,0.0,0.0,0.0,0.0,0.0,0.0,-11.16,0.0,0.0,0.0
255,0.0,0.0,0.0,0.5642783203125,0.0,0.0,0.0,0.0,0.0,0.0,0.105,0.0,0.0,0.0,0.0,0.0,0.0,0.5725230178588554,0.0,0.0,0.0,0.0,0.0,0.0,-11.364,0.0,0.0,0.0
256,0.0,0.0,0.0,0.5652890625,0.0,0.0,0.0,0.0,0.0,0.0,0.103,0.0,0.0,0.0,0.0,0.0,0.0,0.573407568493373,0.0,0.0,0.0,0.0,0.0,0.0,-11.412,0.0,0.0,0.0
257,0.0,0.0,0.0,0.5662998046875,0.0,0.0,0.0,0.0,0.0,0.0,0.101,0.0,0.0,0.0,0.0,0.0,0.0,0.5742843300446805,0.0,0.0,0.0,0.0,0.0,0.0,-11.8,0.0,0.0,0.0
258,0.0,0.0,0.0,0.5673193359375,0.0,0.0,0.0,0.0,0.0,0.0,0.101,0.0,0.0,0.0,0.0,0.0,0.0,0.5751490948064504,0.0,0.0,0.0,0.0,0.0,0.0,-11.776,0.0,0.0,0.0
259,0.0,0.0,0.0,0.568330078125,0.0,0.0,0.0,0.0,0.0,0.0,0.106,0.0,0.0,0.0,0.0,0.0,0.0,0.5759947506307967,0.0,0.0,0.0,0.0,0.0,0.0,-11.82,0.0,0.0,0.0
260,0.0,0.0,0.0,0.5693408203125,0.0,0.0,0.0,0.0,0.0,0.0,0.103,0.0,0.0,0.0,0.0,0.0,0.0,0.5768252346865553,0.0,0.0,0.0,0.0,0.0,0.0,-11.868,0.0,0.0,0.0
261,0.0,0.0,0.0,0.5702158203125,0.0,0.0,0.0,0.0,0.0,0.0,0.099,0.0,0.0,0.0,0.0,0.0,0.0,0.5776551912326987,0.0,0.0,0.0,0.0,0.0,0.0,-11.868,0.0,0.0,0.0
262,0.0,0.0,0.0,0.57137109375,0.0,0.0,0.0,0.0,0.0,0.0,0.093,0.0,0.0,0.0,0.0,0.0,0.0,0.5784518733009789,0.0,0.0,0.0,0.0,0.0,0.0,-11.524,0.0,0.0,0.0
263,0.0,0.0,0.0,0.5723818359375,0.0,0.0,0.0,0.0,0.0,0.0,0.109,0.0,0.0,0.0,0.0,0.0,0.0,0.5792385133529976,0.0,0.0,0.0,0.0,0.0,0.0,-12.164,0.0,0.0,0.0
264,0.0,0.0,0.0,0.572958984375,0.0,0.0,0.0,0.0,0.0,0.0,0.082,0.0,0.0,0.0,0.0,0.0,0.0,0.5800165460754947,0.0,0.0,0.0,0.0,0.0,0.0,-11.96,0.0,0.0,0.0
265,0.0,0.0,0.0,0.573978515625,0.0,0.0,0.0,0.0,0.0,0.0,0.079,0.0,0.0,0.0,0.0,0.0,0.0,0.5807763398037513,0.0,0.0,0.0,0.0,0.0,0.0,-11.936,0.0,0.0,0.0
266,0.0,0.0,0.0,0.5745556640625,0.0,0.0,0.0,0.0,0.0,0.0,0.082,0.0,0.0,0.0,0.0,0.0,0.0,0.5815212028877308,0.0,0.0,0.0,0.0,0.0,0.0,-11.708,0.0,0.0,0.0
267,0.0,0.0,0.0,0.575421875,0.0,0.0,0.0,0.0,0.0,0.0,0.072,0.0,0.0,0.0,0.0,0.0,0.0,0.5822501929327599,0.0,0.0,0.0,0.0,0.0,0.0,-11.592,0.0,0.0,0.0
268,0.0,0.0,0.0,0.57614453125,0.0,0.0,0.0,0.0,0.0,0.0,0.083,0.0,0.0,0.0,0.0,0.0,0.0,0.5829684852766776,0.0,0.0,0.0,0.0,0.0,0.0,-11.66,0.0,0.0,0.0
269,0.0,0.0,0.0,0.576875,0.0,0.0,0.0,0.0,0.0,0.0,0.066,0.0,0.0,0.0,0.0,0.0,0.0,0.5836709911974602,0.0,0.0,0.0,0.0,0.0,0.0,-11.5,0.0,0.0,0.0
270,0.0,0.0,0.0,0.5775966796875,0.0,0.0,0.0,0.0,0.0,0.0,0.071,0.0,0.0,0.0,0.0,0.0,0.0,0.5843588856975247,0.0,0.0,0.0,0.0,0.0,0.0,-11.708,0.0,0.0,0.0
271,0.0,0.0,0.0,0.5781748046875,0.0,0.0,0.0,0.0,0.0,0.0,0.064,0.0,0.0,0.0,0.0,0.0,0.0,0.585032708293189,0.0,0.0,0.0,0.0,0.0,0.0,-11.572,0.0,0.0,0.0
272,0.0,0.0,0.0,0.578896484375,0.0,0.0,0.0,0.0,0.0,0.0,0.064,0.0,0.0,0.0,0.0,0.0,0.0,0.5856893320773128,0.0,0.0,0.0,0.0,0.0,0.0,-11.364,0.0,0.0,0.0
273,0.0,0.0,0.0,0.5794736328125,0.0,0.0,0.0,0.0,0.0,0.0,0.064,0.0,0.0,0.0,0.0,0.0,0.0,0.5863347105941016,0.0,0.0,0.0,0.0,0.0,0.0,-11.252,0.0,0.0,0.0
274,0.0,0.0,0.0,0.580060546875,0.0,0.0,0.0,0.0,0.0,0.0,0.061,0.0,0.0,0.0,0.0,0.0,0.0,0.5869643136273777,0.0,0.0,0.0,0.0,0.0,0.0,-11.252,0.0,0.0,0.0
275,0.0,0.0,0.0,0.5806376953125,0.0,0.0,0.0,0.0,0.0,0.0,0.065,0.0,0.0,0.0,0.0,0.0,0.0,0.5875803282356586,0.0,0.0,0.0,0.0,0.0,0.0,-11.412,0.0,0.0,0.0
276,0.0,0.0,0.0,0.5812158203125,0.0,0.0,0.0,0.0,0.0,0.0,0.051,0.0,0.0,0.0,0.0,0.0,0.0,0.5881837607370367,0.0,0.0,0.0,0.0,0.0,0.0,-11.32,0.0,0.0,0.0
277,0.0,0.0,0.0,0.5818017578125,0.0,0.0,0.0,0.0,0.0,0.0,0.057,0.0,0.0,0.0,0.0,0.0,0.0,0.5887633171267465,0.0,0.0,0.0,0.0,0.0,0.0,-11.272,0.0,0.0,0.0
278,0.0,0.0,0.0,0.58237890625,0.0,0.0,0.0,0.0,0.0,0.0,0.058,0.0,0.0,0.0,0.0,0.0,0.0,0.5893347330216681,0.0,0.0,0.0,0.0,0.0,0.0,-11.228,0.0,0.0,0.0
279,0.0,0.0,0.0,0.58295703125,0.0,0.0,0.0,0.0,0.0,0.0,0.062,0.0,0.0,0.0,0.0,0.0,0.0,0.5898899433788244,0.0,0.0,0.0,0.0,0.0,0.0,-11.32,0.0,0.0,0.0
280,0.0,0.0,0.0,0.5836875,0.0,0.0,0.0,0.0,0.0,0.0,0.068,0.0,0.0,0.0,0.0,0.0,0.0,0.5904307032584896,0.0,0.0,0.0,0.0,0.0,0.0,-11.456,0.0,0.0,0.0
281,0.0,0.0,0.0,0.5844091796875,0.0,0.0,0.0,0.0,0.0,0.0,0.071,0.0,0.0,0.0,0.0,0.0,0.0,0.590956717206516,0.0,0.0,0.0,0.0,0.0,0.0,-11.548,0.0,0.0,0.0
282,0.0,0.0,0.0,0.5849873046875,0.0,0.0,0.0,0.0,0.0,0.0,0.063,0.0,0.0,0.0,0.0,0.0,0.0,0.5914707963777649,0.0,0.0,0.0,0.0,0.0,0.0,-11.456,0.0,0.0,0.0
283,0.0,0.0,0.0,0.585564453125,0.0,0.0,0.0,0.0,0.0,0.0,0.065,0.0,0.0,0.0,0.0,0.0,0.0,0.5919673948784137,0.0,0.0,0.0,0.0,0.0,0.0,-11.572,0.0,0.0,0.0
284,0.0,0.0,0.0,0.5862861328125,0.0,0.0,0.0,0.0,0.0,0.0,0.057,0.0,0.0,0.0,0.0,0.0,0.0,0.5924476246727791,0.0,0.0,0.0,0.0,0.0,0.0,-11.66,0.0,0.0,0.0
285,0.0,0.0,0.0,0.5867197265625,0.0,0.0,0.0,0.0,0.0,0.0,0.06,0.0,0.0,0.0,0.0,0.0,0.0,0.5929165087183144,0.0,0.0,0.0,0.0,0.0,0.0,-11.96,0.0,0.0,0.0
286,0.0,0.0,0.0,0.587306640625,0.0,0.0,0.0,0.0,0.0,0.0,0.056,0.0,0.0,0.0,0.0,0.0,0.0,0.5933675163390794,0.0,0.0,0.0,0.0,0.0,0.0,-11.98,0.0,0.0,0.0
287,0.0,0.0,0.0,0.5878837890625,0.0,0.0,0.0,0.0,0.0,0.0,0.057,0.0,0.0,0.0,0.0,0.0,0.0,0.5938050101744394,0.0,0.0,0.0,0.0,0.0,0.0,-12.096,0.0,0.0,0.0
288,0.0,0.0,0.0,0.5884609375,0.0,0.0,0.0,0.0,0.0,0.0,0.051,0.0,0.0,0.0,0.0,0.0,0.0,0.5942267921572161,0.0,0.0,0.0,0.0,0.0,0.0,-12.004,0.0,0.0,0.0
289,0.0,0.0,0.0,0.5890390625,0.0,0.0,0.0,0.0,0.0,0.0,0.054,0.0,0.0,0.0,0.0,0.0,0.0,0.5946321230796825,0.0,0.0,0.0,0.0,0.0,0.0,-12.188,0.0,0.0,0.0
290,0.0,0.0,0.0,0.5894716796875,0.0,0.0,0.0,0.0,0.0,0.0,0.053,0.0,0.0,0.0,0.0,0.0,0.0,0.5950250093735354,0.0,0.0,0.0,0.0,0.0,0.0,-12.096,0.0,0.0,0.0
291,0.0,0.0,0.0,0.590193359375,0.0,0.0,0.0,0.0,0.0,0.0,0.058,0.0,0.0,0.0,0.0,0.0,0.0,0.595403608997044,0.0,0.0,0.0,0.0,0.0,0.0,-12.164,0.0,0.0,0.0
292,0.0,0.0,0.0,0.5907802734375,0.0,0.0,0.0,0.0,0.0,0.0,0.064,0.0,0.0,0.0,0.0,0.0,0.0,0.5957663664054694,0.0,0.0,0.0,0.0,0.0,0.0,-12.348,0.0,0.0,0.0
293,0.0,0.0,0.0,0.591212890625,0.0,0.0,0.0,0.0,0.0,0.0,0.056,0.0,0.0,0.0,0.0,0.0,0.0,0.5961147040516986,0.0,0.0,0.0,0.0,0.0,0.0,-12.644,0.0,0.0,0.0
294,0.0,0.0,0.0,0.591646484375,0.0,0.0,0.0,0.0,0.0,0.0,0.04,0.0,0.0,0.0,0.0,0.0,0.0,0.5964485323647244,0.0,0.0,0.0,0.0,0.0,0.0,-12.624,0.0,0.0,0.0
295,0.0,0.0,0.0,0.591935546875,0.0,0.0,0.0,0.0,0.0,0.0,0.035,0.0,0.0,0.0,0.0,0.0,0.0,0.5967679071543606,0.0,0.0,0.0,0.0,0.0,0.0,-12.532,0.0,0.0,0.0
296,0.0,0.0,0.0,0.5922236328125,0.0,0.0,0.0,0.0,0.0,0.0,0.031,0.0,0.0,0.0,0.0,0.0,0.0,0.5970712666157624,0.0,0.0,0.0,0.0,0.0,0.0,-12.348,0.0,0.0,0.0
297,0.0,0.0,0.0,0.5925126953125,0.0,0.0,0.0,0.0,0.0,0.0,0.03,0.0,0.0,0.0,0.0,0.0,0.0,0.5973598282424762,0.0,0.0,0.0,0.0,0.0,0.0,-12.464,0.0,0.0,0.0
298,0.0,0.0,0.0,0.5928017578125,0.0,0.0,0.0,0.0,0.0,0.0,0.028,0.0,0.0,0.0,0.0,0.0,0.0,0.5976335349378425,0.0,0.0,0.0,0.0,0.0,0.0,-12.464,0.0,0.0,0.0
299,0.0,0.0,0.0,0.59308984375,0.0,0.0,0.0,0.0,0.0,0.0,0.032,0.0,0.0,0.0,0.0,0.0,0.0,0.5978914205298314,0.0,0.0,0.0,0.0,0.0,0.0,-12.372,0.0,0.0,0.0
300,0.0,0.0,0.0,0.59337890625,0.0,0.0,0.0,0.0,0.0,0.0,0.031,0.0,0.0,0.0,0.0,0.0,0.0,0.598135324924305,0.0,0.0,0.0,0.0,0.0,0.0,-12.532,0.0,0.0,0.0
301,0.0,0.0,0.0,0.59366796875,0.0,0.0,0.0,0.0,0.0,0.0,0.027,0.0,0.0,0.0,0.0,0.0,0.0,0.5983639162248495,0.0,0.0,0.0,0.0,0.0,0.0,-12.256,0.0,0.0,0.0
302,0.0,0.0,0.0,0.5939658203125,0.0,0.0,0.0,0.0,0.0,0.0,0.029,0.0,0.0,0.0,0.0,0.0,0.0,0.5985787209249662,0.0,0.0,0.0,0.0,0.0,0.0,-12.416,0.0,0.0,0.0
303,0.0,0.0,0.0,0.59425390625,0.0,0.0,0.0,0.0,0.0,0.0,0.028,0.0,0.0,0.0,0.0,0.0,0.0,0.5987777200362331,0.0,0.0,0.0,0.0,0.0,0.0,-12.348,0.0,0.0,0.0
304,0.0,0.0,0.0,0.5943984375,0.0,0.0,0.0,0.0,0.0,0.0,0.024,0.0,0.0,0.0,0.0,0.0,0.0,0.5989614500940781,0.0,0.0,0.0,0.0,0.0,0.0,-12.532,0.0,0.0,0.0
305,0.0,0.0,0.0,0.59454296875,0.0,0.0,0.0,0.0,0.0,0.0,0.017,0.0,0.0,0.0,0.0,0.0,0.0,0.5991301244997346,0.0,0.0,0.0,0.0,0.0,0.0,-12.212,0.0,0.0,0.0
306,0.0,0.0,0.0,0.5946875,0.0,0.0,0.0,0.0,0.0,0.0,0.017,0.0,0.0,0.0,0.0,0.0,0.0,0.5992841927487041,0.0,0.0,0.0,0.0,0.0,0.0,-12.232,0.0,0.0,0.0
307,0.0,0.0,0.0,0.5949755859375,0.0,0.0,0.0,0.0,0.0,0.0,0.013,0.0,0.0,0.0,0.0,0.0,0.0,0.5994228939168837,0.0,0.0,0.0,0.0,0.0,0.0,-12.256,0.0,0.0,0.0
308,0.0,0.0,0.0,0.5951201171875,0.0,0.0,0.0,0.0,0.0,0.0,0.018,0.0,0.0,0.0,0.0,0.0,0.0,0.599546915061738,0.0,0.0,0.0,0.0,0.0,0.0,-12.532,0.0,0.0,0.0
309,0.0,0.0,0.0,0.5952646484375,0.0,0.0,0.0,0.0,0.0,0.0,0.017,0.0,0.0,0.0,0.0,0.0,0.0,0.5996563604972012,0.0,0.0,0.0,0.0,0.0,0.0,-12.508,0.0,0.0,0.0
310,0.0,0.0,0.0,0.5955537109375,0.0,0.0,0.0,0.0,0.0,0.0,0.017,0.0,0.0,0.0,0.0,0.0,0.0,0.5997504004244494,0.0,0.0,0.0,0.0,0.0,0.0,-12.348,0.0,0.0,0.0
311,0.0,0.0,0.0,0.5955537109375,0.0,0.0,0.0,0.0,0.0,0.0,0.018,0.0,0.0,0.0,0.0,0.0,0.0,0.5998300134395124,0.0,0.0,0.0,0.0,0.0,0.0,-12.508,0.0,0.0,0.0
312,0.0,0.0,0.0,0.5956982421875,0.0,0.0,0.0,0.0,0.0,0.0,0.011,0.0,0.0,0.0,0.0,0.0,0.0,0.5998934369099822,0.0,0.0,0.0,0.0,0.0,0.0,-12.624,0.0,0.0,0.0
313,0.0,0.0,0.0,0.5958427734375,0.0,0.0,0.0,0.0,0.0,0.0,0.009,0.0,0.0,0.0,0.0,0.0,0.0,0.5999425923618408,0.0,0.0,0.0,0.0,0.0,0.0,-12.532,0.0,0.0,0.0
314,0.0,0.0,0.0,0.595986328125,0.0,0.0,0.0,0.0,0.0,0.0,0.014,0.0,0.0,0.0,0.0,0.0,0.0,0.5999766289144806,0.0,0.0,0.0,0.0,0.0,0.0,-12.28,0.0,0.0,0.0
315,0.0,0.0,0.0,0.596130859375,0.0,0.0,0.0,0.0,0.0,0.0,0.019,0.0,0.0,0.0,0.0,0.0,0.0,0.5999955962489657,0.0,0.0,0.0,0.0,0.0,0.0,-12.668,0.0,0.0,0.0
316,0.0,0.0,0.0,0.596275390625,0.0,0.0,0.0,0.0,0.0,0.0,0.015,0.0,0.0,0.0,0.0,0.0,0.0,0.5999995966036357,0.0,0.0,0.0,0.0,0.0,0.0,-12.576,0.0,0.0,0.0
317,0.0,0.0,0.0,0.596419921875,0.0,0.0,0.0,0.0,0.0,0.0,0.012,0.0,0.0,0.0,0.0,0.0,0.0,0.5999885918715973,0.0,0.0,0.0,0.0,0.0,0.0,-12.624,0.0,0.0,0.0
318,0.0,0.0,0.0,0.596419921875,0.0,0.0,0.0,0.0,0.0,0.0,0.009,0.0,0.0,0.0,0.0,0.0,0.0,0.5999625588407854,0.0,0.0,0.0,0.0,0.0,0.0,-12.712,0.0,0.0,0.0
319,0.0,0.0,0.0,0.596419921875,0.0,0.0,0.0,0.0,0.0,0.0,-0.001,0.0,0.0,0.0,0.0,0.0,0.0,0.5999216806060579,0.0,0.0,0.0,0.0,0.0,0.0,-12.76,0.0,0.0,0.0
320,0.0,0.0,0.0,0.596419921875,0.0,0.0,0.0,0.0,0.0,0.0,-0.001,0.0,0.0,0.0,0.0,0.0,0.0,0.599865724578295,0.0,0.0,0.0,0.0,0.0,0.0,-12.76,0.0,0.0,0.0
321,0.0,0.0,0.0,0.596419921875,0.0,0.0,0.0,0.0,0.0,0.0,-0.001,0.0,0.0,0.0,0.0,0.0,0.0,0.599794061347035,0.0,0.0,0.0,0.0,0.0,0.0,-12.668,0.0,0.0,0.0
322,0.0,0.0,0.0,0.596419921875,0.0,0.0,0.0,0.0,0.0,0.0,-0.001,0.0,0.0,0.0,0.0,0.0,0.0,0.5997084761187867,0.0,0.0,0.0,0.0,0.0,0.0,-12.624,0.0,0.0,0.0
323,0.0,0.0,0.0,0.596419921875,0.0,0.0,0.0,0.0,0.0,0.0,-0.001,0.0,0.0,0.0,0.0,0.0,0.0,0.5996076127717807,0.0,0.0,0.0,0.0,0.0,0.0,-12.644,0.0,0.0,0.0
324,0.0,0.0,0.0,0.596419921875,0.0,0.0,0.0,0.0,0.0,0.0,-0.001,0.0,0.0,0.0,0.0,0.0,0.0,0.5994914181177966,0.0,0.0,0.0,0.0,0.0,0.0,-12.624,0.0,0.0,0.0
325,0.0,0.0,0.0,0.596419921875,0.0,0.0,0.0,0.0,0.0,0.0,-0.001,0.0,0.0,0.0,0.0,0.0,0.0,0.5993603443929524,0.0,0.0,0.0,0.0,0.0,0.0,-12.6,0.0,0.0,0.0
326,0.0,0.0,0.0,0.596275390625,0.0,0.0,0.0,0.0,0.0,0.0,-0.007,0.0,0.0,0.0,0.0,0.0,0.0,0.5992146706061221,0.0,0.0,0.0,0.0,0.0,0.0,-12.624,0.0,0.0,0.0
327,0.0,0.0,0.0,0.596275390625,0.0,0.0,0.0,0.0,0.0,0.0,-0.01,0.0,0.0,0.0,0.0,0.0,0.0,0.5990541928786609,0.0,0.0,0.0,0.0,0.0,0.0,-12.484,0.0,0.0,0.0
328,0.0,0.0,0.0,0.596275390625,0.0,0.0,0.0,0.0,0.0,0.0,-0.001,0.0,0.0,0.0,0.0,0.0,0.0,0.5988783823465416,0.0,0.0,0.0,0.0,0.0,0.0,-12.576,0.0,0.0,0.0
329,0.0,0.0,0.0,0.596275390625,0.0,0.0,0.0,0.0,0.0,0.0,-0.001,0.0,0.0,0.0,0.0,0.0,0.0,0.5986868714932834,0.0,0.0,0.0,0.0,0.0,0.0,-12.44,0.0,0.0,0.0
330,0.0,0.0,0.0,0.596275390625,0.0,0.0,0.0,0.0,0.0,0.0,-0.001,0.0,0.0,0.0,0.0,0.0,0.0,0.5984814052586778,0.0,0.0,0.0,0.0,0.0,0.0,-12.416,0.0,0.0,0.0
331,0.0,0.0,0.0,0.596275390625,0.0,0.0,0.0,0.0,0.0,0.0,-0.001,0.0,0.0,0.0,0.0,0.0,0.0,0.5982600679134236,0.0,0.0,0.0,0.0,0.0,0.0,-12.392,0.0,0.0,0.0
332,0.0,0.0,0.0,0.596275390625,0.0,0.0,0.0,0.0,0.0,0.0,-0.001,0.0,0.0,0.0,0.0,0.0,0.0,0.598024676380584,0.0,0.0,0.0,0.0,0.0,0.0,-12.392,0.0,0.0,0.0
333,0.0,0.0,0.0,0.596275390625,0.0,0.0,0.0,0.0,0.0,0.0,-0.001,0.0,0.0,0.0,0.0,0.0,0.0,0.597774123502034,0.0,0.0,0.0,0.0,0.0,0.0,-12.416,0.0,0.0,0.0
334,0.0,0.0,0.0,0.596275390625,0.0,0.0,0.0,0.0,0.0,0.0,-0.001,0.0,0.0,0.0,0.0,0.0,0.0,0.5975080450647007,0.0,0.0,0.0,0.0,0.0,0.0,-12.532,0.0,0.0,0.0
335,0.0,0.0,0.0,0.596275390625,0.0,0.0,0.0,0.0,0.0,0.0,-0.001,0.0,0.0,0.0,0.0,0.0,0.0,0.5972253393624114,0.0,0.0,0.0,0.0,0.0,0.0,-12.532,0.0,0.0,0.0
336,0.0,0.0,0.0,0.596275390625,0.0,0.0,0.0,0.0,0.0,0.0,-0.001,0.0,0.0,0.0,0.0,0.0,0.0,0.5969321527385921,0.0,0.0,0.0,0.0,0.0,0.0,-12.552,0.0,0.0,0.0
337,0.0,0.0,0.0,0.596275390625,0.0,0.0,0.0,0.0,0.0,0.0,-0.001,0.0,0.0,0.0,0.0,0.0,0.0,0.596622336376699,0.0,0.0,0.0,0.0,0.0,0.0,-12.484,0.0,0.0,0.0
338,0.0,0.0,0.0,0.596275390625,0.0,0.0,0.0,0.0,0.0,0.0,-0.001,0.0,0.0,0.0,0.0,0.0,0.0,0.5962963781426208,0.0,0.0,0.0,0.0,0.0,0.0,-12.552,0.0,0.0,0.0
339,0.0,0.0,0.0,0.596419921875,0.0,0.0,0.0,0.0,0.0,0.0,0.006,0.0,0.0,0.0,0.0,0.0,0.0,0.5959550335019848,0.0,0.0,0.0,0.0,0.0,0.0,-12.692,0.0,0.0,0.0
340,0.0,0.0,0.0,0.596419921875,0.0,0.0,0.0,0.0,0.0,0.0,0.009,0.0,0.0,0.0,0.0,0.0,0.0,0.5955989829106925,0.0,0.0,0.0,0.0,0.0,0.0,-12.624,0.0,0.0,0.0
341,0.0,0.0,0.0,0.596419921875,0.0,0.0,0.0,0.0,0.0,0.0,-0.001,0.0,0.0,0.0,0.0,0.0,0.0,0.5952311869834397,0.0,0.0,0.0,0.0,0.0,0.0,-12.6,0.0,0.0,0.0
342,0.0,0.0,0.0,0.596419921875,0.0,0.0,0.0,0.0,0.0,0.0,-0.001,0.0,0.0,0.0,0.0,0.0,0.0,0.5948434742705515,0.0,0.0,0.0,0.0,0.0,0.0,-12.692,0.0,0.0,0.0
343,0.0,0.0,0.0,0.596275390625,0.0,0.0,0.0,0.0,0.0,0.0,-0.011,0.0,0.0,0.0,0.0,0.0,0.0,0.5944462238493382,0.0,0.0,0.0,0.0,0.0,0.0,-12.644,0.0,0.0,0.0
344,0.0,0.0,0.0,0.596275390625,0.0,0.0,0.0,0.0,0.0,0.0,-0.004,0.0,0.0,0.0,0.0,0.0,0.0,0.594031467569574,0.0,0.0,0.0,0.0,0.0,0.0,-12.76,0.0,0.0,0.0
345,0.0,0.0,0.0,0.595986328125,0.0,0.0,0.0,0.0,0.0,0.0,-0.011,0.0,0.0,0.0,0.0,0.0,0.0,0.5936022187986553,0.0,0.0,0.0,0.0,0.0,0.0,-12.896,0.0,0.0,0.0
346,0.0,0.0,0.0,0.5956982421875,0.0,0.0,0.0,0.0,0.0,0.0,-0.023,0.0,0.0,0.0,0.0,0.0,0.0,0.5931574590788073,0.0,0.0,0.0,0.0,0.0,0.0,-13.032,0.0,0.0,0.0
347,0.0,0.0,0.0,0.5954091796875,0.0,0.0,0.0,0.0,0.0,0.0,-0.033,0.0,0.0,0.0,0.0,0.0,0.0,0.5926981217227918,0.0,0.0,0.0,0.0,0.0,0.0,-13.104,0.0,0.0,0.0
348,0.0,0.0,0.0,0.59483203125,0.0,0.0,0.0,0.0,0.0,0.0,-0.046,0.0,0.0,0.0,0.0,0.0,0.0,0.5922205484326046,0.0,0.0,0.0,0.0,0.0,0.0,-13.284,0.0,0.0,0.0
349,0.0,0.0,0.0,0.59425390625,0.0,0.0,0.0,0.0,0.0,0.0,-0.055,0.0,0.0,0.0,0.0,0.0,0.0,0.591733204384294,0.0,0.0,0.0,0.0,0.0,0.0,-13.032,0.0,0.0,0.0
350,0.0,0.0,0.0,0.5938212890625,0.0,0.0,0.0,0.0,0.0,0.0,-0.051,0.0,0.0,0.0,0.0,0.0,0.0,0.5912337198286817,0.0,0.0,0.0,0.0,0.0,0.0,-12.944,0.0,0.0,0.0
351,0.0,0.0,0.0,0.59337890625,0.0,0.0,0.0,0.0,0.0,0.0,-0.05,0.0,0.0,0.0,0.0,0.0,0.0,0.5907133289653907,0.0,0.0,0.0,0.0,0.0,0.0,-12.872,0.0,0.0,0.0
352,0.0,0.0,0.0,0.5928017578125,0.0,0.0,0.0,0.0,0.0,0.0,-0.046,0.0,0.0,0.0,0.0,0.0,0.0,0.5901782737258268,0.0,0.0,0.0,0.0,0.0,0.0,-12.944,0.0,0.0,0.0
353,0.0,0.0,0.0,0.5922236328125,0.0,0.0,0.0,0.0,0.0,0.0,-0.057,0.0,0.0,0.0,0.0,0.0,0.0,0.5896327562253911,0.0,0.0,0.0,0.0,0.0,0.0,-12.988,0.0,0.0,0.0
354,0.0,0.0,0.0,0.591646484375,0.0,0.0,0.0,0.0,0.0,0.0,-0.064,0.0,0.0,0.0,0.0,0.0,0.0,0.5890664032932021,0.0,0.0,0.0,0.0,0.0,0.0,-12.872,0.0,0.0,0.0
355,0.0,0.0,0.0,0.5910693359375,0.0,0.0,0.0,0.0,0.0,0.0,-0.064,0.0,0.0,0.0,0.0,0.0,0.0,0.5884905137996904,0.0,0.0,0.0,0.0,0.0,0.0,-12.668,0.0,0.0,0.0
356,0.0,0.0,0.0,0.5904912109375,0.0,0.0,0.0,0.0,0.0,0.0,-0.059,0.0,0.0,0.0,0.0,0.0,0.0,0.5879016776656949,0.0,0.0,0.0,0.0,0.0,0.0,-12.6,0.0,0.0,0.0
357,0.0,0.0,0.0,0.5890390625,0.0,0.0,0.0,0.0,0.0,0.0,-0.073,0.0,0.0,0.0,0.0,0.0,0.0,0.5867124359208014,0.0,0.0,0.0,0.0,0.0,0.0,-12.508,0.0,0.0,0.0
358,0.0,0.0,0.0,0.5884609375,0.0,0.0,0.0,0.0,0.0,0.0,-0.065,0.0,0.0,0.0,0.0,0.0,0.0,0.5863112390353221,0.0,0.0,0.0,0.0,0.0,0.0,-12.28,0.0,0.0,0.0
359,0.0,0.0,0.0,0.5884609375,0.0,0.0,0.0,0.0,0.0,0.0,-0.065,0.0,0.0,0.0,0.0,0.0,0.0,0.586038994746562,0.0,0.0,0.0,0.0,0.0,0.0,-12.28,0.0,0.0,0.0
360,0.0,0.0,0.0,0.5880283203125,0.0,0.0,0.0,0.0,0.0,0.0,-0.053,0.0,0.0,0.0,0.0,0.0,0.0,0.5853847157740876,0.0,0.0,0.0,0.0,0.0,0.0,-12.12,0.0,0.0,0.0
361,0.0,0.0,0.0,0.587306640625,0.0,0.0,0.0,0.0,0.0,0.0,-0.053,0.0,0.0,0.0,0.0,0.0,0.0,0.5847139750615212,0.0,0.0,0.0,0.0,0.0,0.0,-12.828,0.0,0.0,0.0
362,0.0,0.0,0.0,0.5862861328125,0.0,0.0,0.0,0.0,0.0,0.0,-0.085,0.0,0.0,0.0,0.0,0.0,0.0,0.584025565165594,0.0,0.0,0.0,0.0,0.0,0.0,-12.92,0.0,0.0,0.0
363,0.0,0.0,0.0,0.585564453125,0.0,0.0,0.0,0.0,0.0,0.0,-0.096,0.0,0.0,0.0,0.0,0.0,0.0,0.5833396815020696,0.0,0.0,0.0,0.0,0.0,0.0,-12.552,0.0,0.0,0.0
364,0.0,0.0,0.0,0.5849873046875,0.0,0.0,0.0,0.0,0.0,0.0,-0.067,0.0,0.0,0.0,0.0,0.0,0.0,0.582633421361836,0.0,0.0,0.0,0.0,0.0,0.0,-12.164,0.0,0.0,0.0
365,0.0,0.0,0.0,0.5844091796875,0.0,0.0,0.0,0.0,0.0,0.0,-0.058,0.0,0.0,0.0,0.0,0.0,0.0,0.5819081184709822,0.0,0.0,0.0,0.0,0.0,0.0,-12.072,0.0,0.0,0.0
366,0.0,0.0,0.0,0.58354296875,0.0,0.0,0.0,0.0,0.0,0.0,-0.065,0.0,0.0,0.0,0.0,0.0,0.0,0.5811710363929067,0.0,0.0,0.0,0.0,0.0,0.0,-12.464,0.0,0.0,0.0
367,0.0,0.0,0.0,0.5828125,0.0,0.0,0.0,0.0,0.0,0.0,-0.087,0.0,0.0,0.0,0.0,0.0,0.0,0.5804140939880282,0.0,0.0,0.0,0.0,0.0,0.0,-12.484,0.0,0.0,0.0
368,0.0,0.0,0.0,0.5820908203125,0.0,0.0,0.0,0.0,0.0,0.0,-0.071,0.0,0.0,0.0,0.0,0.0,0.0,0.5796517044981201,0.0,0.0,0.0,0.0,0.0,0.0,-12.668,0.0,0.0,0.0
369,0.0,0.0,0.0,0.5812158203125,0.0,0.0,0.0,0.0,0.0,0.0,-0.077,0.0,0.0,0.0,0.0,0.0,0.0,0.5788636504096005,0.0,0.0,0.0,0.0,0.0,0.0,-12.392,0.0,0.0,0.0
370,0.0,0.0,0.0,0.5804931640625,0.0,0.0,0.0,0.0,0.0,0.0,-0.082,0.0,0.0,0.0,0.0,0.0,0.0,0.5780710161081071,0.0,0.0,0.0,0.0,0.0,0.0,-12.14,0.0,0.0,0.0
371,0.0,0.0,0.0,0.5796181640625,0.0,0.0,0.0,0.0,0.0,0.0,-0.085,0.0,0.0,0.0,0.0,0.0,0.0,0.5772549984445865,0.0,0.0,0.0,0.0,0.0,0.0,-12.212,0.0,0.0,0.0
372,0.0,0.0,0.0,0.578751953125,0.0,0.0,0.0,0.0,0.0,0.0,-0.082,0.0,0.0,0.0,0.0,0.0,0.0,0.5764213494892757,0.0,0.0,0.0,0.0,0.0,0.0,-12.624,0.0,0.0,0.0
373,0.0,0.0,0.0,0.5778857421875,0.0,0.0,0.0,0.0,0.0,0.0,-0.084,0.0,0.0,0.0,0.0,0.0,0.0,0.5756018210928716,0.0,0.0,0.0,0.0,0.0,0.0,-12.44,0.0,0.0,0.0
374,0.0,0.0,0.0,0.57730859375,0.0,0.0,0.0,0.0,0.0,0.0,-0.081,0.0,0.0,0.0,0.0,0.0,0.0,0.5747324125094223,0.0,0.0,0.0,0.0,0.0,0.0,-11.892,0.0,0.0,0.0
375,0.0,0.0,0.0,0.5764326171875,0.0,0.0,0.0,0.0,0.0,0.0,-0.069,0.0,0.0,0.0,0.0,0.0,0.0,0.5738719428239613,0.0,0.0,0.0,0.0,0.0,0.0,-12.372,0.0,0.0,0.0
376,0.0,0.0,0.0,0.575421875,0.0,0.0,0.0,0.0,0.0,0.0,-0.099,0.0,0.0,0.0,0.0,0.0,0.0,0.5729932971372658,0.0,0.0,0.0,0.0,0.0,0.0,-12.256,0.0,0.0,0.0
377,0.0,0.0,0.0,0.5747001953125,0.0,0.0,0.0,0.0,0.0,0.0,-0.085,0.0,0.0,0.0,0.0,0.0,0.0,0.5720919667796304,0.0,0.0,0.0,0.0,0.0,0.0,-12.624,0.0,0.0,0.0
378,0.0,0.0,0.0,0.573689453125,0.0,0.0,0.0,0.0,0.0,0.0,-0.092,0.0,0.0,0.0,0.0,0.0,0.0,0.5711830984485465,0.0,0.0,0.0,0.0,0.0,0.0,-12.212,0.0,0.0,0.0
379,0.0,0.0,0.0,0.572958984375,0.0,0.0,0.0,0.0,0.0,0.0,-0.092,0.0,0.0,0.0,0.0,0.0,0.0,0.5702457292708463,0.0,0.0,0.0,0.0,0.0,0.0,-12.072,0.0,0.0,0.0
380,0.0,0.0,0.0,0.5718037109375,0.0,0.0,0.0,0.0,0.0,0.0,-0.089,0.0,0.0,0.0,0.0,0.0,0.0,0.5693180227355785,0.0,0.0,0.0,0.0,0.0,0.0,-12.212,0.0,0.0,0.0
381,0.0,0.0,0.0,0.5709375,0.0,0.0,0.0,0.0,0.0,0.0,-0.115,0.0,0.0,0.0,0.0,0.0,0.0,0.568363941714176,0.0,0.0,0.0,0.0,0.0,0.0,-11.732,0.0,0.0,0.0
382,0.0,0.0,0.0,0.5703603515625,0.0,0.0,0.0,0.0,0.0,0.0,-0.068,0.0,0.0,0.0,0.0,0.0,0.0,0.567382768651055,0.0,0.0,0.0,0.0,0.0,0.0,-12.028,0.0,0.0,0.0
383,0.0,0.0,0.0,0.5690517578125,0.0,0.0,0.0,0.0,0.0,0.0,-0.087,0.0,0.0,0.0,0.0,0.0,0.0,0.5664057756389741,0.0,0.0,0.0,0.0,0.0,0.0,-12.44,0.0,0.0,0.0
384,0.0,0.0,0.0,0.568041015625,0.0,0.0,0.0,0.0,0.0,0.0,-0.12,0.0,0.0,0.0,0.0,0.0,0.0,0.5654040161846947,0.0,0.0,0.0,0.0,0.0,0.0,-12.668,0.0,0.0,0.0
385,0.0,0.0,0.0,0.5668857421875,0.0,0.0,0.0,0.0,0.0,0.0,-0.111,0.0,0.0,0.0,0.0,0.0,0.0,0.564408055089417,0.0,0.0,0.0,0.0,0.0,0.0,-12.256,0.0,0.0,0.0
386,0.0,0.0,0.0,0.5658662109375,0.0,0.0,0.0,0.0,0.0,0.0,-0.107,0.0,0.0,0.0,0.0,0.0,0.0,0.5633751731858753,0.0,0.0,0.0,0.0,0.0,0.0,-12.304,0.0,0.0,0.0
387,0.0,0.0,0.0,0.5645673828125,0.0,0.0,0.0,0.0,0.0,0.0,-0.115,0.0,0.0,0.0,0.0,0.0,0.0,0.5623297602759552,0.0,0.0,0.0,0.0,0.0,0.0,-12.14,0.0,0.0,0.0
388,0.0,0.0,0.0,0.563556640625,0.0,0.0,0.0,0.0,0.0,0.0,-0.116,0.0,0.0,0.0,0.0,0.0,0.0,0.5612929202523768,0.0,0.0,0.0,0.0,0.0,0.0,-11.868,0.0,0.0,0.0
389,0.0,0.0,0.0,0.5628251953125,0.0,0.0,0.0,0.0,0.0,0.0,-0.09,0.0,0.0,0.0,0.0,0.0,0.0,0.5602174613941461,0.0,0.0,0.0,0.0,0.0,0.0,-11.752,0.0,0.0,0.0
390,0.0,0.0,0.0,0.5605068359375,0.0,0.0,0.0,0.0,0.0,0.0,-0.116,0.0,0.0,0.0,0.0,0.0,0.0,0.5579823083626819,0.0,0.0,0.0,0.0,0.0,0.0,-12.552,0.0,0.0,0.0
391,0.0,0.0,0.0,0.5593427734375,0.0,0.0,0.0,0.0,0.0,0.0,-0.126,0.0,0.0,0.0,0.0,0.0,0.0,0.5567667433773255,0.0,0.0,0.0,0.0,0.0,0.0,-11.936,0.0,0.0,0.0
392,0.0,0.0,0.0,0.5593427734375,0.0,0.0,0.0,0.0,0.0,0.0,-0.126,0.0,0.0,0.0,0.0,0.0,0.0,0.5560863580979422,0.0,0.0,0.0,0.0,0.0,0.0,-11.936,0.0,0.0,0.0
393,0.0,0.0,0.0,0.55833203125,0.0,0.0,0.0,0.0,0.0,0.0,-0.062,0.0,0.0,0.0,0.0,0.0,0.0,0.5547411221976379,0.0,0.0,0.0,0.0,0.0,0.0,-10.428,0.0,0.0,0.0
394,0.0,0.0,0.0,0.55833203125,0.0,0.0,0.0,0.0,0.0,0.0,-0.012,0.0,0.0,0.0,0.0,0.0,0.0,0.5539683731981311,0.0,0.0,0.0,0.0,0.0,0.0,-10.38,0.0,0.0,0.0
395,0.0,0.0,0.0,0.55833203125,0.0,0.0,0.0,0.0,0.0,0.0,-0.012,0.0,0.0,0.0,0.0,0.0,0.0,0.5531332157532565,0.0,0.0,0.0,0.0,0.0,0.0,-10.38,0.0,0.0,0.0
396,0.0,0.0,0.0,0.5576103515625,0.0,0.0,0.0,0.0,0.0,0.0,-0.02,0.0,0.0,0.0,0.0,0.0,0.0,0.5523686699905705,0.0,0.0,0.0,0.0,0.0,0.0,-12.576,0.0,0.0,0.0
397,0.0,0.0,0.0,0.555001953125,0.0,0.0,0.0,0.0,0.0,0.0,-0.156,0.0,0.0,0.0,0.0,0.0,0.0,0.5511793318133736,0.0,0.0,0.0,0.0,0.0,0.0,-14.588,0.0,0.0,0.0
398,0.0,0.0,0.0,0.5529814453125,0.0,0.0,0.0,0.0,0.0,0.0,-0.251,0.0,0.0,0.0,0.0,0.0,0.0,0.549991423870372,0.0,0.0,0.0,0.0,0.0,0.0,-12.964,0.0,0.0,0.0
399,0.0,0.0,0.0,0.5516728515625,0.0,0.0,0.0,0.0,0.0,0.0,-0.161,0.0,0.0,0.0,0.0,0.0,0.0,0.5487558856720602,0.0,0.0,0.0,0.0,0.0,0.0,-12.188,0.0,0.0,0.0
400,0.0,0.0,0.0,0.550228515625,0.0,0.0,0.0,0.0,0.0,0.0,-0.15,0.0,0.0,0.0,0.0,0.0,0.0,0.5475392410003631,0.0,0.0,0.0,0.0,0.0,0.0,-11.02,0.0,0.0,0.0
401,0.0,0.0,0.0,0.5495068359375,0.0,0.0,0.0,0.0,0.0,0.0,-0.114,0.0,0.0,0.0,0.0,0.0,0.0,0.546330037013009,0.0,0.0,0.0,0.0,0.0,0.0,-12.484,0.0,0.0,0.0
402,0.0,0.0,0.0,0.5480546875,0.0,0.0,0.0,0.0,0.0,0.0,-0.104,0.0,0.0,0.0,0.0,0.0,0.0,0.5450822704533824,0.0,0.0,0.0,0.0,0.0,0.0,-13.836,0.0,0.0,0.0
403,0.0,0.0,0.0,0.5468994140625,0.0,0.0,0.0,0.0,0.0,0.0,-0.139,0.0,0.0,0.0,0.0,0.0,0.0,0.5438249098864263,0.0,0.0,0.0,0.0,0.0,0.0,-13.72,0.0,0.0,0.0
404,0.0,0.0,0.0,0.5457353515625,0.0,0.0,0.0,0.0,0.0,0.0,-0.11,0.0,0.0,0.0,0.0,0.0,0.0,0.5425155675334883,0.0,0.0,0.0,0.0,0.0,0.0,-13.24,0.0,0.0,0.0
405,0.0,0.0,0.0,0.544435546875,0.0,0.0,0.0,0.0,0.0,0.0,-0.125,0.0,0.0,0.0,0.0,0.0,0.0,0.5411954289339947,0.0,0.0,0.0,0.0,0.0,0.0,-11.98,0.0,0.0,0.0
406,0.0,0.0,0.0,0.54313671875,0.0,0.0,0.0,0.0,0.0,0.0,-0.126,0.0,0.0,0.0,0.0,0.0,0.0,0.5399601415344489,0.0,0.0,0.0,0.0,0.0,0.0,-12.392,0.0,0.0,0.0
407,0.0,0.0,0.0,0.542107421875,0.0,0.0,0.0,0.0,0.0,0.0,-0.123,0.0,0.0,0.0,0.0,0.0,0.0,0.5386465149858336,0.0,0.0,0.0,0.0,0.0,0.0,-13.124,0.0,0.0,0.0
408,0.0,0.0,0.0,0.54109765625,0.0,0.0,0.0,0.0,0.0,0.0,-0.096,0.0,0.0,0.0,0.0,0.0,0.0,0.5373234570622336,0.0,0.0,0.0,0.0,0.0,0.0,-13.996,0.0,0.0,0.0
409,0.0,0.0,0.0,0.5396533203125,0.0,0.0,0.0,0.0,0.0,0.0,-0.128,0.0,0.0,0.0,0.0,0.0,0.0,0.5359750477091525,0.0,0.0,0.0,0.0,0.0,0.0,-13.264,0.0,0.0,0.0
410,0.0,0.0,0.0,0.5383447265625,0.0,0.0,0.0,0.0,0.0,0.0,-0.142,0.0,0.0,0.0,0.0,0.0,0.0,0.5346181372471734,0.0,0.0,0.0,0.0,0.0,0.0,-12.484,0.0,0.0,0.0
411,0.0,0.0,0.0,0.5367568359375,0.0,0.0,0.0,0.0,0.0,0.0,-0.136,0.0,0.0,0.0,0.0,0.0,0.0,0.5332492361555934,0.0,0.0,0.0,0.0,0.0,0.0,-12.392,0.0,0.0,0.0
412,0.0,0.0,0.0,0.5357373046875,0.0,0.0,0.0,0.0,0.0,0.0,-0.141,0.0,0.0,0.0,0.0,0.0,0.0,0.5318684859503123,0.0,0.0,0.0,0.0,0.0,0.0,-12.784,0.0,0.0,0.0
413,0.0,0.0,0.0,0.53487109375,0.0,0.0,0.0,0.0,0.0,0.0,-0.092,0.0,0.0,0.0,0.0,0.0,0.0,0.5304767325759201,0.0,0.0,0.0,0.0,0.0,0.0,-13.948,0.0,0.0,0.0
414,0.0,0.0,0.0,0.5335712890625,0.0,0.0,0.0,0.0,0.0,0.0,-0.117,0.0,0.0,0.0,0.0,0.0,0.0,0.5290642580424872,0.0,0.0,0.0,0.0,0.0,0.0,-13.904,0.0,0.0,0.0
415,0.0,0.0,0.0,0.532119140625,0.0,0.0,0.0,0.0,0.0,0.0,-0.128,0.0,0.0,0.0,0.0,0.0,0.0,0.527631226548609,0.0,0.0,0.0,0.0,0.0,0.0,-13.972,0.0,0.0,0.0
416,0.0,0.0,0.0,0.53038671875,0.0,0.0,0.0,0.0,0.0,0.0,-0.159,0.0,0.0,0.0,0.0,0.0,0.0,0.5262084036538694,0.0,0.0,0.0,0.0,0.0,0.0,-12.964,0.0,0.0,0.0
417,0.0,0.0,0.0,0.52893359375,0.0,0.0,0.0,0.0,0.0,0.0,-0.166,0.0,0.0,0.0,0.0,0.0,0.0,0.5247636294391479,0.0,0.0,0.0,0.0,0.0,0.0,-12.624,0.0,0.0,0.0
418,0.0,0.0,0.0,0.527490234375,0.0,0.0,0.0,0.0,0.0,0.0,-0.15,0.0,0.0,0.0,0.0,0.0,0.0,0.5233035893081299,0.0,0.0,0.0,0.0,0.0,0.0,-12.44,0.0,0.0,0.0
419,0.0,0.0,0.0,0.5261904296875,0.0,0.0,0.0,0.0,0.0,0.0,-0.143,0.0,0.0,0.0,0.0,0.0,0.0,0.5218284372281847,0.0,0.0,0.0,0.0,0.0,0.0,-13.104,0.0,0.0,0.0
420,0.0,0.0,0.0,0.52444921875,0.0,0.0,0.0,0.0,0.0,0.0,-0.147,0.0,0.0,0.0,0.0,0.0,0.0,0.5203466316051808,0.0,0.0,0.0,0.0,0.0,0.0,-13.56,0.0,0.0,0.0
421,0.0,0.0,0.0,0.52299609375,0.0,0.0,0.0,0.0,0.0,0.0,-0.163,0.0,0.0,0.0,0.0,0.0,0.0,0.5188372908401682,0.0,0.0,0.0,0.0,0.0,0.0,-13.216,0.0,0.0,0.0
422,0.0,0.0,0.0,0.5216875,0.0,0.0,0.0,0.0,0.0,0.0,-0.138,0.0,0.0,0.0,0.0,0.0,0.0,0.5173286610818584,0.0,0.0,0.0,0.0,0.0,0.0,-12.712,0.0,0.0,0.0
423,0.0,0.0,0.0,0.519810546875,0.0,0.0,0.0,0.0,0.0,0.0,-0.15,0.0,0.0,0.0,0.0,0.0,0.0,0.5158092949253941,0.0,0.0,0.0,0.0,0.0,0.0,-13.056,0.0,0.0,0.0
424,0.0,0.0,0.0,0.5179248046875,0.0,0.0,0.0,0.0,0.0,0.0,-0.198,0.0,0.0,0.0,0.0,0.0,0.0,0.5142526074187375,0.0,0.0,0.0,0.0,0.0,0.0,-12.736,0.0,0.0,0.0
425,0.0,0.0,0.0,0.5166259765625,0.0,0.0,0.0,0.0,0.0,0.0,-0.171,0.0,0.0,0.0,0.0,0.0,0.0,0.512705208231841,0.0,0.0,0.0,0.0,0.0,0.0,-12.784,0.0,0.0,0.0
426,0.0,0.0,0.0,0.5151728515625,0.0,0.0,0.0,0.0,0.0,0.0,-0.143,0.0,0.0,0.0,0.0,0.0,0.0,0.5111355889978149,0.0,0.0,0.0,0.0,0.0,0.0,-12.44,0.0,0.0,0.0
427,0.0,0.0,0.0,0.5135849609375,0.0,0.0,0.0,0.0,0.0,0.0,-0.144,0.0,0.0,0.0,0.0,0.0,0.0,0.509564893575996,0.0,0.0,0.0,0.0,0.0,0.0,-12.736,0.0,0.0,0.0
428,0.0,0.0,0.0,0.51169921875,0.0,0.0,0.0,0.0,0.0,0.0,-0.176,0.0,0.0,0.0,0.0,0.0,0.0,0.5079820255598965,0.0,0.0,0.0,0.0,0.0,0.0,-12.944,0.0,0.0,0.0
429,0.0,0.0,0.0,0.5101103515625,0.0,0.0,0.0,0.0,0.0,0.0,-0.19,0.0,0.0,0.0,0.0,0.0,0.0,0.5063796305062381,0.0,0.0,0.0,0.0,0.0,0.0,-12.484,0.0,0.0,0.0
430,0.0,0.0,0.0,0.508802734375,0.0,0.0,0.0,0.0,0.0,0.0,-0.14,0.0,0.0,0.0,0.0,0.0,0.0,0.5047555349028582,0.0,0.0,0.0,0.0,0.0,0.0,-12.348,0.0,0.0,0.0
431,0.0,0.0,0.0,0.50692578125,0.0,0.0,0.0,0.0,0.0,0.0,-0.147,0.0,0.0,0.0,0.0,0.0,0.0,0.5031299488399099,0.0,0.0,0.0,0.0,0.0,0.0,-12.964,0.0,0.0,0.0
432,0.0,0.0,0.0,0.5048955078125,0.0,0.0,0.0,0.0,0.0,0.0,-0.207,0.0,0.0,0.0,0.0,0.0,0.0,0.5014898613309468,0.0,0.0,0.0,0.0,0.0,0.0,-12.464,0.0,0.0,0.0
433,0.0,0.0,0.0,0.5035869140625,0.0,0.0,0.0,0.0,0.0,0.0,-0.172,0.0,0.0,0.0,0.0,0.0,0.0,0.4998385524763943,0.0,0.0,0.0,0.0,0.0,0.0,-12.28,0.0,0.0,0.0
434,0.0,0.0,0.0,0.501701171875,0.0,0.0,0.0,0.0,0.0,0.0,-0.15,0.0,0.0,0.0,0.0,0.0,0.0,0.49816943573363065,0.0,0.0,0.0,0.0,0.0,0.0,-12.712,0.0,0.0,0.0
435,0.0,0.0,0.0,0.4996796875,0.0,0.0,0.0,0.0,0.0,0.0,-0.198,0.0,0.0,0.0,0.0,0.0,0.0,0.4964987786418713,0.0,0.0,0.0,0.0,0.0,0.0,-12.532,0.0,0.0,0.0
436,0.0,0.0,0.0,0.4980830078125,0.0,0.0,0.0,0.0,0.0,0.0,-0.186,0.0,0.0,0.0,0.0,0.0,0.0,0.49480052882527176,0.0,0.0,0.0,0.0,0.0,0.0,-12.416,0.0,0.0,0.0
437,0.0,0.0,0.0,0.496349609375,0.0,0.0,0.0,0.0,0.0,0.0,-0.168,0.0,0.0,0.0,0.0,0.0,0.0,0.49309851805372634,0.0,0.0,0.0,0.0,0.0,0.0,-12.348,0.0,0.0,0.0
438,0.0,0.0,0.0,0.4948974609375,0.0,0.0,0.0,0.0,0.0,0.0,-0.165,0.0,0.0,0.0,0.0,0.0,0.0,0.49138731385286094,0.0,0.0,0.0,0.0,0.0,0.0,-12.324,0.0,0.0,0.0
439,0.0,0.0,0.0,0.4931650390625,0.0,0.0,0.0,0.0,0.0,0.0,-0.155,0.0,0.0,0.0,0.0,0.0,0.0,0.48964321586988924,0.0,0.0,0.0,0.0,0.0,0.0,-12.692,0.0,0.0,0.0
440,0.0,0.0,0.0,0.490990234375,0.0,0.0,0.0,0.0,0.0,0.0,-0.198,0.0,0.0,0.0,0.0,0.0,0.0,0.48789871593334694,0.0,0.0,0.0,0.0,0.0,0.0,-12.532,0.0,0.0,0.0
441,0.0,0.0,0.0,0.48940234375,0.0,0.0,0.0,0.0,0.0,0.0,-0.193,0.0,0.0,0.0,0.0,0.0,0.0,0.4861525190596253,0.0,0.0,0.0,0.0,0.0,0.0,-12.304,0.0,0.0,0.0
442,0.0,0.0,0.0,0.48794921875,0.0,0.0,0.0,0.0,0.0,0.0,-0.147,0.0,0.0,0.0,0.0,0.0,0.0,0.48438960824664595,0.0,0.0,0.0,0.0,0.0,0.0,-12.44,0.0,0.0,0.0
443,0.0,0.0,0.0,0.486361328125,0.0,0.0,0.0,0.0,0.0,0.0,-0.161,0.0,0.0,0.0,0.0,0.0,0.0,0.48262514573273485,0.0,0.0,0.0,0.0,0.0,0.0,-12.624,0.0,0.0,0.0
444,0.0,0.0,0.0,0.4847548828125,0.0,0.0,0.0,0.0,0.0,0.0,-0.161,0.0,0.0,0.0,0.0,0.0,0.0,0.48084249001597046,0.0,0.0,0.0,0.0,0.0,0.0,-13.604,0.0,0.0,0.0
445,0.0,0.0,0.0,0.4830224609375,0.0,0.0,0.0,0.0,0.0,0.0,-0.171,0.0,0.0,0.0,0.0,0.0,0.0,0.47901864641025227,0.0,0.0,0.0,0.0,0.0,0.0,-13.216,0.0,0.0,0.0
446,0.0,0.0,0.0,0.48142578125,0.0,0.0,0.0,0.0,0.0,0.0,-0.161,0.0,0.0,0.0,0.0,0.0,0.0,0.4772279512449307,0.0,0.0,0.0,0.0,0.0,0.0,-13.72,0.0,0.0,0.0
447,0.0,0.0,0.0,0.4793955078125,0.0,0.0,0.0,0.0,0.0,0.0,-0.19,0.0,0.0,0.0,0.0,0.0,0.0,0.4753961560810242,0.0,0.0,0.0,0.0,0.0,0.0,-13.08,0.0,0.0,0.0
448,0.0,0.0,0.0,0.477951171875,0.0,0.0,0.0,0.0,0.0,0.0,-0.175,0.0,0.0,0.0,0.0,0.0,0.0,0.47355514542649557,0.0,0.0,0.0,0.0,0.0,0.0,-13.056,0.0,0.0,0.0
449,0.0,0.0,0.0,0.47636328125,0.0,0.0,0.0,0.0,0.0,0.0,-0.152,0.0,0.0,0.0,0.0,0.0,0.0,0.4717144784419934,0.0,0.0,0.0,0.0,0.0,0.0,-13.264,0.0,0.0,0.0
450,0.0,0.0,0.0,0.4746220703125,0.0,0.0,0.0,0.0,0.0,0.0,-0.168,0.0,0.0,0.0,0.0,0.0,0.0,0.4698645148955879,0.0,0.0,0.0,0.0,0.0,0.0,-13.88,0.0,0.0,0.0
451,0.0,0.0,0.0,0.4728798828125,0.0,0.0,0.0,0.0,0.0,0.0,-0.175,0.0,0.0,0.0,0.0,0.0,0.0,0.46798341333010735,0.0,0.0,0.0,0.0,0.0,0.0,-13.948,0.0,0.0,0.0
452,0.0,0.0,0.0,0.4714365234375,0.0,0.0,0.0,0.0,0.0,0.0,-0.17,0.0,0.0,0.0,0.0,0.0,0.0,0.4660959875494343,0.0,0.0,0.0,0.0,0.0,0.0,-13.264,0.0,0.0,0.0
453,0.0,0.0,0.0,0.4697041015625,0.0,0.0,0.0,0.0,0.0,0.0,-0.147,0.0,0.0,0.0,0.0,0.0,0.0,0.4642107254089367,0.0,0.0,0.0,0.0,0.0,0.0,-13.696,0.0,0.0,0.0
454,0.0,0.0,0.0,0.467962890625,0.0,0.0,0.0,0.0,0.0,0.0,-0.184,0.0,0.0,0.0,0.0,0.0,0.0,0.4622982923898329,0.0,0.0,0.0,0.0,0.0,0.0,-13.264,0.0,0.0,0.0
455,0.0,0.0,0.0,0.466365234375,0.0,0.0,0.0,0.0,0.0,0.0,-0.161,0.0,0.0,0.0,0.0,0.0,0.0,0.46038404609408207,0.0,0.0,0.0,0.0,0.0,0.0,-13.972,0.0,0.0,0.0
456,0.0,0.0,0.0,0.4641904296875,0.0,0.0,0.0,0.0,0.0,0.0,-0.195,0.0,0.0,0.0,0.0,0.0,0.0,0.4584499846289765,0.0,0.0,0.0,0.0,0.0,0.0,-13.652,0.0,0.0,0.0
457,0.0,0.0,0.0,0.46244921875,0.0,0.0,0.0,0.0,0.0,0.0,-0.198,0.0,0.0,0.0,0.0,0.0,0.0,0.456503248492137,0.0,0.0,0.0,0.0,0.0,0.0,-13.444,0.0,0.0,0.0
458,0.0,0.0,0.0,0.460427734375,0.0,0.0,0.0,0.0,0.0,0.0,-0.184,0.0,0.0,0.0,0.0,0.0,0.0,0.4545567985479146,0.0,0.0,0.0,0.0,0.0,0.0,-13.424,0.0,0.0,0.0
459,0.0,0.0,0.0,0.4582529296875,0.0,0.0,0.0,0.0,0.0,0.0,-0.219,0.0,0.0,0.0,0.0,0.0,0.0,0.4525490432034748,0.0,0.0,0.0,0.0,0.0,0.0,-13.468,0.0,0.0,0.0
460,0.0,0.0,0.0,0.4563671875,0.0,0.0,0.0,0.0,0.0,0.0,-0.204,0.0,0.0,0.0,0.0,0.0,0.0,0.450614435045491,0.0,0.0,0.0,0.0,0.0,0.0,-13.652,0.0,0.0,0.0
461,0.0,0.0,0.0,0.4542021484375,0.0,0.0,0.0,0.0,0.0,0.0,-0.196,0.0,0.0,0.0,0.0,0.0,0.0,0.4486377717498104,0.0,0.0,0.0,0.0,0.0,0.0,-13.972,0.0,0.0,0.0
462,0.0,0.0,0.0,0.45202734375,0.0,0.0,0.0,0.0,0.0,0.0,-0.223,0.0,0.0,0.0,0.0,0.0,0.0,0.4466353402282266,0.0,0.0,0.0,0.0,0.0,0.0,-13.676,0.0,0.0,0.0
463,0.0,0.0,0.0,0.4501416015625,0.0,0.0,0.0,0.0,0.0,0.0,-0.209,0.0,0.0,0.0,0.0,0.0,0.0,0.4446055996519647,0.0,0.0,0.0,0.0,0.0,0.0,-13.216,0.0,0.0,0.0
464,0.0,0.0,0.0,0.4478310546875,0.0,0.0,0.0,0.0,0.0,0.0,-0.202,0.0,0.0,0.0,0.0,0.0,0.0,0.4425203180472952,0.0,0.0,0.0,0.0,0.0,0.0,-13.284,0.0,0.0,0.0
465,0.0,0.0,0.0,0.44580078125,0.0,0.0,0.0,0.0,0.0,0.0,-0.228,0.0,0.0,0.0,0.0,0.0,0.0,0.4405737972764468,0.0,0.0,0.0,0.0,0.0,0.0,-13.012,0.0,0.0,0.0
466,0.0,0.0,0.0,0.443779296875,0.0,0.0,0.0,0.0,0.0,0.0,-0.205,0.0,0.0,0.0,0.0,0.0,0.0,0.4385362827793455,0.0,0.0,0.0,0.0,0.0,0.0,-13.424,0.0,0.0,0.0
467,0.0,0.0,0.0,0.4418935546875,0.0,0.0,0.0,0.0,0.0,0.0,-0.205,0.0,0.0,0.0,0.0,0.0,0.0,0.4364839759552782,0.0,0.0,0.0,0.0,0.0,0.0,-12.028,0.0,0.0,0.0
468,0.0,0.0,0.0,0.44015234375,0.0,0.0,0.0,0.0,0.0,0.0,-0.173,0.0,0.0,0.0,0.0,0.0,0.0,0.43441287004104384,0.0,0.0,0.0,0.0,0.0,0.0,-13.216,0.0,0.0,0.0
469,0.0,0.0,0.0,0.437111328125,0.0,0.0,0.0,0.0,0.0,0.0,-0.235,0.0,0.0,0.0,0.0,0.0,0.0,0.4323356383675318,0.0,0.0,0.0,0.0,0.0,0.0,-13.308,0.0,0.0,0.0
470,0.0,0.0,0.0,0.4349453125,0.0,0.0,0.0,0.0,0.0,0.0,-0.278,0.0,0.0,0.0,0.0,0.0,0.0,0.4302617304888858,0.0,0.0,0.0,0.0,0.0,0.0,-12.552,0.0,0.0,0.0
471,0.0,0.0,0.0,0.432771484375,0.0,0.0,0.0,0.0,0.0,0.0,-0.212,0.0,0.0,0.0,0.0,0.0,0.0,0.4281627551896193,0.0,0.0,0.0,0.0,0.0,0.0,-12.552,0.0,0.0,0.0
472,0.0,0.0,0.0,0.4304521484375,0.0,0.0,0.0,0.0,0.0,0.0,-0.231,0.0,0.0,0.0,0.0,0.0,0.0,0.42605405552429243,0.0,0.0,0.0,0.0,0.0,0.0,-12.14,0.0,0.0,0.0
473,0.0,0.0,0.0,0.427853515625,0.0,0.0,0.0,0.0,0.0,0.0,-0.236,0.0,0.0,0.0,0.0,0.0,0.0,0.42393939448579193,0.0,0.0,0.0,0.0,0.0,0.0,-13.124,0.0,0.0,0.0
474,0.0,0.0,0.0,0.425669921875,0.0,0.0,0.0,0.0,0.0,0.0,-0.252,0.0,0.0,0.0,0.0,0.0,0.0,0.4218128422672969,0.0,0.0,0.0,0.0,0.0,0.0,-12.852,0.0,0.0,0.0
475,0.0,0.0,0.0,0.424072265625,0.0,0.0,0.0,0.0,0.0,0.0,-0.185,0.0,0.0,0.0,0.0,0.0,0.0,0.41966037476902746,0.0,0.0,0.0,0.0,0.0,0.0,-13.56,0.0,0.0,0.0
476,0.0,0.0,0.0,0.4214736328125,0.0,0.0,0.0,0.0,0.0,0.0,-0.199,0.0,0.0,0.0,0.0,0.0,0.0,0.41751752070699916,0.0,0.0,0.0,0.0,0.0,0.0,-13.904,0.0,0.0,0.0
477,0.0,0.0,0.0,0.419154296875,0.0,0.0,0.0,0.0,0.0,0.0,-0.263,0.0,0.0,0.0,0.0,0.0,0.0,0.4153569103111147,0.0,0.0,0.0,0.0,0.0,0.0,-13.468,0.0,0.0,0.0
478,0.0,0.0,0.0,0.4172685546875,0.0,0.0,0.0,0.0,0.0,0.0,-0.214,0.0,0.0,0.0,0.0,0.0,0.0,0.41318201785669567,0.0,0.0,0.0,0.0,0.0,0.0,-13.444,0.0,0.0,0.0
479,0.0,0.0,0.0,0.4153916015625,0.0,0.0,0.0,0.0,0.0,0.0,-0.19,0.0,0.0,0.0,0.0,0.0,0.0,0.4110142069925163,0.0,0.0,0.0,0.0,0.0,0.0,-13.536,0.0,0.0,0.0
480,0.0,0.0,0.0,0.413361328125,0.0,0.0,0.0,0.0,0.0,0.0,-0.191,0.0,0.0,0.0,0.0,0.0,0.0,0.40882393693517144,0.0,0.0,0.0,0.0,0.0,0.0,-13.836,0.0,0.0,0.0
481,0.0,0.0,0.0,0.4113310546875,0.0,0.0,0.0,0.0,0.0,0.0,-0.21,0.0,0.0,0.0,0.0,0.0,0.0,0.4065813196666019,0.0,0.0,0.0,0.0,0.0,0.0,-13.468,0.0,0.0,0.0
482,0.0,0.0,0.0,0.4095986328125,0.0,0.0,0.0,0.0,0.0,0.0,-0.188,0.0,0.0,0.0,0.0,0.0,0.0,0.40440133611498114,0.0,0.0,0.0,0.0,0.0,0.0,-13.904,0.0,0.0,0.0
483,0.0,0.0,0.0,0.4075595703125,0.0,0.0,0.0,0.0,0.0,0.0,-0.192,0.0,0.0,0.0,0.0,0.0,0.0,0.40218965854912675,0.0,0.0,0.0,0.0,0.0,0.0,-13.356,0.0,0.0,0.0
484,0.0,0.0,0.0,0.4058271484375,0.0,0.0,0.0,0.0,0.0,0.0,-0.188,0.0,0.0,0.0,0.0,0.0,0.0,0.39995393692647657,0.0,0.0,0.0,0.0,0.0,0.0,-13.444,0.0,0.0,0.0
485,0.0,0.0,0.0,0.40365234375,0.0,0.0,0.0,0.0,0.0,0.0,-0.196,0.0,0.0,0.0,0.0,0.0,0.0,0.39770726596777145,0.0,0.0,0.0,0.0,0.0,0.0,-13.764,0.0,0.0,0.0
486,0.0,0.0,0.0,0.4016220703125,0.0,0.0,0.0,0.0,0.0,0.0,-0.209,0.0,0.0,0.0,0.0,0.0,0.0,0.39544162105457353,0.0,0.0,0.0,0.0,0.0,0.0,-14.176,0.0,0.0,0.0
487,0.0,0.0,0.0,0.39916796875,0.0,0.0,0.0,0.0,0.0,0.0,-0.224,0.0,0.0,0.0,0.0,0.0,0.0,0.3931684487584957,0.0,0.0,0.0,0.0,0.0,0.0,-14.292,0.0,0.0,0.0
488,0.0,0.0,0.0,0.3967041015625,0.0,0.0,0.0,0.0,0.0,0.0,-0.256,0.0,0.0,0.0,0.0,0.0,0.0,0.3909365117110937,0.0,0.0,0.0,0.0,0.0,0.0,-13.536,0.0,0.0,0.0
489,0.0,0.0,0.0,0.394673828125,0.0,0.0,0.0,0.0,0.0,0.0,-0.224,0.0,0.0,0.0,0.0,0.0,0.0,0.38866249546908765,0.0,0.0,0.0,0.0,0.0,0.0,-13.308,0.0,0.0,0.0
490,0.0,0.0,0.0,0.3925087890625,0.0,0.0,0.0,0.0,0.0,0.0,-0.204,0.0,0.0,0.0,0.0,0.0,0.0,0.386368914553033,0.0,0.0,0.0,0.0,0.0,0.0,-13.856,0.0,0.0,0.0
491,0.0,0.0,0.0,0.390044921875,0.0,0.0,0.0,0.0,0.0,0.0,-0.231,0.0,0.0,0.0,0.0,0.0,0.0,0.3840725711597464,0.0,0.0,0.0,0.0,0.0,0.0,-14.476,0.0,0.0,0.0
492,0.0,0.0,0.0,0.387716796875,0.0,0.0,0.0,0.0,0.0,0.0,-0.246,0.0,0.0,0.0,0.0,0.0,0.0,0.3817546274641241,0.0,0.0,0.0,0.0,0.0,0.0,-14.408,0.0,0.0,0.0
493,0.0,0.0,0.0,0.3853984375,0.0,0.0,0.0,0.0,0.0,0.0,-0.233,0.0,0.0,0.0,0.0,0.0,0.0,0.3794421418684089,0.0,0.0,0.0,0.0,0.0,0.0,-14.108,0.0,0.0,0.0
494,0.0,0.0,0.0,0.3827900390625,0.0,0.0,0.0,0.0,0.0,0.0,-0.25,0.0,0.0,0.0,0.0,0.0,0.0,0.37711583001806315,0.0,0.0,0.0,0.0,0.0,0.0,-13.356,0.0,0.0,0.0
495,0.0,0.0,0.0,0.3803359375,0.0,0.0,0.0,0.0,0.0,0.0,-0.262,0.0,0.0,0.0,0.0,0.0,0.0,0.3747712280720912,0.0,0.0,0.0,0.0,0.0,0.0,-13.148,0.0,0.0,0.0
496,0.0,0.0,0.0,0.3780166015625,0.0,0.0,0.0,0.0,0.0,0.0,-0.238,0.0,0.0,0.0,0.0,0.0,0.0,0.37242096187090745,0.0,0.0,0.0,0.0,0.0,0.0,-13.424,0.0,0.0,0.0
497,0.0,0.0,0.0,0.3756982421875,0.0,0.0,0.0,0.0,0.0,0.0,-0.23,0.0,0.0,0.0,0.0,0.0,0.0,0.370073354953553,0.0,0.0,0.0,0.0,0.0,0.0,-13.72,0.0,0.0,0.0
498,0.0,0.0,0.0,0.373234375,0.0,0.0,0.0,0.0,0.0,0.0,-0.246,0.0,0.0,0.0,0.0,0.0,0.0,0.367703568535158,0.0,0.0,0.0,0.0,0.0,0.0,-13.216,0.0,0.0,0.0
499,0.0,0.0,0.0,0.3706357421875,0.0,0.0,0.0,0.0,0.0,0.0,-0.259,0.0,0.0,0.0,0.0,0.0,0.0,0.3653238225667564,0.0,0.0,0.0,0.0,0.0,0.0,-12.988,0.0,0.0,0.0
500,0.0,0.0,0.0,0.367875,0.0,0.0,0.0,0.0,0.0,0.0,-0.267,0.0,0.0,0.0,0.0,0.0,0.0,0.36294020558711093,0.0,0.0,0.0,0.0,0.0,0.0,-12.964,0.0,0.0,0.0
501,0.0,0.0,0.0,0.3651220703125,0.0,0.0,0.0,0.0,0.0,0.0,-0.272,0.0,0.0,0.0,0.0,0.0,0.0,0.3605434044046148,0.0,0.0,0.0,0.0,0.0,0.0,-13.356,0.0,0.0,0.0
502,0.0,0.0,0.0,0.3623701171875,0.0,0.0,0.0,0.0,0.0,0.0,-0.278,0.0,0.0,0.0,0.0,0.0,0.0,0.3581443358452809,0.0,0.0,0.0,0.0,0.0,0.0,-13.492,0.0,0.0,0.0
503,0.0,0.0,0.0,0.3599072265625,0.0,0.0,0.0,0.0,0.0,0.0,-0.264,0.0,0.0,0.0,0.0,0.0,0.0,0.3557336317660548,0.0,0.0,0.0,0.0,0.0,0.0,-13.424,0.0,0.0,0.0
504,0.0,0.0,0.0,0.3575966796875,0.0,0.0,0.0,0.0,0.0,0.0,-0.238,0.0,0.0,0.0,0.0,0.0,0.0,0.3533147909945568,0.0,0.0,0.0,0.0,0.0,0.0,-13.536,0.0,0.0,0.0
505,0.0,0.0,0.0,0.3552783203125,0.0,0.0,0.0,0.0,0.0,0.0,-0.24,0.0,0.0,0.0,0.0,0.0,0.0,0.35088155803681037,0.0,0.0,0.0,0.0,0.0,0.0,-13.56,0.0,0.0,0.0
506,0.0,0.0,0.0,0.353103515625,0.0,0.0,0.0,0.0,0.0,0.0,-0.23,0.0,0.0,0.0,0.0,0.0,0.0,0.3484524499725736,0.0,0.0,0.0,0.0,0.0,0.0,-13.604,0.0,0.0,0.0
507,0.0,0.0,0.0,0.350919921875,0.0,0.0,0.0,0.0,0.0,0.0,-0.215,0.0,0.0,0.0,0.0,0.0,0.0,0.3460002015350038,0.0,0.0,0.0,0.0,0.0,0.0,-14.016,0.0,0.0,0.0
508,0.0,0.0,0.0,0.34875390625,0.0,0.0,0.0,0.0,0.0,0.0,-0.222,0.0,0.0,0.0,0.0,0.0,0.0,0.3435410222962262,0.0,0.0,0.0,0.0,0.0,0.0,-13.696,0.0,0.0,0.0
509,0.0,0.0,0.0,0.3464345703125,0.0,0.0,0.0,0.0,0.0,0.0,-0.217,0.0,0.0,0.0,0.0,0.0,0.0,0.3410811123052656,0.0,0.0,0.0,0.0,0.0,0.0,-14.016,0.0,0.0,0.0
510,0.0,0.0,0.0,0.3439716796875,0.0,0.0,0.0,0.0,0.0,0.0,-0.24,0.0,0.0,0.0,0.0,0.0,0.0,0.33861595010149087,0.0,0.0,0.0,0.0,0.0,0.0,-13.856,0.0,0.0,0.0
511,0.0,0.0,0.0,0.3418056640625,0.0,0.0,0.0,0.0,0.0,0.0,-0.239,0.0,0.0,0.0,0.0,0.0,0.0,0.3361336623567357,0.0,0.0,0.0,0.0,0.0,0.0,-13.424,0.0,0.0,0.0
512,0.0,0.0,0.0,0.339630859375,0.0,0.0,0.0,0.0,0.0,0.0,-0.224,0.0,0.0,0.0,0.0,0.0,0.0,0.33363743265809803,0.0,0.0,0.0,0.0,0.0,0.0,-13.056,0.0,0.0,0.0
513,0.0,0.0,0.0,0.3370234375,0.0,0.0,0.0,0.0,0.0,0.0,-0.23,0.0,0.0,0.0,0.0,0.0,0.0,0.3311498737600884,0.0,0.0,0.0,0.0,0.0,0.0,-13.996,0.0,0.0,0.0
514,0.0,0.0,0.0,0.334271484375,0.0,0.0,0.0,0.0,0.0,0.0,-0.273,0.0,0.0,0.0,0.0,0.0,0.0,0.3286405183115121,0.0,0.0,0.0,0.0,0.0,0.0,-13.88,0.0,0.0,0.0
515,0.0,0.0,0.0,0.3319521484375,0.0,0.0,0.0,0.0,0.0,0.0,-0.258,0.0,0.0,0.0,0.0,0.0,0.0,0.32613024828694775,0.0,0.0,0.0,0.0,0.0,0.0,-14.156,0.0,0.0,0.0
516,0.0,0.0,0.0,0.3293447265625,0.0,0.0,0.0,0.0,0.0,0.0,-0.249,0.0,0.0,0.0,0.0,0.0,0.0,0.3236060673894285,0.0,0.0,0.0,0.0,0.0,0.0,-13.836,0.0,0.0,0.0
517,0.0,0.0,0.0,0.326880859375,0.0,0.0,0.0,0.0,0.0,0.0,-0.258,0.0,0.0,0.0,0.0,0.0,0.0,0.3210752337868707,0.0,0.0,0.0,0.0,0.0,0.0,-13.788,0.0,0.0,0.0
518,0.0,0.0,0.0,0.32441796875,0.0,0.0,0.0,0.0,0.0,0.0,-0.248,0.0,0.0,0.0,0.0,0.0,0.0,0.31853030851693714,0.0,0.0,0.0,0.0,0.0,0.0,-13.696,0.0,0.0,0.0
519,0.0,0.0,0.0,0.3220986328125,0.0,0.0,0.0,0.0,0.0,0.0,-0.235,0.0,0.0,0.0,0.0,0.0,0.0,0.3159837629263175,0.0,0.0,0.0,0.0,0.0,0.0,-14.36,0.0,0.0,0.0
520,0.0,0.0,0.0,0.3193466796875,0.0,0.0,0.0,0.0,0.0,0.0,-0.257,0.0,0.0,0.0,0.0,0.0,0.0,0.31342827942420787,0.0,0.0,0.0,0.0,0.0,0.0,-14.248,0.0,0.0,0.0
521,0.0,0.0,0.0,0.316892578125,0.0,0.0,0.0,0.0,0.0,0.0,-0.268,0.0,0.0,0.0,0.0,0.0,0.0,0.31086801123757674,0.0,0.0,0.0,0.0,0.0,0.0,-13.764,0.0,0.0,0.0
522,0.0,0.0,0.0,0.3142841796875,0.0,0.0,0.0,0.0,0.0,0.0,-0.249,0.0,0.0,0.0,0.0,0.0,0.0,0.3083036024208053,0.0,0.0,0.0,0.0,0.0,0.0,-13.72,0.0,0.0,0.0
523,0.0,0.0,0.0,0.3115234375,0.0,0.0,0.0,0.0,0.0,0.0,-0.266,0.0,0.0,0.0,0.0,0.0,0.0,0.30572561016343774,0.0,0.0,0.0,0.0,0.0,0.0,-13.4,0.0,0.0,0.0
524,0.0,0.0,0.0,0.308916015625,0.0,0.0,0.0,0.0,0.0,0.0,-0.268,0.0,0.0,0.0,0.0,0.0,0.0,0.3031443543687405,0.0,0.0,0.0,0.0,0.0,0.0,-13.468,0.0,0.0,0.0
525,0.0,0.0,0.0,0.3061630859375,0.0,0.0,0.0,0.0,0.0,0.0,-0.271,0.0,0.0,0.0,0.0,0.0,0.0,0.3005523856006239,0.0,0.0,0.0,0.0,0.0,0.0,-13.56,0.0,0.0,0.0
526,0.0,0.0,0.0,0.3032666015625,0.0,0.0,0.0,0.0,0.0,0.0,-0.285,0.0,0.0,0.0,0.0,0.0,0.0,0.2979274528769756,0.0,0.0,0.0,0.0,0.0,0.0,-13.744,0.0,0.0,0.0
527,0.0,0.0,0.0,0.3003701171875,0.0,0.0,0.0,0.0,0.0,0.0,-0.292,0.0,0.0,0.0,0.0,0.0,0.0,0.295323882012891,0.0,0.0,0.0,0.0,0.0,0.0,-13.604,0.0,0.0,0.0
528,0.0,0.0,0.0,0.2977626953125,0.0,0.0,0.0,0.0,0.0,0.0,-0.281,0.0,0.0,0.0,0.0,0.0,0.0,0.29272237950514257,0.0,0.0,0.0,0.0,0.0,0.0,-13.812,0.0,0.0,0.0
529,0.0,0.0,0.0,0.2951640625,0.0,0.0,0.0,0.0,0.0,0.0,-0.255,0.0,0.0,0.0,0.0,0.0,0.0,0.290069244300117,0.0,0.0,0.0,0.0,0.0,0.0,-14.316,0.0,0.0,0.0
530,0.0,0.0,0.0,0.2928359375,0.0,0.0,0.0,0.0,0.0,0.0,-0.253,0.0,0.0,0.0,0.0,0.0,0.0,0.2874547701837276,0.0,0.0,0.0,0.0,0.0,0.0,-14.04,0.0,0.0,0.0
531,0.0,0.0,0.0,0.2905166015625,0.0,0.0,0.0,0.0,0.0,0.0,-0.233,0.0,0.0,0.0,0.0,0.0,0.0,0.2848194690748275,0.0,0.0,0.0,0.0,0.0,0.0,-14.452,0.0,0.0,0.0
532,0.0,0.0,0.0,0.2880537109375,0.0,0.0,0.0,0.0,0.0,0.0,-0.25,0.0,0.0,0.0,0.0,0.0,0.0,0.2821728268117743,0.0,0.0,0.0,0.0,0.0,0.0,-13.812,0.0,0.0,0.0
533,0.0,0.0,0.0,0.2854453125,0.0,0.0,0.0,0.0,0.0,0.0,-0.247,0.0,0.0,0.0,0.0,0.0,0.0,0.27951778703447033,0.0,0.0,0.0,0.0,0.0,0.0,-14.268,0.0,0.0,0.0
534,0.0,0.0,0.0,0.2827021484375,0.0,0.0,0.0,0.0,0.0,0.0,-0.274,0.0,0.0,0.0,0.0,0.0,0.0,0.27686906399662614,0.0,0.0,0.0,0.0,0.0,0.0,-13.72,0.0,0.0,0.0
535,0.0,0.0,0.0,0.2803837890625,0.0,0.0,0.0,0.0,0.0,0.0,-0.254,0.0,0.0,0.0,0.0,0.0,0.0,0.27420920522469727,0.0,0.0,0.0,0.0,0.0,0.0,-14.132,0.0,0.0,0.0
536,0.0,0.0,0.0,0.2776318359375,0.0,0.0,0.0,0.0,0.0,0.0,-0.259,0.0,0.0,0.0,0.0,0.0,0.0,0.2715376699788839,0.0,0.0,0.0,0.0,0.0,0.0,-13.584,0.0,0.0,0.0
537,0.0,0.0,0.0,0.27516796875,0.0,0.0,0.0,0.0,0.0,0.0,-0.266,0.0,0.0,0.0,0.0,0.0,0.0,0.2688561504724901,0.0,0.0,0.0,0.0,0.0,0.0,-13.948,0.0,0.0,0.0
538,0.0,0.0,0.0,0.2721181640625,0.0,0.0,0.0,0.0,0.0,0.0,-0.271,0.0,0.0,0.0,0.0,0.0,0.0,0.26616706150482955,0.0,0.0,0.0,0.0,0.0,0.0,-14.132,0.0,0.0,0.0
539,0.0,0.0,0.0,0.2693662109375,0.0,0.0,0.0,0.0,0.0,0.0,-0.298,0.0,0.0,0.0,0.0,0.0,0.0,0.2634815813095723,0.0,0.0,0.0,0.0,0.0,0.0,-13.924,0.0,0.0,0.0
540,0.0,0.0,0.0,0.2672001953125,0.0,0.0,0.0,0.0,0.0,0.0,-0.253,0.0,0.0,0.0,0.0,0.0,0.0,0.26075005813174923,0.0,0.0,0.0,0.0,0.0,0.0,-13.492,0.0,0.0,0.0
541,0.0,0.0,0.0,0.2647373046875,0.0,0.0,0.0,0.0,0.0,0.0,-0.226,0.0,0.0,0.0,0.0,0.0,0.0,0.2580600923723786,0.0,0.0,0.0,0.0,0.0,0.0,-14.248,0.0,0.0,0.0
542,0.0,0.0,0.0,0.2616962890625,0.0,0.0,0.0,0.0,0.0,0.0,-0.273,0.0,0.0,0.0,0.0,0.0,0.0,0.25535475054245466,0.0,0.0,0.0,0.0,0.0,0.0,-14.68,0.0,0.0,0.0
543,0.0,0.0,0.0,0.259087890625,0.0,0.0,0.0,0.0,0.0,0.0,-0.299,0.0,0.0,0.0,0.0,0.0,0.0,0.25264227555062313,0.0,0.0,0.0,0.0,0.0,0.0,-14.36,0.0,0.0,0.0
544,0.0,0.0,0.0,0.256625,0.0,0.0,0.0,0.0,0.0,0.0,-0.251,0.0,0.0,0.0,0.0,0.0,0.0,0.2499134308562215,0.0,0.0,0.0,0.0,0.0,0.0,-14.176,0.0,0.0,0.0
545,0.0,0.0,0.0,0.2534306640625,0.0,0.0,0.0,0.0,0.0,0.0,-0.278,0.0,0.0,0.0,0.0,0.0,0.0,0.24713315067507233,0.0,0.0,0.0,0.0,0.0,0.0,-13.584,0.0,0.0,0.0
546,0.0,0.0,0.0,0.250966796875,0.0,0.0,0.0,0.0,0.0,0.0,-0.299,0.0,0.0,0.0,0.0,0.0,0.0,0.2444394200038837,0.0,0.0,0.0,0.0,0.0,0.0,-13.424,0.0,0.0,0.0
547,0.0,0.0,0.0,0.24821484375,0.0,0.0,0.0,0.0,0.0,0.0,-0.253,0.0,0.0,0.0,0.0,0.0,0.0,0.24171338687608693,0.0,0.0,0.0,0.0,0.0,0.0,-14.428,0.0,0.0,0.0
548,0.0,0.0,0.0,0.245173828125,0.0,0.0,0.0,0.0,0.0,0.0,-0.292,0.0,0.0,0.0,0.0,0.0,0.0,0.238955731828688,0.0,0.0,0.0,0.0,0.0,0.0,-13.996,0.0,0.0,0.0
549,0.0,0.0,0.0,0.2421328125,0.0,0.0,0.0,0.0,0.0,0.0,-0.301,0.0,0.0,0.0,0.0,0.0,0.0,0.23619982293260824,0.0,0.0,0.0,0.0,0.0,0.0,-14.292,0.0,0.0,0.0
550,0.0,0.0,0.0,0.2390927734375,0.0,0.0,0.0,0.0,0.0,0.0,-0.317,0.0,0.0,0.0,0.0,0.0,0.0,0.23344525217280654,0.0,0.0,0.0,0.0,0.0,0.0,-13.628,0.0,0.0,0.0
551,0.0,0.0,0.0,0.2367822265625,0.0,0.0,0.0,0.0,0.0,0.0,-0.279,0.0,0.0,0.0,0.0,0.0,0.0,0.2306764856004847,0.0,0.0,0.0,0.0,0.0,0.0,-13.584,0.0,0.0,0.0
552,0.0,0.0,0.0,0.234021484375,0.0,0.0,0.0,0.0,0.0,0.0,-0.242,0.0,0.0,0.0,0.0,0.0,0.0,0.22790809611578333,0.0,0.0,0.0,0.0,0.0,0.0,-14.704,0.0,0.0,0.0
553,0.0,0.0,0.0,0.23126953125,0.0,0.0,0.0,0.0,0.0,0.0,-0.283,0.0,0.0,0.0,0.0,0.0,0.0,0.22513064369014352,0.0,0.0,0.0,0.0,0.0,0.0,-14.588,0.0,0.0,0.0
554,0.0,0.0,0.0,0.2292392578125,0.0,0.0,0.0,0.0,0.0,0.0,-0.243,0.0,0.0,0.0,0.0,0.0,0.0,0.2223406561172322,0.0,0.0,0.0,0.0,0.0,0.0,-14.748,0.0,0.0,0.0
555,0.0,0.0,0.0,0.2260537109375,0.0,0.0,0.0,0.0,0.0,0.0,-0.254,0.0,0.0,0.0,0.0,0.0,0.0,0.2195480800131753,0.0,0.0,0.0,0.0,0.0,0.0,-14.68,0.0,0.0,0.0
556,0.0,0.0,0.0,0.2231572265625,0.0,0.0,0.0,0.0,0.0,0.0,-0.32,0.0,0.0,0.0,0.0,0.0,0.0,0.21675873894154205,0.0,0.0,0.0,0.0,0.0,0.0,-13.444,0.0,0.0,0.0
557,0.0,0.0,0.0,0.220837890625,0.0,0.0,0.0,0.0,0.0,0.0,-0.259,0.0,0.0,0.0,0.0,0.0,0.0,0.21396540285933907,0.0,0.0,0.0,0.0,0.0,0.0,-14.476,0.0,0.0,0.0
558,0.0,0.0,0.0,0.2180947265625,0.0,0.0,0.0,0.0,0.0,0.0,-0.258,0.0,0.0,0.0,0.0,0.0,0.0,0.21115013984361827,0.0,0.0,0.0,0.0,0.0,0.0,-13.788,0.0,0.0,0.0
559,0.0,0.0,0.0,0.2153427734375,0.0,0.0,0.0,0.0,0.0,0.0,-0.275,0.0,0.0,0.0,0.0,0.0,0.0,0.2083413662935017,0.0,0.0,0.0,0.0,0.0,0.0,-14.268,0.0,0.0,0.0
560,0.0,0.0,0.0,0.21200390625,0.0,0.0,0.0,0.0,0.0,0.0,-0.302,0.0,0.0,0.0,0.0,0.0,0.0,0.2055367319739906,0.0,0.0,0.0,0.0,0.0,0.0,-14.316,0.0,0.0,0.0
561,0.0,0.0,0.0,0.208962890625,0.0,0.0,0.0,0.0,0.0,0.0,-0.326,0.0,0.0,0.0,0.0,0.0,0.0,0.2027173736707161,0.0,0.0,0.0,0.0,0.0,0.0,-13.972,0.0,0.0,0.0
562,0.0,0.0,0.0,0.2062109375,0.0,0.0,0.0,0.0,0.0,0.0,-0.289,0.0,0.0,0.0,0.0,0.0,0.0,0.19981344038620144,0.0,0.0,0.0,0.0,0.0,0.0,-13.604,0.0,0.0,0.0
563,0.0,0.0,0.0,0.203314453125,0.0,0.0,0.0,0.0,0.0,0.0,-0.273,0.0,0.0,0.0,0.0,0.0,0.0,0.197043679881972,0.0,0.0,0.0,0.0,0.0,0.0,-14.496,0.0,0.0,0.0
564,0.0,0.0,0.0,0.20041796875,0.0,0.0,0.0,0.0,0.0,0.0,-0.298,0.0,0.0,0.0,0.0,0.0,0.0,0.19419347735686865,0.0,0.0,0.0,0.0,0.0,0.0,-14.588,0.0,0.0,0.0
565,0.0,0.0,0.0,0.197955078125,0.0,0.0,0.0,0.0,0.0,0.0,-0.272,0.0,0.0,0.0,0.0,0.0,0.0,0.19135735293270242,0.0,0.0,0.0,0.0,0.0,0.0,-15.136,0.0,0.0,0.0
566,0.0,0.0,0.0,0.1947607421875,0.0,0.0,0.0,0.0,0.0,0.0,-0.277,0.0,0.0,0.0,0.0,0.0,0.0,0.1885210103000556,0.0,0.0,0.0,0.0,0.0,0.0,-14.772,0.0,0.0,0.0
567,0.0,0.0,0.0,0.1917197265625,0.0,0.0,0.0,0.0,0.0,0.0,-0.323,0.0,0.0,0.0,0.0,0.0,0.0,0.18567916945010388,0.0,0.0,0.0,0.0,0.0,0.0,-13.744,0.0,0.0,0.0
568,0.0,0.0,0.0,0.189111328125,0.0,0.0,0.0,0.0,0.0,0.0,-0.277,0.0,0.0,0.0,0.0,0.0,0.0,0.18281643279323134,0.0,0.0,0.0,0.0,0.0,0.0,-13.972,0.0,0.0,0.0
569,0.0,0.0,0.0,0.186359375,0.0,0.0,0.0,0.0,0.0,0.0,-0.274,0.0,0.0,0.0,0.0,0.0,0.0,0.17997427887103762,0.0,0.0,0.0,0.0,0.0,0.0,-13.604,0.0,0.0,0.0
570,0.0,0.0,0.0,0.183607421875,0.0,0.0,0.0,0.0,0.0,0.0,-0.272,0.0,0.0,0.0,0.0,0.0,0.0,0.17709583468317577,0.0,0.0,0.0,0.0,0.0,0.0,-14.452,0.0,0.0,0.0
571,0.0,0.0,0.0,0.18027734375,0.0,0.0,0.0,0.0,0.0,0.0,-0.311,0.0,0.0,0.0,0.0,0.0,0.0,0.17422989275364184,0.0,0.0,0.0,0.0,0.0,0.0,-14.316,0.0,0.0,0.0
572,0.0,0.0,0.0,0.1772373046875,0.0,0.0,0.0,0.0,0.0,0.0,-0.325,0.0,0.0,0.0,0.0,0.0,0.0,0.17135295396404424,0.0,0.0,0.0,0.0,0.0,0.0,-14.268,0.0,0.0,0.0
573,0.0,0.0,0.0,0.1738984375,0.0,0.0,0.0,0.0,0.0,0.0,-0.316,0.0,0.0,0.0,0.0,0.0,0.0,0.16848064354337028,0.0,0.0,0.0,0.0,0.0,0.0,-13.904,0.0,0.0,0.0
574,0.0,0.0,0.0,0.171146484375,0.0,0.0,0.0,0.0,0.0,0.0,-0.31,0.0,0.0,0.0,0.0,0.0,0.0,0.16559753562825882,0.0,0.0,0.0,0.0,0.0,0.0,-14.016,0.0,0.0,0.0
575,0.0,0.0,0.0,0.1685380859375,0.0,0.0,0.0,0.0,0.0,0.0,-0.267,0.0,0.0,0.0,0.0,0.0,0.0,0.16271923272897165,0.0,0.0,0.0,0.0,0.0,0.0,-14.68,0.0,0.0,0.0
576,0.0,0.0,0.0,0.165939453125,0.0,0.0,0.0,0.0,0.0,0.0,-0.271,0.0,0.0,0.0,0.0,0.0,0.0,0.15981923325566663,0.0,0.0,0.0,0.0,0.0,0.0,-14.932,0.0,0.0,0.0
577,0.0,0.0,0.0,0.16304296875,0.0,0.0,0.0,0.0,0.0,0.0,-0.273,0.0,0.0,0.0,0.0,0.0,0.0,0.15690996273664637,0.0,0.0,0.0,0.0,0.0,0.0,-14.772,0.0,0.0,0.0
578,0.0,0.0,0.0,0.160580078125,0.0,0.0,0.0,0.0,0.0,0.0,-0.276,0.0,0.0,0.0,0.0,0.0,0.0,0.15404027810341,0.0,0.0,0.0,0.0,0.0,0.0,-13.676,0.0,0.0,0.0
579,0.0,0.0,0.0,0.1581162109375,0.0,0.0,0.0,0.0,0.0,0.0,-0.242,0.0,0.0,0.0,0.0,0.0,0.0,0.15113366032525652,0.0,0.0,0.0,0.0,0.0,0.0,-14.132,0.0,0.0,0.0
580,0.0,0.0,0.0,0.15506640625,0.0,0.0,0.0,0.0,0.0,0.0,-0.274,0.0,0.0,0.0,0.0,0.0,0.0,0.1482195078438935,0.0,0.0,0.0,0.0,0.0,0.0,-13.924,0.0,0.0,0.0
581,0.0,0.0,0.0,0.152458984375,0.0,0.0,0.0,0.0,0.0,0.0,-0.294,0.0,0.0,0.0,0.0,0.0,0.0,0.14531238332356788,0.0,0.0,0.0,0.0,0.0,0.0,-14.336,0.0,0.0,0.0
582,0.0,0.0,0.0,0.1495625,0.0,0.0,0.0,0.0,0.0,0.0,-0.274,0.0,0.0,0.0,0.0,0.0,0.0,0.14240864800079103,0.0,0.0,0.0,0.0,0.0,0.0,-13.788,0.0,0.0,0.0
583,0.0,0.0,0.0,0.1466650390625,0.0,0.0,0.0,0.0,0.0,0.0,-0.29,0.0,0.0,0.0,0.0,0.0,0.0,0.1394698604700258,0.0,0.0,0.0,0.0,0.0,0.0,-13.88,0.0,0.0,0.0
584,0.0,0.0,0.0,0.14348046875,0.0,0.0,0.0,0.0,0.0,0.0,-0.304,0.0,0.0,0.0,0.0,0.0,0.0,0.1365599183279873,0.0,0.0,0.0,0.0,0.0,0.0,-14.408,0.0,0.0,0.0
585,0.0,0.0,0.0,0.140439453125,0.0,0.0,0.0,0.0,0.0,0.0,-0.32,0.0,0.0,0.0,0.0,0.0,0.0,0.13362441082958312,0.0,0.0,0.0,0.0,0.0,0.0,-14.452,0.0,0.0,0.0
586,0.0,0.0,0.0,0.1379755859375,0.0,0.0,0.0,0.0,0.0,0.0,-0.275,0.0,0.0,0.0,0.0,0.0,0.0,0.13070598776473263,0.0,0.0,0.0,0.0,0.0,0.0,-14.656,0.0,0.0,0.0
587,0.0,0.0,0.0,0.13478125,0.0,0.0,0.0,0.0,0.0,0.0,-0.275,0.0,0.0,0.0,0.0,0.0,0.0,0.12777844433131558,0.0,0.0,0.0,0.0,0.0,0.0,-15.436,0.0,0.0,0.0
588,0.0,0.0,0.0,0.1314521484375,0.0,0.0,0.0,0.0,0.0,0.0,-0.338,0.0,0.0,0.0,0.0,0.0,0.0,0.12485918428409973,0.0,0.0,0.0,0.0,0.0,0.0,-14.428,0.0,0.0,0.0
589,0.0,0.0,0.0,0.1288447265625,0.0,0.0,0.0,0.0,0.0,0.0,-0.3,0.0,0.0,0.0,0.0,0.0,0.0,0.12192331504115829,0.0,0.0,0.0,0.0,0.0,0.0,-14.888,0.0,0.0,0.0
590,0.0,0.0,0.0,0.1256591796875,0.0,0.0,0.0,0.0,0.0,0.0,-0.284,0.0,0.0,0.0,0.0,0.0,0.0,0.11899000612752864,0.0,0.0,0.0,0.0,0.0,0.0,-14.292,0.0,0.0,0.0
591,0.0,0.0,0.0,0.1227626953125,0.0,0.0,0.0,0.0,0.0,0.0,-0.321,0.0,0.0,0.0,0.0,0.0,0.0,0.1160481198194207,0.0,0.0,0.0,0.0,0.0,0.0,-13.948,0.0,0.0,0.0
592,0.0,0.0,0.0,0.1198662109375,0.0,0.0,0.0,0.0,0.0,0.0,-0.287,0.0,0.0,0.0,0.0,0.0,0.0,0.113101225021009,0.0,0.0,0.0,0.0,0.0,0.0,-14.612,0.0,0.0,0.0
593,0.0,0.0,0.0,0.1165361328125,0.0,0.0,0.0,0.0,0.0,0.0,-0.309,0.0,0.0,0.0,0.0,0.0,0.0,0.11016422472372002,0.0,0.0,0.0,0.0,0.0,0.0,-14.316,0.0,0.0,0.0
594,0.0,0.0,0.0,0.113775390625,0.0,0.0,0.0,0.0,0.0,0.0,-0.316,0.0,0.0,0.0,0.0,0.0,0.0,0.107213582111137,0.0,0.0,0.0,0.0,0.0,0.0,-14.2,0.0,0.0,0.0
595,0.0,0.0,0.0,0.110734375,0.0,0.0,0.0,0.0,0.0,0.0,-0.286,0.0,0.0,0.0,0.0,0.0,0.0,0.1042516652798318,0.0,0.0,0.0,0.0,0.0,0.0,-14.544,0.0,0.0,0.0
596,0.0,0.0,0.0,0.107693359375,0.0,0.0,0.0,0.0,0.0,0.0,-0.31,0.0,0.0,0.0,0.0,0.0,0.0,0.1012974898310461,0.0,0.0,0.0,0.0,0.0,0.0,-14.132,0.0,0.0,0.0
597,0.0,0.0,0.0,0.1049501953125,0.0,0.0,0.0,0.0,0.0,0.0,-0.286,0.0,0.0,0.0,0.0,0.0,0.0,0.09834022002378538,0.0,0.0,0.0,0.0,0.0,0.0,-15.276,0.0,0.0,0.0
598,0.0,0.0,0.0,0.1017646484375,0.0,0.0,0.0,0.0,0.0,0.0,-0.304,0.0,0.0,0.0,0.0,0.0,0.0,0.09537837476273427,0.0,0.0,0.0,0.0,0.0,0.0,-14.728,0.0,0.0,0.0
599,0.0,0.0,0.0,0.099166015625,0.0,0.0,0.0,0.0,0.0,0.0,-0.295,0.0,0.0,0.0,0.0,0.0,0.0,0.09241534454357501,0.0,0.0,0.0,0.0,0.0,0.0,-14.384,0.0,0.0,0.0
600,0.0,0.0,0.0,0.09626953125,0.0,0.0,0.0,0.0,0.0,0.0,-0.274,0.0,0.0,0.0,0.0,0.0,0.0,0.08944908450867385,0.0,0.0,0.0,0.0,0.0,0.0,-14.496,0.0,0.0,0.0
601,0.0,0.0,0.0,0.0932197265625,0.0,0.0,0.0,0.0,0.0,0.0,-0.303,0.0,0.0,0.0,0.0,0.0,0.0,0.08648214400055963,0.0,0.0,0.0,0.0,0.0,0.0,-13.836,0.0,0.0,0.0
602,0.0,0.0,0.0,0.0907568359375,0.0,0.0,0.0,0.0,0.0,0.0,-0.275,0.0,0.0,0.0,0.0,0.0,0.0,0.0835141756444768,0.0,0.0,0.0,0.0,0.0,0.0,-14.176,0.0,0.0,0.0
603,0.0,0.0,0.0,0.0874267578125,0.0,0.0,0.0,0.0,0.0,0.0,-0.286,0.0,0.0,0.0,0.0,0.0,0.0,0.08054234997556321,0.0,0.0,0.0,0.0,0.0,0.0,-14.68,0.0,0.0,0.0
604,0.0,0.0,0.0,0.083953125,0.0,0.0,0.0,0.0,0.0,0.0,-0.351,0.0,0.0,0.0,0.0,0.0,0.0,0.07756609929399666,0.0,0.0,0.0,0.0,0.0,0.0,-14.248,0.0,0.0,0.0
605,0.0,0.0,0.0,0.081056640625,0.0,0.0,0.0,0.0,0.0,0.0,-0.321,0.0,0.0,0.0,0.0,0.0,0.0,0.07459386786202302,0.0,0.0,0.0,0.0,0.0,0.0,-14.248,0.0,0.0,0.0
606,0.0,0.0,0.0,0.0777265625,0.0,0.0,0.0,0.0,0.0,0.0,-0.311,0.0,0.0,0.0,0.0,0.0,0.0,0.07160372680218087,0.0,0.0,0.0,0.0,0.0,0.0,-14.016,0.0,0.0,0.0
607,0.0,0.0,0.0,0.074830078125,0.0,0.0,0.0,0.0,0.0,0.0,-0.323,0.0,0.0,0.0,0.0,0.0,0.0,0.06863089473251127,0.0,0.0,0.0,0.0,0.0,0.0,-14.108,0.0,0.0,0.0
608,0.0,0.0,0.0,0.072501953125,0.0,0.0,0.0,0.0,0.0,0.0,-0.26,0.0,0.0,0.0,0.0,0.0,0.0,0.06565301298226056,0.0,0.0,0.0,0.0,0.0,0.0,-14.796,0.0,0.0,0.0
609,0.0,0.0,0.0,0.06931640625,0.0,0.0,0.0,0.0,0.0,0.0,-0.266,0.0,0.0,0.0,0.0,0.0,0.0,0.06267079040755436,0.0,0.0,0.0,0.0,0.0,0.0,-15.368,0.0,0.0,0.0
610,0.0,0.0,0.0,0.066419921875,0.0,0.0,0.0,0.0,0.0,0.0,-0.318,0.0,0.0,0.0,0.0,0.0,0.0,0.059685222397004474,0.0,0.0,0.0,0.0,0.0,0.0,-14.108,0.0,0.0,0.0
611,0.0,0.0,0.0,0.06366796875,0.0,0.0,0.0,0.0,0.0,0.0,-0.273,0.0,0.0,0.0,0.0,0.0,0.0,0.05669994118949533,0.0,0.0,0.0,0.0,0.0,0.0,-14.408,0.0,0.0,0.0
612,0.0,0.0,0.0,0.0601943359375,0.0,0.0,0.0,0.0,0.0,0.0,-0.311,0.0,0.0,0.0,0.0,0.0,0.0,0.05371003730160356,0.0,0.0,0.0,0.0,0.0,0.0,-13.56,0.0,0.0,0.0
613,0.0,0.0,0.0,0.0575859375,0.0,0.0,0.0,0.0,0.0,0.0,-0.321,0.0,0.0,0.0,0.0,0.0,0.0,0.05072142527172868,0.0,0.0,0.0,0.0,0.0,0.0,-13.812,0.0,0.0,0.0
614,0.0,0.0,0.0,0.0544013671875,0.0,0.0,0.0,0.0,0.0,0.0,-0.272,0.0,0.0,0.0,0.0,0.0,0.0,0.04773332768321273,0.0,0.0,0.0,0.0,0.0,0.0,-15.48,0.0,0.0,0.0
615,0.0,0.0,0.0,0.0507734375,0.0,0.0,0.0,0.0,0.0,0.0,-0.356,0.0,0.0,0.0,0.0,0.0,0.0,0.04475537907998777,0.0,0.0,0.0,0.0,0.0,0.0,-14.36,0.0,0.0,0.0
616,0.0,0.0,0.0,0.0485986328125,0.0,0.0,0.0,0.0,0.0,0.0,-0.305,0.0,0.0,0.0,0.0,0.0,0.0,0.04175034922945695,0.0,0.0,0.0,0.0,0.0,0.0,-14.476,0.0,0.0,0.0
617,0.0,0.0,0.0,0.045125,0.0,0.0,0.0,0.0,0.0,0.0,-0.262,0.0,0.0,0.0,0.0,0.0,0.0,0.03876846317897955,0.0,0.0,0.0,0.0,0.0,0.0,-15.184,0.0,0.0,0.0
618,0.0,0.0,0.0,0.042083984375,0.0,0.0,0.0,0.0,0.0,0.0,-0.347,0.0,0.0,0.0,0.0,0.0,0.0,0.035762624994440155,0.0,0.0,0.0,0.0,0.0,0.0,-14.408,0.0,0.0,0.0
619,0.0,0.0,0.0,0.0397646484375,0.0,0.0,0.0,0.0,0.0,0.0,-0.261,0.0,0.0,0.0,0.0,0.0,0.0,0.03277495461670845,0.0,0.0,0.0,0.0,0.0,0.0,-15.916,0.0,0.0,0.0
620,0.0,0.0,0.0,0.036435546875,0.0,0.0,0.0,0.0,0.0,0.0,-0.281,0.0,0.0,0.0,0.0,0.0,0.0,0.029772752941807774,0.0,0.0,0.0,0.0,0.0,0.0,-14.796,0.0,0.0,0.0
621,0.0,0.0,0.0,0.03368359375,0.0,0.0,0.0,0.0,0.0,0.0,-0.315,0.0,0.0,0.0,0.0,0.0,0.0,0.02678688140286655,0.0,0.0,0.0,0.0,0.0,0.0,-14.176,0.0,0.0,0.0
622,0.0,0.0,0.0,0.03077734375,0.0,0.0,0.0,0.0,0.0,0.0,-0.275,0.0,0.0,0.0,0.0,0.0,0.0,0.023785979675711142,0.0,0.0,0.0,0.0,0.0,0.0,-14.52,0.0,0.0,0.0
623,0.0,0.0,0.0,0.0274482421875,0.0,0.0,0.0,0.0,0.0,0.0,-0.323,0.0,0.0,0.0,0.0,0.0,0.0,0.020791344215502123,0.0,0.0,0.0,0.0,0.0,0.0,-13.788,0.0,0.0,0.0
624,0.0,0.0,0.0,0.0246962890625,0.0,0.0,0.0,0.0,0.0,0.0,-0.305,0.0,0.0,0.0,0.0,0.0,0.0,0.01778117634561456,0.0,0.0,0.0,0.0,0.0,0.0,-14.428,0.0,0.0,0.0
625,0.0,0.0,0.0,0.0213662109375,0.0,0.0,0.0,0.0,0.0,0.0,-0.3,0.0,0.0,0.0,0.0,0.0,0.0,0.014782930636120083,0.0,0.0,0.0,0.0,0.0,0.0,-14.496,0.0,0.0,0.0
626,0.0,0.0,0.0,0.0183251953125,0.0,0.0,0.0,0.0,0.0,0.0,-0.33,0.0,0.0,0.0,0.0,0.0,0.0,0.011771085831829996,0.0,0.0,0.0,0.0,0.0,0.0,-13.904,0.0,0.0,0.0
627,0.0,0.0,0.0,0.0152841796875,0.0,0.0,0.0,0.0,0.0,0.0,-0.295,0.0,0.0,0.0,0.0,0.0,0.0,0.008777467422108928,0.0,0.0,0.0,0.0,0.0,0.0,-14.636,0.0,0.0,0.0
628,0.0,0.0,0.0,0.0122431640625,0.0,0.0,0.0,0.0,0.0,0.0,-0.312,0.0,0.0,0.0,0.0,0.0,0.0,0.005754020225386159,0.0,0.0,0.0,0.0,0.0,0.0,-13.924,0.0,0.0,0.0
629,0.0,0.0,0.0,0.009771484375,0.0,0.0,0.0,0.0,0.0,0.0,-0.281,0.0,0.0,0.0,0.0,0.0,0.0,0.0027774902310898617,0.0,0.0,0.0,0.0,0.0,0.0,-14.496,0.0,0.0,0.0
630,0.0,0.0,0.0,0.00673046875,0.0,0.0,0.0,0.0,0.0,0.0,-0.269,0.0,0.0,0.0,0.0,0.0,0.0,-0.00021677493735532594,0.0,0.0,0.0,0.0,0.0,0.0,-14.704,0.0,0.0,0.0
631,0.0,0.0,0.0,0.003689453125,0.0,0.0,0.0,0.0,0.0,0.0,-0.312,0.0,0.0,0.0,0.0,0.0,0.0,-0.003242577028954647,0.0,0.0,0.0,0.0,0.0,0.0,-14.36,0.0,0.0,0.0
632,0.0,0.0,0.0,0.0006484375,0.0,0.0,0.0,0.0,0.0,0.0,-0.3,0.0,0.0,0.0,0.0,0.0,0.0,-0.006230175592096081,0.0,0.0,0.0,0.0,0.0,0.0,-14.864,0.0,0.0,0.0
633,0.0,0.0,0.0,-0.0026796875,0.0,0.0,0.0,0.0,0.0,0.0,-0.328,0.0,0.0,0.0,0.0,0.0,0.0,-0.009204746590259572,0.0,0.0,0.0,0.0,0.0,0.0,-13.812,0.0,0.0,0.0
634,0.0,0.0,0.0,-0.005865234375,0.0,0.0,0.0,0.0,0.0,0.0,-0.323,0.0,0.0,0.0,0.0,0.0,0.0,-0.012234226120664422,0.0,0.0,0.0,0.0,0.0,0.0,-14.224,0.0,0.0,0.0
635,0.0,0.0,0.0,-0.0092041015625,0.0,0.0,0.0,0.0,0.0,0.0,-0.321,0.0,0.0,0.0,0.0,0.0,0.0,-0.015243944987314793,0.0,0.0,0.0,0.0,0.0,0.0,-14.656,0.0,0.0,0.0
636,0.0,0.0,0.0,-0.0121005859375,0.0,0.0,0.0,0.0,0.0,0.0,-0.33,0.0,0.0,0.0,0.0,0.0,0.0,-0.018228114716297684,0.0,0.0,0.0,0.0,0.0,0.0,-14.496,0.0,0.0,0.0
637,0.0,0.0,0.0,-0.014564453125,0.0,0.0,0.0,0.0,0.0,0.0,-0.265,0.0,0.0,0.0,0.0,0.0,0.0,-0.02128345686016982,0.0,0.0,0.0,0.0,0.0,0.0,-14.772,0.0,0.0,0.0
638,0.0,0.0,0.0,-0.0171630859375,0.0,0.0,0.0,0.0,0.0,0.0,-0.252,0.0,0.0,0.0,0.0,0.0,0.0,-0.02421589500173816,0.0,0.0,0.0,0.0,0.0,0.0,-14.68,0.0,0.0,0.0
639,0.0,0.0,0.0,-0.020203125,0.0,0.0,0.0,0.0,0.0,0.0,-0.284,0.0,0.0,0.0,0.0,0.0,0.0,-0.027216133569098695,0.0,0.0,0.0,0.0,0.0,0.0,-15.62,0.0,0.0,0.0
640,0.0,0.0,0.0,-0.023388671875,0.0,0.0,0.0,0.0,0.0,0.0,-0.318,0.0,0.0,0.0,0.0,0.0,0.0,-0.030234549149741607,0.0,0.0,0.0,0.0,0.0,0.0,-14.976,0.0,0.0,0.0
641,0.0,0.0,0.0,-0.026140625,0.0,0.0,0.0,0.0,0.0,0.0,-0.305,0.0,0.0,0.0,0.0,0.0,0.0,-0.03321720407680105,0.0,0.0,0.0,0.0,0.0,0.0,-14.568,0.0,0.0,0.0
642,0.0,0.0,0.0,-0.029326171875,0.0,0.0,0.0,0.0,0.0,0.0,-0.295,0.0,0.0,0.0,0.0,0.0,0.0,-0.036290064412489206,0.0,0.0,0.0,0.0,0.0,0.0,-14.064,0.0,0.0,0.0
643,0.0,0.0,0.0,-0.0322314453125,0.0,0.0,0.0,0.0,0.0,0.0,-0.318,0.0,0.0,0.0,0.0,0.0,0.0,-0.03924541929681823,0.0,0.0,0.0,0.0,0.0,0.0,-13.744,0.0,0.0,0.0
644,0.0,0.0,0.0,-0.03483984375,0.0,0.0,0.0,0.0,0.0,0.0,-0.271,0.0,0.0,0.0,0.0,0.0,0.0,-0.04218433561588211,0.0,0.0,0.0,0.0,0.0,0.0,-14.224,0.0,0.0,0.0
645,0.0,0.0,0.0,-0.037880859375,0.0,0.0,0.0,0.0,0.0,0.0,-0.274,0.0,0.0,0.0,0.0,0.0,0.0,-0.045173730211789685,0.0,0.0,0.0,0.0,0.0,0.0,-14.452,0.0,0.0,0.0
646,0.0,0.0,0.0,-0.0413544921875,0.0,0.0,0.0,0.0,0.0,0.0,-0.321,0.0,0.0,0.0,0.0,0.0,0.0,-0.04821397116739917,0.0,0.0,0.0,0.0,0.0,0.0,-15.048,0.0,0.0,0.0
647,0.0,0.0,0.0,-0.0445400390625,0.0,0.0,0.0,0.0,0.0,0.0,-0.35,0.0,0.0,0.0,0.0,0.0,0.0,-0.05118212976257275,0.0,0.0,0.0,0.0,0.0,0.0,-13.744,0.0,0.0,0.0
648,0.0,0.0,0.0,-0.0471474609375,0.0,0.0,0.0,0.0,0.0,0.0,-0.287,0.0,0.0,0.0,0.0,0.0,0.0,-0.05415885741243216,0.0,0.0,0.0,0.0,0.0,0.0,-14.156,0.0,0.0,0.0
649,0.0,0.0,0.0,-0.0504775390625,0.0,0.0,0.0,0.0,0.0,0.0,-0.294,0.0,0.0,0.0,0.0,0.0,0.0,-0.05713815769298207,0.0,0.0,0.0,0.0,0.0,0.0,-14.496,0.0,0.0,0.0
650,0.0,0.0,0.0,-0.05309375,0.0,0.0,0.0,0.0,0.0,0.0,-0.323,0.0,0.0,0.0,0.0,0.0,0.0,-0.060172186376383954,0.0,0.0,0.0,0.0,0.0,0.0,-14.316,0.0,0.0,0.0
651,0.0,0.0,0.0,-0.0555576171875,0.0,0.0,0.0,0.0,0.0,0.0,-0.237,0.0,0.0,0.0,0.0,0.0,0.0,-0.06311838313031153,0.0,0.0,0.0,0.0,0.0,0.0,-15.756,0.0,0.0,0.0
652,0.0,0.0,0.0,-0.05917578125,0.0,0.0,0.0,0.0,0.0,0.0,-0.31,0.0,0.0,0.0,0.0,0.0,0.0,-0.06609197561550194,0.0,0.0,0.0,0.0,0.0,0.0,-13.996,0.0,0.0,0.0
653,0.0,0.0,0.0,-0.061783203125,0.0,0.0,0.0,0.0,0.0,0.0,-0.32,0.0,0.0,0.0,0.0,0.0,0.0,-0.06907110178075009,0.0,0.0,0.0,0.0,0.0,0.0,-14.132,0.0,0.0,0.0
654,0.0,0.0,0.0,-0.06511328125,0.0,0.0,0.0,0.0,0.0,0.0,-0.279,0.0,0.0,0.0,0.0,0.0,0.0,-0.07204168645826897,0.0,0.0,0.0,0.0,0.0,0.0,-14.544,0.0,0.0,0.0
655,0.0,0.0,0.0,-0.068009765625,0.0,0.0,0.0,0.0,0.0,0.0,-0.342,0.0,0.0,0.0,0.0,0.0,0.0,-0.07505980049361632,0.0,0.0,0.0,0.0,0.0,0.0,-13.148,0.0,0.0,0.0
656,0.0,0.0,0.0,-0.0703291015625,0.0,0.0,0.0,0.0,0.0,0.0,-0.249,0.0,0.0,0.0,0.0,0.0,0.0,-0.07801357857150897,0.0,0.0,0.0,0.0,0.0,0.0,-15.848,0.0,0.0,0.0
657,0.0,0.0,0.0,-0.074677734375,0.0,0.0,0.0,0.0,0.0,0.0,-0.323,0.0,0.0,0.0,0.0,0.0,0.0,-0.08099130264177823,0.0,0.0,0.0,0.0,0.0,0.0,-15.024,0.0,0.0,0.0
658,0.0,0.0,0.0,-0.0769970703125,0.0,0.0,0.0,0.0,0.0,0.0,-0.369,0.0,0.0,0.0,0.0,0.0,0.0,-0.08394497062750268,0.0,0.0,0.0,0.0,0.0,0.0,-13.972,0.0,0.0,0.0
659,0.0,0.0,0.0,-0.0798935546875,0.0,0.0,0.0,0.0,0.0,0.0,-0.224,0.0,0.0,0.0,0.0,0.0,0.0,-0.08690909167046706,0.0,0.0,0.0,0.0,0.0,0.0,-16.188,0.0,0.0,0.0
660,0.0,0.0,0.0,-0.08365625,0.0,0.0,0.0,0.0,0.0,0.0,-0.365,0.0,0.0,0.0,0.0,0.0,0.0,-0.08989594064858611,0.0,0.0,0.0,0.0,0.0,0.0,-13.264,0.0,0.0,0.0
661,0.0,0.0,0.0,-0.0849560546875,0.0,0.0,0.0,0.0,0.0,0.0,-0.268,0.0,0.0,0.0,0.0,0.0,0.0,-0.09287485937994158,0.0,0.0,0.0,0.0,0.0,0.0,-15.092,0.0,0.0,0.0
662,0.0,0.0,0.0,-0.0884296875,0.0,0.0,0.0,0.0,0.0,0.0,-0.201,0.0,0.0,0.0,0.0,0.0,0.0,-0.09581853138685609,0.0,0.0,0.0,0.0,0.0,0.0,-15.732,0.0,0.0,0.0
663,0.0,0.0,0.0,-0.0917685546875,0.0,0.0,0.0,0.0,0.0,0.0,-0.377,0.0,0.0,0.0,0.0,0.0,0.0,-0.09878509537667367,0.0,0.0,0.0,0.0,0.0,0.0,-13.536,0.0,0.0,0.0
664,0.0,0.0,0.0,-0.0937900390625,0.0,0.0,0.0,0.0,0.0,0.0,-0.253,0.0,0.0,0.0,0.0,0.0,0.0,-0.10173254367047216,0.0,0.0,0.0,0.0,0.0,0.0,-15.024,0.0,0.0,0.0
665,0.0,0.0,0.0,-0.0975615234375,0.0,0.0,0.0,0.0,0.0,0.0,-0.283,0.0,0.0,0.0,0.0,0.0,0.0,-0.1046957778543605,0.0,0.0,0.0,0.0,0.0,0.0,-13.356,0.0,0.0,0.0
666,0.0,0.0,0.0,-0.1006025390625,0.0,0.0,0.0,0.0,0.0,0.0,-0.36,0.0,0.0,0.0,0.0,0.0,0.0,-0.1076378041710729,0.0,0.0,0.0,0.0,0.0,0.0,-13.972,0.0,0.0,0.0
667,0.0,0.0,0.0,-0.103787109375,0.0,0.0,0.0,0.0,0.0,0.0,-0.297,0.0,0.0,0.0,0.0,0.0,0.0,-0.11058250172027745,0.0,0.0,0.0,0.0,0.0,0.0,-15.436,0.0,0.0,0.0
668,0.0,0.0,0.0,-0.10726171875,0.0,0.0,0.0,0.0,0.0,0.0,-0.346,0.0,0.0,0.0,0.0,0.0,0.0,-0.11353469868691234,0.0,0.0,0.0,0.0,0.0,0.0,-13.836,0.0,0.0,0.0
669,0.0,0.0,0.0,-0.109869140625,0.0,0.0,0.0,0.0,0.0,0.0,-0.304,0.0,0.0,0.0,0.0,0.0,0.0,-0.11647492625295902,0.0,0.0,0.0,0.0,0.0,0.0,-14.52,0.0,0.0,0.0
670,0.0,0.0,0.0,-0.11334375,0.0,0.0,0.0,0.0,0.0,0.0,-0.298,0.0,0.0,0.0,0.0,0.0,0.0,-0.11943524112364595,0.0,0.0,0.0,0.0,0.0,0.0,-14.336,0.0,0.0,0.0
671,0.0,0.0,0.0,-0.116095703125,0.0,0.0,0.0,0.0,0.0,0.0,-0.325,0.0,0.0,0.0,0.0,0.0,0.0,-0.12236284237127257,0.0,0.0,0.0,0.0,0.0,0.0,-14.36,0.0,0.0,0.0
