EmanuelSamir/lab201_ws_projsamir/sawyer_dev/data/sawyer/temp/quasi_static_02.csv
,j1,j2,j3,j4,j5,j6,j7,v1,v2,v3,v4,v5,v6,v7,jd1,jd2,jd3,jd4,jd5,jd6,jd7,e1,e2,e3,e4,e5,e6,e7
0,0.0,0.0,0.0,0.0,0.0,0.0,0.0,0.0,0.0,0.0,0.0,0.0,0.0,0.0,0.0,0.0,0.0,0.0,0.0,0.0,0.0,0.0,0.0,0.0,0.0,0.0,0.0,0.0
1,0.0,0.0,0.0,0.0023896484375,0.0,0.0,0.0,0.0,0.0,0.0,-0.001,0.0,0.0,0.0,0.0,0.0,-1.61,0.0223896484375,0.0,0.0,0.0,0.0,0.0,0.0,0.248,0.0,0.0,0.0
2,0.0,0.0,0.0,0.0023896484375,0.0,0.0,0.0,0.0,0.0,0.0,-0.001,0.0,0.0,0.0,0.0,0.0,-1.61,0.0223896484375,0.0,0.0,0.0,0.0,0.0,0.0,0.112,0.0,0.0,0.0
3,0.0,0.0,0.0,0.0023896484375,0.0,0.0,0.0,0.0,0.0,0.0,-0.001,0.0,0.0,0.0,0.0,0.0,-1.61,0.0223896484375,0.0,0.0,0.0,0.0,0.0,0.0,0.296,0.0,0.0,0.0
4,0.0,0.0,0.0,0.0025341796875,0.0,0.0,0.0,0.0,0.0,0.0,0.003,0.0,0.0,0.0,0.0,0.0,-1.61,0.0225341796875,0.0,0.0,0.0,0.0,0.0,0.0,0.708,0.0,0.0,0.0
5,0.0,0.0,0.0,0.0041318359375,0.0,0.0,0.0,0.0,0.0,0.0,0.064,0.0,0.0,0.0,0.0,0.0,-1.61,0.0241318359375,0.0,0.0,0.0,0.0,0.0,0.0,3.452,0.0,0.0,0.0
6,0.0,0.0,0.0,0.0071728515625,0.0,0.0,0.0,0.0,0.0,0.0,0.227,0.0,0.0,0.0,0.0,0.0,-1.61,0.0271728515625,0.0,0.0,0.0,0.0,0.0,0.0,4.504,0.0,0.0,0.0
7,0.0,0.0,0.0,0.010646484375,0.0,0.0,0.0,0.0,0.0,0.0,0.329,0.0,0.0,0.0,0.0,0.0,-1.61,0.030646484374999998,0.0,0.0,0.0,0.0,0.0,0.0,4.48,0.0,0.0,0.0
8,0.0,0.0,0.0,0.0141298828125,0.0,0.0,0.0,0.0,0.0,0.0,0.345,0.0,0.0,0.0,0.0,0.0,-1.61,0.0341298828125,0.0,0.0,0.0,0.0,0.0,0.0,2.56,0.0,0.0,0.0
9,0.0,0.0,0.0,0.0181806640625,0.0,0.0,0.0,0.0,0.0,0.0,0.375,0.0,0.0,0.0,0.0,0.0,-1.61,0.0381806640625,0.0,0.0,0.0,0.0,0.0,0.0,0.708,0.0,0.0,0.0
10,0.0,0.0,0.0,0.021943359375,0.0,0.0,0.0,0.0,0.0,0.0,0.397,0.0,0.0,0.0,0.0,0.0,-1.61,0.041943359375,0.0,0.0,0.0,0.0,0.0,0.0,0.02,0.0,0.0,0.0
11,0.0,0.0,0.0,0.0255712890625,0.0,0.0,0.0,0.0,0.0,0.0,0.374,0.0,0.0,0.0,0.0,0.0,-1.61,0.0455712890625,0.0,0.0,0.0,0.0,0.0,0.0,1.484,0.0,0.0,0.0
12,0.0,0.0,0.0,0.029767578125,0.0,0.0,0.0,0.0,0.0,0.0,0.383,0.0,0.0,0.0,0.0,0.0,-1.61,0.049767578125,0.0,0.0,0.0,0.0,0.0,0.0,2.264,0.0,0.0,0.0
13,0.0,0.0,0.0,0.0339716796875,0.0,0.0,0.0,0.0,0.0,0.0,0.418,0.0,0.0,0.0,0.0,0.0,-1.61,0.053971679687499996,0.0,0.0,0.0,0.0,0.0,0.0,2.744,0.0,0.0,0.0
14,0.0,0.0,0.0,0.0380322265625,0.0,0.0,0.0,0.0,0.0,0.0,0.421,0.0,0.0,0.0,0.0,0.0,-1.61,0.0580322265625,0.0,0.0,0.0,0.0,0.0,0.0,2.4,0.0,0.0,0.0
15,0.0,0.0,0.0,0.042228515625,0.0,0.0,0.0,0.0,0.0,0.0,0.415,0.0,0.0,0.0,0.0,0.0,-1.61,0.062228515624999994,0.0,0.0,0.0,0.0,0.0,0.0,2.584,0.0,0.0,0.0
16,0.0,0.0,0.0,0.046568359375,0.0,0.0,0.0,0.0,0.0,0.0,0.425,0.0,0.0,0.0,0.0,0.0,-1.61,0.066568359375,0.0,0.0,0.0,0.0,0.0,0.0,1.736,0.0,0.0,0.0
17,0.0,0.0,0.0,0.05062890625,0.0,0.0,0.0,0.0,0.0,0.0,0.419,0.0,0.0,0.0,0.0,0.0,-1.61,0.07062890625,0.0,0.0,0.0,0.0,0.0,0.0,1.484,0.0,0.0,0.0
18,0.0,0.0,0.0,0.055123046875,0.0,0.0,0.0,0.0,0.0,0.0,0.428,0.0,0.0,0.0,0.0,0.0,-1.61,0.075123046875,0.0,0.0,0.0,0.0,0.0,0.0,1.416,0.0,0.0,0.0
19,0.0,0.0,0.0,0.059328125,0.0,0.0,0.0,0.0,0.0,0.0,0.446,0.0,0.0,0.0,0.0,0.0,-1.61,0.079328125,0.0,0.0,0.0,0.0,0.0,0.0,0.844,0.0,0.0,0.0
20,0.0,0.0,0.0,0.06395703125,0.0,0.0,0.0,0.0,0.0,0.0,0.434,0.0,0.0,0.0,0.0,0.0,-1.61,0.08395703125000001,0.0,0.0,0.0,0.0,0.0,0.0,2.536,0.0,0.0,0.0
21,0.0,0.0,0.0,0.0690283203125,0.0,0.0,0.0,0.0,0.0,0.0,0.491,0.0,0.0,0.0,0.0,0.0,-1.61,0.0890283203125,0.0,0.0,0.0,0.0,0.0,0.0,2.536,0.0,0.0,0.0
22,0.0,0.0,0.0,0.0733681640625,0.0,0.0,0.0,0.0,0.0,0.0,0.479,0.0,0.0,0.0,0.0,0.0,-1.61,0.09336816406250001,0.0,0.0,0.0,0.0,0.0,0.0,1.552,0.0,0.0,0.0
23,0.0,0.0,0.0,0.07787109375,0.0,0.0,0.0,0.0,0.0,0.0,0.428,0.0,0.0,0.0,0.0,0.0,-1.61,0.09787109375,0.0,0.0,0.0,0.0,0.0,0.0,0.82,0.0,0.0,0.0
24,0.0,0.0,0.0,0.08351953125,0.0,0.0,0.0,0.0,0.0,0.0,0.505,0.0,0.0,0.0,0.0,0.0,-1.61,0.10351953125,0.0,0.0,0.0,0.0,0.0,0.0,-0.068,0.0,0.0,0.0
25,0.0,0.0,0.0,0.0887265625,0.0,0.0,0.0,0.0,0.0,0.0,0.561,0.0,0.0,0.0,0.0,0.0,-1.61,0.1087265625,0.0,0.0,0.0,0.0,0.0,0.0,-0.912,0.0,0.0,0.0
26,0.0,0.0,0.0,0.0935087890625,0.0,0.0,0.0,0.0,0.0,0.0,0.497,0.0,0.0,0.0,0.0,0.0,-1.61,0.1135087890625,0.0,0.0,0.0,0.0,0.0,0.0,0.228,0.0,0.0,0.0
27,0.0,0.0,0.0,0.0988779296875,0.0,0.0,0.0,0.0,0.0,0.0,0.514,0.0,0.0,0.0,0.0,0.0,-1.61,0.11887792968750001,0.0,0.0,0.0,0.0,0.0,0.0,-0.524,0.0,0.0,0.0
28,0.0,0.0,0.0,0.103353515625,0.0,0.0,0.0,0.0,0.0,0.0,0.5,0.0,0.0,0.0,0.0,0.0,-1.61,0.12335351562500001,0.0,0.0,0.0,0.0,0.0,0.0,-0.936,0.0,0.0,0.0
29,0.0,0.0,0.0,0.1082802734375,0.0,0.0,0.0,0.0,0.0,0.0,0.452,0.0,0.0,0.0,0.0,0.0,-1.61,0.1282802734375,0.0,0.0,0.0,0.0,0.0,0.0,1.348,0.0,0.0,0.0
30,0.0,0.0,0.0,0.1139287109375,0.0,0.0,0.0,0.0,0.0,0.0,0.53,0.0,0.0,0.0,0.0,0.0,-1.61,0.1339287109375,0.0,0.0,0.0,0.0,0.0,0.0,1.164,0.0,0.0,0.0
31,0.0,0.0,0.0,0.1194326171875,0.0,0.0,0.0,0.0,0.0,0.0,0.568,0.0,0.0,0.0,0.0,0.0,-1.61,0.1394326171875,0.0,0.0,0.0,0.0,0.0,0.0,1.028,0.0,0.0,0.0
32,0.0,0.0,0.0,0.1252255859375,0.0,0.0,0.0,0.0,0.0,0.0,0.556,0.0,0.0,0.0,0.0,0.0,-1.61,0.14522558593749998,0.0,0.0,0.0,0.0,0.0,0.0,0.96,0.0,0.0,0.0
33,0.0,0.0,0.0,0.1313076171875,0.0,0.0,0.0,0.0,0.0,0.0,0.604,0.0,0.0,0.0,0.0,0.0,-1.61,0.1513076171875,0.0,0.0,0.0,0.0,0.0,0.0,-0.5,0.0,0.0,0.0
34,0.0,0.0,0.0,0.1362431640625,0.0,0.0,0.0,0.0,0.0,0.0,0.57,0.0,0.0,0.0,0.0,0.0,-1.61,0.1562431640625,0.0,0.0,0.0,0.0,0.0,0.0,-1.14,0.0,0.0,0.0
35,0.0,0.0,0.0,0.141314453125,0.0,0.0,0.0,0.0,0.0,0.0,0.491,0.0,0.0,0.0,0.0,0.0,-1.61,0.16131445312499998,0.0,0.0,0.0,0.0,0.0,0.0,-0.5,0.0,0.0,0.0
36,0.0,0.0,0.0,0.1470986328125,0.0,0.0,0.0,0.0,0.0,0.0,0.535,0.0,0.0,0.0,0.0,0.0,-1.61,0.16709863281249998,0.0,0.0,0.0,0.0,0.0,0.0,-0.364,0.0,0.0,0.0
37,0.0,0.0,0.0,0.1527470703125,0.0,0.0,0.0,0.0,0.0,0.0,0.585,0.0,0.0,0.0,0.0,0.0,-1.61,0.1727470703125,0.0,0.0,0.0,0.0,0.0,0.0,0.044,0.0,0.0,0.0
38,0.0,0.0,0.0,0.1585498046875,0.0,0.0,0.0,0.0,0.0,0.0,0.573,0.0,0.0,0.0,0.0,0.0,-1.61,0.17854980468749998,0.0,0.0,0.0,0.0,0.0,0.0,0.592,0.0,0.0,0.0
39,0.0,0.0,0.0,0.164919921875,0.0,0.0,0.0,0.0,0.0,0.0,0.607,0.0,0.0,0.0,0.0,0.0,-1.61,0.18491992187499998,0.0,0.0,0.0,0.0,0.0,0.0,0.068,0.0,0.0,0.0
40,0.0,0.0,0.0,0.170857421875,0.0,0.0,0.0,0.0,0.0,0.0,0.627,0.0,0.0,0.0,0.0,0.0,-1.61,0.190857421875,0.0,0.0,0.0,0.0,0.0,0.0,-0.16,0.0,0.0,0.0
41,0.0,0.0,0.0,0.1766591796875,0.0,0.0,0.0,0.0,0.0,0.0,0.588,0.0,0.0,0.0,0.0,0.0,-1.61,0.1966591796875,0.0,0.0,0.0,0.0,0.0,0.0,0.204,0.0,0.0,0.0
42,0.0,0.0,0.0,0.1825966796875,0.0,0.0,0.0,0.0,0.0,0.0,0.592,0.0,0.0,0.0,0.0,0.0,-1.61,0.2025966796875,0.0,0.0,0.0,0.0,0.0,0.0,-0.82,0.0,0.0,0.0
43,0.0,0.0,0.0,0.1875234375,0.0,0.0,0.0,0.0,0.0,0.0,0.557,0.0,0.0,0.0,0.0,0.0,-1.61,0.2075234375,0.0,0.0,0.0,0.0,0.0,0.0,-1.212,0.0,0.0,0.0
44,0.0,0.0,0.0,0.19273046875,0.0,0.0,0.0,0.0,0.0,0.0,0.504,0.0,0.0,0.0,0.0,0.0,-1.61,0.21273046874999998,0.0,0.0,0.0,0.0,0.0,0.0,-0.02,0.0,0.0,0.0
45,0.0,0.0,0.0,0.1982431640625,0.0,0.0,0.0,0.0,0.0,0.0,0.536,0.0,0.0,0.0,0.0,0.0,-1.61,0.2182431640625,0.0,0.0,0.0,0.0,0.0,0.0,0.524,0.0,0.0,0.0
46,0.0,0.0,0.0,0.203025390625,0.0,0.0,0.0,0.0,0.0,0.0,0.525,0.0,0.0,0.0,0.0,0.0,-1.61,0.223025390625,0.0,0.0,0.0,0.0,0.0,0.0,0.82,0.0,0.0,0.0
47,0.0,0.0,0.0,0.208521484375,0.0,0.0,0.0,0.0,0.0,0.0,0.507,0.0,0.0,0.0,0.0,0.0,-1.61,0.228521484375,0.0,0.0,0.0,0.0,0.0,0.0,1.072,0.0,0.0,0.0
48,0.0,0.0,0.0,0.214755859375,0.0,0.0,0.0,0.0,0.0,0.0,0.579,0.0,0.0,0.0,0.0,0.0,-1.61,0.234755859375,0.0,0.0,0.0,0.0,0.0,0.0,0.456,0.0,0.0,0.0
49,0.0,0.0,0.0,0.220693359375,0.0,0.0,0.0,0.0,0.0,0.0,0.622,0.0,0.0,0.0,0.0,0.0,-1.61,0.240693359375,0.0,0.0,0.0,0.0,0.0,0.0,-0.844,0.0,0.0,0.0
50,0.0,0.0,0.0,0.226630859375,0.0,0.0,0.0,0.0,0.0,0.0,0.599,0.0,0.0,0.0,0.0,0.0,-1.61,0.24663085937499998,0.0,0.0,0.0,0.0,0.0,0.0,-0.592,0.0,0.0,0.0
51,0.0,0.0,0.0,0.2321357421875,0.0,0.0,0.0,0.0,0.0,0.0,0.589,0.0,0.0,0.0,0.0,0.0,-1.61,0.2521357421875,0.0,0.0,0.0,0.0,0.0,0.0,-1.804,0.0,0.0,0.0
52,0.0,0.0,0.0,0.236349609375,0.0,0.0,0.0,0.0,0.0,0.0,0.499,0.0,0.0,0.0,0.0,0.0,-1.61,0.256349609375,0.0,0.0,0.0,0.0,0.0,0.0,-1.76,0.0,0.0,0.0
53,0.0,0.0,0.0,0.240978515625,0.0,0.0,0.0,0.0,0.0,0.0,0.428,0.0,0.0,0.0,0.0,0.0,-1.61,0.260978515625,0.0,0.0,0.0,0.0,0.0,0.0,0.408,0.0,0.0,0.0
54,0.0,0.0,0.0,0.2460498046875,0.0,0.0,0.0,0.0,0.0,0.0,0.494,0.0,0.0,0.0,0.0,0.0,-1.61,0.2660498046875,0.0,0.0,0.0,0.0,0.0,0.0,1.232,0.0,0.0,0.0
55,0.0,0.0,0.0,0.2508232421875,0.0,0.0,0.0,0.0,0.0,0.0,0.491,0.0,0.0,0.0,0.0,0.0,-1.61,0.27082324218750004,0.0,0.0,0.0,0.0,0.0,0.0,1.576,0.0,0.0,0.0
56,0.0,0.0,0.0,0.2560478515625,0.0,0.0,0.0,0.0,0.0,0.0,0.494,0.0,0.0,0.0,0.0,0.0,-1.61,0.2760478515625,0.0,0.0,0.0,0.0,0.0,0.0,1.872,0.0,0.0,0.0
57,0.0,0.0,0.0,0.261984375,0.0,0.0,0.0,0.0,0.0,0.0,0.557,0.0,0.0,0.0,0.0,0.0,-1.61,0.281984375,0.0,0.0,0.0,0.0,0.0,0.0,0.708,0.0,0.0,0.0
58,0.0,0.0,0.0,0.2674892578125,0.0,0.0,0.0,0.0,0.0,0.0,0.578,0.0,0.0,0.0,0.0,0.0,-1.61,0.2874892578125,0.0,0.0,0.0,0.0,0.0,0.0,-0.136,0.0,0.0,0.0
59,0.0,0.0,0.0,0.27312890625,0.0,0.0,0.0,0.0,0.0,0.0,0.559,0.0,0.0,0.0,0.0,0.0,-1.61,0.29312890625000004,0.0,0.0,0.0,0.0,0.0,0.0,-0.16,0.0,0.0,0.0
60,0.0,0.0,0.0,0.2789306640625,0.0,0.0,0.0,0.0,0.0,0.0,0.581,0.0,0.0,0.0,0.0,0.0,-1.61,0.2989306640625,0.0,0.0,0.0,0.0,0.0,0.0,-1.392,0.0,0.0,0.0
61,0.0,0.0,0.0,0.283857421875,0.0,0.0,0.0,0.0,0.0,0.0,0.541,0.0,0.0,0.0,0.0,0.0,-1.61,0.30385742187500003,0.0,0.0,0.0,0.0,0.0,0.0,-1.576,0.0,0.0,0.0
62,0.0,0.0,0.0,0.2892177734375,0.0,0.0,0.0,0.0,0.0,0.0,0.509,0.0,0.0,0.0,0.0,0.0,-1.61,0.3092177734375,0.0,0.0,0.0,0.0,0.0,0.0,0.112,0.0,0.0,0.0
63,0.0,0.0,0.0,0.2942890625,0.0,0.0,0.0,0.0,0.0,0.0,0.538,0.0,0.0,0.0,0.0,0.0,-1.61,0.3142890625,0.0,0.0,0.0,0.0,0.0,0.0,1.052,0.0,0.0,0.0
64,0.0,0.0,0.0,0.299359375,0.0,0.0,0.0,0.0,0.0,0.0,0.51,0.0,0.0,0.0,0.0,0.0,-1.61,0.319359375,0.0,0.0,0.0,0.0,0.0,0.0,2.056,0.0,0.0,0.0
65,0.0,0.0,0.0,0.3048642578125,0.0,0.0,0.0,0.0,0.0,0.0,0.522,0.0,0.0,0.0,0.0,0.0,-1.61,0.3248642578125,0.0,0.0,0.0,0.0,0.0,0.0,1.964,0.0,0.0,0.0
66,0.0,0.0,0.0,0.3108017578125,0.0,0.0,0.0,0.0,0.0,0.0,0.571,0.0,0.0,0.0,0.0,0.0,-1.61,0.33080175781250004,0.0,0.0,0.0,0.0,0.0,0.0,1.096,0.0,0.0,0.0
67,0.0,0.0,0.0,0.3165947265625,0.0,0.0,0.0,0.0,0.0,0.0,0.601,0.0,0.0,0.0,0.0,0.0,-1.61,0.3365947265625,0.0,0.0,0.0,0.0,0.0,0.0,-0.272,0.0,0.0,0.0
68,0.0,0.0,0.0,0.3222431640625,0.0,0.0,0.0,0.0,0.0,0.0,0.572,0.0,0.0,0.0,0.0,0.0,-1.61,0.3422431640625,0.0,0.0,0.0,0.0,0.0,0.0,-0.088,0.0,0.0,0.0
69,0.0,0.0,0.0,0.3277470703125,0.0,0.0,0.0,0.0,0.0,0.0,0.56,0.0,0.0,0.0,0.0,0.0,-1.61,0.3477470703125,0.0,0.0,0.0,0.0,0.0,0.0,-0.432,0.0,0.0,0.0
70,0.0,0.0,0.0,0.332828125,0.0,0.0,0.0,0.0,0.0,0.0,0.535,0.0,0.0,0.0,0.0,0.0,-1.61,0.352828125,0.0,0.0,0.0,0.0,0.0,0.0,-0.64,0.0,0.0,0.0
71,0.0,0.0,0.0,0.3377451171875,0.0,0.0,0.0,0.0,0.0,0.0,0.502,0.0,0.0,0.0,0.0,0.0,-1.61,0.3577451171875,0.0,0.0,0.0,0.0,0.0,0.0,0.044,0.0,0.0,0.0
72,0.0,0.0,0.0,0.34325,0.0,0.0,0.0,0.0,0.0,0.0,0.52,0.0,0.0,0.0,0.0,0.0,-1.61,0.36325,0.0,0.0,0.0,0.0,0.0,0.0,0.568,0.0,0.0,0.0
73,0.0,0.0,0.0,0.34875390625,0.0,0.0,0.0,0.0,0.0,0.0,0.558,0.0,0.0,0.0,0.0,0.0,-1.61,0.36875390625000004,0.0,0.0,0.0,0.0,0.0,0.0,0.728,0.0,0.0,0.0
74,0.0,0.0,0.0,0.3545556640625,0.0,0.0,0.0,0.0,0.0,0.0,0.558,0.0,0.0,0.0,0.0,0.0,-1.61,0.3745556640625,0.0,0.0,0.0,0.0,0.0,0.0,1.072,0.0,0.0,0.0
75,0.0,0.0,0.0,0.36033984375,0.0,0.0,0.0,0.0,0.0,0.0,0.584,0.0,0.0,0.0,0.0,0.0,-1.61,0.38033984375,0.0,0.0,0.0,0.0,0.0,0.0,0.684,0.0,0.0,0.0
76,0.0,0.0,0.0,0.36627734375,0.0,0.0,0.0,0.0,0.0,0.0,0.592,0.0,0.0,0.0,0.0,0.0,-1.61,0.38627734375,0.0,0.0,0.0,0.0,0.0,0.0,0.112,0.0,0.0,0.0
77,0.0,0.0,0.0,0.371935546875,0.0,0.0,0.0,0.0,0.0,0.0,0.589,0.0,0.0,0.0,0.0,0.0,-1.61,0.39193554687500004,0.0,0.0,0.0,0.0,0.0,0.0,-0.16,0.0,0.0,0.0
78,0.0,0.0,0.0,0.377583984375,0.0,0.0,0.0,0.0,0.0,0.0,0.566,0.0,0.0,0.0,0.0,0.0,-1.61,0.39758398437500003,0.0,0.0,0.0,0.0,0.0,0.0,-0.524,0.0,0.0,0.0
79,0.0,0.0,0.0,0.382943359375,0.0,0.0,0.0,0.0,0.0,0.0,0.557,0.0,0.0,0.0,0.0,0.0,-1.61,0.40294335937500003,0.0,0.0,0.0,0.0,0.0,0.0,-0.388,0.0,0.0,0.0
80,0.0,0.0,0.0,0.387861328125,0.0,0.0,0.0,0.0,0.0,0.0,0.517,0.0,0.0,0.0,0.0,0.0,-1.61,0.40786132812500003,0.0,0.0,0.0,0.0,0.0,0.0,0.02,0.0,0.0,0.0
81,0.0,0.0,0.0,0.3930859375,0.0,0.0,0.0,0.0,0.0,0.0,0.507,0.0,0.0,0.0,0.0,0.0,-1.61,0.4130859375,0.0,0.0,0.0,0.0,0.0,0.0,0.296,0.0,0.0,0.0
82,0.0,0.0,0.0,0.39829296875,0.0,0.0,0.0,0.0,0.0,0.0,0.529,0.0,0.0,0.0,0.0,0.0,-1.61,0.41829296875,0.0,0.0,0.0,0.0,0.0,0.0,0.136,0.0,0.0,0.0
83,0.0,0.0,0.0,0.403796875,0.0,0.0,0.0,0.0,0.0,0.0,0.532,0.0,0.0,0.0,0.0,0.0,-1.61,0.423796875,0.0,0.0,0.0,0.0,0.0,0.0,0.432,0.0,0.0,0.0
84,0.0,0.0,0.0,0.4095986328125,0.0,0.0,0.0,0.0,0.0,0.0,0.566,0.0,0.0,0.0,0.0,0.0,-1.61,0.4295986328125,0.0,0.0,0.0,0.0,0.0,0.0,-0.088,0.0,0.0,0.0
85,0.0,0.0,0.0,0.4153916015625,0.0,0.0,0.0,0.0,0.0,0.0,0.583,0.0,0.0,0.0,0.0,0.0,-1.61,0.4353916015625,0.0,0.0,0.0,0.0,0.0,0.0,-0.728,0.0,0.0,0.0
86,0.0,0.0,0.0,0.4205986328125,0.0,0.0,0.0,0.0,0.0,0.0,0.558,0.0,0.0,0.0,0.0,0.0,-1.61,0.4405986328125,0.0,0.0,0.0,0.0,0.0,0.0,-1.188,0.0,0.0,0.0
87,0.0,0.0,0.0,0.4259580078125,0.0,0.0,0.0,0.0,0.0,0.0,0.523,0.0,0.0,0.0,0.0,0.0,-1.61,0.4459580078125,0.0,0.0,0.0,0.0,0.0,0.0,-0.18,0.0,0.0,0.0
88,0.0,0.0,0.0,0.4313271484375,0.0,0.0,0.0,0.0,0.0,0.0,0.548,0.0,0.0,0.0,0.0,0.0,-1.61,0.4513271484375,0.0,0.0,0.0,0.0,0.0,0.0,0.408,0.0,0.0,0.0
89,0.0,0.0,0.0,0.4365341796875,0.0,0.0,0.0,0.0,0.0,0.0,0.532,0.0,0.0,0.0,0.0,0.0,-1.61,0.45653417968750004,0.0,0.0,0.0,0.0,0.0,0.0,0.912,0.0,0.0,0.0
90,0.0,0.0,0.0,0.4420380859375,0.0,0.0,0.0,0.0,0.0,0.0,0.532,0.0,0.0,0.0,0.0,0.0,-1.61,0.4620380859375,0.0,0.0,0.0,0.0,0.0,0.0,1.212,0.0,0.0,0.0
91,0.0,0.0,0.0,0.44725390625,0.0,0.0,0.0,0.0,0.0,0.0,0.545,0.0,0.0,0.0,0.0,0.0,-1.61,0.46725390625,0.0,0.0,0.0,0.0,0.0,0.0,0.432,0.0,0.0,0.0
92,0.0,0.0,0.0,0.452171875,0.0,0.0,0.0,0.0,0.0,0.0,0.511,0.0,0.0,0.0,0.0,0.0,-1.61,0.472171875,0.0,0.0,0.0,0.0,0.0,0.0,-0.364,0.0,0.0,0.0
93,0.0,0.0,0.0,0.45738671875,0.0,0.0,0.0,0.0,0.0,0.0,0.504,0.0,0.0,0.0,0.0,0.0,-1.61,0.47738671875,0.0,0.0,0.0,0.0,0.0,0.0,-0.088,0.0,0.0,0.0
94,0.0,0.0,0.0,0.4628818359375,0.0,0.0,0.0,0.0,0.0,0.0,0.545,0.0,0.0,0.0,0.0,0.0,-1.61,0.4828818359375,0.0,0.0,0.0,0.0,0.0,0.0,-0.388,0.0,0.0,0.0
95,0.0,0.0,0.0,0.467818359375,0.0,0.0,0.0,0.0,0.0,0.0,0.524,0.0,0.0,0.0,0.0,0.0,-1.61,0.487818359375,0.0,0.0,0.0,0.0,0.0,0.0,-0.844,0.0,0.0,0.0
96,0.0,0.0,0.0,0.473177734375,0.0,0.0,0.0,0.0,0.0,0.0,0.509,0.0,0.0,0.0,0.0,0.0,-1.61,0.493177734375,0.0,0.0,0.0,0.0,0.0,0.0,-0.408,0.0,0.0,0.0
97,0.0,0.0,0.0,0.4786728515625,0.0,0.0,0.0,0.0,0.0,0.0,0.545,0.0,0.0,0.0,0.0,0.0,-1.61,0.4986728515625,0.0,0.0,0.0,0.0,0.0,0.0,0.5,0.0,0.0,0.0
98,0.0,0.0,0.0,0.483888671875,0.0,0.0,0.0,0.0,0.0,0.0,0.542,0.0,0.0,0.0,0.0,0.0,-1.61,0.503888671875,0.0,0.0,0.0,0.0,0.0,0.0,1.532,0.0,0.0,0.0
99,0.0,0.0,0.0,0.4892490234375,0.0,0.0,0.0,0.0,0.0,0.0,0.532,0.0,0.0,0.0,0.0,0.0,-1.61,0.5092490234375,0.0,0.0,0.0,0.0,0.0,0.0,1.416,0.0,0.0,0.0
100,0.0,0.0,0.0,0.4948974609375,0.0,0.0,0.0,0.0,0.0,0.0,0.55,0.0,0.0,0.0,0.0,0.0,-1.61,0.5148974609375,0.0,0.0,0.0,0.0,0.0,0.0,1.12,0.0,0.0,0.0
101,0.0,0.0,0.0,0.5006904296875,0.0,0.0,0.0,0.0,0.0,0.0,0.573,0.0,0.0,0.0,0.0,0.0,-1.61,0.5206904296875,0.0,0.0,0.0,0.0,0.0,0.0,0.272,0.0,0.0,0.0
102,0.0,0.0,0.0,0.5062041015625,0.0,0.0,0.0,0.0,0.0,0.0,0.57,0.0,0.0,0.0,0.0,0.0,-1.61,0.5262041015625,0.0,0.0,0.0,0.0,0.0,0.0,0.088,0.0,0.0,0.0
103,0.0,0.0,0.0,0.51169921875,0.0,0.0,0.0,0.0,0.0,0.0,0.559,0.0,0.0,0.0,0.0,0.0,-1.61,0.53169921875,0.0,0.0,0.0,0.0,0.0,0.0,0.02,0.0,0.0,0.0
104,0.0,0.0,0.0,0.51705859375,0.0,0.0,0.0,0.0,0.0,0.0,0.546,0.0,0.0,0.0,0.0,0.0,-1.61,0.53705859375,0.0,0.0,0.0,0.0,0.0,0.0,0.204,0.0,0.0,0.0
105,0.0,0.0,0.0,0.52212109375,0.0,0.0,0.0,0.0,0.0,0.0,0.527,0.0,0.0,0.0,0.0,0.0,-1.61,0.5421210937500001,0.0,0.0,0.0,0.0,0.0,0.0,-0.408,0.0,0.0,0.0
106,0.0,0.0,0.0,0.527056640625,0.0,0.0,0.0,0.0,0.0,0.0,0.498,0.0,0.0,0.0,0.0,0.0,-1.61,0.547056640625,0.0,0.0,0.0,0.0,0.0,0.0,-0.592,0.0,0.0,0.0
107,0.0,0.0,0.0,0.5325615234375,0.0,0.0,0.0,0.0,0.0,0.0,0.52,0.0,0.0,0.0,0.0,0.0,-1.61,0.5525615234375,0.0,0.0,0.0,0.0,0.0,0.0,-0.136,0.0,0.0,0.0
108,0.0,0.0,0.0,0.537912109375,0.0,0.0,0.0,0.0,0.0,0.0,0.552,0.0,0.0,0.0,0.0,0.0,-1.61,0.557912109375,0.0,0.0,0.0,0.0,0.0,0.0,0.616,0.0,0.0,0.0
109,0.0,0.0,0.0,0.5434248046875,0.0,0.0,0.0,0.0,0.0,0.0,0.546,0.0,0.0,0.0,0.0,0.0,-1.61,0.5634248046875,0.0,0.0,0.0,0.0,0.0,0.0,1.212,0.0,0.0,0.0
110,0.0,0.0,0.0,0.5489208984375,0.0,0.0,0.0,0.0,0.0,0.0,0.556,0.0,0.0,0.0,0.0,0.0,-1.61,0.5689208984375,0.0,0.0,0.0,0.0,0.0,0.0,0.18,0.0,0.0,0.0
111,0.0,0.0,0.0,0.5541357421875,0.0,0.0,0.0,0.0,0.0,0.0,0.54,0.0,0.0,0.0,0.0,0.0,-1.61,0.5741357421875,0.0,0.0,0.0,0.0,0.0,0.0,-0.388,0.0,0.0,0.0
112,0.0,0.0,0.0,0.559640625,0.0,0.0,0.0,0.0,0.0,0.0,0.529,0.0,0.0,0.0,0.0,0.0,-1.61,0.579640625,0.0,0.0,0.0,0.0,0.0,0.0,-0.112,0.0,0.0,0.0
113,0.0,0.0,0.0,0.56514453125,0.0,0.0,0.0,0.0,0.0,0.0,0.56,0.0,0.0,0.0,0.0,0.0,-1.61,0.58514453125,0.0,0.0,0.0,0.0,0.0,0.0,0.0,0.0,0.0,0.0
114,0.0,0.0,0.0,0.5705048828125,0.0,0.0,0.0,0.0,0.0,0.0,0.545,0.0,0.0,0.0,0.0,0.0,-1.61,0.5905048828125,0.0,0.0,0.0,0.0,0.0,0.0,0.66,0.0,0.0,0.0
115,0.0,0.0,0.0,0.57585546875,0.0,0.0,0.0,0.0,0.0,0.0,0.545,0.0,0.0,0.0,0.0,0.0,-1.61,0.5958554687500001,0.0,0.0,0.0,0.0,0.0,0.0,0.088,0.0,0.0,0.0
116,0.0,0.0,0.0,0.5810712890625,0.0,0.0,0.0,0.0,0.0,0.0,0.522,0.0,0.0,0.0,0.0,0.0,-1.61,0.6010712890625001,0.0,0.0,0.0,0.0,0.0,0.0,0.112,0.0,0.0,0.0
117,0.0,0.0,0.0,0.5867197265625,0.0,0.0,0.0,0.0,0.0,0.0,0.544,0.0,0.0,0.0,0.0,0.0,-1.61,0.6067197265625001,0.0,0.0,0.0,0.0,0.0,0.0,0.18,0.0,0.0,0.0
118,0.0,0.0,0.0,0.5922236328125,0.0,0.0,0.0,0.0,0.0,0.0,0.568,0.0,0.0,0.0,0.0,0.0,-1.61,0.6122236328125,0.0,0.0,0.0,0.0,0.0,0.0,-0.18,0.0,0.0,0.0
119,0.0,0.0,0.0,0.597439453125,0.0,0.0,0.0,0.0,0.0,0.0,0.535,0.0,0.0,0.0,0.0,0.0,-1.61,0.617439453125,0.0,0.0,0.0,0.0,0.0,0.0,-0.48,0.0,0.0,0.0
120,0.0,0.0,0.0,0.603232421875,0.0,0.0,0.0,0.0,0.0,0.0,0.553,0.0,0.0,0.0,0.0,0.0,-1.61,0.623232421875,0.0,0.0,0.0,0.0,0.0,0.0,-0.044,0.0,0.0,0.0
121,0.0,0.0,0.0,0.608736328125,0.0,0.0,0.0,0.0,0.0,0.0,0.57,0.0,0.0,0.0,0.0,0.0,-1.61,0.628736328125,0.0,0.0,0.0,0.0,0.0,0.0,0.088,0.0,0.0,0.0
122,0.0,0.0,0.0,0.613943359375,0.0,0.0,0.0,0.0,0.0,0.0,0.54,0.0,0.0,0.0,0.0,0.0,-1.61,0.633943359375,0.0,0.0,0.0,0.0,0.0,0.0,0.524,0.0,0.0,0.0
123,0.0,0.0,0.0,0.619447265625,0.0,0.0,0.0,0.0,0.0,0.0,0.536,0.0,0.0,0.0,0.0,0.0,-1.61,0.639447265625,0.0,0.0,0.0,0.0,0.0,0.0,0.844,0.0,0.0,0.0
124,0.0,0.0,0.0,0.6246630859375,0.0,0.0,0.0,0.0,0.0,0.0,0.546,0.0,0.0,0.0,0.0,0.0,-1.61,0.6446630859375,0.0,0.0,0.0,0.0,0.0,0.0,0.64,0.0,0.0,0.0
125,0.0,0.0,0.0,0.62987890625,0.0,0.0,0.0,0.0,0.0,0.0,0.517,0.0,0.0,0.0,0.0,0.0,-1.61,0.64987890625,0.0,0.0,0.0,0.0,0.0,0.0,0.8,0.0,0.0,0.0
126,0.0,0.0,0.0,0.6355185546875,0.0,0.0,0.0,0.0,0.0,0.0,0.544,0.0,0.0,0.0,0.0,0.0,-1.61,0.6555185546875,0.0,0.0,0.0,0.0,0.0,0.0,0.408,0.0,0.0,0.0
127,0.0,0.0,0.0,0.6405986328125,0.0,0.0,0.0,0.0,0.0,0.0,0.552,0.0,0.0,0.0,0.0,0.0,-1.61,0.6605986328125,0.0,0.0,0.0,0.0,0.0,0.0,-0.48,0.0,0.0,0.0
128,0.0,0.0,0.0,0.6453720703125,0.0,0.0,0.0,0.0,0.0,0.0,0.492,0.0,0.0,0.0,0.0,0.0,-1.61,0.6653720703125,0.0,0.0,0.0,0.0,0.0,0.0,-1.052,0.0,0.0,0.0
129,0.0,0.0,0.0,0.6507314453125,0.0,0.0,0.0,0.0,0.0,0.0,0.503,0.0,0.0,0.0,0.0,0.0,-1.61,0.6707314453125001,0.0,0.0,0.0,0.0,0.0,0.0,-0.568,0.0,0.0,0.0
130,0.0,0.0,0.0,0.6559384765625,0.0,0.0,0.0,0.0,0.0,0.0,0.54,0.0,0.0,0.0,0.0,0.0,-1.61,0.6759384765625001,0.0,0.0,0.0,0.0,0.0,0.0,-0.136,0.0,0.0,0.0
131,0.0,0.0,0.0,0.6613076171875,0.0,0.0,0.0,0.0,0.0,0.0,0.525,0.0,0.0,0.0,0.0,0.0,-1.61,0.6813076171875,0.0,0.0,0.0,0.0,0.0,0.0,0.844,0.0,0.0,0.0
132,0.0,0.0,0.0,0.666947265625,0.0,0.0,0.0,0.0,0.0,0.0,0.557,0.0,0.0,0.0,0.0,0.0,-1.61,0.686947265625,0.0,0.0,0.0,0.0,0.0,0.0,0.844,0.0,0.0,0.0
133,0.0,0.0,0.0,0.672451171875,0.0,0.0,0.0,0.0,0.0,0.0,0.558,0.0,0.0,0.0,0.0,0.0,-1.61,0.692451171875,0.0,0.0,0.0,0.0,0.0,0.0,1.14,0.0,0.0,0.0
134,0.0,0.0,0.0,0.6778017578125,0.0,0.0,0.0,0.0,0.0,0.0,0.545,0.0,0.0,0.0,0.0,0.0,-1.61,0.6978017578125,0.0,0.0,0.0,0.0,0.0,0.0,0.204,0.0,0.0,0.0
135,0.0,0.0,0.0,0.6831708984375,0.0,0.0,0.0,0.0,0.0,0.0,0.543,0.0,0.0,0.0,0.0,0.0,-1.61,0.7031708984375,0.0,0.0,0.0,0.0,0.0,0.0,-0.48,0.0,0.0,0.0
136,0.0,0.0,0.0,0.688666015625,0.0,0.0,0.0,0.0,0.0,0.0,0.543,0.0,0.0,0.0,0.0,0.0,-1.61,0.708666015625,0.0,0.0,0.0,0.0,0.0,0.0,-0.228,0.0,0.0,0.0
137,0.0,0.0,0.0,0.6938818359375,0.0,0.0,0.0,0.0,0.0,0.0,0.546,0.0,0.0,0.0,0.0,0.0,-1.61,0.7138818359375,0.0,0.0,0.0,0.0,0.0,0.0,-0.136,0.0,0.0,0.0
138,0.0,0.0,0.0,0.698953125,0.0,0.0,0.0,0.0,0.0,0.0,0.518,0.0,0.0,0.0,0.0,0.0,-1.61,0.718953125,0.0,0.0,0.0,0.0,0.0,0.0,-0.044,0.0,0.0,0.0
139,0.0,0.0,0.0,0.7041591796875,0.0,0.0,0.0,0.0,0.0,0.0,0.513,0.0,0.0,0.0,0.0,0.0,-1.61,0.7241591796875,0.0,0.0,0.0,0.0,0.0,0.0,0.18,0.0,0.0,0.0
140,0.0,0.0,0.0,0.7090859375,0.0,0.0,0.0,0.0,0.0,0.0,0.51,0.0,0.0,0.0,0.0,0.0,-1.61,0.7290859375000001,0.0,0.0,0.0,0.0,0.0,0.0,-0.112,0.0,0.0,0.0
141,0.0,0.0,0.0,0.71429296875,0.0,0.0,0.0,0.0,0.0,0.0,0.507,0.0,0.0,0.0,0.0,0.0,-1.61,0.73429296875,0.0,0.0,0.0,0.0,0.0,0.0,0.408,0.0,0.0,0.0
142,0.0,0.0,0.0,0.719662109375,0.0,0.0,0.0,0.0,0.0,0.0,0.528,0.0,0.0,0.0,0.0,0.0,-1.61,0.739662109375,0.0,0.0,0.0,0.0,0.0,0.0,0.5,0.0,0.0,0.0
143,0.0,0.0,0.0,0.7251572265625,0.0,0.0,0.0,0.0,0.0,0.0,0.552,0.0,0.0,0.0,0.0,0.0,-1.61,0.7451572265625,0.0,0.0,0.0,0.0,0.0,0.0,0.18,0.0,0.0,0.0
144,0.0,0.0,0.0,0.7306611328125,0.0,0.0,0.0,0.0,0.0,0.0,0.553,0.0,0.0,0.0,0.0,0.0,-1.61,0.7506611328125,0.0,0.0,0.0,0.0,0.0,0.0,-0.228,0.0,0.0,0.0
145,0.0,0.0,0.0,0.7358681640625,0.0,0.0,0.0,0.0,0.0,0.0,0.533,0.0,0.0,0.0,0.0,0.0,-1.61,0.7558681640625,0.0,0.0,0.0,0.0,0.0,0.0,0.112,0.0,0.0,0.0
146,0.0,0.0,0.0,0.7410830078125,0.0,0.0,0.0,0.0,0.0,0.0,0.53,0.0,0.0,0.0,0.0,0.0,-1.61,0.7610830078125,0.0,0.0,0.0,0.0,0.0,0.0,0.088,0.0,0.0,0.0
147,0.0,0.0,0.0,0.746298828125,0.0,0.0,0.0,0.0,0.0,0.0,0.52,0.0,0.0,0.0,0.0,0.0,-1.61,0.766298828125,0.0,0.0,0.0,0.0,0.0,0.0,0.5,0.0,0.0,0.0
148,0.0,0.0,0.0,0.7515048828125,0.0,0.0,0.0,0.0,0.0,0.0,0.519,0.0,0.0,0.0,0.0,0.0,-1.61,0.7715048828125001,0.0,0.0,0.0,0.0,0.0,0.0,0.5,0.0,0.0,0.0
149,0.0,0.0,0.0,0.7565673828125,0.0,0.0,0.0,0.0,0.0,0.0,0.52,0.0,0.0,0.0,0.0,0.0,-1.61,0.7765673828125,0.0,0.0,0.0,0.0,0.0,0.0,0.48,0.0,0.0,0.0
150,0.0,0.0,0.0,0.7616474609375,0.0,0.0,0.0,0.0,0.0,0.0,0.516,0.0,0.0,0.0,0.0,0.0,-1.61,0.7816474609375,0.0,0.0,0.0,0.0,0.0,0.0,0.456,0.0,0.0,0.0
151,0.0,0.0,0.0,0.766998046875,0.0,0.0,0.0,0.0,0.0,0.0,0.517,0.0,0.0,0.0,0.0,0.0,-1.61,0.786998046875,0.0,0.0,0.0,0.0,0.0,0.0,0.728,0.0,0.0,0.0
152,0.0,0.0,0.0,0.7726474609375,0.0,0.0,0.0,0.0,0.0,0.0,0.549,0.0,0.0,0.0,0.0,0.0,-1.61,0.7926474609375,0.0,0.0,0.0,0.0,0.0,0.0,0.708,0.0,0.0,0.0
153,0.0,0.0,0.0,0.778287109375,0.0,0.0,0.0,0.0,0.0,0.0,0.563,0.0,0.0,0.0,0.0,0.0,-1.61,0.798287109375,0.0,0.0,0.0,0.0,0.0,0.0,0.592,0.0,0.0,0.0
154,0.0,0.0,0.0,0.783646484375,0.0,0.0,0.0,0.0,0.0,0.0,0.563,0.0,0.0,0.0,0.0,0.0,-1.61,0.803646484375,0.0,0.0,0.0,0.0,0.0,0.0,-0.592,0.0,0.0,0.0
155,0.0,0.0,0.0,0.7890068359375,0.0,0.0,0.0,0.0,0.0,0.0,0.535,0.0,0.0,0.0,0.0,0.0,-1.61,0.8090068359375,0.0,0.0,0.0,0.0,0.0,0.0,-1.072,0.0,0.0,0.0
156,0.0,0.0,0.0,0.794357421875,0.0,0.0,0.0,0.0,0.0,0.0,0.539,0.0,0.0,0.0,0.0,0.0,-1.61,0.814357421875,0.0,0.0,0.0,0.0,0.0,0.0,-0.868,0.0,0.0,0.0
157,0.0,0.0,0.0,0.7995732421875,0.0,0.0,0.0,0.0,0.0,0.0,0.533,0.0,0.0,0.0,0.0,0.0,-1.61,0.8195732421875,0.0,0.0,0.0,0.0,0.0,0.0,0.456,0.0,0.0,0.0
158,0.0,0.0,0.0,0.80464453125,0.0,0.0,0.0,0.0,0.0,0.0,0.517,0.0,0.0,0.0,0.0,0.0,-1.61,0.82464453125,0.0,0.0,0.0,0.0,0.0,0.0,0.776,0.0,0.0,0.0
159,0.0,0.0,0.0,0.8097060546875,0.0,0.0,0.0,0.0,0.0,0.0,0.514,0.0,0.0,0.0,0.0,0.0,-1.61,0.8297060546875,0.0,0.0,0.0,0.0,0.0,0.0,0.34,0.0,0.0,0.0
160,0.0,0.0,0.0,0.8149130859375,0.0,0.0,0.0,0.0,0.0,0.0,0.512,0.0,0.0,0.0,0.0,0.0,-1.61,0.8349130859375,0.0,0.0,0.0,0.0,0.0,0.0,1.028,0.0,0.0,0.0
161,0.0,0.0,0.0,0.8202822265625,0.0,0.0,0.0,0.0,0.0,0.0,0.532,0.0,0.0,0.0,0.0,0.0,-1.61,0.8402822265625001,0.0,0.0,0.0,0.0,0.0,0.0,0.728,0.0,0.0,0.0
162,0.0,0.0,0.0,0.82548828125,0.0,0.0,0.0,0.0,0.0,0.0,0.527,0.0,0.0,0.0,0.0,0.0,-1.61,0.84548828125,0.0,0.0,0.0,0.0,0.0,0.0,0.364,0.0,0.0,0.0
163,0.0,0.0,0.0,0.8311279296875,0.0,0.0,0.0,0.0,0.0,0.0,0.54,0.0,0.0,0.0,0.0,0.0,-1.61,0.8511279296875001,0.0,0.0,0.0,0.0,0.0,0.0,0.296,0.0,0.0,0.0
164,0.0,0.0,0.0,0.8369208984375,0.0,0.0,0.0,0.0,0.0,0.0,0.576,0.0,0.0,0.0,0.0,0.0,-1.61,0.8569208984375,0.0,0.0,0.0,0.0,0.0,0.0,-0.112,0.0,0.0,0.0
165,0.0,0.0,0.0,0.8425693359375,0.0,0.0,0.0,0.0,0.0,0.0,0.575,0.0,0.0,0.0,0.0,0.0,-1.61,0.8625693359375001,0.0,0.0,0.0,0.0,0.0,0.0,-0.5,0.0,0.0,0.0
166,0.0,0.0,0.0,0.848064453125,0.0,0.0,0.0,0.0,0.0,0.0,0.559,0.0,0.0,0.0,0.0,0.0,-1.61,0.868064453125,0.0,0.0,0.0,0.0,0.0,0.0,-0.568,0.0,0.0,0.0
167,0.0,0.0,0.0,0.8537138671875,0.0,0.0,0.0,0.0,0.0,0.0,0.558,0.0,0.0,0.0,0.0,0.0,-1.61,0.8737138671875,0.0,0.0,0.0,0.0,0.0,0.0,-0.088,0.0,0.0,0.0
168,0.0,0.0,0.0,0.859208984375,0.0,0.0,0.0,0.0,0.0,0.0,0.56,0.0,0.0,0.0,0.0,0.0,-1.61,0.8792089843750001,0.0,0.0,0.0,0.0,0.0,0.0,1.164,0.0,0.0,0.0
169,0.0,0.0,0.0,0.864712890625,0.0,0.0,0.0,0.0,0.0,0.0,0.555,0.0,0.0,0.0,0.0,0.0,-1.61,0.884712890625,0.0,0.0,0.0,0.0,0.0,0.0,1.484,0.0,0.0,0.0
170,0.0,0.0,0.0,0.870505859375,0.0,0.0,0.0,0.0,0.0,0.0,0.568,0.0,0.0,0.0,0.0,0.0,-1.61,0.890505859375,0.0,0.0,0.0,0.0,0.0,0.0,0.936,0.0,0.0,0.0
171,0.0,0.0,0.0,0.8760009765625,0.0,0.0,0.0,0.0,0.0,0.0,0.567,0.0,0.0,0.0,0.0,0.0,-1.61,0.8960009765625,0.0,0.0,0.0,0.0,0.0,0.0,0.32,0.0,0.0,0.0
172,0.0,0.0,0.0,0.8813525390625,0.0,0.0,0.0,0.0,0.0,0.0,0.549,0.0,0.0,0.0,0.0,0.0,-1.61,0.9013525390625,0.0,0.0,0.0,0.0,0.0,0.0,-0.64,0.0,0.0,0.0
173,0.0,0.0,0.0,0.886279296875,0.0,0.0,0.0,0.0,0.0,0.0,0.52,0.0,0.0,0.0,0.0,0.0,-1.61,0.906279296875,0.0,0.0,0.0,0.0,0.0,0.0,-0.96,0.0,0.0,0.0
174,0.0,0.0,0.0,0.891783203125,0.0,0.0,0.0,0.0,0.0,0.0,0.518,0.0,0.0,0.0,0.0,0.0,-1.61,0.911783203125,0.0,0.0,0.0,0.0,0.0,0.0,-0.228,0.0,0.0,0.0
175,0.0,0.0,0.0,0.897134765625,0.0,0.0,0.0,0.0,0.0,0.0,0.547,0.0,0.0,0.0,0.0,0.0,-1.61,0.9171347656250001,0.0,0.0,0.0,0.0,0.0,0.0,-0.248,0.0,0.0,0.0
176,0.0,0.0,0.0,0.9023408203125,0.0,0.0,0.0,0.0,0.0,0.0,0.535,0.0,0.0,0.0,0.0,0.0,-1.61,0.9223408203125,0.0,0.0,0.0,0.0,0.0,0.0,0.068,0.0,0.0,0.0
177,0.0,0.0,0.0,0.9078447265625,0.0,0.0,0.0,0.0,0.0,0.0,0.539,0.0,0.0,0.0,0.0,0.0,-1.61,0.9278447265625,0.0,0.0,0.0,0.0,0.0,0.0,0.16,0.0,0.0,0.0
178,0.0,0.0,0.0,0.913349609375,0.0,0.0,0.0,0.0,0.0,0.0,0.554,0.0,0.0,0.0,0.0,0.0,-1.61,0.933349609375,0.0,0.0,0.0,0.0,0.0,0.0,0.456,0.0,0.0,0.0
179,0.0,0.0,0.0,0.9189892578125,0.0,0.0,0.0,0.0,0.0,0.0,0.562,0.0,0.0,0.0,0.0,0.0,-1.61,0.9389892578125,0.0,0.0,0.0,0.0,0.0,0.0,0.752,0.0,0.0,0.0
180,0.0,0.0,0.0,0.9247822265625,0.0,0.0,0.0,0.0,0.0,0.0,0.569,0.0,0.0,0.0,0.0,0.0,-1.61,0.9447822265625,0.0,0.0,0.0,0.0,0.0,0.0,0.568,0.0,0.0,0.0
181,0.0,0.0,0.0,0.93056640625,0.0,0.0,0.0,0.0,0.0,0.0,0.582,0.0,0.0,0.0,0.0,0.0,-1.61,0.95056640625,0.0,0.0,0.0,0.0,0.0,0.0,-0.204,0.0,0.0,0.0
182,0.0,0.0,0.0,0.9360703125,0.0,0.0,0.0,0.0,0.0,0.0,0.572,0.0,0.0,0.0,0.0,0.0,-1.61,0.9560703125,0.0,0.0,0.0,0.0,0.0,0.0,-0.64,0.0,0.0,0.0
183,0.0,0.0,0.0,0.9415654296875,0.0,0.0,0.0,0.0,0.0,0.0,0.56,0.0,0.0,0.0,0.0,0.0,-1.61,0.9615654296875,0.0,0.0,0.0,0.0,0.0,0.0,-0.8,0.0,0.0,0.0
184,0.0,0.0,0.0,0.94678125,0.0,0.0,0.0,0.0,0.0,0.0,0.536,0.0,0.0,0.0,0.0,0.0,-1.61,0.96678125,0.0,0.0,0.0,0.0,0.0,0.0,-0.548,0.0,0.0,0.0
185,0.0,0.0,0.0,0.9521318359375,0.0,0.0,0.0,0.0,0.0,0.0,0.521,0.0,0.0,0.0,0.0,0.0,-1.61,0.9721318359375,0.0,0.0,0.0,0.0,0.0,0.0,0.408,0.0,0.0,0.0
186,0.0,0.0,0.0,0.9573388671875,0.0,0.0,0.0,0.0,0.0,0.0,0.534,0.0,0.0,0.0,0.0,0.0,-1.61,0.9773388671875001,0.0,0.0,0.0,0.0,0.0,0.0,0.32,0.0,0.0,0.0
187,0.0,0.0,0.0,0.962400390625,0.0,0.0,0.0,0.0,0.0,0.0,0.516,0.0,0.0,0.0,0.0,0.0,-1.61,0.9824003906250001,0.0,0.0,0.0,0.0,0.0,0.0,0.272,0.0,0.0,0.0
188,0.0,0.0,0.0,0.96805859375,0.0,0.0,0.0,0.0,0.0,0.0,0.534,0.0,0.0,0.0,0.0,0.0,-1.61,0.98805859375,0.0,0.0,0.0,0.0,0.0,0.0,0.34,0.0,0.0,0.0
189,0.0,0.0,0.0,0.9735537109375,0.0,0.0,0.0,0.0,0.0,0.0,0.566,0.0,0.0,0.0,0.0,0.0,-1.61,0.9935537109375,0.0,0.0,0.0,0.0,0.0,0.0,-0.068,0.0,0.0,0.0
190,0.0,0.0,0.0,0.978759765625,0.0,0.0,0.0,0.0,0.0,0.0,0.534,0.0,0.0,0.0,0.0,0.0,-1.61,0.998759765625,0.0,0.0,0.0,0.0,0.0,0.0,-0.088,0.0,0.0,0.0
191,0.0,0.0,0.0,0.984255859375,0.0,0.0,0.0,0.0,0.0,0.0,0.541,0.0,0.0,0.0,0.0,0.0,-1.61,1.004255859375,0.0,0.0,0.0,0.0,0.0,0.0,0.248,0.0,0.0,0.0
192,0.0,0.0,0.0,0.9896064453125,0.0,0.0,0.0,0.0,0.0,0.0,0.554,0.0,0.0,0.0,0.0,0.0,-1.61,1.0096064453125,0.0,0.0,0.0,0.0,0.0,0.0,-0.136,0.0,0.0,0.0
193,0.0,0.0,0.0,0.994822265625,0.0,0.0,0.0,0.0,0.0,0.0,0.527,0.0,0.0,0.0,0.0,0.0,-1.61,1.0148222656249999,0.0,0.0,0.0,0.0,0.0,0.0,-0.204,0.0,0.0,0.0
194,0.0,0.0,0.0,1.0001728515625,0.0,0.0,0.0,0.0,0.0,0.0,0.527,0.0,0.0,0.0,0.0,0.0,-1.61,1.0201728515625,0.0,0.0,0.0,0.0,0.0,0.0,-0.068,0.0,0.0,0.0
195,0.0,0.0,0.0,1.005234375,0.0,0.0,0.0,0.0,0.0,0.0,0.53,0.0,0.0,0.0,0.0,0.0,-1.61,1.025234375,0.0,0.0,0.0,0.0,0.0,0.0,0.044,0.0,0.0,0.0
196,0.0,0.0,0.0,1.0100078125,0.0,0.0,0.0,0.0,0.0,0.0,0.498,0.0,0.0,0.0,0.0,0.0,-1.61,1.0300078125,0.0,0.0,0.0,0.0,0.0,0.0,-0.112,0.0,0.0,0.0
197,0.0,0.0,0.0,1.0153681640625,0.0,0.0,0.0,0.0,0.0,0.0,0.5,0.0,0.0,0.0,0.0,0.0,-1.61,1.0353681640625,0.0,0.0,0.0,0.0,0.0,0.0,0.18,0.0,0.0,0.0
198,0.0,0.0,0.0,1.02057421875,0.0,0.0,0.0,0.0,0.0,0.0,0.538,0.0,0.0,0.0,0.0,0.0,-1.61,1.04057421875,0.0,0.0,0.0,0.0,0.0,0.0,-0.136,0.0,0.0,0.0
199,0.0,0.0,0.0,1.0259345703125,0.0,0.0,0.0,0.0,0.0,0.0,0.526,0.0,0.0,0.0,0.0,0.0,-1.61,1.0459345703125,0.0,0.0,0.0,0.0,0.0,0.0,0.364,0.0,0.0,0.0
200,0.0,0.0,0.0,1.03157421875,0.0,0.0,0.0,0.0,0.0,0.0,0.551,0.0,0.0,0.0,0.0,0.0,-1.61,1.0515742187500001,0.0,0.0,0.0,0.0,0.0,0.0,0.18,0.0,0.0,0.0
201,0.0,0.0,0.0,1.0369345703125,0.0,0.0,0.0,0.0,0.0,0.0,0.556,0.0,0.0,0.0,0.0,0.0,-1.61,1.0569345703125,0.0,0.0,0.0,0.0,0.0,0.0,-0.228,0.0,0.0,0.0
202,0.0,0.0,0.0,1.042140625,0.0,0.0,0.0,0.0,0.0,0.0,0.533,0.0,0.0,0.0,0.0,0.0,-1.61,1.062140625,0.0,0.0,0.0,0.0,0.0,0.0,-0.548,0.0,0.0,0.0
203,0.0,0.0,0.0,1.0474912109375,0.0,0.0,0.0,0.0,0.0,0.0,0.532,0.0,0.0,0.0,0.0,0.0,-1.61,1.0674912109375,0.0,0.0,0.0,0.0,0.0,0.0,0.02,0.0,0.0,0.0
204,0.0,0.0,0.0,1.0526982421875,0.0,0.0,0.0,0.0,0.0,0.0,0.535,0.0,0.0,0.0,0.0,0.0,-1.61,1.0726982421875,0.0,0.0,0.0,0.0,0.0,0.0,-0.044,0.0,0.0,0.0
205,0.0,0.0,0.0,1.057759765625,0.0,0.0,0.0,0.0,0.0,0.0,0.51,0.0,0.0,0.0,0.0,0.0,-1.61,1.077759765625,0.0,0.0,0.0,0.0,0.0,0.0,-0.136,0.0,0.0,0.0
206,0.0,0.0,0.0,1.0629755859375,0.0,0.0,0.0,0.0,0.0,0.0,0.511,0.0,0.0,0.0,0.0,0.0,-1.61,1.0829755859375,0.0,0.0,0.0,0.0,0.0,0.0,0.364,0.0,0.0,0.0
207,0.0,0.0,0.0,1.0681826171875,0.0,0.0,0.0,0.0,0.0,0.0,0.53,0.0,0.0,0.0,0.0,0.0,-1.61,1.0881826171875,0.0,0.0,0.0,0.0,0.0,0.0,0.548,0.0,0.0,0.0
208,0.0,0.0,0.0,1.073099609375,0.0,0.0,0.0,0.0,0.0,0.0,0.512,0.0,0.0,0.0,0.0,0.0,-1.61,1.093099609375,0.0,0.0,0.0,0.0,0.0,0.0,0.616,0.0,0.0,0.0
209,0.0,0.0,0.0,1.078451171875,0.0,0.0,0.0,0.0,0.0,0.0,0.51,0.0,0.0,0.0,0.0,0.0,-1.61,1.098451171875,0.0,0.0,0.0,0.0,0.0,0.0,0.34,0.0,0.0,0.0
210,0.0,0.0,0.0,1.083810546875,0.0,0.0,0.0,0.0,0.0,0.0,0.534,0.0,0.0,0.0,0.0,0.0,-1.61,1.103810546875,0.0,0.0,0.0,0.0,0.0,0.0,0.088,0.0,0.0,0.0
211,0.0,0.0,0.0,1.089162109375,0.0,0.0,0.0,0.0,0.0,0.0,0.541,0.0,0.0,0.0,0.0,0.0,-1.61,1.109162109375,0.0,0.0,0.0,0.0,0.0,0.0,0.068,0.0,0.0,0.0
212,0.0,0.0,0.0,1.0946572265625,0.0,0.0,0.0,0.0,0.0,0.0,0.55,0.0,0.0,0.0,0.0,0.0,-1.61,1.1146572265625,0.0,0.0,0.0,0.0,0.0,0.0,-0.684,0.0,0.0,0.0
213,0.0,0.0,0.0,1.09986328125,0.0,0.0,0.0,0.0,0.0,0.0,0.539,0.0,0.0,0.0,0.0,0.0,-1.61,1.11986328125,0.0,0.0,0.0,0.0,0.0,0.0,-0.888,0.0,0.0,0.0
214,0.0,0.0,0.0,1.105205078125,0.0,0.0,0.0,0.0,0.0,0.0,0.531,0.0,0.0,0.0,0.0,0.0,-1.61,1.125205078125,0.0,0.0,0.0,0.0,0.0,0.0,-0.728,0.0,0.0,0.0
215,0.0,0.0,0.0,1.1099873046875,0.0,0.0,0.0,0.0,0.0,0.0,0.515,0.0,0.0,0.0,0.0,0.0,-1.61,1.1299873046875,0.0,0.0,0.0,0.0,0.0,0.0,-0.34,0.0,0.0,0.0
216,0.0,0.0,0.0,1.1151943359375,0.0,0.0,0.0,0.0,0.0,0.0,0.494,0.0,0.0,0.0,0.0,0.0,-1.61,1.1351943359375,0.0,0.0,0.0,0.0,0.0,0.0,0.364,0.0,0.0,0.0
217,0.0,0.0,0.0,1.120400390625,0.0,0.0,0.0,0.0,0.0,0.0,0.524,0.0,0.0,0.0,0.0,0.0,-1.61,1.140400390625,0.0,0.0,0.0,0.0,0.0,0.0,0.364,0.0,0.0,0.0
218,0.0,0.0,0.0,1.125462890625,0.0,0.0,0.0,0.0,0.0,0.0,0.515,0.0,0.0,0.0,0.0,0.0,-1.61,1.145462890625,0.0,0.0,0.0,0.0,0.0,0.0,1.052,0.0,0.0,0.0
219,0.0,0.0,0.0,1.1308232421875,0.0,0.0,0.0,0.0,0.0,0.0,0.529,0.0,0.0,0.0,0.0,0.0,-1.61,1.1508232421875,0.0,0.0,0.0,0.0,0.0,0.0,0.388,0.0,0.0,0.0
220,0.0,0.0,0.0,1.136029296875,0.0,0.0,0.0,0.0,0.0,0.0,0.529,0.0,0.0,0.0,0.0,0.0,-1.61,1.1560292968750001,0.0,0.0,0.0,0.0,0.0,0.0,-0.044,0.0,0.0,0.0
221,0.0,0.0,0.0,1.1415244140625,0.0,0.0,0.0,0.0,0.0,0.0,0.531,0.0,0.0,0.0,0.0,0.0,-1.61,1.1615244140625,0.0,0.0,0.0,0.0,0.0,0.0,0.228,0.0,0.0,0.0
222,0.0,0.0,0.0,1.146875,0.0,0.0,0.0,0.0,0.0,0.0,0.556,0.0,0.0,0.0,0.0,0.0,-1.61,1.166875,0.0,0.0,0.0,0.0,0.0,0.0,-0.96,0.0,0.0,0.0
223,0.0,0.0,0.0,1.1517841796875,0.0,0.0,0.0,0.0,0.0,0.0,0.517,0.0,0.0,0.0,0.0,0.0,-1.61,1.1717841796875,0.0,0.0,0.0,0.0,0.0,0.0,-1.804,0.0,0.0,0.0
224,0.0,0.0,0.0,1.15714453125,0.0,0.0,0.0,0.0,0.0,0.0,0.51,0.0,0.0,0.0,0.0,0.0,-1.61,1.17714453125,0.0,0.0,0.0,0.0,0.0,0.0,-1.416,0.0,0.0,0.0
225,0.0,0.0,0.0,1.1624951171875,0.0,0.0,0.0,0.0,0.0,0.0,0.545,0.0,0.0,0.0,0.0,0.0,-1.61,1.1824951171875,0.0,0.0,0.0,0.0,0.0,0.0,-0.5,0.0,0.0,0.0
226,0.0,0.0,0.0,1.1675576171875,0.0,0.0,0.0,0.0,0.0,0.0,0.519,0.0,0.0,0.0,0.0,0.0,-1.61,1.1875576171875,0.0,0.0,0.0,0.0,0.0,0.0,1.232,0.0,0.0,0.0
227,0.0,0.0,0.0,1.172908203125,0.0,0.0,0.0,0.0,0.0,0.0,0.519,0.0,0.0,0.0,0.0,0.0,-1.61,1.192908203125,0.0,0.0,0.0,0.0,0.0,0.0,1.896,0.0,0.0,0.0
228,0.0,0.0,0.0,1.1784033203125,0.0,0.0,0.0,0.0,0.0,0.0,0.547,0.0,0.0,0.0,0.0,0.0,-1.61,1.1984033203125,0.0,0.0,0.0,0.0,0.0,0.0,1.052,0.0,0.0,0.0
229,0.0,0.0,0.0,1.183609375,0.0,0.0,0.0,0.0,0.0,0.0,0.532,0.0,0.0,0.0,0.0,0.0,-1.61,1.203609375,0.0,0.0,0.0,0.0,0.0,0.0,0.548,0.0,0.0,0.0
230,0.0,0.0,0.0,1.1892490234375,0.0,0.0,0.0,0.0,0.0,0.0,0.543,0.0,0.0,0.0,0.0,0.0,-1.61,1.2092490234375,0.0,0.0,0.0,0.0,0.0,0.0,0.548,0.0,0.0,0.0
231,0.0,0.0,0.0,1.194888671875,0.0,0.0,0.0,0.0,0.0,0.0,0.584,0.0,0.0,0.0,0.0,0.0,-1.61,1.214888671875,0.0,0.0,0.0,0.0,0.0,0.0,-0.752,0.0,0.0,0.0
232,0.0,0.0,0.0,1.200240234375,0.0,0.0,0.0,0.0,0.0,0.0,0.542,0.0,0.0,0.0,0.0,0.0,-1.61,1.220240234375,0.0,0.0,0.0,0.0,0.0,0.0,-0.64,0.0,0.0,0.0
233,0.0,0.0,0.0,1.2060244140625,0.0,0.0,0.0,0.0,0.0,0.0,0.556,0.0,0.0,0.0,0.0,0.0,-1.61,1.2260244140625,0.0,0.0,0.0,0.0,0.0,0.0,-0.524,0.0,0.0,0.0
234,0.0,0.0,0.0,1.2115283203125,0.0,0.0,0.0,0.0,0.0,0.0,0.575,0.0,0.0,0.0,0.0,0.0,-1.61,1.2315283203125,0.0,0.0,0.0,0.0,0.0,0.0,-0.82,0.0,0.0,0.0
235,0.0,0.0,0.0,1.2164375,0.0,0.0,0.0,0.0,0.0,0.0,0.522,0.0,0.0,0.0,0.0,0.0,-1.61,1.2364375,0.0,0.0,0.0,0.0,0.0,0.0,-0.82,0.0,0.0,0.0
236,0.0,0.0,0.0,1.2216435546875,0.0,0.0,0.0,0.0,0.0,0.0,0.509,0.0,0.0,0.0,0.0,0.0,-1.61,1.2416435546875,0.0,0.0,0.0,0.0,0.0,0.0,-1.46,0.0,0.0,0.0
237,0.0,0.0,0.0,1.226849609375,0.0,0.0,0.0,0.0,0.0,0.0,0.519,0.0,0.0,0.0,0.0,0.0,-1.61,1.2468496093750001,0.0,0.0,0.0,0.0,0.0,0.0,-0.66,0.0,0.0,0.0
238,0.0,0.0,0.0,1.232056640625,0.0,0.0,0.0,0.0,0.0,0.0,0.528,0.0,0.0,0.0,0.0,0.0,-1.61,1.252056640625,0.0,0.0,0.0,0.0,0.0,0.0,0.844,0.0,0.0,0.0
239,0.0,0.0,0.0,1.2374072265625,0.0,0.0,0.0,0.0,0.0,0.0,0.53,0.0,0.0,0.0,0.0,0.0,-1.61,1.2574072265625,0.0,0.0,0.0,0.0,0.0,0.0,1.072,0.0,0.0,0.0
240,0.0,0.0,0.0,1.2427587890625,0.0,0.0,0.0,0.0,0.0,0.0,0.537,0.0,0.0,0.0,0.0,0.0,-1.61,1.2627587890625,0.0,0.0,0.0,0.0,0.0,0.0,0.616,0.0,0.0,0.0
241,0.0,0.0,0.0,1.248109375,0.0,0.0,0.0,0.0,0.0,0.0,0.538,0.0,0.0,0.0,0.0,0.0,-1.61,1.268109375,0.0,0.0,0.0,0.0,0.0,0.0,-0.136,0.0,0.0,0.0
242,0.0,0.0,0.0,1.2533154296875,0.0,0.0,0.0,0.0,0.0,0.0,0.531,0.0,0.0,0.0,0.0,0.0,-1.61,1.2733154296875,0.0,0.0,0.0,0.0,0.0,0.0,-0.388,0.0,0.0,0.0
243,0.0,0.0,0.0,1.2588017578125,0.0,0.0,0.0,0.0,0.0,0.0,0.544,0.0,0.0,0.0,0.0,0.0,-1.61,1.2788017578125,0.0,0.0,0.0,0.0,0.0,0.0,-0.16,0.0,0.0,0.0
244,0.0,0.0,0.0,1.2644501953125,0.0,0.0,0.0,0.0,0.0,0.0,0.556,0.0,0.0,0.0,0.0,0.0,-1.61,1.2844501953125,0.0,0.0,0.0,0.0,0.0,0.0,-0.136,0.0,0.0,0.0
245,0.0,0.0,0.0,1.27008984375,0.0,0.0,0.0,0.0,0.0,0.0,0.562,0.0,0.0,0.0,0.0,0.0,-1.61,1.29008984375,0.0,0.0,0.0,0.0,0.0,0.0,-0.204,0.0,0.0,0.0
246,0.0,0.0,0.0,1.2755859375,0.0,0.0,0.0,0.0,0.0,0.0,0.56,0.0,0.0,0.0,0.0,0.0,-1.61,1.2955859375,0.0,0.0,0.0,0.0,0.0,0.0,-0.66,0.0,0.0,0.0
247,0.0,0.0,0.0,1.280783203125,0.0,0.0,0.0,0.0,0.0,0.0,0.549,0.0,0.0,0.0,0.0,0.0,-1.61,1.300783203125,0.0,0.0,0.0,0.0,0.0,0.0,-1.576,0.0,0.0,0.0
248,0.0,0.0,0.0,1.2858447265625,0.0,0.0,0.0,0.0,0.0,0.0,0.516,0.0,0.0,0.0,0.0,0.0,-1.61,1.3058447265625,0.0,0.0,0.0,0.0,0.0,0.0,-1.44,0.0,0.0,0.0
249,0.0,0.0,0.0,1.2911962890625,0.0,0.0,0.0,0.0,0.0,0.0,0.521,0.0,0.0,0.0,0.0,0.0,-1.61,1.3111962890625,0.0,0.0,0.0,0.0,0.0,0.0,-0.272,0.0,0.0,0.0
250,0.0,0.0,0.0,1.296546875,0.0,0.0,0.0,0.0,0.0,0.0,0.54,0.0,0.0,0.0,0.0,0.0,-1.61,1.316546875,0.0,0.0,0.0,0.0,0.0,0.0,0.48,0.0,0.0,0.0
251,0.0,0.0,0.0,1.30175390625,0.0,0.0,0.0,0.0,0.0,0.0,0.521,0.0,0.0,0.0,0.0,0.0,-1.61,1.32175390625,0.0,0.0,0.0,0.0,0.0,0.0,1.004,0.0,0.0,0.0
252,0.0,0.0,0.0,1.307095703125,0.0,0.0,0.0,0.0,0.0,0.0,0.533,0.0,0.0,0.0,0.0,0.0,-1.61,1.327095703125,0.0,0.0,0.0,0.0,0.0,0.0,0.432,0.0,0.0,0.0
253,0.0,0.0,0.0,1.3123017578125,0.0,0.0,0.0,0.0,0.0,0.0,0.536,0.0,0.0,0.0,0.0,0.0,-1.61,1.3323017578125,0.0,0.0,0.0,0.0,0.0,0.0,0.204,0.0,0.0,0.0
254,0.0,0.0,0.0,1.31765234375,0.0,0.0,0.0,0.0,0.0,0.0,0.524,0.0,0.0,0.0,0.0,0.0,-1.61,1.33765234375,0.0,0.0,0.0,0.0,0.0,0.0,0.34,0.0,0.0,0.0
255,0.0,0.0,0.0,1.3231484375,0.0,0.0,0.0,0.0,0.0,0.0,0.541,0.0,0.0,0.0,0.0,0.0,-1.61,1.3431484375,0.0,0.0,0.0,0.0,0.0,0.0,0.136,0.0,0.0,0.0
256,0.0,0.0,0.0,1.3287880859375,0.0,0.0,0.0,0.0,0.0,0.0,0.56,0.0,0.0,0.0,0.0,0.0,-1.61,1.3487880859375,0.0,0.0,0.0,0.0,0.0,0.0,-0.32,0.0,0.0,0.0
257,0.0,0.0,0.0,1.3342734375,0.0,0.0,0.0,0.0,0.0,0.0,0.558,0.0,0.0,0.0,0.0,0.0,-1.61,1.3542734375,0.0,0.0,0.0,0.0,0.0,0.0,-0.524,0.0,0.0,0.0
258,0.0,0.0,0.0,1.3400576171875,0.0,0.0,0.0,0.0,0.0,0.0,0.568,0.0,0.0,0.0,0.0,0.0,-1.61,1.3600576171875,0.0,0.0,0.0,0.0,0.0,0.0,-0.844,0.0,0.0,0.0
259,0.0,0.0,0.0,1.3454091796875,0.0,0.0,0.0,0.0,0.0,0.0,0.566,0.0,0.0,0.0,0.0,0.0,-1.61,1.3654091796875,0.0,0.0,0.0,0.0,0.0,0.0,-1.256,0.0,0.0,0.0
260,0.0,0.0,0.0,1.350759765625,0.0,0.0,0.0,0.0,0.0,0.0,0.537,0.0,0.0,0.0,0.0,0.0,-1.61,1.3707597656250001,0.0,0.0,0.0,0.0,0.0,0.0,-0.524,0.0,0.0,0.0
261,0.0,0.0,0.0,1.3565439453125,0.0,0.0,0.0,0.0,0.0,0.0,0.556,0.0,0.0,0.0,0.0,0.0,-1.61,1.3765439453125001,0.0,0.0,0.0,0.0,0.0,0.0,0.296,0.0,0.0,0.0
262,0.0,0.0,0.0,1.3618857421875,0.0,0.0,0.0,0.0,0.0,0.0,0.565,0.0,0.0,0.0,0.0,0.0,-1.61,1.3818857421875,0.0,0.0,0.0,0.0,0.0,0.0,-0.02,0.0,0.0,0.0
263,0.0,0.0,0.0,1.367091796875,0.0,0.0,0.0,0.0,0.0,0.0,0.524,0.0,0.0,0.0,0.0,0.0,-1.61,1.387091796875,0.0,0.0,0.0,0.0,0.0,0.0,-0.32,0.0,0.0,0.0
264,0.0,0.0,0.0,1.372578125,0.0,0.0,0.0,0.0,0.0,0.0,0.54,0.0,0.0,0.0,0.0,0.0,-1.61,1.392578125,0.0,0.0,0.0,0.0,0.0,0.0,-0.5,0.0,0.0,0.0
265,0.0,0.0,0.0,1.3780732421875,0.0,0.0,0.0,0.0,0.0,0.0,0.556,0.0,0.0,0.0,0.0,0.0,-1.61,1.3980732421875,0.0,0.0,0.0,0.0,0.0,0.0,0.364,0.0,0.0,0.0
266,0.0,0.0,0.0,1.383578125,0.0,0.0,0.0,0.0,0.0,0.0,0.549,0.0,0.0,0.0,0.0,0.0,-1.61,1.4035781250000001,0.0,0.0,0.0,0.0,0.0,0.0,0.728,0.0,0.0,0.0
267,0.0,0.0,0.0,1.3893525390625,0.0,0.0,0.0,0.0,0.0,0.0,0.567,0.0,0.0,0.0,0.0,0.0,-1.61,1.4093525390625,0.0,0.0,0.0,0.0,0.0,0.0,0.388,0.0,0.0,0.0
268,0.0,0.0,0.0,1.3949921875,0.0,0.0,0.0,0.0,0.0,0.0,0.572,0.0,0.0,0.0,0.0,0.0,-1.61,1.4149921875,0.0,0.0,0.0,0.0,0.0,0.0,-0.228,0.0,0.0,0.0
269,0.0,0.0,0.0,1.400333984375,0.0,0.0,0.0,0.0,0.0,0.0,0.561,0.0,0.0,0.0,0.0,0.0,-1.61,1.420333984375,0.0,0.0,0.0,0.0,0.0,0.0,-1.78,0.0,0.0,0.0
270,0.0,0.0,0.0,1.405396484375,0.0,0.0,0.0,0.0,0.0,0.0,0.526,0.0,0.0,0.0,0.0,0.0,-1.61,1.425396484375,0.0,0.0,0.0,0.0,0.0,0.0,-2.628,0.0,0.0,0.0
271,0.0,0.0,0.0,1.41102734375,0.0,0.0,0.0,0.0,0.0,0.0,0.529,0.0,0.0,0.0,0.0,0.0,-1.61,1.43102734375,0.0,0.0,0.0,0.0,0.0,0.0,-1.44,0.0,0.0,0.0
272,0.0,0.0,0.0,1.4163779296875,0.0,0.0,0.0,0.0,0.0,0.0,0.558,0.0,0.0,0.0,0.0,0.0,-1.61,1.4363779296875,0.0,0.0,0.0,0.0,0.0,0.0,-0.432,0.0,0.0,0.0
273,0.0,0.0,0.0,1.421583984375,0.0,0.0,0.0,0.0,0.0,0.0,0.53,0.0,0.0,0.0,0.0,0.0,-1.61,1.441583984375,0.0,0.0,0.0,0.0,0.0,0.0,0.592,0.0,0.0,0.0
274,0.0,0.0,0.0,1.4269267578125,0.0,0.0,0.0,0.0,0.0,0.0,0.529,0.0,0.0,0.0,0.0,0.0,-1.61,1.4469267578125,0.0,0.0,0.0,0.0,0.0,0.0,0.568,0.0,0.0,0.0
275,0.0,0.0,0.0,1.43227734375,0.0,0.0,0.0,0.0,0.0,0.0,0.541,0.0,0.0,0.0,0.0,0.0,-1.61,1.45227734375,0.0,0.0,0.0,0.0,0.0,0.0,0.388,0.0,0.0,0.0
276,0.0,0.0,0.0,1.437763671875,0.0,0.0,0.0,0.0,0.0,0.0,0.536,0.0,0.0,0.0,0.0,0.0,-1.61,1.457763671875,0.0,0.0,0.0,0.0,0.0,0.0,1.028,0.0,0.0,0.0
277,0.0,0.0,0.0,1.4434033203125,0.0,0.0,0.0,0.0,0.0,0.0,0.555,0.0,0.0,0.0,0.0,0.0,-1.61,1.4634033203125,0.0,0.0,0.0,0.0,0.0,0.0,0.524,0.0,0.0,0.0
278,0.0,0.0,0.0,1.4488984375,0.0,0.0,0.0,0.0,0.0,0.0,0.566,0.0,0.0,0.0,0.0,0.0,-1.61,1.4688984375,0.0,0.0,0.0,0.0,0.0,0.0,-0.936,0.0,0.0,0.0
279,0.0,0.0,0.0,1.454095703125,0.0,0.0,0.0,0.0,0.0,0.0,0.538,0.0,0.0,0.0,0.0,0.0,-1.61,1.474095703125,0.0,0.0,0.0,0.0,0.0,0.0,-1.92,0.0,0.0,0.0
280,0.0,0.0,0.0,1.4598798828125,0.0,0.0,0.0,0.0,0.0,0.0,0.539,0.0,0.0,0.0,0.0,0.0,-1.61,1.4798798828125,0.0,0.0,0.0,0.0,0.0,0.0,-1.804,0.0,0.0,0.0
281,0.0,0.0,0.0,1.4652216796875,0.0,0.0,0.0,0.0,0.0,0.0,0.571,0.0,0.0,0.0,0.0,0.0,-1.61,1.4852216796875,0.0,0.0,0.0,0.0,0.0,0.0,-1.348,0.0,0.0,0.0
282,0.0,0.0,0.0,1.470572265625,0.0,0.0,0.0,0.0,0.0,0.0,0.535,0.0,0.0,0.0,0.0,0.0,-1.61,1.490572265625,0.0,0.0,0.0,0.0,0.0,0.0,0.388,0.0,0.0,0.0
283,0.0,0.0,0.0,1.476203125,0.0,0.0,0.0,0.0,0.0,0.0,0.547,0.0,0.0,0.0,0.0,0.0,-1.61,1.496203125,0.0,0.0,0.0,0.0,0.0,0.0,0.844,0.0,0.0,0.0
284,0.0,0.0,0.0,1.481833984375,0.0,0.0,0.0,0.0,0.0,0.0,0.567,0.0,0.0,0.0,0.0,0.0,-1.61,1.501833984375,0.0,0.0,0.0,0.0,0.0,0.0,1.028,0.0,0.0,0.0
285,0.0,0.0,0.0,1.487482421875,0.0,0.0,0.0,0.0,0.0,0.0,0.557,0.0,0.0,0.0,0.0,0.0,-1.61,1.507482421875,0.0,0.0,0.0,0.0,0.0,0.0,1.256,0.0,0.0,0.0
286,0.0,0.0,0.0,1.4932578125,0.0,0.0,0.0,0.0,0.0,0.0,0.579,0.0,0.0,0.0,0.0,0.0,-1.61,1.5132578125,0.0,0.0,0.0,0.0,0.0,0.0,0.088,0.0,0.0,0.0
287,0.0,0.0,0.0,1.4988876953125,0.0,0.0,0.0,0.0,0.0,0.0,0.582,0.0,0.0,0.0,0.0,0.0,-1.61,1.5188876953125001,0.0,0.0,0.0,0.0,0.0,0.0,-0.34,0.0,0.0,0.0
288,0.0,0.0,0.0,1.5049609375,0.0,0.0,0.0,0.0,0.0,0.0,0.58,0.0,0.0,0.0,0.0,0.0,-1.61,1.5249609375,0.0,0.0,0.0,0.0,0.0,0.0,-0.548,0.0,0.0,0.0
289,0.0,0.0,0.0,1.510591796875,0.0,0.0,0.0,0.0,0.0,0.0,0.593,0.0,0.0,0.0,0.0,0.0,-1.61,1.530591796875,0.0,0.0,0.0,0.0,0.0,0.0,-1.6,0.0,0.0,0.0
290,0.0,0.0,0.0,1.51593359375,0.0,0.0,0.0,0.0,0.0,0.0,0.554,0.0,0.0,0.0,0.0,0.0,-1.61,1.53593359375,0.0,0.0,0.0,0.0,0.0,0.0,-2.08,0.0,0.0,0.0
291,0.0,0.0,0.0,1.5211396484375,0.0,0.0,0.0,0.0,0.0,0.0,0.527,0.0,0.0,0.0,0.0,0.0,-1.61,1.5411396484375,0.0,0.0,0.0,0.0,0.0,0.0,-1.92,0.0,0.0,0.0
292,0.0,0.0,0.0,1.526634765625,0.0,0.0,0.0,0.0,0.0,0.0,0.538,0.0,0.0,0.0,0.0,0.0,-1.61,1.546634765625,0.0,0.0,0.0,0.0,0.0,0.0,-1.052,0.0,0.0,0.0
293,0.0,0.0,0.0,1.5319765625,0.0,0.0,0.0,0.0,0.0,0.0,0.544,0.0,0.0,0.0,0.0,0.0,-1.61,1.5519765625,0.0,0.0,0.0,0.0,0.0,0.0,0.02,0.0,0.0,0.0
294,0.0,0.0,0.0,1.5371748046875,0.0,0.0,0.0,0.0,0.0,0.0,0.535,0.0,0.0,0.0,0.0,0.0,-1.61,1.5571748046875,0.0,0.0,0.0,0.0,0.0,0.0,0.16,0.0,0.0,0.0
295,0.0,0.0,0.0,1.542380859375,0.0,0.0,0.0,0.0,0.0,0.0,0.528,0.0,0.0,0.0,0.0,0.0,-1.61,1.562380859375,0.0,0.0,0.0,0.0,0.0,0.0,-0.432,0.0,0.0,0.0
296,0.0,0.0,0.0,1.54772265625,0.0,0.0,0.0,0.0,0.0,0.0,0.529,0.0,0.0,0.0,0.0,0.0,-1.61,1.56772265625,0.0,0.0,0.0,0.0,0.0,0.0,0.088,0.0,0.0,0.0
297,0.0,0.0,0.0,1.553353515625,0.0,0.0,0.0,0.0,0.0,0.0,0.544,0.0,0.0,0.0,0.0,0.0,-1.61,1.573353515625,0.0,0.0,0.0,0.0,0.0,0.0,0.248,0.0,0.0,0.0
298,0.0,0.0,0.0,1.5586953125,0.0,0.0,0.0,0.0,0.0,0.0,0.55,0.0,0.0,0.0,0.0,0.0,-1.61,1.5786953125,0.0,0.0,0.0,0.0,0.0,0.0,0.0,0.0,0.0,0.0
299,0.0,0.0,0.0,1.564037109375,0.0,0.0,0.0,0.0,0.0,0.0,0.539,0.0,0.0,0.0,0.0,0.0,-1.61,1.584037109375,0.0,0.0,0.0,0.0,0.0,0.0,-0.752,0.0,0.0,0.0
300,0.0,0.0,0.0,1.5691083984375,0.0,0.0,0.0,0.0,0.0,0.0,0.535,0.0,0.0,0.0,0.0,0.0,-1.61,1.5891083984375,0.0,0.0,0.0,0.0,0.0,0.0,-2.308,0.0,0.0,0.0
