EmanuelSamir/lab201_ws_projsamir/sawyer_dev/data/sawyer/temp/quasi_static_02_50.csv
,j1,j2,j3,j4,j5,j6,j7,v1,v2,v3,v4,v5,v6,v7,jd1,jd2,jd3,jd4,jd5,jd6,jd7,e1,e2,e3,e4,e5,e6,e7
0,0.0,0.0,0.0,0.0,0.0,0.0,0.0,0.0,0.0,0.0,0.0,0.0,0.0,0.0,0.0,0.0,0.0,0.0,0.0,0.0,0.0,0.0,0.0,0.0,0.0,0.0,0.0,0.0
1,0.0,0.0,0.0,0.0023896484375,0.0,0.0,0.0,0.0,0.0,0.0,-0.001,0.0,0.0,0.0,0.0,0.0,-1.61,0.0223896484375,0.0,0.0,0.0,0.0,0.0,0.0,0.296,0.0,0.0,0.0
2,0.0,0.0,0.0,0.0023896484375,0.0,0.0,0.0,0.0,0.0,0.0,-0.001,0.0,0.0,0.0,0.0,0.0,-1.61,0.0223896484375,0.0,0.0,0.0,0.0,0.0,0.0,0.296,0.0,0.0,0.0
3,0.0,0.0,0.0,0.0025341796875,0.0,0.0,0.0,0.0,0.0,0.0,-0.001,0.0,0.0,0.0,0.0,0.0,-1.61,0.0225341796875,0.0,0.0,0.0,0.0,0.0,0.0,0.684,0.0,0.0,0.0
4,0.0,0.0,0.0,0.0071728515625,0.0,0.0,0.0,0.0,0.0,0.0,0.224,0.0,0.0,0.0,0.0,0.0,-1.61,0.0271728515625,0.0,0.0,0.0,0.0,0.0,0.0,4.456,0.0,0.0,0.0
5,0.0,0.0,0.0,0.0139853515625,0.0,0.0,0.0,0.0,0.0,0.0,0.344,0.0,0.0,0.0,0.0,0.0,-1.61,0.0339853515625,0.0,0.0,0.0,0.0,0.0,0.0,2.468,0.0,0.0,0.0
6,0.0,0.0,0.0,0.0215107421875,0.0,0.0,0.0,0.0,0.0,0.0,0.39,0.0,0.0,0.0,0.0,0.0,-1.61,0.041510742187500005,0.0,0.0,0.0,0.0,0.0,0.0,-0.616,0.0,0.0,0.0
7,0.0,0.0,0.0,0.0284677734375,0.0,0.0,0.0,0.0,0.0,0.0,0.342,0.0,0.0,0.0,0.0,0.0,-1.61,0.0484677734375,0.0,0.0,0.0,0.0,0.0,0.0,1.668,0.0,0.0,0.0
8,0.0,0.0,0.0,0.0357138671875,0.0,0.0,0.0,0.0,0.0,0.0,0.352,0.0,0.0,0.0,0.0,0.0,-1.61,0.0557138671875,0.0,0.0,0.0,0.0,0.0,0.0,3.384,0.0,0.0,0.0
9,0.0,0.0,0.0,0.0433837890625,0.0,0.0,0.0,0.0,0.0,0.0,0.389,0.0,0.0,0.0,0.0,0.0,-1.61,0.0633837890625,0.0,0.0,0.0,0.0,0.0,0.0,1.828,0.0,0.0,0.0
10,0.0,0.0,0.0,0.0522177734375,0.0,0.0,0.0,0.0,0.0,0.0,0.448,0.0,0.0,0.0,0.0,0.0,-1.61,0.0722177734375,0.0,0.0,0.0,0.0,0.0,0.0,0.752,0.0,0.0,0.0
11,0.0,0.0,0.0,0.060626953125,0.0,0.0,0.0,0.0,0.0,0.0,0.414,0.0,0.0,0.0,0.0,0.0,-1.61,0.080626953125,0.0,0.0,0.0,0.0,0.0,0.0,2.012,0.0,0.0,0.0
12,0.0,0.0,0.0,0.0687392578125,0.0,0.0,0.0,0.0,0.0,0.0,0.4,0.0,0.0,0.0,0.0,0.0,-1.61,0.0887392578125,0.0,0.0,0.0,0.0,0.0,0.0,2.24,0.0,0.0,0.0
13,0.0,0.0,0.0,0.0777265625,0.0,0.0,0.0,0.0,0.0,0.0,0.455,0.0,0.0,0.0,0.0,0.0,-1.61,0.0977265625,0.0,0.0,0.0,0.0,0.0,0.0,0.32,0.0,0.0,0.0
14,0.0,0.0,0.0,0.0874267578125,0.0,0.0,0.0,0.0,0.0,0.0,0.486,0.0,0.0,0.0,0.0,0.0,-1.61,0.10742675781250001,0.0,0.0,0.0,0.0,0.0,0.0,-0.708,0.0,0.0,0.0
15,0.0,0.0,0.0,0.0955478515625,0.0,0.0,0.0,0.0,0.0,0.0,0.399,0.0,0.0,0.0,0.0,0.0,-1.61,0.1155478515625,0.0,0.0,0.0,0.0,0.0,0.0,0.18,0.0,0.0,0.0
16,0.0,0.0,0.0,0.10436328125,0.0,0.0,0.0,0.0,0.0,0.0,0.448,0.0,0.0,0.0,0.0,0.0,-1.61,0.12436328125,0.0,0.0,0.0,0.0,0.0,0.0,-0.228,0.0,0.0,0.0
17,0.0,0.0,0.0,0.1142177734375,0.0,0.0,0.0,0.0,0.0,0.0,0.499,0.0,0.0,0.0,0.0,0.0,-1.61,0.1342177734375,0.0,0.0,0.0,0.0,0.0,0.0,0.248,0.0,0.0,0.0
18,0.0,0.0,0.0,0.12421484375,0.0,0.0,0.0,0.0,0.0,0.0,0.5,0.0,0.0,0.0,0.0,0.0,-1.61,0.14421484375,0.0,0.0,0.0,0.0,0.0,0.0,0.684,0.0,0.0,0.0
19,0.0,0.0,0.0,0.133193359375,0.0,0.0,0.0,0.0,0.0,0.0,0.452,0.0,0.0,0.0,0.0,0.0,-1.61,0.15319335937499998,0.0,0.0,0.0,0.0,0.0,0.0,-0.64,0.0,0.0,0.0
20,0.0,0.0,0.0,0.1423251953125,0.0,0.0,0.0,0.0,0.0,0.0,0.46,0.0,0.0,0.0,0.0,0.0,-1.61,0.1623251953125,0.0,0.0,0.0,0.0,0.0,0.0,-0.568,0.0,0.0,0.0
21,0.0,0.0,0.0,0.151736328125,0.0,0.0,0.0,0.0,0.0,0.0,0.467,0.0,0.0,0.0,0.0,0.0,-1.61,0.17173632812499998,0.0,0.0,0.0,0.0,0.0,0.0,0.364,0.0,0.0,0.0
22,0.0,0.0,0.0,0.1624560546875,0.0,0.0,0.0,0.0,0.0,0.0,0.542,0.0,0.0,0.0,0.0,0.0,-1.61,0.18245605468749998,0.0,0.0,0.0,0.0,0.0,0.0,0.248,0.0,0.0,0.0
23,0.0,0.0,0.0,0.1727431640625,0.0,0.0,0.0,0.0,0.0,0.0,0.519,0.0,0.0,0.0,0.0,0.0,-1.61,0.1927431640625,0.0,0.0,0.0,0.0,0.0,0.0,-0.776,0.0,0.0,0.0
24,0.0,0.0,0.0,0.1821640625,0.0,0.0,0.0,0.0,0.0,0.0,0.467,0.0,0.0,0.0,0.0,0.0,-1.61,0.2021640625,0.0,0.0,0.0,0.0,0.0,0.0,0.98,0.0,0.0,0.0
25,0.0,0.0,0.0,0.1920078125,0.0,0.0,0.0,0.0,0.0,0.0,0.499,0.0,0.0,0.0,0.0,0.0,-1.61,0.2120078125,0.0,0.0,0.0,0.0,0.0,0.0,1.6,0.0,0.0,0.0
26,0.0,0.0,0.0,0.2011396484375,0.0,0.0,0.0,0.0,0.0,0.0,0.451,0.0,0.0,0.0,0.0,0.0,-1.61,0.2211396484375,0.0,0.0,0.0,0.0,0.0,0.0,-0.088,0.0,0.0,0.0
27,0.0,0.0,0.0,0.2106953125,0.0,0.0,0.0,0.0,0.0,0.0,0.484,0.0,0.0,0.0,0.0,0.0,-1.61,0.2306953125,0.0,0.0,0.0,0.0,0.0,0.0,-0.136,0.0,0.0,0.0
28,0.0,0.0,0.0,0.2196826171875,0.0,0.0,0.0,0.0,0.0,0.0,0.454,0.0,0.0,0.0,0.0,0.0,-1.61,0.2396826171875,0.0,0.0,0.0,0.0,0.0,0.0,-0.8,0.0,0.0,0.0
29,0.0,0.0,0.0,0.2290947265625,0.0,0.0,0.0,0.0,0.0,0.0,0.473,0.0,0.0,0.0,0.0,0.0,-1.61,0.24909472656249998,0.0,0.0,0.0,0.0,0.0,0.0,0.592,0.0,0.0,0.0
30,0.0,0.0,0.0,0.23808203125,0.0,0.0,0.0,0.0,0.0,0.0,0.442,0.0,0.0,0.0,0.0,0.0,-1.61,0.25808203125,0.0,0.0,0.0,0.0,0.0,0.0,0.388,0.0,0.0,0.0
31,0.0,0.0,0.0,0.2479267578125,0.0,0.0,0.0,0.0,0.0,0.0,0.508,0.0,0.0,0.0,0.0,0.0,-1.61,0.2679267578125,0.0,0.0,0.0,0.0,0.0,0.0,0.02,0.0,0.0,0.0
32,0.0,0.0,0.0,0.2563359375,0.0,0.0,0.0,0.0,0.0,0.0,0.415,0.0,0.0,0.0,0.0,0.0,-1.61,0.2763359375,0.0,0.0,0.0,0.0,0.0,0.0,0.456,0.0,0.0,0.0
33,0.0,0.0,0.0,0.2661806640625,0.0,0.0,0.0,0.0,0.0,0.0,0.499,0.0,0.0,0.0,0.0,0.0,-1.61,0.28618066406250003,0.0,0.0,0.0,0.0,0.0,0.0,0.616,0.0,0.0,0.0
34,0.0,0.0,0.0,0.27487890625,0.0,0.0,0.0,0.0,0.0,0.0,0.433,0.0,0.0,0.0,0.0,0.0,-1.61,0.29487890625,0.0,0.0,0.0,0.0,0.0,0.0,-0.568,0.0,0.0,0.0
35,0.0,0.0,0.0,0.2847236328125,0.0,0.0,0.0,0.0,0.0,0.0,0.494,0.0,0.0,0.0,0.0,0.0,-1.61,0.30472363281250003,0.0,0.0,0.0,0.0,0.0,0.0,0.48,0.0,0.0,0.0
36,0.0,0.0,0.0,0.2948662109375,0.0,0.0,0.0,0.0,0.0,0.0,0.517,0.0,0.0,0.0,0.0,0.0,-1.61,0.3148662109375,0.0,0.0,0.0,0.0,0.0,0.0,0.548,0.0,0.0,0.0
37,0.0,0.0,0.0,0.3038447265625,0.0,0.0,0.0,0.0,0.0,0.0,0.446,0.0,0.0,0.0,0.0,0.0,-1.61,0.3238447265625,0.0,0.0,0.0,0.0,0.0,0.0,0.34,0.0,0.0,0.0
38,0.0,0.0,0.0,0.3135537109375,0.0,0.0,0.0,0.0,0.0,0.0,0.49,0.0,0.0,0.0,0.0,0.0,-1.61,0.3335537109375,0.0,0.0,0.0,0.0,0.0,0.0,1.072,0.0,0.0,0.0
39,0.0,0.0,0.0,0.3234072265625,0.0,0.0,0.0,0.0,0.0,0.0,0.499,0.0,0.0,0.0,0.0,0.0,-1.61,0.3434072265625,0.0,0.0,0.0,0.0,0.0,0.0,-0.112,0.0,0.0,0.0
40,0.0,0.0,0.0,0.33268359375,0.0,0.0,0.0,0.0,0.0,0.0,0.455,0.0,0.0,0.0,0.0,0.0,-1.61,0.35268359375,0.0,0.0,0.0,0.0,0.0,0.0,0.296,0.0,0.0,0.0
41,0.0,0.0,0.0,0.34281640625,0.0,0.0,0.0,0.0,0.0,0.0,0.501,0.0,0.0,0.0,0.0,0.0,-1.61,0.36281640625,0.0,0.0,0.0,0.0,0.0,0.0,0.068,0.0,0.0,0.0
42,0.0,0.0,0.0,0.3519482421875,0.0,0.0,0.0,0.0,0.0,0.0,0.456,0.0,0.0,0.0,0.0,0.0,-1.61,0.3719482421875,0.0,0.0,0.0,0.0,0.0,0.0,-0.66,0.0,0.0,0.0
43,0.0,0.0,0.0,0.36150390625,0.0,0.0,0.0,0.0,0.0,0.0,0.479,0.0,0.0,0.0,0.0,0.0,-1.61,0.38150390625,0.0,0.0,0.0,0.0,0.0,0.0,1.6,0.0,0.0,0.0
44,0.0,0.0,0.0,0.3710693359375,0.0,0.0,0.0,0.0,0.0,0.0,0.473,0.0,0.0,0.0,0.0,0.0,-1.61,0.39106933593750004,0.0,0.0,0.0,0.0,0.0,0.0,0.388,0.0,0.0,0.0
45,0.0,0.0,0.0,0.38076953125,0.0,0.0,0.0,0.0,0.0,0.0,0.494,0.0,0.0,0.0,0.0,0.0,-1.61,0.40076953125000003,0.0,0.0,0.0,0.0,0.0,0.0,0.32,0.0,0.0,0.0
46,0.0,0.0,0.0,0.3896123046875,0.0,0.0,0.0,0.0,0.0,0.0,0.441,0.0,0.0,0.0,0.0,0.0,-1.61,0.40961230468750004,0.0,0.0,0.0,0.0,0.0,0.0,0.48,0.0,0.0,0.0
47,0.0,0.0,0.0,0.4000341796875,0.0,0.0,0.0,0.0,0.0,0.0,0.534,0.0,0.0,0.0,0.0,0.0,-1.61,0.4200341796875,0.0,0.0,0.0,0.0,0.0,0.0,0.0,0.0,0.0,0.0
48,0.0,0.0,0.0,0.4098876953125,0.0,0.0,0.0,0.0,0.0,0.0,0.492,0.0,0.0,0.0,0.0,0.0,-1.61,0.42988769531250004,0.0,0.0,0.0,0.0,0.0,0.0,-0.248,0.0,0.0,0.0
49,0.0,0.0,0.0,0.419443359375,0.0,0.0,0.0,0.0,0.0,0.0,0.479,0.0,0.0,0.0,0.0,0.0,-1.61,0.439443359375,0.0,0.0,0.0,0.0,0.0,0.0,0.248,0.0,0.0,0.0
50,0.0,0.0,0.0,0.4282861328125,0.0,0.0,0.0,0.0,0.0,0.0,0.438,0.0,0.0,0.0,0.0,0.0,-1.61,0.4482861328125,0.0,0.0,0.0,0.0,0.0,0.0,0.388,0.0,0.0,0.0
51,0.0,0.0,0.0,0.436677734375,0.0,0.0,0.0,0.0,0.0,0.0,0.425,0.0,0.0,0.0,0.0,0.0,-1.61,0.45667773437500003,0.0,0.0,0.0,0.0,0.0,0.0,0.296,0.0,0.0,0.0
52,0.0,0.0,0.0,0.4459453125,0.0,0.0,0.0,0.0,0.0,0.0,0.472,0.0,0.0,0.0,0.0,0.0,-1.61,0.46594531250000004,0.0,0.0,0.0,0.0,0.0,0.0,1.28,0.0,0.0,0.0
53,0.0,0.0,0.0,0.454345703125,0.0,0.0,0.0,0.0,0.0,0.0,0.417,0.0,0.0,0.0,0.0,0.0,-1.61,0.474345703125,0.0,0.0,0.0,0.0,0.0,0.0,-1.692,0.0,0.0,0.0
54,0.0,0.0,0.0,0.46390234375,0.0,0.0,0.0,0.0,0.0,0.0,0.488,0.0,0.0,0.0,0.0,0.0,-1.61,0.48390234375,0.0,0.0,0.0,0.0,0.0,0.0,0.408,0.0,0.0,0.0
55,0.0,0.0,0.0,0.4738994140625,0.0,0.0,0.0,0.0,0.0,0.0,0.507,0.0,0.0,0.0,0.0,0.0,-1.61,0.49389941406250004,0.0,0.0,0.0,0.0,0.0,0.0,0.388,0.0,0.0,0.0
56,0.0,0.0,0.0,0.4828779296875,0.0,0.0,0.0,0.0,0.0,0.0,0.436,0.0,0.0,0.0,0.0,0.0,-1.61,0.5028779296875,0.0,0.0,0.0,0.0,0.0,0.0,0.044,0.0,0.0,0.0
57,0.0,0.0,0.0,0.49243359375,0.0,0.0,0.0,0.0,0.0,0.0,0.485,0.0,0.0,0.0,0.0,0.0,-1.61,0.51243359375,0.0,0.0,0.0,0.0,0.0,0.0,1.44,0.0,0.0,0.0
58,0.0,0.0,0.0,0.501267578125,0.0,0.0,0.0,0.0,0.0,0.0,0.439,0.0,0.0,0.0,0.0,0.0,-1.61,0.521267578125,0.0,0.0,0.0,0.0,0.0,0.0,0.204,0.0,0.0,0.0
59,0.0,0.0,0.0,0.5108330078125,0.0,0.0,0.0,0.0,0.0,0.0,0.487,0.0,0.0,0.0,0.0,0.0,-1.61,0.5308330078125,0.0,0.0,0.0,0.0,0.0,0.0,1.212,0.0,0.0,0.0
60,0.0,0.0,0.0,0.519955078125,0.0,0.0,0.0,0.0,0.0,0.0,0.45,0.0,0.0,0.0,0.0,0.0,-1.61,0.539955078125,0.0,0.0,0.0,0.0,0.0,0.0,0.204,0.0,0.0,0.0
61,0.0,0.0,0.0,0.52893359375,0.0,0.0,0.0,0.0,0.0,0.0,0.452,0.0,0.0,0.0,0.0,0.0,-1.61,0.5489335937500001,0.0,0.0,0.0,0.0,0.0,0.0,-1.692,0.0,0.0,0.0
62,0.0,0.0,0.0,0.538056640625,0.0,0.0,0.0,0.0,0.0,0.0,0.461,0.0,0.0,0.0,0.0,0.0,-1.61,0.558056640625,0.0,0.0,0.0,0.0,0.0,0.0,0.64,0.0,0.0,0.0
63,0.0,0.0,0.0,0.5466103515625,0.0,0.0,0.0,0.0,0.0,0.0,0.426,0.0,0.0,0.0,0.0,0.0,-1.61,0.5666103515625001,0.0,0.0,0.0,0.0,0.0,0.0,0.296,0.0,0.0,0.0
64,0.0,0.0,0.0,0.5560126953125,0.0,0.0,0.0,0.0,0.0,0.0,0.477,0.0,0.0,0.0,0.0,0.0,-1.61,0.5760126953125,0.0,0.0,0.0,0.0,0.0,0.0,0.912,0.0,0.0,0.0
65,0.0,0.0,0.0,0.5644228515625,0.0,0.0,0.0,0.0,0.0,0.0,0.426,0.0,0.0,0.0,0.0,0.0,-1.61,0.5844228515625001,0.0,0.0,0.0,0.0,0.0,0.0,-1.188,0.0,0.0,0.0
66,0.0,0.0,0.0,0.573833984375,0.0,0.0,0.0,0.0,0.0,0.0,0.484,0.0,0.0,0.0,0.0,0.0,-1.61,0.593833984375,0.0,0.0,0.0,0.0,0.0,0.0,0.752,0.0,0.0,0.0
67,0.0,0.0,0.0,0.5833896484375,0.0,0.0,0.0,0.0,0.0,0.0,0.476,0.0,0.0,0.0,0.0,0.0,-1.61,0.6033896484375,0.0,0.0,0.0,0.0,0.0,0.0,0.48,0.0,0.0,0.0
68,0.0,0.0,0.0,0.59308984375,0.0,0.0,0.0,0.0,0.0,0.0,0.481,0.0,0.0,0.0,0.0,0.0,-1.61,0.61308984375,0.0,0.0,0.0,0.0,0.0,0.0,0.044,0.0,0.0,0.0
69,0.0,0.0,0.0,0.602943359375,0.0,0.0,0.0,0.0,0.0,0.0,0.492,0.0,0.0,0.0,0.0,0.0,-1.61,0.622943359375,0.0,0.0,0.0,0.0,0.0,0.0,0.16,0.0,0.0,0.0
70,0.0,0.0,0.0,0.61235546875,0.0,0.0,0.0,0.0,0.0,0.0,0.474,0.0,0.0,0.0,0.0,0.0,-1.61,0.63235546875,0.0,0.0,0.0,0.0,0.0,0.0,0.728,0.0,0.0,0.0
71,0.0,0.0,0.0,0.6200341796875,0.0,0.0,0.0,0.0,0.0,0.0,0.376,0.0,0.0,0.0,0.0,0.0,-1.61,0.6400341796875,0.0,0.0,0.0,0.0,0.0,0.0,0.248,0.0,0.0,0.0
72,0.0,0.0,0.0,0.6294453125,0.0,0.0,0.0,0.0,0.0,0.0,0.468,0.0,0.0,0.0,0.0,0.0,-1.61,0.6494453125,0.0,0.0,0.0,0.0,0.0,0.0,2.172,0.0,0.0,0.0
73,0.0,0.0,0.0,0.63928125,0.0,0.0,0.0,0.0,0.0,0.0,0.511,0.0,0.0,0.0,0.0,0.0,-1.61,0.65928125,0.0,0.0,0.0,0.0,0.0,0.0,-0.432,0.0,0.0,0.0
74,0.0,0.0,0.0,0.6476904296875,0.0,0.0,0.0,0.0,0.0,0.0,0.412,0.0,0.0,0.0,0.0,0.0,-1.61,0.6676904296875,0.0,0.0,0.0,0.0,0.0,0.0,-1.532,0.0,0.0,0.0
75,0.0,0.0,0.0,0.657390625,0.0,0.0,0.0,0.0,0.0,0.0,0.494,0.0,0.0,0.0,0.0,0.0,-1.61,0.677390625,0.0,0.0,0.0,0.0,0.0,0.0,0.776,0.0,0.0,0.0
76,0.0,0.0,0.0,0.666513671875,0.0,0.0,0.0,0.0,0.0,0.0,0.456,0.0,0.0,0.0,0.0,0.0,-1.61,0.686513671875,0.0,0.0,0.0,0.0,0.0,0.0,-0.408,0.0,0.0,0.0
77,0.0,0.0,0.0,0.6759248046875,0.0,0.0,0.0,0.0,0.0,0.0,0.473,0.0,0.0,0.0,0.0,0.0,-1.61,0.6959248046875001,0.0,0.0,0.0,0.0,0.0,0.0,1.508,0.0,0.0,0.0
78,0.0,0.0,0.0,0.6859140625,0.0,0.0,0.0,0.0,0.0,0.0,0.504,0.0,0.0,0.0,0.0,0.0,-1.61,0.7059140625,0.0,0.0,0.0,0.0,0.0,0.0,0.592,0.0,0.0,0.0
79,0.0,0.0,0.0,0.6953251953125,0.0,0.0,0.0,0.0,0.0,0.0,0.469,0.0,0.0,0.0,0.0,0.0,-1.61,0.7153251953125,0.0,0.0,0.0,0.0,0.0,0.0,-0.82,0.0,0.0,0.0
80,0.0,0.0,0.0,0.70358203125,0.0,0.0,0.0,0.0,0.0,0.0,0.408,0.0,0.0,0.0,0.0,0.0,-1.61,0.72358203125,0.0,0.0,0.0,0.0,0.0,0.0,0.66,0.0,0.0,0.0
81,0.0,0.0,0.0,0.7132822265625,0.0,0.0,0.0,0.0,0.0,0.0,0.491,0.0,0.0,0.0,0.0,0.0,-1.61,0.7332822265625,0.0,0.0,0.0,0.0,0.0,0.0,1.256,0.0,0.0,0.0
82,0.0,0.0,0.0,0.7224052734375,0.0,0.0,0.0,0.0,0.0,0.0,0.46,0.0,0.0,0.0,0.0,0.0,-1.61,0.7424052734375001,0.0,0.0,0.0,0.0,0.0,0.0,-1.052,0.0,0.0,0.0
83,0.0,0.0,0.0,0.73123828125,0.0,0.0,0.0,0.0,0.0,0.0,0.443,0.0,0.0,0.0,0.0,0.0,-1.61,0.75123828125,0.0,0.0,0.0,0.0,0.0,0.0,0.0,0.0,0.0,0.0
84,0.0,0.0,0.0,0.7409384765625,0.0,0.0,0.0,0.0,0.0,0.0,0.499,0.0,0.0,0.0,0.0,0.0,-1.61,0.7609384765625,0.0,0.0,0.0,0.0,0.0,0.0,0.5,0.0,0.0,0.0
85,0.0,0.0,0.0,0.7491865234375,0.0,0.0,0.0,0.0,0.0,0.0,0.408,0.0,0.0,0.0,0.0,0.0,-1.61,0.7691865234375,0.0,0.0,0.0,0.0,0.0,0.0,-0.48,0.0,0.0,0.0
86,0.0,0.0,0.0,0.758173828125,0.0,0.0,0.0,0.0,0.0,0.0,0.453,0.0,0.0,0.0,0.0,0.0,-1.61,0.778173828125,0.0,0.0,0.0,0.0,0.0,0.0,1.896,0.0,0.0,0.0
87,0.0,0.0,0.0,0.7681533203125,0.0,0.0,0.0,0.0,0.0,0.0,0.503,0.0,0.0,0.0,0.0,0.0,-1.61,0.7881533203125001,0.0,0.0,0.0,0.0,0.0,0.0,0.0,0.0,0.0,0.0
88,0.0,0.0,0.0,0.7768427734375,0.0,0.0,0.0,0.0,0.0,0.0,0.431,0.0,0.0,0.0,0.0,0.0,-1.61,0.7968427734375,0.0,0.0,0.0,0.0,0.0,0.0,-1.212,0.0,0.0,0.0
89,0.0,0.0,0.0,0.78654296875,0.0,0.0,0.0,0.0,0.0,0.0,0.488,0.0,0.0,0.0,0.0,0.0,-1.61,0.80654296875,0.0,0.0,0.0,0.0,0.0,0.0,1.44,0.0,0.0,0.0
90,0.0,0.0,0.0,0.7962431640625,0.0,0.0,0.0,0.0,0.0,0.0,0.493,0.0,0.0,0.0,0.0,0.0,-1.61,0.8162431640625,0.0,0.0,0.0,0.0,0.0,0.0,0.844,0.0,0.0,0.0
91,0.0,0.0,0.0,0.8055107421875,0.0,0.0,0.0,0.0,0.0,0.0,0.463,0.0,0.0,0.0,0.0,0.0,-1.61,0.8255107421875,0.0,0.0,0.0,0.0,0.0,0.0,0.592,0.0,0.0,0.0
92,0.0,0.0,0.0,0.8147685546875,0.0,0.0,0.0,0.0,0.0,0.0,0.453,0.0,0.0,0.0,0.0,0.0,-1.61,0.8347685546875,0.0,0.0,0.0,0.0,0.0,0.0,0.568,0.0,0.0,0.0
93,0.0,0.0,0.0,0.8237470703125,0.0,0.0,0.0,0.0,0.0,0.0,0.456,0.0,0.0,0.0,0.0,0.0,-1.61,0.8437470703125001,0.0,0.0,0.0,0.0,0.0,0.0,-0.568,0.0,0.0,0.0
94,0.0,0.0,0.0,0.8325810546875,0.0,0.0,0.0,0.0,0.0,0.0,0.447,0.0,0.0,0.0,0.0,0.0,-1.61,0.8525810546875,0.0,0.0,0.0,0.0,0.0,0.0,0.364,0.0,0.0,0.0
95,0.0,0.0,0.0,0.84228125,0.0,0.0,0.0,0.0,0.0,0.0,0.486,0.0,0.0,0.0,0.0,0.0,-1.61,0.86228125,0.0,0.0,0.0,0.0,0.0,0.0,0.592,0.0,0.0,0.0
96,0.0,0.0,0.0,0.8515390625,0.0,0.0,0.0,0.0,0.0,0.0,0.464,0.0,0.0,0.0,0.0,0.0,-1.61,0.8715390625,0.0,0.0,0.0,0.0,0.0,0.0,-1.212,0.0,0.0,0.0
97,0.0,0.0,0.0,0.8612392578125,0.0,0.0,0.0,0.0,0.0,0.0,0.489,0.0,0.0,0.0,0.0,0.0,-1.61,0.8812392578125,0.0,0.0,0.0,0.0,0.0,0.0,1.052,0.0,0.0,0.0
98,0.0,0.0,0.0,0.8700732421875,0.0,0.0,0.0,0.0,0.0,0.0,0.437,0.0,0.0,0.0,0.0,0.0,-1.61,0.8900732421875001,0.0,0.0,0.0,0.0,0.0,0.0,-0.02,0.0,0.0,0.0
99,0.0,0.0,0.0,0.87846484375,0.0,0.0,0.0,0.0,0.0,0.0,0.414,0.0,0.0,0.0,0.0,0.0,-1.61,0.89846484375,0.0,0.0,0.0,0.0,0.0,0.0,0.776,0.0,0.0,0.0
100,0.0,0.0,0.0,0.8877314453125,0.0,0.0,0.0,0.0,0.0,0.0,0.471,0.0,0.0,0.0,0.0,0.0,-1.61,0.9077314453125,0.0,0.0,0.0,0.0,0.0,0.0,0.776,0.0,0.0,0.0
101,0.0,0.0,0.0,0.8975673828125,0.0,0.0,0.0,0.0,0.0,0.0,0.497,0.0,0.0,0.0,0.0,0.0,-1.61,0.9175673828125,0.0,0.0,0.0,0.0,0.0,0.0,-0.16,0.0,0.0,0.0
102,0.0,0.0,0.0,0.9062568359375,0.0,0.0,0.0,0.0,0.0,0.0,0.426,0.0,0.0,0.0,0.0,0.0,-1.61,0.9262568359375,0.0,0.0,0.0,0.0,0.0,0.0,-1.028,0.0,0.0,0.0
103,0.0,0.0,0.0,0.91479296875,0.0,0.0,0.0,0.0,0.0,0.0,0.433,0.0,0.0,0.0,0.0,0.0,-1.61,0.9347929687500001,0.0,0.0,0.0,0.0,0.0,0.0,-0.248,0.0,0.0,0.0
104,0.0,0.0,0.0,0.92405078125,0.0,0.0,0.0,0.0,0.0,0.0,0.473,0.0,0.0,0.0,0.0,0.0,-1.61,0.94405078125,0.0,0.0,0.0,0.0,0.0,0.0,1.232,0.0,0.0,0.0
105,0.0,0.0,0.0,0.933318359375,0.0,0.0,0.0,0.0,0.0,0.0,0.461,0.0,0.0,0.0,0.0,0.0,-1.61,0.953318359375,0.0,0.0,0.0,0.0,0.0,0.0,1.552,0.0,0.0,0.0
106,0.0,0.0,0.0,0.9431533203125,0.0,0.0,0.0,0.0,0.0,0.0,0.488,0.0,0.0,0.0,0.0,0.0,-1.61,0.9631533203125,0.0,0.0,0.0,0.0,0.0,0.0,0.204,0.0,0.0,0.0
107,0.0,0.0,0.0,0.9521318359375,0.0,0.0,0.0,0.0,0.0,0.0,0.452,0.0,0.0,0.0,0.0,0.0,-1.61,0.9721318359375,0.0,0.0,0.0,0.0,0.0,0.0,-1.232,0.0,0.0,0.0
108,0.0,0.0,0.0,0.9613896484375,0.0,0.0,0.0,0.0,0.0,0.0,0.471,0.0,0.0,0.0,0.0,0.0,-1.61,0.9813896484375,0.0,0.0,0.0,0.0,0.0,0.0,0.524,0.0,0.0,0.0
109,0.0,0.0,0.0,0.9709462890625,0.0,0.0,0.0,0.0,0.0,0.0,0.475,0.0,0.0,0.0,0.0,0.0,-1.61,0.9909462890625,0.0,0.0,0.0,0.0,0.0,0.0,1.256,0.0,0.0,0.0
110,0.0,0.0,0.0,0.9804921875,0.0,0.0,0.0,0.0,0.0,0.0,0.485,0.0,0.0,0.0,0.0,0.0,-1.61,1.0004921875,0.0,0.0,0.0,0.0,0.0,0.0,0.708,0.0,0.0,0.0
111,0.0,0.0,0.0,0.9897509765625,0.0,0.0,0.0,0.0,0.0,0.0,0.466,0.0,0.0,0.0,0.0,0.0,-1.61,1.0097509765625,0.0,0.0,0.0,0.0,0.0,0.0,-1.096,0.0,0.0,0.0
112,0.0,0.0,0.0,0.9985849609375,0.0,0.0,0.0,0.0,0.0,0.0,0.444,0.0,0.0,0.0,0.0,0.0,-1.61,1.0185849609375,0.0,0.0,0.0,0.0,0.0,0.0,-0.66,0.0,0.0,0.0
113,0.0,0.0,0.0,1.00654296875,0.0,0.0,0.0,0.0,0.0,0.0,0.4,0.0,0.0,0.0,0.0,0.0,-1.61,1.02654296875,0.0,0.0,0.0,0.0,0.0,0.0,0.708,0.0,0.0,0.0
114,0.0,0.0,0.0,1.015955078125,0.0,0.0,0.0,0.0,0.0,0.0,0.477,0.0,0.0,0.0,0.0,0.0,-1.61,1.035955078125,0.0,0.0,0.0,0.0,0.0,0.0,1.46,0.0,0.0,0.0
115,0.0,0.0,0.0,1.0254921875,0.0,0.0,0.0,0.0,0.0,0.0,0.472,0.0,0.0,0.0,0.0,0.0,-1.61,1.0454921875,0.0,0.0,0.0,0.0,0.0,0.0,-0.936,0.0,0.0,0.0
116,0.0,0.0,0.0,1.03518359375,0.0,0.0,0.0,0.0,0.0,0.0,0.484,0.0,0.0,0.0,0.0,0.0,-1.61,1.05518359375,0.0,0.0,0.0,0.0,0.0,0.0,-0.684,0.0,0.0,0.0
117,0.0,0.0,0.0,1.043583984375,0.0,0.0,0.0,0.0,0.0,0.0,0.419,0.0,0.0,0.0,0.0,0.0,-1.61,1.0635839843750001,0.0,0.0,0.0,0.0,0.0,0.0,-0.408,0.0,0.0,0.0
118,0.0,0.0,0.0,1.0526982421875,0.0,0.0,0.0,0.0,0.0,0.0,0.461,0.0,0.0,0.0,0.0,0.0,-1.61,1.0726982421875,0.0,0.0,0.0,0.0,0.0,0.0,1.852,0.0,0.0,0.0
119,0.0,0.0,0.0,1.06225390625,0.0,0.0,0.0,0.0,0.0,0.0,0.484,0.0,0.0,0.0,0.0,0.0,-1.61,1.08225390625,0.0,0.0,0.0,0.0,0.0,0.0,1.052,0.0,0.0,0.0
120,0.0,0.0,0.0,1.07063671875,0.0,0.0,0.0,0.0,0.0,0.0,0.417,0.0,0.0,0.0,0.0,0.0,-1.61,1.0906367187500001,0.0,0.0,0.0,0.0,0.0,0.0,-1.484,0.0,0.0,0.0
121,0.0,0.0,0.0,1.0804716796875,0.0,0.0,0.0,0.0,0.0,0.0,0.501,0.0,0.0,0.0,0.0,0.0,-1.61,1.1004716796875,0.0,0.0,0.0,0.0,0.0,0.0,-0.136,0.0,0.0,0.0
122,0.0,0.0,0.0,1.0897392578125,0.0,0.0,0.0,0.0,0.0,0.0,0.468,0.0,0.0,0.0,0.0,0.0,-1.61,1.1097392578125,0.0,0.0,0.0,0.0,0.0,0.0,-0.204,0.0,0.0,0.0
123,0.0,0.0,0.0,1.0981220703125,0.0,0.0,0.0,0.0,0.0,0.0,0.406,0.0,0.0,0.0,0.0,0.0,-1.61,1.1181220703125,0.0,0.0,0.0,0.0,0.0,0.0,0.136,0.0,0.0,0.0
124,0.0,0.0,0.0,1.1082548828125,0.0,0.0,0.0,0.0,0.0,0.0,0.513,0.0,0.0,0.0,0.0,0.0,-1.61,1.1282548828125,0.0,0.0,0.0,0.0,0.0,0.0,1.828,0.0,0.0,0.0
125,0.0,0.0,0.0,1.1185234375,0.0,0.0,0.0,0.0,0.0,0.0,0.502,0.0,0.0,0.0,0.0,0.0,-1.61,1.1385234375,0.0,0.0,0.0,0.0,0.0,0.0,-1.392,0.0,0.0,0.0
126,0.0,0.0,0.0,1.125751953125,0.0,0.0,0.0,0.0,0.0,0.0,0.375,0.0,0.0,0.0,0.0,0.0,-1.61,1.145751953125,0.0,0.0,0.0,0.0,0.0,0.0,-0.66,0.0,0.0,0.0
127,0.0,0.0,0.0,1.1347294921875,0.0,0.0,0.0,0.0,0.0,0.0,0.463,0.0,0.0,0.0,0.0,0.0,-1.61,1.1547294921875,0.0,0.0,0.0,0.0,0.0,0.0,1.44,0.0,0.0,0.0
128,0.0,0.0,0.0,1.144123046875,0.0,0.0,0.0,0.0,0.0,0.0,0.48,0.0,0.0,0.0,0.0,0.0,-1.61,1.1641230468750001,0.0,0.0,0.0,0.0,0.0,0.0,-0.296,0.0,0.0,0.0
129,0.0,0.0,0.0,1.153525390625,0.0,0.0,0.0,0.0,0.0,0.0,0.468,0.0,0.0,0.0,0.0,0.0,-1.61,1.173525390625,0.0,0.0,0.0,0.0,0.0,0.0,0.248,0.0,0.0,0.0
130,0.0,0.0,0.0,1.163072265625,0.0,0.0,0.0,0.0,0.0,0.0,0.481,0.0,0.0,0.0,0.0,0.0,-1.61,1.1830722656250001,0.0,0.0,0.0,0.0,0.0,0.0,-0.64,0.0,0.0,0.0
131,0.0,0.0,0.0,1.1720419921875,0.0,0.0,0.0,0.0,0.0,0.0,0.448,0.0,0.0,0.0,0.0,0.0,-1.61,1.1920419921875,0.0,0.0,0.0,0.0,0.0,0.0,-1.3,0.0,0.0,0.0
132,0.0,0.0,0.0,1.181001953125,0.0,0.0,0.0,0.0,0.0,0.0,0.454,0.0,0.0,0.0,0.0,0.0,-1.61,1.201001953125,0.0,0.0,0.0,0.0,0.0,0.0,1.232,0.0,0.0,0.0
133,0.0,0.0,0.0,1.190115234375,0.0,0.0,0.0,0.0,0.0,0.0,0.448,0.0,0.0,0.0,0.0,0.0,-1.61,1.2101152343750001,0.0,0.0,0.0,0.0,0.0,0.0,1.964,0.0,0.0,0.0
134,0.0,0.0,0.0,1.199806640625,0.0,0.0,0.0,0.0,0.0,0.0,0.489,0.0,0.0,0.0,0.0,0.0,-1.61,1.219806640625,0.0,0.0,0.0,0.0,0.0,0.0,0.0,0.0,0.0,0.0
135,0.0,0.0,0.0,1.209787109375,0.0,0.0,0.0,0.0,0.0,0.0,0.503,0.0,0.0,0.0,0.0,0.0,-1.61,1.229787109375,0.0,0.0,0.0,0.0,0.0,0.0,-1.552,0.0,0.0,0.0
136,0.0,0.0,0.0,1.219044921875,0.0,0.0,0.0,0.0,0.0,0.0,0.465,0.0,0.0,0.0,0.0,0.0,-1.61,1.239044921875,0.0,0.0,0.0,0.0,0.0,0.0,-0.8,0.0,0.0,0.0
137,0.0,0.0,0.0,1.2281494140625,0.0,0.0,0.0,0.0,0.0,0.0,0.455,0.0,0.0,0.0,0.0,0.0,-1.61,1.2481494140625,0.0,0.0,0.0,0.0,0.0,0.0,0.96,0.0,0.0,0.0
138,0.0,0.0,0.0,1.236685546875,0.0,0.0,0.0,0.0,0.0,0.0,0.429,0.0,0.0,0.0,0.0,0.0,-1.61,1.256685546875,0.0,0.0,0.0,0.0,0.0,0.0,-0.136,0.0,0.0,0.0
139,0.0,0.0,0.0,1.246376953125,0.0,0.0,0.0,0.0,0.0,0.0,0.501,0.0,0.0,0.0,0.0,0.0,-1.61,1.266376953125,0.0,0.0,0.0,0.0,0.0,0.0,0.112,0.0,0.0,0.0
140,0.0,0.0,0.0,1.256203125,0.0,0.0,0.0,0.0,0.0,0.0,0.47,0.0,0.0,0.0,0.0,0.0,-1.61,1.276203125,0.0,0.0,0.0,0.0,0.0,0.0,0.112,0.0,0.0,0.0
141,0.0,0.0,0.0,1.2654609375,0.0,0.0,0.0,0.0,0.0,0.0,0.457,0.0,0.0,0.0,0.0,0.0,-1.61,1.2854609375000001,0.0,0.0,0.0,0.0,0.0,0.0,-0.02,0.0,0.0,0.0
142,0.0,0.0,0.0,1.27384375,0.0,0.0,0.0,0.0,0.0,0.0,0.444,0.0,0.0,0.0,0.0,0.0,-1.61,1.29384375,0.0,0.0,0.0,0.0,0.0,0.0,-1.6,0.0,0.0,0.0
143,0.0,0.0,0.0,1.2836796875,0.0,0.0,0.0,0.0,0.0,0.0,0.501,0.0,0.0,0.0,0.0,0.0,-1.61,1.3036796875,0.0,0.0,0.0,0.0,0.0,0.0,0.592,0.0,0.0,0.0
144,0.0,0.0,0.0,1.2929375,0.0,0.0,0.0,0.0,0.0,0.0,0.465,0.0,0.0,0.0,0.0,0.0,-1.61,1.3129375,0.0,0.0,0.0,0.0,0.0,0.0,0.96,0.0,0.0,0.0
145,0.0,0.0,0.0,1.3020419921875,0.0,0.0,0.0,0.0,0.0,0.0,0.448,0.0,0.0,0.0,0.0,0.0,-1.61,1.3220419921875,0.0,0.0,0.0,0.0,0.0,0.0,-0.296,0.0,0.0,0.0
146,0.0,0.0,0.0,1.311869140625,0.0,0.0,0.0,0.0,0.0,0.0,0.506,0.0,0.0,0.0,0.0,0.0,-1.61,1.331869140625,0.0,0.0,0.0,0.0,0.0,0.0,0.02,0.0,0.0,0.0
147,0.0,0.0,0.0,1.321126953125,0.0,0.0,0.0,0.0,0.0,0.0,0.466,0.0,0.0,0.0,0.0,0.0,-1.61,1.341126953125,0.0,0.0,0.0,0.0,0.0,0.0,-0.388,0.0,0.0,0.0
148,0.0,0.0,0.0,1.3300869140625,0.0,0.0,0.0,0.0,0.0,0.0,0.44,0.0,0.0,0.0,0.0,0.0,-1.61,1.3500869140625,0.0,0.0,0.0,0.0,0.0,0.0,0.408,0.0,0.0,0.0
149,0.0,0.0,0.0,1.3393359375,0.0,0.0,0.0,0.0,0.0,0.0,0.464,0.0,0.0,0.0,0.0,0.0,-1.61,1.3593359375,0.0,0.0,0.0,0.0,0.0,0.0,-1.256,0.0,0.0,0.0
150,0.0,0.0,0.0,1.3485849609375,0.0,0.0,0.0,0.0,0.0,0.0,0.472,0.0,0.0,0.0,0.0,0.0,-1.61,1.3685849609375,0.0,0.0,0.0,0.0,0.0,0.0,-1.692,0.0,0.0,0.0
151,0.0,0.0,0.0,1.357265625,0.0,0.0,0.0,0.0,0.0,0.0,0.431,0.0,0.0,0.0,0.0,0.0,-1.61,1.377265625,0.0,0.0,0.0,0.0,0.0,0.0,0.364,0.0,0.0,0.0
152,0.0,0.0,0.0,1.3662255859375,0.0,0.0,0.0,0.0,0.0,0.0,0.453,0.0,0.0,0.0,0.0,0.0,-1.61,1.3862255859375001,0.0,0.0,0.0,0.0,0.0,0.0,0.82,0.0,0.0,0.0
153,0.0,0.0,0.0,1.375763671875,0.0,0.0,0.0,0.0,0.0,0.0,0.485,0.0,0.0,0.0,0.0,0.0,-1.61,1.395763671875,0.0,0.0,0.0,0.0,0.0,0.0,0.66,0.0,0.0,0.0
154,0.0,0.0,0.0,1.385021484375,0.0,0.0,0.0,0.0,0.0,0.0,0.465,0.0,0.0,0.0,0.0,0.0,-1.61,1.405021484375,0.0,0.0,0.0,0.0,0.0,0.0,-0.204,0.0,0.0,0.0
155,0.0,0.0,0.0,1.3944150390625,0.0,0.0,0.0,0.0,0.0,0.0,0.464,0.0,0.0,0.0,0.0,0.0,-1.61,1.4144150390625,0.0,0.0,0.0,0.0,0.0,0.0,-0.548,0.0,0.0,0.0
156,0.0,0.0,0.0,1.4032216796875,0.0,0.0,0.0,0.0,0.0,0.0,0.442,0.0,0.0,0.0,0.0,0.0,-1.61,1.4232216796875,0.0,0.0,0.0,0.0,0.0,0.0,-1.62,0.0,0.0,0.0
157,0.0,0.0,0.0,1.412181640625,0.0,0.0,0.0,0.0,0.0,0.0,0.437,0.0,0.0,0.0,0.0,0.0,-1.61,1.432181640625,0.0,0.0,0.0,0.0,0.0,0.0,-0.868,0.0,0.0,0.0
158,0.0,0.0,0.0,1.421728515625,0.0,0.0,0.0,0.0,0.0,0.0,0.484,0.0,0.0,0.0,0.0,0.0,-1.61,1.441728515625,0.0,0.0,0.0,0.0,0.0,0.0,1.096,0.0,0.0,0.0
159,0.0,0.0,0.0,1.430111328125,0.0,0.0,0.0,0.0,0.0,0.0,0.447,0.0,0.0,0.0,0.0,0.0,-1.61,1.450111328125,0.0,0.0,0.0,0.0,0.0,0.0,0.5,0.0,0.0,0.0
160,0.0,0.0,0.0,1.43949609375,0.0,0.0,0.0,0.0,0.0,0.0,0.463,0.0,0.0,0.0,0.0,0.0,-1.61,1.4594960937500001,0.0,0.0,0.0,0.0,0.0,0.0,-0.388,0.0,0.0,0.0
161,0.0,0.0,0.0,1.4497646484375,0.0,0.0,0.0,0.0,0.0,0.0,0.5,0.0,0.0,0.0,0.0,0.0,-1.61,1.4697646484375,0.0,0.0,0.0,0.0,0.0,0.0,-0.524,0.0,0.0,0.0
162,0.0,0.0,0.0,1.45713671875,0.0,0.0,0.0,0.0,0.0,0.0,0.381,0.0,0.0,0.0,0.0,0.0,-1.61,1.47713671875,0.0,0.0,0.0,0.0,0.0,0.0,-2.536,0.0,0.0,0.0
163,0.0,0.0,0.0,1.466232421875,0.0,0.0,0.0,0.0,0.0,0.0,0.468,0.0,0.0,0.0,0.0,0.0,-1.61,1.486232421875,0.0,0.0,0.0,0.0,0.0,0.0,0.228,0.0,0.0,0.0
164,0.0,0.0,0.0,1.4759140625,0.0,0.0,0.0,0.0,0.0,0.0,0.478,0.0,0.0,0.0,0.0,0.0,-1.61,1.4959140625,0.0,0.0,0.0,0.0,0.0,0.0,0.32,0.0,0.0,0.0
165,0.0,0.0,0.0,1.4839990234375,0.0,0.0,0.0,0.0,0.0,0.0,0.398,0.0,0.0,0.0,0.0,0.0,-1.61,1.5039990234375,0.0,0.0,0.0,0.0,0.0,0.0,-0.8,0.0,0.0,0.0
166,0.0,0.0,0.0,1.4935458984375,0.0,0.0,0.0,0.0,0.0,0.0,0.478,0.0,0.0,0.0,0.0,0.0,-1.61,1.5135458984375,0.0,0.0,0.0,0.0,0.0,0.0,0.5,0.0,0.0,0.0
167,0.0,0.0,0.0,1.503228515625,0.0,0.0,0.0,0.0,0.0,0.0,0.496,0.0,0.0,0.0,0.0,0.0,-1.61,1.523228515625,0.0,0.0,0.0,0.0,0.0,0.0,0.068,0.0,0.0,0.0
168,0.0,0.0,0.0,1.5121796875,0.0,0.0,0.0,0.0,0.0,0.0,0.431,0.0,0.0,0.0,0.0,0.0,-1.61,1.5321796875,0.0,0.0,0.0,0.0,0.0,0.0,0.068,0.0,0.0,0.0
169,0.0,0.0,0.0,1.5214287109375,0.0,0.0,0.0,0.0,0.0,0.0,0.456,0.0,0.0,0.0,0.0,0.0,-1.61,1.5414287109375,0.0,0.0,0.0,0.0,0.0,0.0,-0.088,0.0,0.0,0.0
170,0.0,0.0,0.0,1.5318330078125,0.0,0.0,0.0,0.0,0.0,0.0,0.541,0.0,0.0,0.0,0.0,0.0,-1.61,1.5518330078125,0.0,0.0,0.0,0.0,0.0,0.0,-1.12,0.0,0.0,0.0
171,0.0,0.0,0.0,1.54108203125,0.0,0.0,0.0,0.0,0.0,0.0,0.454,0.0,0.0,0.0,0.0,0.0,-1.61,1.56108203125,0.0,0.0,0.0,0.0,0.0,0.0,-0.592,0.0,0.0,0.0
172,0.0,0.0,0.0,1.5501767578125,0.0,0.0,0.0,0.0,0.0,0.0,0.453,0.0,0.0,0.0,0.0,0.0,-1.61,1.5701767578125,0.0,0.0,0.0,0.0,0.0,0.0,0.64,0.0,0.0,0.0
173,0.0,0.0,0.0,1.5599951171875,0.0,0.0,0.0,0.0,0.0,0.0,0.505,0.0,0.0,0.0,0.0,0.0,-1.61,1.5799951171875,0.0,0.0,0.0,0.0,0.0,0.0,-1.052,0.0,0.0,0.0
174,0.0,0.0,0.0,1.569541015625,0.0,0.0,0.0,0.0,0.0,0.0,0.476,0.0,0.0,0.0,0.0,0.0,-1.61,1.589541015625,0.0,0.0,0.0,0.0,0.0,0.0,-0.296,0.0,0.0,0.0
175,0.0,0.0,0.0,1.5783486328125,0.0,0.0,0.0,0.0,0.0,0.0,0.425,0.0,0.0,0.0,0.0,0.0,-1.61,1.5983486328125,0.0,0.0,0.0,0.0,0.0,0.0,-0.02,0.0,0.0,0.0
176,0.0,0.0,0.0,1.5887431640625,0.0,0.0,0.0,0.0,0.0,0.0,0.536,0.0,0.0,0.0,0.0,0.0,-1.61,1.6087431640625,0.0,0.0,0.0,0.0,0.0,0.0,-0.548,0.0,0.0,0.0
177,0.0,0.0,0.0,1.5985693359375,0.0,0.0,0.0,0.0,0.0,0.0,0.5,0.0,0.0,0.0,0.0,0.0,-1.61,1.6185693359375,0.0,0.0,0.0,0.0,0.0,0.0,-1.46,0.0,0.0,0.0
178,0.0,0.0,0.0,1.607232421875,0.0,0.0,0.0,0.0,0.0,0.0,0.417,0.0,0.0,0.0,0.0,0.0,-1.61,1.627232421875,0.0,0.0,0.0,0.0,0.0,0.0,0.296,0.0,0.0,0.0
179,0.0,0.0,0.0,1.61734765625,0.0,0.0,0.0,0.0,0.0,0.0,0.524,0.0,0.0,0.0,0.0,0.0,-1.61,1.63734765625,0.0,0.0,0.0,0.0,0.0,0.0,0.364,0.0,0.0,0.0
180,0.0,0.0,0.0,1.6271650390625,0.0,0.0,0.0,0.0,0.0,0.0,0.496,0.0,0.0,0.0,0.0,0.0,-1.61,1.6471650390625001,0.0,0.0,0.0,0.0,0.0,0.0,-0.568,0.0,0.0,0.0
181,0.0,0.0,0.0,1.6362607421875,0.0,0.0,0.0,0.0,0.0,0.0,0.446,0.0,0.0,0.0,0.0,0.0,-1.61,1.6562607421875,0.0,0.0,0.0,0.0,0.0,0.0,0.32,0.0,0.0,0.0
182,0.0,0.0,0.0,1.64622265625,0.0,0.0,0.0,0.0,0.0,0.0,0.497,0.0,0.0,0.0,0.0,0.0,-1.61,1.66622265625,0.0,0.0,0.0,0.0,0.0,0.0,-1.052,0.0,0.0,0.0
183,0.0,0.0,0.0,1.6563291015625,0.0,0.0,0.0,0.0,0.0,0.0,0.525,0.0,0.0,0.0,0.0,0.0,-1.61,1.6763291015625,0.0,0.0,0.0,0.0,0.0,0.0,-1.552,0.0,0.0,0.0
184,0.0,0.0,0.0,1.6652890625,0.0,0.0,0.0,0.0,0.0,0.0,0.43,0.0,0.0,0.0,0.0,0.0,-1.61,1.6852890625,0.0,0.0,0.0,0.0,0.0,0.0,-0.204,0.0,0.0,0.0
185,0.0,0.0,0.0,1.6746728515625,0.0,0.0,0.0,0.0,0.0,0.0,0.477,0.0,0.0,0.0,0.0,0.0,-1.61,1.6946728515625,0.0,0.0,0.0,0.0,0.0,0.0,0.32,0.0,0.0,0.0
186,0.0,0.0,0.0,1.6840576171875,0.0,0.0,0.0,0.0,0.0,0.0,0.49,0.0,0.0,0.0,0.0,0.0,-1.61,1.7040576171875,0.0,0.0,0.0,0.0,0.0,0.0,-1.256,0.0,0.0,0.0
187,0.0,0.0,0.0,1.6935859375,0.0,0.0,0.0,0.0,0.0,0.0,0.472,0.0,0.0,0.0,0.0,0.0,-1.61,1.7135859375,0.0,0.0,0.0,0.0,0.0,0.0,0.48,0.0,0.0,0.0
188,0.0,0.0,0.0,1.7023935546875,0.0,0.0,0.0,0.0,0.0,0.0,0.436,0.0,0.0,0.0,0.0,0.0,-1.61,1.7223935546875,0.0,0.0,0.0,0.0,0.0,0.0,-0.728,0.0,0.0,0.0
189,0.0,0.0,0.0,1.7116328125,0.0,0.0,0.0,0.0,0.0,0.0,0.476,0.0,0.0,0.0,0.0,0.0,-1.61,1.7316328125,0.0,0.0,0.0,0.0,0.0,0.0,-1.76,0.0,0.0,0.0
190,0.0,0.0,0.0,1.721017578125,0.0,0.0,0.0,0.0,0.0,0.0,0.472,0.0,0.0,0.0,0.0,0.0,-1.61,1.741017578125,0.0,0.0,0.0,0.0,0.0,0.0,-0.616,0.0,0.0,0.0
191,0.0,0.0,0.0,1.7305556640625,0.0,0.0,0.0,0.0,0.0,0.0,0.474,0.0,0.0,0.0,0.0,0.0,-1.61,1.7505556640625,0.0,0.0,0.0,0.0,0.0,0.0,1.484,0.0,0.0,0.0
192,0.0,0.0,0.0,1.740373046875,0.0,0.0,0.0,0.0,0.0,0.0,0.493,0.0,0.0,0.0,0.0,0.0,-1.61,1.760373046875,0.0,0.0,0.0,0.0,0.0,0.0,-0.088,0.0,0.0,0.0
193,0.0,0.0,0.0,1.7500458984375,0.0,0.0,0.0,0.0,0.0,0.0,0.484,0.0,0.0,0.0,0.0,0.0,-1.61,1.7700458984375,0.0,0.0,0.0,0.0,0.0,0.0,-1.552,0.0,0.0,0.0
194,0.0,0.0,0.0,1.75884375,0.0,0.0,0.0,0.0,0.0,0.0,0.433,0.0,0.0,0.0,0.0,0.0,-1.61,1.77884375,0.0,0.0,0.0,0.0,0.0,0.0,-1.62,0.0,0.0,0.0
195,0.0,0.0,0.0,1.7683720703125,0.0,0.0,0.0,0.0,0.0,0.0,0.49,0.0,0.0,0.0,0.0,0.0,-1.61,1.7883720703125001,0.0,0.0,0.0,0.0,0.0,0.0,0.5,0.0,0.0,0.0
196,0.0,0.0,0.0,1.7776123046875,0.0,0.0,0.0,0.0,0.0,0.0,0.463,0.0,0.0,0.0,0.0,0.0,-1.61,1.7976123046875,0.0,0.0,0.0,0.0,0.0,0.0,-0.616,0.0,0.0,0.0
197,0.0,0.0,0.0,1.7877099609375,0.0,0.0,0.0,0.0,0.0,0.0,0.507,0.0,0.0,0.0,0.0,0.0,-1.61,1.8077099609375,0.0,0.0,0.0,0.0,0.0,0.0,-0.18,0.0,0.0,0.0
198,0.0,0.0,0.0,1.79709375,0.0,0.0,0.0,0.0,0.0,0.0,0.469,0.0,0.0,0.0,0.0,0.0,-1.61,1.81709375,0.0,0.0,0.0,0.0,0.0,0.0,-1.46,0.0,0.0,0.0
199,0.0,0.0,0.0,1.8064873046875,0.0,0.0,0.0,0.0,0.0,0.0,0.478,0.0,0.0,0.0,0.0,0.0,-1.61,1.8264873046875,0.0,0.0,0.0,0.0,0.0,0.0,-0.616,0.0,0.0,0.0
200,0.0,0.0,0.0,1.8160068359375,0.0,0.0,0.0,0.0,0.0,0.0,0.478,0.0,0.0,0.0,0.0,0.0,-1.61,1.8360068359375,0.0,0.0,0.0,0.0,0.0,0.0,0.272,0.0,0.0,0.0
