EmanuelSamir/lab201_ws_projsamir/sawyer_dev/data/sawyer/temp/quasi_static_02_500.csv
,j1,j2,j3,j4,j5,j6,j7,v1,v2,v3,v4,v5,v6,v7,jd1,jd2,jd3,jd4,jd5,jd6,jd7,e1,e2,e3,e4,e5,e6,e7
0,0.0,0.0,0.0,0.0,0.0,0.0,0.0,0.0,0.0,0.0,0.0,0.0,0.0,0.0,0.0,0.0,0.0,0.0,0.0,0.0,0.0,0.0,0.0,0.0,0.0,0.0,0.0,0.0
1,0.0,0.0,0.0,0.0018125,0.0,0.0,0.0,0.0,0.0,0.0,-0.001,0.0,0.0,0.0,0.0,0.0,-1.61,0.8955442590887333,0.0,0.0,0.0,0.0,0.0,0.0,0.684,0.0,0.0,0.0
2,0.0,0.0,0.0,0.0018125,0.0,0.0,0.0,0.0,0.0,0.0,-0.001,0.0,0.0,0.0,0.0,0.0,-1.61,0.0008226695748834222,0.0,0.0,0.0,0.0,0.0,0.0,0.776,0.0,0.0,0.0
3,0.0,0.0,0.0,0.0018125,0.0,0.0,0.0,0.0,0.0,0.0,-0.001,0.0,0.0,0.0,0.0,0.0,-1.61,0.0007504527038110274,0.0,0.0,0.0,0.0,0.0,0.0,0.776,0.0,0.0,0.0
4,0.0,0.0,0.0,0.00224609375,0.0,0.0,0.0,0.0,0.0,0.0,0.017,0.0,0.0,0.0,0.0,0.0,-1.61,0.0011119154952854869,0.0,0.0,0.0,0.0,0.0,0.0,1.78,0.0,0.0,0.0
5,0.0,0.0,0.0,0.0028232421875,0.0,0.0,0.0,0.0,0.0,0.0,0.058,0.0,0.0,0.0,0.0,0.0,-1.61,0.0016169917929222209,0.0,0.0,0.0,0.0,0.0,0.0,1.256,0.0,0.0,0.0
6,0.0,0.0,0.0,0.0026787109375,0.0,0.0,0.0,0.0,0.0,0.0,0.023,0.0,0.0,0.0,0.0,0.0,-1.61,0.0014005499299003014,0.0,0.0,0.0,0.0,0.0,0.0,0.568,0.0,0.0,0.0
7,0.0,0.0,0.0,0.0029677734375,0.0,0.0,0.0,0.0,0.0,0.0,0.001,0.0,0.0,0.0,0.0,0.0,-1.61,0.0016177741911568414,0.0,0.0,0.0,0.0,0.0,0.0,0.524,0.0,0.0,0.0
8,0.0,0.0,0.0,0.0029677734375,0.0,0.0,0.0,0.0,0.0,0.0,0.027,0.0,0.0,0.0,0.0,0.0,-1.61,0.0015460065209899191,0.0,0.0,0.0,0.0,0.0,0.0,0.044,0.0,0.0,0.0
9,0.0,0.0,0.0,0.0026787109375,0.0,0.0,0.0,0.0,0.0,0.0,-0.015,0.0,0.0,0.0,0.0,0.0,-1.61,0.001185366737098186,0.0,0.0,0.0,0.0,0.0,0.0,0.82,0.0,0.0,0.0
10,0.0,0.0,0.0,0.0025341796875,0.0,0.0,0.0,0.0,0.0,0.0,-0.03,0.0,0.0,0.0,0.0,0.0,-1.61,0.0009692998396333154,0.0,0.0,0.0,0.0,0.0,0.0,1.44,0.0,0.0,0.0
11,0.0,0.0,0.0,0.0026787109375,0.0,0.0,0.0,0.0,0.0,0.0,-0.005,0.0,0.0,0.0,0.0,0.0,-1.61,0.0010425049924411337,0.0,0.0,0.0,0.0,0.0,0.0,1.14,0.0,0.0,0.0
12,0.0,0.0,0.0,0.0028232421875,0.0,0.0,0.0,0.0,0.0,0.0,0.014,0.0,0.0,0.0,0.0,0.0,-1.61,0.0011158019691975083,0.0,0.0,0.0,0.0,0.0,0.0,0.888,0.0,0.0,0.0
13,0.0,0.0,0.0,0.0029677734375,0.0,0.0,0.0,0.0,0.0,0.0,0.016,0.0,0.0,0.0,0.0,0.0,-1.61,0.0011891408922280037,0.0,0.0,0.0,0.0,0.0,0.0,0.432,0.0,0.0,0.0
14,0.0,0.0,0.0,0.0031123046875,0.0,0.0,0.0,0.0,0.0,0.0,0.018,0.0,0.0,0.0,0.0,0.0,-1.61,0.0012627623117025138,0.0,0.0,0.0,0.0,0.0,0.0,0.136,0.0,0.0,0.0
15,0.0,0.0,0.0,0.0029677734375,0.0,0.0,0.0,0.0,0.0,0.0,0.006,0.0,0.0,0.0,0.0,0.0,-1.61,0.0010474246504127553,0.0,0.0,0.0,0.0,0.0,0.0,0.068,0.0,0.0,0.0
16,0.0,0.0,0.0,0.0028232421875,0.0,0.0,0.0,0.0,0.0,0.0,-0.016,0.0,0.0,0.0,0.0,0.0,-1.61,0.0008322423407748723,0.0,0.0,0.0,0.0,0.0,0.0,0.568,0.0,0.0,0.0
17,0.0,0.0,0.0,0.0026787109375,0.0,0.0,0.0,0.0,0.0,0.0,-0.016,0.0,0.0,0.0,0.0,0.0,-1.61,0.000617221098291492,0.0,0.0,0.0,0.0,0.0,0.0,0.912,0.0,0.0,0.0
18,0.0,0.0,0.0,0.0026787109375,0.0,0.0,0.0,0.0,0.0,0.0,-0.011,0.0,0.0,0.0,0.0,0.0,-1.61,0.0005468978754356638,0.0,0.0,0.0,0.0,0.0,0.0,1.096,0.0,0.0,0.0
19,0.0,0.0,0.0,0.0028232421875,0.0,0.0,0.0,0.0,0.0,0.0,0.004,0.0,0.0,0.0,0.0,0.0,-1.61,0.0006212190641379598,0.0,0.0,0.0,0.0,0.0,0.0,0.844,0.0,0.0,0.0
20,0.0,0.0,0.0,0.0028232421875,0.0,0.0,0.0,0.0,0.0,0.0,0.01,0.0,0.0,0.0,0.0,0.0,-1.61,0.0005513038781837318,0.0,0.0,0.0,0.0,0.0,0.0,0.548,0.0,0.0,0.0
21,0.0,0.0,0.0,0.0029677734375,0.0,0.0,0.0,0.0,0.0,0.0,0.008,0.0,0.0,0.0,0.0,0.0,-1.61,0.0006260462967811035,0.0,0.0,0.0,0.0,0.0,0.0,0.388,0.0,0.0,0.0
22,0.0,0.0,0.0,0.0028232421875,0.0,0.0,0.0,0.0,0.0,0.0,0.001,0.0,0.0,0.0,0.0,0.0,-1.61,0.0004118508162373278,0.0,0.0,0.0,0.0,0.0,0.0,0.408,0.0,0.0,0.0
23,0.0,0.0,0.0,0.0026787109375,0.0,0.0,0.0,0.0,0.0,0.0,-0.016,0.0,0.0,0.0,0.0,0.0,-1.61,0.00019797824776951944,0.0,0.0,0.0,0.0,0.0,0.0,0.868,0.0,0.0,0.0
24,0.0,0.0,0.0,0.0025341796875,0.0,0.0,0.0,0.0,0.0,0.0,-0.015,0.0,0.0,0.0,0.0,0.0,-1.61,-1.5825140438434446e-05,0.0,0.0,0.0,0.0,0.0,0.0,1.052,0.0,0.0,0.0
25,0.0,0.0,0.0,0.0025341796875,0.0,0.0,0.0,0.0,0.0,0.0,-0.011,0.0,0.0,0.0,0.0,0.0,-1.61,-8.475580468950009e-05,0.0,0.0,0.0,0.0,0.0,0.0,1.232,0.0,0.0,0.0
26,0.0,0.0,0.0,0.0025341796875,0.0,0.0,0.0,0.0,0.0,0.0,-0.001,0.0,0.0,0.0,0.0,0.0,-1.61,-0.00015361343461564462,0.0,0.0,0.0,0.0,0.0,0.0,0.82,0.0,0.0,0.0
27,0.0,0.0,0.0,0.0025341796875,0.0,0.0,0.0,0.0,0.0,0.0,-0.001,0.0,0.0,0.0,0.0,0.0,-1.61,-0.0002221851087688396,0.0,0.0,0.0,0.0,0.0,0.0,0.684,0.0,0.0,0.0
28,0.0,0.0,0.0,0.0025341796875,0.0,0.0,0.0,0.0,0.0,0.0,-0.001,0.0,0.0,0.0,0.0,0.0,-1.61,-0.00029045800946617,0.0,0.0,0.0,0.0,0.0,0.0,0.64,0.0,0.0,0.0
29,0.0,0.0,0.0,0.0023896484375,0.0,0.0,0.0,0.0,0.0,0.0,-0.001,0.0,0.0,0.0,0.0,0.0,-1.61,-0.000503183389415243,0.0,0.0,0.0,0.0,0.0,0.0,0.868,0.0,0.0,0.0
30,0.0,0.0,0.0,0.0023896484375,0.0,0.0,0.0,0.0,0.0,0.0,-0.011,0.0,0.0,0.0,0.0,0.0,-1.61,-0.0005711488913273692,0.0,0.0,0.0,0.0,0.0,0.0,0.96,0.0,0.0,0.0
31,0.0,0.0,0.0,0.00224609375,0.0,0.0,0.0,0.0,0.0,0.0,-0.002,0.0,0.0,0.0,0.0,0.0,-1.61,-0.0007822725885689554,0.0,0.0,0.0,0.0,0.0,0.0,0.8,0.0,0.0,0.0
32,0.0,0.0,0.0,0.00224609375,0.0,0.0,0.0,0.0,0.0,0.0,-0.011,0.0,0.0,0.0,0.0,0.0,-1.61,-0.0008496741785370522,0.0,0.0,0.0,0.0,0.0,0.0,0.8,0.0,0.0,0.0
33,0.0,0.0,0.0,0.0021015625,0.0,0.0,0.0,0.0,0.0,0.0,-0.007,0.0,0.0,0.0,0.0,0.0,-1.61,-0.001061356564962133,0.0,0.0,0.0,0.0,0.0,0.0,0.408,0.0,0.0,0.0
34,0.0,0.0,0.0,0.00195703125,0.0,0.0,0.0,0.0,0.0,0.0,-0.015,0.0,0.0,0.0,0.0,0.0,-1.61,-0.0012727830651882064,0.0,0.0,0.0,0.0,0.0,0.0,0.364,0.0,0.0,0.0
35,0.0,0.0,0.0,0.00166796875,0.0,0.0,0.0,0.0,0.0,0.0,-0.023,0.0,0.0,0.0,0.0,0.0,-1.61,-0.0016285677767563218,0.0,0.0,0.0,0.0,0.0,0.0,0.48,0.0,0.0,0.0
36,0.0,0.0,0.0,0.0013798828125,0.0,0.0,0.0,0.0,0.0,0.0,-0.027,0.0,0.0,0.0,0.0,0.0,-1.61,-0.0019829344734792025,0.0,0.0,0.0,0.0,0.0,0.0,0.5,0.0,0.0,0.0
37,0.0,0.0,0.0,0.0013798828125,0.0,0.0,0.0,0.0,0.0,0.0,-0.027,0.0,0.0,0.0,0.0,0.0,-1.61,-0.0020491214345763724,0.0,0.0,0.0,0.0,0.0,0.0,0.5,0.0,0.0,0.0
38,0.0,0.0,0.0,0.0013798828125,0.0,0.0,0.0,0.0,0.0,0.0,-0.027,0.0,0.0,0.0,0.0,0.0,-1.61,-0.002114849204048263,0.0,0.0,0.0,0.0,0.0,0.0,0.5,0.0,0.0,0.0
39,0.0,0.0,0.0,0.00079296875,0.0,0.0,0.0,0.0,0.0,0.0,-0.023,0.0,0.0,0.0,0.0,0.0,-1.61,-0.0027673935584333733,0.0,0.0,0.0,0.0,0.0,0.0,0.228,0.0,0.0,0.0
40,0.0,0.0,0.0,0.0006484375,0.0,0.0,0.0,0.0,0.0,0.0,-0.025,0.0,0.0,0.0,0.0,0.0,-1.61,-0.002977175281454568,0.0,0.0,0.0,0.0,0.0,0.0,0.228,0.0,0.0,0.0
41,0.0,0.0,0.0,0.000359375,0.0,0.0,0.0,0.0,0.0,0.0,-0.018,0.0,0.0,0.0,0.0,0.0,-1.61,-0.0033311949199208942,0.0,0.0,0.0,0.0,0.0,0.0,0.5,0.0,0.0,0.0
42,0.0,0.0,0.0,0.0002158203125,0.0,0.0,0.0,0.0,0.0,0.0,-0.021,0.0,0.0,0.0,0.0,0.0,-1.61,-0.0035394081558970426,0.0,0.0,0.0,0.0,0.0,0.0,0.708,0.0,0.0,0.0
43,0.0,0.0,0.0,-0.000216796875,0.0,0.0,0.0,0.0,0.0,0.0,-0.028,0.0,0.0,0.0,0.0,0.0,-1.61,-0.004036380070605603,0.0,0.0,0.0,0.0,0.0,0.0,0.568,0.0,0.0,0.0
44,0.0,0.0,0.0,-0.000505859375,0.0,0.0,0.0,0.0,0.0,0.0,-0.037,0.0,0.0,0.0,0.0,0.0,-1.61,-0.004389488269849944,0.0,0.0,0.0,0.0,0.0,0.0,0.272,0.0,0.0,0.0
45,0.0,0.0,0.0,-0.0009384765625,0.0,0.0,0.0,0.0,0.0,0.0,-0.039,0.0,0.0,0.0,0.0,0.0,-1.61,-0.004885836946935883,0.0,0.0,0.0,0.0,0.0,0.0,0.432,0.0,0.0,0.0
46,0.0,0.0,0.0,-0.0013720703125,0.0,0.0,0.0,0.0,0.0,0.0,-0.036,0.0,0.0,0.0,0.0,0.0,-1.61,-0.00538284282059101,0.0,0.0,0.0,0.0,0.0,0.0,0.5,0.0,0.0,0.0
47,0.0,0.0,0.0,-0.0018046875,0.0,0.0,0.0,0.0,0.0,0.0,-0.046,0.0,0.0,0.0,0.0,0.0,-1.61,-0.005878547635381135,0.0,0.0,0.0,0.0,0.0,0.0,0.616,0.0,0.0,0.0
48,0.0,0.0,0.0,-0.00223828125,0.0,0.0,0.0,0.0,0.0,0.0,-0.044,0.0,0.0,0.0,0.0,0.0,-1.61,-0.006374899412125849,0.0,0.0,0.0,0.0,0.0,0.0,0.616,0.0,0.0,0.0
49,0.0,0.0,0.0,-0.0026796875,0.0,0.0,0.0,0.0,0.0,0.0,-0.045,0.0,0.0,0.0,0.0,0.0,-1.61,-0.006878841135846775,0.0,0.0,0.0,0.0,0.0,0.0,0.432,0.0,0.0,0.0
50,0.0,0.0,0.0,-0.00311328125,0.0,0.0,0.0,0.0,0.0,0.0,-0.05,0.0,0.0,0.0,0.0,0.0,-1.61,-0.007374408022058144,0.0,0.0,0.0,0.0,0.0,0.0,0.272,0.0,0.0,0.0
51,0.0,0.0,0.0,-0.0038349609375,0.0,0.0,0.0,0.0,0.0,0.0,-0.054,0.0,0.0,0.0,0.0,0.0,-1.61,-0.00815782656910078,0.0,0.0,0.0,0.0,0.0,0.0,0.32,0.0,0.0,0.0
52,0.0,0.0,0.0,-0.0044130859375,0.0,0.0,0.0,0.0,0.0,0.0,-0.064,0.0,0.0,0.0,0.0,0.0,-1.61,-0.008797457702506279,0.0,0.0,0.0,0.0,0.0,0.0,0.32,0.0,0.0,0.0
53,0.0,0.0,0.0,-0.004990234375,0.0,0.0,0.0,0.0,0.0,0.0,-0.063,0.0,0.0,0.0,0.0,0.0,-1.61,-0.009435643765656074,0.0,0.0,0.0,0.0,0.0,0.0,0.432,0.0,0.0,0.0
54,0.0,0.0,0.0,-0.005720703125,0.0,0.0,0.0,0.0,0.0,0.0,-0.066,0.0,0.0,0.0,0.0,0.0,-1.61,-0.010226670223979658,0.0,0.0,0.0,0.0,0.0,0.0,0.32,0.0,0.0,0.0
55,0.0,0.0,0.0,-0.006298828125,0.0,0.0,0.0,0.0,0.0,0.0,-0.068,0.0,0.0,0.0,0.0,0.0,-1.61,-0.010865227222960416,0.0,0.0,0.0,0.0,0.0,0.0,0.364,0.0,0.0,0.0
56,0.0,0.0,0.0,-0.0068759765625,0.0,0.0,0.0,0.0,0.0,0.0,-0.062,0.0,0.0,0.0,0.0,0.0,-1.61,-0.011502319556268629,0.0,0.0,0.0,0.0,0.0,0.0,0.34,0.0,0.0,0.0
57,0.0,0.0,0.0,-0.00759765625,0.0,0.0,0.0,0.0,0.0,0.0,-0.064,0.0,0.0,0.0,0.0,0.0,-1.61,-0.01228356881989992,0.0,0.0,0.0,0.0,0.0,0.0,0.02,0.0,0.0,0.0
58,0.0,0.0,0.0,-0.0083193359375,0.0,0.0,0.0,0.0,0.0,0.0,-0.076,0.0,0.0,0.0,0.0,0.0,-1.61,-0.013064438944050733,0.0,0.0,0.0,0.0,0.0,0.0,0.248,0.0,0.0,0.0
59,0.0,0.0,0.0,-0.0092041015625,0.0,0.0,0.0,0.0,0.0,0.0,-0.075,0.0,0.0,0.0,0.0,0.0,-1.61,-0.014008011077094196,0.0,0.0,0.0,0.0,0.0,0.0,-0.02,0.0,0.0,0.0
60,0.0,0.0,0.0,-0.00992578125,0.0,0.0,0.0,0.0,0.0,0.0,-0.082,0.0,0.0,0.0,0.0,0.0,-1.61,-0.014788108585966254,0.0,0.0,0.0,0.0,0.0,0.0,0.204,0.0,0.0,0.0
61,0.0,0.0,0.0,-0.0107919921875,0.0,0.0,0.0,0.0,0.0,0.0,-0.085,0.0,0.0,0.0,0.0,0.0,-1.61,-0.015712343931553144,0.0,0.0,0.0,0.0,0.0,0.0,0.228,0.0,0.0,0.0
62,0.0,0.0,0.0,-0.0116669921875,0.0,0.0,0.0,0.0,0.0,0.0,-0.084,0.0,0.0,0.0,0.0,0.0,-1.61,-0.016645102935612718,0.0,0.0,0.0,0.0,0.0,0.0,0.248,0.0,0.0,0.0
63,0.0,0.0,0.0,-0.0125341796875,0.0,0.0,0.0,0.0,0.0,0.0,-0.084,0.0,0.0,0.0,0.0,0.0,-1.61,-0.017569382772308205,0.0,0.0,0.0,0.0,0.0,0.0,0.228,0.0,0.0,0.0
64,0.0,0.0,0.0,-0.013255859375,0.0,0.0,0.0,0.0,0.0,0.0,-0.083,0.0,0.0,0.0,0.0,0.0,-1.61,-0.018348150009624684,0.0,0.0,0.0,0.0,0.0,0.0,0.32,0.0,0.0,0.0
65,0.0,0.0,0.0,-0.0141220703125,0.0,0.0,0.0,0.0,0.0,0.0,-0.084,0.0,0.0,0.0,0.0,0.0,-1.61,-0.019270496614365737,0.0,0.0,0.0,0.0,0.0,0.0,0.364,0.0,0.0,0.0
66,0.0,0.0,0.0,-0.0151416015625,0.0,0.0,0.0,0.0,0.0,0.0,-0.093,0.0,0.0,0.0,0.0,0.0,-1.61,-0.020346154084794683,0.0,0.0,0.0,0.0,0.0,0.0,0.408,0.0,0.0,0.0
67,0.0,0.0,0.0,-0.0160078125,0.0,0.0,0.0,0.0,0.0,0.0,-0.099,0.0,0.0,0.0,0.0,0.0,-1.61,-0.021267934401526026,0.0,0.0,0.0,0.0,0.0,0.0,0.616,0.0,0.0,0.0
68,0.0,0.0,0.0,-0.0168740234375,0.0,0.0,0.0,0.0,0.0,0.0,-0.09,0.0,0.0,0.0,0.0,0.0,-1.61,-0.02218914748956902,0.0,0.0,0.0,0.0,0.0,0.0,0.64,0.0,0.0,0.0
69,0.0,0.0,0.0,-0.0180380859375,0.0,0.0,0.0,0.0,0.0,0.0,-0.096,0.0,0.0,0.0,0.0,0.0,-1.61,-0.02340806382630611,0.0,0.0,0.0,0.0,0.0,0.0,0.5,0.0,0.0,0.0
70,0.0,0.0,0.0,-0.019048828125,0.0,0.0,0.0,0.0,0.0,0.0,-0.11,0.0,0.0,0.0,0.0,0.0,-1.61,-0.024473085188777027,0.0,0.0,0.0,0.0,0.0,0.0,0.592,0.0,0.0,0.0
71,0.0,0.0,0.0,-0.0200595703125,0.0,0.0,0.0,0.0,0.0,0.0,-0.105,0.0,0.0,0.0,0.0,0.0,-1.61,-0.025537667648687427,0.0,0.0,0.0,0.0,0.0,0.0,0.684,0.0,0.0,0.0
72,0.0,0.0,0.0,-0.0210791015625,0.0,0.0,0.0,0.0,0.0,0.0,-0.104,0.0,0.0,0.0,0.0,0.0,-1.61,-0.02661059591206357,0.0,0.0,0.0,0.0,0.0,0.0,0.8,0.0,0.0,0.0
73,0.0,0.0,0.0,-0.0222333984375,0.0,0.0,0.0,0.0,0.0,0.0,-0.109,0.0,0.0,0.0,0.0,0.0,-1.61,-0.02781784222079803,0.0,0.0,0.0,0.0,0.0,0.0,0.456,0.0,0.0,0.0
74,0.0,0.0,0.0,-0.023388671875,0.0,0.0,0.0,0.0,0.0,0.0,-0.121,0.0,0.0,0.0,0.0,0.0,-1.61,-0.029025613227998858,0.0,0.0,0.0,0.0,0.0,0.0,0.296,0.0,0.0,0.0
75,0.0,0.0,0.0,-0.024552734375,0.0,0.0,0.0,0.0,0.0,0.0,-0.114,0.0,0.0,0.0,0.0,0.0,-1.61,-0.030241868656883778,0.0,0.0,0.0,0.0,0.0,0.0,0.044,0.0,0.0,0.0
76,0.0,0.0,0.0,-0.0257080078125,0.0,0.0,0.0,0.0,0.0,0.0,-0.11,0.0,0.0,0.0,0.0,0.0,-1.61,-0.03144857311939993,0.0,0.0,0.0,0.0,0.0,0.0,0.068,0.0,0.0,0.0
77,0.0,0.0,0.0,-0.02671875,0.0,0.0,0.0,0.0,0.0,0.0,-0.112,0.0,0.0,0.0,0.0,0.0,-1.61,-0.03251058611386136,0.0,0.0,0.0,0.0,0.0,0.0,0.296,0.0,0.0,0.0
78,0.0,0.0,0.0,-0.02773828125,0.0,0.0,0.0,0.0,0.0,0.0,-0.107,0.0,0.0,0.0,0.0,0.0,-1.61,-0.033580612512853936,0.0,0.0,0.0,0.0,0.0,0.0,0.204,0.0,0.0,0.0
79,0.0,0.0,0.0,-0.0288935546875,0.0,0.0,0.0,0.0,0.0,0.0,-0.105,0.0,0.0,0.0,0.0,0.0,-1.61,-0.03478606120049778,0.0,0.0,0.0,0.0,0.0,0.0,0.272,0.0,0.0,0.0
80,0.0,0.0,0.0,-0.029759765625,0.0,0.0,0.0,0.0,0.0,0.0,-0.106,0.0,0.0,0.0,0.0,0.0,-1.61,-0.03570212874870045,0.0,0.0,0.0,0.0,0.0,0.0,0.112,0.0,0.0,0.0
81,0.0,0.0,0.0,-0.0309326171875,0.0,0.0,0.0,0.0,0.0,0.0,-0.102,0.0,0.0,0.0,0.0,0.0,-1.61,-0.036924200554510775,0.0,0.0,0.0,0.0,0.0,0.0,0.068,0.0,0.0,0.0
82,0.0,0.0,0.0,-0.031943359375,0.0,0.0,0.0,0.0,0.0,0.0,-0.111,0.0,0.0,0.0,0.0,0.0,-1.61,-0.037983678151978416,0.0,0.0,0.0,0.0,0.0,0.0,0.044,0.0,0.0,0.0
83,0.0,0.0,0.0,-0.0329541015625,0.0,0.0,0.0,0.0,0.0,0.0,-0.108,0.0,0.0,0.0,0.0,0.0,-1.61,-0.039042666972479705,0.0,0.0,0.0,0.0,0.0,0.0,0.044,0.0,0.0,0.0
84,0.0,0.0,0.0,-0.0339736328125,0.0,0.0,0.0,0.0,0.0,0.0,-0.097,0.0,0.0,0.0,0.0,0.0,-1.61,-0.040109788908327074,0.0,0.0,0.0,0.0,0.0,0.0,0.044,0.0,0.0,0.0
85,0.0,0.0,0.0,-0.034984375,0.0,0.0,0.0,0.0,0.0,0.0,-0.098,0.0,0.0,0.0,0.0,0.0,-1.61,-0.04116795052275839,0.0,0.0,0.0,0.0,0.0,0.0,-0.248,0.0,0.0,0.0
86,0.0,0.0,0.0,-0.035994140625,0.0,0.0,0.0,0.0,0.0,0.0,-0.109,0.0,0.0,0.0,0.0,0.0,-1.61,-0.04222447319851868,0.0,0.0,0.0,0.0,0.0,0.0,-0.432,0.0,0.0,0.0
87,0.0,0.0,0.0,-0.037158203125,0.0,0.0,0.0,0.0,0.0,0.0,-0.108,0.0,0.0,0.0,0.0,0.0,-1.61,-0.04343495556035652,0.0,0.0,0.0,0.0,0.0,0.0,-0.752,0.0,0.0,0.0
88,0.0,0.0,0.0,-0.0383134765625,0.0,0.0,0.0,0.0,0.0,0.0,-0.114,0.0,0.0,0.0,0.0,0.0,-1.61,-0.04463580824234752,0.0,0.0,0.0,0.0,0.0,0.0,-0.364,0.0,0.0,0.0
89,0.0,0.0,0.0,-0.0394775390625,0.0,0.0,0.0,0.0,0.0,0.0,-0.115,0.0,0.0,0.0,0.0,0.0,-1.61,-0.04584510413425662,0.0,0.0,0.0,0.0,0.0,0.0,-0.088,0.0,0.0,0.0
90,0.0,0.0,0.0,-0.04048828125,0.0,0.0,0.0,0.0,0.0,0.0,-0.112,0.0,0.0,0.0,0.0,0.0,-1.61,-0.04690073499612787,0.0,0.0,0.0,0.0,0.0,0.0,-0.248,0.0,0.0,0.0
91,0.0,0.0,0.0,-0.0416435546875,0.0,0.0,0.0,0.0,0.0,0.0,-0.111,0.0,0.0,0.0,0.0,0.0,-1.61,-0.048100210021262385,0.0,0.0,0.0,0.0,0.0,0.0,-0.548,0.0,0.0,0.0
92,0.0,0.0,0.0,-0.0426630859375,0.0,0.0,0.0,0.0,0.0,0.0,-0.106,0.0,0.0,0.0,0.0,0.0,-1.61,-0.049163247509500504,0.0,0.0,0.0,0.0,0.0,0.0,-0.548,0.0,0.0,0.0
93,0.0,0.0,0.0,-0.043529296875,0.0,0.0,0.0,0.0,0.0,0.0,-0.099,0.0,0.0,0.0,0.0,0.0,-1.61,-0.05007260923814698,0.0,0.0,0.0,0.0,0.0,0.0,-0.616,0.0,0.0,0.0
94,0.0,0.0,0.0,-0.0446845703125,0.0,0.0,0.0,0.0,0.0,0.0,-0.107,0.0,0.0,0.0,0.0,0.0,-1.61,-0.051270679102487,0.0,0.0,0.0,0.0,0.0,0.0,-0.524,0.0,0.0,0.0
95,0.0,0.0,0.0,-0.0458486328125,0.0,0.0,0.0,0.0,0.0,0.0,-0.119,0.0,0.0,0.0,0.0,0.0,-1.61,-0.05247683220415304,0.0,0.0,0.0,0.0,0.0,0.0,-0.088,0.0,0.0,0.0
96,0.0,0.0,0.0,-0.0468583984375,0.0,0.0,0.0,0.0,0.0,0.0,-0.109,0.0,0.0,0.0,0.0,0.0,-1.61,-0.05352797473759512,0.0,0.0,0.0,0.0,0.0,0.0,0.02,0.0,0.0,0.0
97,0.0,0.0,0.0,-0.048158203125,0.0,0.0,0.0,0.0,0.0,0.0,-0.112,0.0,0.0,0.0,0.0,0.0,-1.61,-0.054869148545905334,0.0,0.0,0.0,0.0,0.0,0.0,0.112,0.0,0.0,0.0
98,0.0,0.0,0.0,-0.049322265625,0.0,0.0,0.0,0.0,0.0,0.0,-0.12,0.0,0.0,0.0,0.0,0.0,-1.61,-0.05607350515760459,0.0,0.0,0.0,0.0,0.0,0.0,0.272,0.0,0.0,0.0
99,0.0,0.0,0.0,-0.0504775390625,0.0,0.0,0.0,0.0,0.0,0.0,-0.118,0.0,0.0,0.0,0.0,0.0,-1.61,-0.05726852317770357,0.0,0.0,0.0,0.0,0.0,0.0,0.34,0.0,0.0,0.0
100,0.0,0.0,0.0,-0.0519296875,0.0,0.0,0.0,0.0,0.0,0.0,-0.131,0.0,0.0,0.0,0.0,0.0,-1.61,-0.058760408173574155,0.0,0.0,0.0,0.0,0.0,0.0,0.364,0.0,0.0,0.0
101,0.0,0.0,0.0,-0.0533828125,0.0,0.0,0.0,0.0,0.0,0.0,-0.147,0.0,0.0,0.0,0.0,0.0,-1.61,-0.06025217544208662,0.0,0.0,0.0,0.0,0.0,0.0,0.408,0.0,0.0,0.0
102,0.0,0.0,0.0,-0.0533828125,0.0,0.0,0.0,0.0,0.0,0.0,-0.147,0.0,0.0,0.0,0.0,0.0,-1.61,-0.06029044233189086,0.0,0.0,0.0,0.0,0.0,0.0,0.408,0.0,0.0,0.0
103,0.0,0.0,0.0,-0.056568359375,0.0,0.0,0.0,0.0,0.0,0.0,-0.16,0.0,0.0,0.0,0.0,0.0,-1.61,-0.06351369710809664,0.0,0.0,0.0,0.0,0.0,0.0,0.568,0.0,0.0,0.0
104,0.0,0.0,0.0,-0.0581650390625,0.0,0.0,0.0,0.0,0.0,0.0,-0.165,0.0,0.0,0.0,0.0,0.0,-1.61,-0.06514752265675408,0.0,0.0,0.0,0.0,0.0,0.0,0.752,0.0,0.0,0.0
105,0.0,0.0,0.0,-0.05946484375,0.0,0.0,0.0,0.0,0.0,0.0,-0.148,0.0,0.0,0.0,0.0,0.0,-1.61,-0.06648409466826621,0.0,0.0,0.0,0.0,0.0,0.0,1.12,0.0,0.0,0.0
106,0.0,0.0,0.0,-0.0610615234375,0.0,0.0,0.0,0.0,0.0,0.0,-0.137,0.0,0.0,0.0,0.0,0.0,-1.61,-0.06811678905849174,0.0,0.0,0.0,0.0,0.0,0.0,0.432,0.0,0.0,0.0
107,0.0,0.0,0.0,-0.0626494140625,0.0,0.0,0.0,0.0,0.0,0.0,-0.165,0.0,0.0,0.0,0.0,0.0,-1.61,-0.06973993503260344,0.0,0.0,0.0,0.0,0.0,0.0,0.388,0.0,0.0,0.0
108,0.0,0.0,0.0,-0.0642470703125,0.0,0.0,0.0,0.0,0.0,0.0,-0.166,0.0,0.0,0.0,0.0,0.0,-1.61,-0.07137264865590943,0.0,0.0,0.0,0.0,0.0,0.0,0.272,0.0,0.0,0.0
109,0.0,0.0,0.0,-0.0658349609375,0.0,0.0,0.0,0.0,0.0,0.0,-0.156,0.0,0.0,0.0,0.0,0.0,-1.61,-0.07299464233686197,0.0,0.0,0.0,0.0,0.0,0.0,0.548,0.0,0.0,0.0
110,0.0,0.0,0.0,-0.0674326171875,0.0,0.0,0.0,0.0,0.0,0.0,-0.158,0.0,0.0,0.0,0.0,0.0,-1.61,-0.07462620173596725,0.0,0.0,0.0,0.0,0.0,0.0,1.096,0.0,0.0,0.0
111,0.0,0.0,0.0,-0.0690205078125,0.0,0.0,0.0,0.0,0.0,0.0,-0.16,0.0,0.0,0.0,0.0,0.0,-1.61,-0.07624741600754574,0.0,0.0,0.0,0.0,0.0,0.0,0.5,0.0,0.0,0.0
112,0.0,0.0,0.0,-0.07090625,0.0,0.0,0.0,0.0,0.0,0.0,-0.175,0.0,0.0,0.0,0.0,0.0,-1.61,-0.07816532111626495,0.0,0.0,0.0,0.0,0.0,0.0,-0.02,0.0,0.0,0.0
113,0.0,0.0,0.0,-0.072638671875,0.0,0.0,0.0,0.0,0.0,0.0,-0.18,0.0,0.0,0.0,0.0,0.0,-1.61,-0.07993008797703682,0.0,0.0,0.0,0.0,0.0,0.0,-0.18,0.0,0.0,0.0
114,0.0,0.0,0.0,-0.0743896484375,0.0,0.0,0.0,0.0,0.0,0.0,-0.176,0.0,0.0,0.0,0.0,0.0,-1.61,-0.08171224101512796,0.0,0.0,0.0,0.0,0.0,0.0,0.272,0.0,0.0,0.0
115,0.0,0.0,0.0,-0.076275390625,0.0,0.0,0.0,0.0,0.0,0.0,-0.187,0.0,0.0,0.0,0.0,0.0,-1.61,-0.08362895518099911,0.0,0.0,0.0,0.0,0.0,0.0,0.776,0.0,0.0,0.0
116,0.0,0.0,0.0,-0.07815234375,0.0,0.0,0.0,0.0,0.0,0.0,-0.193,0.0,0.0,0.0,0.0,0.0,-1.61,-0.0855358954119733,0.0,0.0,0.0,0.0,0.0,0.0,0.912,0.0,0.0,0.0
117,0.0,0.0,0.0,-0.0800380859375,0.0,0.0,0.0,0.0,0.0,0.0,-0.187,0.0,0.0,0.0,0.0,0.0,-1.61,-0.0874512216509496,0.0,0.0,0.0,0.0,0.0,0.0,0.616,0.0,0.0,0.0
118,0.0,0.0,0.0,-0.0817705078125,0.0,0.0,0.0,0.0,0.0,0.0,-0.182,0.0,0.0,0.0,0.0,0.0,-1.61,-0.08921262764979565,0.0,0.0,0.0,0.0,0.0,0.0,0.364,0.0,0.0,0.0
119,0.0,0.0,0.0,-0.08365625,0.0,0.0,0.0,0.0,0.0,0.0,-0.182,0.0,0.0,0.0,0.0,0.0,-1.61,-0.09112695004715567,0.0,0.0,0.0,0.0,0.0,0.0,0.408,0.0,0.0,0.0
120,0.0,0.0,0.0,-0.0856865234375,0.0,0.0,0.0,0.0,0.0,0.0,-0.193,0.0,0.0,0.0,0.0,0.0,-1.61,-0.09318480313401095,0.0,0.0,0.0,0.0,0.0,0.0,0.432,0.0,0.0,0.0
121,0.0,0.0,0.0,-0.0874189453125,0.0,0.0,0.0,0.0,0.0,0.0,-0.192,0.0,0.0,0.0,0.0,0.0,-1.61,-0.09494459525475202,0.0,0.0,0.0,0.0,0.0,0.0,0.708,0.0,0.0,0.0
122,0.0,0.0,0.0,-0.0893046875,0.0,0.0,0.0,0.0,0.0,0.0,-0.182,0.0,0.0,0.0,0.0,0.0,-1.61,-0.09685690026330725,0.0,0.0,0.0,0.0,0.0,0.0,0.16,0.0,0.0,0.0
123,0.0,0.0,0.0,-0.091037109375,0.0,0.0,0.0,0.0,0.0,0.0,-0.187,0.0,0.0,0.0,0.0,0.0,-1.61,-0.09861527374415764,0.0,0.0,0.0,0.0,0.0,0.0,0.248,0.0,0.0,0.0
124,0.0,0.0,0.0,-0.092634765625,0.0,0.0,0.0,0.0,0.0,0.0,-0.174,0.0,0.0,0.0,0.0,0.0,-1.61,-0.10023806644613764,0.0,0.0,0.0,0.0,0.0,0.0,0.16,0.0,0.0,0.0
125,0.0,0.0,0.0,-0.0943671875,0.0,0.0,0.0,0.0,0.0,0.0,-0.159,0.0,0.0,0.0,0.0,0.0,-1.61,-0.10199561492197717,0.0,0.0,0.0,0.0,0.0,0.0,-0.228,0.0,0.0,0.0
126,0.0,0.0,0.0,-0.0962529296875,0.0,0.0,0.0,0.0,0.0,0.0,-0.186,0.0,0.0,0.0,0.0,0.0,-1.61,-0.10390505771215743,0.0,0.0,0.0,0.0,0.0,0.0,-0.296,0.0,0.0,0.0
127,0.0,0.0,0.0,-0.09800390625,0.0,0.0,0.0,0.0,0.0,0.0,-0.184,0.0,0.0,0.0,0.0,0.0,-1.61,-0.1056797230155701,0.0,0.0,0.0,0.0,0.0,0.0,-0.112,0.0,0.0,0.0
128,0.0,0.0,0.0,-0.099591796875,0.0,0.0,0.0,0.0,0.0,0.0,-0.16,0.0,0.0,0.0,0.0,0.0,-1.61,-0.10729068300534408,0.0,0.0,0.0,0.0,0.0,0.0,0.068,0.0,0.0,0.0
129,0.0,0.0,0.0,-0.1011884765625,0.0,0.0,0.0,0.0,0.0,0.0,-0.163,0.0,0.0,0.0,0.0,0.0,-1.61,-0.10731251631699709,0.0,0.0,0.0,0.0,0.0,0.0,-0.02,0.0,0.0,0.0
130,0.0,0.0,0.0,-0.10277734375,0.0,0.0,0.0,0.0,0.0,0.0,-0.167,0.0,0.0,0.0,0.0,0.0,-1.61,-0.11052009009197858,0.0,0.0,0.0,0.0,0.0,0.0,-0.204,0.0,0.0,0.0
131,0.0,0.0,0.0,-0.1045185546875,0.0,0.0,0.0,0.0,0.0,0.0,-0.164,0.0,0.0,0.0,0.0,0.0,-1.61,-0.11228208658314194,0.0,0.0,0.0,0.0,0.0,0.0,-0.5,0.0,0.0,0.0
132,0.0,0.0,0.0,-0.1059619140625,0.0,0.0,0.0,0.0,0.0,0.0,-0.162,0.0,0.0,0.0,0.0,0.0,-1.61,-0.11374601465631323,0.0,0.0,0.0,0.0,0.0,0.0,0.18,0.0,0.0,0.0
133,0.0,0.0,0.0,-0.1074150390625,0.0,0.0,0.0,0.0,0.0,0.0,-0.138,0.0,0.0,0.0,0.0,0.0,-1.61,-0.11521866579738305,0.0,0.0,0.0,0.0,0.0,0.0,0.068,0.0,0.0,0.0
134,0.0,0.0,0.0,-0.1092919921875,0.0,0.0,0.0,0.0,0.0,0.0,-0.175,0.0,0.0,0.0,0.0,0.0,-1.61,-0.1171149270880084,0.0,0.0,0.0,0.0,0.0,0.0,0.16,0.0,0.0,0.0
135,0.0,0.0,0.0,-0.110888671875,0.0,0.0,0.0,0.0,0.0,0.0,-0.18,0.0,0.0,0.0,0.0,0.0,-1.61,-0.11873007522927255,0.0,0.0,0.0,0.0,0.0,0.0,0.296,0.0,0.0,0.0
136,0.0,0.0,0.0,-0.11262109375,0.0,0.0,0.0,0.0,0.0,0.0,-0.16,0.0,0.0,0.0,0.0,0.0,-1.61,-0.12048012239376184,0.0,0.0,0.0,0.0,0.0,0.0,0.248,0.0,0.0,0.0
137,0.0,0.0,0.0,-0.1146513671875,0.0,0.0,0.0,0.0,0.0,0.0,-0.183,0.0,0.0,0.0,0.0,0.0,-1.61,-0.1225278015977883,0.0,0.0,0.0,0.0,0.0,0.0,0.568,0.0,0.0,0.0
138,0.0,0.0,0.0,-0.1163837890625,0.0,0.0,0.0,0.0,0.0,0.0,-0.199,0.0,0.0,0.0,0.0,0.0,-1.61,-0.12427678370395505,0.0,0.0,0.0,0.0,0.0,0.0,0.98,0.0,0.0,0.0
139,0.0,0.0,0.0,-0.1182705078125,0.0,0.0,0.0,0.0,0.0,0.0,-0.18,0.0,0.0,0.0,0.0,0.0,-1.61,-0.12617963365778834,0.0,0.0,0.0,0.0,0.0,0.0,0.844,0.0,0.0,0.0
140,0.0,0.0,0.0,-0.1203095703125,0.0,0.0,0.0,0.0,0.0,0.0,-0.194,0.0,0.0,0.0,0.0,0.0,-1.61,-0.1282337680365473,0.0,0.0,0.0,0.0,0.0,0.0,0.204,0.0,0.0,0.0
141,0.0,0.0,0.0,-0.1223310546875,0.0,0.0,0.0,0.0,0.0,0.0,-0.215,0.0,0.0,0.0,0.0,0.0,-1.61,-0.13026989232405173,0.0,0.0,0.0,0.0,0.0,0.0,0.32,0.0,0.0,0.0
142,0.0,0.0,0.0,-0.124216796875,0.0,0.0,0.0,0.0,0.0,0.0,-0.193,0.0,0.0,0.0,0.0,0.0,-1.61,-0.13216963188449599,0.0,0.0,0.0,0.0,0.0,0.0,0.16,0.0,0.0,0.0
143,0.0,0.0,0.0,-0.1262470703125,0.0,0.0,0.0,0.0,0.0,0.0,-0.2,0.0,0.0,0.0,0.0,0.0,-1.61,-0.13421325902248532,0.0,0.0,0.0,0.0,0.0,0.0,0.408,0.0,0.0,0.0
144,0.0,0.0,0.0,-0.1282685546875,0.0,0.0,0.0,0.0,0.0,0.0,-0.205,0.0,0.0,0.0,0.0,0.0,-1.61,-0.1362476639585744,0.0,0.0,0.0,0.0,0.0,0.0,0.8,0.0,0.0,0.0
145,0.0,0.0,0.0,-0.130154296875,0.0,0.0,0.0,0.0,0.0,0.0,-0.19,0.0,0.0,0.0,0.0,0.0,-1.61,-0.13814525800871458,0.0,0.0,0.0,0.0,0.0,0.0,0.568,0.0,0.0,0.0
146,0.0,0.0,0.0,-0.1321748046875,0.0,0.0,0.0,0.0,0.0,0.0,-0.197,0.0,0.0,0.0,0.0,0.0,-1.61,-0.140177394430172,0.0,0.0,0.0,0.0,0.0,0.0,0.204,0.0,0.0,0.0
147,0.0,0.0,0.0,-0.134205078125,0.0,0.0,0.0,0.0,0.0,0.0,-0.212,0.0,0.0,0.0,0.0,0.0,-1.61,-0.14221822463327524,0.0,0.0,0.0,0.0,0.0,0.0,0.112,0.0,0.0,0.0
148,0.0,0.0,0.0,-0.1362353515625,0.0,0.0,0.0,0.0,0.0,0.0,-0.2,0.0,0.0,0.0,0.0,0.0,-1.61,-0.14425883096287456,0.0,0.0,0.0,0.0,0.0,0.0,0.272,0.0,0.0,0.0
149,0.0,0.0,0.0,-0.1382568359375,0.0,0.0,0.0,0.0,0.0,0.0,-0.203,0.0,0.0,0.0,0.0,0.0,-1.61,-0.1462897865864542,0.0,0.0,0.0,0.0,0.0,0.0,0.64,0.0,0.0,0.0
150,0.0,0.0,0.0,-0.140287109375,0.0,0.0,0.0,0.0,0.0,0.0,-0.205,0.0,0.0,0.0,0.0,0.0,-1.61,-0.14832866785848556,0.0,0.0,0.0,0.0,0.0,0.0,0.888,0.0,0.0,0.0
151,0.0,0.0,0.0,-0.142326171875,0.0,0.0,0.0,0.0,0.0,0.0,-0.204,0.0,0.0,0.0,0.0,0.0,-1.61,-0.15037611352573133,0.0,0.0,0.0,0.0,0.0,0.0,0.364,0.0,0.0,0.0
152,0.0,0.0,0.0,-0.1444921875,0.0,0.0,0.0,0.0,0.0,0.0,-0.213,0.0,0.0,0.0,0.0,0.0,-1.61,-0.15254964775381025,0.0,0.0,0.0,0.0,0.0,0.0,0.752,0.0,0.0,0.0
153,0.0,0.0,0.0,-0.1462333984375,0.0,0.0,0.0,0.0,0.0,0.0,-0.199,0.0,0.0,0.0,0.0,0.0,-1.61,-0.15429772511939643,0.0,0.0,0.0,0.0,0.0,0.0,0.888,0.0,0.0,0.0
154,0.0,0.0,0.0,-0.148263671875,0.0,0.0,0.0,0.0,0.0,0.0,-0.192,0.0,0.0,0.0,0.0,0.0,-1.61,-0.1563342122542178,0.0,0.0,0.0,0.0,0.0,0.0,0.548,0.0,0.0,0.0
155,0.0,0.0,0.0,-0.15057421875,0.0,0.0,0.0,0.0,0.0,0.0,-0.219,0.0,0.0,0.0,0.0,0.0,-1.61,-0.15865031959283443,0.0,0.0,0.0,0.0,0.0,0.0,0.32,0.0,0.0,0.0
156,0.0,0.0,0.0,-0.1524599609375,0.0,0.0,0.0,0.0,0.0,0.0,-0.216,0.0,0.0,0.0,0.0,0.0,-1.61,-0.16054096856017946,0.0,0.0,0.0,0.0,0.0,0.0,0.296,0.0,0.0,0.0
157,0.0,0.0,0.0,-0.154634765625,0.0,0.0,0.0,0.0,0.0,0.0,-0.196,0.0,0.0,0.0,0.0,0.0,-1.61,-0.16272024026138576,0.0,0.0,0.0,0.0,0.0,0.0,-0.068,0.0,0.0,0.0
158,0.0,0.0,0.0,-0.15665625,0.0,0.0,0.0,0.0,0.0,0.0,-0.214,0.0,0.0,0.0,0.0,0.0,-1.61,-0.16474510868204958,0.0,0.0,0.0,0.0,0.0,0.0,0.32,0.0,0.0,0.0
159,0.0,0.0,0.0,-0.1583974609375,0.0,0.0,0.0,0.0,0.0,0.0,-0.194,0.0,0.0,0.0,0.0,0.0,-1.61,-0.16648947763037913,0.0,0.0,0.0,0.0,0.0,0.0,-0.068,0.0,0.0,0.0
160,0.0,0.0,0.0,-0.1604189453125,0.0,0.0,0.0,0.0,0.0,0.0,-0.182,0.0,0.0,0.0,0.0,0.0,-1.61,-0.16851303617192354,0.0,0.0,0.0,0.0,0.0,0.0,-0.388,0.0,0.0,0.0
161,0.0,0.0,0.0,-0.1623046875,0.0,0.0,0.0,0.0,0.0,0.0,-0.202,0.0,0.0,0.0,0.0,0.0,-1.61,-0.17040041178754942,0.0,0.0,0.0,0.0,0.0,0.0,-0.388,0.0,0.0,0.0
162,0.0,0.0,0.0,-0.1641904296875,0.0,0.0,0.0,0.0,0.0,0.0,-0.191,0.0,0.0,0.0,0.0,0.0,-1.61,-0.17228734670568654,0.0,0.0,0.0,0.0,0.0,0.0,-0.364,0.0,0.0,0.0
163,0.0,0.0,0.0,-0.166076171875,0.0,0.0,0.0,0.0,0.0,0.0,-0.187,0.0,0.0,0.0,0.0,0.0,-1.61,-0.17417341169767386,0.0,0.0,0.0,0.0,0.0,0.0,-0.088,0.0,0.0,0.0
164,0.0,0.0,0.0,-0.1679619140625,0.0,0.0,0.0,0.0,0.0,0.0,-0.194,0.0,0.0,0.0,0.0,0.0,-1.61,-0.1760590358171381,0.0,0.0,0.0,0.0,0.0,0.0,-0.088,0.0,0.0,0.0
165,0.0,0.0,0.0,-0.1696943359375,0.0,0.0,0.0,0.0,0.0,0.0,-0.188,0.0,0.0,0.0,0.0,0.0,-1.61,-0.17779025507268115,0.0,0.0,0.0,0.0,0.0,0.0,0.16,0.0,0.0,0.0
166,0.0,0.0,0.0,-0.1714365234375,0.0,0.0,0.0,0.0,0.0,0.0,-0.17,0.0,0.0,0.0,0.0,0.0,-1.61,-0.17953079920510298,0.0,0.0,0.0,0.0,0.0,0.0,0.044,0.0,0.0,0.0
167,0.0,0.0,0.0,-0.173322265625,0.0,0.0,0.0,0.0,0.0,0.0,-0.177,0.0,0.0,0.0,0.0,0.0,-1.61,-0.18141424283544128,0.0,0.0,0.0,0.0,0.0,0.0,0.088,0.0,0.0,0.0
168,0.0,0.0,0.0,-0.1750546875,0.0,0.0,0.0,0.0,0.0,0.0,-0.182,0.0,0.0,0.0,0.0,0.0,-1.61,-0.18314371114975225,0.0,0.0,0.0,0.0,0.0,0.0,0.8,0.0,0.0,0.0
169,0.0,0.0,0.0,-0.1767958984375,0.0,0.0,0.0,0.0,0.0,0.0,-0.168,0.0,0.0,0.0,0.0,0.0,-1.61,-0.18488131376211137,0.0,0.0,0.0,0.0,0.0,0.0,0.868,0.0,0.0,0.0
170,0.0,0.0,0.0,-0.1789619140625,0.0,0.0,0.0,0.0,0.0,0.0,-0.197,0.0,0.0,0.0,0.0,0.0,-1.61,-0.18704306658959374,0.0,0.0,0.0,0.0,0.0,0.0,0.708,0.0,0.0,0.0
171,0.0,0.0,0.0,-0.1809921875,0.0,0.0,0.0,0.0,0.0,0.0,-0.219,0.0,0.0,0.0,0.0,0.0,-1.61,-0.18906842310225072,0.0,0.0,0.0,0.0,0.0,0.0,0.936,0.0,0.0,0.0
172,0.0,0.0,0.0,-0.1828779296875,0.0,0.0,0.0,0.0,0.0,0.0,-0.193,0.0,0.0,0.0,0.0,0.0,-1.61,-0.19094880842776277,0.0,0.0,0.0,0.0,0.0,0.0,0.936,0.0,0.0,0.0
173,0.0,0.0,0.0,-0.1848994140625,0.0,0.0,0.0,0.0,0.0,0.0,-0.193,0.0,0.0,0.0,0.0,0.0,-1.61,-0.19296385490441725,0.0,0.0,0.0,0.0,0.0,0.0,1.052,0.0,0.0,0.0
174,0.0,0.0,0.0,-0.18678515625,0.0,0.0,0.0,0.0,0.0,0.0,-0.201,0.0,0.0,0.0,0.0,0.0,-1.61,-0.194842933795145,0.0,0.0,0.0,0.0,0.0,0.0,0.708,0.0,0.0,0.0
175,0.0,0.0,0.0,-0.1888154296875,0.0,0.0,0.0,0.0,0.0,0.0,-0.197,0.0,0.0,0.0,0.0,0.0,-1.61,-0.19686567787388126,0.0,0.0,0.0,0.0,0.0,0.0,0.228,0.0,0.0,0.0
176,0.0,0.0,0.0,-0.190701171875,0.0,0.0,0.0,0.0,0.0,0.0,-0.2,0.0,0.0,0.0,0.0,0.0,-1.61,-0.1987432390423017,0.0,0.0,0.0,0.0,0.0,0.0,0.18,0.0,0.0,0.0
177,0.0,0.0,0.0,-0.1927314453125,0.0,0.0,0.0,0.0,0.0,0.0,-0.198,0.0,0.0,0.0,0.0,0.0,-1.61,-0.20076468046265253,0.0,0.0,0.0,0.0,0.0,0.0,0.432,0.0,0.0,0.0
178,0.0,0.0,0.0,-0.195041015625,0.0,0.0,0.0,0.0,0.0,0.0,-0.215,0.0,0.0,0.0,0.0,0.0,-1.61,-0.20306455598328402,0.0,0.0,0.0,0.0,0.0,0.0,0.408,0.0,0.0,0.0
179,0.0,0.0,0.0,-0.1970712890625,0.0,0.0,0.0,0.0,0.0,0.0,-0.222,0.0,0.0,0.0,0.0,0.0,-1.61,-0.20508491037364351,0.0,0.0,0.0,0.0,0.0,0.0,0.388,0.0,0.0,0.0
180,0.0,0.0,0.0,-0.1991015625,0.0,0.0,0.0,0.0,0.0,0.0,-0.203,0.0,0.0,0.0,0.0,0.0,-1.61,-0.20710440331712393,0.0,0.0,0.0,0.0,0.0,0.0,0.204,0.0,0.0,0.0
181,0.0,0.0,0.0,-0.201123046875,0.0,0.0,0.0,0.0,0.0,0.0,-0.203,0.0,0.0,0.0,0.0,0.0,-1.61,-0.2091144593753722,0.0,0.0,0.0,0.0,0.0,0.0,0.388,0.0,0.0,0.0
182,0.0,0.0,0.0,-0.2030087890625,0.0,0.0,0.0,0.0,0.0,0.0,-0.196,0.0,0.0,0.0,0.0,0.0,-1.61,-0.21098833762878547,0.0,0.0,0.0,0.0,0.0,0.0,0.408,0.0,0.0,0.0
183,0.0,0.0,0.0,-0.20518359375,0.0,0.0,0.0,0.0,0.0,0.0,-0.198,0.0,0.0,0.0,0.0,0.0,-1.61,-0.2131502095558368,0.0,0.0,0.0,0.0,0.0,0.0,0.136,0.0,0.0,0.0
184,0.0,0.0,0.0,-0.207205078125,0.0,0.0,0.0,0.0,0.0,0.0,-0.222,0.0,0.0,0.0,0.0,0.0,-1.61,-0.21515832788886938,0.0,0.0,0.0,0.0,0.0,0.0,0.98,0.0,0.0,0.0
185,0.0,0.0,0.0,-0.2090908203125,0.0,0.0,0.0,0.0,0.0,0.0,-0.2,0.0,0.0,0.0,0.0,0.0,-1.61,-0.2170300602260208,0.0,0.0,0.0,0.0,0.0,0.0,1.188,0.0,0.0,0.0
186,0.0,0.0,0.0,-0.211400390625,0.0,0.0,0.0,0.0,0.0,0.0,-0.201,0.0,0.0,0.0,0.0,0.0,-1.61,-0.21932497801387582,0.0,0.0,0.0,0.0,0.0,0.0,0.64,0.0,0.0,0.0
187,0.0,0.0,0.0,-0.2132958984375,0.0,0.0,0.0,0.0,0.0,0.0,-0.222,0.0,0.0,0.0,0.0,0.0,-1.61,-0.22120540119512178,0.0,0.0,0.0,0.0,0.0,0.0,0.66,0.0,0.0,0.0
188,0.0,0.0,0.0,-0.215326171875,0.0,0.0,0.0,0.0,0.0,0.0,-0.198,0.0,0.0,0.0,0.0,0.0,-1.61,-0.22321953055734195,0.0,0.0,0.0,0.0,0.0,0.0,-0.18,0.0,0.0,0.0
189,0.0,0.0,0.0,-0.2174912109375,0.0,0.0,0.0,0.0,0.0,0.0,-0.211,0.0,0.0,0.0,0.0,0.0,-1.61,-0.22536841338608052,0.0,0.0,0.0,0.0,0.0,0.0,0.136,0.0,0.0,0.0
190,0.0,0.0,0.0,-0.219521484375,0.0,0.0,0.0,0.0,0.0,0.0,-0.21,0.0,0.0,0.0,0.0,0.0,-1.61,-0.22738126606797,0.0,0.0,0.0,0.0,0.0,0.0,0.228,0.0,0.0,0.0
191,0.0,0.0,0.0,-0.221408203125,0.0,0.0,0.0,0.0,0.0,0.0,-0.2,0.0,0.0,0.0,0.0,0.0,-1.61,-0.22925013673726416,0.0,0.0,0.0,0.0,0.0,0.0,0.32,0.0,0.0,0.0
192,0.0,0.0,0.0,-0.223140625,0.0,0.0,0.0,0.0,0.0,0.0,-0.185,0.0,0.0,0.0,0.0,0.0,-1.61,-0.23096407570047553,0.0,0.0,0.0,0.0,0.0,0.0,0.616,0.0,0.0,0.0
193,0.0,0.0,0.0,-0.2247373046875,0.0,0.0,0.0,0.0,0.0,0.0,-0.167,0.0,0.0,0.0,0.0,0.0,-1.61,-0.23254163914135859,0.0,0.0,0.0,0.0,0.0,0.0,-0.18,0.0,0.0,0.0
194,0.0,0.0,0.0,-0.2267587890625,0.0,0.0,0.0,0.0,0.0,0.0,-0.183,0.0,0.0,0.0,0.0,0.0,-1.61,-0.23454337548243812,0.0,0.0,0.0,0.0,0.0,0.0,-0.66,0.0,0.0,0.0
195,0.0,0.0,0.0,-0.2285,0.0,0.0,0.0,0.0,0.0,0.0,-0.193,0.0,0.0,0.0,0.0,0.0,-1.61,-0.23626420819738433,0.0,0.0,0.0,0.0,0.0,0.0,-0.432,0.0,0.0,0.0
196,0.0,0.0,0.0,-0.230232421875,0.0,0.0,0.0,0.0,0.0,0.0,-0.173,0.0,0.0,0.0,0.0,0.0,-1.61,-0.23797562331088337,0.0,0.0,0.0,0.0,0.0,0.0,-0.248,0.0,0.0,0.0
197,0.0,0.0,0.0,-0.2322626953125,0.0,0.0,0.0,0.0,0.0,0.0,-0.183,0.0,0.0,0.0,0.0,0.0,-1.61,-0.2399842631485038,0.0,0.0,0.0,0.0,0.0,0.0,0.02,0.0,0.0,0.0
198,0.0,0.0,0.0,-0.2340048828125,0.0,0.0,0.0,0.0,0.0,0.0,-0.198,0.0,0.0,0.0,0.0,0.0,-1.61,-0.24170439568119376,0.0,0.0,0.0,0.0,0.0,0.0,0.272,0.0,0.0,0.0
199,0.0,0.0,0.0,-0.2354482421875,0.0,0.0,0.0,0.0,0.0,0.0,-0.162,0.0,0.0,0.0,0.0,0.0,-1.61,-0.24312466874988442,0.0,0.0,0.0,0.0,0.0,0.0,-0.068,0.0,0.0,0.0
200,0.0,0.0,0.0,-0.2373427734375,0.0,0.0,0.0,0.0,0.0,0.0,-0.164,0.0,0.0,0.0,0.0,0.0,-1.61,-0.24499589905258817,0.0,0.0,0.0,0.0,0.0,0.0,0.068,0.0,0.0,0.0
201,0.0,0.0,0.0,-0.2392197265625,0.0,0.0,0.0,0.0,0.0,0.0,-0.191,0.0,0.0,0.0,0.0,0.0,-1.61,-0.24684872793138674,0.0,0.0,0.0,0.0,0.0,0.0,0.432,0.0,0.0,0.0
202,0.0,0.0,0.0,-0.24125,0.0,0.0,0.0,0.0,0.0,0.0,-0.19,0.0,0.0,0.0,0.0,0.0,-1.61,-0.24885385717080769,0.0,0.0,0.0,0.0,0.0,0.0,0.684,0.0,0.0,0.0
203,0.0,0.0,0.0,-0.243271484375,0.0,0.0,0.0,0.0,0.0,0.0,-0.207,0.0,0.0,0.0,0.0,0.0,-1.61,-0.250850387735957,0.0,0.0,0.0,0.0,0.0,0.0,1.072,0.0,0.0,0.0
204,0.0,0.0,0.0,-0.2453017578125,0.0,0.0,0.0,0.0,0.0,0.0,-0.212,0.0,0.0,0.0,0.0,0.0,-1.61,-0.25285469014000783,0.0,0.0,0.0,0.0,0.0,0.0,1.12,0.0,0.0,0.0
205,0.0,0.0,0.0,-0.2471875,0.0,0.0,0.0,0.0,0.0,0.0,-0.199,0.0,0.0,0.0,0.0,0.0,-1.61,-0.25471384982620404,0.0,0.0,0.0,0.0,0.0,0.0,0.66,0.0,0.0,0.0
206,0.0,0.0,0.0,-0.249208984375,0.0,0.0,0.0,0.0,0.0,0.0,-0.19,0.0,0.0,0.0,0.0,0.0,-1.61,-0.2567083407295597,0.0,0.0,0.0,0.0,0.0,0.0,0.708,0.0,0.0,0.0
207,0.0,0.0,0.0,-0.2510947265625,0.0,0.0,0.0,0.0,0.0,0.0,-0.192,0.0,0.0,0.0,0.0,0.0,-1.61,-0.258565887294636,0.0,0.0,0.0,0.0,0.0,0.0,0.408,0.0,0.0,0.0
208,0.0,0.0,0.0,-0.2529716796875,0.0,0.0,0.0,0.0,0.0,0.0,-0.197,0.0,0.0,0.0,0.0,0.0,-1.61,-0.2604146349697074,0.0,0.0,0.0,0.0,0.0,0.0,0.708,0.0,0.0,0.0
209,0.0,0.0,0.0,-0.255001953125,0.0,0.0,0.0,0.0,0.0,0.0,-0.196,0.0,0.0,0.0,0.0,0.0,-1.61,-0.26241609811107763,0.0,0.0,0.0,0.0,0.0,0.0,0.8,0.0,0.0,0.0
210,0.0,0.0,0.0,-0.2570322265625,0.0,0.0,0.0,0.0,0.0,0.0,-0.204,0.0,0.0,0.0,0.0,0.0,-1.61,-0.26441656811668024,0.0,0.0,0.0,0.0,0.0,0.0,0.64,0.0,0.0,0.0
211,0.0,0.0,0.0,-0.2590537109375,0.0,0.0,0.0,0.0,0.0,0.0,-0.207,0.0,0.0,0.0,0.0,0.0,-1.61,-0.2664078480808362,0.0,0.0,0.0,0.0,0.0,0.0,0.616,0.0,0.0,0.0
212,0.0,0.0,0.0,-0.260794921875,0.0,0.0,0.0,0.0,0.0,0.0,-0.182,0.0,0.0,0.0,0.0,0.0,-1.61,-0.268118259233634,0.0,0.0,0.0,0.0,0.0,0.0,0.388,0.0,0.0,0.0
213,0.0,0.0,0.0,-0.2629697265625,0.0,0.0,0.0,0.0,0.0,0.0,-0.194,0.0,0.0,0.0,0.0,0.0,-1.61,-0.270261864055304,0.0,0.0,0.0,0.0,0.0,0.0,0.228,0.0,0.0,0.0
214,0.0,0.0,0.0,-0.26485546875,0.0,0.0,0.0,0.0,0.0,0.0,-0.218,0.0,0.0,0.0,0.0,0.0,-1.61,-0.27211562152824265,0.0,0.0,0.0,0.0,0.0,0.0,0.592,0.0,0.0,0.0
215,0.0,0.0,0.0,-0.2667412109375,0.0,0.0,0.0,0.0,0.0,0.0,-0.19,0.0,0.0,0.0,0.0,0.0,-1.61,-0.27396879120492984,0.0,0.0,0.0,0.0,0.0,0.0,0.568,0.0,0.0,0.0
216,0.0,0.0,0.0,-0.2687626953125,0.0,0.0,0.0,0.0,0.0,0.0,-0.193,0.0,0.0,0.0,0.0,0.0,-1.61,-0.27595711791000016,0.0,0.0,0.0,0.0,0.0,0.0,0.888,0.0,0.0,0.0
217,0.0,0.0,0.0,-0.27079296875,0.0,0.0,0.0,0.0,0.0,0.0,-0.21,0.0,0.0,0.0,0.0,0.0,-1.61,-0.27795365120296367,0.0,0.0,0.0,0.0,0.0,0.0,1.004,0.0,0.0,0.0
218,0.0,0.0,0.0,-0.272669921875,0.0,0.0,0.0,0.0,0.0,0.0,-0.197,0.0,0.0,0.0,0.0,0.0,-1.61,-0.27979609607243044,0.0,0.0,0.0,0.0,0.0,0.0,0.752,0.0,0.0,0.0
219,0.0,0.0,0.0,-0.2747001953125,0.0,0.0,0.0,0.0,0.0,0.0,-0.193,0.0,0.0,0.0,0.0,0.0,-1.61,-0.28179166195846544,0.0,0.0,0.0,0.0,0.0,0.0,0.616,0.0,0.0,0.0
220,0.0,0.0,0.0,-0.276296875,0.0,0.0,0.0,0.0,0.0,0.0,-0.182,0.0,0.0,0.0,0.0,0.0,-1.61,-0.2833530571586342,0.0,0.0,0.0,0.0,0.0,0.0,0.912,0.0,0.0,0.0
221,0.0,0.0,0.0,-0.2778857421875,0.0,0.0,0.0,0.0,0.0,0.0,-0.163,0.0,0.0,0.0,0.0,0.0,-1.61,-0.28490550912656504,0.0,0.0,0.0,0.0,0.0,0.0,0.248,0.0,0.0,0.0
222,0.0,0.0,0.0,-0.279626953125,0.0,0.0,0.0,0.0,0.0,0.0,-0.169,0.0,0.0,0.0,0.0,0.0,-1.61,-0.286610295960204,0.0,0.0,0.0,0.0,0.0,0.0,0.388,0.0,0.0,0.0
223,0.0,0.0,0.0,-0.281359375,0.0,0.0,0.0,0.0,0.0,0.0,-0.169,0.0,0.0,0.0,0.0,0.0,-1.61,-0.2883057254135145,0.0,0.0,0.0,0.0,0.0,0.0,-0.228,0.0,0.0,0.0
224,0.0,0.0,0.0,-0.2831005859375,0.0,0.0,0.0,0.0,0.0,0.0,-0.175,0.0,0.0,0.0,0.0,0.0,-1.61,-0.29000901343528834,0.0,0.0,0.0,0.0,0.0,0.0,-0.248,0.0,0.0,0.0
225,0.0,0.0,0.0,-0.284689453125,0.0,0.0,0.0,0.0,0.0,0.0,-0.174,0.0,0.0,0.0,0.0,0.0,-1.61,-0.2915595829353619,0.0,0.0,0.0,0.0,0.0,0.0,-0.068,0.0,0.0,0.0
226,0.0,0.0,0.0,-0.2864306640625,0.0,0.0,0.0,0.0,0.0,0.0,-0.168,0.0,0.0,0.0,0.0,0.0,-1.61,-0.29326193996621086,0.0,0.0,0.0,0.0,0.0,0.0,0.18,0.0,0.0,0.0
227,0.0,0.0,0.0,-0.28802734375,0.0,0.0,0.0,0.0,0.0,0.0,-0.165,0.0,0.0,0.0,0.0,0.0,-1.61,-0.2948193921112912,0.0,0.0,0.0,0.0,0.0,0.0,-0.068,0.0,0.0,0.0
228,0.0,0.0,0.0,-0.28948046875,0.0,0.0,0.0,0.0,0.0,0.0,-0.156,0.0,0.0,0.0,0.0,0.0,-1.61,-0.29623255811601173,0.0,0.0,0.0,0.0,0.0,0.0,-0.296,0.0,0.0,0.0
229,0.0,0.0,0.0,-0.290923828125,0.0,0.0,0.0,0.0,0.0,0.0,-0.146,0.0,0.0,0.0,0.0,0.0,-1.61,-0.29763523451305024,0.0,0.0,0.0,0.0,0.0,0.0,-0.48,0.0,0.0,0.0
230,0.0,0.0,0.0,-0.2923681640625,0.0,0.0,0.0,0.0,0.0,0.0,-0.146,0.0,0.0,0.0,0.0,0.0,-1.61,-0.29903869973814445,0.0,0.0,0.0,0.0,0.0,0.0,-0.408,0.0,0.0,0.0
231,0.0,0.0,0.0,-0.2936767578125,0.0,0.0,0.0,0.0,0.0,0.0,-0.143,0.0,0.0,0.0,0.0,0.0,-1.61,-0.30030570431568593,0.0,0.0,0.0,0.0,0.0,0.0,0.02,0.0,0.0,0.0
232,0.0,0.0,0.0,-0.2952646484375,0.0,0.0,0.0,0.0,0.0,0.0,-0.136,0.0,0.0,0.0,0.0,0.0,-1.61,-0.3018514690472358,0.0,0.0,0.0,0.0,0.0,0.0,0.0,0.0,0.0,0.0
233,0.0,0.0,0.0,-0.296716796875,0.0,0.0,0.0,0.0,0.0,0.0,-0.157,0.0,0.0,0.0,0.0,0.0,-1.61,-0.3032609582810704,0.0,0.0,0.0,0.0,0.0,0.0,0.136,0.0,0.0,0.0
234,0.0,0.0,0.0,-0.2980166015625,0.0,0.0,0.0,0.0,0.0,0.0,-0.14,0.0,0.0,0.0,0.0,0.0,-1.61,-0.3045175739086454,0.0,0.0,0.0,0.0,0.0,0.0,0.112,0.0,0.0,0.0
235,0.0,0.0,0.0,-0.2994697265625,0.0,0.0,0.0,0.0,0.0,0.0,-0.138,0.0,0.0,0.0,0.0,0.0,-1.61,-0.3059269834893175,0.0,0.0,0.0,0.0,0.0,0.0,0.5,0.0,0.0,0.0
236,0.0,0.0,0.0,-0.3009130859375,0.0,0.0,0.0,0.0,0.0,0.0,-0.146,0.0,0.0,0.0,0.0,0.0,-1.61,-0.3073261046250608,0.0,0.0,0.0,0.0,0.0,0.0,0.776,0.0,0.0,0.0
237,0.0,0.0,0.0,-0.3023564453125,0.0,0.0,0.0,0.0,0.0,0.0,-0.138,0.0,0.0,0.0,0.0,0.0,-1.61,-0.3087248746610359,0.0,0.0,0.0,0.0,0.0,0.0,0.96,0.0,0.0,0.0
238,0.0,0.0,0.0,-0.3039541015625,0.0,0.0,0.0,0.0,0.0,0.0,-0.149,0.0,0.0,0.0,0.0,0.0,-1.61,-0.31027708847464786,0.0,0.0,0.0,0.0,0.0,0.0,0.752,0.0,0.0,0.0
239,0.0,0.0,0.0,-0.3055419921875,0.0,0.0,0.0,0.0,0.0,0.0,-0.166,0.0,0.0,0.0,0.0,0.0,-1.61,-0.3118195254698808,0.0,0.0,0.0,0.0,0.0,0.0,0.844,0.0,0.0,0.0
240,0.0,0.0,0.0,-0.3071396484375,0.0,0.0,0.0,0.0,0.0,0.0,-0.167,0.0,0.0,0.0,0.0,0.0,-1.61,-0.31337055453376944,0.0,0.0,0.0,0.0,0.0,0.0,1.052,0.0,0.0,0.0
241,0.0,0.0,0.0,-0.3088720703125,0.0,0.0,0.0,0.0,0.0,0.0,-0.162,0.0,0.0,0.0,0.0,0.0,-1.61,-0.3150563418254498,0.0,0.0,0.0,0.0,0.0,0.0,0.8,0.0,0.0,0.0
242,0.0,0.0,0.0,-0.31046875,0.0,0.0,0.0,0.0,0.0,0.0,-0.168,0.0,0.0,0.0,0.0,0.0,-1.61,-0.3166055585015464,0.0,0.0,0.0,0.0,0.0,0.0,0.752,0.0,0.0,0.0
243,0.0,0.0,0.0,-0.3119130859375,0.0,0.0,0.0,0.0,0.0,0.0,-0.156,0.0,0.0,0.0,0.0,0.0,-1.61,-0.3180022597311587,0.0,0.0,0.0,0.0,0.0,0.0,0.64,0.0,0.0,0.0
244,0.0,0.0,0.0,-0.313365234375,0.0,0.0,0.0,0.0,0.0,0.0,-0.146,0.0,0.0,0.0,0.0,0.0,-1.61,-0.3194059577717176,0.0,0.0,0.0,0.0,0.0,0.0,0.5,0.0,0.0,0.0
245,0.0,0.0,0.0,-0.315107421875,0.0,0.0,0.0,0.0,0.0,0.0,-0.158,0.0,0.0,0.0,0.0,0.0,-1.61,-0.3210995258665745,0.0,0.0,0.0,0.0,0.0,0.0,0.32,0.0,0.0,0.0
246,0.0,0.0,0.0,-0.3167041015625,0.0,0.0,0.0,0.0,0.0,0.0,-0.171,0.0,0.0,0.0,0.0,0.0,-1.61,-0.32264694026574287,0.0,0.0,0.0,0.0,0.0,0.0,0.66,0.0,0.0,0.0
247,0.0,0.0,0.0,-0.3181474609375,0.0,0.0,0.0,0.0,0.0,0.0,-0.155,0.0,0.0,0.0,0.0,0.0,-1.61,-0.3240405531575018,0.0,0.0,0.0,0.0,0.0,0.0,1.212,0.0,0.0,0.0
248,0.0,0.0,0.0,-0.3194560546875,0.0,0.0,0.0,0.0,0.0,0.0,-0.136,0.0,0.0,0.0,0.0,0.0,-1.61,-0.32529907739857483,0.0,0.0,0.0,0.0,0.0,0.0,1.28,0.0,0.0,0.0
249,0.0,0.0,0.0,-0.3210439453125,0.0,0.0,0.0,0.0,0.0,0.0,-0.142,0.0,0.0,0.0,0.0,0.0,-1.61,-0.3268359629907067,0.0,0.0,0.0,0.0,0.0,0.0,0.34,0.0,0.0,0.0
250,0.0,0.0,0.0,-0.3226416015625,0.0,0.0,0.0,0.0,0.0,0.0,-0.163,0.0,0.0,0.0,0.0,0.0,-1.61,-0.3283827590660763,0.0,0.0,0.0,0.0,0.0,0.0,-0.136,0.0,0.0,0.0
251,0.0,0.0,0.0,-0.3240849609375,0.0,0.0,0.0,0.0,0.0,0.0,-0.158,0.0,0.0,0.0,0.0,0.0,-1.61,-0.3297743350389068,0.0,0.0,0.0,0.0,0.0,0.0,0.228,0.0,0.0,0.0
252,0.0,0.0,0.0,-0.325673828125,0.0,0.0,0.0,0.0,0.0,0.0,-0.151,0.0,0.0,0.0,0.0,0.0,-1.61,-0.33131111094424226,0.0,0.0,0.0,0.0,0.0,0.0,0.8,0.0,0.0,0.0
253,0.0,0.0,0.0,-0.3272705078125,0.0,0.0,0.0,0.0,0.0,0.0,-0.166,0.0,0.0,0.0,0.0,0.0,-1.61,-0.3328553901668908,0.0,0.0,0.0,0.0,0.0,0.0,1.232,0.0,0.0,0.0
254,0.0,0.0,0.0,-0.3287138671875,0.0,0.0,0.0,0.0,0.0,0.0,-0.157,0.0,0.0,0.0,0.0,0.0,-1.61,-0.334245600925365,0.0,0.0,0.0,0.0,0.0,0.0,1.14,0.0,0.0,0.0
255,0.0,0.0,0.0,-0.3301669921875,0.0,0.0,0.0,0.0,0.0,0.0,-0.143,0.0,0.0,0.0,0.0,0.0,-1.61,-0.3356455669485824,0.0,0.0,0.0,0.0,0.0,0.0,0.524,0.0,0.0,0.0
256,0.0,0.0,0.0,-0.331466796875,0.0,0.0,0.0,0.0,0.0,0.0,-0.146,0.0,0.0,0.0,0.0,0.0,-1.61,-0.33689118845649957,0.0,0.0,0.0,0.0,0.0,0.0,0.616,0.0,0.0,0.0
257,0.0,0.0,0.0,-0.3327744140625,0.0,0.0,0.0,0.0,0.0,0.0,-0.132,0.0,0.0,0.0,0.0,0.0,-1.61,-0.33814447497028716,0.0,0.0,0.0,0.0,0.0,0.0,1.12,0.0,0.0,0.0
258,0.0,0.0,0.0,-0.33407421875,0.0,0.0,0.0,0.0,0.0,0.0,-0.127,0.0,0.0,0.0,0.0,0.0,-1.61,-0.3393897943732953,0.0,0.0,0.0,0.0,0.0,0.0,1.052,0.0,0.0,0.0
259,0.0,0.0,0.0,-0.335517578125,0.0,0.0,0.0,0.0,0.0,0.0,-0.137,0.0,0.0,0.0,0.0,0.0,-1.61,-0.3407776747331939,0.0,0.0,0.0,0.0,0.0,0.0,1.12,0.0,0.0,0.0
260,0.0,0.0,0.0,-0.336681640625,0.0,0.0,0.0,0.0,0.0,0.0,-0.134,0.0,0.0,0.0,0.0,0.0,-1.61,-0.3418862525802086,0.0,0.0,0.0,0.0,0.0,0.0,0.64,0.0,0.0,0.0
261,0.0,0.0,0.0,-0.3381259765625,0.0,0.0,0.0,0.0,0.0,0.0,-0.132,0.0,0.0,0.0,0.0,0.0,-1.61,-0.3432746779840873,0.0,0.0,0.0,0.0,0.0,0.0,0.18,0.0,0.0,0.0
262,0.0,0.0,0.0,-0.3394345703125,0.0,0.0,0.0,0.0,0.0,0.0,-0.136,0.0,0.0,0.0,0.0,0.0,-1.61,-0.3445266714647912,0.0,0.0,0.0,0.0,0.0,0.0,0.136,0.0,0.0,0.0
263,0.0,0.0,0.0,-0.3405986328125,0.0,0.0,0.0,0.0,0.0,0.0,-0.128,0.0,0.0,0.0,0.0,0.0,-1.61,-0.3456338585188685,0.0,0.0,0.0,0.0,0.0,0.0,0.5,0.0,0.0,0.0
264,0.0,0.0,0.0,-0.34146484375,0.0,0.0,0.0,0.0,0.0,0.0,-0.106,0.0,0.0,0.0,0.0,0.0,-1.61,-0.3464429174118892,0.0,0.0,0.0,0.0,0.0,0.0,0.568,0.0,0.0,0.0
265,0.0,0.0,0.0,-0.342619140625,0.0,0.0,0.0,0.0,0.0,0.0,-0.1,0.0,0.0,0.0,0.0,0.0,-1.61,-0.3475395249588472,0.0,0.0,0.0,0.0,0.0,0.0,0.088,0.0,0.0,0.0
266,0.0,0.0,0.0,-0.3434951171875,0.0,0.0,0.0,0.0,0.0,0.0,-0.112,0.0,0.0,0.0,0.0,0.0,-1.61,-0.34835728569479313,0.0,0.0,0.0,0.0,0.0,0.0,0.0,0.0,0.0,0.0
267,0.0,0.0,0.0,-0.344361328125,0.0,0.0,0.0,0.0,0.0,0.0,-0.088,0.0,0.0,0.0,0.0,0.0,-1.61,-0.3491650182204208,0.0,0.0,0.0,0.0,0.0,0.0,-0.272,0.0,0.0,0.0
268,0.0,0.0,0.0,-0.34537109375,0.0,0.0,0.0,0.0,0.0,0.0,-0.09,0.0,0.0,0.0,0.0,0.0,-1.61,-0.3501160413862245,0.0,0.0,0.0,0.0,0.0,0.0,0.136,0.0,0.0,0.0
269,0.0,0.0,0.0,-0.34609375,0.0,0.0,0.0,0.0,0.0,0.0,-0.087,0.0,0.0,0.0,0.0,0.0,-1.61,-0.35077944288518625,0.0,0.0,0.0,0.0,0.0,0.0,0.616,0.0,0.0,0.0
270,0.0,0.0,0.0,-0.34682421875,0.0,0.0,0.0,0.0,0.0,0.0,-0.08,0.0,0.0,0.0,0.0,0.0,-1.61,-0.35145015567001336,0.0,0.0,0.0,0.0,0.0,0.0,0.18,0.0,0.0,0.0
271,0.0,0.0,0.0,-0.3475458984375,0.0,0.0,0.0,0.0,0.0,0.0,-0.073,0.0,0.0,0.0,0.0,0.0,-1.61,-0.35211194991454337,0.0,0.0,0.0,0.0,0.0,0.0,-0.044,0.0,0.0,0.0
272,0.0,0.0,0.0,-0.3481240234375,0.0,0.0,0.0,0.0,0.0,0.0,-0.066,0.0,0.0,0.0,0.0,0.0,-1.61,-0.35262981493239715,0.0,0.0,0.0,0.0,0.0,0.0,-0.02,0.0,0.0,0.0
273,0.0,0.0,0.0,-0.348845703125,0.0,0.0,0.0,0.0,0.0,0.0,-0.057,0.0,0.0,0.0,0.0,0.0,-1.61,-0.35329051405792716,0.0,0.0,0.0,0.0,0.0,0.0,-0.408,0.0,0.0,0.0
274,0.0,0.0,0.0,-0.349576171875,0.0,0.0,0.0,0.0,0.0,0.0,-0.08,0.0,0.0,0.0,0.0,0.0,-1.61,-0.35395999801378264,0.0,0.0,0.0,0.0,0.0,0.0,-0.044,0.0,0.0,0.0
275,0.0,0.0,0.0,-0.350154296875,0.0,0.0,0.0,0.0,0.0,0.0,-0.069,0.0,0.0,0.0,0.0,0.0,-1.61,-0.3544766646497608,0.0,0.0,0.0,0.0,0.0,0.0,0.272,0.0,0.0,0.0
276,0.0,0.0,0.0,-0.3505869140625,0.0,0.0,0.0,0.0,0.0,0.0,-0.047,0.0,0.0,0.0,0.0,0.0,-1.61,-0.3548474734516567,0.0,0.0,0.0,0.0,0.0,0.0,-0.136,0.0,0.0,0.0
277,0.0,0.0,0.0,-0.35130859375,0.0,0.0,0.0,0.0,0.0,0.0,-0.059,0.0,0.0,0.0,0.0,0.0,-1.61,-0.3555071101445013,0.0,0.0,0.0,0.0,0.0,0.0,-0.388,0.0,0.0,0.0
278,0.0,0.0,0.0,-0.35159765625,0.0,0.0,0.0,0.0,0.0,0.0,-0.054,0.0,0.0,0.0,0.0,0.0,-1.61,-0.3557335671917213,0.0,0.0,0.0,0.0,0.0,0.0,-0.524,0.0,0.0,0.0
279,0.0,0.0,0.0,-0.35203125,0.0,0.0,0.0,0.0,0.0,0.0,-0.038,0.0,0.0,0.0,0.0,0.0,-1.61,-0.35610443970318706,0.0,0.0,0.0,0.0,0.0,0.0,-0.456,0.0,0.0,0.0
280,0.0,0.0,0.0,-0.3526083984375,0.0,0.0,0.0,0.0,0.0,0.0,-0.045,0.0,0.0,0.0,0.0,0.0,-1.61,-0.3566183212335342,0.0,0.0,0.0,0.0,0.0,0.0,-0.48,0.0,0.0,0.0
281,0.0,0.0,0.0,-0.35305078125,0.0,0.0,0.0,0.0,0.0,0.0,-0.054,0.0,0.0,0.0,0.0,0.0,-1.61,-0.3569972211659428,0.0,0.0,0.0,0.0,0.0,0.0,-0.204,0.0,0.0,0.0
282,0.0,0.0,0.0,-0.3533388671875,0.0,0.0,0.0,0.0,0.0,0.0,-0.037,0.0,0.0,0.0,0.0,0.0,-1.61,-0.35722160666374264,0.0,0.0,0.0,0.0,0.0,0.0,-0.228,0.0,0.0,0.0
283,0.0,0.0,0.0,-0.3536279296875,0.0,0.0,0.0,0.0,0.0,0.0,-0.031,0.0,0.0,0.0,0.0,0.0,-1.61,-0.3574466492027544,0.0,0.0,0.0,0.0,0.0,0.0,-0.364,0.0,0.0,0.0
284,0.0,0.0,0.0,-0.3539169921875,0.0,0.0,0.0,0.0,0.0,0.0,-0.03,0.0,0.0,0.0,0.0,0.0,-1.61,-0.35767108154675203,0.0,0.0,0.0,0.0,0.0,0.0,-0.524,0.0,0.0,0.0
285,0.0,0.0,0.0,-0.354205078125,0.0,0.0,0.0,0.0,0.0,0.0,-0.028,0.0,0.0,0.0,0.0,0.0,-1.61,-0.3578945342512939,0.0,0.0,0.0,0.0,0.0,0.0,-0.48,0.0,0.0,0.0
286,0.0,0.0,0.0,-0.354494140625,0.0,0.0,0.0,0.0,0.0,0.0,-0.025,0.0,0.0,0.0,0.0,0.0,-1.61,-0.35811856441683415,0.0,0.0,0.0,0.0,0.0,0.0,-0.408,0.0,0.0,0.0
287,0.0,0.0,0.0,-0.354783203125,0.0,0.0,0.0,0.0,0.0,0.0,-0.027,0.0,0.0,0.0,0.0,0.0,-1.61,-0.35834230106413634,0.0,0.0,0.0,0.0,0.0,0.0,-0.16,0.0,0.0,0.0
288,0.0,0.0,0.0,-0.354927734375,0.0,0.0,0.0,0.0,0.0,0.0,-0.028,0.0,0.0,0.0,0.0,0.0,-1.61,-0.35842121823351136,0.0,0.0,0.0,0.0,0.0,0.0,-0.388,0.0,0.0,0.0
289,0.0,0.0,0.0,-0.3552158203125,0.0,0.0,0.0,0.0,0.0,0.0,-0.025,0.0,0.0,0.0,0.0,0.0,-1.61,-0.35864349710973276,0.0,0.0,0.0,0.0,0.0,0.0,-0.228,0.0,0.0,0.0
290,0.0,0.0,0.0,-0.3553603515625,0.0,0.0,0.0,0.0,0.0,0.0,-0.022,0.0,0.0,0.0,0.0,0.0,-1.61,-0.3587217620966716,0.0,0.0,0.0,0.0,0.0,0.0,-0.456,0.0,0.0,0.0
291,0.0,0.0,0.0,-0.3555048828125,0.0,0.0,0.0,0.0,0.0,0.0,-0.02,0.0,0.0,0.0,0.0,0.0,-1.61,-0.358799846548254,0.0,0.0,0.0,0.0,0.0,0.0,-0.228,0.0,0.0,0.0
292,0.0,0.0,0.0,-0.3556494140625,0.0,0.0,0.0,0.0,0.0,0.0,-0.016,0.0,0.0,0.0,0.0,0.0,-1.61,-0.35887774880420237,0.0,0.0,0.0,0.0,0.0,0.0,-0.088,0.0,0.0,0.0
293,0.0,0.0,0.0,-0.3557939453125,0.0,0.0,0.0,0.0,0.0,0.0,-0.007,0.0,0.0,0.0,0.0,0.0,-1.61,-0.3589552185639859,0.0,0.0,0.0,0.0,0.0,0.0,-0.18,0.0,0.0,0.0
294,0.0,0.0,0.0,-0.3559375,0.0,0.0,0.0,0.0,0.0,0.0,-0.017,0.0,0.0,0.0,0.0,0.0,-1.61,-0.35903162324271265,0.0,0.0,0.0,0.0,0.0,0.0,-0.204,0.0,0.0,0.0
295,0.0,0.0,0.0,-0.3559375,0.0,0.0,0.0,0.0,0.0,0.0,-0.01,0.0,0.0,0.0,0.0,0.0,-1.61,-0.358964138006175,0.0,0.0,0.0,0.0,0.0,0.0,-0.228,0.0,0.0,0.0
296,0.0,0.0,0.0,-0.3559375,0.0,0.0,0.0,0.0,0.0,0.0,-0.001,0.0,0.0,0.0,0.0,0.0,-1.61,-0.35889640764914976,0.0,0.0,0.0,0.0,0.0,0.0,-0.16,0.0,0.0,0.0
297,0.0,0.0,0.0,-0.3559375,0.0,0.0,0.0,0.0,0.0,0.0,-0.001,0.0,0.0,0.0,0.0,0.0,-1.61,-0.3588284376569635,0.0,0.0,0.0,0.0,0.0,0.0,-0.136,0.0,0.0,0.0
298,0.0,0.0,0.0,-0.3559375,0.0,0.0,0.0,0.0,0.0,0.0,-0.001,0.0,0.0,0.0,0.0,0.0,-1.61,-0.35876023353434994,0.0,0.0,0.0,0.0,0.0,0.0,-0.088,0.0,0.0,0.0
299,0.0,0.0,0.0,-0.3559375,0.0,0.0,0.0,0.0,0.0,0.0,-0.001,0.0,0.0,0.0,0.0,0.0,-1.61,-0.3586917287441109,0.0,0.0,0.0,0.0,0.0,0.0,-0.228,0.0,0.0,0.0
300,0.0,0.0,0.0,-0.3559375,0.0,0.0,0.0,0.0,0.0,0.0,-0.001,0.0,0.0,0.0,0.0,0.0,-1.61,-0.35862314683293517,0.0,0.0,0.0,0.0,0.0,0.0,-0.18,0.0,0.0,0.0
301,0.0,0.0,0.0,-0.3559375,0.0,0.0,0.0,0.0,0.0,0.0,-0.001,0.0,0.0,0.0,0.0,0.0,-1.61,-0.35855434195212943,0.0,0.0,0.0,0.0,0.0,0.0,-0.34,0.0,0.0,0.0
302,0.0,0.0,0.0,-0.3559375,0.0,0.0,0.0,0.0,0.0,0.0,-0.001,0.0,0.0,0.0,0.0,0.0,-1.61,-0.35848518648856487,0.0,0.0,0.0,0.0,0.0,0.0,-0.248,0.0,0.0,0.0
303,0.0,0.0,0.0,-0.3559375,0.0,0.0,0.0,0.0,0.0,0.0,-0.001,0.0,0.0,0.0,0.0,0.0,-1.61,-0.3584158949327997,0.0,0.0,0.0,0.0,0.0,0.0,-0.18,0.0,0.0,0.0
304,0.0,0.0,0.0,-0.3559375,0.0,0.0,0.0,0.0,0.0,0.0,-0.001,0.0,0.0,0.0,0.0,0.0,-1.61,-0.35834640265749906,0.0,0.0,0.0,0.0,0.0,0.0,-0.272,0.0,0.0,0.0
305,0.0,0.0,0.0,-0.3559375,0.0,0.0,0.0,0.0,0.0,0.0,-0.001,0.0,0.0,0.0,0.0,0.0,-1.61,-0.3582767152906834,0.0,0.0,0.0,0.0,0.0,0.0,-0.272,0.0,0.0,0.0
306,0.0,0.0,0.0,-0.3557939453125,0.0,0.0,0.0,0.0,0.0,0.0,0.009,0.0,0.0,0.0,0.0,0.0,-1.61,-0.3580632837886731,0.0,0.0,0.0,0.0,0.0,0.0,-0.388,0.0,0.0,0.0
307,0.0,0.0,0.0,-0.3557939453125,0.0,0.0,0.0,0.0,0.0,0.0,0.006,0.0,0.0,0.0,0.0,0.0,-1.61,-0.35799328052115803,0.0,0.0,0.0,0.0,0.0,0.0,-0.456,0.0,0.0,0.0
308,0.0,0.0,0.0,-0.3557939453125,0.0,0.0,0.0,0.0,0.0,0.0,-0.001,0.0,0.0,0.0,0.0,0.0,-1.61,-0.3579230380773139,0.0,0.0,0.0,0.0,0.0,0.0,-0.296,0.0,0.0,0.0
309,0.0,0.0,0.0,-0.3557939453125,0.0,0.0,0.0,0.0,0.0,0.0,-0.001,0.0,0.0,0.0,0.0,0.0,-1.61,-0.3578525695893156,0.0,0.0,0.0,0.0,0.0,0.0,-0.32,0.0,0.0,0.0
310,0.0,0.0,0.0,-0.3557939453125,0.0,0.0,0.0,0.0,0.0,0.0,-0.001,0.0,0.0,0.0,0.0,0.0,-1.61,-0.3577820434462213,0.0,0.0,0.0,0.0,0.0,0.0,-0.408,0.0,0.0,0.0
311,0.0,0.0,0.0,-0.3557939453125,0.0,0.0,0.0,0.0,0.0,0.0,-0.001,0.0,0.0,0.0,0.0,0.0,-1.61,-0.3577113008107334,0.0,0.0,0.0,0.0,0.0,0.0,-0.388,0.0,0.0,0.0
312,0.0,0.0,0.0,-0.3557939453125,0.0,0.0,0.0,0.0,0.0,0.0,-0.001,0.0,0.0,0.0,0.0,0.0,-1.61,-0.35764040288478244,0.0,0.0,0.0,0.0,0.0,0.0,-0.32,0.0,0.0,0.0
313,0.0,0.0,0.0,-0.3557939453125,0.0,0.0,0.0,0.0,0.0,0.0,-0.001,0.0,0.0,0.0,0.0,0.0,-1.61,-0.35756935541053364,0.0,0.0,0.0,0.0,0.0,0.0,-0.32,0.0,0.0,0.0
314,0.0,0.0,0.0,-0.3559375,0.0,0.0,0.0,0.0,0.0,0.0,-0.01,0.0,0.0,0.0,0.0,0.0,-1.61,-0.35764180723810446,0.0,0.0,0.0,0.0,0.0,0.0,-0.364,0.0,0.0,0.0
315,0.0,0.0,0.0,-0.3559375,0.0,0.0,0.0,0.0,0.0,0.0,-0.007,0.0,0.0,0.0,0.0,0.0,-1.61,-0.35757034343780625,0.0,0.0,0.0,0.0,0.0,0.0,-0.272,0.0,0.0,0.0
316,0.0,0.0,0.0,-0.3559375,0.0,0.0,0.0,0.0,0.0,0.0,-0.001,0.0,0.0,0.0,0.0,0.0,-1.61,-0.35749892609116296,0.0,0.0,0.0,0.0,0.0,0.0,-0.136,0.0,0.0,0.0
317,0.0,0.0,0.0,-0.3559375,0.0,0.0,0.0,0.0,0.0,0.0,-0.001,0.0,0.0,0.0,0.0,0.0,-1.61,-0.3574273765970284,0.0,0.0,0.0,0.0,0.0,0.0,-0.18,0.0,0.0,0.0
318,0.0,0.0,0.0,-0.3559375,0.0,0.0,0.0,0.0,0.0,0.0,-0.001,0.0,0.0,0.0,0.0,0.0,-1.61,-0.35735562749729466,0.0,0.0,0.0,0.0,0.0,0.0,-0.408,0.0,0.0,0.0
319,0.0,0.0,0.0,-0.3559375,0.0,0.0,0.0,0.0,0.0,0.0,-0.001,0.0,0.0,0.0,0.0,0.0,-1.61,-0.3572838386725349,0.0,0.0,0.0,0.0,0.0,0.0,-0.32,0.0,0.0,0.0
320,0.0,0.0,0.0,-0.3559375,0.0,0.0,0.0,0.0,0.0,0.0,-0.001,0.0,0.0,0.0,0.0,0.0,-1.61,-0.35721186947260963,0.0,0.0,0.0,0.0,0.0,0.0,-0.204,0.0,0.0,0.0
321,0.0,0.0,0.0,-0.3559375,0.0,0.0,0.0,0.0,0.0,0.0,-0.001,0.0,0.0,0.0,0.0,0.0,-1.61,-0.35713986457465274,0.0,0.0,0.0,0.0,0.0,0.0,-0.272,0.0,0.0,0.0
322,0.0,0.0,0.0,-0.3559375,0.0,0.0,0.0,0.0,0.0,0.0,-0.001,0.0,0.0,0.0,0.0,0.0,-1.61,-0.35706769859040055,0.0,0.0,0.0,0.0,0.0,0.0,-0.18,0.0,0.0,0.0
323,0.0,0.0,0.0,-0.3559375,0.0,0.0,0.0,0.0,0.0,0.0,-0.001,0.0,0.0,0.0,0.0,0.0,-1.61,-0.35699550094667576,0.0,0.0,0.0,0.0,0.0,0.0,-0.248,0.0,0.0,0.0
324,0.0,0.0,0.0,-0.3559375,0.0,0.0,0.0,0.0,0.0,0.0,-0.001,0.0,0.0,0.0,0.0,0.0,-1.61,-0.35692318671145495,0.0,0.0,0.0,0.0,0.0,0.0,-0.18,0.0,0.0,0.0
325,0.0,0.0,0.0,-0.3559375,0.0,0.0,0.0,0.0,0.0,0.0,-0.001,0.0,0.0,0.0,0.0,0.0,-1.61,-0.3568507926392628,0.0,0.0,0.0,0.0,0.0,0.0,-0.296,0.0,0.0,0.0
326,0.0,0.0,0.0,-0.3559375,0.0,0.0,0.0,0.0,0.0,0.0,-0.001,0.0,0.0,0.0,0.0,0.0,-1.61,-0.3567783245937508,0.0,0.0,0.0,0.0,0.0,0.0,-0.204,0.0,0.0,0.0
327,0.0,0.0,0.0,-0.3559375,0.0,0.0,0.0,0.0,0.0,0.0,-0.001,0.0,0.0,0.0,0.0,0.0,-1.61,-0.3567057884445619,0.0,0.0,0.0,0.0,0.0,0.0,-0.34,0.0,0.0,0.0
328,0.0,0.0,0.0,-0.3559375,0.0,0.0,0.0,0.0,0.0,0.0,-0.001,0.0,0.0,0.0,0.0,0.0,-1.61,-0.356633190066856,0.0,0.0,0.0,0.0,0.0,0.0,-0.296,0.0,0.0,0.0
329,0.0,0.0,0.0,-0.3559375,0.0,0.0,0.0,0.0,0.0,0.0,-0.001,0.0,0.0,0.0,0.0,0.0,-1.61,-0.3565605353408323,0.0,0.0,0.0,0.0,0.0,0.0,-0.388,0.0,0.0,0.0
330,0.0,0.0,0.0,-0.3559375,0.0,0.0,0.0,0.0,0.0,0.0,-0.001,0.0,0.0,0.0,0.0,0.0,-1.61,-0.3564878437668433,0.0,0.0,0.0,0.0,0.0,0.0,-0.364,0.0,0.0,0.0
331,0.0,0.0,0.0,-0.3559375,0.0,0.0,0.0,0.0,0.0,0.0,-0.001,0.0,0.0,0.0,0.0,0.0,-1.61,-0.35641507845918696,0.0,0.0,0.0,0.0,0.0,0.0,-0.34,0.0,0.0,0.0
332,0.0,0.0,0.0,-0.3559375,0.0,0.0,0.0,0.0,0.0,0.0,-0.001,0.0,0.0,0.0,0.0,0.0,-1.61,-0.3563422900117176,0.0,0.0,0.0,0.0,0.0,0.0,-0.34,0.0,0.0,0.0
333,0.0,0.0,0.0,-0.3559375,0.0,0.0,0.0,0.0,0.0,0.0,-0.001,0.0,0.0,0.0,0.0,0.0,-1.61,-0.35626947660725106,0.0,0.0,0.0,0.0,0.0,0.0,-0.296,0.0,0.0,0.0
334,0.0,0.0,0.0,-0.3559375,0.0,0.0,0.0,0.0,0.0,0.0,-0.001,0.0,0.0,0.0,0.0,0.0,-1.61,-0.35619661872539765,0.0,0.0,0.0,0.0,0.0,0.0,-0.34,0.0,0.0,0.0
335,0.0,0.0,0.0,-0.3559375,0.0,0.0,0.0,0.0,0.0,0.0,-0.001,0.0,0.0,0.0,0.0,0.0,-1.61,-0.3561237535835545,0.0,0.0,0.0,0.0,0.0,0.0,-0.272,0.0,0.0,0.0
336,0.0,0.0,0.0,-0.3559375,0.0,0.0,0.0,0.0,0.0,0.0,-0.001,0.0,0.0,0.0,0.0,0.0,-1.61,-0.3560508655255681,0.0,0.0,0.0,0.0,0.0,0.0,-0.296,0.0,0.0,0.0
337,0.0,0.0,0.0,-0.3559375,0.0,0.0,0.0,0.0,0.0,0.0,-0.001,0.0,0.0,0.0,0.0,0.0,-1.61,-0.3559779682849077,0.0,0.0,0.0,0.0,0.0,0.0,-0.388,0.0,0.0,0.0
338,0.0,0.0,0.0,-0.3559375,0.0,0.0,0.0,0.0,0.0,0.0,-0.001,0.0,0.0,0.0,0.0,0.0,-1.61,-0.35590506959100654,0.0,0.0,0.0,0.0,0.0,0.0,-0.364,0.0,0.0,0.0
339,0.0,0.0,0.0,-0.3559375,0.0,0.0,0.0,0.0,0.0,0.0,-0.001,0.0,0.0,0.0,0.0,0.0,-1.61,-0.3558321642941926,0.0,0.0,0.0,0.0,0.0,0.0,-0.34,0.0,0.0,0.0
340,0.0,0.0,0.0,-0.3559375,0.0,0.0,0.0,0.0,0.0,0.0,-0.001,0.0,0.0,0.0,0.0,0.0,-1.61,-0.3557592842707231,0.0,0.0,0.0,0.0,0.0,0.0,-0.228,0.0,0.0,0.0
341,0.0,0.0,0.0,-0.3559375,0.0,0.0,0.0,0.0,0.0,0.0,-0.001,0.0,0.0,0.0,0.0,0.0,-1.61,-0.3556864055910226,0.0,0.0,0.0,0.0,0.0,0.0,-0.388,0.0,0.0,0.0
342,0.0,0.0,0.0,-0.3559375,0.0,0.0,0.0,0.0,0.0,0.0,-0.001,0.0,0.0,0.0,0.0,0.0,-1.61,-0.35561354145946467,0.0,0.0,0.0,0.0,0.0,0.0,-0.296,0.0,0.0,0.0
343,0.0,0.0,0.0,-0.3559375,0.0,0.0,0.0,0.0,0.0,0.0,-0.001,0.0,0.0,0.0,0.0,0.0,-1.61,-0.35554072073198906,0.0,0.0,0.0,0.0,0.0,0.0,-0.112,0.0,0.0,0.0
344,0.0,0.0,0.0,-0.3559375,0.0,0.0,0.0,0.0,0.0,0.0,-0.001,0.0,0.0,0.0,0.0,0.0,-1.61,-0.35546792452706755,0.0,0.0,0.0,0.0,0.0,0.0,-0.248,0.0,0.0,0.0
345,0.0,0.0,0.0,-0.3559375,0.0,0.0,0.0,0.0,0.0,0.0,-0.001,0.0,0.0,0.0,0.0,0.0,-1.61,-0.3553951510278396,0.0,0.0,0.0,0.0,0.0,0.0,-0.204,0.0,0.0,0.0
346,0.0,0.0,0.0,-0.3559375,0.0,0.0,0.0,0.0,0.0,0.0,-0.001,0.0,0.0,0.0,0.0,0.0,-1.61,-0.3553224501927227,0.0,0.0,0.0,0.0,0.0,0.0,-0.228,0.0,0.0,0.0
347,0.0,0.0,0.0,-0.3559375,0.0,0.0,0.0,0.0,0.0,0.0,-0.001,0.0,0.0,0.0,0.0,0.0,-1.61,-0.35524976659357677,0.0,0.0,0.0,0.0,0.0,0.0,-0.272,0.0,0.0,0.0
348,0.0,0.0,0.0,-0.3559375,0.0,0.0,0.0,0.0,0.0,0.0,-0.001,0.0,0.0,0.0,0.0,0.0,-1.61,-0.3551771751372007,0.0,0.0,0.0,0.0,0.0,0.0,-0.32,0.0,0.0,0.0
349,0.0,0.0,0.0,-0.3559375,0.0,0.0,0.0,0.0,0.0,0.0,-0.001,0.0,0.0,0.0,0.0,0.0,-1.61,-0.3551046049879405,0.0,0.0,0.0,0.0,0.0,0.0,-0.228,0.0,0.0,0.0
350,0.0,0.0,0.0,-0.3559375,0.0,0.0,0.0,0.0,0.0,0.0,-0.001,0.0,0.0,0.0,0.0,0.0,-1.61,-0.35503212148733154,0.0,0.0,0.0,0.0,0.0,0.0,-0.34,0.0,0.0,0.0
351,0.0,0.0,0.0,-0.3559375,0.0,0.0,0.0,0.0,0.0,0.0,-0.001,0.0,0.0,0.0,0.0,0.0,-1.61,-0.35495971132679804,0.0,0.0,0.0,0.0,0.0,0.0,-0.408,0.0,0.0,0.0
352,0.0,0.0,0.0,-0.3559375,0.0,0.0,0.0,0.0,0.0,0.0,-0.001,0.0,0.0,0.0,0.0,0.0,-1.61,-0.3548873803719169,0.0,0.0,0.0,0.0,0.0,0.0,-0.18,0.0,0.0,0.0
353,0.0,0.0,0.0,-0.3557939453125,0.0,0.0,0.0,0.0,0.0,0.0,0.003,0.0,0.0,0.0,0.0,0.0,-1.61,-0.35467161048196844,0.0,0.0,0.0,0.0,0.0,0.0,-0.204,0.0,0.0,0.0
354,0.0,0.0,0.0,-0.3557939453125,0.0,0.0,0.0,0.0,0.0,0.0,0.01,0.0,0.0,0.0,0.0,0.0,-1.61,-0.35459939413373914,0.0,0.0,0.0,0.0,0.0,0.0,-0.364,0.0,0.0,0.0
355,0.0,0.0,0.0,-0.3557939453125,0.0,0.0,0.0,0.0,0.0,0.0,-0.001,0.0,0.0,0.0,0.0,0.0,-1.61,-0.35452736661035883,0.0,0.0,0.0,0.0,0.0,0.0,-0.364,0.0,0.0,0.0
356,0.0,0.0,0.0,-0.3557939453125,0.0,0.0,0.0,0.0,0.0,0.0,-0.001,0.0,0.0,0.0,0.0,0.0,-1.61,-0.35445541099841044,0.0,0.0,0.0,0.0,0.0,0.0,-0.296,0.0,0.0,0.0
357,0.0,0.0,0.0,-0.3557939453125,0.0,0.0,0.0,0.0,0.0,0.0,-0.001,0.0,0.0,0.0,0.0,0.0,-1.61,-0.3543835638142708,0.0,0.0,0.0,0.0,0.0,0.0,-0.228,0.0,0.0,0.0
358,0.0,0.0,0.0,-0.3557939453125,0.0,0.0,0.0,0.0,0.0,0.0,-0.001,0.0,0.0,0.0,0.0,0.0,-1.61,-0.35431179066751944,0.0,0.0,0.0,0.0,0.0,0.0,-0.228,0.0,0.0,0.0
359,0.0,0.0,0.0,-0.3557939453125,0.0,0.0,0.0,0.0,0.0,0.0,-0.001,0.0,0.0,0.0,0.0,0.0,-1.61,-0.3542402161046632,0.0,0.0,0.0,0.0,0.0,0.0,-0.18,0.0,0.0,0.0
360,0.0,0.0,0.0,-0.3557939453125,0.0,0.0,0.0,0.0,0.0,0.0,-0.001,0.0,0.0,0.0,0.0,0.0,-1.61,-0.3541686850918961,0.0,0.0,0.0,0.0,0.0,0.0,-0.296,0.0,0.0,0.0
361,0.0,0.0,0.0,-0.3557939453125,0.0,0.0,0.0,0.0,0.0,0.0,-0.001,0.0,0.0,0.0,0.0,0.0,-1.61,-0.3540973718367741,0.0,0.0,0.0,0.0,0.0,0.0,-0.228,0.0,0.0,0.0
362,0.0,0.0,0.0,-0.3556494140625,0.0,0.0,0.0,0.0,0.0,0.0,0.006,0.0,0.0,0.0,0.0,0.0,-1.61,-0.35388157488557975,0.0,0.0,0.0,0.0,0.0,0.0,-0.112,0.0,0.0,0.0
363,0.0,0.0,0.0,-0.3555048828125,0.0,0.0,0.0,0.0,0.0,0.0,0.012,0.0,0.0,0.0,0.0,0.0,-1.61,-0.3536659651433774,0.0,0.0,0.0,0.0,0.0,0.0,-0.088,0.0,0.0,0.0
364,0.0,0.0,0.0,-0.3555048828125,0.0,0.0,0.0,0.0,0.0,0.0,0.01,0.0,0.0,0.0,0.0,0.0,-1.61,-0.3535949840916191,0.0,0.0,0.0,0.0,0.0,0.0,-0.34,0.0,0.0,0.0
365,0.0,0.0,0.0,-0.3555048828125,0.0,0.0,0.0,0.0,0.0,0.0,-0.001,0.0,0.0,0.0,0.0,0.0,-1.61,-0.3535242589398137,0.0,0.0,0.0,0.0,0.0,0.0,-0.34,0.0,0.0,0.0
366,0.0,0.0,0.0,-0.3553603515625,0.0,0.0,0.0,0.0,0.0,0.0,0.009,0.0,0.0,0.0,0.0,0.0,-1.61,-0.3533091133348084,0.0,0.0,0.0,0.0,0.0,0.0,-0.02,0.0,0.0,0.0
367,0.0,0.0,0.0,-0.3550712890625,0.0,0.0,0.0,0.0,0.0,0.0,0.016,0.0,0.0,0.0,0.0,0.0,-1.61,-0.3529496026489081,0.0,0.0,0.0,0.0,0.0,0.0,0.044,0.0,0.0,0.0
368,0.0,0.0,0.0,-0.3550712890625,0.0,0.0,0.0,0.0,0.0,0.0,0.015,0.0,0.0,0.0,0.0,0.0,-1.61,-0.3528793263390623,0.0,0.0,0.0,0.0,0.0,0.0,-0.044,0.0,0.0,0.0
369,0.0,0.0,0.0,-0.354783203125,0.0,0.0,0.0,0.0,0.0,0.0,0.01,0.0,0.0,0.0,0.0,0.0,-1.61,-0.35252114166079596,0.0,0.0,0.0,0.0,0.0,0.0,-0.16,0.0,0.0,0.0
370,0.0,0.0,0.0,-0.354494140625,0.0,0.0,0.0,0.0,0.0,0.0,0.025,0.0,0.0,0.0,0.0,0.0,-1.61,-0.35216216366775005,0.0,0.0,0.0,0.0,0.0,0.0,0.044,0.0,0.0,0.0
371,0.0,0.0,0.0,-0.354205078125,0.0,0.0,0.0,0.0,0.0,0.0,0.028,0.0,0.0,0.0,0.0,0.0,-1.61,-0.3518033100447949,0.0,0.0,0.0,0.0,0.0,0.0,0.044,0.0,0.0,0.0
372,0.0,0.0,0.0,-0.3539169921875,0.0,0.0,0.0,0.0,0.0,0.0,0.028,0.0,0.0,0.0,0.0,0.0,-1.61,-0.35144575478796797,0.0,0.0,0.0,0.0,0.0,0.0,0.16,0.0,0.0,0.0
373,0.0,0.0,0.0,-0.3536279296875,0.0,0.0,0.0,0.0,0.0,0.0,0.028,0.0,0.0,0.0,0.0,0.0,-1.61,-0.35108729225000357,0.0,0.0,0.0,0.0,0.0,0.0,-0.112,0.0,0.0,0.0
374,0.0,0.0,0.0,-0.3533388671875,0.0,0.0,0.0,0.0,0.0,0.0,0.027,0.0,0.0,0.0,0.0,0.0,-1.61,-0.35072910007929775,0.0,0.0,0.0,0.0,0.0,0.0,-0.136,0.0,0.0,0.0
375,0.0,0.0,0.0,-0.35305078125,0.0,0.0,0.0,0.0,0.0,0.0,0.03,0.0,0.0,0.0,0.0,0.0,-1.61,-0.35037216776299973,0.0,0.0,0.0,0.0,0.0,0.0,-0.044,0.0,0.0,0.0
376,0.0,0.0,0.0,-0.3526083984375,0.0,0.0,0.0,0.0,0.0,0.0,0.034,0.0,0.0,0.0,0.0,0.0,-1.61,-0.3498610136668713,0.0,0.0,0.0,0.0,0.0,0.0,0.18,0.0,0.0,0.0
377,0.0,0.0,0.0,-0.35203125,0.0,0.0,0.0,0.0,0.0,0.0,0.049,0.0,0.0,0.0,0.0,0.0,-1.61,-0.34921538656383144,0.0,0.0,0.0,0.0,0.0,0.0,0.16,0.0,0.0,0.0
378,0.0,0.0,0.0,-0.3517421875,0.0,0.0,0.0,0.0,0.0,0.0,0.046,0.0,0.0,0.0,0.0,0.0,-1.61,-0.34885815081931576,0.0,0.0,0.0,0.0,0.0,0.0,-0.272,0.0,0.0,0.0
379,0.0,0.0,0.0,-0.35130859375,0.0,0.0,0.0,0.0,0.0,0.0,0.034,0.0,0.0,0.0,0.0,0.0,-1.61,-0.3483563855823132,0.0,0.0,0.0,0.0,0.0,0.0,-0.364,0.0,0.0,0.0
380,0.0,0.0,0.0,-0.3507314453125,0.0,0.0,0.0,0.0,0.0,0.0,0.047,0.0,0.0,0.0,0.0,0.0,-1.61,-0.34771153671469335,0.0,0.0,0.0,0.0,0.0,0.0,0.044,0.0,0.0,0.0
381,0.0,0.0,0.0,-0.350154296875,0.0,0.0,0.0,0.0,0.0,0.0,0.059,0.0,0.0,0.0,0.0,0.0,-1.61,-0.34706693787655263,0.0,0.0,0.0,0.0,0.0,0.0,0.248,0.0,0.0,0.0
382,0.0,0.0,0.0,-0.349720703125,0.0,0.0,0.0,0.0,0.0,0.0,0.049,0.0,0.0,0.0,0.0,0.0,-1.61,-0.3465658958270122,0.0,0.0,0.0,0.0,0.0,0.0,0.388,0.0,0.0,0.0
383,0.0,0.0,0.0,-0.349134765625,0.0,0.0,0.0,0.0,0.0,0.0,0.051,0.0,0.0,0.0,0.0,0.0,-1.61,-0.3459130136258688,0.0,0.0,0.0,0.0,0.0,0.0,0.0,0.0,0.0,0.0
384,0.0,0.0,0.0,-0.348556640625,0.0,0.0,0.0,0.0,0.0,0.0,0.062,0.0,0.0,0.0,0.0,0.0,-1.61,-0.3452681222555941,0.0,0.0,0.0,0.0,0.0,0.0,-0.296,0.0,0.0,0.0
385,0.0,0.0,0.0,-0.3481240234375,0.0,0.0,0.0,0.0,0.0,0.0,0.053,0.0,0.0,0.0,0.0,0.0,-1.61,-0.3447689153637427,0.0,0.0,0.0,0.0,0.0,0.0,-0.548,0.0,0.0,0.0
386,0.0,0.0,0.0,-0.3476904296875,0.0,0.0,0.0,0.0,0.0,0.0,0.041,0.0,0.0,0.0,0.0,0.0,-1.61,-0.3442690899580286,0.0,0.0,0.0,0.0,0.0,0.0,0.16,0.0,0.0,0.0
387,0.0,0.0,0.0,-0.34696875,0.0,0.0,0.0,0.0,0.0,0.0,0.064,0.0,0.0,0.0,0.0,0.0,-1.61,-0.3434815490463791,0.0,0.0,0.0,0.0,0.0,0.0,0.408,0.0,0.0,0.0
388,0.0,0.0,0.0,-0.3463916015625,0.0,0.0,0.0,0.0,0.0,0.0,0.064,0.0,0.0,0.0,0.0,0.0,-1.61,-0.3428387321465705,0.0,0.0,0.0,0.0,0.0,0.0,0.088,0.0,0.0,0.0
389,0.0,0.0,0.0,-0.34566015625,0.0,0.0,0.0,0.0,0.0,0.0,0.06,0.0,0.0,0.0,0.0,0.0,-1.61,-0.3420417127900155,0.0,0.0,0.0,0.0,0.0,0.0,-0.02,0.0,0.0,0.0
390,0.0,0.0,0.0,-0.3446494140625,0.0,0.0,0.0,0.0,0.0,0.0,0.082,0.0,0.0,0.0,0.0,0.0,-1.61,-0.3409658762166263,0.0,0.0,0.0,0.0,0.0,0.0,-0.136,0.0,0.0,0.0
391,0.0,0.0,0.0,-0.344072265625,0.0,0.0,0.0,0.0,0.0,0.0,0.085,0.0,0.0,0.0,0.0,0.0,-1.61,-0.34032413211802365,0.0,0.0,0.0,0.0,0.0,0.0,-0.32,0.0,0.0,0.0
392,0.0,0.0,0.0,-0.3433505859375,0.0,0.0,0.0,0.0,0.0,0.0,0.062,0.0,0.0,0.0,0.0,0.0,-1.61,-0.3395378651639612,0.0,0.0,0.0,0.0,0.0,0.0,0.112,0.0,0.0,0.0
393,0.0,0.0,0.0,-0.342474609375,0.0,0.0,0.0,0.0,0.0,0.0,0.075,0.0,0.0,0.0,0.0,0.0,-1.61,-0.3385977086592324,0.0,0.0,0.0,0.0,0.0,0.0,0.272,0.0,0.0,0.0
394,0.0,0.0,0.0,-0.3416083984375,0.0,0.0,0.0,0.0,0.0,0.0,0.089,0.0,0.0,0.0,0.0,0.0,-1.61,-0.337667526651364,0.0,0.0,0.0,0.0,0.0,0.0,0.296,0.0,0.0,0.0
395,0.0,0.0,0.0,-0.34088671875,0.0,0.0,0.0,0.0,0.0,0.0,0.08,0.0,0.0,0.0,0.0,0.0,-1.61,-0.33688240393845215,0.0,0.0,0.0,0.0,0.0,0.0,0.18,0.0,0.0,0.0
396,0.0,0.0,0.0,-0.3398671875,0.0,0.0,0.0,0.0,0.0,0.0,0.092,0.0,0.0,0.0,0.0,0.0,-1.61,-0.3357996505451748,0.0,0.0,0.0,0.0,0.0,0.0,0.068,0.0,0.0,0.0
397,0.0,0.0,0.0,-0.33884765625,0.0,0.0,0.0,0.0,0.0,0.0,0.1,0.0,0.0,0.0,0.0,0.0,-1.61,-0.33471722669460247,0.0,0.0,0.0,0.0,0.0,0.0,0.068,0.0,0.0,0.0
398,0.0,0.0,0.0,-0.3379814453125,0.0,0.0,0.0,0.0,0.0,0.0,0.092,0.0,0.0,0.0,0.0,0.0,-1.61,-0.333788457794652,0.0,0.0,0.0,0.0,0.0,0.0,0.088,0.0,0.0,0.0
399,0.0,0.0,0.0,-0.337259765625,0.0,0.0,0.0,0.0,0.0,0.0,0.081,0.0,0.0,0.0,0.0,0.0,-1.61,-0.3330044463183975,0.0,0.0,0.0,0.0,0.0,0.0,0.248,0.0,0.0,0.0
400,0.0,0.0,0.0,-0.3363935546875,0.0,0.0,0.0,0.0,0.0,0.0,0.082,0.0,0.0,0.0,0.0,0.0,-1.61,-0.33207635860345697,0.0,0.0,0.0,0.0,0.0,0.0,0.34,0.0,0.0,0.0
401,0.0,0.0,0.0,-0.335517578125,0.0,0.0,0.0,0.0,0.0,0.0,0.084,0.0,0.0,0.0,0.0,0.0,-1.61,-0.3311389718436451,0.0,0.0,0.0,0.0,0.0,0.0,0.708,0.0,0.0,0.0
402,0.0,0.0,0.0,-0.33421875,0.0,0.0,0.0,0.0,0.0,0.0,0.106,0.0,0.0,0.0,0.0,0.0,-1.61,-0.3297788563258288,0.0,0.0,0.0,0.0,0.0,0.0,0.8,0.0,0.0,0.0
403,0.0,0.0,0.0,-0.3332080078125,0.0,0.0,0.0,0.0,0.0,0.0,0.112,0.0,0.0,0.0,0.0,0.0,-1.61,-0.32870742165536687,0.0,0.0,0.0,0.0,0.0,0.0,0.524,0.0,0.0,0.0
404,0.0,0.0,0.0,-0.3321884765625,0.0,0.0,0.0,0.0,0.0,0.0,0.102,0.0,0.0,0.0,0.0,0.0,-1.61,-0.3276273241480067,0.0,0.0,0.0,0.0,0.0,0.0,0.456,0.0,0.0,0.0
405,0.0,0.0,0.0,-0.331322265625,0.0,0.0,0.0,0.0,0.0,0.0,0.103,0.0,0.0,0.0,0.0,0.0,-1.61,-0.32670103491461555,0.0,0.0,0.0,0.0,0.0,0.0,0.136,0.0,0.0,0.0
406,0.0,0.0,0.0,-0.3304560546875,0.0,0.0,0.0,0.0,0.0,0.0,0.085,0.0,0.0,0.0,0.0,0.0,-1.61,-0.3257751201027878,0.0,0.0,0.0,0.0,0.0,0.0,0.32,0.0,0.0,0.0
407,0.0,0.0,0.0,-0.3294453125,0.0,0.0,0.0,0.0,0.0,0.0,0.09,0.0,0.0,0.0,0.0,0.0,-1.61,-0.32470492696106357,0.0,0.0,0.0,0.0,0.0,0.0,1.14,0.0,0.0,0.0
408,0.0,0.0,0.0,-0.32828125,0.0,0.0,0.0,0.0,0.0,0.0,0.113,0.0,0.0,0.0,0.0,0.0,-1.61,-0.32348204869386893,0.0,0.0,0.0,0.0,0.0,0.0,1.14,0.0,0.0,0.0
409,0.0,0.0,0.0,-0.3271259765625,0.0,0.0,0.0,0.0,0.0,0.0,0.114,0.0,0.0,0.0,0.0,0.0,-1.61,-0.32226822355777063,0.0,0.0,0.0,0.0,0.0,0.0,0.844,0.0,0.0,0.0
410,0.0,0.0,0.0,-0.3259716796875,0.0,0.0,0.0,0.0,0.0,0.0,0.115,0.0,0.0,0.0,0.0,0.0,-1.61,-0.3210557685692555,0.0,0.0,0.0,0.0,0.0,0.0,0.48,0.0,0.0,0.0
411,0.0,0.0,0.0,-0.324951171875,0.0,0.0,0.0,0.0,0.0,0.0,0.114,0.0,0.0,0.0,0.0,0.0,-1.61,-0.31997736844007774,0.0,0.0,0.0,0.0,0.0,0.0,0.228,0.0,0.0,0.0
412,0.0,0.0,0.0,-0.323796875,0.0,0.0,0.0,0.0,0.0,0.0,0.109,0.0,0.0,0.0,0.0,0.0,-1.61,-0.31876584571221445,0.0,0.0,0.0,0.0,0.0,0.0,0.708,0.0,0.0,0.0
413,0.0,0.0,0.0,-0.3226416015625,0.0,0.0,0.0,0.0,0.0,0.0,0.115,0.0,0.0,0.0,0.0,0.0,-1.61,-0.31755348755316903,0.0,0.0,0.0,0.0,0.0,0.0,1.096,0.0,0.0,0.0
414,0.0,0.0,0.0,-0.3214775390625,0.0,0.0,0.0,0.0,0.0,0.0,0.113,0.0,0.0,0.0,0.0,0.0,-1.61,-0.3163328851032008,0.0,0.0,0.0,0.0,0.0,0.0,1.28,0.0,0.0,0.0
415,0.0,0.0,0.0,-0.320322265625,0.0,0.0,0.0,0.0,0.0,0.0,0.112,0.0,0.0,0.0,0.0,0.0,-1.61,-0.31512148856819977,0.0,0.0,0.0,0.0,0.0,0.0,0.98,0.0,0.0,0.0
416,0.0,0.0,0.0,-0.3193115234375,0.0,0.0,0.0,0.0,0.0,0.0,0.11,0.0,0.0,0.0,0.0,0.0,-1.61,-0.3140550446831144,0.0,0.0,0.0,0.0,0.0,0.0,0.524,0.0,0.0,0.0
417,0.0,0.0,0.0,-0.3181474609375,0.0,0.0,0.0,0.0,0.0,0.0,0.112,0.0,0.0,0.0,0.0,0.0,-1.61,-0.3128358478170682,0.0,0.0,0.0,0.0,0.0,0.0,1.12,0.0,0.0,0.0
418,0.0,0.0,0.0,-0.3171376953125,0.0,0.0,0.0,0.0,0.0,0.0,0.116,0.0,0.0,0.0,0.0,0.0,-1.61,-0.3117710968283266,0.0,0.0,0.0,0.0,0.0,0.0,1.14,0.0,0.0,0.0
419,0.0,0.0,0.0,-0.316126953125,0.0,0.0,0.0,0.0,0.0,0.0,0.096,0.0,0.0,0.0,0.0,0.0,-1.61,-0.31070594407283697,0.0,0.0,0.0,0.0,0.0,0.0,1.392,0.0,0.0,0.0
420,0.0,0.0,0.0,-0.314962890625,0.0,0.0,0.0,0.0,0.0,0.0,0.107,0.0,0.0,0.0,0.0,0.0,-1.61,-0.30948791024935546,0.0,0.0,0.0,0.0,0.0,0.0,1.188,0.0,0.0,0.0
421,0.0,0.0,0.0,-0.3138076171875,0.0,0.0,0.0,0.0,0.0,0.0,0.116,0.0,0.0,0.0,0.0,0.0,-1.61,-0.3082789619698744,0.0,0.0,0.0,0.0,0.0,0.0,0.708,0.0,0.0,0.0
422,0.0,0.0,0.0,-0.3127880859375,0.0,0.0,0.0,0.0,0.0,0.0,0.108,0.0,0.0,0.0,0.0,0.0,-1.61,-0.3072064967049363,0.0,0.0,0.0,0.0,0.0,0.0,0.524,0.0,0.0,0.0
423,0.0,0.0,0.0,-0.3117685546875,0.0,0.0,0.0,0.0,0.0,0.0,0.1,0.0,0.0,0.0,0.0,0.0,-1.61,-0.3061343379714757,0.0,0.0,0.0,0.0,0.0,0.0,0.888,0.0,0.0,0.0
424,0.0,0.0,0.0,-0.31046875,0.0,0.0,0.0,0.0,0.0,0.0,0.121,0.0,0.0,0.0,0.0,0.0,-1.61,-0.30478221102074693,0.0,0.0,0.0,0.0,0.0,0.0,1.14,0.0,0.0,0.0
425,0.0,0.0,0.0,-0.309314453125,0.0,0.0,0.0,0.0,0.0,0.0,0.12,0.0,0.0,0.0,0.0,0.0,-1.61,-0.3035763538656214,0.0,0.0,0.0,0.0,0.0,0.0,0.936,0.0,0.0,0.0
426,0.0,0.0,0.0,-0.308150390625,0.0,0.0,0.0,0.0,0.0,0.0,0.114,0.0,0.0,0.0,0.0,0.0,-1.61,-0.30236089208434497,0.0,0.0,0.0,0.0,0.0,0.0,0.96,0.0,0.0,0.0
427,0.0,0.0,0.0,-0.3067060546875,0.0,0.0,0.0,0.0,0.0,0.0,0.132,0.0,0.0,0.0,0.0,0.0,-1.61,-0.30086593264501527,0.0,0.0,0.0,0.0,0.0,0.0,0.844,0.0,0.0,0.0
428,0.0,0.0,0.0,-0.3053974609375,0.0,0.0,0.0,0.0,0.0,0.0,0.142,0.0,0.0,0.0,0.0,0.0,-1.61,-0.29950687925457686,0.0,0.0,0.0,0.0,0.0,0.0,0.8,0.0,0.0,0.0
429,0.0,0.0,0.0,-0.30438671875,0.0,0.0,0.0,0.0,0.0,0.0,0.119,0.0,0.0,0.0,0.0,0.0,-1.61,-0.2984463087585316,0.0,0.0,0.0,0.0,0.0,0.0,0.868,0.0,0.0,0.0
430,0.0,0.0,0.0,-0.303232421875,0.0,0.0,0.0,0.0,0.0,0.0,0.106,0.0,0.0,0.0,0.0,0.0,-1.61,-0.29724282422319537,0.0,0.0,0.0,0.0,0.0,0.0,1.14,0.0,0.0,0.0
431,0.0,0.0,0.0,-0.301923828125,0.0,0.0,0.0,0.0,0.0,0.0,0.127,0.0,0.0,0.0,0.0,0.0,-1.61,-0.29588521086821834,0.0,0.0,0.0,0.0,0.0,0.0,1.324,0.0,0.0,0.0
432,0.0,0.0,0.0,-0.3006240234375,0.0,0.0,0.0,0.0,0.0,0.0,0.13,0.0,0.0,0.0,0.0,0.0,-1.61,-0.2945370338811604,0.0,0.0,0.0,0.0,0.0,0.0,1.14,0.0,0.0,0.0
433,0.0,0.0,0.0,-0.2993251953125,0.0,0.0,0.0,0.0,0.0,0.0,0.123,0.0,0.0,0.0,0.0,0.0,-1.61,-0.2931903266891983,0.0,0.0,0.0,0.0,0.0,0.0,0.776,0.0,0.0,0.0
434,0.0,0.0,0.0,-0.2978720703125,0.0,0.0,0.0,0.0,0.0,0.0,0.142,0.0,0.0,0.0,0.0,0.0,-1.61,-0.29168981973450286,0.0,0.0,0.0,0.0,0.0,0.0,0.408,0.0,0.0,0.0
435,0.0,0.0,0.0,-0.2964287109375,0.0,0.0,0.0,0.0,0.0,0.0,0.145,0.0,0.0,0.0,0.0,0.0,-1.61,-0.290199413756168,0.0,0.0,0.0,0.0,0.0,0.0,0.088,0.0,0.0,0.0
436,0.0,0.0,0.0,-0.2951201171875,0.0,0.0,0.0,0.0,0.0,0.0,0.135,0.0,0.0,0.0,0.0,0.0,-1.61,-0.28884460813228097,0.0,0.0,0.0,0.0,0.0,0.0,0.64,0.0,0.0,0.0
437,0.0,0.0,0.0,-0.2933876953125,0.0,0.0,0.0,0.0,0.0,0.0,0.152,0.0,0.0,0.0,0.0,0.0,-1.61,-0.2870663185265633,0.0,0.0,0.0,0.0,0.0,0.0,0.888,0.0,0.0,0.0
438,0.0,0.0,0.0,-0.291646484375,0.0,0.0,0.0,0.0,0.0,0.0,0.176,0.0,0.0,0.0,0.0,0.0,-1.61,-0.2852797520834864,0.0,0.0,0.0,0.0,0.0,0.0,0.48,0.0,0.0,0.0
439,0.0,0.0,0.0,-0.2900576171875,0.0,0.0,0.0,0.0,0.0,0.0,0.168,0.0,0.0,0.0,0.0,0.0,-1.61,-0.2836457044802677,0.0,0.0,0.0,0.0,0.0,0.0,0.068,0.0,0.0,0.0
440,0.0,0.0,0.0,-0.28831640625,0.0,0.0,0.0,0.0,0.0,0.0,0.166,0.0,0.0,0.0,0.0,0.0,-1.61,-0.28186051194780504,0.0,0.0,0.0,0.0,0.0,0.0,-0.136,0.0,0.0,0.0
441,0.0,0.0,0.0,-0.2864306640625,0.0,0.0,0.0,0.0,0.0,0.0,0.182,0.0,0.0,0.0,0.0,0.0,-1.61,-0.2799308001162944,0.0,0.0,0.0,0.0,0.0,0.0,0.5,0.0,0.0,0.0
442,0.0,0.0,0.0,-0.284544921875,0.0,0.0,0.0,0.0,0.0,0.0,0.194,0.0,0.0,0.0,0.0,0.0,-1.61,-0.27800178540599996,0.0,0.0,0.0,0.0,0.0,0.0,0.248,0.0,0.0,0.0
443,0.0,0.0,0.0,-0.28295703125,0.0,0.0,0.0,0.0,0.0,0.0,0.166,0.0,0.0,0.0,0.0,0.0,-1.61,-0.27637132747007814,0.0,0.0,0.0,0.0,0.0,0.0,0.296,0.0,0.0,0.0
444,0.0,0.0,0.0,-0.2810703125,0.0,0.0,0.0,0.0,0.0,0.0,0.173,0.0,0.0,0.0,0.0,0.0,-1.61,-0.27444222622749254,0.0,0.0,0.0,0.0,0.0,0.0,0.0,0.0,0.0,0.0
445,0.0,0.0,0.0,-0.2791845703125,0.0,0.0,0.0,0.0,0.0,0.0,0.191,0.0,0.0,0.0,0.0,0.0,-1.61,-0.27251481251819565,0.0,0.0,0.0,0.0,0.0,0.0,-0.16,0.0,0.0,0.0
446,0.0,0.0,0.0,-0.2771630859375,0.0,0.0,0.0,0.0,0.0,0.0,0.193,0.0,0.0,0.0,0.0,0.0,-1.61,-0.27045201882586795,0.0,0.0,0.0,0.0,0.0,0.0,-0.112,0.0,0.0,0.0
447,0.0,0.0,0.0,-0.275421875,0.0,0.0,0.0,0.0,0.0,0.0,0.187,0.0,0.0,0.0,0.0,0.0,-1.61,-0.2686703978773302,0.0,0.0,0.0,0.0,0.0,0.0,-0.068,0.0,0.0,0.0
448,0.0,0.0,0.0,-0.273544921875,0.0,0.0,0.0,0.0,0.0,0.0,0.182,0.0,0.0,0.0,0.0,0.0,-1.61,-0.26675358504981145,0.0,0.0,0.0,0.0,0.0,0.0,0.48,0.0,0.0,0.0
449,0.0,0.0,0.0,-0.2713701171875,0.0,0.0,0.0,0.0,0.0,0.0,0.207,0.0,0.0,0.0,0.0,0.0,-1.61,-0.2645389298105938,0.0,0.0,0.0,0.0,0.0,0.0,0.708,0.0,0.0,0.0
450,0.0,0.0,0.0,-0.26933984375,0.0,0.0,0.0,0.0,0.0,0.0,0.211,0.0,0.0,0.0,0.0,0.0,-1.61,-0.26246990057075964,0.0,0.0,0.0,0.0,0.0,0.0,0.388,0.0,0.0,0.0
451,0.0,0.0,0.0,-0.267607421875,0.0,0.0,0.0,0.0,0.0,0.0,0.187,0.0,0.0,0.0,0.0,0.0,-1.61,-0.2606989157276604,0.0,0.0,0.0,0.0,0.0,0.0,0.16,0.0,0.0,0.0
452,0.0,0.0,0.0,-0.2654326171875,0.0,0.0,0.0,0.0,0.0,0.0,0.193,0.0,0.0,0.0,0.0,0.0,-1.61,-0.2584864738358674,0.0,0.0,0.0,0.0,0.0,0.0,0.66,0.0,0.0,0.0
453,0.0,0.0,0.0,-0.263267578125,0.0,0.0,0.0,0.0,0.0,0.0,0.224,0.0,0.0,0.0,0.0,0.0,-1.61,-0.25628399254219186,0.0,0.0,0.0,0.0,0.0,0.0,0.568,0.0,0.0,0.0
454,0.0,0.0,0.0,-0.2613720703125,0.0,0.0,0.0,0.0,0.0,0.0,0.201,0.0,0.0,0.0,0.0,0.0,-1.61,-0.2543517919141239,0.0,0.0,0.0,0.0,0.0,0.0,0.96,0.0,0.0,0.0
455,0.0,0.0,0.0,-0.2591982421875,0.0,0.0,0.0,0.0,0.0,0.0,0.203,0.0,0.0,0.0,0.0,0.0,-1.61,-0.2521420272496679,0.0,0.0,0.0,0.0,0.0,0.0,0.8,0.0,0.0,0.0
456,0.0,0.0,0.0,-0.2568876953125,0.0,0.0,0.0,0.0,0.0,0.0,0.223,0.0,0.0,0.0,0.0,0.0,-1.61,-0.2497957418979574,0.0,0.0,0.0,0.0,0.0,0.0,0.592,0.0,0.0,0.0
457,0.0,0.0,0.0,-0.255001953125,0.0,0.0,0.0,0.0,0.0,0.0,0.215,0.0,0.0,0.0,0.0,0.0,-1.61,-0.24787502236918363,0.0,0.0,0.0,0.0,0.0,0.0,0.64,0.0,0.0,0.0
458,0.0,0.0,0.0,-0.2529716796875,0.0,0.0,0.0,0.0,0.0,0.0,0.193,0.0,0.0,0.0,0.0,0.0,-1.61,-0.2458105392656061,0.0,0.0,0.0,0.0,0.0,0.0,0.64,0.0,0.0,0.0
459,0.0,0.0,0.0,-0.2509501953125,0.0,0.0,0.0,0.0,0.0,0.0,0.199,0.0,0.0,0.0,0.0,0.0,-1.61,-0.24375504623245503,0.0,0.0,0.0,0.0,0.0,0.0,1.052,0.0,0.0,0.0
460,0.0,0.0,0.0,-0.248919921875,0.0,0.0,0.0,0.0,0.0,0.0,0.207,0.0,0.0,0.0,0.0,0.0,-1.61,-0.24169134456216468,0.0,0.0,0.0,0.0,0.0,0.0,0.708,0.0,0.0,0.0
461,0.0,0.0,0.0,-0.24733203125,0.0,0.0,0.0,0.0,0.0,0.0,0.185,0.0,0.0,0.0,0.0,0.0,-1.61,-0.24007118711147626,0.0,0.0,0.0,0.0,0.0,0.0,0.388,0.0,0.0,0.0
462,0.0,0.0,0.0,-0.2453017578125,0.0,0.0,0.0,0.0,0.0,0.0,0.176,0.0,0.0,0.0,0.0,0.0,-1.61,-0.23800846607942375,0.0,0.0,0.0,0.0,0.0,0.0,0.684,0.0,0.0,0.0
463,0.0,0.0,0.0,-0.242982421875,0.0,0.0,0.0,0.0,0.0,0.0,0.215,0.0,0.0,0.0,0.0,0.0,-1.61,-0.23565765737090413,0.0,0.0,0.0,0.0,0.0,0.0,1.004,0.0,0.0,0.0
464,0.0,0.0,0.0,-0.24110546875,0.0,0.0,0.0,0.0,0.0,0.0,0.221,0.0,0.0,0.0,0.0,0.0,-1.61,-0.23375002030816155,0.0,0.0,0.0,0.0,0.0,0.0,0.888,0.0,0.0,0.0
465,0.0,0.0,0.0,-0.2390751953125,0.0,0.0,0.0,0.0,0.0,0.0,0.189,0.0,0.0,0.0,0.0,0.0,-1.61,-0.23168926943682094,0.0,0.0,0.0,0.0,0.0,0.0,0.82,0.0,0.0,0.0
466,0.0,0.0,0.0,-0.237189453125,0.0,0.0,0.0,0.0,0.0,0.0,0.197,0.0,0.0,0.0,0.0,0.0,-1.61,-0.22977403957653042,0.0,0.0,0.0,0.0,0.0,0.0,0.296,0.0,0.0,0.0
467,0.0,0.0,0.0,-0.2351591796875,0.0,0.0,0.0,0.0,0.0,0.0,0.202,0.0,0.0,0.0,0.0,0.0,-1.61,-0.22771448665365956,0.0,0.0,0.0,0.0,0.0,0.0,0.18,0.0,0.0,0.0
468,0.0,0.0,0.0,-0.23312890625,0.0,0.0,0.0,0.0,0.0,0.0,0.197,0.0,0.0,0.0,0.0,0.0,-1.61,-0.2256557330775662,0.0,0.0,0.0,0.0,0.0,0.0,0.408,0.0,0.0,0.0
469,0.0,0.0,0.0,-0.2309638671875,0.0,0.0,0.0,0.0,0.0,0.0,0.208,0.0,0.0,0.0,0.0,0.0,-1.61,-0.22346301854826162,0.0,0.0,0.0,0.0,0.0,0.0,0.592,0.0,0.0,0.0
470,0.0,0.0,0.0,-0.2287890625,0.0,0.0,0.0,0.0,0.0,0.0,0.223,0.0,0.0,0.0,0.0,0.0,-1.61,-0.22126054924628466,0.0,0.0,0.0,0.0,0.0,0.0,0.088,0.0,0.0,0.0
471,0.0,0.0,0.0,-0.2266142578125,0.0,0.0,0.0,0.0,0.0,0.0,0.221,0.0,0.0,0.0,0.0,0.0,-1.61,-0.21905948755571875,0.0,0.0,0.0,0.0,0.0,0.0,-0.068,0.0,0.0,0.0
472,0.0,0.0,0.0,-0.2241513671875,0.0,0.0,0.0,0.0,0.0,0.0,0.228,0.0,0.0,0.0,0.0,0.0,-1.61,-0.21657035300787952,0.0,0.0,0.0,0.0,0.0,0.0,0.364,0.0,0.0,0.0
473,0.0,0.0,0.0,-0.2218408203125,0.0,0.0,0.0,0.0,0.0,0.0,0.242,0.0,0.0,0.0,0.0,0.0,-1.61,-0.21423437633569434,0.0,0.0,0.0,0.0,0.0,0.0,-0.02,0.0,0.0,0.0
474,0.0,0.0,0.0,-0.219666015625,0.0,0.0,0.0,0.0,0.0,0.0,0.227,0.0,0.0,0.0,0.0,0.0,-1.61,-0.2120347583039046,0.0,0.0,0.0,0.0,0.0,0.0,-0.068,0.0,0.0,0.0
475,0.0,0.0,0.0,-0.2174912109375,0.0,0.0,0.0,0.0,0.0,0.0,0.212,0.0,0.0,0.0,0.0,0.0,-1.61,-0.2098355556759503,0.0,0.0,0.0,0.0,0.0,0.0,-0.044,0.0,0.0,0.0
476,0.0,0.0,0.0,-0.215326171875,0.0,0.0,0.0,0.0,0.0,0.0,0.218,0.0,0.0,0.0,0.0,0.0,-1.61,-0.20764714460162312,0.0,0.0,0.0,0.0,0.0,0.0,0.16,0.0,0.0,0.0
477,0.0,0.0,0.0,-0.2128623046875,0.0,0.0,0.0,0.0,0.0,0.0,0.234,0.0,0.0,0.0,0.0,0.0,-1.61,-0.2051601210343959,0.0,0.0,0.0,0.0,0.0,0.0,0.868,0.0,0.0,0.0
478,0.0,0.0,0.0,-0.210390625,0.0,0.0,0.0,0.0,0.0,0.0,0.252,0.0,0.0,0.0,0.0,0.0,-1.61,-0.20266652198981955,0.0,0.0,0.0,0.0,0.0,0.0,0.5,0.0,0.0,0.0
479,0.0,0.0,0.0,-0.208369140625,0.0,0.0,0.0,0.0,0.0,0.0,0.22,0.0,0.0,0.0,0.0,0.0,-1.61,-0.20062292601023146,0.0,0.0,0.0,0.0,0.0,0.0,0.228,0.0,0.0,0.0
480,0.0,0.0,0.0,-0.2059052734375,0.0,0.0,0.0,0.0,0.0,0.0,0.222,0.0,0.0,0.0,0.0,0.0,-1.61,-0.19813798358326565,0.0,0.0,0.0,0.0,0.0,0.0,0.64,0.0,0.0,0.0
481,0.0,0.0,0.0,-0.2034423828125,0.0,0.0,0.0,0.0,0.0,0.0,0.26,0.0,0.0,0.0,0.0,0.0,-1.61,-0.19565464724055184,0.0,0.0,0.0,0.0,0.0,0.0,0.32,0.0,0.0,0.0
482,0.0,0.0,0.0,-0.201556640625,0.0,0.0,0.0,0.0,0.0,0.0,0.22,0.0,0.0,0.0,0.0,0.0,-1.61,-0.1937492975387024,0.0,0.0,0.0,0.0,0.0,0.0,0.708,0.0,0.0,0.0
483,0.0,0.0,0.0,-0.199390625,0.0,0.0,0.0,0.0,0.0,0.0,0.198,0.0,0.0,0.0,0.0,0.0,-1.61,-0.1915638936346448,0.0,0.0,0.0,0.0,0.0,0.0,0.64,0.0,0.0,0.0
484,0.0,0.0,0.0,-0.196783203125,0.0,0.0,0.0,0.0,0.0,0.0,0.231,0.0,0.0,0.0,0.0,0.0,-1.61,-0.1889379243280973,0.0,0.0,0.0,0.0,0.0,0.0,0.936,0.0,0.0,0.0
485,0.0,0.0,0.0,-0.1943193359375,0.0,0.0,0.0,0.0,0.0,0.0,0.261,0.0,0.0,0.0,0.0,0.0,-1.61,-0.1864563540244528,0.0,0.0,0.0,0.0,0.0,0.0,0.82,0.0,0.0,0.0
486,0.0,0.0,0.0,-0.19214453125,0.0,0.0,0.0,0.0,0.0,0.0,0.232,0.0,0.0,0.0,0.0,0.0,-1.61,-0.18426385809663084,0.0,0.0,0.0,0.0,0.0,0.0,0.568,0.0,0.0,0.0
487,0.0,0.0,0.0,-0.1896904296875,0.0,0.0,0.0,0.0,0.0,0.0,0.226,0.0,0.0,0.0,0.0,0.0,-1.61,-0.18179353876052418,0.0,0.0,0.0,0.0,0.0,0.0,0.64,0.0,0.0,0.0
488,0.0,0.0,0.0,-0.1872177734375,0.0,0.0,0.0,0.0,0.0,0.0,0.257,0.0,0.0,0.0,0.0,0.0,-1.61,-0.1793044682448915,0.0,0.0,0.0,0.0,0.0,0.0,0.068,0.0,0.0,0.0
489,0.0,0.0,0.0,-0.18533203125,0.0,0.0,0.0,0.0,0.0,0.0,0.216,0.0,0.0,0.0,0.0,0.0,-1.61,-0.177403371025379,0.0,0.0,0.0,0.0,0.0,0.0,0.34,0.0,0.0,0.0
490,0.0,0.0,0.0,-0.1828779296875,0.0,0.0,0.0,0.0,0.0,0.0,0.207,0.0,0.0,0.0,0.0,0.0,-1.61,-0.174934767613662,0.0,0.0,0.0,0.0,0.0,0.0,1.3,0.0,0.0,0.0
491,0.0,0.0,0.0,-0.1804140625,0.0,0.0,0.0,0.0,0.0,0.0,0.261,0.0,0.0,0.0,0.0,0.0,-1.61,-0.1724566216713635,0.0,0.0,0.0,0.0,0.0,0.0,0.728,0.0,0.0,0.0
492,0.0,0.0,0.0,-0.1783837890625,0.0,0.0,0.0,0.0,0.0,0.0,0.226,0.0,0.0,0.0,0.0,0.0,-1.61,-0.17041313587274703,0.0,0.0,0.0,0.0,0.0,0.0,0.684,0.0,0.0,0.0
493,0.0,0.0,0.0,-0.1759208984375,0.0,0.0,0.0,0.0,0.0,0.0,0.21,0.0,0.0,0.0,0.0,0.0,-1.61,-0.16793725675317417,0.0,0.0,0.0,0.0,0.0,0.0,0.868,0.0,0.0,0.0
494,0.0,0.0,0.0,-0.1736103515625,0.0,0.0,0.0,0.0,0.0,0.0,0.253,0.0,0.0,0.0,0.0,0.0,-1.61,-0.16561479128851606,0.0,0.0,0.0,0.0,0.0,0.0,0.02,0.0,0.0,0.0
495,0.0,0.0,0.0,-0.171724609375,0.0,0.0,0.0,0.0,0.0,0.0,0.21,0.0,0.0,0.0,0.0,0.0,-1.61,-0.16371735507745064,0.0,0.0,0.0,0.0,0.0,0.0,0.044,0.0,0.0,0.0
496,0.0,0.0,0.0,-0.16940625,0.0,0.0,0.0,0.0,0.0,0.0,0.2,0.0,0.0,0.0,0.0,0.0,-1.61,-0.1613881622726664,0.0,0.0,0.0,0.0,0.0,0.0,0.82,0.0,0.0,0.0
497,0.0,0.0,0.0,-0.166951171875,0.0,0.0,0.0,0.0,0.0,0.0,0.248,0.0,0.0,0.0,0.0,0.0,-1.61,-0.15892290060067005,0.0,0.0,0.0,0.0,0.0,0.0,0.296,0.0,0.0,0.0
498,0.0,0.0,0.0,-0.1644794921875,0.0,0.0,0.0,0.0,0.0,0.0,0.245,0.0,0.0,0.0,0.0,0.0,-1.61,-0.1564419010547708,0.0,0.0,0.0,0.0,0.0,0.0,0.524,0.0,0.0,0.0
499,0.0,0.0,0.0,-0.1617265625,0.0,0.0,0.0,0.0,0.0,0.0,0.256,0.0,0.0,0.0,0.0,0.0,-1.61,-0.1536796640484795,0.0,0.0,0.0,0.0,0.0,0.0,0.296,0.0,0.0,0.0
500,0.0,0.0,0.0,-0.159263671875,0.0,0.0,0.0,0.0,0.0,0.0,0.269,0.0,0.0,0.0,0.0,0.0,-1.61,-0.1512089706628812,0.0,0.0,0.0,0.0,0.0,0.0,-0.5,0.0,0.0,0.0
501,0.0,0.0,0.0,-0.1567998046875,0.0,0.0,0.0,0.0,0.0,0.0,0.245,0.0,0.0,0.0,0.0,0.0,-1.61,-0.14873731396151696,0.0,0.0,0.0,0.0,0.0,0.0,-0.16,0.0,0.0,0.0
502,0.0,0.0,0.0,-0.154345703125,0.0,0.0,0.0,0.0,0.0,0.0,0.241,0.0,0.0,0.0,0.0,0.0,-1.61,-0.14627607579094853,0.0,0.0,0.0,0.0,0.0,0.0,0.136,0.0,0.0,0.0
503,0.0,0.0,0.0,-0.1520263671875,0.0,0.0,0.0,0.0,0.0,0.0,0.241,0.0,0.0,0.0,0.0,0.0,-1.61,-0.1439506846967388,0.0,0.0,0.0,0.0,0.0,0.0,0.48,0.0,0.0,0.0
504,0.0,0.0,0.0,-0.1495634765625,0.0,0.0,0.0,0.0,0.0,0.0,0.242,0.0,0.0,0.0,0.0,0.0,-1.61,-0.14148217985774136,0.0,0.0,0.0,0.0,0.0,0.0,0.82,0.0,0.0,0.0
505,0.0,0.0,0.0,-0.1469560546875,0.0,0.0,0.0,0.0,0.0,0.0,0.258,0.0,0.0,0.0,0.0,0.0,-1.61,-0.13886958457181392,0.0,0.0,0.0,0.0,0.0,0.0,0.524,0.0,0.0,0.0
506,0.0,0.0,0.0,-0.1444921875,0.0,0.0,0.0,0.0,0.0,0.0,0.249,0.0,0.0,0.0,0.0,0.0,-1.61,-0.1364014133736978,0.0,0.0,0.0,0.0,0.0,0.0,0.616,0.0,0.0,0.0
507,0.0,0.0,0.0,-0.1420380859375,0.0,0.0,0.0,0.0,0.0,0.0,0.254,0.0,0.0,0.0,0.0,0.0,-1.61,-0.13394387800564517,0.0,0.0,0.0,0.0,0.0,0.0,0.228,0.0,0.0,0.0
508,0.0,0.0,0.0,-0.1398544921875,0.0,0.0,0.0,0.0,0.0,0.0,0.236,0.0,0.0,0.0,0.0,0.0,-1.61,-0.13175729229964148,0.0,0.0,0.0,0.0,0.0,0.0,0.388,0.0,0.0,0.0
509,0.0,0.0,0.0,-0.137390625,0.0,0.0,0.0,0.0,0.0,0.0,0.226,0.0,0.0,0.0,0.0,0.0,-1.61,-0.12929066041140252,0.0,0.0,0.0,0.0,0.0,0.0,1.14,0.0,0.0,0.0
510,0.0,0.0,0.0,-0.134783203125,0.0,0.0,0.0,0.0,0.0,0.0,0.254,0.0,0.0,0.0,0.0,0.0,-1.61,-0.12668198832787814,0.0,0.0,0.0,0.0,0.0,0.0,1.14,0.0,0.0,0.0
511,0.0,0.0,0.0,-0.1323291015625,0.0,0.0,0.0,0.0,0.0,0.0,0.258,0.0,0.0,0.0,0.0,0.0,-1.61,-0.12422664966983499,0.0,0.0,0.0,0.0,0.0,0.0,0.96,0.0,0.0,0.0
512,0.0,0.0,0.0,-0.129720703125,0.0,0.0,0.0,0.0,0.0,0.0,0.252,0.0,0.0,0.0,0.0,0.0,-1.61,-0.12161788541212037,0.0,0.0,0.0,0.0,0.0,0.0,0.48,0.0,0.0,0.0
513,0.0,0.0,0.0,-0.12711328125,0.0,0.0,0.0,0.0,0.0,0.0,0.261,0.0,0.0,0.0,0.0,0.0,-1.61,-0.11901053994340849,0.0,0.0,0.0,0.0,0.0,0.0,-0.248,0.0,0.0,0.0
514,0.0,0.0,0.0,-0.1250830078125,0.0,0.0,0.0,0.0,0.0,0.0,0.237,0.0,0.0,0.0,0.0,0.0,-1.61,-0.11698142882474563,0.0,0.0,0.0,0.0,0.0,0.0,-0.02,0.0,0.0,0.0
515,0.0,0.0,0.0,-0.122763671875,0.0,0.0,0.0,0.0,0.0,0.0,0.221,0.0,0.0,0.0,0.0,0.0,-1.61,-0.11466369731577718,0.0,0.0,0.0,0.0,0.0,0.0,0.64,0.0,0.0,0.0
516,0.0,0.0,0.0,-0.1204541015625,0.0,0.0,0.0,0.0,0.0,0.0,0.231,0.0,0.0,0.0,0.0,0.0,-1.61,-0.11235638798646831,0.0,0.0,0.0,0.0,0.0,0.0,0.844,0.0,0.0,0.0
517,0.0,0.0,0.0,-0.1181259765625,0.0,0.0,0.0,0.0,0.0,0.0,0.225,0.0,0.0,0.0,0.0,0.0,-1.61,-0.11003096602192783,0.0,0.0,0.0,0.0,0.0,0.0,1.28,0.0,0.0,0.0
518,0.0,0.0,0.0,-0.115662109375,0.0,0.0,0.0,0.0,0.0,0.0,0.243,0.0,0.0,0.0,0.0,0.0,-1.61,-0.10757088674637513,0.0,0.0,0.0,0.0,0.0,0.0,0.752,0.0,0.0,0.0
519,0.0,0.0,0.0,-0.11319921875,0.0,0.0,0.0,0.0,0.0,0.0,0.251,0.0,0.0,0.0,0.0,0.0,-1.61,-0.1051120113783904,0.0,0.0,0.0,0.0,0.0,0.0,0.296,0.0,0.0,0.0
520,0.0,0.0,0.0,-0.111033203125,0.0,0.0,0.0,0.0,0.0,0.0,0.23,0.0,0.0,0.0,0.0,0.0,-1.61,-0.10295109484112897,0.0,0.0,0.0,0.0,0.0,0.0,-0.16,0.0,0.0,0.0
521,0.0,0.0,0.0,-0.1087138671875,0.0,0.0,0.0,0.0,0.0,0.0,0.22,0.0,0.0,0.0,0.0,0.0,-1.61,-0.10063708508034301,0.0,0.0,0.0,0.0,0.0,0.0,0.296,0.0,0.0,0.0
522,0.0,0.0,0.0,-0.1063955078125,0.0,0.0,0.0,0.0,0.0,0.0,0.235,0.0,0.0,0.0,0.0,0.0,-1.61,-0.0983251343156081,0.0,0.0,0.0,0.0,0.0,0.0,0.408,0.0,0.0,0.0
523,0.0,0.0,0.0,-0.104076171875,0.0,0.0,0.0,0.0,0.0,0.0,0.229,0.0,0.0,0.0,0.0,0.0,-1.61,-0.09601243374762766,0.0,0.0,0.0,0.0,0.0,0.0,0.524,0.0,0.0,0.0
524,0.0,0.0,0.0,-0.1013330078125,0.0,0.0,0.0,0.0,0.0,0.0,0.252,0.0,0.0,0.0,0.0,0.0,-1.61,-0.09327677250843533,0.0,0.0,0.0,0.0,0.0,0.0,0.568,0.0,0.0,0.0
525,0.0,0.0,0.0,-0.0987255859375,0.0,0.0,0.0,0.0,0.0,0.0,0.277,0.0,0.0,0.0,0.0,0.0,-1.61,-0.09067750650064237,0.0,0.0,0.0,0.0,0.0,0.0,-0.364,0.0,0.0,0.0
526,0.0,0.0,0.0,-0.09655078125,0.0,0.0,0.0,0.0,0.0,0.0,0.244,0.0,0.0,0.0,0.0,0.0,-1.61,-0.08851129729799743,0.0,0.0,0.0,0.0,0.0,0.0,-0.66,0.0,0.0,0.0
527,0.0,0.0,0.0,-0.09393359375,0.0,0.0,0.0,0.0,0.0,0.0,0.238,0.0,0.0,0.0,0.0,0.0,-1.61,-0.08590399524702283,0.0,0.0,0.0,0.0,0.0,0.0,-0.112,0.0,0.0,0.0
528,0.0,0.0,0.0,-0.091326171875,0.0,0.0,0.0,0.0,0.0,0.0,0.264,0.0,0.0,0.0,0.0,0.0,-1.61,-0.08330625919795737,0.0,0.0,0.0,0.0,0.0,0.0,0.408,0.0,0.0,0.0
529,0.0,0.0,0.0,-0.08916015625,0.0,0.0,0.0,0.0,0.0,0.0,0.239,0.0,0.0,0.0,0.0,0.0,-1.61,-0.0811512169992336,0.0,0.0,0.0,0.0,0.0,0.0,0.96,0.0,0.0,0.0
530,0.0,0.0,0.0,-0.086408203125,0.0,0.0,0.0,0.0,0.0,0.0,0.243,0.0,0.0,0.0,0.0,0.0,-1.61,-0.07841067400455745,0.0,0.0,0.0,0.0,0.0,0.0,0.912,0.0,0.0,0.0
531,0.0,0.0,0.0,-0.08365625,0.0,0.0,0.0,0.0,0.0,0.0,0.28,0.0,0.0,0.0,0.0,0.0,-1.61,-0.0756707792950176,0.0,0.0,0.0,0.0,0.0,0.0,0.112,0.0,0.0,0.0
532,0.0,0.0,0.0,-0.0813369140625,0.0,0.0,0.0,0.0,0.0,0.0,0.254,0.0,0.0,0.0,0.0,0.0,-1.61,-0.0733639381282256,0.0,0.0,0.0,0.0,0.0,0.0,0.0,0.0,0.0,0.0
533,0.0,0.0,0.0,-0.0790185546875,0.0,0.0,0.0,0.0,0.0,0.0,0.231,0.0,0.0,0.0,0.0,0.0,-1.61,-0.07105914206864374,0.0,0.0,0.0,0.0,0.0,0.0,0.364,0.0,0.0,0.0
534,0.0,0.0,0.0,-0.0767080078125,0.0,0.0,0.0,0.0,0.0,0.0,0.237,0.0,0.0,0.0,0.0,0.0,-1.61,-0.06876238219590075,0.0,0.0,0.0,0.0,0.0,0.0,1.052,0.0,0.0,0.0
535,0.0,0.0,0.0,-0.0743896484375,0.0,0.0,0.0,0.0,0.0,0.0,0.233,0.0,0.0,0.0,0.0,0.0,-1.61,-0.06645887470235602,0.0,0.0,0.0,0.0,0.0,0.0,1.256,0.0,0.0,0.0
536,0.0,0.0,0.0,-0.0720615234375,0.0,0.0,0.0,0.0,0.0,0.0,0.237,0.0,0.0,0.0,0.0,0.0,-1.61,-0.06414582446579922,0.0,0.0,0.0,0.0,0.0,0.0,0.48,0.0,0.0,0.0
537,0.0,0.0,0.0,-0.06959765625,0.0,0.0,0.0,0.0,0.0,0.0,0.233,0.0,0.0,0.0,0.0,0.0,-1.61,-0.061697883938756054,0.0,0.0,0.0,0.0,0.0,0.0,0.364,0.0,0.0,0.0
538,0.0,0.0,0.0,-0.0669990234375,0.0,0.0,0.0,0.0,0.0,0.0,0.257,0.0,0.0,0.0,0.0,0.0,-1.61,-0.05911602670575558,0.0,0.0,0.0,0.0,0.0,0.0,0.408,0.0,0.0,0.0
539,0.0,0.0,0.0,-0.0646796875,0.0,0.0,0.0,0.0,0.0,0.0,0.252,0.0,0.0,0.0,0.0,0.0,-1.61,-0.056813479826891,0.0,0.0,0.0,0.0,0.0,0.0,-0.044,0.0,0.0,0.0
540,0.0,0.0,0.0,-0.0627939453125,0.0,0.0,0.0,0.0,0.0,0.0,0.205,0.0,0.0,0.0,0.0,0.0,-1.61,-0.05494578992769826,0.0,0.0,0.0,0.0,0.0,0.0,0.34,0.0,0.0,0.0
541,0.0,0.0,0.0,-0.0601865234375,0.0,0.0,0.0,0.0,0.0,0.0,0.221,0.0,0.0,0.0,0.0,0.0,-1.61,-0.052356640945834754,0.0,0.0,0.0,0.0,0.0,0.0,0.752,0.0,0.0,0.0
542,0.0,0.0,0.0,-0.0580205078125,0.0,0.0,0.0,0.0,0.0,0.0,0.246,0.0,0.0,0.0,0.0,0.0,-1.61,-0.050209947603816515,0.0,0.0,0.0,0.0,0.0,0.0,0.408,0.0,0.0,0.0
543,0.0,0.0,0.0,-0.0557021484375,0.0,0.0,0.0,0.0,0.0,0.0,0.222,0.0,0.0,0.0,0.0,0.0,-1.61,-0.04791133609543545,0.0,0.0,0.0,0.0,0.0,0.0,1.212,0.0,0.0,0.0
544,0.0,0.0,0.0,-0.05309375,0.0,0.0,0.0,0.0,0.0,0.0,0.245,0.0,0.0,0.0,0.0,0.0,-1.61,-0.045323317086535704,0.0,0.0,0.0,0.0,0.0,0.0,0.568,0.0,0.0,0.0
545,0.0,0.0,0.0,-0.050765625,0.0,0.0,0.0,0.0,0.0,0.0,0.249,0.0,0.0,0.0,0.0,0.0,-1.61,-0.043015996502141295,0.0,0.0,0.0,0.0,0.0,0.0,0.432,0.0,0.0,0.0
546,0.0,0.0,0.0,-0.0487451171875,0.0,0.0,0.0,0.0,0.0,0.0,0.223,0.0,0.0,0.0,0.0,0.0,-1.61,-0.041017331739154596,0.0,0.0,0.0,0.0,0.0,0.0,0.068,0.0,0.0,0.0
547,0.0,0.0,0.0,-0.0468583984375,0.0,0.0,0.0,0.0,0.0,0.0,0.199,0.0,0.0,0.0,0.0,0.0,-1.61,-0.03915267326000298,0.0,0.0,0.0,0.0,0.0,0.0,-0.204,0.0,0.0,0.0
548,0.0,0.0,0.0,-0.0446845703125,0.0,0.0,0.0,0.0,0.0,0.0,0.195,0.0,0.0,0.0,0.0,0.0,-1.61,-0.037001735026244535,0.0,0.0,0.0,0.0,0.0,0.0,1.004,0.0,0.0,0.0
549,0.0,0.0,0.0,-0.0422294921875,0.0,0.0,0.0,0.0,0.0,0.0,0.238,0.0,0.0,0.0,0.0,0.0,-1.61,-0.03457037213288789,0.0,0.0,0.0,0.0,0.0,0.0,0.752,0.0,0.0,0.0
550,0.0,0.0,0.0,-0.0400546875,0.0,0.0,0.0,0.0,0.0,0.0,0.234,0.0,0.0,0.0,0.0,0.0,-1.61,-0.03241949796824165,0.0,0.0,0.0,0.0,0.0,0.0,0.296,0.0,0.0,0.0
551,0.0,0.0,0.0,-0.037302734375,0.0,0.0,0.0,0.0,0.0,0.0,0.238,0.0,0.0,0.0,0.0,0.0,-1.61,-0.029692297474726646,0.0,0.0,0.0,0.0,0.0,0.0,0.432,0.0,0.0,0.0
552,0.0,0.0,0.0,-0.0346953125,0.0,0.0,0.0,0.0,0.0,0.0,0.276,0.0,0.0,0.0,0.0,0.0,-1.61,-0.027110245203736373,0.0,0.0,0.0,0.0,0.0,0.0,-0.64,0.0,0.0,0.0
553,0.0,0.0,0.0,-0.0326650390625,0.0,0.0,0.0,0.0,0.0,0.0,0.235,0.0,0.0,0.0,0.0,0.0,-1.61,-0.025106156097711482,0.0,0.0,0.0,0.0,0.0,0.0,-1.072,0.0,0.0,0.0
554,0.0,0.0,0.0,-0.0306435546875,0.0,0.0,0.0,0.0,0.0,0.0,0.192,0.0,0.0,0.0,0.0,0.0,-1.61,-0.023110869428563257,0.0,0.0,0.0,0.0,0.0,0.0,0.044,0.0,0.0,0.0
555,0.0,0.0,0.0,-0.0283154296875,0.0,0.0,0.0,0.0,0.0,0.0,0.224,0.0,0.0,0.0,0.0,0.0,-1.61,-0.02081015222237986,0.0,0.0,0.0,0.0,0.0,0.0,0.752,0.0,0.0,0.0
556,0.0,0.0,0.0,-0.0259970703125,0.0,0.0,0.0,0.0,0.0,0.0,0.239,0.0,0.0,0.0,0.0,0.0,-1.61,-0.01851960927688741,0.0,0.0,0.0,0.0,0.0,0.0,0.912,0.0,0.0,0.0
557,0.0,0.0,0.0,-0.0259970703125,0.0,0.0,0.0,0.0,0.0,0.0,0.239,0.0,0.0,0.0,0.0,0.0,-1.61,-0.018547835033174215,0.0,0.0,0.0,0.0,0.0,0.0,0.912,0.0,0.0,0.0
558,0.0,0.0,0.0,-0.0213671875,0.0,0.0,0.0,0.0,0.0,0.0,0.226,0.0,0.0,0.0,0.0,0.0,-1.61,-0.013947176372592688,0.0,0.0,0.0,0.0,0.0,0.0,-0.112,0.0,0.0,0.0
559,0.0,0.0,0.0,-0.018904296875,0.0,0.0,0.0,0.0,0.0,0.0,0.243,0.0,0.0,0.0,0.0,0.0,-1.61,-0.011513718511839962,0.0,0.0,0.0,0.0,0.0,0.0,-0.02,0.0,0.0,0.0
560,0.0,0.0,0.0,-0.017306640625,0.0,0.0,0.0,0.0,0.0,0.0,0.215,0.0,0.0,0.0,0.0,0.0,-1.61,-0.009946680048223654,0.0,0.0,0.0,0.0,0.0,0.0,-0.48,0.0,0.0,0.0
561,0.0,0.0,0.0,-0.01571875,0.0,0.0,0.0,0.0,0.0,0.0,0.154,0.0,0.0,0.0,0.0,0.0,-1.61,-0.009977114963808119,0.0,0.0,0.0,0.0,0.0,0.0,1.096,0.0,0.0,0.0
562,0.0,0.0,0.0,-0.013111328125,0.0,0.0,0.0,0.0,0.0,0.0,0.205,0.0,0.0,0.0,0.0,0.0,-1.61,-0.005813222202948788,0.0,0.0,0.0,0.0,0.0,0.0,1.852,0.0,0.0,0.0
563,0.0,0.0,0.0,-0.0107919921875,0.0,0.0,0.0,0.0,0.0,0.0,0.255,0.0,0.0,0.0,0.0,0.0,-1.61,-0.0035258976880051095,0.0,0.0,0.0,0.0,0.0,0.0,1.14,0.0,0.0,0.0
564,0.0,0.0,0.0,-0.00905078125,0.0,0.0,0.0,0.0,0.0,0.0,0.201,0.0,0.0,0.0,0.0,0.0,-1.61,-0.0018170961634478566,0.0,0.0,0.0,0.0,0.0,0.0,0.0,0.0,0.0,0.0
565,0.0,0.0,0.0,-0.0067314453125,0.0,0.0,0.0,0.0,0.0,0.0,0.19,0.0,0.0,0.0,0.0,0.0,-1.61,0.0004686706227659829,0.0,0.0,0.0,0.0,0.0,0.0,0.18,0.0,0.0,0.0
566,0.0,0.0,0.0,-0.0039794921875,0.0,0.0,0.0,0.0,0.0,0.0,0.263,0.0,0.0,0.0,0.0,0.0,-1.61,0.003187044135215411,0.0,0.0,0.0,0.0,0.0,0.0,0.388,0.0,0.0,0.0
567,0.0,0.0,0.0,-0.00223828125,0.0,0.0,0.0,0.0,0.0,0.0,0.236,0.0,0.0,0.0,0.0,0.0,-1.61,0.004893903345815827,0.0,0.0,0.0,0.0,0.0,0.0,0.592,0.0,0.0,0.0
568,0.0,0.0,0.0,-0.0009384765625,0.0,0.0,0.0,0.0,0.0,0.0,0.152,0.0,0.0,0.0,0.0,0.0,-1.61,0.0061589655343772375,0.0,0.0,0.0,0.0,0.0,0.0,0.456,0.0,0.0,0.0
569,0.0,0.0,0.0,0.0010908203125,0.0,0.0,0.0,0.0,0.0,0.0,0.159,0.0,0.0,0.0,0.0,0.0,-1.61,0.008152382132118701,0.0,0.0,0.0,0.0,0.0,0.0,0.868,0.0,0.0,0.0
570,0.0,0.0,0.0,0.003689453125,0.0,0.0,0.0,0.0,0.0,0.0,0.236,0.0,0.0,0.0,0.0,0.0,-1.61,0.010715310073807197,0.0,0.0,0.0,0.0,0.0,0.0,1.052,0.0,0.0,0.0
571,0.0,0.0,0.0,0.0057197265625,0.0,0.0,0.0,0.0,0.0,0.0,0.235,0.0,0.0,0.0,0.0,0.0,-1.61,0.012708749508962586,0.0,0.0,0.0,0.0,0.0,0.0,0.684,0.0,0.0,0.0
572,0.0,0.0,0.0,0.0074609375,0.0,0.0,0.0,0.0,0.0,0.0,0.179,0.0,0.0,0.0,0.0,0.0,-1.61,0.014412929909139019,0.0,0.0,0.0,0.0,0.0,0.0,0.568,0.0,0.0,0.0
573,0.0,0.0,0.0,0.009626953125,0.0,0.0,0.0,0.0,0.0,0.0,0.192,0.0,0.0,0.0,0.0,0.0,-1.61,0.016540800654428863,0.0,0.0,0.0,0.0,0.0,0.0,0.364,0.0,0.0,0.0
574,0.0,0.0,0.0,0.0116572265625,0.0,0.0,0.0,0.0,0.0,0.0,0.218,0.0,0.0,0.0,0.0,0.0,-1.61,0.01853310094950049,0.0,0.0,0.0,0.0,0.0,0.0,0.248,0.0,0.0,0.0
575,0.0,0.0,0.0,0.0129658203125,0.0,0.0,0.0,0.0,0.0,0.0,0.173,0.0,0.0,0.0,0.0,0.0,-1.61,0.019802796919582324,0.0,0.0,0.0,0.0,0.0,0.0,0.728,0.0,0.0,0.0
576,0.0,0.0,0.0,0.01499609375,0.0,0.0,0.0,0.0,0.0,0.0,0.158,0.0,0.0,0.0,0.0,0.0,-1.61,0.021793618249788545,0.0,0.0,0.0,0.0,0.0,0.0,1.44,0.0,0.0,0.0
577,0.0,0.0,0.0,0.017314453125,0.0,0.0,0.0,0.0,0.0,0.0,0.217,0.0,0.0,0.0,0.0,0.0,-1.61,0.02407179599663604,0.0,0.0,0.0,0.0,0.0,0.0,0.616,0.0,0.0,0.0
578,0.0,0.0,0.0,0.019201171875,0.0,0.0,0.0,0.0,0.0,0.0,0.213,0.0,0.0,0.0,0.0,0.0,-1.61,0.025918143098469258,0.0,0.0,0.0,0.0,0.0,0.0,-0.068,0.0,0.0,0.0
579,0.0,0.0,0.0,0.0212216796875,0.0,0.0,0.0,0.0,0.0,0.0,0.192,0.0,0.0,0.0,0.0,0.0,-1.61,0.02789773142246533,0.0,0.0,0.0,0.0,0.0,0.0,-0.044,0.0,0.0,0.0
580,0.0,0.0,0.0,0.023541015625,0.0,0.0,0.0,0.0,0.0,0.0,0.226,0.0,0.0,0.0,0.0,0.0,-1.61,0.030175077958074288,0.0,0.0,0.0,0.0,0.0,0.0,0.068,0.0,0.0,0.0
581,0.0,0.0,0.0,0.0255712890625,0.0,0.0,0.0,0.0,0.0,0.0,0.223,0.0,0.0,0.0,0.0,0.0,-1.61,0.032163352751615026,0.0,0.0,0.0,0.0,0.0,0.0,0.044,0.0,0.0,0.0
582,0.0,0.0,0.0,0.0274482421875,0.0,0.0,0.0,0.0,0.0,0.0,0.19,0.0,0.0,0.0,0.0,0.0,-1.61,0.03399776939097501,0.0,0.0,0.0,0.0,0.0,0.0,0.48,0.0,0.0,0.0
583,0.0,0.0,0.0,0.029478515625,0.0,0.0,0.0,0.0,0.0,0.0,0.199,0.0,0.0,0.0,0.0,0.0,-1.61,0.03598445680146752,0.0,0.0,0.0,0.0,0.0,0.0,0.044,0.0,0.0,0.0
584,0.0,0.0,0.0,0.03135546875,0.0,0.0,0.0,0.0,0.0,0.0,0.2,0.0,0.0,0.0,0.0,0.0,-1.61,0.03781798545832609,0.0,0.0,0.0,0.0,0.0,0.0,-0.248,0.0,0.0,0.0
585,0.0,0.0,0.0,0.03339453125,0.0,0.0,0.0,0.0,0.0,0.0,0.192,0.0,0.0,0.0,0.0,0.0,-1.61,0.03981258445911748,0.0,0.0,0.0,0.0,0.0,0.0,-0.02,0.0,0.0,0.0
586,0.0,0.0,0.0,0.0357138671875,0.0,0.0,0.0,0.0,0.0,0.0,0.217,0.0,0.0,0.0,0.0,0.0,-1.61,0.04208710822811443,0.0,0.0,0.0,0.0,0.0,0.0,0.112,0.0,0.0,0.0
587,0.0,0.0,0.0,0.0374462890625,0.0,0.0,0.0,0.0,0.0,0.0,0.207,0.0,0.0,0.0,0.0,0.0,-1.61,0.043774368152612236,0.0,0.0,0.0,0.0,0.0,0.0,-0.02,0.0,0.0,0.0
588,0.0,0.0,0.0,0.0394765625,0.0,0.0,0.0,0.0,0.0,0.0,0.187,0.0,0.0,0.0,0.0,0.0,-1.61,0.04575863147213168,0.0,0.0,0.0,0.0,0.0,0.0,0.48,0.0,0.0,0.0
589,0.0,0.0,0.0,0.041794921875,0.0,0.0,0.0,0.0,0.0,0.0,0.217,0.0,0.0,0.0,0.0,0.0,-1.61,0.0480309685303576,0.0,0.0,0.0,0.0,0.0,0.0,0.548,0.0,0.0,0.0
590,0.0,0.0,0.0,0.04352734375,0.0,0.0,0.0,0.0,0.0,0.0,0.206,0.0,0.0,0.0,0.0,0.0,-1.61,0.04971620204703142,0.0,0.0,0.0,0.0,0.0,0.0,0.248,0.0,0.0,0.0
591,0.0,0.0,0.0,0.0454140625,0.0,0.0,0.0,0.0,0.0,0.0,0.181,0.0,0.0,0.0,0.0,0.0,-1.61,0.05155588607967696,0.0,0.0,0.0,0.0,0.0,0.0,0.616,0.0,0.0,0.0
592,0.0,0.0,0.0,0.047587890625,0.0,0.0,0.0,0.0,0.0,0.0,0.206,0.0,0.0,0.0,0.0,0.0,-1.61,0.05368169177430158,0.0,0.0,0.0,0.0,0.0,0.0,0.456,0.0,0.0,0.0
593,0.0,0.0,0.0,0.04946484375,0.0,0.0,0.0,0.0,0.0,0.0,0.208,0.0,0.0,0.0,0.0,0.0,-1.61,0.05551013219159358,0.0,0.0,0.0,0.0,0.0,0.0,0.592,0.0,0.0,0.0
594,0.0,0.0,0.0,0.0513515625,0.0,0.0,0.0,0.0,0.0,0.0,0.186,0.0,0.0,0.0,0.0,0.0,-1.61,0.05734832632661441,0.0,0.0,0.0,0.0,0.0,0.0,0.408,0.0,0.0,0.0
595,0.0,0.0,0.0,0.0530927734375,0.0,0.0,0.0,0.0,0.0,0.0,0.174,0.0,0.0,0.0,0.0,0.0,-1.61,0.0590398913496664,0.0,0.0,0.0,0.0,0.0,0.0,0.02,0.0,0.0,0.0
596,0.0,0.0,0.0,0.054833984375,0.0,0.0,0.0,0.0,0.0,0.0,0.177,0.0,0.0,0.0,0.0,0.0,-1.61,0.06073160401238511,0.0,0.0,0.0,0.0,0.0,0.0,0.524,0.0,0.0,0.0
597,0.0,0.0,0.0,0.0567197265625,0.0,0.0,0.0,0.0,0.0,0.0,0.191,0.0,0.0,0.0,0.0,0.0,-1.61,0.0625667451640216,0.0,0.0,0.0,0.0,0.0,0.0,1.096,0.0,0.0,0.0
598,0.0,0.0,0.0,0.0584521484375,0.0,0.0,0.0,0.0,0.0,0.0,0.183,0.0,0.0,0.0,0.0,0.0,-1.61,0.06424871115781813,0.0,0.0,0.0,0.0,0.0,0.0,0.776,0.0,0.0,0.0
599,0.0,0.0,0.0,0.0601943359375,0.0,0.0,0.0,0.0,0.0,0.0,0.17,0.0,0.0,0.0,0.0,0.0,-1.61,0.06593951034670908,0.0,0.0,0.0,0.0,0.0,0.0,0.48,0.0,0.0,0.0
600,0.0,0.0,0.0,0.0617822265625,0.0,0.0,0.0,0.0,0.0,0.0,0.165,0.0,0.0,0.0,0.0,0.0,-1.61,0.06747585103784516,0.0,0.0,0.0,0.0,0.0,0.0,-0.088,0.0,0.0,0.0
601,0.0,0.0,0.0,0.06337890625,0.0,0.0,0.0,0.0,0.0,0.0,0.161,0.0,0.0,0.0,0.0,0.0,-1.61,0.06902021764499924,0.0,0.0,0.0,0.0,0.0,0.0,0.228,0.0,0.0,0.0
602,0.0,0.0,0.0,0.0646787109375,0.0,0.0,0.0,0.0,0.0,0.0,0.152,0.0,0.0,0.0,0.0,0.0,-1.61,0.07026755055126366,0.0,0.0,0.0,0.0,0.0,0.0,0.136,0.0,0.0,0.0
603,0.0,0.0,0.0,0.0661318359375,0.0,0.0,0.0,0.0,0.0,0.0,0.126,0.0,0.0,0.0,0.0,0.0,-1.61,0.07166745466841312,0.0,0.0,0.0,0.0,0.0,0.0,1.004,0.0,0.0,0.0
604,0.0,0.0,0.0,0.0678642578125,0.0,0.0,0.0,0.0,0.0,0.0,0.163,0.0,0.0,0.0,0.0,0.0,-1.61,0.07334649993300973,0.0,0.0,0.0,0.0,0.0,0.0,1.3,0.0,0.0,0.0
605,0.0,0.0,0.0,0.0694609375,0.0,0.0,0.0,0.0,0.0,0.0,0.175,0.0,0.0,0.0,0.0,0.0,-1.61,0.0748892112009782,0.0,0.0,0.0,0.0,0.0,0.0,0.684,0.0,0.0,0.0
606,0.0,0.0,0.0,0.0709052734375,0.0,0.0,0.0,0.0,0.0,0.0,0.148,0.0,0.0,0.0,0.0,0.0,-1.61,0.07627913855956195,0.0,0.0,0.0,0.0,0.0,0.0,0.296,0.0,0.0,0.0
607,0.0,0.0,0.0,0.072357421875,0.0,0.0,0.0,0.0,0.0,0.0,0.145,0.0,0.0,0.0,0.0,0.0,-1.61,0.07767644267055879,0.0,0.0,0.0,0.0,0.0,0.0,0.0,0.0,0.0,0.0
608,0.0,0.0,0.0,0.0733681640625,0.0,0.0,0.0,0.0,0.0,0.0,0.129,0.0,0.0,0.0,0.0,0.0,-1.61,0.07863190923110029,0.0,0.0,0.0,0.0,0.0,0.0,0.088,0.0,0.0,0.0
609,0.0,0.0,0.0,0.0745322265625,0.0,0.0,0.0,0.0,0.0,0.0,0.106,0.0,0.0,0.0,0.0,0.0,-1.61,0.07974026928578956,0.0,0.0,0.0,0.0,0.0,0.0,0.96,0.0,0.0,0.0
610,0.0,0.0,0.0,0.0756962890625,0.0,0.0,0.0,0.0,0.0,0.0,0.11,0.0,0.0,0.0,0.0,0.0,-1.61,0.08084820703883996,0.0,0.0,0.0,0.0,0.0,0.0,1.14,0.0,0.0,0.0
611,0.0,0.0,0.0,0.0771396484375,0.0,0.0,0.0,0.0,0.0,0.0,0.131,0.0,0.0,0.0,0.0,0.0,-1.61,0.08223502391620731,0.0,0.0,0.0,0.0,0.0,0.0,1.256,0.0,0.0,0.0
612,0.0,0.0,0.0,0.0787373046875,0.0,0.0,0.0,0.0,0.0,0.0,0.156,0.0,0.0,0.0,0.0,0.0,-1.61,0.08377572450272135,0.0,0.0,0.0,0.0,0.0,0.0,0.34,0.0,0.0,0.0
613,0.0,0.0,0.0,0.0801806640625,0.0,0.0,0.0,0.0,0.0,0.0,0.152,0.0,0.0,0.0,0.0,0.0,-1.61,0.08516185078582526,0.0,0.0,0.0,0.0,0.0,0.0,-0.32,0.0,0.0,0.0
614,0.0,0.0,0.0,0.0814892578125,0.0,0.0,0.0,0.0,0.0,0.0,0.138,0.0,0.0,0.0,0.0,0.0,-1.61,0.08641267335908148,0.0,0.0,0.0,0.0,0.0,0.0,-0.776,0.0,0.0,0.0
615,0.0,0.0,0.0,0.08264453125,0.0,0.0,0.0,0.0,0.0,0.0,0.126,0.0,0.0,0.0,0.0,0.0,-1.61,0.08750977637646258,0.0,0.0,0.0,0.0,0.0,0.0,-0.088,0.0,0.0,0.0
616,0.0,0.0,0.0,0.0840966796875,0.0,0.0,0.0,0.0,0.0,0.0,0.131,0.0,0.0,0.0,0.0,0.0,-1.61,0.0889033598675507,0.0,0.0,0.0,0.0,0.0,0.0,0.66,0.0,0.0,0.0
617,0.0,0.0,0.0,0.085396484375,0.0,0.0,0.0,0.0,0.0,0.0,0.134,0.0,0.0,0.0,0.0,0.0,-1.61,0.09014408491428602,0.0,0.0,0.0,0.0,0.0,0.0,0.912,0.0,0.0,0.0
618,0.0,0.0,0.0,0.086705078125,0.0,0.0,0.0,0.0,0.0,0.0,0.134,0.0,0.0,0.0,0.0,0.0,-1.61,0.0913934654373873,0.0,0.0,0.0,0.0,0.0,0.0,0.248,0.0,0.0,0.0
619,0.0,0.0,0.0,0.08829296875,0.0,0.0,0.0,0.0,0.0,0.0,0.142,0.0,0.0,0.0,0.0,0.0,-1.61,0.09292163616758617,0.0,0.0,0.0,0.0,0.0,0.0,-0.5,0.0,0.0,0.0
620,0.0,0.0,0.0,0.08974609375,0.0,0.0,0.0,0.0,0.0,0.0,0.154,0.0,0.0,0.0,0.0,0.0,-1.61,0.09431454577185641,0.0,0.0,0.0,0.0,0.0,0.0,-0.592,0.0,0.0,0.0
621,0.0,0.0,0.0,0.090900390625,0.0,0.0,0.0,0.0,0.0,0.0,0.135,0.0,0.0,0.0,0.0,0.0,-1.61,0.09425432038394557,0.0,0.0,0.0,0.0,0.0,0.0,-0.34,0.0,0.0,0.0
622,0.0,0.0,0.0,0.0920556640625,0.0,0.0,0.0,0.0,0.0,0.0,0.114,0.0,0.0,0.0,0.0,0.0,-1.61,0.09650293926619159,0.0,0.0,0.0,0.0,0.0,0.0,-0.088,0.0,0.0,0.0
623,0.0,0.0,0.0,0.0930751953125,0.0,0.0,0.0,0.0,0.0,0.0,0.111,0.0,0.0,0.0,0.0,0.0,-1.61,0.09746127861202661,0.0,0.0,0.0,0.0,0.0,0.0,-0.524,0.0,0.0,0.0
624,0.0,0.0,0.0,0.0940859375,0.0,0.0,0.0,0.0,0.0,0.0,0.098,0.0,0.0,0.0,0.0,0.0,-1.61,0.09841047322465252,0.0,0.0,0.0,0.0,0.0,0.0,-0.432,0.0,0.0,0.0
625,0.0,0.0,0.0,0.09539453125,0.0,0.0,0.0,0.0,0.0,0.0,0.113,0.0,0.0,0.0,0.0,0.0,-1.61,0.09965716872000699,0.0,0.0,0.0,0.0,0.0,0.0,-0.136,0.0,0.0,0.0
626,0.0,0.0,0.0,0.0969912109375,0.0,0.0,0.0,0.0,0.0,0.0,0.146,0.0,0.0,0.0,0.0,0.0,-1.61,0.10119160449246482,0.0,0.0,0.0,0.0,0.0,0.0,0.272,0.0,0.0,0.0
627,0.0,0.0,0.0,0.098146484375,0.0,0.0,0.0,0.0,0.0,0.0,0.147,0.0,0.0,0.0,0.0,0.0,-1.61,0.10228429340193072,0.0,0.0,0.0,0.0,0.0,0.0,-0.296,0.0,0.0,0.0
628,0.0,0.0,0.0,0.099310546875,0.0,0.0,0.0,0.0,0.0,0.0,0.113,0.0,0.0,0.0,0.0,0.0,-1.61,0.103385649937952,0.0,0.0,0.0,0.0,0.0,0.0,-0.456,0.0,0.0,0.0
629,0.0,0.0,0.0,0.1006103515625,0.0,0.0,0.0,0.0,0.0,0.0,0.124,0.0,0.0,0.0,0.0,0.0,-1.61,0.10462198666379299,0.0,0.0,0.0,0.0,0.0,0.0,-0.296,0.0,0.0,0.0
630,0.0,0.0,0.0,0.1019091796875,0.0,0.0,0.0,0.0,0.0,0.0,0.129,0.0,0.0,0.0,0.0,0.0,-1.61,0.1058572389632678,0.0,0.0,0.0,0.0,0.0,0.0,-0.088,0.0,0.0,0.0
631,0.0,0.0,0.0,0.102775390625,0.0,0.0,0.0,0.0,0.0,0.0,0.111,0.0,0.0,0.0,0.0,0.0,-1.61,0.10665965591281217,0.0,0.0,0.0,0.0,0.0,0.0,0.548,0.0,0.0,0.0
632,0.0,0.0,0.0,0.1037861328125,0.0,0.0,0.0,0.0,0.0,0.0,0.096,0.0,0.0,0.0,0.0,0.0,-1.61,0.10760618374572224,0.0,0.0,0.0,0.0,0.0,0.0,0.432,0.0,0.0,0.0
633,0.0,0.0,0.0,0.1050947265625,0.0,0.0,0.0,0.0,0.0,0.0,0.108,0.0,0.0,0.0,0.0,0.0,-1.61,0.10885025335399905,0.0,0.0,0.0,0.0,0.0,0.0,0.66,0.0,0.0,0.0
634,0.0,0.0,0.0,0.10610546875,0.0,0.0,0.0,0.0,0.0,0.0,0.124,0.0,0.0,0.0,0.0,0.0,-1.61,0.1097960699935608,0.0,0.0,0.0,0.0,0.0,0.0,0.204,0.0,0.0,0.0
635,0.0,0.0,0.0,0.1069716796875,0.0,0.0,0.0,0.0,0.0,0.0,0.097,0.0,0.0,0.0,0.0,0.0,-1.61,0.11059725151740098,0.0,0.0,0.0,0.0,0.0,0.0,-0.044,0.0,0.0,0.0
636,0.0,0.0,0.0,0.107693359375,0.0,0.0,0.0,0.0,0.0,0.0,0.074,0.0,0.0,0.0,0.0,0.0,-1.61,0.1112536025909333,0.0,0.0,0.0,0.0,0.0,0.0,0.02,0.0,0.0,0.0
637,0.0,0.0,0.0,0.107693359375,0.0,0.0,0.0,0.0,0.0,0.0,0.074,0.0,0.0,0.0,0.0,0.0,-1.61,0.11118779674792477,0.0,0.0,0.0,0.0,0.0,0.0,0.02,0.0,0.0,0.0
638,0.0,0.0,0.0,0.1095791015625,0.0,0.0,0.0,0.0,0.0,0.0,0.1,0.0,0.0,0.0,0.0,0.0,-1.61,0.11300754483439207,0.0,0.0,0.0,0.0,0.0,0.0,1.028,0.0,0.0,0.0
639,0.0,0.0,0.0,0.11030078125,0.0,0.0,0.0,0.0,0.0,0.0,0.085,0.0,0.0,0.0,0.0,0.0,-1.61,0.11366304052604816,0.0,0.0,0.0,0.0,0.0,0.0,0.868,0.0,0.0,0.0
640,0.0,0.0,0.0,0.1110322265625,0.0,0.0,0.0,0.0,0.0,0.0,0.069,0.0,0.0,0.0,0.0,0.0,-1.61,0.11432785115221145,0.0,0.0,0.0,0.0,0.0,0.0,0.112,0.0,0.0,0.0
641,0.0,0.0,0.0,0.11175390625,0.0,0.0,0.0,0.0,0.0,0.0,0.064,0.0,0.0,0.0,0.0,0.0,-1.61,0.11498280338483044,0.0,0.0,0.0,0.0,0.0,0.0,0.136,0.0,0.0,0.0
642,0.0,0.0,0.0,0.1124755859375,0.0,0.0,0.0,0.0,0.0,0.0,0.081,0.0,0.0,0.0,0.0,0.0,-1.61,0.11491572593369634,0.0,0.0,0.0,0.0,0.0,0.0,0.456,0.0,0.0,0.0
643,0.0,0.0,0.0,0.1130537109375,0.0,0.0,0.0,0.0,0.0,0.0,0.069,0.0,0.0,0.0,0.0,0.0,-1.61,0.11614811571676636,0.0,0.0,0.0,0.0,0.0,0.0,0.912,0.0,0.0,0.0
644,0.0,0.0,0.0,0.113486328125,0.0,0.0,0.0,0.0,0.0,0.0,0.047,0.0,0.0,0.0,0.0,0.0,-1.61,0.11651323089542916,0.0,0.0,0.0,0.0,0.0,0.0,0.708,0.0,0.0,0.0
645,0.0,0.0,0.0,0.1139287109375,0.0,0.0,0.0,0.0,0.0,0.0,0.044,0.0,0.0,0.0,0.0,0.0,-1.61,0.11688770596110752,0.0,0.0,0.0,0.0,0.0,0.0,0.228,0.0,0.0,0.0
646,0.0,0.0,0.0,0.114361328125,0.0,0.0,0.0,0.0,0.0,0.0,0.042,0.0,0.0,0.0,0.0,0.0,-1.61,0.1172523321090283,0.0,0.0,0.0,0.0,0.0,0.0,0.248,0.0,0.0,0.0
647,0.0,0.0,0.0,0.114939453125,0.0,0.0,0.0,0.0,0.0,0.0,0.053,0.0,0.0,0.0,0.0,0.0,-1.61,0.11776207854787359,0.0,0.0,0.0,0.0,0.0,0.0,0.5,0.0,0.0,0.0
648,0.0,0.0,0.0,0.1152275390625,0.0,0.0,0.0,0.0,0.0,0.0,0.041,0.0,0.0,0.0,0.0,0.0,-1.61,0.11798177847650343,0.0,0.0,0.0,0.0,0.0,0.0,0.616,0.0,0.0,0.0
649,0.0,0.0,0.0,0.115525390625,0.0,0.0,0.0,0.0,0.0,0.0,0.03,0.0,0.0,0.0,0.0,0.0,-1.61,0.11821079919789768,0.0,0.0,0.0,0.0,0.0,0.0,0.66,0.0,0.0,0.0
650,0.0,0.0,0.0,0.115958984375,0.0,0.0,0.0,0.0,0.0,0.0,0.037,0.0,0.0,0.0,0.0,0.0,-1.61,0.11857541814573906,0.0,0.0,0.0,0.0,0.0,0.0,0.5,0.0,0.0,0.0
651,0.0,0.0,0.0,0.116248046875,0.0,0.0,0.0,0.0,0.0,0.0,0.034,0.0,0.0,0.0,0.0,0.0,-1.61,0.11879529365257845,0.0,0.0,0.0,0.0,0.0,0.0,0.548,0.0,0.0,0.0
652,0.0,0.0,0.0,0.1165361328125,0.0,0.0,0.0,0.0,0.0,0.0,0.028,0.0,0.0,0.0,0.0,0.0,-1.61,0.11901398601693394,0.0,0.0,0.0,0.0,0.0,0.0,0.48,0.0,0.0,0.0
653,0.0,0.0,0.0,0.1166806640625,0.0,0.0,0.0,0.0,0.0,0.0,0.021,0.0,0.0,0.0,0.0,0.0,-1.61,0.11908892274157723,0.0,0.0,0.0,0.0,0.0,0.0,0.684,0.0,0.0,0.0
654,0.0,0.0,0.0,0.1166806640625,0.0,0.0,0.0,0.0,0.0,0.0,0.01,0.0,0.0,0.0,0.0,0.0,-1.61,0.1190191938926507,0.0,0.0,0.0,0.0,0.0,0.0,0.708,0.0,0.0,0.0
655,0.0,0.0,0.0,0.1168251953125,0.0,0.0,0.0,0.0,0.0,0.0,0.01,0.0,0.0,0.0,0.0,0.0,-1.61,0.11909368282119957,0.0,0.0,0.0,0.0,0.0,0.0,0.912,0.0,0.0,0.0
656,0.0,0.0,0.0,0.116978515625,0.0,0.0,0.0,0.0,0.0,0.0,0.013,0.0,0.0,0.0,0.0,0.0,-1.61,0.11917683967422171,0.0,0.0,0.0,0.0,0.0,0.0,0.66,0.0,0.0,0.0
657,0.0,0.0,0.0,0.116978515625,0.0,0.0,0.0,0.0,0.0,0.0,0.006,0.0,0.0,0.0,0.0,0.0,-1.61,0.11910655333701964,0.0,0.0,0.0,0.0,0.0,0.0,0.568,0.0,0.0,0.0
658,0.0,0.0,0.0,0.116978515625,0.0,0.0,0.0,0.0,0.0,0.0,-0.001,0.0,0.0,0.0,0.0,0.0,-1.61,0.11903598174309565,0.0,0.0,0.0,0.0,0.0,0.0,0.548,0.0,0.0,0.0
659,0.0,0.0,0.0,0.116978515625,0.0,0.0,0.0,0.0,0.0,0.0,-0.001,0.0,0.0,0.0,0.0,0.0,-1.61,0.11896535222183363,0.0,0.0,0.0,0.0,0.0,0.0,0.548,0.0,0.0,0.0
660,0.0,0.0,0.0,0.1168251953125,0.0,0.0,0.0,0.0,0.0,0.0,-0.001,0.0,0.0,0.0,0.0,0.0,-1.61,0.1187411858435775,0.0,0.0,0.0,0.0,0.0,0.0,0.616,0.0,0.0,0.0
661,0.0,0.0,0.0,0.1168251953125,0.0,0.0,0.0,0.0,0.0,0.0,-0.012,0.0,0.0,0.0,0.0,0.0,-1.61,0.11867018438406295,0.0,0.0,0.0,0.0,0.0,0.0,0.844,0.0,0.0,0.0
662,0.0,0.0,0.0,0.1168251953125,0.0,0.0,0.0,0.0,0.0,0.0,-0.002,0.0,0.0,0.0,0.0,0.0,-1.61,0.11859903328926467,0.0,0.0,0.0,0.0,0.0,0.0,0.8,0.0,0.0,0.0
663,0.0,0.0,0.0,0.1168251953125,0.0,0.0,0.0,0.0,0.0,0.0,-0.001,0.0,0.0,0.0,0.0,0.0,-1.61,0.11852773832979412,0.0,0.0,0.0,0.0,0.0,0.0,0.708,0.0,0.0,0.0
