EmanuelSamir/lab201_ws_projsamir/sawyer_dev/data/sawyer/temp/sample1_all.csv
,j1,j2,j3,j4,j5,j6,j7,jd1,jd2,jd3,jd4,jd5,jd6,jd7,e1,e2,e3,e4,e5,e6,e7
0,0.0,0.0,0.0,0.0,0.0,0.0,0.0,0.0,0.0,0.0,0.0,0.0,0.0,0.0,0.0,0.0,0.0,0.0,0.0,0.0,0.0
1,0.001916015625,0.00250390625,-0.000412109375,-7.32421875e-05,0.0010810546875,7.421875e-05,0.0016201171875,-0.0007135018927003062,6.281338735757872e-05,8.407489372900902e-06,-2.9122638234690128e-05,2.8036554927686336e-05,2.7091376599483693e-05,-7.893930688204337e-06,-0.156,-44.808,-4.16,-13.972,2.444,-0.716,-0.064
2,0.001916015625,0.00250390625,-0.000412109375,-7.32421875e-05,0.0010810546875,7.421875e-05,0.0016201171875,8.579447257753208e-06,0.0027368413553698658,0.0003667280127825936,7.107495987149167e-06,0.0029121277209078326,0.0034667259273810425,-2.178067431343816e-06,-0.104,-44.808,-4.232,-13.856,2.408,-0.728,-0.076
3,0.001916015625,0.00250390625,-0.000412109375,-7.32421875e-05,0.0010810546875,7.421875e-05,0.0016201171875,0.0015934942784085627,0.005803292844030088,0.0007920683544974568,0.0022629203971199306,0.006417655074197743,0.0076843776689821015,9.452485943486973e-06,-0.156,-44.864,-4.276,-13.972,2.444,-0.708,-0.064
4,0.001916015625,0.00250390625,-0.000412109375,-7.32421875e-05,0.0010810546875,7.421875e-05,0.0016201171875,0.0031678460738873964,0.008843174827793714,0.0012140162108835021,0.004509059046677796,0.009911674354981807,0.01189178417821323,0.0012581251545303828,-1.06,-44.864,-4.3,-13.88,2.42,-0.716,-0.068
5,0.0018125,0.00250390625,-0.000412109375,-7.32421875e-05,0.0012880859375,7.421875e-05,0.0016201171875,0.004721298726023743,0.011834194346929852,0.0016283421795059334,0.006710030474066215,0.013328312737713907,0.01599835000639164,0.002484404929890193,-1.912,-44.324,-4.348,-13.904,2.432,-0.708,-0.052
6,0.0018125,0.0030185546875,-0.0009892578125,-0.000361328125,0.0021015625,0.000474609375,0.0016201171875,0.006277645557966068,0.014828850961138767,0.0020437620793846718,0.00891838117436524,0.016758368832569738,0.02012399142469744,0.0037186134870530797,-1.116,-40.976,-3.328,-13.536,2.428,-0.676,-0.056
7,0.0017099609375,0.0040537109375,-0.0011337890625,-0.0013720703125,0.0043740234375,0.001712890625,0.0016201171875,0.007843145682079366,0.01784608806443478,0.002462688542659787,0.011145170880764436,0.02021560022784988,0.024281420977991654,0.004963188003911561,-0.212,-37.36,-2.68,-11.752,2.2,-0.5,-0.064
8,0.0018125,0.0052890625,-0.0009892578125,-0.00223828125,0.0082861328125,0.003365234375,0.0016201171875,0.009410967395274212,0.020866682564644124,0.0028822783835040296,0.0133755849142554,0.02367737054727874,0.028442855102347096,0.006210639609791229,3.188,-34.228,-3.304,-9.672,1.38,-0.24,-0.064
9,0.00212109375,0.006935546875,-0.001421875,-0.00296875,0.0122109375,0.0062451171875,0.0016201171875,0.010974021351713662,0.023873748865988965,0.003300227063975721,0.015595670941509375,0.027119793010391035,0.032578945383631666,0.007451674208472184,7.068,-30.34,-3.328,-7.888,0.696,0.512,-0.032
10,0.0023271484375,0.00858203125,-0.0017109375,-0.0032578125,0.0163291015625,0.0118095703125,0.0018134765625,0.01253502540328178,0.026874461717938603,0.003717551041424128,0.01781114162002007,0.03055312272002664,0.03670089909658466,0.008690211686413034,8.24,-28.72,-2.752,-5.9,0.572,0.576,-0.012
11,0.002841796875,0.010228515625,-0.00185546875,-0.00223828125,0.0212744140625,0.0173740234375,0.0022265625,0.014104594861802886,0.029895233149400686,0.004138298312053363,0.02004585434566439,0.034015021237937725,0.040858301495590194,0.009942016699182418,8.4,-28.02,-3.144,-7.224,0.44,0.552,0.056
12,0.003458984375,0.0123955078125,-0.0025771484375,-0.001515625,0.0249794921875,0.024177734375,0.003259765625,0.015665656752424834,0.03289113340344567,0.0045557266888139785,0.02225966770792685,0.037440510999878114,0.044966221839589364,0.01118023465475688,8.984,-27.748,-2.448,-8.116,1.048,0.54,0.032
13,0.0043916015625,0.0150712890625,-0.0025771484375,-0.000361328125,0.0299248046875,0.0313955078125,0.004486328125,0.017225213448293336,0.03588428868745799,0.004973265906627375,0.02447384878561653,0.040863663270267046,0.04907003826752933,0.01242000868127914,9.144,-28.236,-1.616,-7.932,1.456,-0.128,0.044
14,0.0054208984375,0.01826171875,-0.00214453125,0.0013798828125,0.0365224609375,0.036546875,0.0059189453125,0.018788175024479648,0.03888095878468761,0.005391852487053987,0.026692182946594672,0.044290047959921065,0.05317459833543571,0.013662678359800997,9.036,-28.72,-2.312,-9.192,1.168,0.116,0.032
15,0.0067587890625,0.0217666015625,-0.001421875,0.0025341796875,0.04229296875,0.0429375,0.007572265625,0.0203466054617,0.041865067336035455,0.005809172167570503,0.028902658843509624,0.04769987156900795,0.057255951052185214,0.014901117839692272,7.972,-32.768,-2.888,-8.048,1.208,0.212,0.076
16,0.00830859375,0.0248544921875,-0.0007001953125,0.0058642578125,0.0488779296875,0.0472626953125,0.0092119140625,0.02190946960325883,0.04485719372768185,0.0062283152942928365,0.031121311655316234,0.05112020435402589,0.061347414383394215,0.016146019438129492,7.656,-36.44,-4.44,-8.848,0.928,0.16,0.056
17,0.009955078125,0.02855859375,-0.0011337890625,0.0084716796875,0.0525966796875,0.0528271484375,0.0110576171875,0.023474227739809603,0.04784866936420003,0.006647994655029287,0.033341302446933174,0.05453768022160785,0.06543194221987991,0.01739200302135389,7.068,-34.984,-3.768,-12.096,1.344,0.436,0.044
18,0.011814453125,0.0327841796875,-0.0011337890625,0.010212890625,0.0571279296875,0.0604443359375,0.0124912109375,0.025030351634679586,0.05081733042938955,0.007064939044900593,0.03554401465770009,0.05792277079584619,0.06947172370390416,0.01862751205987067,6.272,-36.656,-1.34,-10.496,2.688,-0.82,0.18
19,0.0137763671875,0.03638671875,0.0008876953125,0.0148515625,0.0649521484375,0.062716796875,0.0143369140625,0.0265959781424115,0.05380558105052144,0.0074856783949661075,0.03776614851100965,0.06133573472268059,0.07354393658300809,0.019877457724707937,6.008,-37.468,-3.7,-11.868,1.58,-0.304,0.076
20,0.0159365234375,0.0410234375,0.0013212890625,0.017314453125,0.0690703125,0.065802734375,0.0157705078125,0.028147468323851406,0.05675398931259778,0.00790104921124697,0.03995621508738209,0.06469083400148998,0.0775377470835022,0.021107725890686095,5.316,-39.844,-4.88,-11.684,1.272,0.772,0.088
21,0.0181044921875,0.0451396484375,0.0018896484375,0.0205,0.0733955078125,0.07157421875,0.017009765625,0.029698830377343645,0.05970313962545533,0.008317661023404345,0.04215162556227289,0.06805096096849891,0.08153579463705135,0.022341094690891843,4.144,-42.596,-3.952,-10.152,1.932,-0.356,0.14
22,0.020375,0.048748046875,0.002466796875,0.0257158203125,0.0773076171875,0.0740400390625,0.018443359375,0.031261336652706286,0.06267176630096799,0.008737935369080031,0.04436519423618835,0.07143398733366917,0.08555735909326419,0.023587967656658586,3.772,-42.004,-4.672,-14.316,1.82,-0.336,0.012
23,0.0227421875,0.0531728515625,0.0020341796875,0.0286123046875,0.07875390625,0.078158203125,0.0194755859375,0.032816312007958585,0.06561833332124918,0.009155849919410293,0.04656282993970369,0.07478664812070361,0.08953677875812294,0.024826280488358488,2.656,-42.76,-2.888,-13.788,2.896,-0.436,0.104
24,0.0252177734375,0.057193359375,0.0034775390625,0.0328076171875,0.08328515625,0.08105078125,0.0207021484375,0.03436079793910829,0.06853711247202168,0.0095705668243785,0.048741056037682834,0.07810270750320865,0.09346578571075254,0.02605336337761024,1.116,-44.808,-3.628,-13.376,2.596,-1.164,0.016
25,0.0276943359375,0.061412109375,0.00434375,0.036580078125,0.085544921875,0.081669921875,0.0215283203125,0.035925433741579915,0.07149567215860418,0.009992252826955162,0.050954176590934326,0.08146705290268222,0.09744873077709557,0.0273031715951688,0.744,-46.428,-6.06,-16.396,2.068,-0.24,-0.024
26,0.0302734375,0.0660498046875,0.00434375,0.0387548828125,0.08637109375,0.0862021484375,0.022548828125,0.037478568007033836,0.07442345822325101,0.01041040061337275,0.05314575718582971,0.08479094864680013,0.10137613948831924,0.028540850788765407,-0.052,-47.888,-4.252,-14.728,2.812,-0.448,0.024
27,0.0324345703125,0.0696513671875,0.0054990234375,0.0428056640625,0.0886435546875,0.089701171875,0.0239814453125,0.039027538770806856,0.07733675840133294,0.010827491604506313,0.05532857484863045,0.08809458383392003,0.10527353018496113,0.029774472235078106,-1.06,-48.48,-5.248,-16.692,2.672,-1.196,-0.044
28,0.0349111328125,0.0736650390625,0.0056435546875,0.0458466796875,0.089056640625,0.092787109375,0.025220703125,0.04057330826928803,0.08024053372264754,0.011244471943857668,0.057508937013870096,0.09138892501060414,0.10915584592782362,0.031009677995892233,-1.116,-48.32,-5.388,-18.272,2.772,-0.648,-0.024
29,0.037181640625,0.07758203125,0.006220703125,0.0485986328125,0.0900771484375,0.0969052734375,0.0260341796875,0.042133640612182756,0.0831622974189205,0.011664858750842643,0.059702160020913365,0.09469275880526175,0.11303871445011476,0.03225027405767487,-2.496,-49.668,-4.208,-15.46,2.98,-0.96,-0.004
30,0.039341796875,0.080875,0.00722265625,0.052650390625,0.0923486328125,0.0995908203125,0.0272744140625,0.04367435891296411,0.08604342099701374,0.012080798068414472,0.06187000786470376,0.09795216446183781,0.1168640846839126,0.03347947611452516,-2.656,-49.184,-6.06,-17.104,2.328,-0.7,-0.12
31,0.0417158203125,0.084689453125,0.00693359375,0.054978515625,0.092142578125,0.103916015625,0.0282939453125,0.04522673397827024,0.08894162321521996,0.01250055051237602,0.06405495491330068,0.10123003946065728,0.12070479609110416,0.03472067699012027,-2.124,-48.048,-4.88,-15.3,2.7,-0.284,-0.044
32,0.0436708984375,0.087673828125,0.0079443359375,0.0584521484375,0.093794921875,0.1090673828125,0.029533203125,0.04676755403254836,0.09180773752183854,0.012916691386443968,0.06621679277897727,0.10446379970512758,0.12448502806146983,0.0359485671626528,-2.868,-48.48,-4.624,-14.384,2.828,-0.688,-0.044
33,0.0456259765625,0.0907607421875,0.008376953125,0.0619267578125,0.0954345703125,0.11256640625,0.030759765625,0.04831756617615352,0.09468730288990485,0.013336314493150623,0.06839413051210003,0.10771343659070955,0.1282779535897651,0.03718831357392264,-2.868,-47.348,-6.268,-17.676,2.324,-0.436,-0.128
34,0.0476904296875,0.0944716796875,0.0077998046875,0.0630908203125,0.095021484375,0.1185439453125,0.0317802734375,0.049860443534063104,0.09754489609988046,0.013754068337958116,0.07055767332551663,0.11093299904605662,0.13202652430391712,0.03842074434733112,-3.296,-48.048,-3.86,-15.596,3.376,-0.916,-0.004
35,0.0493369140625,0.09755859375,0.0090986328125,0.0658427734375,0.0981201171875,0.1218359375,0.0328125,0.05139807027882412,0.10038387987036888,0.014170380830603733,0.07270936223624452,0.11412593191248989,0.1357349230604182,0.03964734683517666,-3.72,-48.104,-4.74,-16.532,2.98,-1.052,-0.036
36,0.0511962890625,0.101373046875,0.0093876953125,0.066998046875,0.1001728515625,0.1255419921875,0.0338330078125,0.05294447770300177,0.10323594846995338,0.014590301922411824,0.07487737299786329,0.11733531608450642,0.1394560838661547,0.04088695464532565,-3.612,-48.644,-5.988,-17.332,2.504,-0.576,-0.088
37,0.0529453125,0.104865234375,0.0096767578125,0.0680087890625,0.10265234375,0.1298671875,0.035072265625,0.05448345538191491,0.1060613863687959,0.015007604552119308,0.07702656033660055,0.12050491031815193,0.1431207688642676,0.0421151431503626,-3.296,-50.264,-4.624,-13.744,2.968,-0.688,0.012
38,0.0542900390625,0.1074384765625,0.01083203125,0.0709052734375,0.1065634765625,0.132953125,0.036298828125,0.05601739713290895,0.1088721574242194,0.015424330266873038,0.07916917036059708,0.1236565919038943,0.14675584586993123,0.043342113559125206,-2.656,-49.4,-6.612,-16.648,2.236,-0.304,-0.076
39,0.0558330078125,0.1104287109375,0.0106875,0.0719248046875,0.1075966796875,0.1387236328125,0.03733203125,0.057548138913956846,0.11166722298365753,0.01584039870151223,0.08130448725640982,0.12678720889903677,0.1503585216308558,0.04456711324175057,-3.668,-51.288,-5.736,-16.328,2.62,-0.76,-0.064
40,0.057177734375,0.112693359375,0.0109755859375,0.074830078125,0.110888671875,0.1418095703125,0.03855859375,0.05908606731286739,0.11446897190443796,0.01625902583130167,0.08344795192520034,0.12991894464327994,0.15395137727630462,0.04579762037951871,-3.72,-50.372,-4.576,-16.44,3.304,-0.888,0.004
41,0.058515625,0.1151630859375,0.0114091796875,0.0771396484375,0.1152138671875,0.146134765625,0.0399912109375,0.06062391629348955,0.117263189857793,0.016678378008886326,0.08559128285954254,0.13304170171412635,0.15752548344206632,0.04703149480742288,-1.008,-46.7,-5.412,-18.088,2.828,-0.552,-0.096
42,0.059859375,0.1180439453125,0.0115439453125,0.07816015625,0.118919921875,0.14983984375,0.04123046875,0.06215339155761732,0.12003002145402196,0.01709523809815146,0.08771688327084405,0.13612589453610152,0.1610444514089467,0.048255634198530316,-1.7,-48.048,-4.252,-14.132,2.968,-0.82,0.012
43,0.0607861328125,0.120109375,0.0125546875,0.081056640625,0.1250908203125,0.1514931640625,0.0426640625,0.06369324623238061,0.12281140313771148,0.017516356234419744,0.0898608063413578,0.13922742854725081,0.16457429839121332,0.04949423437384389,-1.912,-46.32,-5.664,-14.84,2.44,0.088,-0.064
44,0.0620205078125,0.1227841796875,0.0124111328125,0.0819228515625,0.1286025390625,0.1560244140625,0.04368359375,0.06521543458311137,0.12554376259736397,0.017931386820849195,0.09196688343157633,0.14225980202937458,0.1680118378786513,0.05070956760228022,-0.528,-45.296,-5.572,-14.316,2.348,-0.264,-0.032
45,0.0631591796875,0.125048828125,0.0125546875,0.08380859375,0.1327216796875,0.158697265625,0.0449228515625,0.06672964388412872,0.12825665984707593,0.01834563637100403,0.09406524990248012,0.14527173513798142,0.171416881554503,0.051924424130389384,-0.156,-45.404,-3.86,-12.484,2.844,-0.7,0.032
46,0.063982421875,0.12700390625,0.0134208984375,0.086416015625,0.1378603515625,0.1607626953125,0.0461494140625,0.06826386103648109,0.13099756404761176,0.018766231180908814,0.09619118187352665,0.1483115401561426,0.17484348097773336,0.0531582051129892,-0.316,-44.484,-5.204,-15.596,2.232,-0.068,-0.064
47,0.0651142578125,0.1295830078125,0.0131328125,0.0869931640625,0.141578125,0.1657080078125,0.0471826171875,0.06978034390292019,0.13369288286062098,0.019181533840074833,0.09828418123874118,0.15129066703145513,0.17818846040778272,0.054373107881009033,0.052,-44.916,-4.348,-13.676,2.604,-0.936,0.016
48,0.0662529296875,0.131744140625,0.0137099609375,0.0893037109375,0.146923828125,0.166521484375,0.0484091796875,0.07130345884020475,0.1363933231845874,0.01959997427766742,0.10038882961301598,0.1542752378834335,0.18152926420057386,0.055598561996324576,2.02,-43.62,-3.932,-13.376,2.516,-0.584,0.012
49,0.067076171875,0.1339052734375,0.014720703125,0.091044921875,0.1512490234375,0.1696201171875,0.0496484375,0.07281778904437339,0.139066005417121,0.020016157335254966,0.10247706134934244,0.15722437409641207,0.18481858704230997,0.056817178899149196,1.648,-44.756,-5.224,-14.316,1.984,-0.036,0.004
50,0.0682080078125,0.13606640625,0.014720703125,0.092498046875,0.1553671875,0.1733251953125,0.050875,0.0743339809604937,0.14172920481499246,0.02043267980758931,0.10455993551285975,0.16015075752968347,0.1880679218671436,0.05803229493828527,1.116,-45.672,-5.108,-13.172,2.304,-0.864,0.024
51,0.0693466796875,0.1380283203125,0.014865234375,0.0946630859375,0.159072265625,0.17496484375,0.0521015625,0.07584613163122918,0.14438213910087086,0.020850296919198992,0.10664432642713266,0.16306899431936073,0.19129866203954898,0.0592539461313278,2.392,-42.544,-4.092,-14.224,2.368,-0.4,0.004
52,0.0703759765625,0.14039453125,0.015009765625,0.0959814453125,0.16319140625,0.1790830078125,0.0533408203125,0.07736350667224744,0.14702591599454606,0.021268450430203853,0.10872511504149346,0.16596686602698857,0.1944927409098353,0.06047411133049148,2.924,-42.652,-3.676,-13.948,2.604,-0.504,0.056
53,0.0716103515625,0.14276171875,0.0157314453125,0.0975693359375,0.1683427734375,0.1815625,0.0545673828125,0.07887365399149894,0.1496482018413138,0.021685557748379106,0.11079492115354439,0.1688361160819838,0.1976420650211974,0.06169053782114592,3.188,-41.464,-3.976,-13.172,2.14,-0.78,0.032
54,0.0727490234375,0.1450322265625,0.0162998046875,0.099166015625,0.1720478515625,0.183408203125,0.0560009765625,0.0803822323335779,0.1522564697115966,0.022102801961823737,0.11285947368532834,0.17168402064456298,0.20075454681068472,0.06290628283673731,3.136,-41.68,-4.576,-12.896,1.936,0.208,0.044
55,0.0740869140625,0.147302734375,0.0164443359375,0.10075390625,0.17575390625,0.18752734375,0.057240234375,0.0818878704217381,0.15484797091839617,0.022519784398000113,0.11491683877931083,0.17450769349175482,0.20382655780333134,0.06412060084580398,3.24,-41.788,-4.368,-12.004,1.796,0.14,0.064
56,0.0753212890625,0.1493603515625,0.016732421875,0.103064453125,0.1786328125,0.1906259765625,0.058673828125,0.08338619498463753,0.15741407663685172,0.022935012698968058,0.11695904849927884,0.17729568562181283,0.20684550192113596,0.06532760109872401,3.4,-40.76,-4.276,-12.532,1.764,-0.156,0.056
57,0.0767685546875,0.151521484375,0.017021484375,0.1052392578125,0.1809052734375,0.1937119140625,0.059900390625,0.08489142780962378,0.15998197745061407,0.023353328866060792,0.11901100291161684,0.18008329470589987,0.20985120560820283,0.06654478964329791,2.708,-40.708,-3.816,-13.676,2.164,0.096,0.068
58,0.0782099609375,0.1537861328125,0.017455078125,0.107548828125,0.1839912109375,0.19700390625,0.0611396484375,0.08639219775442214,0.1625295499782972,0.02377089347740342,0.12105292510025077,0.1828420981566207,0.21281041073529688,0.06775828694968021,2.656,-41.084,-3.744,-13.264,2.18,-0.192,0.052
59,0.079759765625,0.1564677734375,0.0178876953125,0.1095791015625,0.187076171875,0.1998828125,0.0623662109375,0.0878858703638384,0.16505084621125787,0.02418657269734007,0.12307820586133986,0.1855621335924523,0.21571278787787002,0.06896358065300699,3.296,-39.304,-3.952,-13.4,1.92,-0.104,0.036
60,0.0813037109375,0.1591435546875,0.0184658203125,0.1111767578125,0.1893486328125,0.2025556640625,0.0636181640625,0.08938535338965403,0.1675730202576817,0.024605366007946966,0.1251135893068719,0.18828162978478033,0.21860052640908845,0.07017991547090309,2.552,-40.76,-3.952,-12.052,2.036,0.044,0.052
61,0.082853515625,0.1614072265625,0.01933203125,0.113775390625,0.1924345703125,0.205447265625,0.0650517578125,0.09087794609766506,0.1700651732166845,0.02502162641366408,0.12712809242028433,0.19095478515148098,0.22142127629094946,0.0713833174306317,2.708,-42.272,-4.9,-12.44,1.728,0.14,-0.012
62,0.0846025390625,0.1640830078125,0.0191875,0.115814453125,0.1936611328125,0.2089462890625,0.0662783203125,0.09236387822630064,0.17253597217720537,0.025437321570842317,0.12913424410965751,0.1936024401752381,0.22420105343746236,0.07258671061284509,2.496,-41.408,-4.74,-13.192,1.852,-0.108,-0.052
63,0.0863583984375,0.1667646484375,0.0194755859375,0.1179892578125,0.194900390625,0.2118251953125,0.067517578125,0.09387122605585772,0.17503814363714962,0.02586148284853143,0.13117493030977043,0.19627994720898803,0.22699643182328422,0.07381523033585922,1.7,-41.464,-3.512,-12.28,2.532,-0.368,0.012
64,0.0881083984375,0.1691318359375,0.020630859375,0.1207412109375,0.1975732421875,0.21409765625,0.0689501953125,0.09533531416516038,0.17743735265824565,0.02627062999412071,0.13313456513214064,0.1988322317983781,0.22964258953646027,0.07499454987053988,1.008,-41.948,-4.648,-13.72,2.096,-0.14,-0.064
65,0.0898642578125,0.172013671875,0.0210546875,0.1223291015625,0.1988125,0.217390625,0.069970703125,0.09681834723309361,0.17986369168231373,0.026687714653366838,0.13512674245611075,0.20141246243563982,0.2323023056650657,0.07619934583001457,0.584,-43.676,-4.808,-13.284,2.152,-0.312,-0.052
66,0.0916201171875,0.174689453125,0.0216328125,0.12479296875,0.2008779296875,0.219443359375,0.0712099609375,0.09830184523710118,0.1822782579966898,0.027105929291524535,0.13711755807087123,0.20397370857220165,0.23492631658792404,0.07740689472608772,0.0,-44.916,-4.784,-12.736,2.328,-0.292,-0.012
67,0.093369140625,0.17737109375,0.0220654296875,0.1269677734375,0.2023115234375,0.222115234375,0.0722294921875,0.0997845899890687,0.18467708471160016,0.027524458281523462,0.1391017568167714,0.2065080778628469,0.23750411581313782,0.07861261538176532,0.476,-43.512,-5.272,-14.336,2.152,-0.024,-0.064
68,0.095125,0.1801494140625,0.0222099609375,0.1284111328125,0.2031376953125,0.2256142578125,0.0732626953125,0.10125768178913498,0.1870419716510945,0.02794014293852025,0.1410642844562279,0.20899616663285922,0.240016301297936,0.07980714819553651,-0.316,-44.432,-4.276,-13.444,2.636,-0.552,-0.012
69,0.096875,0.18272265625,0.022931640625,0.1311630859375,0.205810546875,0.227060546875,0.0744892578125,0.10272346727813737,0.18938353121062926,0.028355237343059794,0.14301797301045174,0.2114571000753178,0.2424845588040333,0.08100226099727124,0.264,-43.512,-4.648,-14.016,2.512,-0.104,-0.064
70,0.0987333984375,0.185712890625,0.023220703125,0.1326162109375,0.207669921875,0.2303525390625,0.0755224609375,0.10419232170016039,0.19171348031019497,0.02877135905854252,0.14496806935286616,0.2138937169826691,0.2449084746594024,0.08219644477389741,0.956,-42.704,-4.972,-14.248,2.264,-0.004,-0.044
71,0.1003798828125,0.188388671875,0.0237978515625,0.1344931640625,0.20972265625,0.23283203125,0.0765419921875,0.10565778261827814,0.1940242646568782,0.029187583728130764,0.14691122396606984,0.2163038528250724,0.24728824620601597,0.08339064526214346,-0.212,-44.592,-4.576,-12.028,2.42,-0.26,0.012
72,0.102033203125,0.19065234375,0.0245205078125,0.1376875,0.212201171875,0.2344716796875,0.07778125,0.10711420371581537,0.1963056339569236,0.02960192555400164,0.14883737010366474,0.21867413628197038,0.24960887586180397,0.08457747364591635,-0.104,-43.568,-5.572,-13.996,2.004,0.4,-0.056
73,0.1037822265625,0.1935341796875,0.0242314453125,0.1388515625,0.2126015625,0.2383837890625,0.0785947265625,0.1085784125745269,0.19858544235659584,0.03001970334777756,0.15077256197744124,0.221037223452085,0.2519036239948456,0.08577464962205504,-0.264,-43.512,-4.368,-13.516,2.648,-0.14,-0.032
74,0.105435546875,0.1958046875,0.02509765625,0.141748046875,0.215287109375,0.24044921875,0.0800283203125,0.11004239255655476,0.20085063002208256,0.030438384760962337,0.1527034137488763,0.2233752524891956,0.25415393873710856,0.08697258026030266,-1.06,-44.864,-4.044,-12.828,2.776,-0.42,0.012
75,0.106978515625,0.198376953125,0.025666015625,0.1440576171875,0.2177529296875,0.242501953125,0.081267578125,0.11149829488666346,0.2030836544091522,0.030854674985753984,0.1546144928002206,0.22566909707175364,0.25634016509150426,0.08816072843478627,-0.796,-44.216,-5.548,-15.46,2.304,0.128,-0.076
76,0.108734375,0.201361328125,0.025376953125,0.1449326171875,0.2189921875,0.2460009765625,0.082287109375,0.11295447418948422,0.2053049138390754,0.0312728988843284,0.15652715671745485,0.22794618985271942,0.258491283245257,0.08935599245260571,-1.22,-45.24,-4.252,-12.348,2.66,-0.592,0.036
77,0.1102783203125,0.203419921875,0.0265322265625,0.1481181640625,0.22228515625,0.2464140625,0.0837333984375,0.11439945564816736,0.20748732628085284,0.03168719352125138,0.15841220003763457,0.23016824848943024,0.26056722119004594,0.09053441878627203,-1.008,-45.78,-5.04,-13.4,2.212,-0.064,0.0
78,0.111828125,0.205896484375,0.0265322265625,0.1498505859375,0.2239248046875,0.2497060546875,0.0849599609375,0.11583803485257806,0.20964739694015674,0.03210138739020048,0.160289193174064,0.23236221711143756,0.26259639435763904,0.09171356725202376,-0.956,-44.7,-5.804,-14.976,2.18,-0.016,-0.024
79,0.1133720703125,0.2083662109375,0.0265322265625,0.1514482421875,0.2255771484375,0.2525849609375,0.0861865234375,0.11727390247204672,0.21178643050070903,0.03251559868481638,0.16215838265649637,0.2345268918086245,0.26457736182340746,0.09289256361128016,-1.804,-45.78,-3.952,-12.736,2.796,-0.996,0.024
80,0.114716796875,0.2102177734375,0.02783203125,0.15477734375,0.228869140625,0.2525849609375,0.08742578125,0.11871064834201898,0.21390930756250479,0.03293054030867324,0.1640209411208011,0.23666203072418782,0.2665079561336094,0.0940695250491355,-1.276,-45.512,-5.248,-15.3,2.428,-0.052,0.012
81,0.116259765625,0.212791015625,0.02783203125,0.1556533203125,0.230521484375,0.256291015625,0.0884462890625,0.12015015466801507,0.21602189970381788,0.033347915871597196,0.16588694368404455,0.23878121746672915,0.26840211007751924,0.09525474545953931,-0.744,-45.78,-4.948,-15.252,2.46,-0.356,0.024
82,0.11770703125,0.2149580078125,0.0282646484375,0.1576826171875,0.2331943359375,0.25732421875,0.089685546875,0.12158142896288948,0.21810417476831304,0.033763432392244164,0.16773530386785443,0.24085825413100007,0.27023484581923884,0.0964320014385763,-1.276,-46.484,-4.3,-12.944,2.66,-0.904,0.068
83,0.119044921875,0.216810546875,0.029130859375,0.160291015625,0.236486328125,0.258150390625,0.090912109375,0.12301008006813974,0.22016483706433893,0.03417901212993363,0.1695747532996356,0.24290373941167162,0.27201594123947337,0.09760779977856492,0.156,-43.728,-5.64,-15.824,2.12,0.168,0.044
84,0.1204921875,0.2192802734375,0.028986328125,0.1607236328125,0.2377265625,0.26185546875,0.09173828125,0.1244430563251584,0.2222167638363056,0.0345973092268723,0.17141767942575986,0.24493109488873696,0.27375736441836795,0.09879073702130022,-0.528,-45.08,-4.484,-13.376,2.512,-0.696,0.104
85,0.1217265625,0.22082421875,0.02998828125,0.1639091796875,0.241224609375,0.26185546875,0.09296484375,0.12586766785319642,0.22423773809660427,0.035013913724472226,0.17324399213279681,0.2469179996717391,0.27543883992140106,0.0999674000180743,-0.212,-44.432,-4.88,-13.652,2.264,-0.428,0.084
86,0.1229619140625,0.222779296875,0.030421875,0.1654970703125,0.2432783203125,0.264115234375,0.0939853515625,0.12727833796245752,0.2262156862653756,0.0354256762875341,0.17503815083633875,0.2488458174952174,0.27704380502087783,0.10112442562727858,-0.156,-43.568,-5.688,-15.64,2.076,-0.044,0.076
87,0.124306640625,0.2247412109375,0.030421875,0.1669501953125,0.2451240234375,0.2663740234375,0.095017578125,0.12868602241556762,0.22817577002700287,0.03583882675657618,0.17683053726767106,0.2507511139268333,0.2786059059919311,0.10228758430215681,-0.688,-44.864,-4.464,-12.896,2.724,-0.876,0.148
88,0.125541015625,0.22628515625,0.0312880859375,0.1699912109375,0.248830078125,0.2665810546875,0.096451171875,0.13009982258725492,0.23012760035644653,0.036255096147874026,0.17862745066017208,0.25263837084237023,0.2801271540839453,0.10345879616757485,0.688,-42.272,-5.296,-15.184,2.056,-0.056,0.076
89,0.1267822265625,0.2284462890625,0.0312880859375,0.170568359375,0.2498623046875,0.26947265625,0.09727734375,0.1315083966336238,0.23205367329331056,0.03667076019401419,0.1804123709869371,0.2544896331161642,0.2815924450200781,0.10462694356131814,0.372,-43.404,-4.808,-13.996,2.532,-0.192,0.168
90,0.1279140625,0.2299892578125,0.032154296875,0.1730322265625,0.253361328125,0.2704931640625,0.0987099609375,0.13291325723784442,0.2339547814239874,0.03708585794637562,0.18218451878471292,0.25630353424454005,0.2830001416906798,0.10579015445603543,0.264,-43.568,-4.808,-12.852,2.464,-0.396,0.148
91,0.1291494140625,0.2317392578125,0.0325869140625,0.17491796875,0.255220703125,0.271732421875,0.0997431640625,0.1343125326938682,0.23582936316169648,0.037500299798799916,0.18394417961128126,0.2580809523775244,0.2843518052716726,0.10695005689469293,1.008,-42.272,-5.964,-14.932,1.964,0.18,0.084
92,0.130390625,0.233701171875,0.0322978515625,0.17579296875,0.256240234375,0.2739921875,0.1007626953125,0.1357133195022287,0.2376882695817831,0.037916627837813126,0.18570246386610417,0.25983333544687087,0.28565595663173216,0.10811493028118778,0.636,-44.216,-4.3,-12.552,2.796,-0.276,0.224
93,0.1315224609375,0.2350380859375,0.0331640625,0.178544921875,0.2593388671875,0.2744052734375,0.1020029296875,0.13710525331527038,0.23951513732288152,0.03833100228728196,0.18744218419461842,0.2615422908529441,0.28689800231153884,0.10927136547207353,0.9,-43.136,-4.9,-14.04,2.192,-0.024,0.108
94,0.1326611328125,0.236994140625,0.03330859375,0.1795556640625,0.259958984375,0.276470703125,0.1030224609375,0.13849525311794506,0.24132163576994847,0.03874626171420404,0.18917607119889077,0.2632214151105995,0.2880890523516028,0.11043020203846599,1.432,-42.704,-5.504,-13.836,2.444,0.084,0.156
95,0.1341015625,0.238845703125,0.03330859375,0.1810087890625,0.2624375,0.2779033203125,0.1044560546875,0.13988356360038462,0.24310346384662845,0.039161158906638446,0.19089715707171082,0.26486220290998874,0.289221260356516,0.11158309239417345,1.488,-42.488,-4.0,-11.8,2.376,-0.296,0.136
96,0.135130859375,0.240287109375,0.034455078125,0.1830302734375,0.2640771484375,0.277697265625,0.10548828125,0.14126420644415646,0.2448587869139239,0.03957568332842554,0.1926075458374125,0.2664682839767021,0.2902987445146241,0.11273547387971504,1.648,-43.084,-5.316,-13.172,2.088,0.448,0.104
97,0.136578125,0.2421396484375,0.034455078125,0.1841943359375,0.2655234375,0.280576171875,0.10671484375,0.14264308297936867,0.24659033447573303,0.03999029890019142,0.1943078746843054,0.2680393035719819,0.29132050242265095,0.11388589420938919,2.444,-42.112,-5.296,-12.692,2.024,0.064,0.076
98,0.137916015625,0.2438955078125,0.0347431640625,0.1856376953125,0.26654296875,0.2809892578125,0.1081484375,0.14402246155654966,0.24830422822466552,0.04040691202938356,0.1960066334770123,0.2695836412498739,0.2922921072588306,0.1150421879731369,1.752,-42.76,-4.044,-11.844,2.212,-0.192,0.068
99,0.1391572265625,0.2453359375,0.03575390625,0.18795703125,0.2688154296875,0.2818154296875,0.10959375,0.14539626333394923,0.24998990462180842,0.04082257632195805,0.1976902675863624,0.2710877760651936,0.29320428208295135,0.11619290275083255,1.7,-42.488,-5.572,-13.376,2.14,0.532,0.044
100,0.14059765625,0.247291015625,0.0358984375,0.1886787109375,0.2700419921875,0.2846953125,0.1108203125,0.14675324072255194,0.25163161384792687,0.041233300494513715,0.1993430700326343,0.2725373903752156,0.2940487747440831,0.11732609247684452,1.432,-41.896,-5.272,-12.532,1.848,-0.136,-0.024
101,0.142044921875,0.2489375,0.0364765625,0.190419921875,0.27128125,0.2846953125,0.11225390625,0.14811815507011597,0.2532666875568161,0.0416488052582688,0.20100487543623033,0.27396897458266906,0.29484761931045167,0.11847222783660698,1.328,-42.596,-4.508,-11.684,2.348,-0.024,0.032
102,0.1433828125,0.2504814453125,0.0373427734375,0.19244140625,0.273541015625,0.2857275390625,0.11390625,0.1494834578411244,0.2548800071484096,0.04206542342142084,0.20266103860359272,0.2753688415127698,0.29559220910961487,0.11962123667540288,0.688,-41.948,-5.756,-13.4,1.868,0.416,-0.064
103,0.1448232421875,0.25233984375,0.037486328125,0.1931630859375,0.2743671875,0.288193359375,0.1149267578125,0.15082643634040155,0.25644250257184126,0.04247496889656411,0.2042767083911034,0.27670669412832716,0.2962663108985408,0.12074497086371908,1.06,-42.488,-5.504,-12.028,2.204,-0.192,0.012
104,0.1463740234375,0.2538837890625,0.038208984375,0.1954912109375,0.27643359375,0.288193359375,0.116166015625,0.15218328777098714,0.25800481084675514,0.0428916294642299,0.20591103298545652,0.2780334449079517,0.296896706774379,0.12189005369432013,1.06,-42.328,-4.924,-12.464,2.068,-0.036,-0.024
105,0.147814453125,0.255427734375,0.03877734375,0.197087890625,0.2772470703125,0.2890205078125,0.117392578125,0.15353262748434068,0.2595363670751398,0.04330705093319897,0.20752936449109602,0.2793190905186137,0.29746750632445385,0.12302985157499838,0.796,-42.112,-5.596,-13.172,2.056,0.344,-0.012
106,0.1493642578125,0.2571767578125,0.038921875,0.1985322265625,0.2788994140625,0.291279296875,0.118412109375,0.15487320367929458,0.2610346166818997,0.04371998997472018,0.2091252065359114,0.2805577652779554,0.2979763672387877,0.1241576727000723,0.528,-42.704,-5.108,-11.868,2.212,-0.252,-0.012
107,0.150908203125,0.2586171875,0.0394990234375,0.20070703125,0.2801259765625,0.2908662109375,0.11923828125,0.15621852553527008,0.2625179195383984,0.04413681004347674,0.21072751493620845,0.2817747197680639,0.2984345990439393,0.12529907689487843,-0.052,-42.272,-5.456,-12.692,1.964,0.016,-0.024
108,0.15235546875,0.260263671875,0.0396435546875,0.202005859375,0.2809521484375,0.2923125,0.120271484375,0.1575468850705048,0.2639569876419153,0.044547793080040206,0.21229383540388522,0.2829340250545261,0.2988273471965735,0.12641676393207066,-0.264,-42.976,-5.572,-12.416,2.232,0.116,-0.004
109,0.1537958984375,0.2618076171875,0.040076171875,0.203748046875,0.28219140625,0.293138671875,0.1210849609375,0.1588690312670896,0.26537019079589264,0.04495919353840182,0.21385147611419855,0.2840591012412798,0.2991645299957477,0.12753661279135595,-1.432,-43.892,-5.156,-12.304,2.18,-0.252,-0.024
110,0.1552431640625,0.26315234375,0.040654296875,0.2057783203125,0.283017578125,0.293345703125,0.1219111328125,0.16019904539355914,0.26677108346365247,0.04537488472963205,0.21541431762937116,0.2851590491706727,0.2994477338706832,0.1286679752613766,0.212,-42.812,-5.804,-13.08,2.392,0.032,-0.012
111,0.156787109375,0.2649013671875,0.040654296875,0.2067880859375,0.284244140625,0.294365234375,0.122931640625,0.16152152594404975,0.2681396814633997,0.04578887032470979,0.21695877227738394,0.2862156999011245,0.2996715953079392,0.12979092863282168,0.744,-42.328,-4.692,-12.392,2.232,-0.22,-0.016
112,0.158130859375,0.2664453125,0.0415205078125,0.208376953125,0.2854833984375,0.2937587890625,0.1239638671875,0.16283248941106274,0.2694732707449091,0.04620012570819647,0.2184811963955857,0.2872274093311904,0.29983662736110234,0.13090338398691825,0.156,-43.084,-4.764,-11.684,2.276,0.068,0.016
113,0.1595712890625,0.2676796875,0.0422421875,0.2104072265625,0.287330078125,0.29396484375,0.1251904296875,0.16414667801047345,0.2707889524533819,0.04661448428564135,0.22000366900343749,0.28820954277609784,0.2999453643549503,0.13202421051573623,-0.104,-42.812,-6.452,-12.624,1.768,0.2,-0.016
114,0.1610185546875,0.2692236328125,0.0422421875,0.2117158203125,0.287330078125,0.294365234375,0.1262236328125,0.16545610589727325,0.27207707512300394,0.04702869265655627,0.22151444525507424,0.28915321256165105,0.29999599561049495,0.13314299519440068,-0.476,-42.488,-5.736,-12.164,1.996,-0.12,-0.024
115,0.1623564453125,0.27035546875,0.042666015625,0.213591796875,0.28815625,0.294158203125,0.1274501953125,0.16676545341689689,0.2733415424731385,0.047444187828439746,0.22301740371496825,0.2900609787907598,0.29998840163189167,0.1342627115500595,-0.104,-42.544,-4.692,-12.736,2.432,0.004,0.044
116,0.163701171875,0.271693359375,0.043244140625,0.2156318359375,0.289189453125,0.294365234375,0.1288828125,0.168059065180883,0.27456453474853043,0.04785453889757641,0.2244887780847484,0.2909179847726718,0.29992372062432154,0.13536298508638067,0.424,-42.76,-5.456,-13.788,2.088,-0.004,-0.012
117,0.1650390625,0.273037109375,0.0435322265625,0.2169306640625,0.2896025390625,0.294365234375,0.129916015625,0.16934555250695768,0.27576016692214017,0.04826518200654055,0.22595035486773266,0.2917388660467762,0.2998018327444268,0.13646488261763515,-0.104,-43.028,-5.572,-13.216,2.324,-0.116,0.024
118,0.166376953125,0.2742724609375,0.0439658203125,0.2186728515625,0.2908291015625,0.294158203125,0.131142578125,0.17063058419458232,0.27693088470105875,0.04867679514508306,0.22740365525197828,0.2925236023665999,0.2996221657067402,0.1375684135462287,-0.9,-42.112,-5.224,-13.264,2.184,0.016,0.012
119,0.167720703125,0.2755078125,0.04454296875,0.2202607421875,0.2914482421875,0.294158203125,0.13217578125,0.1719252194485607,0.2780875806476342,0.049093233625602924,0.22886166588928894,0.29327824813305675,0.2993819916189865,0.1386821522458128,-0.212,-42.056,-5.548,-13.424,2.056,0.024,0.024
120,0.16905859375,0.2767421875,0.04483203125,0.221857421875,0.291861328125,0.294158203125,0.1331953125,0.17320462753781207,0.27920533625307214,0.049505728834581514,0.2302934657342891,0.29398664915510997,0.2990862286267827,0.13978271592371186,-0.156,-42.544,-5.388,-13.4,2.244,-0.004,0.036
121,0.1702998046875,0.277771484375,0.0452646484375,0.22358984375,0.292275390625,0.294158203125,0.1344345703125,0.17447617189425074,0.28029141905786675,0.049916770722465816,0.23170735044428578,0.29465344934817317,0.2987345133943047,0.1408762513847383,-0.316,-42.22,-5.064,-13.88,2.232,0.044,0.032
122,0.17153515625,0.2789033203125,0.0456982421875,0.2251875,0.29289453125,0.294365234375,0.1356611328125,0.1757513410054499,0.28135805173557077,0.05033134424467168,0.23312178007749396,0.295287450881795,0.2983211467918174,0.14197955495233464,-0.104,-42.76,-5.688,-14.016,2.324,-0.064,0.036
123,0.17287890625,0.2799326171875,0.046130859375,0.226919921875,0.2935146484375,0.294158203125,0.136681640625,0.1770222357884564,0.28239601101678696,0.05074570093491454,0.23452212372131367,0.29588095940516446,0.29785063862828337,0.14307734226846838,-0.316,-42.596,-5.548,-14.016,2.18,-0.016,0.024
124,0.1740107421875,0.281064453125,0.046419921875,0.228373046875,0.2937080078125,0.294158203125,0.1377138671875,0.17826595441804305,0.28338464765006904,0.051151172444817324,0.23588031658418035,0.2964236061508974,0.29733394431157806,0.14414996929761512,-0.156,-42.056,-5.248,-13.676,2.316,0.012,0.056
125,0.17524609375,0.281990234375,0.04684375,0.2299609375,0.294328125,0.294158203125,0.138734375,0.17952943178641115,0.28436722165081463,0.05156619578010886,0.23725797255320213,0.29693985354892966,0.2967472769837643,0.14524662619970485,-0.528,-42.596,-5.224,-13.604,2.252,-0.052,0.044
126,0.1764873046875,0.2829228515625,0.047421875,0.2315576171875,0.2945341796875,0.294158203125,0.1399736328125,0.18078633021235674,0.2853196047443067,0.051980695081826275,0.23862156190416067,0.2974158877805025,0.2961028069904432,0.14634085723411075,0.052,-42.92,-5.78,-13.444,2.276,0.032,0.052
127,0.1778251953125,0.2840556640625,0.0475654296875,0.232857421875,0.295154296875,0.294365234375,0.1409931640625,0.18202833246158118,0.28623384562643855,0.052390820395457526,0.23995705845456075,0.2978470705952216,0.29540938267296485,0.14741870691288494,1.22,-41.896,-5.388,-13.192,2.232,-0.032,0.016
128,0.1789638671875,0.2849814453125,0.0479990234375,0.234021484375,0.295154296875,0.294158203125,0.1422333984375,0.18326526874863563,0.2871193643314082,0.05280088401000709,0.24127976667930612,0.2982391591365505,0.29465921876045886,0.14849480033887222,0.476,-42.652,-4.856,-12.348,2.34,0.024,0.052
129,0.180095703125,0.2858046875,0.048865234375,0.2356181640625,0.2957734375,0.294158203125,0.1432529296875,0.18450184302763323,0.2879802863335937,0.053213014994992675,0.2425968765265582,0.2985940142759613,0.29384747953815027,0.14957558686468775,-0.584,-43.728,-6.08,-12.988,2.268,0.068,0.036
130,0.1812275390625,0.286833984375,0.049154296875,0.2364931640625,0.2957734375,0.294572265625,0.1442861328125,0.1857319021334956,0.28881040523739865,0.05362407086295389,0.24389699770950563,0.2989081217964281,0.2929823018953648,0.15064938856272156,-0.212,-42.976,-6.012,-12.92,2.376,-0.156,0.056
131,0.1825712890625,0.287759765625,0.049298828125,0.2373603515625,0.2957734375,0.294158203125,0.1453056640625,0.1869592526465743,0.28961395849028715,0.05403666106027986,0.24518952335836036,0.2991839608646419,0.29205540873804536,0.15172756858608152,-0.316,-42.868,-4.692,-12.14,2.46,-0.108,0.076
132,0.1836005859375,0.2885830078125,0.0501650390625,0.2386591796875,0.2963935546875,0.293345703125,0.146544921875,0.18818040410451897,0.29038558841843715,0.054447331232381824,0.24646177104637856,0.29941837590734843,0.29107923319771045,0.1527942731038294,0.424,-43.676,-5.872,-12.348,2.324,0.172,0.068
133,0.184841796875,0.28940625,0.05030859375,0.2398232421875,0.296806640625,0.293345703125,0.147771484375,0.18939316750467833,0.2911268787003137,0.05485757235853483,0.24772013838565982,0.29961329708184503,0.2900465475657323,0.1538597492405244,1.648,-43.244,-6.104,-12.12,2.008,-0.108,0.016
134,0.1860771484375,0.2902294921875,0.05030859375,0.240833984375,0.2963935546875,0.29210546875,0.1488046875,0.19061422973858494,0.29184766058791695,0.05527309879835972,0.24898158420269348,0.2997704405961064,0.28894252367332696,0.15493802603282789,0.636,-42.868,-4.832,-11.684,2.376,-0.016,0.068
135,0.1871064453125,0.2908466796875,0.051166015625,0.2424306640625,0.297,0.291486328125,0.15003125,0.19181653932206777,0.2925293674481506,0.0556826747134389,0.25021098680444814,0.29988540147161014,0.28780031186391886,0.15599596422713188,-0.156,-42.112,-5.108,-12.392,2.368,0.044,0.032
136,0.188244140625,0.2916708984375,0.051599609375,0.2431533203125,0.2974130859375,0.2908662109375,0.1512578125,0.19301471652035898,0.29318249622310405,0.05609275060543835,0.2514287048437088,0.29996092485386855,0.2866008432119904,0.1570534719089309,1.276,-42.004,-5.504,-12.324,2.204,-0.344,0.004
137,0.1894794921875,0.2925,0.051599609375,0.2441630859375,0.2976201171875,0.288193359375,0.152291015625,0.19421377568846793,0.293809731789155,0.056505274364818,0.2526405543752425,0.2999968816885495,0.28533707629454985,0.15811620530433304,1.54,-42.164,-4.764,-11.524,2.264,-0.004,-0.016
138,0.190611328125,0.2931171875,0.0521767578125,0.2454716796875,0.298240234375,0.2865537109375,0.153517578125,0.19540273419130208,0.29440434903179763,0.05691579749472305,0.2538324826810588,0.299992730962359,0.28402526815837387,0.15917032106100817,0.372,-42.544,-5.016,-11.868,2.172,0.472,0.0
139,0.1916474609375,0.2937353515625,0.0526103515625,0.246626953125,0.2986533203125,0.28634765625,0.1545498046875,0.19657801697614524,0.2949648061500652,0.05732280334092528,0.2550007206885952,0.2999492993644762,0.28267083444174146,0.16021266502342565,-0.316,-43.512,-5.964,-11.96,2.044,-0.108,-0.044
140,0.1928818359375,0.294146484375,0.0526103515625,0.24821484375,0.298240234375,0.2842822265625,0.1557763671875,0.19775934062460973,0.29550129655480656,0.05773400593942779,0.25616736206353796,0.29986563782303316,0.2812474937493971,0.16126330437709463,0.584,-43.192,-5.272,-12.552,2.288,-0.148,-0.052
141,0.1940205078125,0.2946611328125,0.0526103515625,0.2495234375,0.298033203125,0.282228515625,0.1568095703125,0.19893465182225237,0.29600798768725534,0.058145389454603805,0.257321264642657,0.29974177930366736,0.27976699752212064,0.16231378601530036,1.432,-42.004,-4.14,-12.944,2.516,0.156,-0.024
142,0.19515234375,0.2953818359375,0.05333203125,0.2503896484375,0.2986533203125,0.2809892578125,0.1578291015625,0.20010362131171164,0.29648368230959976,0.0585555834348416,0.2584571964633109,0.29957854128521466,0.2782391938023263,0.1633562669432987,1.54,-41.788,-4.184,-12.28,2.38,-0.14,-0.036
143,0.196181640625,0.29579296875,0.0541982421875,0.251544921875,0.2992724609375,0.2783173828125,0.1588623046875,0.2012645980424071,0.29692856374112986,0.058965057355759264,0.2595776824307185,0.299375747047833,0.2766588730548887,0.16439553007485525,0.9,-42.868,-5.432,-11.868,2.06,0.012,-0.036
144,0.1974228515625,0.296205078125,0.0544873046875,0.252708984375,0.2992724609375,0.2760576171875,0.1598818359375,0.20241976137210554,0.2973433010880998,0.05937403577828215,0.2606826564380999,0.2991336663872342,0.27502813444832974,0.1654301026148266,0.528,-43.084,-5.364,-11.912,1.88,0.472,-0.044
145,0.1985546875,0.296513671875,0.054630859375,0.25386328125,0.298859375,0.2750244140625,0.160708984375,0.2035740444205069,0.29772998520980226,0.05978520587794603,0.26177977694674365,0.29885017006677506,0.2733333525469346,0.16646920188814543,0.796,-42.76,-4.44,-11.892,2.132,0.068,-0.036
146,0.1996865234375,0.2967197265625,0.0549111328125,0.2553251953125,0.2986533203125,0.2733720703125,0.1615224609375,0.20472151417618303,0.29808580257855116,0.060195516507295245,0.2628604723341328,0.29852734361810435,0.27158909890528354,0.1675032602171473,0.796,-42.38,-4.508,-12.872,2.308,-0.2,-0.024
147,0.2008251953125,0.2970283203125,0.05534375,0.2563359375,0.2984462890625,0.271732421875,0.1625546875,0.2058609095065876,0.2984106188846304,0.060604606097766835,0.2639235006414835,0.2981659645395599,0.269798408676229,0.16853083154074336,0.528,-41.948,-4.208,-12.712,2.428,-0.136,-0.024
148,0.2021630859375,0.297439453125,0.0557685546875,0.2573466796875,0.29906640625,0.269873046875,0.16378125,0.2069969612200167,0.2987059498068569,0.06101452542418604,0.26497480373662535,0.29776396129768845,0.26795116094605453,0.16955828426469152,1.22,-41.68,-4.232,-12.072,2.212,-0.136,-0.064
149,0.2033017578125,0.297748046875,0.056201171875,0.2582216796875,0.2992724609375,0.2678203125,0.164607421875,0.20812681105397382,0.2989708558266685,0.061424072140569295,0.26601077606423107,0.29732237252513244,0.2660516680562051,0.17058355413385204,0.264,-42.38,-4.764,-11.868,1.984,0.088,-0.032
150,0.20443359375,0.2978515625,0.056634765625,0.259376953125,0.2994794921875,0.266787109375,0.1656279296875,0.20925134556451372,0.2992056332571203,0.06183383122116138,0.2670331324641391,0.2968412592132852,0.2641020372858938,0.17160455130036859,-0.052,-42.164,-5.108,-11.66,1.976,0.016,-0.024
151,0.20566796875,0.2979541015625,0.056634765625,0.2603876953125,0.298859375,0.265560546875,0.16666015625,0.210372416998545,0.2994104927256381,0.062244162558202636,0.268042082195304,0.2963197696294224,0.2620981005718909,0.17262444453304923,0.104,-41.464,-4.348,-12.028,1.984,-0.244,-0.036
152,0.2069091796875,0.29816015625,0.0567783203125,0.2614072265625,0.2984462890625,0.264115234375,0.1674736328125,0.21148009200591852,0.2995837057590812,0.06265150475376825,0.2690296257152447,0.29576238151700573,0.2600559695756566,0.1736356852556727,0.0,-41.464,-3.86,-12.256,2.452,-0.172,-0.016
153,0.2080419921875,0.2982626953125,0.0573564453125,0.2625625,0.29906640625,0.262875,0.1685068359375,0.2125888823820186,0.2997277555981258,0.06306147584531954,0.2700090901228643,0.29516186110839754,0.25795008689653914,0.17465064159236718,0.528,-41.516,-4.184,-12.44,2.224,-0.416,-0.016
154,0.209283203125,0.29846875,0.05793359375,0.2632841796875,0.298859375,0.260822265625,0.1693330078125,0.21369014209175016,0.2998410189583833,0.06346967642816179,0.270969033869842,0.29452546631734683,0.25580739833448624,0.17565571301072863,0.156,-41.68,-4.44,-12.232,2.148,-0.2,0.004
155,0.2104150390625,0.2986748046875,0.0583671875,0.2641591796875,0.29906640625,0.2589638671875,0.170146484375,0.21478173304085488,0.29992386456917014,0.06387714986797698,0.2719134059144898,0.2938502618794902,0.25361510633337087,0.17665870329883554,-1.116,-42.272,-4.392,-11.5,2.148,-0.024,0.024
156,0.211546875,0.2986748046875,0.058935546875,0.265314453125,0.2992724609375,0.25732421875,0.1711796875,0.21587220949922228,0.29997672342333837,0.06428641900740054,0.27284728364085614,0.29313272568909715,0.25136313084658746,0.17766381334109485,0.636,-41.896,-4.624,-11.592,1.92,-0.188,0.004
157,0.2127880859375,0.29877734375,0.059080078125,0.2661806640625,0.2986533203125,0.255064453125,0.17219921875,0.21696092485109053,0.29999917627549444,0.06469727677917253,0.27376999094592624,0.2923728194035603,0.2490524067171967,0.17867012204041588,1.38,-41.68,-4.14,-11.752,2.112,-0.14,0.032
158,0.213919921875,0.29877734375,0.0595126953125,0.2672001953125,0.298240234375,0.2529990234375,0.173232421875,0.2180363547540075,0.2999911203156146,0.06510478484084214,0.2746702345138405,0.29158025958898187,0.2467134644205539,0.17966478224003113,-0.424,-41.896,-3.56,-11.752,2.324,-0.116,0.056
159,0.21494921875,0.2986748046875,0.06037890625,0.2682109375,0.2984462890625,0.2509453125,0.174251953125,0.21910908864603762,0.29995265917168423,0.06551347104354269,0.27555806099859925,0.29074673762086567,0.24432074247236274,0.18065873805681493,-0.476,-41.732,-4.44,-12.004,2.204,-0.224,0.044
160,0.2161904296875,0.29877734375,0.06066796875,0.2690771484375,0.2984462890625,0.2480537109375,0.17528515625,0.22017255743010988,0.299884072831431,0.0659206869395172,0.27642813411200323,0.2898769262352926,0.24188688213233384,0.18164754043282536,-0.212,-41.84,-4.44,-11.732,2.004,-0.2,0.044
161,0.217322265625,0.29877734375,0.0608125,0.269943359375,0.298033203125,0.24476171875,0.1763046875,0.2212320785887005,0.2997850372203754,0.06632858255278609,0.27728469227996094,0.28896708659201237,0.23940210243696802,0.18263478849528872,-0.796,-41.948,-4.024,-11.524,2.08,0.16,0.096
162,0.2183583984375,0.2986748046875,0.0613896484375,0.271107421875,0.297826171875,0.242708984375,0.177544921875,0.22228641161408236,0.2996555303934453,0.0667368451792453,0.27812716393728126,0.2880175024188187,0.23686772593147304,0.18362059115525814,-0.052,-41.68,-4.368,-11.708,2.036,0.0,0.076
163,0.219490234375,0.2985712890625,0.0615341796875,0.2719736328125,0.29720703125,0.2398291015625,0.178357421875,0.22333344637277724,0.29949595168600995,0.06714420019362234,0.2789524141994917,0.28703185576395,0.2342944019505572,0.18460038389747563,0.636,-41.516,-4.368,-11.936,1.972,-0.14,0.068
164,0.22051953125,0.2985712890625,0.0618232421875,0.2726953125,0.2961865234375,0.2361240234375,0.179390625,0.22437617213758942,0.299305504712659,0.06755293108479768,0.2797658470113038,0.2860032465015022,0.23166179353752908,0.18558267536839695,-0.104,-41.464,-3.86,-11.8,2.236,0.252,0.116
165,0.2215615234375,0.29846875,0.062544921875,0.273724609375,0.29598046875,0.2336455078125,0.1804111328125,0.22541184654840282,0.2990854403648919,0.06795953855264894,0.28055912196846844,0.2849439418417105,0.22900603176138748,0.18655300589608464,0.372,-41.248,-4.232,-11.98,1.956,0.032,0.084
166,0.2224873046875,0.29846875,0.06296875,0.2743017578125,0.2947412109375,0.230146484375,0.1812373046875,0.22643688564045764,0.29883596131932866,0.06836523759829642,0.2813359870149065,0.2838478038978413,0.22630707074691075,0.1875206503899306,0.0,-41.14,-4.252,-11.82,1.828,0.0,0.108
167,0.2235166015625,0.29846875,0.06340234375,0.27516796875,0.2937080078125,0.226853515625,0.1822568359375,0.22746418431980092,0.298553892980719,0.06877442578526866,0.2821045487583489,0.28270313612771825,0.22353692791412924,0.1884949699563195,-0.156,-41.192,-4.024,-11.64,1.956,0.284,0.172
168,0.2245517578125,0.2983662109375,0.0636904296875,0.2758896484375,0.29289453125,0.224181640625,0.1832900390625,0.2284771245345453,0.2982442039586566,0.06917978156160307,0.28285031542462696,0.281532451571977,0.22075309477361546,0.18945540109414202,1.008,-40.924,-4.044,-11.936,1.724,-0.016,0.12
169,0.225478515625,0.2983662109375,0.0641240234375,0.276765625,0.29103515625,0.220888671875,0.184103515625,0.22949216500852238,0.29790149636959073,0.06958870987844137,0.28358764145234056,0.2803125007904074,0.21789805197079493,0.19042289409615726,0.848,-40.816,-3.86,-11.912,1.828,0.052,0.18
170,0.2265068359375,0.2982626953125,0.064556640625,0.2776318359375,0.290015625,0.218203125,0.1853427734375,0.23049551540659058,0.2975306393631896,0.06999493161194406,0.28430445550377575,0.27906376624723306,0.21502116679997596,0.19137982519735522,0.0,-40.6,-3.932,-12.232,1.84,0.056,0.172
171,0.227439453125,0.29816015625,0.064990234375,0.278353515625,0.28836328125,0.21532421875,0.1863623046875,0.2314927066087622,0.29712972788013675,0.0704009788865752,0.28500561880728337,0.2777782220646929,0.2121035938205342,0.19233346131758042,0.476,-40.544,-3.952,-12.052,1.764,-0.108,0.148
172,0.22846875,0.29816015625,0.065279296875,0.2792197265625,0.2869169921875,0.2120322265625,0.1873955078125,0.23248528933230792,0.29669765686296234,0.07080826591641738,0.2856938002719336,0.2764500952614233,0.20913111747388147,0.1932886586679844,0.744,-40.436,-4.044,-12.028,1.816,0.084,0.188
173,0.2293955078125,0.2982626953125,0.0657119140625,0.2799501953125,0.2854833984375,0.2091533203125,0.188208984375,0.23347175217961266,0.2962362106229618,0.07121444596179304,0.28636402029393476,0.27509056803962206,0.2061332224542692,0.19423512026659448,0.584,-40.544,-3.86,-12.12,1.724,0.14,0.208
174,0.230328125,0.2982626953125,0.0661455078125,0.280671875,0.2838310546875,0.206880859375,0.18903515625,0.23444831726622334,0.2957460560985764,0.07161963543993385,0.28701749306056107,0.2736962761283754,0.20309764125815674,0.1951781749165104,-0.156,-40.76,-4.068,-12.28,1.748,0.036,0.192
175,0.23125390625,0.2982626953125,0.0665693359375,0.28139453125,0.28219140625,0.2042080078125,0.19026171875,0.23542524663656456,0.2952220560951457,0.07202789102667705,0.2876604468662828,0.27225347355395263,0.19999558803746664,0.19612628329255893,-0.636,-40.816,-4.116,-12.464,1.82,-0.108,0.168
176,0.232283203125,0.2982626953125,0.067001953125,0.2824052734375,0.2807451171875,0.200916015625,0.191087890625,0.23638821000399815,0.29467316690423195,0.0724319499355124,0.2882808751999602,0.2707905705776108,0.19689192332260555,0.1970595214964501,0.528,-41.032,-4.044,-12.852,1.8,-0.052,0.14
177,0.233318359375,0.2982626953125,0.067435546875,0.2829912109375,0.2788994140625,0.198037109375,0.1921083984375,0.23734949125071206,0.2940912547215652,0.0728385009326718,0.28888980239956114,0.26928093453266005,0.19372571061662539,0.19799718686299736,0.528,-42.272,-3.836,-12.872,1.904,0.076,0.108
178,0.2341416015625,0.29816015625,0.0681572265625,0.284001953125,0.277453125,0.19514453125,0.193140625,0.23830398410158532,0.2934794988972118,0.0732448711472099,0.289482741357051,0.26773536440949175,0.1905216607647284,0.19893152639047185,0.0,-43.028,-4.416,-13.124,1.88,-0.004,0.088
179,0.235068359375,0.2979541015625,0.0685908203125,0.2848681640625,0.275400390625,0.19205859375,0.1941611328125,0.2392504087645646,0.2928396023564166,0.07364988032191586,0.29005776698788,0.2661601540637903,0.18729479922875525,0.1998580811997947,0.212,-43.62,-5.04,-13.628,1.936,-0.036,0.064
180,0.236103515625,0.2978515625,0.068734375,0.28558984375,0.273541015625,0.1891796875,0.195193359375,0.2401904259066533,0.29217021923316344,0.07405479502813199,0.2906169453790235,0.26454965712463124,0.18403171624278317,0.20078128697887218,-0.212,-43.512,-4.116,-13.604,2.056,-0.108,0.064
181,0.2369267578125,0.2976455078125,0.0693125,0.2863212890625,0.2716953125,0.1865068359375,0.1962138671875,0.24112474051918992,0.29146960491644996,0.07446069648590821,0.2911620688953196,0.2628968153459677,0.18071734409852597,0.2017060624627033,-0.796,-44.216,-4.276,-13.788,2.172,-0.168,0.064
182,0.2379560546875,0.297130859375,0.0698896484375,0.28733203125,0.2702490234375,0.183408203125,0.1972470703125,0.24205546942905254,0.29073869694175125,0.07486656863062308,0.2916907571701552,0.2612120535128024,0.17737710693709832,0.20262403172718937,0.636,-44.972,-5.04,-14.2,1.996,-0.356,0.0
183,0.2388818359375,0.296822265625,0.0698896484375,0.2879091796875,0.2681962890625,0.1801162109375,0.198279296875,0.24297394703038805,0.28998047050965087,0.07527132926781528,0.29220238959626094,0.25949463421509134,0.17400465369153012,0.20353854733239238,0.212,-44.756,-4.6,-14.496,2.036,-0.208,0.016
184,0.239814453125,0.2963076171875,0.0703134765625,0.288486328125,0.2663369140625,0.1778564453125,0.1990927734375,0.2438886107448369,0.28919326610846335,0.07567577966936807,0.29269784525009407,0.25774330815178204,0.17059987477585345,0.20444928975239574,0.424,-45.188,-4.14,-13.628,2.304,-0.356,0.016
185,0.24084375,0.295484375,0.0708916015625,0.289650390625,0.26531640625,0.1747578125,0.20033203125,0.24480204924835394,0.2883697997539907,0.07608360447684913,0.29318137182758547,0.2559416930276351,0.16713107222799206,0.20536475736578527,1.54,-45.348,-5.108,-14.636,1.832,-0.5,-0.056
186,0.24176953125,0.2949697265625,0.0710361328125,0.289794921875,0.26264453125,0.1716728515625,0.200939453125,0.24569763734185165,0.28752910191792624,0.07648521318794563,0.29364151595727256,0.254134388290747,0.16368586653589304,0.20626185863058893,0.424,-44.648,-4.324,-14.428,2.336,-0.212,-0.004
187,0.2427021484375,0.294146484375,0.0717578125,0.2903720703125,0.261611328125,0.1694130859375,0.201765625,0.24659497308064374,0.2866502911919825,0.07689104235180495,0.29409062532181157,0.2522730245347399,0.16017012494166433,0.2071655273810938,-0.584,-44.756,-4.208,-13.696,2.324,-0.596,0.004
188,0.24362890625,0.293220703125,0.0724794921875,0.2909501953125,0.2601650390625,0.165294921875,0.20278515625,0.247479738599445,0.28574870744458153,0.07729405163773118,0.294520650568865,0.2503898867858206,0.1566446699787984,0.20806062195974237,0.424,-44.7,-5.296,-14.496,1.912,-0.304,-0.044
189,0.244658203125,0.2923974609375,0.0726240234375,0.2909501953125,0.2578935546875,0.162208984375,0.2034052734375,0.2483616673103299,0.28481422381030963,0.07769852991848569,0.2949362072014425,0.24846630739799533,0.15307599081699338,0.20895509613484856,0.264,-44.7,-4.576,-13.468,2.192,-0.116,-0.004
190,0.2454873046875,0.29146484375,0.073056640625,0.2913828125,0.256447265625,0.1591103515625,0.2042314453125,0.24923699232709817,0.2838501859604571,0.07810329981079088,0.29533594082505477,0.2465070999547119,0.1494730492775173,0.20984739567732144,-1.008,-43.892,-4.0,-13.424,1.992,-0.296,-0.052
191,0.246310546875,0.2903330078125,0.073779296875,0.291671875,0.2541875,0.155404296875,0.205044921875,0.2501029461230711,0.28286183403510423,0.07850573219627391,0.29571711495665626,0.24452859433456312,0.14586781947963015,0.21072900975632639,-0.476,-43.892,-4.832,-13.652,2.216,-0.156,-0.004
192,0.2474423828125,0.2892001953125,0.073779296875,0.2921142578125,0.2529482421875,0.1514931640625,0.206078125,0.2509615074665598,0.28184462364844626,0.07890842673656619,0.2960827007912325,0.2425133659709818,0.14222517565825343,0.21160975557495526,1.22,-44.376,-4.784,-13.72,1.932,-0.232,-0.036
193,0.2482724609375,0.288171875,0.0739228515625,0.2921142578125,0.2500693359375,0.1469609375,0.206890625,0.2518162766896084,0.28079487594481883,0.07931261334468893,0.2964335499784298,0.24045717693465118,0.13853873255973662,0.21249102801570244,0.424,-43.512,-3.56,-13.604,2.08,0.104,-0.012
194,0.2488896484375,0.2869365234375,0.0746357421875,0.29240234375,0.2484296875,0.1436689453125,0.207923828125,0.252663477741664,0.27971782477230167,0.0797160875702637,0.29676753853768834,0.23837205447258314,0.13483215380817132,0.21336696954829387,-0.372,-43.244,-4.44,-13.056,2.112,-0.18,0.012
195,0.249712890625,0.2857021484375,0.0750693359375,0.29269140625,0.2467763671875,0.13913671875,0.2089443359375,0.2535046606172107,0.2786111112397646,0.08012004104040357,0.2970856668920447,0.23625201616904323,0.13109326286605474,0.21424071816363063,-0.212,-43.404,-5.04,-13.516,1.66,-0.348,-0.064
196,0.2506396484375,0.284466796875,0.0749248046875,0.29269140625,0.2441044921875,0.13460546875,0.2095634765625,0.25433685342022777,0.2774797793429036,0.08052235862131463,0.2973862778917477,0.2341093206877244,0.12734484600216966,0.21510689062607902,0.636,-42.92,-4.14,-13.104,2.08,0.18,0.032
197,0.25146875,0.28312890625,0.0753583984375,0.29298046875,0.242865234375,0.1317265625,0.2105966796875,0.2551618902017147,0.2763205702514119,0.080924510601775,0.29767057761158067,0.2319354305680798,0.12357238108526915,0.2159693675791552,0.316,-42.76,-3.744,-12.736,1.848,-0.304,-0.024
198,0.2519833984375,0.2814755859375,0.076224609375,0.29356640625,0.2401923828125,0.12698828125,0.2116162109375,0.25598212814612187,0.27512942115304795,0.08132800338797096,0.29793965874023715,0.22972102573502917,0.11975794612581933,0.21683255783145003,0.424,-42.92,-4.716,-13.308,1.892,-0.284,-0.016
199,0.25291015625,0.280138671875,0.076224609375,0.2937109375,0.2383330078125,0.1232822265625,0.212236328125,0.2567955428665921,0.27391107034261225,0.08173105916254668,0.29819206272946475,0.2274784678191736,0.11592491548439368,0.2176908027340284,-0.104,-41.732,-4.324,-13.536,2.028,-0.016,0.0
200,0.2536298828125,0.27880078125,0.0765126953125,0.29356640625,0.236693359375,0.1199775390625,0.2130498046875,0.2576018214156924,0.2726639206706902,0.08213434892598746,0.2984282812008345,0.22520211081156197,0.11206334024788374,0.2185469046024911,0.264,-41.624,-3.444,-12.464,1.956,-0.5,0.012
201,0.25425390625,0.2772568359375,0.0772353515625,0.29414453125,0.235041015625,0.1148388671875,0.2138759765625,0.25841265608468356,0.2713686167798901,0.08254383539508868,0.2986513171070887,0.22286027201394146,0.10812110157632432,0.2194119624095529,1.116,-41.948,-4.484,-12.896,1.848,0.024,0.024
202,0.254974609375,0.2759189453125,0.0775234375,0.294,0.2331943359375,0.1113271484375,0.2147021484375,0.25918615306248327,0.27010269377620816,0.08293498327159537,0.29884835369241475,0.22059791155368405,0.10434422682444588,0.2202319122631106,1.008,-42.164,-4.44,-12.532,1.712,-0.024,0.036
203,0.2556943359375,0.2742724609375,0.0778037109375,0.2942890625,0.23112890625,0.106794921875,0.215515625,0.2599762044493215,0.268764355651286,0.08334044556675406,0.2990364825989092,0.21821727096420962,0.10039462659775472,0.22108210272442572,1.168,-42.112,-3.86,-11.96,1.756,-0.136,0.024
204,0.2564150390625,0.272728515625,0.078236328125,0.2945771484375,0.229076171875,0.1024697265625,0.216341796875,0.26075419314514836,0.26740762031307214,0.08374313806276847,0.29920690286891916,0.21582123263689432,0.09644703888967586,0.2219241579905492,1.488,-40.868,-3.908,-12.92,1.82,0.108,0.024
205,0.2571416015625,0.271384765625,0.078525390625,0.2944326171875,0.227009765625,0.099177734375,0.2171552734375,0.26152385110592874,0.2660282222780375,0.08414397257270533,0.299360001694838,0.21341068649473563,0.09250811358040524,0.22275579973272977,1.276,-41.356,-3.744,-12.12,1.892,-0.436,0.052
206,0.2578623046875,0.2698408203125,0.078814453125,0.2948662109375,0.2255771484375,0.0938193359375,0.217775390625,0.26228676672588214,0.2646199850095219,0.08454533308100227,0.29949698058900326,0.21096652380582412,0.08854067600453629,0.22358621187893468,1.06,-41.248,-4.024,-12.28,1.712,-0.192,0.024
207,0.2585830078125,0.268708984375,0.0791025390625,0.2944326171875,0.2237177734375,0.0909404296875,0.2186015625,0.26304400317051574,0.2631817980137602,0.08494756230767252,0.29961781523283415,0.20848686774388397,0.08454382409946158,0.22441550189242823,0.372,-40.76,-4.068,-11.82,1.704,-0.032,0.064
208,0.259302734375,0.2672685546875,0.0796806640625,0.2945771484375,0.22228515625,0.0872353515625,0.2194150390625,0.2637906306870586,0.2617248152588622,0.08534714924108915,0.2997214221918749,0.20599763641991636,0.08056272257623374,0.22523377231560016,0.424,-42.004,-4.232,-11.252,1.6,-0.592,0.044
209,0.260029296875,0.265724609375,0.07982421875,0.29501953125,0.2198056640625,0.082703125,0.2200341796875,0.2645317246802594,0.26023733379208197,0.08574812932194693,0.29980910341849915,0.20346588459693038,0.07653729433642571,0.22605507763868468,0.584,-41.084,-4.184,-12.624,1.672,0.032,0.004
210,0.2608525390625,0.2644892578125,0.08011328125,0.2947216796875,0.217546875,0.0804306640625,0.2208603515625,0.26526718343920835,0.25871957448550814,0.08614959227451689,0.2998802856879535,0.20090872444686977,0.07250352333283741,0.22687031012141126,1.116,-42.056,-3.56,-11.776,2.076,-0.4,0.076
211,0.2615732421875,0.2628427734375,0.0808349609375,0.295453125,0.2161005859375,0.0756923828125,0.221673828125,0.2659948364995867,0.2571777104762074,0.08655047653784369,0.29993491113922205,0.19832537471255943,0.06845539573495592,0.22768203385930658,1.7,-42.22,-4.208,-12.532,1.704,-0.488,0.0
212,0.2622939453125,0.2616015625,0.0812685546875,0.29530859375,0.2130146484375,0.0717802734375,0.2225,0.26671322952302096,0.2556151343578318,0.08694979869134233,0.2999729139396143,0.195725570423778,0.06441035843052846,0.22848646578321205,1.488,-42.164,-4.348,-12.576,2.028,0.16,0.076
213,0.263123046875,0.2601611328125,0.0816923828125,0.295453125,0.211375,0.068888671875,0.2235205078125,0.26742644431543694,0.25402024725890465,0.08735067014610291,0.29999458389554795,0.1930861600945867,0.06033006620376405,0.22929180063169582,0.212,-42.38,-4.232,-11.844,1.768,-0.428,0.012
214,0.2637412109375,0.2586171875,0.0824140625,0.2957412109375,0.2080830078125,0.0635302734375,0.2241396484375,0.26813050032316177,0.2524056496380359,0.08774984531982569,0.29999970999775205,0.19043245275186255,0.05625662997476313,0.23008945466093286,0.052,-41.84,-4.716,-12.692,1.84,0.032,0.016
215,0.2646669921875,0.25707421875,0.08284765625,0.2957412109375,0.2053974609375,0.0604443359375,0.2251728515625,0.26883379780926264,0.25074951356191366,0.08815265435428295,0.299988232083019,0.18772904546996924,0.05213625684050591,0.23088998890345108,1.116,-43.028,-4.648,-12.416,2.06,-0.104,0.064
216,0.2653876953125,0.2555302734375,0.0832802734375,0.2960302734375,0.2023115234375,0.0557060546875,0.225986328125,0.26952315417693035,0.24908045950734467,0.08855253566686655,0.2999602540161949,0.1850156011659244,0.04802589601728413,0.23168312201825028,1.276,-43.46,-4.252,-13.056,1.736,-0.428,0.024
217,0.2661142578125,0.253986328125,0.0838583984375,0.2960302734375,0.1983994140625,0.0511748046875,0.2266064453125,0.27020712172920724,0.2473860076598648,0.08895208278206031,0.29991579924218575,0.18228156807830706,0.04391362370190206,0.23247061467825392,0.424,-43.192,-4.576,-13.012,2.236,0.032,0.084
218,0.2669375,0.252443359375,0.084146484375,0.2960302734375,0.196759765625,0.0480888671875,0.2276259765625,0.2708794158395641,0.2456774287586927,0.08934921962365418,0.299855194343996,0.17953362770143175,0.03980529490596011,0.23325162124830878,-0.636,-42.596,-4.692,-12.92,1.764,-0.552,0.004
219,0.2677607421875,0.25099609375,0.084435546875,0.2957412109375,0.1932607421875,0.0433505859375,0.22824609375,0.2715477547331911,0.24393521757317974,0.08974749800693446,0.29977814425382826,0.17676481428628185,0.03570226043888732,0.2340259255749719,-0.424,-42.056,-4.508,-12.12,1.912,-0.272,0.068
220,0.268583984375,0.2494521484375,0.08500390625,0.2957412109375,0.1911953125,0.03942578125,0.2292783203125,0.27220871684776415,0.24216689553650286,0.09014648738961119,0.29968436010437205,0.17395802892109702,0.03156461120397154,0.23480198542830197,0.0,-42.812,-4.856,-12.028,1.796,-0.016,0.068
221,0.269310546875,0.247703125,0.0854375,0.2957412109375,0.1876962890625,0.035720703125,0.230091796875,0.27286338494595835,0.24037107310265146,0.09054589107924906,0.2995739290547929,0.17112445520837374,0.027415940172032312,0.23557492799821952,-0.372,-43.404,-5.064,-12.324,1.476,-0.324,0.012
222,0.27003125,0.246056640625,0.0854375,0.2958857421875,0.1839912109375,0.03180859375,0.2307119140625,0.2735097878060875,0.2385541364553892,0.09094436745591694,0.29944726075493405,0.16827469061918854,0.023272264432849053,0.23634160465132656,-0.104,-42.544,-4.6,-12.28,2.096,-0.156,0.096
223,0.2708544921875,0.244306640625,0.0857255859375,0.2960302734375,0.181318359375,0.0285029296875,0.2315380859375,0.27415134485237797,0.23670322661177562,0.09134501366319793,0.2993031801053027,0.16538264551340479,0.019093515335934244,0.2371104061791949,-0.372,-42.704,-4.068,-12.76,1.84,-0.488,0.084
224,0.2714716796875,0.24266015625,0.0864482421875,0.2960302734375,0.1778193359375,0.02355859375,0.23214453125,0.27478314205894067,0.23483641637848793,0.09174353381262004,0.29914332555331075,0.162484917425675,0.014936316923561004,0.23786998927125722,-0.584,-43.028,-4.508,-12.668,2.112,-0.336,0.088
225,0.2721982421875,0.2410068359375,0.086880859375,0.2960302734375,0.175546875,0.019439453125,0.232970703125,0.2754023726742874,0.23296504566784512,0.09213749997532579,0.29896919745535294,0.1596022341809968,0.01083157876372431,0.23861496340916086,-0.264,-42.596,-4.88,-12.712,1.996,-0.116,0.064
226,0.2729189453125,0.2394638671875,0.087314453125,0.2955966796875,0.17266796875,0.0153212890625,0.2337978515625,0.27602077779223744,0.23104536162078543,0.09253697349289766,0.2987759348157376,0.15665102993828742,0.006652781790092595,0.2393696541816564,-0.584,-43.404,-4.6,-11.96,1.728,-0.4,0.052
227,0.27343359375,0.2375087890625,0.0880361328125,0.2961748046875,0.1693759765625,0.010169921875,0.234404296875,0.27663073884129813,0.22910520471099066,0.09293559249276953,0.2985664765470821,0.15368357870784619,0.0024798376414523994,0.24011900868570907,-0.584,-44.108,-5.432,-12.324,1.944,-0.084,0.064
228,0.27405078125,0.23565625,0.0881806640625,0.2963193359375,0.16627734375,0.00727734375,0.23523046875,0.27723213001692126,0.22714671513358317,0.0933329590231829,0.29834123414150987,0.1507057235247261,-0.0016782051166548933,0.24086117894972447,-0.528,-43.192,-5.224,-13.376,1.868,-0.5,0.032
229,0.2747783203125,0.233701171875,0.08832421875,0.2963193359375,0.162158203125,0.003365234375,0.2360439453125,0.27782622638340587,0.22516389291639985,0.09373037171775316,0.2980994331692038,0.14770586346982126,-0.0058392988637961775,0.24159987439357639,0.0,-44.052,-4.348,-12.896,2.324,-0.928,0.052
230,0.2752919921875,0.2316357421875,0.0888935546875,0.296751953125,0.159486328125,-0.0013720703125,0.2368701171875,0.2784122384311881,0.22316073822287893,0.09412710032692187,0.29784166783024213,0.1446911475849686,-0.009991731303366206,0.24233297530667325,0.212,-43.568,-4.532,-14.248,2.152,-0.364,0.024
231,0.275806640625,0.22988671875,0.089326171875,0.2960302734375,0.1559873046875,-0.0038505859375,0.2376962890625,0.27899202211214735,0.22112785998453055,0.09452530286253483,0.29756617003424213,0.14164055061310937,-0.014167624212302356,0.24306681577841502,-0.528,-43.192,-4.716,-13.104,2.152,-0.864,0.004
232,0.2764248046875,0.227828125,0.0899033203125,0.2963193359375,0.1539345703125,-0.009208984375,0.238509765625,0.2795675386123985,0.21906222769308478,0.09492510869629175,0.2972730020567738,0.13855965225234856,-0.018354436501043795,0.24379853624998654,0.0,-44.432,-4.9,-12.532,1.884,-0.532,0.004
233,0.2769384765625,0.225873046875,0.0900478515625,0.2960302734375,0.1510419921875,-0.01312109375,0.2393359375,0.2801248739123469,0.21701578774911465,0.09531651904812172,0.29696993565577706,0.13552789689517095,-0.022444347323735413,0.24450939185831497,0.316,-43.404,-4.832,-13.264,1.672,0.036,-0.044
234,0.277453125,0.2237119140625,0.0904814453125,0.2958857421875,0.14775,-0.0160126953125,0.2401494140625,0.28068261252915927,0.21491380808236352,0.09571461124789708,0.29664497997861655,0.13241908920551734,-0.026612504667806135,0.24523113443483227,-0.052,-44.376,-4.576,-11.8,2.076,-0.728,-0.012
235,0.27787109375,0.221236328125,0.0909140625,0.296751953125,0.1450771484375,-0.0217841796875,0.2409755859375,0.2812321676297831,0.2127924639514176,0.09611195848633276,0.2963041792075448,0.12929876947934102,-0.03076769189829422,0.2459470633049518,0.212,-43.192,-4.764,-13.812,1.82,-0.14,-0.076
236,0.2784892578125,0.2193837890625,0.0909140625,0.2958857421875,0.1413720703125,-0.025076171875,0.241595703125,0.2817716377550198,0.21066132095655063,0.09650673824613559,0.2959492534305201,0.12618189820561246,-0.03488715647044216,0.24665336512867755,0.476,-42.436,-4.116,-12.964,2.368,-0.156,0.0
237,0.27900390625,0.21722265625,0.0917802734375,0.2960302734375,0.13992578125,-0.029814453125,0.2424091796875,0.2823047083248636,0.20850232312022088,0.09690275692776261,0.2955766847976468,0.12303417605247133,-0.03901974020312019,0.24735919470370424,0.424,-43.836,-4.508,-12.004,1.86,-0.772,-0.064
238,0.2793125,0.2149580078125,0.0924931640625,0.2963193359375,0.1364267578125,-0.0359990234375,0.2430283203125,0.28283129920585903,0.2063169035507662,0.09729950228494261,0.29518690863232366,0.11986335713356921,-0.043154233115994485,0.2480623228471346,0.636,-43.568,-5.664,-13.264,1.644,0.188,-0.064
239,0.2798271484375,0.2128935546875,0.0926376953125,0.2955966796875,0.13353515625,-0.0384775390625,0.24385546875,0.2833488310547571,0.204117628123263,0.09769467139571726,0.2947824305233289,0.11668936183933173,-0.047262733598136306,0.24875797215470366,0.476,-43.568,-5.272,-12.028,2.08,-0.384,0.0
240,0.280341796875,0.2103212890625,0.0932158203125,0.2961748046875,0.1310693359375,-0.04362890625,0.2446689453125,0.28386037954081716,0.2018881021458491,0.0980915454276705,0.29435950164802704,0.11348196271558868,-0.05138680183607108,0.24945384389014552,0.372,-43.784,-4.948,-13.424,1.808,-0.748,-0.088
241,0.280759765625,0.20816015625,0.0936484375,0.2957412109375,0.1269501953125,-0.047748046875,0.24508203125,0.28436263118506583,0.19964611663771578,0.09848669178390797,0.2939221251940646,0.1102734643299814,-0.055481287121435574,0.2501419089109427,1.276,-42.812,-5.132,-13.996,2.504,-0.056,-0.004
242,0.281376953125,0.2061015625,0.0939375,0.2951640625,0.12550390625,-0.05043359375,0.245908203125,0.28485492978235144,0.19739737338418195,0.09887907616391801,0.293471827430881,0.10707427143129424,-0.05953319730646737,0.25082000981844144,0.584,-42.976,-4.88,-12.92,2.164,-1.012,-0.032
243,0.281685546875,0.203837890625,0.0948037109375,0.2948662109375,0.122005859375,-0.05682421875,0.2463212890625,0.28534449625148905,0.19509632365467583,0.09927726593283118,0.29299798020356815,0.10380752703466065,-0.06364385223413511,0.25150607595688496,0.528,-44.0,-5.412,-13.424,1.92,-0.296,-0.024
244,0.2822001953125,0.2016708984375,0.095091796875,0.29414453125,0.1191259765625,-0.0601298828125,0.246927734375,0.28582178721769624,0.19280712872122854,0.09966966237003001,0.2925148962633795,0.10057397493403175,-0.06768277045113989,0.2521777290504994,0.848,-44.324,-5.828,-13.192,1.976,0.068,-0.012
245,0.28271484375,0.199509765625,0.095091796875,0.29356640625,0.1162470703125,-0.0636279296875,0.24775390625,0.2862940848242585,0.19048096876332785,0.10006486651791215,0.2920120311504803,0.09730263428442264,-0.07173877090475608,0.2528500291556606,0.372,-43.192,-4.972,-12.896,1.632,-0.76,-0.068
246,0.2831259765625,0.1970390625,0.095525390625,0.2934228515625,0.11212890625,-0.0696064453125,0.2481669921875,0.28675852220633363,0.18813445205980608,0.10046014789832643,0.29149253223484395,0.09401439627181388,-0.07578647870020956,0.2535191140022949,0.636,-43.836,-4.808,-13.356,2.18,-0.084,0.004
247,0.2835439453125,0.1946728515625,0.09609375,0.29298046875,0.1100625,-0.072498046875,0.24898046875,0.2872122337808335,0.18578779170775242,0.10085176698580366,0.2909621060639869,0.09074714677738831,-0.07977626356680026,0.2541761670520689,0.796,-44.052,-5.316,-14.064,1.86,-0.448,-0.068
248,0.28405859375,0.1925048828125,0.0963828125,0.2922587890625,0.106357421875,-0.077236328125,0.2496005859375,0.2876609161361249,0.18340369823461272,0.10124650644256729,0.29041086505372715,0.08743669114443382,-0.08379037085051715,0.2548358070366894,0.848,-43.836,-5.132,-13.332,1.872,-0.928,-0.064
249,0.284470703125,0.19003515625,0.0969599609375,0.2919697265625,0.103671875,-0.082181640625,0.2502197265625,0.2881023127937128,0.18099947227218197,0.10164134844635654,0.28984307353436073,0.08411083848336638,-0.0877935863267756,0.25549195220304827,0.688,-43.944,-4.996,-13.72,2.148,-0.128,0.024
250,0.2848818359375,0.18766796875,0.097537109375,0.29123828125,0.1009990234375,-0.08466015625,0.251033203125,0.2885336542976259,0.1785904714433475,0.10203364697259007,0.2892630102911248,0.08079707585097992,-0.09175029899309337,0.25613864938273123,1.008,-43.62,-5.712,-13.676,1.66,-0.844,-0.052
251,0.285396484375,0.185095703125,0.097681640625,0.2908056640625,0.096880859375,-0.08960546875,0.2516533203125,0.288958437519562,0.1761497552714182,0.10242825115719034,0.28866290984448356,0.07744691789731967,-0.09572230548832258,0.2567866229275311,0.9,-43.836,-5.224,-13.424,2.1,-0.7,-0.016
252,0.28580859375,0.1825166015625,0.098115234375,0.2906611328125,0.0944150390625,-0.09291015625,0.2524794921875,0.2893771709428961,0.1736872416799962,0.10282302024319658,0.28804648860731363,0.07408629987016699,-0.0996742189433673,0.2574296440187678,0.424,-42.92,-5.224,-14.336,2.08,-0.272,-0.024
253,0.2862197265625,0.1801494140625,0.0985478515625,0.289650390625,0.091109375,-0.0955830078125,0.2530859375,0.28978305070734744,0.17123866520450845,0.10321239042104523,0.28742276912465947,0.07076223008307815,-0.10355118328209198,0.2580591595733701,0.156,-42.544,-5.48,-13.536,1.996,-1.008,-0.044
254,0.2867412109375,0.1775771484375,0.0989814453125,0.2893623046875,0.0880234375,-0.1007470703125,0.2537060546875,0.29018784039239515,0.16872266274749778,0.1036099778335806,0.2867689744887315,0.06735067115703956,-0.1075023757210106,0.25869992606868625,0.528,-43.296,-5.272,-13.812,2.096,-0.26,0.0
255,0.28715234375,0.1751005859375,0.0995498046875,0.288486328125,0.08514453125,-0.103626953125,0.254326171875,0.2905802883115653,0.16622308460266041,0.10400169908445923,0.2861090975218453,0.06398373241455933,-0.11136880216622981,0.25932544083792164,0.796,-44.108,-5.548,-14.224,1.832,-0.272,-0.024
256,0.287564453125,0.172630859375,0.0998388671875,0.2876201171875,0.0812197265625,-0.1077578125,0.2549326171875,0.2909637528059949,0.16371687210410718,0.10439146109869997,0.28543691601631854,0.060626257406194956,-0.11519089188603948,0.2599426219471227,0.848,-44.052,-5.432,-13.376,2.06,-0.644,-0.004
257,0.2880791015625,0.17005859375,0.100271484375,0.28733203125,0.0781337890625,-0.1129091796875,0.255552734375,0.29134135260534827,0.16117419456963533,0.10478462062774095,0.28474202675062993,0.05722239745922011,-0.11903890754491105,0.2605636736500233,0.636,-43.46,-5.272,-14.248,2.024,-0.004,-0.012
258,0.288490234375,0.16769140625,0.100705078125,0.2861767578125,0.0744287109375,-0.115607421875,0.256171875,0.29171103531807147,0.15861715114466804,0.105176996192971,0.28403274095876396,0.05381882535168022,-0.12285322448948668,0.26117820026408156,0.264,-43.192,-5.528,-13.444,1.932,-0.5,0.012
259,0.28890234375,0.1651123046875,0.1012822265625,0.28558984375,0.0709296875,-0.120552734375,0.2567919921875,0.29207273804956513,0.15604536358823431,0.10556896135168843,0.2833083848740899,0.050411087953272794,-0.12663968876447973,0.2617876102969382,-0.372,-43.404,-5.596,-13.332,1.984,-0.524,0.024
260,0.2893203125,0.1624365234375,0.1017158203125,0.2851572265625,0.06741796875,-0.1244775390625,0.2573984375,0.29242489509827246,0.15346832952926345,0.10595916274096515,0.2825713524203057,0.047009592909428057,-0.13038817665269492,0.26239037006041394,0.104,-43.892,-5.872,-14.612,1.924,-0.168,0.016
261,0.2897314453125,0.1598642578125,0.10200390625,0.284146484375,0.0639189453125,-0.1273564453125,0.2580185546875,0.29277138168535877,0.15085733173486726,0.10635201306121354,0.2818129187759821,0.0435745596704988,-0.1341427113908135,0.2629937316721665,0.528,-44.54,-5.432,-13.996,2.148,-0.884,0.032
262,0.2901435546875,0.1570849609375,0.10229296875,0.283857421875,0.060626953125,-0.1321083984375,0.2586376953125,0.29310694460787184,0.14825903483864697,0.10674023692550774,0.2810483481656141,0.04017756312448518,-0.13782083811850995,0.2635841137067106,0.212,-44.16,-5.18,-14.84,2.08,-0.5,0.012
263,0.2904521484375,0.154609375,0.102572265625,0.2827021484375,0.0569208984375,-0.135193359375,0.25905078125,0.2934368736943251,0.14562304120210962,0.1071318893671584,0.28026068850333197,0.036739221665974396,-0.14151445537795992,0.2641769898388012,-0.264,-43.676,-5.48,-14.132,2.184,-0.48,0.056
264,0.290966796875,0.1520361328125,0.103005859375,0.2819716796875,0.054029296875,-0.138912109375,0.259658203125,0.2937589507718528,0.14297029512750836,0.10752364920588353,0.2794566803233848,0.033292203841851116,-0.14518424485247453,0.26476601723398724,-0.104,-43.892,-5.688,-13.4,1.972,-0.728,0.032
265,0.291275390625,0.1493603515625,0.103294921875,0.28125,0.0505302734375,-0.143443359375,0.26027734375,0.29407267601975706,0.14030866568965994,0.10791422167404492,0.2786398370124492,0.029852791571643878,-0.1488121807487718,0.2653480309356228,-0.052,-43.728,-5.272,-13.812,1.768,-0.12,0.044
266,0.291583984375,0.14678125,0.1035830078125,0.2802392578125,0.0468251953125,-0.1459228515625,0.2608974609375,0.2943783900797548,0.1376307140597116,0.1083049282846998,0.27780648661720675,0.02640357954924575,-0.15241822986225692,0.2659266855607593,-0.104,-42.544,-5.316,-13.216,2.06,-0.408,0.064
267,0.29199609375,0.144208984375,0.1038720703125,0.279517578125,0.0437265625,-0.1500546875,0.26150390625,0.29467686817622213,0.13493198753480887,0.10869652066669323,0.27695540764221466,0.022941473338142254,-0.15600449818725529,0.26650236451589715,-0.316,-41.68,-4.996,-13.424,1.932,-0.656,0.044
268,0.2922080078125,0.141732421875,0.1043046875,0.278498046875,0.0400205078125,-0.15437890625,0.26191796875,0.2949651731058599,0.1322442384719325,0.10908397005422239,0.27609838661878056,0.019515706043596953,-0.1595181939922398,0.26706624589046646,-0.476,-41.948,-5.132,-13.468,2.028,-0.172,0.084
269,0.2925166015625,0.139056640625,0.105171875,0.2776318359375,0.036728515625,-0.157271484375,0.262537109375,0.2952441285919747,0.12955434653564504,0.10946988204460283,0.2752289332021796,0.01609594466109011,-0.16299489413212395,0.26762482661536746,0.0,-43.728,-5.92,-13.444,1.936,-0.572,0.064
270,0.2928251953125,0.1362724609375,0.1056044921875,0.2770537109375,0.0330234375,-0.1615966796875,0.2629501953125,0.2955179395965689,0.12682205230782267,0.10985986350765277,0.2743346468000357,0.012635032879992595,-0.1664800227577361,0.26818524812379396,0.156,-45.728,-6.268,-14.612,1.848,-0.644,0.044
271,0.29303125,0.1335966796875,0.1056044921875,0.2760341796875,0.0282724609375,-0.1646953125,0.26336328125,0.2957850570449262,0.12406018348892696,0.11025196809018944,0.27341972282511884,0.009151088367842045,-0.16995391856733222,0.26874440659375565,0.372,-45.188,-5.432,-14.612,2.44,-0.608,0.084
272,0.29333984375,0.1308173828125,0.1060283203125,0.2753125,0.025599609375,-0.1675869140625,0.2641767578125,0.296042170829821,0.12130952601635166,0.1106403879720046,0.2724979836408899,0.005699051218817946,-0.1733615318862985,0.26929347151843974,0.104,-44.376,-5.132,-14.452,2.316,-1.152,0.076
273,0.2935458984375,0.1281357421875,0.1066064453125,0.2743017578125,0.0221005859375,-0.172119140625,0.26458984375,0.2962920118348467,0.11853498927286452,0.11103038147213579,0.2715567021308604,0.0022279533051836518,-0.17675513379398344,0.2698412330846963,0.156,-44.324,-5.364,-14.428,2.048,-0.752,0.056
274,0.293751953125,0.125666015625,0.1070390625,0.27283984375,0.019208984375,-0.1750107421875,0.2652099609375,0.29653223584914334,0.11577287928062009,0.11141639813414532,0.2706102520094757,-0.00120575880778871,-0.18007586774307047,0.2703776606102106,0.0,-44.268,-5.62,-13.308,2.1,-0.5,0.12
275,0.294060546875,0.12309375,0.107328125,0.2718291015625,0.0167421875,-0.1779033203125,0.2658291015625,0.2967651710028706,0.11298412576921185,0.11180457016934846,0.269642775149124,-0.004663223618642619,-0.1833864170608719,0.2709136210135309,-0.316,-43.46,-5.528,-12.532,1.572,-0.728,0.088
276,0.2941630859375,0.120314453125,0.1077607421875,0.270818359375,0.0122109375,-0.18140234375,0.2662421875,0.2969911365463726,0.11016989448990619,0.11219453211706248,0.2686550497610595,-0.008140099518477804,-0.18668188631838595,0.2714484304276121,0.0,-42.976,-5.572,-12.872,1.848,-0.336,0.104
277,0.2944716796875,0.117220703125,0.1080498046875,0.269943359375,0.00869921875,-0.1832607421875,0.26665625,0.29720816923131954,0.10735650564701447,0.11258249887272948,0.2676573317649624,-0.011597836235360247,-0.18992271489928572,0.271975371864748,0.316,-44.324,-5.528,-13.652,2.152,-0.668,0.104
278,0.294677734375,0.11433984375,0.1081943359375,0.2693662109375,0.0052001953125,-0.18656640625,0.267275390625,0.2974164803406259,0.10454330680250756,0.11296869442353949,0.2666491399376371,-0.015038547526849067,-0.19311223729991783,0.27249516485782066,0.212,-44.216,-5.572,-14.636,2.128,-0.856,0.088
279,0.2948837890625,0.1116640625,0.1084833984375,0.2682109375,0.0010810546875,-0.1898583984375,0.26767578125,0.29761791288309003,0.10169943339984326,0.1133574975370285,0.26561845967446973,-0.018505918432625317,-0.19629238274527186,0.2730150526702289,0.212,-43.192,-5.156,-14.016,2.516,-0.512,0.156
280,0.29508984375,0.10887890625,0.109060546875,0.2673447265625,-0.0011904296875,-0.1931640625,0.2682958984375,0.29781050487332955,0.09885776410827919,0.11374429753691806,0.26457828736438177,-0.02195222341080988,-0.1994166246945281,0.2735270351372619,0.212,-44.648,-5.48,-13.924,1.944,-0.564,0.12
281,0.29519921875,0.105998046875,0.10962890625,0.2660361328125,-0.0055146484375,-0.1970888671875,0.268708984375,0.29799440968543767,0.09601353946606925,0.11413006517361209,0.26352519702014554,-0.02539208511623509,-0.2025010514467755,0.27403445892847844,0.316,-45.456,-5.988,-13.996,1.92,-0.408,0.148
282,0.295404296875,0.1032255859375,0.1097734375,0.264880859375,-0.009013671875,-0.200587890625,0.2691220703125,0.2981714342499401,0.09314297862107199,0.11451765870146616,0.2624525286894675,-0.02884344374336784,-0.20555792336681655,0.2745386858474819,0.424,-44.216,-5.548,-13.516,2.244,-0.296,0.16
283,0.2956103515625,0.1004404296875,0.1103505859375,0.263861328125,-0.0123193359375,-0.2034794921875,0.2697412109375,0.2983394114828093,0.09027770132722161,0.11490305706879471,0.26137070453624517,-0.032274065152215495,-0.20856096079572806,0.27503594924857505,-0.052,-44.052,-5.088,-13.308,1.84,-0.644,0.12
284,0.295712890625,0.0974560546875,0.111072265625,0.2628505859375,-0.0164375,-0.207611328125,0.2701416015625,0.2984998401486792,0.08739494265232596,0.11528920932214215,0.2602723978889776,-0.035706316835843216,-0.21152795605538982,0.275528965130096,0.156,-44.484,-5.872,-13.604,2.06,-0.492,0.168
285,0.2959189453125,0.0944716796875,0.111505859375,0.2616962890625,-0.01994921875,-0.210490234375,0.2709677734375,0.2986526098344146,0.0844899451410935,0.11567725407184118,0.25915282793266636,-0.03915746136242535,-0.21447649981556882,0.27602132253848305,0.156,-44.268,-5.712,-14.132,2.276,-0.452,0.16
286,0.296125,0.091583984375,0.1120830078125,0.2605322265625,-0.0232421875,-0.2133828125,0.271587890625,0.29879691805638786,0.08158393333682769,0.11606398640721229,0.2580223969218391,-0.04259240418261853,-0.21737348170270923,0.2765071354245131,0.0,-45.08,-5.712,-13.836,2.16,-0.928,0.136
287,0.2962275390625,0.088599609375,0.1122275390625,0.259666015625,-0.026740234375,-0.2173076171875,0.27198828125,0.2989322747259892,0.07869059979739683,0.11644749568731669,0.2568869992764487,-0.0459919155596536,-0.22020272805265503,0.27698364710210416,0.372,-44.0,-5.804,-14.108,2.132,-0.42,0.16
288,0.29643359375,0.0858212890625,0.1122275390625,0.2582216796875,-0.0300458984375,-0.219373046875,0.272607421875,0.29906013014129956,0.07577274574494823,0.11683312345033438,0.2557300954269947,-0.049409302094586875,-0.2230106473843714,0.27745910935121426,0.0,-42.812,-5.18,-13.24,2.164,-0.544,0.168
289,0.2965361328125,0.082830078125,0.1125078125,0.2572021484375,-0.033337890625,-0.222251953125,0.2732275390625,0.29918068987932506,0.07282229685694191,0.11722194809869303,0.2545483870844903,-0.0528516866178003,-0.2258013736579721,0.27793437438676116,-0.316,-43.728,-5.18,-13.172,2.044,-0.872,0.156
290,0.2966396484375,0.079845703125,0.1129404296875,0.2560478515625,-0.037056640625,-0.225763671875,0.273640625,0.2992916028996586,0.06991101508588783,0.11760411800375378,0.25337299706383337,-0.05622615590111852,-0.2284981659166087,0.2783959348088682,0.052,-44.972,-5.64,-14.064,2.236,-0.364,0.16
291,0.296845703125,0.07696484375,0.1130849609375,0.2545947265625,-0.040142578125,-0.2274169921875,0.2742470703125,0.29939501588533696,0.06697017122193057,0.1179893360782929,0.2521730500688223,-0.05962583709000405,-0.23117869093837556,0.27885770349817973,0.156,-44.484,-5.156,-13.516,2.244,-0.732,0.168
292,0.29705078125,0.0739736328125,0.1135185546875,0.2534306640625,-0.0432412109375,-0.2307216796875,0.2744541015625,0.2994906202529215,0.06401213500946203,0.11837558879018457,0.2509551832637902,-0.0630279645897736,-0.2338221149374246,0.27931601559410163,0.0,-44.268,-4.972,-13.172,2.016,-0.644,0.168
293,0.29705078125,0.0709892578125,0.114240234375,0.252275390625,-0.0469462890625,-0.234013671875,0.2748671875,0.29957734886141835,0.06107658731707642,0.11875749703081798,0.2497372854619453,-0.06638126442030076,-0.23638800384724196,0.27976347079147224,0.104,-44.484,-5.712,-13.764,2.16,-0.292,0.188
294,0.2972568359375,0.0680048828125,0.1145283203125,0.2506787109375,-0.05023828125,-0.235873046875,0.2752802734375,0.2996560553949715,0.05812800827091851,0.11914033047751145,0.24850176081361175,-0.06973925962726295,-0.2389201746859943,0.28020838245741825,-0.156,-44.324,-5.62,-13.584,2.184,-0.628,0.168
295,0.2972568359375,0.0649111328125,0.1149619140625,0.2495234375,-0.05375,-0.2391787109375,0.2754873046875,0.2997269503281659,0.05516035780234429,0.1195246991994153,0.2472464401985142,-0.07310443797340715,-0.24141877674309148,0.28065079806124926,-0.316,-45.132,-5.18,-13.72,2.224,-0.688,0.168
296,0.297359375,0.0619267578125,0.11539453125,0.248359375,-0.0572490234375,-0.2420703125,0.2761064453125,0.29978963486776394,0.052189093981256526,0.11990860628579166,0.24597838726054963,-0.07645723377272086,-0.24386923705953706,0.2810880773415775,0.212,-44.756,-5.156,-13.856,2.264,-0.48,0.168
297,0.297462890625,0.0590458984375,0.1155390625,0.246771484375,-0.06034765625,-0.24413671875,0.2765068359375,0.2998444162512581,0.04919415844577477,0.12029503901232322,0.24468637735540602,-0.07983116561224998,-0.24629712192245992,0.28152545464454115,0.156,-44.268,-4.648,-13.444,2.14,-0.716,0.172
298,0.2975654296875,0.0561572265625,0.1158193359375,0.245173828125,-0.0632265625,-0.2472216796875,0.276919921875,0.29989054670203286,0.046231997136332345,0.12067537207149202,0.243403395637395,-0.08312755445069275,-0.2486241442733191,0.28194717624482973,-0.156,-43.836,-4.648,-12.804,2.088,-0.74,0.188
299,0.2976689453125,0.0532763671875,0.116251953125,0.24373046875,-0.0657060546875,-0.2499072265625,0.2775400390625,0.29992875095218496,0.04324370932648131,0.12105891409550583,0.24209359546661138,-0.08645243156365175,-0.25093514193715083,0.28237055384177023,-0.372,-42.976,-4.972,-12.372,1.924,-0.428,0.16
300,0.297771484375,0.05039453125,0.116396484375,0.2421328125,-0.0685849609375,-0.2515595703125,0.277953125,0.2999587969386278,0.0402519601616272,0.1214419189602958,0.2407717577137773,-0.08976214827545641,-0.25319424188446915,0.28278831619061534,-0.528,-43.136,-4.948,-12.12,1.736,-0.604,0.136
301,0.297771484375,0.04730078125,0.116685546875,0.240833984375,-0.0723037109375,-0.25383203125,0.278353515625,0.2999805959279554,0.03726783747730122,0.12182331102760785,0.23944135054772295,-0.09304807097434556,-0.25539727052505645,0.28319981732887095,-0.476,-44.108,-4.856,-13.032,2.036,-0.716,0.14
302,0.297771484375,0.044111328125,0.1171181640625,0.2398232421875,-0.0758017578125,-0.25569140625,0.27897265625,0.29999429729302646,0.03427932143373579,0.12220423975983902,0.23809945530639623,-0.0963164559882822,-0.2575465305153384,0.28360543793936765,-0.372,-44.916,-5.016,-14.156,2.368,-0.728,0.116
303,0.297771484375,0.041126953125,0.1172626953125,0.2386591796875,-0.079107421875,-0.2571376953125,0.2793857421875,0.2999998707675646,0.03126059145579262,0.12258871001589969,0.2367298045801056,-0.09960971393070309,-0.25967246407499706,0.2840114702440485,-0.372,-44.484,-4.556,-14.748,2.376,-1.02,0.104
304,0.297771484375,0.038033203125,0.1176962890625,0.2373603515625,-0.0823994140625,-0.259203125,0.280005859375,0.2999972694277146,0.028274760222850456,0.12296809005435179,0.23536556623588772,-0.10284336853009629,-0.261717125574239,0.2844063924874238,-0.372,-44.648,-4.252,-14.476,2.392,-0.96,0.096
305,0.2976689453125,0.0349453125,0.1182734375,0.2361962890625,-0.0850849609375,-0.26126953125,0.2804189453125,0.29998658547198487,0.025284307928362598,0.1233475884360255,0.23398649151135928,-0.10607032701797632,-0.263717478085885,0.2847977543199052,-0.316,-44.592,-4.648,-14.316,2.164,-0.688,0.036
306,0.2976689453125,0.0318583984375,0.1187060546875,0.234751953125,-0.088376953125,-0.2629091796875,0.281025390625,0.29996770836865205,0.022275394051423245,0.12372901179646295,0.2325868029831802,-0.10930098218701234,-0.2656778033702278,0.2851862657704823,-0.264,-44.648,-4.9,-13.948,1.944,-0.752,0.012
307,0.2976689453125,0.0288671875,0.1187060546875,0.233732421875,-0.0914755859375,-0.264767578125,0.2814384765625,0.2999406088308449,0.019257547554332965,0.12411083897571488,0.23117187239124606,-0.1125225908403266,-0.26759062943544004,0.28557064574607705,-0.104,-43.676,-4.348,-13.788,1.972,-0.624,0.044
308,0.2976689453125,0.0257802734375,0.1188505859375,0.232423828125,-0.094974609375,-0.2662138671875,0.2816455078125,0.2999054352515732,0.01624859163220452,0.12449102634273151,0.2297497616644896,-0.11571608344230805,-0.26944345677182047,0.28594833044147333,-0.052,-42.704,-3.976,-13.764,2.016,-0.664,0.064
309,0.2975654296875,0.022693359375,0.119275390625,0.23126953125,-0.0982802734375,-0.2678662109375,0.28205859375,0.299861895600139,0.013221175191373268,0.12487332101684967,0.22830538576194875,-0.11891680576095996,-0.27125773571831924,0.2863240527551391,0.104,-42.76,-4.252,-14.224,2.1,-0.748,0.032
310,0.2975654296875,0.0197021484375,0.1197080078125,0.22981640625,-0.1019853515625,-0.2699326171875,0.282265625,0.29981041117776486,0.01020866066756406,0.1252531683996396,0.22685748708267592,-0.1220806836616881,-0.273007645019991,0.2866921564707626,0.156,-43.352,-4.184,-14.452,2.2,-0.676,0.052
311,0.2975654296875,0.0167177734375,0.1201416015625,0.2288056640625,-0.1046708984375,-0.2715849609375,0.2826650390625,0.29975108973435305,0.007213169711110088,0.12563026404876512,0.22540757119177207,-0.1252044671905659,-0.274691227440521,0.2870522164470095,0.156,-44.432,-4.484,-14.476,2.192,-0.604,0.024
312,0.2975654296875,0.0137333984375,0.1204296875,0.2273623046875,-0.1079765625,-0.2732373046875,0.283078125,0.29968320788312675,0.004191634666288099,0.12601057657437667,0.22393077946904846,-0.12834469350093647,-0.27634091673366307,0.2874116165814603,0.156,-44.0,-4.276,-14.84,2.044,-0.624,0.024
313,0.2975654296875,0.0107431640625,0.12086328125,0.2260537109375,-0.111474609375,-0.2753037109375,0.2834912109375,0.299607003094606,0.00116427796657878,0.12639121320020252,0.22244017188825427,-0.1314697273810559,-0.27793781807929036,0.2877660651107676,0.104,-45.564,-4.184,-14.976,2.392,-0.576,0.036
314,0.2975654296875,0.007861328125,0.12115234375,0.224609375,-0.1145732421875,-0.277162109375,0.2839052734375,0.2995226957348763,-0.001861398558382159,0.12677156645388218,0.22093651240605328,-0.13458029845076327,-0.27948325678799457,0.2881162825880356,0.104,-45.188,-4.092,-15.436,2.36,-0.616,0.016
315,0.2975654296875,0.0049794921875,0.1217294921875,0.2231572265625,-0.1176591796875,-0.279421875,0.284318359375,0.29943077901159393,-0.004866670130835401,0.12714908829689545,0.21943107863717518,-0.13765190591855947,-0.28096444776980123,0.2884591225409869,0.052,-45.512,-4.232,-14.428,2.36,-0.552,0.032
316,0.2975654296875,0.0019892578125,0.1222978515625,0.221857421875,-0.1205517578125,-0.281900390625,0.2847177734375,0.2993302987264318,-0.007885047347821434,0.12752796269755065,0.2179075424720268,-0.1407163393090052,-0.28239665745994863,0.2887980842835019,0.052,-44.916,-4.464,-14.68,2.08,-0.26,-0.024
317,0.2975654296875,-0.0009951171875,0.1224423828125,0.2202607421875,-0.12405078125,-0.283140625,0.2851318359375,0.2992212949675595,-0.010915856271961984,0.12790843838195318,0.21636418981609676,-0.14377914308428472,-0.283782471153459,0.2891341828144856,0.052,-43.836,-4.208,-14.408,2.224,-0.5,0.016
318,0.2976689453125,-0.0039794921875,0.1227314453125,0.2189609375,-0.12735546875,-0.2849990234375,0.285544921875,0.2991047903824262,-0.01392204733261021,0.12828530003134458,0.21482369438167437,-0.14679061289340511,-0.2850981068191497,0.28946119956631916,-0.212,-44.0,-3.768,-14.476,2.316,-0.572,0.012
319,0.2976689453125,-0.0070732421875,0.12330859375,0.2175087890625,-0.1306611328125,-0.2864453125,0.2857509765625,0.2989798052183945,-0.016941061658019813,0.12866395025011468,0.21326223295770733,-0.14980219230528846,-0.2863682388002082,0.28978582257048147,-0.104,-45.348,-4.464,-15.388,2.296,-0.532,-0.012
320,0.297771484375,-0.0100576171875,0.12330859375,0.2157763671875,-0.1341591796875,-0.2878916015625,0.2859580078125,0.2988465855657629,-0.01995921728406839,0.12904250252498098,0.21168825187832255,-0.15279556788823537,-0.28758390883708146,0.2901056351529936,-0.212,-45.512,-4.3,-14.908,2.452,-0.656,0.0
321,0.297771484375,-0.0130419921875,0.1237412109375,0.214025390625,-0.1372578125,-0.2891435546875,0.28637109375,0.298704967581555,-0.02298165819099015,0.12942171160125393,0.2100984516551506,-0.15577657600459213,-0.28874721321097097,0.29042144774867595,-0.372,-45.24,-3.908,-14.588,2.42,-0.656,0.016
322,0.2976689453125,-0.0159296875,0.1244638671875,0.2121484375,-0.14034375,-0.29058984375,0.2865771484375,0.29855619394051874,-0.025976451128170142,0.12979719606321738,0.20851296578343034,-0.1587058131732937,-0.28984234205040393,0.2907285727043298,-0.212,-45.296,-4.348,-14.384,2.232,-0.592,-0.004
323,0.297771484375,-0.0189140625,0.124751953125,0.2101181640625,-0.1434423828125,-0.2918291015625,0.2867841796875,0.2983984336435114,-0.028991841237488228,0.13017559342265392,0.20690099993487698,-0.16164364322482375,-0.29089330560817017,0.2910342940485355,-0.316,-45.188,-4.276,-14.016,2.12,-0.436,0.0
324,0.297771484375,-0.0218984375,0.125185546875,0.208376953125,-0.146541015625,-0.29244921875,0.2871845703125,0.2982329792372263,-0.031991328672293255,0.13055189503363174,0.20528661138749796,-0.16454131237646136,-0.2918811240275536,0.2913326897000506,-0.212,-44.916,-4.208,-13.516,2.184,-0.596,-0.012
325,0.297771484375,-0.0249921875,0.12546484375,0.2069326171875,-0.1492138671875,-0.293275390625,0.28759765625,0.2980597700563563,-0.03498315414872034,0.13092753064751292,0.20366263961919498,-0.16741575326126135,-0.292812678340147,0.29162610814731754,-0.212,-43.62,-4.392,-14.268,2.068,-0.52,0.004
326,0.297771484375,-0.0280791015625,0.12575390625,0.205046875,-0.1527255859375,-0.2936884765625,0.2878037109375,0.2978793502929694,-0.03795554032245972,0.13130083244715463,0.20203638343765407,-0.17025229301400782,-0.2936833906030157,0.2919129316937174,-0.264,-43.676,-3.952,-13.924,2.284,-0.556,0.012
327,0.297771484375,-0.0311669921875,0.12604296875,0.203603515625,-0.154791015625,-0.29430859375,0.288216796875,0.2976874470002639,-0.040984516720476,0.13168167921926732,0.20036441291359644,-0.17312656541610366,-0.29451556787358557,0.2922010009752942,-0.212,-44.268,-4.208,-14.176,2.236,-0.664,0.004
328,0.2976689453125,-0.0340546875,0.1263310546875,0.2017177734375,-0.158083984375,-0.294927734375,0.288423828125,0.29749007907255365,-0.04396269397785579,0.13205616493070618,0.19870882949786803,-0.17592978585661248,-0.2952767839355082,0.29247898263368494,-0.052,-43.676,-4.0,-14.108,2.232,-0.608,-0.004
329,0.297771484375,-0.0369365234375,0.1266201171875,0.1998408203125,-0.1605625,-0.2955478515625,0.2886298828125,0.2972857719685773,-0.046918257311233495,0.1324281493928398,0.19705279185541266,-0.17869256579034015,-0.2959772961619288,0.29275030588569045,-0.156,-44.54,-3.952,-13.676,2.356,-0.556,0.016
330,0.2976689453125,-0.039919921875,0.127197265625,0.1980986328125,-0.163041015625,-0.2959609375,0.2888369140625,0.2970711180791441,-0.04990846577812264,0.13280502330123112,0.19536161226661009,-0.18147362127206856,-0.2966317962568436,0.2930210452443662,0.0,-43.892,-4.068,-13.676,1.952,-0.544,-0.024
331,0.2976689453125,-0.0429111328125,0.127486328125,0.196212890625,-0.166126953125,-0.2963740234375,0.2892373046875,0.29684708649038155,-0.05290548173249481,0.13318278954540613,0.1936560187658486,-0.1842330945939358,-0.2972285072712375,0.293286461409476,0.0,-45.348,-4.208,-13.652,2.236,-0.596,0.004
332,0.2976689453125,-0.0458955078125,0.127919921875,0.1946162109375,-0.1688125,-0.2967744140625,0.289443359375,0.2966181519740855,-0.05585577371034885,0.13355528298089012,0.19196188234806075,-0.18693416617390676,-0.2977613071059029,0.29354386092132145,0.0,-45.024,-4.252,-14.176,2.204,-0.584,-0.012
333,0.2976689453125,-0.0489892578125,0.1283525390625,0.1928740234375,-0.1719111328125,-0.2971875,0.2898564453125,0.296379161912256,-0.05882834933477432,0.13393110736274733,0.19023992726275588,-0.1896383578331038,-0.29824218726354224,0.29379897417521744,0.052,-44.864,-4.416,-14.248,2.328,-0.688,0.012
334,0.2976689453125,-0.0521796875,0.1287763671875,0.1914306640625,-0.1747900390625,-0.2973935546875,0.2900634765625,0.29613521021922845,-0.06175240294299538,0.1343010599582235,0.18853457360752943,-0.19227434043555594,-0.2986586739173201,0.2940448389420958,0.0,-45.348,-4.3,-14.476,2.356,-0.664,0.004
335,0.2976689453125,-0.0552666015625,0.1292099609375,0.189833984375,-0.1774755859375,-0.2976005859375,0.2904765625,0.29587897350285997,-0.0647266197885105,0.13467816308196334,0.1867838128126787,-0.19493952708994647,-0.2990260622058398,0.2942908893854751,0.156,-45.188,-4.368,-14.588,2.388,-0.74,0.0
336,0.2976689453125,-0.0583603515625,0.129642578125,0.18795703125,-0.1803681640625,-0.2982197265625,0.2908896484375,0.29561579797716375,-0.06768001953012721,0.13505320096258233,0.18503095167383302,-0.19756636993072224,-0.29933360470989084,0.2945307840229454,0.104,-45.08,-4.16,-14.108,2.388,-0.696,-0.004
337,0.2976689453125,-0.0612421875,0.129787109375,0.1860703125,-0.1830400390625,-0.2986337890625,0.2910966796875,0.29534703257817946,-0.07059491583497378,0.1354238361507083,0.18328773978927895,-0.20013663477333873,-0.29958041332981383,0.29476275954155684,0.052,-43.836,-4.116,-13.676,2.316,-0.676,0.012
