EmanuelSamir/lab201_ws_projsamir/sawyer_dev/data/sawyer/temp/test_drad_discrete.csv
,j1,j2,j3,j4,j5,j6,j7,v1,v2,v3,v4,v5,v6,v7,jd1,jd2,jd3,jd4,jd5,jd6,jd7,e1,e2,e3,e4,e5,e6,e7
0,0.0,0.0,0.0,0.0,0.0,0.0,0.0,0.0,0.0,0.0,0.0,0.0,0.0,0.0,0.0,0.0,0.0,0.0,0.0,0.0,0.0,0.0,0.0,0.0,0.0,0.0,0.0,0.0
1,0.002224609375,0.0019892578125,-0.000267578125,-0.000216796875,0.0033408203125,-0.000751953125,0.0026396484375,-0.001,-0.001,-0.001,-0.001,-0.001,-0.001,-0.001,0.0,0.0,0.0,0.0,0.0,0.0,0.0,-0.584,-44.216,-4.392,-13.696,2.4,-0.72,0.052
2,0.002224609375,0.0019892578125,-0.000267578125,-0.000216796875,0.0033408203125,-0.000751953125,0.0026396484375,-0.001,-0.001,-0.001,-0.001,-0.001,-0.001,-0.001,0.0012478336014375606,0.001439546625125551,0.001388781973121112,0.0013433447822288728,0.0012892816209590207,0.001373658853838011,0.001258226382199671,-0.636,-44.16,-4.368,-13.744,2.392,-0.732,0.044
3,0.002224609375,0.0019892578125,-0.000267578125,-0.000216796875,0.0033408203125,-0.000751953125,0.0026396484375,-0.001,-0.001,-0.001,-0.001,-0.001,-0.001,-0.001,0.002745200190498326,0.0031669507837540855,0.003055273837606707,0.002955316434342602,0.0028363823591509634,0.0030220044778876244,0.0027680634582974823,-0.636,-44.16,-4.3,-13.764,2.4,-0.728,0.036
4,0.002224609375,0.0019892578125,-0.000267578125,-0.000216796875,0.0033408203125,-0.000751953125,0.0026396484375,-0.001,-0.001,-0.001,-0.001,-0.001,-0.001,-0.001,0.004304884248681389,0.004966218334153558,0.00479110249513409,0.004634362736452312,0.004447865324155064,0.004738934044880143,0.004340735772863838,-0.584,-44.16,-4.324,-13.72,2.38,-0.732,0.052
5,0.002224609375,0.0019892578125,-0.000267578125,-0.000216796875,0.0033408203125,-0.000751953125,0.0026396484375,-0.001,-0.001,-0.001,-0.001,-0.001,-0.001,-0.001,0.005864451933002537,0.006765307211627654,0.0065267707229553894,0.006313263845464762,0.006059219929660726,0.006455708366146076,0.00591328878165311,-0.636,-44.16,-4.368,-13.764,2.392,-0.72,0.036
6,0.002224609375,0.0019892578125,-0.000267578125,-0.000216796875,0.0033408203125,-0.000751953125,0.0026396484375,-0.001,-0.001,-0.001,-0.001,-0.001,-0.001,-0.001,0.007423861083695371,0.008564152689164571,0.008262220402350768,0.007991967161947007,0.0076703996741096,0.008172271200793637,0.007485679262808792,-0.636,-44.16,-4.508,-13.652,2.38,-0.74,0.052
7,0.002224609375,0.0019892578125,-0.000412109375,-0.000216796875,0.0033408203125,-0.000751953125,0.0026396484375,-0.001,-0.001,-0.001,-0.001,-0.001,-0.001,-0.001,0.008983069545279148,0.010362690048509478,0.009997393421918466,0.009670420092662889,0.00928135806098961,0.009888566314859279,0.009057863998941481,-0.156,-43.296,-4.348,-13.696,2.392,-0.732,0.044
8,0.0024306640625,0.002400390625,-0.0005556640625,-0.0007939453125,0.0035478515625,-0.000751953125,0.0026396484375,0.006,0.018,-0.016,-0.022,0.006,-0.001,-0.001,0.010542035167698364,0.01216085458249293,0.011732231679520673,0.011348570052220756,0.010892048600176785,0.011604537483149909,0.010629799778316708,2.656,-40.436,-3.444,-12.944,2.408,-0.74,0.052
9,0.0026357421875,0.0030185546875,2.1484375e-05,-0.0010830078125,0.0049931640625,-0.000958984375,0.0028466796875,0.021,0.048,0.009,-0.045,0.063,-0.011,0.002,0.012100715807462196,0.013958581597358863,0.013466677084229054,0.013026364464720955,0.01250242480927689,0.013320128491084802,0.01220144339604263,5.636,-37.684,-3.12,-11.48,2.184,-0.48,0.076
10,0.0029443359375,0.003642578125,0.0011767578125,-0.0012275390625,0.0068525390625,-0.0005458984375,0.003259765625,0.028,0.062,0.083,-0.024,0.172,0.005,0.025,0.013659069328783788,0.01575580641509216,0.01520067155826994,0.014703750765403015,0.014112440214966892,0.015035283136537172,0.013772751655257515,6.644,-35.9,-3.652,-10.06,1.484,-0.12,0.136
11,0.0035625,0.0043623046875,0.002177734375,-0.0007939453125,0.00869921875,0.0006806640625,0.004279296875,0.042,0.071,0.112,0.004,0.18,0.067,0.07,0.015217053604719293,0.01755246437574558,0.01693415703896904,0.016380676402292495,0.015722048354336073,0.016749945231675355,0.01534368136831701,8.132,-34.172,-3.512,-8.984,1.164,0.148,0.18
12,0.0042890625,0.005185546875,0.0034775390625,-0.000216796875,0.0101455078125,0.0029521484375,0.005712890625,0.066,0.074,0.112,0.05,0.174,0.165,0.124,0.016774626518306697,0.019348490839766107,0.018667075480695697,0.018057088837847405,0.01733120277622692,0.018464058604803477,0.01691418935798119,7.76,-33.256,-3.304,-8.824,1.176,-0.068,0.208
13,0.00521484375,0.0061123046875,0.0049208984375,0.0009462890625,0.0115908203125,0.005431640625,0.007765625,0.079,0.082,0.127,0.088,0.147,0.248,0.161,0.018331745963704356,0.02114382119032051,0.020399368856806495,0.019732935550604205,0.018939857042575645,0.020177567102201657,0.01848423245860125,8.824,-32.444,-2.704,-9.512,1.464,-0.22,0.232
14,0.0064501953125,0.007552734375,0.006509765625,0.0018125,0.014056640625,0.0085166015625,0.009818359375,0.105,0.112,0.152,0.102,0.182,0.276,0.211,0.019888369847329296,0.022938390835620107,0.022130979161588328,0.02140816403682328,0.020547964729752313,0.02189041458996556,0.020053767517305955,8.24,-31.852,-2.612,-9.948,1.632,-0.304,0.232
15,0.00769140625,0.0089931640625,0.0090986328125,0.003255859375,0.01694921875,0.0105830078125,0.012078125,0.12,0.149,0.202,0.1,0.255,0.286,0.211,0.021444456088995065,0.024732135211244642,0.023861848412200688,0.023082721812133875,0.022155479429900603,0.023602544955845333,0.021622751395187687,7.656,-34.552,-3.584,-9.076,1.568,-0.22,0.292
16,0.0092353515625,0.0106396484375,0.0114091796875,0.0052861328125,0.02003515625,0.0124287109375,0.014130859375,0.139,0.15,0.256,0.19,0.334,0.169,0.221,0.022999962623049337,0.026524989782465164,0.025591918650617225,0.0247565564131784,0.02376235475227704,0.025313902111083843,0.023191140968488122,7.068,-34.984,-4.648,-10.632,1.02,0.384,0.224
17,0.0108876953125,0.01291015625,0.01269921875,0.00644140625,0.0216875,0.016353515625,0.0163896484375,0.159,0.195,0.184,0.155,0.235,0.275,0.215,0.02455484739951105,0.02831689004656581,0.027321131945566467,0.0264296153992561,0.025368544324589813,0.027024429992254108,0.024758893129783518,6.22,-35.308,-3.444,-10.06,1.624,-0.116,0.292
18,0.012740234375,0.01496875,0.015009765625,0.0089052734375,0.02456640625,0.0188203125,0.0188564453125,0.172,0.222,0.167,0.159,0.195,0.341,0.23,0.026109068385207164,0.03010777153516452,0.029049430394471647,0.02810184635396603,0.02697400179433699,0.028734072563095913,0.026325964789169497,5.42,-35.524,-3.4,-10.52,1.984,-0.292,0.26
19,0.0147021484375,0.017541015625,0.017021484375,0.010791015625,0.0270458984375,0.021091796875,0.0209091796875,0.192,0.219,0.223,0.242,0.305,0.213,0.235,0.027662583564908923,0.03189756981653237,0.030776756125389566,0.029773196886849197,0.02857868083014421,0.030442773816351566,0.027892312875445413,5.316,-36.604,-4.0,-12.28,1.664,0.044,0.128
20,0.01686328125,0.020216796875,0.01904296875,0.0126767578125,0.0299248046875,0.0233515625,0.0229619140625,0.205,0.272,0.196,0.164,0.235,0.253,0.208,0.0292153509424677,0.03368622049791179,0.03250305129894844,0.031443614635029954,0.030182535123101744,0.032150477775600685,0.02945789433729813,4.732,-39.088,-3.72,-10.036,2.08,-0.232,0.168
21,0.0190302734375,0.0224873046875,0.02177734375,0.0163037109375,0.033423828125,0.024384765625,0.0248076171875,0.22,0.25,0.247,0.284,0.343,0.161,0.203,0.030767328541950217,0.035473659227833174,0.03422825811028463,0.03311304726485655,0.03178551838810093,0.033857128497093936,0.031022666144485345,3.296,-39.788,-5.456,-11.776,1.508,0.168,0.068
22,0.021404296875,0.0254716796875,0.023220703125,0.0183251953125,0.03425,0.0272763671875,0.026447265625,0.225,0.254,0.224,0.303,0.241,0.168,0.175,0.03231847440877333,0.03725982169843016,0.035952318790978266,0.0347814424735407,0.033387584365169864,0.03556267007158574,0.03258658528901823,3.028,-40.6,-4.648,-12.712,2.028,-0.068,0.084
23,0.0236748046875,0.02825,0.025376953125,0.02064453125,0.0354892578125,0.0297421875,0.027673828125,0.235,0.295,0.162,0.191,0.074,0.312,0.141,0.03386874661083819,0.03904464364775319,0.03767517561098757,0.03644874799079619,0.03498868682080843,0.03726704662616589,0.03414960878634356,1.116,-42.868,-3.86,-12.804,2.916,-0.888,0.116
24,0.026041015625,0.0309326171875,0.0279755859375,0.0241181640625,0.0383681640625,0.0297421875,0.02870703125,0.234,0.269,0.243,0.298,0.224,0.128,0.116,0.03541810323966378,0.040828060862081655,0.039396770880582,0.03811491158047654,0.036588779549322575,0.03897020232608986,0.035711693676525116,0.424,-44.484,-5.272,-14.568,2.356,-0.44,0.052
25,0.0286201171875,0.0341220703125,0.029419921875,0.0258603515625,0.0394013671875,0.0311884765625,0.0297275390625,0.245,0.295,0.212,0.278,0.202,0.047,0.102,0.03696650241151981,0.042610009178234,0.04111704695227396,0.03977988104221151,0.03818781637415766,0.04067208137660797,0.03727279702542447,0.584,-44.432,-4.808,-13.584,2.392,-0.284,0.084
26,0.030890625,0.03700390625,0.031576171875,0.028169921875,0.0404345703125,0.032634765625,0.0305537109375,0.245,0.311,0.172,0.185,0.086,0.17,0.096,0.03851390226855901,0.044390424485876254,0.04283594622274908,0.04144360421304252,0.03978575114923115,0.04237262802479327,0.03883287592588103,-1.488,-46.428,-5.528,-13.516,2.668,-0.656,0.12
27,0.0332578125,0.03948046875,0.03388671875,0.0315087890625,0.041466796875,0.0332412109375,0.0315859375,0.23,0.265,0.232,0.291,0.131,0.093,0.096,0.04006026097994866,0.04616924272982859,0.04455341113479516,0.04310602896905695,0.04138253776026427,0.04407178656136783,0.04039188749889133,-1.86,-46.86,-6.22,-15.708,2.392,-0.388,0.068
28,0.035734375,0.042361328125,0.0351767578125,0.03339453125,0.0410537109375,0.0353076171875,0.0326064453125,0.246,0.268,0.183,0.271,0.03,0.11,0.1,0.04160553674300135,0.04794639991236978,0.04626938417922937,0.044767103227021106,0.04297813012611285,0.04576950132252795,0.04194978889478761,-0.848,-45.836,-4.924,-15.436,2.92,-0.644,0.104
29,0.0380048828125,0.0449345703125,0.037486328125,0.0358583984375,0.041673828125,0.036546875,0.0340390625,0.241,0.285,0.165,0.202,-0.007,0.202,0.122,0.043149687784305155,0.049721832095539806,0.04798380789682403,0.04642677494601201,0.04457248220009711,0.04746571669176752,0.04350653729441551,-1.54,-46.536,-5.316,-15.916,3.176,-1.052,0.084
30,0.040171875,0.04741015625,0.039931640625,0.0384658203125,0.0425,0.0367529296875,0.035279296875,0.222,0.25,0.25,0.27,0.096,0.062,0.131,0.04469267236085274,0.05149547540344009,0.04969662488023051,0.04808499212904778,0.04616554797133058,0.04916037710170013,0.04506208991031096,-3.296,-47.508,-6.776,-17.356,2.68,-0.552,0.044
31,0.0424296875,0.0501884765625,0.0415205078125,0.0401982421875,0.0427060546875,0.038392578125,0.0365048828125,0.224,0.264,0.201,0.214,0.043,0.08,0.125,0.046234448761169986,0.05326726602453176,0.051407777775901664,0.04974170282471677,0.04775728146604789,0.050853427035879376,0.04661640398787627,-3.136,-47.184,-5.964,-15.46,2.796,-0.544,0.096
32,0.044494140625,0.052349609375,0.0436767578125,0.0426611328125,0.0433134765625,0.0396328125,0.0379384765625,0.22,0.254,0.184,0.196,0.037,0.164,0.139,0.04777497530644336,0.055037140213931204,0.05311720928601218,0.05139685512880511,0.04934763674893149,0.05254481103061757,0.0481694368065551,-4.04,-47.832,-6.704,-16.1,2.744,-0.72,0.088
33,0.04644921875,0.054408203125,0.0455537109375,0.04498046875,0.0427060546875,0.041078125,0.039384765625,0.199,0.21,0.213,0.258,0.023,0.112,0.141,0.04931421035164687,0.0568050342957037,0.05482486217037731,0.05305039718592286,0.050936567924437307,0.054234473676802716,0.04972114568100685,-5.58,-48.696,-6.684,-17.424,2.74,-0.54,0.088
34,0.048513671875,0.0566787109375,0.04698828125,0.0470107421875,0.0431064453125,0.0435439453125,0.0408173828125,0.2,0.22,0.155,0.204,-0.035,0.199,0.135,0.05085211228666762,0.0585708846651542,0.05653067924836939,0.054702277191128655,0.05252402913811921,0.05592235962171373,0.051271487962279635,-3.24,-48.428,-5.364,-16.28,3.056,-0.916,0.12
35,0.05026953125,0.05853125,0.049154296875,0.04946484375,0.0439326171875,0.0447841796875,0.04245703125,0.197,0.204,0.177,0.23,0.066,0.203,0.159,0.052388639537430816,0.06033462779111567,0.05823460340083268,0.056352443391552744,0.0541099745779524,0.05760841357083368,0.05282042103898273,-2.604,-48.156,-6.036,-16.9,2.888,-0.804,0.096
36,0.0518134765625,0.060486328125,0.051021484375,0.05091796875,0.0439326171875,0.046849609375,0.04368359375,0.164,0.196,0.205,0.203,0.048,0.146,0.139,0.05392375056702361,0.0620962002182349,0.05993657757199602,0.0580008440880183,0.05569435847565536,0.05929258028966139,0.05436790233845758,-6.008,-50.48,-6.38,-17.06,3.044,-0.644,0.136
37,0.0535693359375,0.0623388671875,0.0524658203125,0.052650390625,0.0451728515625,0.0493154296875,0.0451298828125,0.167,0.195,0.172,0.156,0.049,0.238,0.136,0.0554574038768179,0.06385553856925534,0.061636544771383125,0.05964742763666131,0.057277135108010746,0.06097480460552072,0.05591388932794801,-4.996,-50.804,-6.196,-16.74,2.968,-1.008,0.084
38,0.05511328125,0.06419140625,0.0539091796875,0.0544013671875,0.0457919921875,0.0505546875,0.0463564453125,0.172,0.182,0.147,0.184,0.106,0.179,0.145,0.05698955800759228,0.0656125795472974,0.06333444807572118,0.061292142450548405,0.05885825879818489,0.06265503140936811,0.05745833951576919,-3.88,-49.4,-5.548,-16.92,2.916,-0.668,0.096
39,0.05645703125,0.0657412109375,0.05548828125,0.055998046875,0.04703125,0.053240234375,0.04799609375,0.139,0.173,0.148,0.158,0.066,0.179,0.137,0.05852017154065268,0.06736725993813567,0.06503023063084669,0.06293493700129311,0.060437683917045994,0.064333205657598,0.05900121045247558,-4.888,-49.236,-5.388,-16.28,3.168,-0.708,0.14
40,0.0578984375,0.0672841796875,0.0570673828125,0.0574423828125,0.0488779296875,0.05529296875,0.0496484375,0.141,0.158,0.161,0.157,0.165,0.262,0.163,0.06004920309895214,0.06911951661247315,0.0667238356536094,0.06457575982067025,0.06201536488448088,0.0660092723738458,0.06054245973202762,-2.656,-47.076,-5.18,-16.188,2.804,-0.896,0.128
41,0.0592353515625,0.06913671875,0.05822265625,0.05830859375,0.0505302734375,0.056533203125,0.0514951171875,0.142,0.166,0.135,0.124,0.163,0.165,0.174,0.06157661134820933,0.0708692865282126,0.06841520643377352,0.06621455950222842,0.06359125617071043,0.06768317665078921,0.06208204499295729,-0.796,-45.672,-4.252,-14.568,2.812,-0.384,0.188
42,0.060271484375,0.070578125,0.060234375,0.0596162109375,0.05299609375,0.0589990234375,0.0533408203125,0.121,0.166,0.154,0.101,0.209,0.173,0.181,0.06310235499802594,0.07261650673272466,0.07010428633591681,0.0678512847029005,0.06516531229760347,0.06935486365194674,0.06361992391953239,-3.136,-46.644,-5.016,-14.476,2.564,-0.42,0.2
43,0.061609375,0.0720185546875,0.0613896484375,0.060771484375,0.0550625,0.0606513671875,0.0551875,0.113,0.141,0.175,0.131,0.248,0.216,0.197,0.06462639280300284,0.07436111436511261,0.07179101880132696,0.06948588414461224,0.06673748783998926,0.07102427861347421,0.06515605424291966,-1.22,-46.32,-5.108,-14.704,2.38,-0.448,0.14
44,0.0627412109375,0.0732529296875,0.0626796875,0.0617822265625,0.0565078125,0.0625107421875,0.0568271484375,0.128,0.141,0.115,0.101,0.168,0.172,0.175,0.06614868356385514,0.07610304665847412,0.07347534734989543,0.07111830661588882,0.06830773742696836,0.07269136684595887,0.06669039374234645,-1.804,-47.076,-4.508,-14.656,2.772,-0.384,0.22
45,0.063673828125,0.0744951171875,0.0642685546875,0.06337890625,0.05959375,0.0645634765625,0.0588798828125,0.103,0.122,0.145,0.129,0.2,0.195,0.177,0.06766918612852596,0.07784224094215933,0.07515721558200869,0.07274850097345918,0.06987601574322203,0.07435607373621086,0.06822290024626126,-1.328,-46.104,-4.692,-15.344,2.752,-0.544,0.188
46,0.06501171875,0.075935546875,0.0655673828125,0.0641015625,0.062279296875,0.066009765625,0.0607265625,0.113,0.133,0.145,0.131,0.31,0.191,0.203,0.06918785939329875,0.07957863464402569,0.07683656718043681,0.0743764161438585,0.07144227753031991,0.07601834474905247,0.06975353163349281,0.9,-44.324,-4.116,-14.452,2.472,-0.572,0.16
47,0.0658349609375,0.077169921875,0.067291015625,0.065265625,0.0649521484375,0.06662890625,0.0623662109375,0.111,0.139,0.149,0.079,0.239,0.098,0.179,0.07070466230390855,0.08131216529268907,0.07851334591221916,0.07600200112502814,0.07300647758802618,0.0776781254291046,0.07128224583440765,-1.276,-46.428,-4.624,-13.72,2.596,-0.156,0.212
48,0.0668701171875,0.07819921875,0.06916796875,0.066708984375,0.0680380859375,0.0684755859375,0.0642255859375,0.092,0.114,0.189,0.14,0.315,0.105,0.17,0.07221955385665188,0.08304277051977144,0.08018749563054739,0.07762520498791364,0.07456857077560394,0.07933536140257069,0.07280900083206658,-0.744,-45.296,-5.712,-14.292,2.12,-0.212,0.108
49,0.06810546875,0.0796396484375,0.0701787109375,0.0674306640625,0.069896484375,0.0701279296875,0.065865234375,0.113,0.121,0.141,0.113,0.272,0.196,0.172,0.07373249309949506,0.08477038806214458,0.08185896027664556,0.07924597687806026,0.07612851201311796,0.08098999837901814,0.07433375466337948,1.804,-43.028,-4.16,-13.308,2.348,-0.54,0.088
50,0.069134765625,0.0807724609375,0.0721904296875,0.0690283203125,0.073189453125,0.070541015625,0.067517578125,0.114,0.129,0.135,0.102,0.215,0.11,0.158,0.07524343913318135,0.08649495576417042,0.08352768388164725,0.08086426601720623,0.07768625628273555,0.08264198215315664,0.07585646542025859,1.54,-42.328,-3.72,-13.056,2.584,-0.312,0.128
51,0.0700673828125,0.081904296875,0.0744921875,0.0703271484375,0.07689453125,0.0719873046875,0.06936328125,0.1,0.109,0.219,0.161,0.368,0.084,0.182,0.0767523511123365,0.088216411579937,0.08519361056846957,0.08248002170487362,0.07924175863002587,0.08429125860661406,0.07737709125077043,1.116,-42.544,-5.224,-13.676,1.972,-0.264,0.064
52,0.071404296875,0.0833515625,0.075646484375,0.0713466796875,0.0791669921875,0.0726064453125,0.07058984375,0.107,0.128,0.179,0.107,0.308,0.121,0.155,0.07825918824657305,0.08993469357549085,0.08685668455368437,0.08409319331995686,0.08079497416525709,0.08593777370970933,0.07889559036028604,0.848,-43.404,-4.74,-12.324,2.06,-0.368,0.076
53,0.0724404296875,0.0843798828125,0.07737890625,0.0732236328125,0.0816328125,0.0732265625,0.0720234375,0.121,0.13,0.141,0.138,0.23,0.046,0.139,0.07976390980159294,0.09164973993106525,0.08851685014938593,0.0857037303223085,0.0823458580646919,0.08758147352322239,0.08041192101262984,1.38,-41.84,-4.392,-12.92,2.308,-0.068,0.104
54,0.0736748046875,0.0858212890625,0.078669921875,0.0743876953125,0.0839052734375,0.075486328125,0.07367578125,0.116,0.122,0.159,0.172,0.264,0.135,0.158,0.08126647510028868,0.0933614889433043,0.09017405176505591,0.08731158225432281,0.08389436557188112,0.08922230420016124,0.08192604153122657,2.924,-40.112,-4.16,-13.24,2.224,-0.532,0.044
55,0.07491015625,0.08726171875,0.08040234375,0.0756962890625,0.085751953125,0.0758994140625,0.07490234375,0.125,0.147,0.142,0.101,0.192,0.161,0.143,0.082766843523843,0.09506987902748297,0.09182823390942464,0.08891669874251645,0.08544045199895536,0.09086021198752602,0.08343791030024697,1.912,-42.328,-4.044,-12.28,2.492,-0.576,0.108
56,0.07625390625,0.088599609375,0.08226953125,0.0777265625,0.0888505859375,0.0763125,0.0765419921875,0.122,0.134,0.192,0.176,0.242,0.008,0.14,0.08426497451282691,0.09677484871972268,0.09347934119232927,0.09051902949910676,0.0869840727279144,0.09249514322806984,0.08494748576575148,1.964,-41.14,-5.156,-13.192,2.056,-0.056,0.084
57,0.077591796875,0.0903486328125,0.0834248046875,0.0783037109375,0.0896767578125,0.078365234375,0.0775751953125,0.136,0.157,0.145,0.139,0.229,0.128,0.14,0.08576082756829613,0.09847633667920254,0.09512731832656848,0.0921185243235872,0.0885251832119152,0.09412704436205663,0.08645472643683239,2.392,-41.14,-4.556,-11.8,2.044,-0.48,0.088
58,0.0790390625,0.0916865234375,0.0851484375,0.080623046875,0.091935546875,0.0787783203125,0.0790078125,0.141,0.161,0.135,0.12,0.111,0.135,0.12,0.08725436225288583,0.10017428169036653,0.09677211012975388,0.09371513310430021,0.09006373897655708,0.09575586192901572,0.08795959088675423,2.552,-41.248,-4.232,-12.096,2.256,-0.292,0.136
59,0.080376953125,0.09333984375,0.087025390625,0.08206640625,0.0931748046875,0.0806376953125,0.080234375,0.142,0.136,0.19,0.211,0.21,0.098,0.132,0.08874553819190391,0.10186862266512564,0.09841366152615764,0.09530880582000702,0.09159969562116546,0.09738154256949319,0.0894620377540923,1.804,-40.436,-4.9,-13.356,1.964,-0.332,0.096
60,0.0820234375,0.0950888671875,0.08846875,0.0832216796875,0.094001953125,0.0822900390625,0.081267578125,0.143,0.174,0.163,0.111,0.086,0.201,0.112,0.09023431507442241,0.10355929864505578,0.10005191754855684,0.09689949254145495,0.09313300882007317,0.09900403302680004,0.09096202574386975,1.488,-42.38,-4.324,-11.868,2.308,-0.644,0.14
61,0.0836767578125,0.0966328125,0.0901923828125,0.085396484375,0.0962607421875,0.082896484375,0.0829072265625,0.165,0.164,0.161,0.18,0.172,0.089,0.134,0.09172065265436714,0.10524624880359094,0.10168682334007392,0.09848714343294165,0.09466363432389942,0.10062328014875661,0.09245951362869224,2.496,-40.976,-4.556,-13.124,1.816,-0.096,0.068
62,0.0852265625,0.0987939453125,0.09163671875,0.0859736328125,0.0962607421875,0.0862021484375,0.0841337890625,0.159,0.186,0.157,0.144,0.119,0.175,0.14,0.09320451075160578,0.10692941244821152,0.10331832415601364,0.10007170875387643,0.0961915279608271,0.10223923088943394,0.09395446024988134,2.392,-41.192,-4.16,-11.66,2.204,-0.54,0.168
63,0.0869765625,0.100337890625,0.09379296875,0.08829296875,0.098533203125,0.0872353515625,0.0857861328125,0.167,0.194,0.164,0.117,0.093,0.263,0.15,0.09468584925303403,0.108608729022628,0.10494636536569613,0.10165313886033858,0.09771664563787733,0.10385183231089176,0.0954468245186057,1.592,-42.328,-4.348,-11.844,1.952,-0.668,0.128
64,0.08862890625,0.1021962890625,0.0956611328125,0.0903232421875,0.099140625,0.0882548828125,0.08742578125,0.17,0.162,0.22,0.243,0.169,0.071,0.164,0.09616462811365993,0.11028413810895946,0.10657089245428628,0.10323138420663266,0.09923894334218188,0.10546103158491231,0.09693656541701032,1.488,-41.68,-5.272,-13.4,1.848,-0.012,0.14
65,0.0904814453125,0.1042548828125,0.0971044921875,0.091333984375,0.099759765625,0.0919736328125,0.088859375,0.174,0.204,0.155,0.142,0.038,0.244,0.151,0.09764080735768647,0.11195557942990746,0.10819185102461917,0.10480639534684102,0.10075837714225351,0.10706677599473129,0.09842364199934404,0.744,-42.812,-4.3,-11.776,2.308,-0.824,0.192
66,0.092134765625,0.10589453125,0.0992607421875,0.0940859375,0.10079296875,0.092580078125,0.0904990234375,0.179,0.188,0.18,0.183,0.096,0.233,0.154,0.09911434707959227,0.11362299285092461,0.10980918679902148,0.1063781229363725,0.10227490318925365,0.10866901293676476,0.09990801339308489,-0.528,-43.676,-5.316,-13.676,2.08,-0.5,0.156
67,0.093986328125,0.108158203125,0.100560546875,0.0955478515625,0.101412109375,0.095265625,0.092138671875,0.172,0.185,0.193,0.234,0.085,0.116,0.159,0.10058520744521024,0.11528631838237799,0.11142284562112889,0.10794651773350869,0.10378847771825786,0.11026768992233234,0.10138963880006342,0.372,-41.788,-5.156,-14.2,2.256,-0.224,0.208
68,0.095845703125,0.110326171875,0.102572265625,0.096703125,0.1018251953125,0.0983515625,0.0935849609375,0.189,0.227,0.142,0.107,0.035,0.343,0.154,0.10205334869280461,0.11694549618170758,0.11303277345769987,0.10951153060094665,0.10529905704951878,0.11186275457937685,0.10286847749758417,-0.9,-44.324,-4.556,-12.852,2.548,-1.02,0.232
69,0.097388671875,0.1118701171875,0.10502734375,0.099744140625,0.10346484375,0.0983515625,0.095224609375,0.169,0.186,0.227,0.219,0.114,0.147,0.153,0.10351873113414553,0.1186004665555791,0.11463891640042452,0.11107311250733817,0.10680659758972674,0.11345415465417993,0.10434448883954486,-1.592,-45.188,-6.66,-15.388,2.112,-0.036,0.22
70,0.099248046875,0.1141337890625,0.1060283203125,0.1008984375,0.10346484375,0.102263671875,0.0966572265625,0.168,0.183,0.19,0.228,0.1,0.158,0.16,0.10498131515558229,0.1202511699620318,0.11624122066772997,0.11263121452882612,0.10831105583326786,0.11504183801307384,0.10581763225755356,-0.584,-43.944,-5.92,-14.932,2.356,-0.388,0.22
71,0.1009970703125,0.1160888671875,0.1076171875,0.102919921875,0.1042919921875,0.1041220703125,0.098296875,0.183,0.219,0.107,0.125,0.014,0.347,0.155,0.10644106121911397,0.1218975470126205,0.11783963260658119,0.11418578785057712,0.10981238836347935,0.11662575264414946,0.10728786726204376,-0.264,-43.512,-4.392,-13.764,2.672,-0.856,0.292
72,0.102650390625,0.1178388671875,0.1097734375,0.1053837890625,0.106150390625,0.10494921875,0.0999501953125,0.171,0.182,0.199,0.25,0.145,0.099,0.176,0.10789792986345832,0.12353953847455228,0.11943409869427757,0.11573678376831079,0.11131055185390266,0.11820584665895986,0.10875515344338711,-0.316,-42.76,-5.596,-16.076,2.212,0.052,0.244
73,0.1043037109375,0.120005859375,0.111361328125,0.1065380859375,0.1067705078125,0.1082412109375,0.1013828125,0.163,0.199,0.196,0.182,0.12,0.203,0.146,0.10935188170511853,0.12517708527281776,0.12102456554024503,0.11728415368982589,0.11280550306953382,0.1197820682942207,0.1102194504730043,-1.648,-45.188,-6.06,-13.924,2.36,-0.428,0.336
74,0.106052734375,0.12165234375,0.1132294921875,0.1095791015625,0.10841015625,0.1088603515625,0.1030224609375,0.17,0.197,0.167,0.194,0.113,0.232,0.147,0.11080287743944801,0.12681012849231604,0.12261097988782395,0.11882784913652253,0.11429719886807102,0.12135436591350546,0.11168071810447333,-1.328,-45.024,-5.388,-14.588,2.236,-0.232,0.276
75,0.1076025390625,0.1235048828125,0.1145283203125,0.1113203125,0.10841015625,0.1113271484375,0.1044560546875,0.169,0.167,0.167,0.265,0.102,0.101,0.155,0.11225087784171262,0.12843860937997476,0.12419328861605235,0.12036782174492104,0.11578559620115976,0.12292268800893727,0.1131389161746357,-0.636,-44.592,-5.18,-16.12,2.556,-0.068,0.264
76,0.1092490234375,0.1254599609375,0.116107421875,0.1129091796875,0.1098564453125,0.11421875,0.1059013671875,0.163,0.197,0.129,0.149,0.043,0.313,0.143,0.11369584376815141,0.13006246934686364,0.12577143874144467,0.12190402326817702,0.11727065211563512,0.1244869832028763,0.11459400460470033,-1.432,-45.188,-4.252,-14.292,2.856,-0.988,0.22
77,0.11090234375,0.1271064453125,0.11812890625,0.1152275390625,0.111921875,0.11421875,0.1073349609375,0.165,0.177,0.183,0.209,0.186,0.146,0.148,0.11513773615703438,0.13168164997030246,0.12734537741976604,0.12343640557759328,0.11875232375476141,0.12604720024960284,0.11604594340134522,-1.86,-45.024,-5.248,-15.916,2.464,-0.324,0.188
78,0.112548828125,0.1292744140625,0.1194189453125,0.116248046875,0.1131484375,0.116271484375,0.108767578125,0.159,0.193,0.179,0.169,0.158,0.063,0.147,0.11657651602971889,0.13329609299596304,0.12891505194780145,0.1249649206641272,0.12023056835946873,0.12760328803699605,0.11749469265781656,-1.86,-45.836,-4.948,-14.2,2.532,-0.22,0.172
79,0.1140986328125,0.1310234375,0.12115234375,0.1181337890625,0.1152138671875,0.117923828125,0.1104072265625,0.162,0.206,0.141,0.123,0.166,0.222,0.16,0.11801214449170291,0.13490574033996489,0.13048040976512093,0.12648952063989533,0.12170534326958726,0.12915519558820845,0.11894021255502552,-2.392,-46.536,-4.924,-13.652,2.324,-0.608,0.136
80,0.1155400390625,0.132669921875,0.1224423828125,0.12001953125,0.116041015625,0.1187509765625,0.112060546875,0.151,0.164,0.161,0.209,0.165,0.098,0.165,0.1194445827336769,0.1365105340909652,0.1320413984558392,0.12801015773967336,0.12317660592507818,0.1307028720633358,0.12038246336264288,-1.38,-45.24,-4.996,-15.3,2.496,-0.172,0.104
81,0.11708984375,0.134419921875,0.12359765625,0.1208857421875,0.116853515625,0.1216298828125,0.113287109375,0.152,0.174,0.115,0.133,0.072,0.191,0.139,0.12087379203257258,0.13811041651224215,0.133597965750371,0.12952678432239276,0.12464431386726191,0.1322462667610828,0.12182140544019089,-3.188,-47.024,-4.044,-14.544,2.96,-0.844,0.14
82,0.1185302734375,0.135962890625,0.125185546875,0.1229072265625,0.1191259765625,0.1218359375,0.1147197265625,0.145,0.168,0.134,0.14,0.141,0.181,0.135,0.12229973375260991,0.13970533004377222,0.13515005952718126,0.1310393528726332,0.12610842474004352,0.13378532912042387,0.12325699923813276,-1.86,-45.456,-4.532,-15.436,2.76,-0.708,0.096
83,0.120080078125,0.1379248046875,0.1263310546875,0.1234931640625,0.120779296875,0.123076171875,0.116166015625,0.152,0.172,0.141,0.151,0.21,0.045,0.148,0.12372236934634162,0.14129521730430109,0.13669762781453035,0.13254781600211146,0.12756889629113496,0.13532000872225952,0.12468920529895984,-0.316,-44.376,-4.068,-14.336,2.636,-0.396,0.108
84,0.121212890625,0.13946875,0.1284970703125,0.12479296875,0.12283203125,0.124095703125,0.117392578125,0.142,0.183,0.153,0.067,0.178,0.129,0.134,0.12514166035569493,0.14288002109340803,0.13824061879221444,0.1340521264511657,0.1290256863732744,0.1368502552910682,0.12611798425827597,-3.296,-47.24,-4.88,-13.24,2.536,-0.468,0.16
85,0.12255078125,0.140806640625,0.129787109375,0.1265341796875,0.1246904296875,0.1247158203125,0.1190322265625,0.123,0.139,0.196,0.168,0.217,0.068,0.151,0.12655756841301163,0.1444596843935639,0.13977898079330064,0.13555223709023656,0.13047875294544273,0.13837601869655314,0.12754329684587945,-1.7,-45.348,-5.804,-15.048,2.192,-0.14,0.084
86,0.1239970703125,0.142453125,0.1305087890625,0.1269677734375,0.1246904296875,0.1271943359375,0.120271484375,0.141,0.15,0.093,0.109,0.094,0.154,0.143,0.12797005524208493,0.14603415037218245,0.14131266230585715,0.13704810092134337,0.13192805407407657,0.1398972489552847,0.12896510388684249,-1.116,-44.864,-4.024,-13.72,2.896,-0.688,0.14
87,0.1251298828125,0.14337890625,0.132666015625,0.1291416015625,0.1269501953125,0.1274013671875,0.121705078125,0.13,0.135,0.131,0.107,0.08,0.159,0.13,0.12937908265919434,0.14760336238366512,0.1428416119746779,0.13853967107955664,0.13337354793427858,0.1414138962323378,0.13038336630258768,-2.284,-45.62,-4.276,-14.316,2.9,-0.584,0.136
88,0.126267578125,0.1447236328125,0.1343984375,0.130296875,0.1288095703125,0.128833984375,0.1233447265625,0.11,0.104,0.213,0.203,0.248,0.049,0.157,0.13078461257413787,0.14916726397143878,0.14436577860300254,0.14002690083446648,0.13481519281102436,0.14292591084292455,0.13179804511196255,-0.744,-43.784,-5.596,-15.436,2.388,-0.316,0.068
89,0.127708984375,0.1463701171875,0.135255859375,0.1305859375,0.13044921875,0.1300732421875,0.12477734375,0.127,0.157,0.126,0.054,0.145,0.168,0.148,0.1321866069912617,0.15072579886998722,0.1458851111542304,0.14150974359164642,0.13625294710036648,0.1444332432540218,0.1332091014323104,1.116,-43.62,-3.932,-12.052,2.604,-0.7,0.156
90,0.1287373046875,0.1474052734375,0.1375654296875,0.1327607421875,0.132927734375,0.12966015625,0.1264169921875,0.132,0.14,0.151,0.117,0.215,0.04,0.162,0.1335850280104873,0.1522789110068753,0.1473995587536297,0.14298815289411343,0.13768676931063484,0.14593584408599386,0.13461649648053933,0.104,-44.108,-4.88,-13.08,2.06,0.064,0.116
91,0.129669921875,0.148537109375,0.13914453125,0.1339150390625,0.1337412109375,0.1321396484375,0.12786328125,0.094,0.104,0.212,0.182,0.192,0.069,0.159,0.1349798378283361,0.15382654450476624,0.14890907069004092,0.1444620824237832,0.13911661806363432,0.1474336641142103,0.13602019157418824,-0.584,-43.352,-5.456,-13.492,2.08,-0.16,0.12
92,0.131111328125,0.149875,0.1398662109375,0.1352236328125,0.13539453125,0.133779296875,0.1292958984375,0.12,0.128,0.108,0.105,0.109,0.253,0.138,0.13637099873895128,0.1553686436834321,0.15041359641757504,0.14593148600292144,0.14054245209583877,0.1489266542706582,0.13742014813248987,0.584,-41.464,-3.628,-12.576,2.392,-0.784,0.148
93,0.1321396484375,0.1511103515625,0.14187890625,0.1369658203125,0.13683984375,0.133779296875,0.1305224609375,0.132,0.124,0.127,0.16,0.159,0.072,0.135,0.13775847313511713,0.15690515306175684,0.1519130855573058,0.1473963175955905,0.1419642302595818,0.15041476564555006,0.13881632767743118,0.584,-42.652,-3.932,-13.652,2.42,-0.128,0.156
94,0.1332783203125,0.15255078125,0.143466796875,0.1379755859375,0.1393056640625,0.1360517578125,0.13196875,0.104,0.128,0.187,0.152,0.193,0.093,0.129,0.1391422235092758,0.15843601735973276,0.15340748789895695,0.14885653130909168,0.14338191152424445,0.15189794948892563,0.14020869183481108,0.688,-42.056,-4.464,-12.988,2.088,-0.264,0.136
95,0.1346162109375,0.1540947265625,0.1446123046875,0.1391396484375,0.140958984375,0.1370712890625,0.1329892578125,0.122,0.154,0.138,0.099,0.205,0.199,0.129,0.14052221245454105,0.1599611815004488,0.15489675340258333,0.1503120813954031,0.14479545497743906,0.15337615721224923,0.14159720233529507,0.372,-42.38,-4.576,-12.004,2.008,-0.44,0.128
96,0.135857421875,0.1553291015625,0.146056640625,0.1408720703125,0.1425986328125,0.1378974609375,0.1344345703125,0.124,0.141,0.13,0.14,0.156,0.057,0.121,0.14189840266570958,0.16148059061207262,0.1563808322002465,0.15176292225261295,0.14620481982618994,0.15484934039000137,0.14298182101546705,0.848,-42.812,-4.648,-12.668,2.096,0.252,0.156
97,0.1369892578125,0.1568798828125,0.1474912109375,0.1420361328125,0.1440439453125,0.141203125,0.1358681640625,0.122,0.136,0.136,0.157,0.176,0.186,0.14,0.1432707569402695,0.1629941900298244,0.15785967459768457,0.1532090084263481,0.14760996539811078,0.15631745076126527,0.14436250981887824,1.54,-41.68,-4.14,-12.92,2.14,-0.188,0.12
98,0.138224609375,0.1583203125,0.1490791015625,0.14348046875,0.145697265625,0.1424296875,0.13730078125,0.122,0.151,0.146,0.116,0.132,0.27,0.143,0.144639238179406,0.16450192529794372,0.1593332310759762,0.15465029461119825,0.14901085114257834,0.1577804402313077,0.14573923079709328,1.648,-41.624,-3.768,-12.324,2.392,-0.52,0.188
99,0.139568359375,0.1597607421875,0.150802734375,0.1450771484375,0.1479560546875,0.143255859375,0.138734375,0.129,0.141,0.173,0.167,0.208,0.085,0.149,0.14600380938900442,0.16600374217164876,0.16080145229319884,0.15608673565213535,0.15040743663190262,0.15923826087315468,0.14711194611073314,1.116,-41.572,-4.576,-13.192,2.06,0.172,0.108
100,0.14090625,0.16161328125,0.1522470703125,0.145943359375,0.149609375,0.145927734375,0.1401806640625,0.131,0.17,0.162,0.118,0.2,0.163,0.144,0.1473644336806499,0.16749958661908776,0.16226428908608065,0.1575182865459282,0.15179968156249352,0.16069086492916151,0.14848061803051513,1.06,-42.004,-4.648,-11.752,2.024,-0.004,0.188
101,0.142353515625,0.162951171875,0.1538251953125,0.1479736328125,0.151662109375,0.14716796875,0.1418203125,0.138,0.161,0.148,0.127,0.183,0.218,0.151,0.14872107427262493,0.16898940482328306,0.16372169247164717,0.15894490244255244,0.15318754575602417,0.1621382048125773,0.14984520893829006,1.22,-42.544,-4.576,-12.004,1.82,-0.068,0.156
102,0.1435888671875,0.1643916015625,0.15526953125,0.1495625,0.15228125,0.1490263671875,0.143046875,0.136,0.134,0.165,0.199,0.148,0.12,0.151,0.15007369449090374,0.1704731431840674,0.1651736136488611,0.16036653864659586,0.15457098916059023,0.16358023310910388,0.15120568132807585,0.796,-42.436,-4.672,-13.332,2.2,0.284,0.172
103,0.1450361328125,0.16594140625,0.1567041015625,0.1508701171875,0.153314453125,0.152525390625,0.1444921875,0.134,0.153,0.136,0.134,0.075,0.291,0.136,0.1514222577701433,0.17195074832001206,0.1666200040002567,0.16178315061865833,0.1559499718518657,0.1650169025784491,0.15256199780708884,-0.316,-43.084,-4.232,-12.964,2.496,-0.532,0.22
104,0.1464765625,0.1673828125,0.1582919921875,0.1528916015625,0.1553671875,0.1529384765625,0.14592578125,0.144,0.15,0.154,0.174,0.163,0.216,0.143,0.15276672765467222,0.17342216707034777,0.1680608150935675,0.16319469397674752,0.15732445403425524,0.16644816615587443,0.1539141210967712,0.9,-42.004,-4.464,-13.696,2.276,-0.284,0.168
105,0.1480263671875,0.1692353515625,0.1597265625,0.153623046875,0.156400390625,0.1549912109375,0.1473583984375,0.15,0.165,0.149,0.146,0.156,0.08,0.144,0.15410706779947606,0.17488734649687698,0.16949599868334822,0.16460112449766912,0.1586943960420426,0.16787397695373676,0.1552620140338155,0.584,-43.136,-4.692,-13.148,2.308,0.104,0.212
106,0.1494677734375,0.1707783203125,0.1614599609375,0.1552109375,0.1586591796875,0.1570576171875,0.1488046875,0.145,0.178,0.156,0.09,0.146,0.236,0.139,0.1554432419711798,0.1763462338858786,0.1709255067125902,0.16600239811841272,0.16005975834053524,0.16929428826302434,0.1566056395711865,0.372,-44.376,-5.064,-12.372,2.1,-0.296,0.172
107,0.1510107421875,0.172322265625,0.16289453125,0.1569609375,0.1596923828125,0.15808984375,0.15023828125,0.151,0.148,0.163,0.188,0.196,0.153,0.157,0.15677521404902747,0.17779877675000458,0.1723492913143306,0.16739847093753188,0.16142050152720522,0.17070905355488708,0.15794496077913908,0.688,-42.76,-5.316,-13.652,1.912,0.012,0.116
108,0.1524580078125,0.1738662109375,0.164193359375,0.1581162109375,0.1598994140625,0.1609697265625,0.1516708984375,0.152,0.157,0.133,0.142,0.039,0.184,0.131,0.1581029480258585,0.17924492283016807,0.1737673048132553,0.16878929921651972,0.16277658633282646,0.17211822648216082,0.1592799408462333,-0.212,-42.868,-4.464,-13.012,2.568,-0.24,0.148
109,0.1538984375,0.1751005859375,0.1663505859375,0.160435546875,0.1617578125,0.16240234375,0.1531044921875,0.149,0.141,0.169,0.165,0.114,0.247,0.142,0.1594264080090812,0.18068462009742386,0.1751794997272951,0.17017483938117928,0.16412797362260784,0.17352176088088553,0.1606105430803463,-0.796,-43.62,-5.224,-14.132,2.284,-0.616,0.088
110,0.15544921875,0.1768564453125,0.1675048828125,0.16158984375,0.162365234375,0.163435546875,0.15434375,0.143,0.141,0.182,0.193,0.131,0.098,0.138,0.1607455582216429,0.18211781675484004,0.1765858287692158,0.17155504802298865,0.16547462439732277,0.17491961077181772,0.16193673090968072,0.0,-42.112,-5.316,-14.408,2.388,-0.172,0.064
111,0.157095703125,0.1785029296875,0.168939453125,0.1626005859375,0.1633974609375,0.165294921875,0.1555703125,0.161,0.179,0.117,0.091,0.066,0.168,0.127,0.16206036300299734,0.18354446123936166,0.17798624484820164,0.17292988190046082,0.1668164997944344,0.17631173036193667,0.16325846788376988,-0.956,-43.404,-4.556,-13.012,2.44,-0.5,0.096
112,0.1583369140625,0.1798408203125,0.1709521484375,0.164919921875,0.1652568359375,0.1655009765625,0.157015625,0.149,0.151,0.175,0.167,0.158,0.114,0.137,0.1633707868100684,0.18496450222366573,0.17938070107143203,0.17429929794049873,0.16815356108921736,0.17769807404594476,0.16457571767447957,-0.424,-43.62,-5.848,-13.904,2.028,-0.14,0.052
113,0.1599833984375,0.1814873046875,0.171962890625,0.166083984375,0.165669921875,0.1677607421875,0.15844921875,0.143,0.141,0.163,0.193,0.127,0.097,0.144,0.16467679421821108,0.186377888618008,0.18076915074565197,0.17566325323974435,0.1694857696958752,0.179078596407761,0.1658884440770066,-0.052,-42.112,-5.296,-13.88,2.216,-0.212,0.056
114,0.1614306640625,0.182927734375,0.1735419921875,0.16781640625,0.1664833984375,0.16879296875,0.15967578125,0.155,0.165,0.109,0.117,0.033,0.196,0.131,0.1659783499221693,0.18778456957206086,0.1821515473787351,0.1770217050659232,0.17081308716865398,0.18045325222200953,0.16719661101087396,-1.008,-42.976,-4.532,-12.988,2.548,-0.624,0.088
115,0.1627685546875,0.184265625,0.1751298828125,0.1698466796875,0.1679296875,0.1694130859375,0.1609150390625,0.14,0.133,0.17,0.211,0.131,0.063,0.134,0.16727541873703006,0.1891844944767431,0.18352784468124103,0.17837461085918285,0.17213547520295175,0.18182199645550057,0.16850018252092228,-0.9,-42.596,-5.204,-15.068,2.2,-0.168,0.044
116,0.1641123046875,0.18581640625,0.1762763671875,0.170857421875,0.1679296875,0.1714658203125,0.161728515625,0.138,0.147,0.146,0.149,0.068,0.141,0.099,0.16856796559917459,0.19057761296604042,0.18489799656796507,0.1797219282334264,0.17345289563642402,0.18318478426870613,0.16979912277829834,-2.072,-44.216,-5.34,-13.788,2.588,-0.504,0.096
117,0.16565625,0.187154296875,0.1775751953125,0.1728876953125,0.1693759765625,0.1722919921875,0.1629677734375,0.141,0.147,0.121,0.144,0.072,0.156,0.098,0.16985595556722638,0.19196387491881767,0.18626195715948138,0.18106361497764048,0.17476531045008478,0.18454157101722873,0.17109339608143964,-2.072,-44.0,-5.132,-14.408,2.444,-0.524,0.068
118,0.167,0.18880078125,0.17873046875,0.1738984375,0.1697890625,0.1739453125,0.16398828125,0.145,0.147,0.115,0.174,0.107,0.091,0.119,0.17113935382299583,0.19334323046062193,0.1876196807836792,0.1823996290572178,0.1760726817694043,0.1858923122532639,0.1723829668570558,-0.476,-42.38,-4.252,-14.132,2.512,-0.24,0.088
119,0.168337890625,0.1902412109375,0.1803095703125,0.1750625,0.1714287109375,0.175998046875,0.1652275390625,0.138,0.16,0.132,0.091,0.058,0.219,0.11,0.1724181256724211,0.19471562996547714,0.18897112197729243,0.18372992861527365,0.17737497186540135,0.18723696372705648,0.17366779966110607,-1.592,-43.836,-4.348,-13.08,2.608,-0.752,0.104
120,0.1695791015625,0.191681640625,0.181888671875,0.1768037109375,0.172875,0.1764111328125,0.16666015625,0.127,0.139,0.171,0.155,0.18,0.118,0.13,0.1736922365465064,0.19608102405766922,0.19031623548742166,0.1850544719739579,0.1786721431557327,0.18857548138834992,0.17494785917977376,-1.116,-43.296,-5.132,-13.856,2.164,-0.296,0.064
121,0.1710205078125,0.193328125,0.1827548828125,0.177525390625,0.173494140625,0.1784765625,0.1676806640625,0.135,0.157,0.119,0.122,0.107,0.103,0.119,0.17496165200225636,0.19743936361352268,0.19165497627304967,0.18637321763576015,0.17996415820577744,0.18990782138782966,0.17622311023043677,-1.168,-44.108,-4.508,-12.784,2.336,-0.264,0.12
122,0.1722548828125,0.1946728515625,0.1840537109375,0.179267578125,0.174927734375,0.17991015625,0.168919921875,0.136,0.156,0.103,0.11,0.086,0.198,0.117,0.176226337723607,0.19879059976316793,0.19298729950654953,0.1876861242848103,0.18125097972971704,0.19123394007855948,0.1774935177626345,-1.592,-43.944,-4.044,-12.784,2.408,-0.468,0.116
123,0.1733935546875,0.1959072265625,0.1853447265625,0.18056640625,0.1753408203125,0.1815625,0.170146484375,0.117,0.127,0.138,0.169,0.114,0.141,0.128,0.1774862595223535,0.20013468389229944,0.19431316057518555,0.1889931507881727,0.1825325705916118,0.1925537940174113,0.17875904685903127,-2.764,-44.972,-4.856,-14.248,2.444,-0.364,0.096
124,0.17462890625,0.1973486328125,0.1862109375,0.1815859375,0.1761669921875,0.183615234375,0.1713857421875,0.117,0.132,0.11,0.116,0.042,0.182,0.11,0.17874138333907458,0.20147156764392501,0.19563251508260748,0.19029425619713475,0.18380889380647225,0.19386733996648853,0.18001966273637615,-1.86,-44.7,-4.14,-13.88,2.712,-0.596,0.156
125,0.1760751953125,0.1989951171875,0.1873564453125,0.1827412109375,0.1780126953125,0.18444140625,0.1726123046875,0.139,0.154,0.09,0.105,0.145,0.153,0.128,0.17999167524405296,0.20280120292010512,0.19694531885033667,0.19158939974849024,0.18507991254132666,0.19517453489454228,0.18127533074645885,0.476,-43.084,-3.352,-13.356,2.42,-0.488,0.136
126,0.1771044921875,0.2003330078125,0.1892333984375,0.183751953125,0.1798720703125,0.185267578125,0.1738388671875,0.124,0.152,0.154,0.104,0.178,0.07,0.131,0.1812371014381927,0.2041235418836838,0.1982515279192458,0.19287854086581593,0.18634559011628388,0.19647533597838132,0.18252601637706198,-0.476,-43.944,-4.044,-12.552,2.236,-0.004,0.188
127,0.178236328125,0.2016708984375,0.1908125,0.185060546875,0.1817314453125,0.1869072265625,0.175078125,0.105,0.133,0.178,0.118,0.206,0.129,0.126,0.18247762825393274,0.20543853696000952,0.19955109855103048,0.1941616391607432,0.1876058900055919,0.19776970060427485,0.18377168525290982,-2.176,-44.972,-5.272,-12.76,1.832,-0.12,0.14
128,0.179375,0.202802734375,0.1916787109375,0.186359375,0.182337890625,0.188146484375,0.1763046875,0.114,0.124,0.127,0.125,0.12,0.148,0.118,0.18371322215615743,0.20674614083864676,0.20084398722967406,0.1954386544342231,0.18886077583869204,0.19905758636934834,0.18501230313661293,-1.06,-43.944,-4.648,-13.032,2.264,-0.16,0.168
129,0.180712890625,0.204146484375,0.1923916015625,0.1875234375,0.1837841796875,0.1897998046875,0.177544921875,0.129,0.123,0.068,0.129,0.093,0.14,0.128,0.18494384974310268,0.2080463064750781,0.2021301506629048,0.19670954667778598,0.19011021140126835,0.20033895108297295,0.1862478359296093,0.424,-42.272,-3.052,-13.172,2.472,-0.272,0.212
130,0.181638671875,0.20517578125,0.1944130859375,0.1886787109375,0.1850234375,0.1908193359375,0.178771484375,0.114,0.121,0.123,0.112,0.127,0.148,0.121,0.18616947774725912,0.2093389870923971,0.2034095457836452,0.19797427607479492,0.1913541606362929,0.20161375276814736,0.1874782496731015,-1.804,-44.16,-3.884,-13.172,2.544,-0.356,0.232
131,0.18277734375,0.206513671875,0.19584765625,0.1901220703125,0.1876962890625,0.1916455078125,0.179998046875,0.094,0.112,0.19,0.139,0.198,0.085,0.12,0.18739007303627128,0.2106241361829908,0.2046821297514545,0.19923280300169305,0.19259258764506623,0.20288194966287323,0.18870351054898998,-0.796,-43.084,-5.272,-13.744,2.068,-0.148,0.192
132,0.184115234375,0.2080576171875,0.1965693359375,0.190419921875,0.1887294921875,0.1924716796875,0.1810302734375,0.129,0.147,0.11,0.084,0.204,0.089,0.121,0.1886056026138334,0.21190170751021328,0.2059478599539629,0.20048508802924517,0.1938254566882535,0.2041435002215231,0.1899235848808028,0.316,-42.76,-4.024,-11.96,2.128,-0.052,0.24
133,0.1850478515625,0.2089833984375,0.1984375,0.19215234375,0.19098828125,0.193091796875,0.182669921875,0.117,0.131,0.122,0.087,0.141,0.074,0.121,0.18981603362058147,0.21317165511004887,0.2072066940082986,0.20173109192377264,0.19505273218691552,0.20539836311620147,0.19113843913462097,-1.06,-44.376,-4.484,-12.072,2.08,0.212,0.252
134,0.1860771484375,0.210115234375,0.1995927734375,0.1934609375,0.192228515625,0.1949384765625,0.184103515625,0.094,0.092,0.167,0.181,0.203,0.107,0.16,0.1910213333349811,0.21443393329276605,0.20845858976250678,0.2029707756483831,0.19627437872353598,0.20664649723809858,0.1923480399200002,0.528,-41.408,-4.764,-13.604,1.904,0.084,0.224
135,0.1873115234375,0.2113505859375,0.20044921875,0.1940380859375,0.1930546875,0.1963837890625,0.185548828125,0.113,0.126,0.09,0.074,0.078,0.198,0.145,0.19222146917421273,0.21568849664456113,0.20970350529696122,0.204204100364193,0.19749036104304318,0.2078878616988374,0.1935523539908888,0.584,-42.38,-3.468,-11.82,2.484,-0.52,0.312
136,0.18834765625,0.2122763671875,0.202326171875,0.196212890625,0.1955205078125,0.1957646484375,0.186982421875,0.116,0.109,0.122,0.137,0.171,0.028,0.141,0.19341640869505197,0.21693530002919226,0.2109413989257681,0.20543102743154487,0.19870064405382776,0.20912241583181293,0.1947513482465412,-0.528,-43.352,-3.952,-13.056,2.088,0.2,0.272
137,0.1892734375,0.213517578125,0.20347265625,0.1969443359375,0.196759765625,0.198037109375,0.188208984375,0.096,0.105,0.167,0.16,0.19,0.052,0.136,0.19460611959474672,0.21817429858960308,0.2121722291981616,0.2066515184112173,0.19990519282875496,0.2103501191935242,0.19594498973242794,1.008,-41.84,-4.624,-12.668,2.028,0.14,0.284
138,0.1905087890625,0.2146494140625,0.2044833984375,0.1980986328125,0.1983994140625,0.199056640625,0.1894482421875,0.112,0.124,0.102,0.072,0.14,0.216,0.126,0.19579056971189052,0.21940544774953702,0.21339595489989197,0.2078655350656299,0.20110397260617305,0.21157093156489976,0.19713324564114135,0.476,-42.38,-3.976,-11.432,2.048,-0.448,0.304
139,0.1916474609375,0.2157822265625,0.2057734375,0.1998408203125,0.199638671875,0.1986435546875,0.1906748046875,0.117,0.105,0.114,0.157,0.156,-0.014,0.123,0.19696972702729182,0.22062870321514044,0.21461253505460545,0.20907303936004076,0.20229694879091636,0.2127848129526147,0.1983160833132972,0.476,-41.408,-4.024,-12.552,2.044,0.468,0.276
140,0.19267578125,0.2170166015625,0.2070732421875,0.20041796875,0.201072265625,0.2017421875,0.1919140625,0.106,0.118,0.129,0.117,0.129,0.128,0.117,0.19814355966483993,0.22184402097655687,0.21582192892521662,0.21027399346373832,0.20348408695530326,0.21399172359040106,0.1994934702384326,0.636,-41.68,-4.184,-12.004,2.108,-0.096,0.252
141,0.1938076171875,0.2180458984375,0.20836328125,0.202005859375,0.202724609375,0.2019482421875,0.193140625,0.111,0.117,0.127,0.094,0.148,0.22,0.126,0.19931203589236604,0.22305135730950973,0.2170240960152725,0.2114683597512264,0.2046653528401304,0.21519162394035055,0.20066537405589915,1.06,-42.056,-4.368,-11.524,2.076,-0.44,0.208
142,0.1950498046875,0.2192802734375,0.2096630859375,0.203169921875,0.2039638671875,0.2023623046875,0.1941611328125,0.117,0.112,0.13,0.154,0.153,-0.026,0.12,0.2004751241225017,0.2242506687768761,0.21821899607030817,0.21265610080340328,0.20584071235566084,0.21638447469420968,0.2018317625557527,1.22,-41.192,-4.276,-12.096,2.008,0.448,0.208
143,0.196181640625,0.2206181640625,0.21109765625,0.2038916015625,0.2051904296875,0.2052412109375,0.1956064453125,0.113,0.133,0.13,0.087,0.113,0.169,0.12,0.20163279291353248,0.2254419122302489,0.2194065890791952,0.21383717940873376,0.20701013158260798,0.21757023677466775,0.2029926036796385,0.848,-41.572,-4.044,-10.908,2.184,-0.136,0.18
144,0.1973203125,0.22175,0.212685546875,0.20548046875,0.2070498046875,0.205654296875,0.1968330078125,0.114,0.125,0.155,0.105,0.165,0.209,0.138,0.20278501097024776,0.22662504481148957,0.2205868352754808,0.21501155856441506,0.20817357677311446,0.2187488713366367,0.20414786552167255,0.796,-41.788,-4.624,-11.48,1.88,-0.244,0.116
145,0.1985546875,0.2230947265625,0.2136875,0.20635546875,0.207669921875,0.206880859375,0.1980732421875,0.118,0.118,0.134,0.14,0.127,0.04,0.132,0.20393174714478707,0.22780002395427,0.22175969513872018,0.21617920147753628,0.20933101435172613,0.21992033976852382,0.20529751632931817,0.528,-41.948,-4.576,-11.936,2.06,0.348,0.136
146,0.1997900390625,0.2244326171875,0.214697265625,0.2073662109375,0.208896484375,0.209359375,0.199505859375,0.128,0.136,0.093,0.086,0.081,0.192,0.127,0.2050729704374817,0.22896680738560393,0.22292512939579923,0.2173400715662309,0.210482410916361,0.22108460369349675,0.20644152450425896,0.316,-42.056,-4.0,-11.204,2.224,-0.136,0.156
147,0.200927734375,0.2254619140625,0.2161328125,0.209107421875,0.2099287109375,0.2099794921875,0.200732421875,0.122,0.119,0.129,0.142,0.132,0.176,0.129,0.20620864999769317,0.23012535312736762,0.22408309902224977,0.2184941324608229,0.21162773323927292,0.22224162497074035,0.20757985860326733,0.424,-41.572,-4.348,-12.416,2.068,-0.12,0.096
148,0.2021630859375,0.2266962890625,0.217287109375,0.2102626953125,0.210341796875,0.211412109375,0.201765625,0.116,0.108,0.135,0.144,0.075,0.087,0.112,0.20733875512464692,0.23127561949781064,0.2252335652435565,0.2196413480049662,0.21276694826801087,0.2233913656967065,0.2087124873390685,-0.476,-42.328,-4.624,-12.256,2.324,0.068,0.148
149,0.203404296875,0.227828125,0.218578125,0.2115615234375,0.2115810546875,0.213271484375,0.2029921875,0.126,0.123,0.116,0.117,0.079,0.169,0.109,0.20846325526826223,0.2324175651130549,0.22637648953645512,0.2207816822567777,0.21390002312637257,0.22453378820635575,0.20983937958120064,-0.528,-42.22,-4.6,-12.164,2.296,-0.16,0.136
150,0.2047421875,0.229166015625,0.219732421875,0.2128701171875,0.21239453125,0.21409765625,0.2040244140625,0.124,0.121,0.124,0.14,0.108,0.139,0.118,0.20958212002997828,0.23355114888858391,0.2275118336302223,0.22191509948996285,0.2150269251153533,0.2256688550743911,0.2109605043568704,0.104,-40.868,-4.556,-12.804,2.164,-0.104,0.116
151,0.2058740234375,0.2304013671875,0.2210234375,0.214025390625,0.2128076171875,0.21532421875,0.205044921875,0.126,0.128,0.119,0.116,0.053,0.104,0.098,0.21069531916357578,0.234676330040721,0.2286395595079572,0.22304156419493534,0.21614762171408947,0.22679652911648426,0.21207583085180431,-0.848,-42.056,-4.624,-12.348,2.428,-0.076,0.168
152,0.20721875,0.2314306640625,0.222611328125,0.2156318359375,0.2144609375,0.216357421875,0.206078125,0.122,0.117,0.149,0.141,0.106,0.107,0.108,0.21180282257599456,0.23579306808809597,0.2297596294078547,0.22416104107992957,0.21726208058079738,0.22791677339049343,0.21318532841109555,0.052,-42.164,-5.272,-12.872,2.008,0.016,0.088
153,0.208453125,0.232671875,0.2234775390625,0.2167861328125,0.2144609375,0.217390625,0.20709765625,0.129,0.111,0.13,0.141,0.088,0.111,0.108,0.21290460032814726,0.23690132285310242,0.2308720058244694,0.22527349507210603,0.21837026955370625,0.2290295511976738,0.21428896654004656,-0.052,-42.76,-4.996,-12.92,2.112,0.016,0.128
154,0.2097978515625,0.2338037109375,0.224623046875,0.2182392578125,0.215080078125,0.2190302734375,0.2083369140625,0.129,0.116,0.096,0.122,0.011,0.127,0.101,0.2140006226357285,0.2380010544633425,0.23197665150997177,0.22637889131865035,0.2194721566519866,0.2301348260838798,0.21538671490500733,-0.956,-42.056,-4.556,-13.148,2.472,-0.076,0.136
155,0.2109296875,0.2348330078125,0.22605859375,0.2196826171875,0.2157001953125,0.2204755859375,0.209357421875,0.125,0.111,0.12,0.151,0.072,0.155,0.122,0.21509085987002002,0.2390922233530619,0.23307352947539545,0.22747719518786536,0.22056771007667306,0.23123256184075908,0.2164785433342089,-0.9,-41.624,-4.784,-13.628,2.368,-0.24,0.084
156,0.2122734375,0.2361708984375,0.227212890625,0.220693359375,0.2167197265625,0.2215087890625,0.2105966796875,0.121,0.116,0.137,0.125,0.069,0.126,0.113,0.21617528255869195,0.24017479026457314,0.23416260299187558,0.2285683722702557,0.221656898211582,0.23232272250693894,0.2175644218185929,-0.796,-41.248,-4.6,-13.216,2.348,-0.16,0.104
157,0.2135087890625,0.2374052734375,0.22850390625,0.221712890625,0.2177529296875,0.222115234375,0.2116162109375,0.132,0.13,0.122,0.107,0.105,0.085,0.108,0.21725386138659913,0.24124871624966787,0.2352438355918789,0.2296523883796063,0.22273968962422414,0.2334052723692044,0.21864432051263596,-1.432,-42.22,-4.9,-12.872,2.112,0.044,0.12
158,0.2145380859375,0.238537109375,0.229947265625,0.2231572265625,0.218373046875,0.2235615234375,0.2126494140625,0.116,0.121,0.135,0.12,0.086,0.094,0.103,0.21832656719657378,0.24231396267101832,0.23631719107042476,0.23072920955405304,0.22381605306671143,0.23448017596366783,0.21971820973517056,-2.336,-44.376,-6.312,-13.444,2.096,0.136,0.116
159,0.215779296875,0.23956640625,0.230380859375,0.2244658203125,0.2185791015625,0.2252138671875,0.2138759765625,0.114,0.107,0.104,0.143,0.048,0.147,0.119,0.2193933709902137,0.2433704912035674,0.23738263348629726,0.23179880205714704,0.2248859574766589,0.23554739807693115,0.2207860599702002,-1.168,-42.596,-5.272,-13.948,2.244,-0.036,0.12
160,0.217013671875,0.2408017578125,0.2310927734375,0.2256201171875,0.21919921875,0.226853515625,0.2151025390625,0.128,0.116,0.051,0.12,0.032,0.175,0.127,0.22045424392866617,0.24441826383590737,0.2384401271632493,0.23286113237891143,0.2259493719780811,0.23660690374723908,0.22184784186771128,-0.424,-41.68,-3.932,-13.604,2.512,-0.252,0.136
161,0.2179404296875,0.241830078125,0.2329697265625,0.2270732421875,0.22042578125,0.2274736328125,0.2161357421875,0.107,0.114,0.116,0.127,0.091,0.124,0.107,0.2215091573334076,0.24545724287164744,0.23948963669119636,0.2339161672368913,0.2270062658822832,0.23765865826562482,0.22290352624447926,-2.284,-43.192,-5.204,-13.924,2.4,-0.056,0.136
162,0.219078125,0.243072265625,0.2341162109375,0.228228515625,0.222078125,0.228919921875,0.2171552734375,0.1,0.108,0.165,0.139,0.149,0.084,0.108,0.22255808268701868,0.2464873909307701,0.240531126927403,0.23496387357719645,0.2280566086887464,0.23870262717704666,0.2239530840848712,-0.104,-42.976,-6.152,-13.812,1.972,0.16,0.148
163,0.2203134765625,0.2444091796875,0.234693359375,0.2289501953125,0.222904296875,0.230146484375,0.2181884765625,0.124,0.131,0.084,0.092,0.135,0.143,0.106,0.22360099163395536,0.247508670950976,0.24156456299765927,0.23600421857553683,0.22910037008600845,0.23973877628151713,0.22499648654164278,-0.264,-42.868,-5.108,-12.668,1.924,0.0,0.156
164,0.22124609375,0.2453359375,0.2361279296875,0.230546875,0.2237177734375,0.230765625,0.2192080078125,0.108,0.118,0.092,0.111,0.075,0.093,0.093,0.22463785598131544,0.24852104618901705,0.2425899102974482,0.2370371696382511,0.23013751995253803,0.24076707163522304,0.22603370493673167,-2.232,-43.62,-5.108,-13.376,2.224,0.224,0.172
165,0.2221787109375,0.246365234375,0.237283203125,0.2317021484375,0.2247509765625,0.2330380859375,0.2202412109375,0.092,0.089,0.138,0.153,0.105,0.138,0.102,0.22566864769960054,0.2495244802220189,0.24360713449310506,0.23806269440332767,0.23116802835760447,0.24178747955163787,0.2270647107620455,-0.9,-42.704,-5.432,-14.108,2.216,-0.068,0.116
166,0.2234140625,0.247599609375,0.2380048828125,0.232423828125,0.225990234375,0.23405859375,0.2212607421875,0.107,0.118,0.093,0.086,0.104,0.193,0.103,0.22669333892347415,0.2505189369487907,0.24461620152296662,0.23908076074141862,0.23219186556214116,0.24279996660262487,0.22808947568024532,0.104,-42.272,-4.368,-12.92,2.348,-0.416,0.168
167,0.22444921875,0.2488349609375,0.2392958984375,0.233587890625,0.22804296875,0.2338515625,0.2222939453125,0.116,0.126,0.095,0.086,0.157,0.023,0.098,0.2277119019525144,0.25150438059112457,0.24561707759851198,0.24009133675684602,0.23320900201960373,0.24380449961953238,0.22910797152552456,-1.008,-43.136,-4.3,-12.736,2.172,0.26,0.2
168,0.2252724609375,0.249966796875,0.24073046875,0.2343095703125,0.2294892578125,0.23550390625,0.2231201171875,0.092,0.118,0.147,0.099,0.183,0.054,0.1,0.22872430925196338,0.25248077569508226,0.24660972920549376,0.2410943907886019,0.23421940837682312,0.2448010456942805,0.2301201703043833,-1.804,-43.728,-5.712,-12.484,1.892,0.284,0.148
169,0.2263017578125,0.25099609375,0.2414521484375,0.235185546875,0.230521484375,0.236744140625,0.2241396484375,0.087,0.11,0.119,0.07,0.123,0.172,0.097,0.22973053345347133,0.25344808713227107,0.24759412310506032,0.24208989141133946,0.23522305547485223,0.24578957218043906,0.23112604419639754,-2.176,-44.052,-5.62,-12.576,2.044,-0.156,0.128
170,0.2273369140625,0.2520244140625,0.242029296875,0.2360517578125,0.23112890625,0.2371435546875,0.2251728515625,0.106,0.103,0.057,0.094,0.088,0.076,0.103,0.23073054735583623,0.25440628010110766,0.24857022633486903,0.24307780743635793,0.23621991434980788,0.24677004669429697,0.23212556555498365,-0.848,-43.136,-4.276,-13.104,2.368,0.104,0.18
171,0.2283662109375,0.2531630859375,0.2428955078125,0.2366376953125,0.2325751953125,0.23858984375,0.2263994140625,0.104,0.111,0.061,0.073,0.096,0.087,0.112,0.23172432392573955,0.2553553201280699,0.24953800621018968,0.24405810791257987,0.23720995623370605,0.24774243711592345,0.23311870690815883,0.156,-42.22,-3.284,-12.188,2.444,-0.052,0.2
172,0.229189453125,0.2541923828125,0.244474609375,0.23750390625,0.234833984375,0.238796875,0.2276259765625,0.09,0.107,0.12,0.073,0.195,0.096,0.118,0.2327118362984768,0.25629517306893723,0.2504974303249991,0.2450307621275205,0.23819315255529266,0.24870671159021987,0.23410544095929545,-0.156,-42.76,-4.3,-12.052,1.992,-0.044,0.168
173,0.2301220703125,0.2552216796875,0.245197265625,0.2382265625,0.2362802734375,0.2390029296875,0.2286591796875,0.087,0.103,0.13,0.08,0.188,0.014,0.108,0.23369305777868368,0.2572258051100194,0.2514484665530664,0.24599573960825008,0.23916947494086788,0.2496628385279634,0.23508574058787185,-1.38,-43.728,-5.132,-11.64,1.748,0.388,0.192
174,0.2311513671875,0.256044921875,0.24562109375,0.239236328125,0.2373134765625,0.24044921875,0.2296787109375,0.101,0.093,0.063,0.079,0.119,0.072,0.106,0.23466796184105795,0.2581471827693725,0.25239108304902824,0.24695301012234877,0.2401388952151049,0.2506107866068422,0.23605957885021747,-0.956,-43.296,-4.532,-11.572,1.92,0.324,0.22
175,0.231974609375,0.256662109375,0.2463427734375,0.2402568359375,0.2377265625,0.2420888671875,0.2307119140625,0.093,0.073,0.045,0.109,0.09,0.153,0.111,0.23563652213107633,0.25905927289800396,0.2533252482494557,0.24790254367885342,0.24110138540186293,0.25155052477248113,0.23702692898025352,-0.316,-42.112,-3.512,-12.324,2.16,-0.024,0.2
176,0.2327978515625,0.257279296875,0.247208984375,0.2412666015625,0.23874609375,0.2429150390625,0.2315380859375,0.082,0.065,0.079,0.102,0.048,0.132,0.091,0.23659871246570713,0.25996204268106493,0.254250930873911,0.24884431052919753,0.24205691772499494,0.25248202223945915,0.23798776439022876,-1.116,-42.488,-3.608,-12.6,2.48,-0.188,0.212
177,0.23373046875,0.2581025390625,0.24835546875,0.2421328125,0.24060546875,0.24353515625,0.2325576171875,0.087,0.07,0.101,0.098,0.138,0.074,0.092,0.23755450683411788,0.260855459639031,0.25516809992599476,0.2497782811681432,0.2430054646091489,0.2534052484923181,0.23894205867144977,-0.636,-42.328,-3.908,-12.464,2.164,0.012,0.18
178,0.2347587890625,0.259029296875,0.2490771484375,0.2425751953125,0.24183203125,0.244154296875,0.233384765625,0.099,0.088,0.093,0.066,0.163,0.069,0.091,0.2385038793983784,0.2617394916288709,0.25607672469438414,0.25070442633470547,0.2439469986805638,0.254320173286562,0.2398897855950075,-0.372,-42.596,-3.908,-11.5,1.936,0.108,0.212
179,0.2355830078125,0.2597490234375,0.249943359375,0.24344140625,0.242865234375,0.2449677734375,0.234197265625,0.092,0.084,0.08,0.058,0.111,0.061,0.087,0.23944680449415956,0.26261410684520237,0.256976774753861,0.25162271701306876,0.24488149276785925,0.25522676664964805,0.2408309191124977,-0.796,-42.164,-3.884,-11.0,1.892,0.232,0.18
180,0.236515625,0.2603671875,0.25080078125,0.2444521484375,0.2441044921875,0.24620703125,0.23523046875,0.088,0.065,0.084,0.091,0.116,0.095,0.093,0.24038325663142684,0.26347927382143704,0.257868219966331,0.2525331244334967,0.24580891990282,0.2561249988819686,0.24176543335673703,0.316,-41.14,-3.744,-11.412,1.904,0.128,0.148
181,0.23744140625,0.260984375,0.2515224609375,0.245318359375,0.2447236328125,0.2470341796875,0.2362509765625,0.092,0.063,0.08,0.096,0.101,0.114,0.097,0.2413132104951295,0.2643349614309124,0.25875103048183223,0.2534356200732324,0.2467292533211741,0.2570148405578239,0.24269330264247388,-0.104,-40.384,-3.284,-11.432,1.932,0.024,0.168
182,0.2383671875,0.261705078125,0.252533203125,0.2460498046875,0.245537109375,0.2478603515625,0.2370771484375,0.09,0.071,0.087,0.082,0.063,0.083,0.087,0.24223664094588485,0.26518113888801137,0.25962517673953545,0.25433017565739313,0.24764246646336524,0.2578962625263862,0.2436145014670945,-0.796,-39.952,-3.212,-11.16,2.16,0.088,0.148
183,0.2392998046875,0.262328125,0.2536787109375,0.2472041015625,0.247396484375,0.248673828125,0.2383037109375,0.091,0.068,0.106,0.094,0.135,0.085,0.102,0.24315352302065793,0.2660177757492702,0.2604906294687332,0.25521676315985553,0.24854853297531912,0.25876923591265477,0.24452900451132398,0.0,-40.708,-3.792,-11.5,1.808,0.064,0.084
184,0.2402265625,0.26315234375,0.254255859375,0.2477822265625,0.2478095703125,0.24929296875,0.2393359375,0.094,0.07,0.092,0.091,0.13,0.075,0.114,0.24406383193343623,0.26684484191447355,0.26134735968982054,0.2560953548041338,0.24944742670920417,0.2596337321184016,0.24543678663992186,0.584,-41.732,-3.884,-11.32,1.82,0.172,0.104
185,0.24115234375,0.2638720703125,0.25496875,0.2488017578125,0.248623046875,0.250326171875,0.2403564453125,0.101,0.077,0.061,0.076,0.049,0.082,0.103,0.24496754307589988,0.2676623076277376,0.262195338715265,0.25696592306424976,0.25033912172418604,0.2604897228231084,0.24633782290237344,-0.372,-41.68,-3.4,-11.18,2.088,0.16,0.12
186,0.241982421875,0.2644892578125,0.2559794921875,0.24995703125,0.2492431640625,0.2517587890625,0.2411826171875,0.088,0.065,0.085,0.112,0.081,0.119,0.1,0.2458646320180867,0.26847014347858045,0.26303453815056743,0.2578284406655958,0.25122359228717633,0.2613371799848946,0.2472320885335749,-1.22,-40.652,-3.7,-11.912,2.028,-0.064,0.068
187,0.242908203125,0.2652099609375,0.256990234375,0.2508232421875,0.2498623046875,0.2525849609375,0.2420087890625,0.083,0.066,0.106,0.098,0.051,0.116,0.084,0.24675507450905276,0.2692683204029804,0.2638649298952126,0.2586828805857886,0.252100812873575,0.26217607584143565,0.24811955895451474,-1.432,-40.976,-3.952,-11.844,2.236,-0.136,0.084
188,0.2438349609375,0.266033203125,0.25784765625,0.2516982421875,0.2508955078125,0.253205078125,0.242822265625,0.094,0.074,0.089,0.089,0.081,0.073,0.084,0.24763884647752787,0.27005680968442136,0.2646864861436105,0.2595292160555162,0.2529707581680072,0.26300638291087236,0.24900020977294873,-0.9,-40.868,-3.816,-11.66,2.048,0.004,0.096
189,0.2447607421875,0.2669599609375,0.2587138671875,0.252419921875,0.2517216796875,0.25403125,0.2436484375,0.092,0.087,0.083,0.084,0.097,0.065,0.081,0.24851592403256637,0.2708355829549262,0.2654991793860268,0.2603674205593769,0.2538334030650537,0.2638280739927119,0.24987401678407056,0.156,-40.22,-3.536,-11.044,2.004,0.096,0.088
190,0.2455908203125,0.267783203125,0.259580078125,0.2531416015625,0.252328125,0.254857421875,0.2444619140625,0.088,0.09,0.089,0.068,0.079,0.082,0.082,0.24938628346419284,0.2716046121960775,0.26630298240950456,0.26119746783670933,0.2546887226699755,0.26464112216871827,0.25074095597117735,0.372,-40.328,-3.4,-11.088,1.984,0.024,0.084
191,0.2464140625,0.2686064453125,0.2607265625,0.2540078125,0.2529482421875,0.25546484375,0.24508203125,0.082,0.084,0.101,0.075,0.056,0.075,0.067,0.2502499012440432,0.2723638697400251,0.26709786829877535,0.2620193318824156,0.25553669229943204,0.2654455008037942,0.2516010035063291,-0.796,-41.516,-3.908,-11.18,2.008,0.128,0.084
192,0.2472373046875,0.269326171875,0.2615927734375,0.255037109375,0.253568359375,0.25691015625,0.245908203125,0.08,0.079,0.101,0.104,0.065,0.098,0.073,0.25110675402600086,0.2731133282704818,0.26788381043716003,0.2628329869477761,0.25637728748219385,0.26624118354685383,0.2524541357510042,0.0,-41.084,-3.976,-11.592,1.996,0.036,0.068
193,0.248169921875,0.2702529296875,0.2620166015625,0.2557587890625,0.2537744140625,0.258150390625,0.2467216796875,0.089,0.085,0.065,0.089,0.053,0.146,0.08,0.25195681864682734,0.2738529608237065,0.268660782507461,0.263638407541256,0.2572104839598486,0.26702814433168603,0.2533003292567492,0.636,-40.328,-3.236,-11.5,2.148,-0.18,0.088
194,0.2488896484375,0.27097265625,0.26302734375,0.2569140625,0.2546005859375,0.2585634765625,0.2475478515625,0.086,0.085,0.071,0.085,0.031,0.088,0.08,0.252800072126789,0.27458274078947376,0.2694287584928422,0.26443556842930377,0.25803625768750094,0.26780635737780806,0.2541395607658228,0.104,-41.624,-3.26,-11.684,2.256,-0.032,0.108
195,0.2496103515625,0.271693359375,0.264181640625,0.258078125,0.255220703125,0.2597900390625,0.2485673828125,0.076,0.071,0.108,0.12,0.087,0.065,0.093,0.253636491670278,0.27530264191203135,0.27018771267770125,0.26522444463714223,0.2588545848344669,0.26857579719131036,0.25497180721183516,-0.372,-42.164,-4.024,-12.232,1.996,0.104,0.064
196,0.25043359375,0.2725234375,0.2647509765625,0.2589443359375,0.2554267578125,0.2612353515625,0.2493935546875,0.075,0.08,0.087,0.093,0.045,0.141,0.085,0.25446605466642847,0.27601263829104483,0.27093761964853014,0.2660050114495506,0.25966544178496104,0.26933643856569167,0.2557970457203825,-0.956,-41.948,-3.952,-11.684,2.152,-0.2,0.108
197,0.251263671875,0.2733466796875,0.265328125,0.2599541015625,0.2560341796875,0.2616484375,0.2502197265625,0.083,0.079,0.055,0.1,0.033,0.103,0.082,0.2552887386897278,0.2767127043825294,0.2716784542947661,0.2667772444116386,0.26046880513877857,0.2700882565826848,0.25661525360967496,-0.796,-41.192,-3.744,-12.256,2.212,-0.14,0.096
198,0.2520869140625,0.274169921875,0.2659052734375,0.2606767578125,0.256240234375,0.262875,0.251033203125,0.081,0.08,0.058,0.093,0.037,0.068,0.083,0.25610452150062313,0.2774028149997691,0.27241019180963283,0.26754111932961344,0.2612646517119701,0.2708312266130727,0.2574264083911607,-0.264,-40.924,-3.42,-12.052,2.376,-0.128,0.108
199,0.25291015625,0.275095703125,0.2667626953125,0.2614072265625,0.2574794921875,0.2637021484375,0.2518603515625,0.084,0.092,0.069,0.065,0.062,0.11,0.082,0.256913381046122,0.2780829453142228,0.2731328076909706,0.26829661227153684,0.26205295853751104,0.27156532431749564,0.2582304877701436,0.688,-40.76,-3.352,-11.616,2.2,-0.304,0.108
200,0.2537333984375,0.276021484375,0.26762890625,0.261984375,0.258099609375,0.2637021484375,0.2524794921875,0.083,0.093,0.086,0.068,0.107,0.045,0.071,0.25771529546038896,0.2787530708564172,0.2738462777420571,0.2690436995680756,0.2628337028659642,0.2722905256472485,0.2590274696463961,-0.104,-42.22,-4.092,-11.524,1.984,-0.036,0.116
201,0.2544599609375,0.2767421875,0.2684951171875,0.2629951171875,0.258732421875,0.2643212890625,0.2530859375,0.074,0.082,0.094,0.075,0.059,0.013,0.063,0.2585102430653367,0.27941316751682793,0.27455057807241773,0.26978235781324245,0.26360686216613644,0.2730068068450683,0.2598173321147669,-0.476,-43.136,-4.624,-11.572,2.048,0.104,0.104
202,0.255283203125,0.277462890625,0.2689189453125,0.2637177734375,0.2589384765625,0.265560546875,0.2539130859375,0.077,0.067,0.065,0.092,0.052,0.1,0.078,0.2592982023712117,0.28006321154674607,0.27524568509862507,0.2705125638651302,0.26437241412572904,0.27371414444591263,0.26060005346578247,0.0,-41.948,-4.276,-12.188,2.128,-0.2,0.096
203,0.2561064453125,0.2781826171875,0.2693525390625,0.2643037109375,0.2591455078125,0.2663740234375,0.2547392578125,0.081,0.076,0.032,0.068,0.009,0.118,0.076,0.2600791520771753,0.28070317955913315,0.27593157554508924,0.27123429484663575,0.26513033665198094,0.2744125152777288,0.2613756121862444,-0.052,-41.14,-3.468,-11.936,2.48,-0.312,0.14
204,0.2568330078125,0.2789033203125,0.27036328125,0.265169921875,0.260578125,0.2665810546875,0.255552734375,0.08,0.074,0.064,0.07,0.073,0.054,0.077,0.2608530710718798,0.2813330485294625,0.27660822644483657,0.2719475281461777,0.2658806078723073,0.2751018964622122,0.26214398695982005,-0.316,-41.84,-3.768,-11.732,2.268,-0.104,0.128
205,0.2575537109375,0.2796240234375,0.2713642578125,0.265748046875,0.2614052734375,0.2672001953125,0.25637890625,0.075,0.066,0.107,0.076,0.123,0.031,0.085,0.26161993843403886,0.2819527957965474,0.2772756151402793,0.27265224141840416,0.26662320613492974,0.2757822654155563,0.26290515666762915,0.372,-42.596,-4.624,-11.592,2.016,0.044,0.136
206,0.2584794921875,0.28034375,0.2717978515625,0.2661806640625,0.2622314453125,0.26802734375,0.2571923828125,0.084,0.075,0.081,0.047,0.088,0.071,0.086,0.26237973343299315,0.28256239906335645,0.27793371928397387,0.27334841258489345,0.26735811000950194,0.27645359984919204,0.26365910038882356,1.116,-41.408,-4.276,-10.928,2.024,-0.016,0.156
207,0.25940625,0.2809619140625,0.2726640625,0.26690234375,0.262837890625,0.2684404296875,0.258224609375,0.092,0.073,0.056,0.05,0.079,0.067,0.092,0.26313243552927074,0.28316183639781595,0.27858251683936947,0.2740360198348451,0.26808529828772765,0.27711587777051877,0.26440579740116255,0.528,-41.408,-3.816,-10.7,2.004,0.012,0.168
208,0.260029296875,0.281373046875,0.273810546875,0.267921875,0.26387109375,0.2692666015625,0.25905078125,0.078,0.05,0.102,0.087,0.077,0.042,0.09,0.2638780243751425,0.2837510862335986,0.2792219860815454,0.27471504162576366,0.2688047499839729,0.2777690774836238,0.26514522718158257,-0.688,-42.164,-4.348,-11.616,2.004,0.2,0.16
209,0.2608525390625,0.281990234375,0.2745322265625,0.26835546875,0.264490234375,0.27069921875,0.2598642578125,0.067,0.045,0.099,0.081,0.08,0.119,0.092,0.2646164798151718,0.2843301273708999,0.2798521055979395,0.2753854566841332,0.2695164443358715,0.2784131775899937,0.2658773694067611,-1.276,-41.464,-4.832,-11.776,2.088,-0.14,0.172
210,0.2618818359375,0.2826142578125,0.2748203125,0.2690771484375,0.26573046875,0.2711123046875,0.26069140625,0.086,0.062,0.056,0.059,0.08,0.113,0.083,0.26534778188675967,0.2848989389772004,0.28047285428906393,0.27604724400608466,0.27022036080492423,0.2790481569892151,0.2666022039536752,0.052,-40.708,-4.068,-11.252,1.996,-0.212,0.168
211,0.262705078125,0.28312890625,0.2753984375,0.269654296875,0.26675,0.2711123046875,0.2612978515625,0.1,0.06,0.037,0.069,0.129,-0.001,0.073,0.2660719108206845,0.2854575005880155,0.2810842113692129,0.27670038285805265,0.2709164790770918,0.2796739948796662,0.2673197109001546,-0.156,-41.3,-3.836,-11.388,1.904,0.188,0.172
212,0.2633291015625,0.2836435546875,0.2763994140625,0.2703857421875,0.267783203125,0.2721455078125,0.26191796875,0.077,0.057,0.075,0.054,0.083,0.046,0.05,0.26678884704163625,0.2860057921076315,0.28168615636715766,0.27734485277742615,0.2716047790633808,0.2802906707591979,0.26802987052542954,-1.06,-42.004,-4.484,-10.952,1.996,0.168,0.2
213,0.26415234375,0.2840556640625,0.2769775390625,0.271396484375,0.269228515625,0.2729716796875,0.262537109375,0.07,0.043,0.083,0.096,0.15,0.102,0.066,0.26749857116874576,0.2865437938098288,0.28227866912683275,0.2779806335731888,0.27228524090042344,0.2808981644258054,0.2687326633106724,-0.744,-40.924,-4.764,-11.592,1.612,0.024,0.156
214,0.265181640625,0.284775390625,0.277265625,0.2716845703125,0.269435546875,0.2733720703125,0.2631572265625,0.089,0.054,0.044,0.068,0.079,0.058,0.064,0.2682010640161083,0.28707148633859136,0.28286172980801033,0.278607705326552,0.2729578449510511,0.28149645597829026,0.2694280699395346,0.052,-40.544,-3.932,-11.32,2.056,0.108,0.208
215,0.265908203125,0.2852900390625,0.277978515625,0.27255078125,0.2710751953125,0.2739921875,0.263970703125,0.092,0.061,0.033,0.05,0.084,0.051,0.067,0.26889630659330316,0.28758885070880347,0.2834353188869649,0.2792260483915786,0.27362257180486044,0.2820855258169125,0.2701160712986771,-0.636,-40.924,-3.608,-11.296,1.964,0.172,0.212
216,0.266525390625,0.2857021484375,0.2789892578125,0.2732822265625,0.2719013671875,0.274611328125,0.26458984375,0.068,0.043,0.093,0.085,0.139,0.059,0.076,0.26958428010590574,0.2880958683069323,0.2839994171571269,0.2798356433957989,0.2742794022787742,0.2826653546440321,0.2707966484782959,-1.648,-41.788,-5.04,-11.912,1.788,0.244,0.188
217,0.2674521484375,0.2862158203125,0.27926953125,0.2740126953125,0.2731279296875,0.2754375,0.265416015625,0.072,0.049,0.078,0.07,0.091,0.077,0.074,0.27026496595599675,0.28859252089169796,0.284554005729726,0.28043647124081683,0.27492831741759455,0.28323592346474175,0.27146978277264194,-1.116,-41.84,-4.88,-11.548,1.776,0.148,0.224
218,0.2681728515625,0.2866279296875,0.2797021484375,0.2747353515625,0.2733349609375,0.2758505859375,0.2660361328125,0.088,0.051,0.024,0.067,0.083,0.07,0.077,0.2709383457426643,0.28907879059472963,0.2850990660344232,0.2810285131029089,0.2755692984945498,0.28379721358748866,0.2721354556805349,-2.392,-42.328,-4.184,-12.072,1.932,0.192,0.224
219,0.2687958984375,0.2869365234375,0.2804150390625,0.2756015625,0.2741611328125,0.2766640625,0.2668623046875,0.066,0.036,0.054,0.082,0.029,0.051,0.066,0.2716044012625014,0.2895546599212084,0.28563457981993307,0.2816117504336137,0.27620232701183534,0.2843492066246872,0.2727936489058721,-1.06,-41.356,-4.508,-12.304,2.236,0.2,0.264
220,0.269619140625,0.2875537109375,0.2809931640625,0.2760341796875,0.275193359375,0.277490234375,0.26767578125,0.072,0.04,0.064,0.079,0.117,0.101,0.082,0.27226311451009855,0.29002011175049663,0.28616052915463486,0.2821861649603132,0.27682738470114715,0.28489188449332137,0.2734443443581311,0.264,-40.652,-4.532,-12.28,1.84,-0.088,0.208
221,0.2702373046875,0.288068359375,0.28171484375,0.2764765625,0.2758134765625,0.2772841796875,0.2682958984375,0.073,0.056,0.068,0.034,0.065,0.023,0.068,0.2729144676785296,0.29047512933675407,0.28667689642717276,0.2827517386868049,0.277444453524209,0.28542522941553666,0.27408752415286675,-1.7,-41.68,-4.808,-11.432,1.984,0.296,0.292
222,0.27095703125,0.28848046875,0.282572265625,0.2774873046875,0.2772470703125,0.2779033203125,0.2689150390625,0.068,0.047,0.082,0.072,0.118,0.003,0.064,0.273558443159834,0.29091969630954034,0.28718366434704545,0.28330845389386594,0.2780535156732932,0.2859492239192229,0.27472317061220336,-1.328,-41.032,-5.156,-11.892,1.548,0.46,0.26
223,0.2715751953125,0.2889951171875,0.2830048828125,0.277919921875,0.2772470703125,0.27873046875,0.26953515625,0.066,0.045,0.064,0.068,0.08,0.075,0.068,0.27419502354549224,0.2913537966744037,0.28768081594518546,0.2838562931398082,0.2786545535717342,0.28646385083858655,0.2753512662653198,-0.212,-40.22,-4.9,-11.66,1.788,0.224,0.264
224,0.272404296875,0.28940625,0.2834384765625,0.2786416015625,0.278279296875,0.2789365234375,0.2701416015625,0.072,0.046,0.043,0.056,0.032,0.06,0.061,0.2748241916268967,0.29177741481345665,0.2881683345745273,0.2843952392610244,0.2792475498744362,0.28696909331471304,0.27597179384893056,-0.528,-40.6,-4.324,-11.936,1.868,0.284,0.264
225,0.27281640625,0.289818359375,0.2843046875,0.2793642578125,0.278279296875,0.279349609375,0.27076171875,0.064,0.042,0.064,0.077,0.067,0.027,0.058,0.2754459303958168,0.29219053548593765,0.2886462039105646,0.2849252753725265,0.2798324874683734,0.2874649347961189,0.27658473630775926,-2.072,-41.464,-4.716,-12.44,1.904,0.436,0.284
226,0.2735361328125,0.2903330078125,0.284873046875,0.2799501953125,0.27910546875,0.280576171875,0.271380859375,0.051,0.045,0.075,0.058,0.03,0.088,0.057,0.2760602230448586,0.2925931438287599,0.2891144079518972,0.28544638486847385,0.28040934947308405,0.2879513590392941,0.27719007679500823,-1.06,-41.356,-5.224,-12.232,1.904,0.116,0.276
227,0.274154296875,0.2908466796875,0.2851611328125,0.2803837890625,0.2795185546875,0.280576171875,0.27198828125,0.069,0.049,0.039,0.059,0.075,0.068,0.071,0.27666705296791944,0.2929852253570454,0.28957293102076626,0.2859585514226943,0.28097811924115734,0.28842835010923423,0.2777877986728211,-0.688,-41.3,-4.74,-12.532,1.848,0.188,0.284
228,0.2747783203125,0.29146484375,0.2855947265625,0.28081640625,0.279931640625,0.2809892578125,0.272814453125,0.067,0.058,0.034,0.043,0.023,0.011,0.059,0.27726640376063666,0.29336676596464656,0.2900217577635801,0.28646175898919507,0.2815387803587142,0.2888958923799624,0.2783778855127403,-0.688,-41.464,-4.348,-12.12,2.004,0.396,0.336
229,0.2752919921875,0.2918759765625,0.28631640625,0.2815380859375,0.2807451171875,0.281609375,0.27343359375,0.055,0.051,0.058,0.058,0.076,0.062,0.078,0.2778582592208313,0.29373775192465373,0.29046087315142755,0.28695599180266573,0.2820913166458806,0.2893539705350413,0.27896032109615854,-1.54,-41.516,-4.9,-12.232,1.816,0.276,0.292
230,0.2757041015625,0.2922939453125,0.286884765625,0.2822607421875,0.2809521484375,0.2820224609375,0.274041015625,0.042,0.04,0.075,0.069,0.049,0.046,0.066,0.2784426033489456,0.2940981698898887,0.2908902624805816,0.2874412343789722,0.28263571215725486,0.2898025695680747,0.27953508941476435,-1.752,-42.004,-5.756,-12.624,1.832,0.4,0.312
231,0.2764248046875,0.2927060546875,0.286884765625,0.2828466796875,0.281158203125,0.2830556640625,0.2744541015625,0.059,0.043,0.025,0.06,0.027,0.072,0.043,0.27901942034847604,0.29444800689338524,0.2913099113729918,0.2879174715156414,0.2831719511823674,0.2902416747831994,0.28010217467098253,-0.744,-42.004,-4.996,-12.644,1.904,0.296,0.336
232,0.2769384765625,0.2931171875,0.287173828125,0.2834248046875,0.281365234375,0.2836748046875,0.27466015625,0.059,0.045,0.007,0.056,0.021,0.078,0.028,0.2795886946264,0.2947872503488554,0.29171980577676526,0.2883846882923382,0.28370001824613433,0.29067127179556623,0.280661561278408,-0.316,-41.356,-4.068,-12.624,2.08,0.26,0.344
233,0.2773505859375,0.293529296875,0.2878955078125,0.283857421875,0.2819853515625,0.2840751953125,0.27507421875,0.048,0.042,0.048,0.058,0.023,0.051,0.032,0.2801504107935976,0.2951158880511423,0.2921199319666377,0.28884287007133247,0.28421989810930415,0.2910913465318118,0.2812132338622343,0.156,-41.192,-4.44,-12.852,2.036,0.232,0.344
234,0.27787109375,0.294146484375,0.2884736328125,0.284146484375,0.2826044921875,0.2842822265625,0.2754873046875,0.051,0.047,0.069,0.038,0.062,0.04,0.046,0.28070455366526736,0.2954339081766597,0.29251027654443285,0.28929200249795767,0.28473157576889735,0.291501885230519,0.2817571772596762,0.212,-41.68,-5.108,-12.576,1.848,0.24,0.316
235,0.2783857421875,0.29455859375,0.28890625,0.2845791015625,0.283017578125,0.28448828125,0.2761064453125,0.053,0.056,0.05,0.028,0.059,0.008,0.046,0.2812511082613369,0.29574129928381676,0.292890826439511,0.2897320715010606,0.28523503645863946,0.29190287444266816,0.28229337652038633,-1.116,-42.164,-4.9,-11.936,1.764,0.428,0.332
236,0.278900390625,0.2948671875,0.289330078125,0.2853017578125,0.28341796875,0.2849013671875,0.2765068359375,0.048,0.037,0.047,0.061,0.05,0.024,0.051,0.2817900598068681,0.29603805031343,0.2932615689092064,0.29016306329344266,0.28573026564938714,0.2922943010320776,0.28282181690686614,-0.796,-42.164,-5.364,-12.712,1.728,0.512,0.324
237,0.2794150390625,0.29517578125,0.289474609375,0.2857431640625,0.283224609375,0.286140625,0.277126953125,0.049,0.026,0.029,0.064,0.008,0.084,0.059,0.2823213937324559,0.2963241505891214,0.2936224915392548,0.29058496437229087,0.2862172490495473,0.29267615217583376,0.28334248389487127,0.476,-42.272,-4.74,-13.032,2.008,0.16,0.312
238,0.2799296875,0.2953818359375,0.289763671875,0.2864658203125,0.28341796875,0.28634765625,0.27774609375,0.052,0.024,0.018,0.054,-0.011,0.081,0.06,0.2828450956746227,0.29659958981770185,0.2939735822442084,0.2909977615196019,0.2866959726054902,0.2930484153647116,0.2838553631738101,0.0,-42.544,-4.276,-13.308,2.16,0.108,0.284
239,0.280341796875,0.2956904296875,0.2903408203125,0.2868984375,0.283625,0.2865537109375,0.278353515625,0.044,0.024,0.045,0.06,0.021,0.013,0.067,0.28336115147620655,0.29686435808954215,0.29431482926784047,0.29140144180259553,0.28716642250195396,0.29341107840358405,0.2843604406471377,-0.584,-41.68,-4.532,-13.468,2.128,0.244,0.264
240,0.2808623046875,0.2961015625,0.2909189453125,0.28704296875,0.284451171875,0.2867607421875,0.2791796875,0.046,0.037,0.053,0.027,0.051,0.028,0.062,0.2838695471867437,0.29711844587892905,0.2946462211835397,0.2917959925741203,0.28762858516244416,0.2937641294118216,0.284857702432743,-0.476,-41.032,-4.948,-12.668,1.932,0.168,0.272
241,0.281376953125,0.2963076171875,0.2913427734375,0.2874755859375,0.2850703125,0.2867607421875,0.280005859375,0.056,0.033,0.047,0.026,0.088,0.011,0.074,0.28437026906284557,0.2973618440444085,0.2949677468946921,0.29218140147304916,0.2880824472496253,0.29410755682368195,0.28534713486333024,-0.264,-41.624,-5.132,-12.324,1.664,0.348,0.22
242,0.281994140625,0.296513671875,0.2914873046875,0.2879091796875,0.28527734375,0.286966796875,0.2808193359375,0.055,0.027,0.035,0.038,0.038,0.002,0.08,0.284863303568571,0.2975945438291139,0.2952793956350529,0.29255765642466747,0.28852799566570553,0.29444134938868793,0.28582872448679497,0.584,-41.84,-4.948,-12.14,1.744,0.472,0.224
243,0.28240625,0.2967197265625,0.291630859375,0.288630859375,0.2854833984375,0.2873671875,0.2814384765625,0.051,0.015,0.02,0.059,0.021,0.035,0.077,0.28534863737579114,0.29781653686108156,0.2955811569691071,0.2929247456410504,0.28896521755281496,0.29476549617199715,0.28630245806659327,0.316,-40.868,-4.464,-12.624,1.872,0.336,0.188
244,0.2828173828125,0.296822265625,0.291919921875,0.2890732421875,0.2854833984375,0.2879873046875,0.2818515625,0.045,0.012,0.018,0.056,0.006,0.056,0.057,0.2858262573645506,0.2980278151535517,0.29587302079241873,0.29328265762143324,0.2893941002933764,0.29507998655475953,0.28676832258210616,-0.796,-41.084,-4.576,-12.852,2.076,0.2,0.172
245,0.28333203125,0.2969248046875,0.292208984375,0.289650390625,0.286310546875,0.288400390625,0.282265625,0.046,0.013,0.032,0.052,0.034,0.044,0.046,0.2862961506234216,0.2982283711052562,0.2961549773319693,0.2936313811525709,0.2898146315104698,0.29538481023446517,0.28722630522899684,-0.744,-41.3,-4.808,-12.988,1.976,0.24,0.188
246,0.2839560546875,0.297234375,0.292498046875,0.289794921875,0.2867236328125,0.288607421875,0.2826650390625,0.055,0.018,0.026,0.04,0.059,0.032,0.044,0.2867583044498534,0.2984181975006914,0.2964270171464852,0.29397090530908965,0.29022679906818916,0.29567995722528223,0.28767639341956325,-0.264,-41.408,-4.576,-12.624,1.964,0.276,0.188
247,0.2843671875,0.2973369140625,0.2927861328125,0.290228515625,0.2875361328125,0.2890205078125,0.283078125,0.052,0.023,0.024,0.028,0.055,0.036,0.039,0.28721270635051516,0.2985972875103782,0.2966891311267533,0.29430121945382925,0.29063059107199274,0.2959654178583838,0.2881185747830835,-0.316,-41.516,-4.74,-12.416,1.912,0.344,0.168
248,0.284779296875,0.29754296875,0.2930751953125,0.2906611328125,0.2879501953125,0.28943359375,0.2834912109375,0.044,0.014,0.028,0.041,0.065,0.039,0.043,0.2876593440416343,0.2987656346911076,0.29694131049592654,0.2946223132381763,0.29102599586904676,0.2962411827822646,0.28855283716615615,-1.06,-41.732,-4.88,-12.508,1.82,0.344,0.168
249,0.2852939453125,0.29754296875,0.2932197265625,0.2909501953125,0.28815625,0.290052734375,0.2839052734375,0.045,0.011,0.025,0.038,0.033,0.053,0.037,0.28809820544932796,0.2989232329861727,0.2971835468098178,0.2949341766023882,0.29141300204856097,0.29650724296304765,0.2889791686330344,-0.956,-41.948,-4.996,-12.668,1.976,0.296,0.128
250,0.28580859375,0.2976455078125,0.2932197265625,0.29123828125,0.28836328125,0.29066015625,0.284318359375,0.047,0.006,0.009,0.035,0.028,0.063,0.036,0.28852927870992995,0.2990700767255861,0.297415831957182,0.2952367997759089,0.29179159844211866,0.29676358968477967,0.2893975574659537,-0.372,-41.14,-4.624,-13.032,2.108,0.172,0.16
251,0.2863291015625,0.2978515625,0.2934990234375,0.2913828125,0.288982421875,0.2908662109375,0.2845244140625,0.05,0.017,0.012,0.012,0.023,0.043,0.034,0.288952552170311,0.2992061606262845,0.2976381581599887,0.29553017327767417,0.2921617741239984,0.297010214549717,0.2898079921654542,-0.052,-40.868,-4.392,-12.464,2.132,0.148,0.168
252,0.2867412109375,0.2979541015625,0.2940771484375,0.29152734375,0.290015625,0.2908662109375,0.2849248046875,0.049,0.015,0.036,0.018,0.089,0.006,0.036,0.28936801438819393,0.2993314797923185,0.29785051797368156,0.29581428791640957,0.2925235184114899,0.2972471094786009,0.29021046145069673,-0.528,-41.032,-4.672,-12.44,1.816,0.292,0.14
253,0.28715234375,0.2980576171875,0.294509765625,0.291671875,0.290208984375,0.2910732421875,0.285337890625,0.04,0.012,0.054,0.017,0.066,0.004,0.04,0.2897756541324632,0.2994460297150285,0.2980529042874285,0.29608913479091753,0.2928768208652014,0.2974742667109215,0.29060495425977256,-0.956,-41.3,-5.248,-12.072,1.828,0.376,0.172
254,0.287564453125,0.29816015625,0.294798828125,0.2919697265625,0.2908291015625,0.291486328125,0.2857509765625,0.041,0.009,0.041,0.023,0.038,0.028,0.044,0.2901754603834681,0.2995498062732075,0.2982453103243589,0.29635470529035685,0.2932216712893621,0.29769167880517283,0.29099145975000806,-0.528,-40.6,-5.18,-12.14,1.88,0.368,0.156
255,0.2880791015625,0.29816015625,0.294943359375,0.2922587890625,0.29103515625,0.2916923828125,0.28637109375,0.05,0.005,0.021,0.028,0.048,0.04,0.044,0.2905674223333209,0.29964280573324864,0.29842772964179154,0.29661099109451206,0.2935580597321154,0.29789933863909607,0.2913699672982619,0.584,-40.436,-4.484,-12.212,1.944,0.22,0.148
256,0.288490234375,0.2982626953125,0.2950869140625,0.29240234375,0.2914482421875,0.2916923828125,0.2867841796875,0.046,0.006,0.017,0.021,0.03,0.008,0.05,0.2909515293861891,0.2997250247492801,0.29860015613144925,0.29685798417405446,0.2938859764858068,0.2980972394099129,0.29174046650121793,0.052,-40.492,-4.556,-12.188,1.972,0.284,0.172
257,0.28890234375,0.2983662109375,0.2955205078125,0.29269140625,0.292275390625,0.2916923828125,0.28759765625,0.043,0.011,0.025,0.016,0.049,-0.001,0.061,0.29132777115858166,0.29979646036328533,0.29876258401966427,0.2970956767907934,0.29420541208726336,0.2982853746345487,0.2921029471756703,-0.528,-40.544,-4.808,-11.912,1.892,0.284,0.14
258,0.2894228515625,0.29846875,0.29565625,0.29298046875,0.2926884765625,0.2916923828125,0.2880107421875,0.043,0.004,0.028,0.029,0.069,-0.001,0.063,0.2916961374796295,0.2998571100052093,0.29891500786757147,0.29732406149791896,0.2945163573180674,0.2984637381498445,0.2924573993588037,-1.328,-40.868,-5.132,-12.052,1.756,0.276,0.14
259,0.2897314453125,0.29846875,0.2957998046875,0.2932783203125,0.2926884765625,0.2916923828125,0.288423828125,0.04,0.007,0.017,0.027,0.024,-0.001,0.051,0.2920566183913613,0.29990697149305107,0.29905742257129,0.2975431311402347,0.2948188032048224,0.2986323241127593,0.29280381330846744,-2.284,-40.924,-5.156,-12.028,1.964,0.344,0.156
260,0.2901435546875,0.2983662109375,0.2957998046875,0.2937109375,0.2931015625,0.2923125,0.2888369140625,0.037,-0.005,0.008,0.037,0.013,0.023,0.042,0.29240920414897154,0.2999460430329425,0.2991898233620945,0.2977528788543827,0.2951127410194116,0.2987911270005611,0.2931421795034427,-0.848,-40.816,-5.016,-12.324,2.004,0.276,0.14
261,0.2905546875,0.29846875,0.2957998046875,0.2937109375,0.2931015625,0.2927255859375,0.2890302734375,0.044,-0.001,-0.001,0.027,0.028,0.046,0.031,0.29275388522108464,0.2999743232192122,0.2993122058065748,0.2979532980690577,0.2953981622792503,0.298940141611008,0.29347248864370473,0.0,-40.924,-4.484,-12.304,2.076,0.192,0.148
262,0.290966796875,0.2985712890625,0.2960888671875,0.29385546875,0.2935146484375,0.2927255859375,0.289443359375,0.037,0.012,0.01,0.001,0.013,0.026,0.022,0.2930906522900127,0.29999181103443695,0.2994245658067846,0.2981443825052137,0.2956750587475304,0.2990793630625186,0.29379473165067793,-0.528,-41.032,-4.624,-12.028,2.096,0.292,0.192
263,0.291275390625,0.2986748046875,0.2963779296875,0.29385546875,0.29412109375,0.2929326171875,0.289650390625,0.031,0.008,0.033,0.01,0.063,0.009,0.036,0.29341949625200703,0.2999985058494774,0.29952689960037804,0.2983261261762603,0.2959434224334581,0.29920878679433194,0.29410889966748577,-0.528,-40.276,-5.088,-12.028,1.82,0.344,0.156
264,0.291583984375,0.29877734375,0.2965224609375,0.29385546875,0.2945341796875,0.293138671875,0.2898564453125,0.036,0.012,0.025,-0.001,0.042,0.028,0.024,0.2937404082175041,0.29999440742350136,0.29961920376073614,0.2984985233882501,0.29620324559248484,0.2993284085666569,0.29441498405919414,-0.796,-40.6,-5.204,-11.272,1.796,0.348,0.156
265,0.291892578125,0.29877734375,0.296666015625,0.2942890625,0.2945341796875,0.293138671875,0.2900634765625,0.034,0.006,0.013,0.017,0.024,0.006,0.021,0.2940533795113665,0.29997951590399236,0.2997014751970818,0.29866156874005767,0.2964545207265303,0.2994382244608108,0.2947129764130486,-1.648,-40.492,-5.18,-11.684,1.78,0.4,0.148
266,0.2922080078125,0.2986748046875,0.296810546875,0.2945771484375,0.294328125,0.2937587890625,0.29026953125,0.028,-0.008,0.013,0.031,-0.015,0.02,0.019,0.2943584016731168,0.2999538318267439,0.29977371115458246,0.29881525712354795,0.29669724058419905,0.2995382308793485,0.2950028685387057,-1.06,-40.436,-4.9,-11.912,2.088,0.296,0.18
267,0.2925166015625,0.2986748046875,0.296955078125,0.2947216796875,0.2947412109375,0.29396484375,0.2906826171875,0.031,-0.004,0.009,0.028,0.016,0.051,0.038,0.2946554664571668,0.2999173561158408,0.2998359092144432,0.2989595837237372,0.2969313981609899,0.29962842454617944,0.2952846524684581,-0.372,-40.328,-4.692,-12.14,2.004,0.148,0.148
268,0.29272265625,0.29877734375,0.297099609375,0.2947216796875,0.2947412109375,0.29396484375,0.2910966796875,0.028,0.006,0.014,0.008,0.009,0.011,0.034,0.2949445658330398,0.29987009008362553,0.29988806729398726,0.2990945440189431,0.29715698669949764,0.2997088025066753,0.2955583204574533,-0.848,-40.652,-4.764,-11.708,2.044,0.232,0.148
269,0.29303125,0.298880859375,0.297244140625,0.29501953125,0.295154296875,0.29396484375,0.2912900390625,0.026,0.01,0.018,0.011,0.029,-0.001,0.03,0.2952256919855883,0.29981203543065094,0.29993018364672575,0.29922013378092677,0.2973739996896087,0.2997793621277669,0.2958238649839068,-0.316,-40.816,-5.18,-11.48,1.828,0.284,0.12
270,0.293443359375,0.298880859375,0.297099609375,0.29501953125,0.294947265625,0.29396484375,0.291703125,0.032,0.005,0.004,0.017,0.02,-0.001,0.033,0.29549883731520493,0.2997431942456195,0.2999622568624165,0.2993363490750253,0.2975824308686883,0.29984010109803017,0.29608127874930884,0.104,-40.976,-4.924,-11.572,1.86,0.276,0.136
271,0.2936484375,0.298880859375,0.297099609375,0.29530859375,0.294947265625,0.29396484375,0.2919091796875,0.032,-0.001,-0.011,0.006,-0.016,-0.001,0.026,0.29576399443802803,0.2996635690053077,0.299984285867111,0.2994431862602746,0.2977822742217618,0.29989101742776214,0.2963305546786249,-0.316,-40.976,-4.672,-11.456,1.976,0.292,0.156
272,0.2938544921875,0.298880859375,0.297388671875,0.295453125,0.2947412109375,0.29396484375,0.2923232421875,0.024,-0.001,0.009,0.028,-0.003,-0.001,0.033,0.2960211561861409,0.2995731625744774,0.2999962699231902,0.299540641989524,0.2979735239816877,0.2999321094490461,0.29657168592049005,-0.9,-40.816,-4.88,-11.936,1.952,0.26,0.14
273,0.2941630859375,0.298880859375,0.2975322265625,0.2955966796875,0.2947412109375,0.294158203125,0.292529296875,0.023,-0.004,0.023,0.019,-0.016,0.013,0.024,0.2962703156077663,0.29947197820577204,0.29999820862938964,0.2996287132095409,0.29815617462932453,0.2999633758158059,0.2968046658473974,-0.744,-40.652,-4.996,-11.912,2.1,0.192,0.14
274,0.2944716796875,0.298880859375,0.2975322265625,0.2955966796875,0.295154296875,0.294158203125,0.292736328125,0.03,0.003,0.011,0.004,0.013,0.004,0.017,0.29651146596745354,0.29936001953960056,0.2999901019208125,0.29970739716110606,0.2983302208936899,0.2999848155038505,0.2970294880558804,-0.796,-40.868,-4.856,-11.708,1.972,0.22,0.12
275,0.2947802734375,0.2989833984375,0.2976767578125,0.295453125,0.295154296875,0.294158203125,0.2929423828125,0.03,0.006,0.01,-0.009,0.024,-0.001,0.02,0.296744600746261,0.2992372906040056,0.29997195006893207,0.2997766913791008,0.2984956577521128,0.299996427810907,0.2972461463666884,-0.688,-41.032,-4.972,-11.572,1.92,0.272,0.156
276,0.29508984375,0.2989833984375,0.2976767578125,0.2955966796875,0.2953603515625,0.294158203125,0.2933427734375,0.028,0.005,0.004,-0.001,0.006,-0.001,0.03,0.2969697136419326,0.2991037958145189,0.2999437536815825,0.2998365936925836,0.2986524804303782,0.2999982123566443,0.29745463482495704,-0.584,-41.032,-4.972,-11.252,1.936,0.304,0.156
277,0.2953017578125,0.298880859375,0.2976767578125,0.2957412109375,0.2955673828125,0.294365234375,0.293548828125,0.025,-0.008,-0.001,0.018,0.028,0.002,0.033,0.29718679856906743,0.2989595399740027,0.2999055137029384,0.2998871022248581,0.298800684402865,0.2999901690826849,0.2976549477003714,-1.008,-40.868,-4.856,-11.64,1.992,0.368,0.156
278,0.2956103515625,0.298880859375,0.2976767578125,0.2958857421875,0.29598046875,0.2949853515625,0.293962890625,0.025,-0.003,-0.001,0.013,0.015,0.037,0.028,0.29739584965928495,0.2988045282724764,0.2998572314134832,0.29992821539353265,0.29894026539267704,0.29997229825260724,0.29784707948732375,-0.848,-40.816,-5.088,-11.64,2.128,0.264,0.168
279,0.29581640625,0.298880859375,0.2976767578125,0.2958857421875,0.2961865234375,0.2949853515625,0.2941689453125,0.027,-0.001,-0.004,0.003,0.039,0.037,0.034,0.29759686126138324,0.29863876628693037,0.29979890842996654,0.2999599319105689,0.2990712193717656,0.29994460045193677,0.2980310249050651,-1.488,-40.816,-4.972,-11.844,2.088,0.188,0.136
280,0.2960224609375,0.298880859375,0.2976767578125,0.2958857421875,0.296599609375,0.2949853515625,0.2941689453125,0.019,-0.001,0.002,-0.001,0.034,0.002,0.012,0.29778982794149195,0.29846225998112486,0.29973054670534993,0.2999822507823228,0.2991935425610467,0.29990707658812704,0.29820677889784986,-1.488,-40.708,-5.064,-11.684,2.076,0.2,0.14
281,0.2963310546875,0.298880859375,0.2976767578125,0.2958857421875,0.297,0.2949853515625,0.2941689453125,0.024,-0.001,-0.001,-0.001,0.04,-0.001,-0.001,0.2979747444832191,0.2982750157053756,0.2996521485287412,0.2999951713095755,0.29930723143050925,0.2998597278905298,0.2983743366350751,-0.956,-40.816,-4.972,-11.5,1.992,0.212,0.156
282,0.2965361328125,0.298880859375,0.2976767578125,0.2958857421875,0.2974130859375,0.2947783203125,0.2943759765625,0.023,-0.001,-0.001,-0.001,0.037,-0.015,-0.001,0.29815160588779194,0.29807704019632564,0.2995637165253182,0.2999986930875552,0.2994122826993173,0.2998025559103547,0.2985336935114133,-0.744,-40.816,-4.832,-11.388,2.004,0.26,0.18
283,0.2966396484375,0.29877734375,0.2976767578125,0.2958857421875,0.297826171875,0.2949853515625,0.29458203125,0.02,-0.002,-0.001,-0.001,0.042,-0.005,0.015,0.29832040737419263,0.2978683405767023,0.29946525365624066,0.2999928160059501,0.299508693335905,0.2997355625206185,0.29868484514693877,-0.528,-40.652,-4.88,-11.524,1.984,0.26,0.148
284,0.296845703125,0.29877734375,0.2976767578125,0.2958857421875,0.298033203125,0.2949853515625,0.2947890625,0.016,-0.008,-0.001,-0.001,0.032,0.015,0.02,0.2984811443792867,0.29764892435506146,0.299356763218551,0.2999775402489115,0.29959646055806366,0.29965874991608377,0.29882778738724824,-1.008,-40.652,-4.924,-11.48,2.004,0.24,0.156
285,0.29705078125,0.29877734375,0.2976767578125,0.2958857421875,0.2984462890625,0.2949853515625,0.2949951171875,0.016,-0.001,-0.001,-0.001,0.024,-0.001,0.022,0.29863381255794696,0.2974187994255174,0.29923824884506417,0.2999528662950482,0.29967558183302206,0.29957212061318705,0.29896251630357495,-1.22,-40.6,-4.856,-11.5,2.004,0.26,0.14
286,0.297154296875,0.29877734375,0.2976767578125,0.2958857421875,0.2984462890625,0.2949853515625,0.2949951171875,0.018,-0.001,-0.001,-0.001,0.027,-0.001,0.014,0.29877840778317094,0.2971779740674584,0.2991097145042457,0.2999187949174116,0.2997460548775198,0.2994756774499559,0.29908902819289646,-0.688,-40.544,-4.948,-11.456,1.936,0.26,0.136
287,0.297359375,0.2986748046875,0.2976767578125,0.2957412109375,0.2986533203125,0.2947783203125,0.2949951171875,0.015,-0.001,-0.001,-0.011,0.013,-0.013,-0.001,0.29891492614619214,0.29692645694524916,0.29897116450007916,0.2998753271834714,0.2998078776578729,0.2993694235859166,0.29920731957803676,-1.116,-40.436,-4.832,-11.296,2.004,0.264,0.14
288,0.297462890625,0.2986748046875,0.2976767578125,0.2958857421875,0.29906640625,0.2947783203125,0.2949951171875,0.011,-0.008,-0.001,0.004,0.024,-0.011,-0.001,0.29904336395658576,0.29666425710791916,0.29882260347192163,0.2998224644550819,0.29986104839003275,0.2992533625019905,0.29931738720776163,-1.008,-40.276,-4.9,-11.412,1.936,0.264,0.136
289,0.2975654296875,0.2986748046875,0.2975322265625,0.2958857421875,0.29906640625,0.2947783203125,0.2952021484375,0.013,-0.002,-0.002,0.006,0.025,-0.001,0.002,0.29916371774236883,0.29639138398883685,0.29866403639434863,0.29976020838844,0.2999055655396375,0.2991274980003794,0.29941922805686805,-0.528,-40.328,-4.972,-11.388,1.92,0.26,0.16
290,0.2976689453125,0.2986748046875,0.2975322265625,0.2957412109375,0.2992724609375,0.2947783203125,0.2952021484375,0.012,-0.001,-0.011,-0.011,0.007,-0.001,0.015,0.2992759842500935,0.29610784740537033,0.2984954685769875,0.2996885609340324,0.29994142782205596,0.29899183420444186,0.2995128393262673,-0.796,-40.328,-4.624,-11.272,1.932,0.272,0.16
291,0.2978740234375,0.2986748046875,0.2976767578125,0.2957412109375,0.2992724609375,0.2947783203125,0.295408203125,0.009,-0.001,0.009,-0.004,0.014,-0.001,0.01,0.29938016044493565,0.2958136575585341,0.29831690566433966,0.2996075243365752,0.2999686342024255,0.2988463755585572,0.29959821844306206,-0.372,-40.276,-4.9,-11.228,1.868,0.264,0.148
292,0.2979775390625,0.2986748046875,0.2975322265625,0.2957412109375,0.2992724609375,0.2947783203125,0.29580859375,0.013,-0.001,0.002,-0.001,-0.001,-0.001,0.036,0.2994762435107762,0.2955088250326223,0.2981283536355915,0.29951710113494345,0.2999871838956811,0.2986911268279807,0.2996753630606167,-0.104,-40.328,-4.9,-11.296,1.892,0.272,0.16
293,0.2980869140625,0.2985712890625,0.2975322265625,0.2957412109375,0.2992724609375,0.2947783203125,0.296015625,0.014,-0.002,-0.011,-0.001,-0.001,-0.001,0.031,0.29956423085027756,0.29519336079482766,0.297929818804414,0.2994172941620913,0.29999707636657835,0.29852609309868716,0.29974427105862234,-0.372,-40.868,-4.764,-11.228,1.9,0.272,0.136
294,0.298189453125,0.29846875,0.2976767578125,0.2960302734375,0.29906640625,0.2947783203125,0.2962216796875,0.01,-0.012,0.01,0.013,-0.001,-0.001,0.019,0.2996441200849543,0.2948672761948469,0.2977213078187516,0.29930810654496354,0.29999831132970894,0.298351279777204,0.29980494054315476,-0.636,-41.624,-5.088,-11.64,1.952,0.272,0.14
295,0.2982919921875,0.2983662109375,0.2976767578125,0.2961748046875,0.298859375,0.2949853515625,0.2964287109375,0.011,-0.014,0.003,0.015,-0.023,0.008,0.02,0.2997159090552366,0.29453058296447243,0.2975028276605998,0.2991895417043974,0.29999088874950863,0.2981666925904346,0.29985736984672656,-0.956,-41.624,-5.108,-11.844,2.036,0.24,0.14
296,0.2983955078125,0.2982626953125,0.2976767578125,0.2961748046875,0.298859375,0.2949853515625,0.296634765625,0.011,-0.01,-0.001,0.01,-0.017,0.013,0.008,0.2997795958205292,0.2941832932171705,0.29727438564577063,0.29906160335501564,0.2999748088402587,0.2979723375854703,0.299901557528333,-0.9,-41.356,-4.856,-11.96,2.152,0.2,0.14
297,0.2986015625,0.2982626953125,0.2976767578125,0.2960302734375,0.29906640625,0.2949853515625,0.296634765625,0.015,-0.007,-0.001,-0.008,0.004,-0.001,0.015,0.2998351786592637,0.29382541944764523,0.29703598942364834,0.2989242955051102,0.29995007206607943,0.29776822112939283,0.29993750237349154,-0.956,-41.464,-4.832,-11.892,2.036,0.212,0.116
298,0.2987041015625,0.2980576171875,0.2978125,0.2960302734375,0.29906640625,0.2949853515625,0.296634765625,0.011,-0.009,0.001,-0.009,0.014,-0.001,0.002,0.29988265606894493,0.2934569745313887,0.296787646976933,0.29877762245651585,0.29991667914091663,0.29755434990906493,0.29996520339427524,-1.276,-42.38,-5.132,-11.64,2.056,0.232,0.104
