EmanuelSamir/lab201_ws_projsamir/sawyer_dev/data/sawyer/temp/test_drad_joint4.csv
,j1,j2,j3,j4,j5,j6,j7,v1,v2,v3,v4,v5,v6,v7,jd1,jd2,jd3,jd4,jd5,jd6,jd7,e1,e2,e3,e4,e5,e6,e7
0,0.0,0.0,0.0,0.0,0.0,0.0,0.0,0.0,0.0,0.0,0.0,0.0,0.0,0.0,0.0,0.0,0.0,0.0,0.0,0.0,0.0,0.0,0.0,0.0,0.0,0.0,0.0,0.0
1,0.0,0.0,0.0,-0.00209375,0.0,0.0,0.0,0.0,0.0,0.0,-0.001,0.0,0.0,0.0,0.0,0.0,-1.61,-0.0020938715933609253,0.0,0.0,0.0,0.0,0.0,0.0,0.64,0.0,0.0,0.0
2,0.0,0.0,0.0,-0.00209375,0.0,0.0,0.0,0.0,0.0,0.0,-0.001,0.0,0.0,0.0,0.0,0.0,-1.61,-0.002259374042156758,0.0,0.0,0.0,0.0,0.0,0.0,0.64,0.0,0.0,0.0
3,0.0,0.0,0.0,-0.00209375,0.0,0.0,0.0,0.0,0.0,0.0,-0.001,0.0,0.0,0.0,0.0,0.0,-1.61,-0.0023617382901354425,0.0,0.0,0.0,0.0,0.0,0.0,0.64,0.0,0.0,0.0
4,0.0,0.0,0.0,-0.00209375,0.0,0.0,0.0,0.0,0.0,0.0,-0.001,0.0,0.0,0.0,0.0,0.0,-1.61,-0.0024215749034292807,0.0,0.0,0.0,0.0,0.0,0.0,0.592,0.0,0.0,0.0
5,0.0,0.0,0.0,-0.00209375,0.0,0.0,0.0,0.0,0.0,0.0,-0.001,0.0,0.0,0.0,0.0,0.0,-1.61,-0.0024762751939410117,0.0,0.0,0.0,0.0,0.0,0.0,0.592,0.0,0.0,0.0
6,0.0,0.0,0.0,-0.00209375,0.0,0.0,0.0,0.0,0.0,0.0,-0.001,0.0,0.0,0.0,0.0,0.0,-1.61,-0.0025431792876332523,0.0,0.0,0.0,0.0,0.0,0.0,0.592,0.0,0.0,0.0
7,0.0,0.0,0.0,-0.00209375,0.0,0.0,0.0,0.0,0.0,0.0,-0.001,0.0,0.0,0.0,0.0,0.0,-1.61,-0.002599798452045364,0.0,0.0,0.0,0.0,0.0,0.0,0.592,0.0,0.0,0.0
8,0.0,0.0,0.0,-0.00209375,0.0,0.0,0.0,0.0,0.0,0.0,-0.001,0.0,0.0,0.0,0.0,0.0,-1.61,-0.0026774274157765733,0.0,0.0,0.0,0.0,0.0,0.0,0.592,0.0,0.0,0.0
9,0.0,0.0,0.0,-0.00209375,0.0,0.0,0.0,0.0,0.0,0.0,-0.001,0.0,0.0,0.0,0.0,0.0,-1.61,-0.002752012869547883,0.0,0.0,0.0,0.0,0.0,0.0,0.592,0.0,0.0,0.0
10,0.0,0.0,0.0,-0.00209375,0.0,0.0,0.0,0.0,0.0,0.0,-0.001,0.0,0.0,0.0,0.0,0.0,-1.61,-0.0028253488926997727,0.0,0.0,0.0,0.0,0.0,0.0,0.66,0.0,0.0,0.0
11,0.0,0.0,0.0,-0.00209375,0.0,0.0,0.0,0.0,0.0,0.0,-0.001,0.0,0.0,0.0,0.0,0.0,-1.61,-0.002901144187965197,0.0,0.0,0.0,0.0,0.0,0.0,0.568,0.0,0.0,0.0
12,0.0,0.0,0.0,-0.00209375,0.0,0.0,0.0,0.0,0.0,0.0,-0.001,0.0,0.0,0.0,0.0,0.0,-1.61,-0.0029741569418293714,0.0,0.0,0.0,0.0,0.0,0.0,0.568,0.0,0.0,0.0
13,0.0,0.0,0.0,-0.00209375,0.0,0.0,0.0,0.0,0.0,0.0,-0.001,0.0,0.0,0.0,0.0,0.0,-1.61,-0.003036342232789718,0.0,0.0,0.0,0.0,0.0,0.0,0.524,0.0,0.0,0.0
14,0.0,0.0,0.0,-0.00209375,0.0,0.0,0.0,0.0,0.0,0.0,-0.001,0.0,0.0,0.0,0.0,0.0,-1.61,-0.003091520051106731,0.0,0.0,0.0,0.0,0.0,0.0,0.524,0.0,0.0,0.0
15,0.0,0.0,0.0,-0.00209375,0.0,0.0,0.0,0.0,0.0,0.0,-0.001,0.0,0.0,0.0,0.0,0.0,-1.61,-0.003160240981662064,0.0,0.0,0.0,0.0,0.0,0.0,0.592,0.0,0.0,0.0
16,0.0,0.0,0.0,-0.00209375,0.0,0.0,0.0,0.0,0.0,0.0,-0.001,0.0,0.0,0.0,0.0,0.0,-1.61,-0.003231682423840116,0.0,0.0,0.0,0.0,0.0,0.0,0.592,0.0,0.0,0.0
17,0.0,0.0,0.0,-0.00209375,0.0,0.0,0.0,0.0,0.0,0.0,-0.001,0.0,0.0,0.0,0.0,0.0,-1.61,-0.003295577719650128,0.0,0.0,0.0,0.0,0.0,0.0,0.592,0.0,0.0,0.0
18,0.0,0.0,0.0,-0.00209375,0.0,0.0,0.0,0.0,0.0,0.0,-0.001,0.0,0.0,0.0,0.0,0.0,-1.61,-0.003353945712876419,0.0,0.0,0.0,0.0,0.0,0.0,0.592,0.0,0.0,0.0
19,0.0,0.0,0.0,-0.00209375,0.0,0.0,0.0,0.0,0.0,0.0,-0.001,0.0,0.0,0.0,0.0,0.0,-1.61,-0.0034072891480904114,0.0,0.0,0.0,0.0,0.0,0.0,0.592,0.0,0.0,0.0
20,0.0,0.0,0.0,-0.00209375,0.0,0.0,0.0,0.0,0.0,0.0,-0.001,0.0,0.0,0.0,0.0,0.0,-1.61,-0.003467633597281958,0.0,0.0,0.0,0.0,0.0,0.0,0.592,0.0,0.0,0.0
21,0.0,0.0,0.0,-0.00209375,0.0,0.0,0.0,0.0,0.0,0.0,-0.001,0.0,0.0,0.0,0.0,0.0,-1.61,-0.003544347488777953,0.0,0.0,0.0,0.0,0.0,0.0,0.592,0.0,0.0,0.0
22,0.0,0.0,0.0,-0.00209375,0.0,0.0,0.0,0.0,0.0,0.0,-0.001,0.0,0.0,0.0,0.0,0.0,-1.61,-0.0036193131219013647,0.0,0.0,0.0,0.0,0.0,0.0,0.5,0.0,0.0,0.0
23,0.0,0.0,0.0,-0.00209375,0.0,0.0,0.0,0.0,0.0,0.0,-0.001,0.0,0.0,0.0,0.0,0.0,-1.61,-0.0037310631068254506,0.0,0.0,0.0,0.0,0.0,0.0,0.64,0.0,0.0,0.0
24,0.0,0.0,0.0,-0.00209375,0.0,0.0,0.0,0.0,0.0,0.0,-0.001,0.0,0.0,0.0,0.0,0.0,-1.61,-0.0038061580387135905,0.0,0.0,0.0,0.0,0.0,0.0,0.64,0.0,0.0,0.0
25,0.0,0.0,0.0,-0.00209375,0.0,0.0,0.0,0.0,0.0,0.0,-0.001,0.0,0.0,0.0,0.0,0.0,-1.61,-0.0038716628959586637,0.0,0.0,0.0,0.0,0.0,0.0,0.64,0.0,0.0,0.0
26,0.0,0.0,0.0,-0.00209375,0.0,0.0,0.0,0.0,0.0,0.0,-0.001,0.0,0.0,0.0,0.0,0.0,-1.61,-0.003943352407968334,0.0,0.0,0.0,0.0,0.0,0.0,0.568,0.0,0.0,0.0
27,0.0,0.0,0.0,-0.00209375,0.0,0.0,0.0,0.0,0.0,0.0,-0.001,0.0,0.0,0.0,0.0,0.0,-1.61,-0.003997746888971608,0.0,0.0,0.0,0.0,0.0,0.0,0.568,0.0,0.0,0.0
28,0.0,0.0,0.0,-0.00209375,0.0,0.0,0.0,0.0,0.0,0.0,-0.001,0.0,0.0,0.0,0.0,0.0,-1.61,-0.0040515569213907575,0.0,0.0,0.0,0.0,0.0,0.0,0.592,0.0,0.0,0.0
29,0.0,0.0,0.0,-0.00209375,0.0,0.0,0.0,0.0,0.0,0.0,-0.001,0.0,0.0,0.0,0.0,0.0,-1.61,-0.004100410381784778,0.0,0.0,0.0,0.0,0.0,0.0,0.592,0.0,0.0,0.0
30,0.0,0.0,0.0,-0.00209375,0.0,0.0,0.0,0.0,0.0,0.0,-0.001,0.0,0.0,0.0,0.0,0.0,-1.61,-0.004172685466744153,0.0,0.0,0.0,0.0,0.0,0.0,0.592,0.0,0.0,0.0
31,0.0,0.0,0.0,-0.00209375,0.0,0.0,0.0,0.0,0.0,0.0,-0.001,0.0,0.0,0.0,0.0,0.0,-1.61,-0.004230441597112492,0.0,0.0,0.0,0.0,0.0,0.0,0.592,0.0,0.0,0.0
32,0.0,0.0,0.0,-0.00209375,0.0,0.0,0.0,0.0,0.0,0.0,-0.001,0.0,0.0,0.0,0.0,0.0,-1.61,-0.004299684502899595,0.0,0.0,0.0,0.0,0.0,0.0,0.592,0.0,0.0,0.0
33,0.0,0.0,0.0,-0.00209375,0.0,0.0,0.0,0.0,0.0,0.0,-0.001,0.0,0.0,0.0,0.0,0.0,-1.61,-0.004371052110692544,0.0,0.0,0.0,0.0,0.0,0.0,0.592,0.0,0.0,0.0
34,0.0,0.0,0.0,-0.00209375,0.0,0.0,0.0,0.0,0.0,0.0,-0.001,0.0,0.0,0.0,0.0,0.0,-1.61,-0.004425013457141679,0.0,0.0,0.0,0.0,0.0,0.0,0.592,0.0,0.0,0.0
35,0.0,0.0,0.0,-0.00209375,0.0,0.0,0.0,0.0,0.0,0.0,-0.001,0.0,0.0,0.0,0.0,0.0,-1.61,-0.004482792749931066,0.0,0.0,0.0,0.0,0.0,0.0,0.568,0.0,0.0,0.0
36,0.0,0.0,0.0,-0.00209375,0.0,0.0,0.0,0.0,0.0,0.0,-0.001,0.0,0.0,0.0,0.0,0.0,-1.61,-0.004529608257326781,0.0,0.0,0.0,0.0,0.0,0.0,0.568,0.0,0.0,0.0
37,0.0,0.0,0.0,-0.00209375,0.0,0.0,0.0,0.0,0.0,0.0,-0.001,0.0,0.0,0.0,0.0,0.0,-1.61,-0.0045790241136810395,0.0,0.0,0.0,0.0,0.0,0.0,0.568,0.0,0.0,0.0
38,0.0,0.0,0.0,-0.00209375,0.0,0.0,0.0,0.0,0.0,0.0,-0.001,0.0,0.0,0.0,0.0,0.0,-1.61,-0.004652704854500521,0.0,0.0,0.0,0.0,0.0,0.0,0.524,0.0,0.0,0.0
39,0.0,0.0,0.0,-0.00209375,0.0,0.0,0.0,0.0,0.0,0.0,-0.001,0.0,0.0,0.0,0.0,0.0,-1.61,-0.004710977462828095,0.0,0.0,0.0,0.0,0.0,0.0,0.524,0.0,0.0,0.0
40,0.0,0.0,0.0,-0.00209375,0.0,0.0,0.0,0.0,0.0,0.0,-0.001,0.0,0.0,0.0,0.0,0.0,-1.61,-0.004771601326113328,0.0,0.0,0.0,0.0,0.0,0.0,0.592,0.0,0.0,0.0
41,0.0,0.0,0.0,-0.00209375,0.0,0.0,0.0,0.0,0.0,0.0,-0.001,0.0,0.0,0.0,0.0,0.0,-1.61,-0.004852004551858421,0.0,0.0,0.0,0.0,0.0,0.0,0.592,0.0,0.0,0.0
42,0.0,0.0,0.0,-0.00209375,0.0,0.0,0.0,0.0,0.0,0.0,-0.001,0.0,0.0,0.0,0.0,0.0,-1.61,-0.004920924408680174,0.0,0.0,0.0,0.0,0.0,0.0,0.456,0.0,0.0,0.0
43,0.0,0.0,0.0,-0.00209375,0.0,0.0,0.0,0.0,0.0,0.0,-0.001,0.0,0.0,0.0,0.0,0.0,-1.61,-0.004976770620643471,0.0,0.0,0.0,0.0,0.0,0.0,0.456,0.0,0.0,0.0
44,0.0,0.0,0.0,-0.00209375,0.0,0.0,0.0,0.0,0.0,0.0,-0.001,0.0,0.0,0.0,0.0,0.0,-1.61,-0.005024765133437929,0.0,0.0,0.0,0.0,0.0,0.0,0.456,0.0,0.0,0.0
45,0.0,0.0,0.0,-0.00223828125,0.0,0.0,0.0,0.0,0.0,0.0,-0.008,0.0,0.0,0.0,0.0,0.0,-1.61,-0.005221381834315116,0.0,0.0,0.0,0.0,0.0,0.0,0.524,0.0,0.0,0.0
46,0.0,0.0,0.0,-0.00223828125,0.0,0.0,0.0,0.0,0.0,0.0,-0.008,0.0,0.0,0.0,0.0,0.0,-1.61,-0.0052951689073175295,0.0,0.0,0.0,0.0,0.0,0.0,0.524,0.0,0.0,0.0
47,0.0,0.0,0.0,-0.00223828125,0.0,0.0,0.0,0.0,0.0,0.0,-0.009,0.0,0.0,0.0,0.0,0.0,-1.61,-0.005358014057435677,0.0,0.0,0.0,0.0,0.0,0.0,0.524,0.0,0.0,0.0
48,0.0,0.0,0.0,-0.00223828125,0.0,0.0,0.0,0.0,0.0,0.0,-0.009,0.0,0.0,0.0,0.0,0.0,-1.61,-0.005412588405493777,0.0,0.0,0.0,0.0,0.0,0.0,0.524,0.0,0.0,0.0
49,0.0,0.0,0.0,-0.00223828125,0.0,0.0,0.0,0.0,0.0,0.0,-0.009,0.0,0.0,0.0,0.0,0.0,-1.61,-0.005467057818721021,0.0,0.0,0.0,0.0,0.0,0.0,0.524,0.0,0.0,0.0
50,0.0,0.0,0.0,-0.00223828125,0.0,0.0,0.0,0.0,0.0,0.0,-0.001,0.0,0.0,0.0,0.0,0.0,-1.61,-0.0055214036062985125,0.0,0.0,0.0,0.0,0.0,0.0,0.388,0.0,0.0,0.0
51,0.0,0.0,0.0,-0.00223828125,0.0,0.0,0.0,0.0,0.0,0.0,-0.001,0.0,0.0,0.0,0.0,0.0,-1.61,-0.005577242217970061,0.0,0.0,0.0,0.0,0.0,0.0,0.388,0.0,0.0,0.0
52,0.0,0.0,0.0,-0.0023916015625,0.0,0.0,0.0,0.0,0.0,0.0,-0.012,0.0,0.0,0.0,0.0,0.0,-1.61,-0.00578739428202788,0.0,0.0,0.0,0.0,0.0,0.0,0.408,0.0,0.0,0.0
53,0.0,0.0,0.0,-0.0023916015625,0.0,0.0,0.0,0.0,0.0,0.0,-0.012,0.0,0.0,0.0,0.0,0.0,-1.61,-0.005836307640137062,0.0,0.0,0.0,0.0,0.0,0.0,0.408,0.0,0.0,0.0
54,0.0,0.0,0.0,-0.0025361328125,0.0,0.0,0.0,0.0,0.0,0.0,-0.012,0.0,0.0,0.0,0.0,0.0,-1.61,-0.006053030864421272,0.0,0.0,0.0,0.0,0.0,0.0,0.272,0.0,0.0,0.0
55,0.0,0.0,0.0,-0.0025361328125,0.0,0.0,0.0,0.0,0.0,0.0,-0.012,0.0,0.0,0.0,0.0,0.0,-1.61,-0.006116026652298007,0.0,0.0,0.0,0.0,0.0,0.0,0.272,0.0,0.0,0.0
56,0.0,0.0,0.0,-0.0025361328125,0.0,0.0,0.0,0.0,0.0,0.0,-0.012,0.0,0.0,0.0,0.0,0.0,-1.61,-0.006160428146003125,0.0,0.0,0.0,0.0,0.0,0.0,0.272,0.0,0.0,0.0
57,0.0,0.0,0.0,-0.00282421875,0.0,0.0,0.0,0.0,0.0,0.0,-0.02,0.0,0.0,0.0,0.0,0.0,-1.61,-0.006500643788722683,0.0,0.0,0.0,0.0,0.0,0.0,0.044,0.0,0.0,0.0
58,0.0,0.0,0.0,-0.00282421875,0.0,0.0,0.0,0.0,0.0,0.0,-0.02,0.0,0.0,0.0,0.0,0.0,-1.61,-0.006556570294841047,0.0,0.0,0.0,0.0,0.0,0.0,0.044,0.0,0.0,0.0
59,0.0,0.0,0.0,-0.00282421875,0.0,0.0,0.0,0.0,0.0,0.0,-0.02,0.0,0.0,0.0,0.0,0.0,-1.61,-0.006600890320986758,0.0,0.0,0.0,0.0,0.0,0.0,0.044,0.0,0.0,0.0
60,0.0,0.0,0.0,-0.00311328125,0.0,0.0,0.0,0.0,0.0,0.0,-0.029,0.0,0.0,0.0,0.0,0.0,-1.61,-0.00693837343771753,0.0,0.0,0.0,0.0,0.0,0.0,0.136,0.0,0.0,0.0
61,0.0,0.0,0.0,-0.00311328125,0.0,0.0,0.0,0.0,0.0,0.0,-0.029,0.0,0.0,0.0,0.0,0.0,-1.61,-0.0069798862600087015,0.0,0.0,0.0,0.0,0.0,0.0,0.136,0.0,0.0,0.0
62,0.0,0.0,0.0,-0.00311328125,0.0,0.0,0.0,0.0,0.0,0.0,-0.029,0.0,0.0,0.0,0.0,0.0,-1.61,-0.0070279463997083395,0.0,0.0,0.0,0.0,0.0,0.0,0.136,0.0,0.0,0.0
63,0.0,0.0,0.0,-0.00340234375,0.0,0.0,0.0,0.0,0.0,0.0,-0.031,0.0,0.0,0.0,0.0,0.0,-1.61,-0.0073865176503712365,0.0,0.0,0.0,0.0,0.0,0.0,0.18,0.0,0.0,0.0
64,0.0,0.0,0.0,-0.00340234375,0.0,0.0,0.0,0.0,0.0,0.0,-0.031,0.0,0.0,0.0,0.0,0.0,-1.61,-0.007434383129957787,0.0,0.0,0.0,0.0,0.0,0.0,0.18,0.0,0.0,0.0
65,0.0,0.0,0.0,-0.0038349609375,0.0,0.0,0.0,0.0,0.0,0.0,-0.033,0.0,0.0,0.0,0.0,0.0,-1.61,-0.00793636581903551,0.0,0.0,0.0,0.0,0.0,0.0,0.18,0.0,0.0,0.0
66,0.0,0.0,0.0,-0.0038349609375,0.0,0.0,0.0,0.0,0.0,0.0,-0.033,0.0,0.0,0.0,0.0,0.0,-1.61,-0.008004760267079575,0.0,0.0,0.0,0.0,0.0,0.0,0.18,0.0,0.0,0.0
67,0.0,0.0,0.0,-0.0042685546875,0.0,0.0,0.0,0.0,0.0,0.0,-0.039,0.0,0.0,0.0,0.0,0.0,-1.61,-0.008512096808227204,0.0,0.0,0.0,0.0,0.0,0.0,0.044,0.0,0.0,0.0
68,0.0,0.0,0.0,-0.0042685546875,0.0,0.0,0.0,0.0,0.0,0.0,-0.039,0.0,0.0,0.0,0.0,0.0,-1.61,-0.008561527407945978,0.0,0.0,0.0,0.0,0.0,0.0,0.044,0.0,0.0,0.0
69,0.0,0.0,0.0,-0.004556640625,0.0,0.0,0.0,0.0,0.0,0.0,-0.042,0.0,0.0,0.0,0.0,0.0,-1.61,-0.00890183415413323,0.0,0.0,0.0,0.0,0.0,0.0,0.136,0.0,0.0,0.0
70,0.0,0.0,0.0,-0.004556640625,0.0,0.0,0.0,0.0,0.0,0.0,-0.042,0.0,0.0,0.0,0.0,0.0,-1.61,-0.008956038704673683,0.0,0.0,0.0,0.0,0.0,0.0,0.136,0.0,0.0,0.0
71,0.0,0.0,0.0,-0.004556640625,0.0,0.0,0.0,0.0,0.0,0.0,-0.042,0.0,0.0,0.0,0.0,0.0,-1.61,-0.009006442342704089,0.0,0.0,0.0,0.0,0.0,0.0,0.136,0.0,0.0,0.0
72,0.0,0.0,0.0,-0.004990234375,0.0,0.0,0.0,0.0,0.0,0.0,-0.042,0.0,0.0,0.0,0.0,0.0,-1.61,-0.009489040798898367,0.0,0.0,0.0,0.0,0.0,0.0,0.044,0.0,0.0,0.0
73,0.0,0.0,0.0,-0.004990234375,0.0,0.0,0.0,0.0,0.0,0.0,-0.042,0.0,0.0,0.0,0.0,0.0,-1.61,-0.00953006702882549,0.0,0.0,0.0,0.0,0.0,0.0,0.044,0.0,0.0,0.0
74,0.0,0.0,0.0,-0.004990234375,0.0,0.0,0.0,0.0,0.0,0.0,-0.042,0.0,0.0,0.0,0.0,0.0,-1.61,-0.00957514214816842,0.0,0.0,0.0,0.0,0.0,0.0,0.044,0.0,0.0,0.0
75,0.0,0.0,0.0,-0.005576171875,0.0,0.0,0.0,0.0,0.0,0.0,-0.046,0.0,0.0,0.0,0.0,0.0,-1.61,-0.01021265772529865,0.0,0.0,0.0,0.0,0.0,0.0,0.02,0.0,0.0,0.0
76,0.0,0.0,0.0,-0.005576171875,0.0,0.0,0.0,0.0,0.0,0.0,-0.046,0.0,0.0,0.0,0.0,0.0,-1.61,-0.010263482103774733,0.0,0.0,0.0,0.0,0.0,0.0,0.02,0.0,0.0,0.0
77,0.0,0.0,0.0,-0.006009765625,0.0,0.0,0.0,0.0,0.0,0.0,-0.052,0.0,0.0,0.0,0.0,0.0,-1.61,-0.01075150861767148,0.0,0.0,0.0,0.0,0.0,0.0,-0.136,0.0,0.0,0.0
78,0.0,0.0,0.0,-0.006009765625,0.0,0.0,0.0,0.0,0.0,0.0,-0.052,0.0,0.0,0.0,0.0,0.0,-1.61,-0.01079457252244315,0.0,0.0,0.0,0.0,0.0,0.0,-0.136,0.0,0.0,0.0
79,0.0,0.0,0.0,-0.006009765625,0.0,0.0,0.0,0.0,0.0,0.0,-0.052,0.0,0.0,0.0,0.0,0.0,-1.61,-0.010858732351428377,0.0,0.0,0.0,0.0,0.0,0.0,-0.136,0.0,0.0,0.0
80,0.0,0.0,0.0,-0.0067314453125,0.0,0.0,0.0,0.0,0.0,0.0,-0.06,0.0,0.0,0.0,0.0,0.0,-1.61,-0.011640433381140333,0.0,0.0,0.0,0.0,0.0,0.0,-0.16,0.0,0.0,0.0
81,0.0,0.0,0.0,-0.0067314453125,0.0,0.0,0.0,0.0,0.0,0.0,-0.06,0.0,0.0,0.0,0.0,0.0,-1.61,-0.011688905909611434,0.0,0.0,0.0,0.0,0.0,0.0,-0.16,0.0,0.0,0.0
82,0.0,0.0,0.0,-0.007453125,0.0,0.0,0.0,0.0,0.0,0.0,-0.069,0.0,0.0,0.0,0.0,0.0,-1.61,-0.012456876194995442,0.0,0.0,0.0,0.0,0.0,0.0,-0.228,0.0,0.0,0.0
83,0.0,0.0,0.0,-0.007453125,0.0,0.0,0.0,0.0,0.0,0.0,-0.069,0.0,0.0,0.0,0.0,0.0,-1.61,-0.012501848091178193,0.0,0.0,0.0,0.0,0.0,0.0,-0.228,0.0,0.0,0.0
84,0.0,0.0,0.0,-0.007453125,0.0,0.0,0.0,0.0,0.0,0.0,-0.069,0.0,0.0,0.0,0.0,0.0,-1.61,-0.012545793913208538,0.0,0.0,0.0,0.0,0.0,0.0,-0.228,0.0,0.0,0.0
85,0.0,0.0,0.0,-0.0083193359375,0.0,0.0,0.0,0.0,0.0,0.0,-0.082,0.0,0.0,0.0,0.0,0.0,-1.61,-0.013466198142216446,0.0,0.0,0.0,0.0,0.0,0.0,0.088,0.0,0.0,0.0
86,0.0,0.0,0.0,-0.0083193359375,0.0,0.0,0.0,0.0,0.0,0.0,-0.082,0.0,0.0,0.0,0.0,0.0,-1.61,-0.013517840488007735,0.0,0.0,0.0,0.0,0.0,0.0,0.088,0.0,0.0,0.0
87,0.0,0.0,0.0,-0.0083193359375,0.0,0.0,0.0,0.0,0.0,0.0,-0.082,0.0,0.0,0.0,0.0,0.0,-1.61,-0.0135622849736433,0.0,0.0,0.0,0.0,0.0,0.0,0.088,0.0,0.0,0.0
88,0.0,0.0,0.0,-0.00905078125,0.0,0.0,0.0,0.0,0.0,0.0,-0.078,0.0,0.0,0.0,0.0,0.0,-1.61,-0.014358467320963934,0.0,0.0,0.0,0.0,0.0,0.0,0.02,0.0,0.0,0.0
89,0.0,0.0,0.0,-0.00905078125,0.0,0.0,0.0,0.0,0.0,0.0,-0.078,0.0,0.0,0.0,0.0,0.0,-1.61,-0.014415183979529962,0.0,0.0,0.0,0.0,0.0,0.0,0.02,0.0,0.0,0.0
90,0.0,0.0,0.0,-0.00992578125,0.0,0.0,0.0,0.0,0.0,0.0,-0.085,0.0,0.0,0.0,0.0,0.0,-1.61,-0.015337670670765878,0.0,0.0,0.0,0.0,0.0,0.0,-0.088,0.0,0.0,0.0
91,0.0,0.0,0.0,-0.00992578125,0.0,0.0,0.0,0.0,0.0,0.0,-0.085,0.0,0.0,0.0,0.0,0.0,-1.61,-0.015378035020451021,0.0,0.0,0.0,0.0,0.0,0.0,-0.088,0.0,0.0,0.0
92,0.0,0.0,0.0,-0.00992578125,0.0,0.0,0.0,0.0,0.0,0.0,-0.085,0.0,0.0,0.0,0.0,0.0,-1.61,-0.01542640556948612,0.0,0.0,0.0,0.0,0.0,0.0,-0.088,0.0,0.0,0.0
93,0.0,0.0,0.0,-0.0107919921875,0.0,0.0,0.0,0.0,0.0,0.0,-0.091,0.0,0.0,0.0,0.0,0.0,-1.61,-0.01633934230935313,0.0,0.0,0.0,0.0,0.0,0.0,0.136,0.0,0.0,0.0
94,0.0,0.0,0.0,-0.0107919921875,0.0,0.0,0.0,0.0,0.0,0.0,-0.091,0.0,0.0,0.0,0.0,0.0,-1.61,-0.01642928651157875,0.0,0.0,0.0,0.0,0.0,0.0,0.136,0.0,0.0,0.0
95,0.0,0.0,0.0,-0.0116669921875,0.0,0.0,0.0,0.0,0.0,0.0,-0.082,0.0,0.0,0.0,0.0,0.0,-1.61,-0.017372603590462252,0.0,0.0,0.0,0.0,0.0,0.0,-0.16,0.0,0.0,0.0
96,0.0,0.0,0.0,-0.012677734375,0.0,0.0,0.0,0.0,0.0,0.0,-0.093,0.0,0.0,0.0,0.0,0.0,-1.61,-0.01844978975161293,0.0,0.0,0.0,0.0,0.0,0.0,0.112,0.0,0.0,0.0
97,0.0,0.0,0.0,-0.012677734375,0.0,0.0,0.0,0.0,0.0,0.0,-0.093,0.0,0.0,0.0,0.0,0.0,-1.61,-0.018511590561180832,0.0,0.0,0.0,0.0,0.0,0.0,0.112,0.0,0.0,0.0
98,0.0,0.0,0.0,-0.012677734375,0.0,0.0,0.0,0.0,0.0,0.0,-0.093,0.0,0.0,0.0,0.0,0.0,-1.61,-0.018557887952698096,0.0,0.0,0.0,0.0,0.0,0.0,0.112,0.0,0.0,0.0
99,0.0,0.0,0.0,-0.0135439453125,0.0,0.0,0.0,0.0,0.0,0.0,-0.098,0.0,0.0,0.0,0.0,0.0,-1.61,-0.019468040876803462,0.0,0.0,0.0,0.0,0.0,0.0,0.296,0.0,0.0,0.0
100,0.0,0.0,0.0,-0.0135439453125,0.0,0.0,0.0,0.0,0.0,0.0,-0.098,0.0,0.0,0.0,0.0,0.0,-1.61,-0.01950590867807399,0.0,0.0,0.0,0.0,0.0,0.0,0.296,0.0,0.0,0.0
101,0.0,0.0,0.0,-0.014564453125,0.0,0.0,0.0,0.0,0.0,0.0,-0.089,0.0,0.0,0.0,0.0,0.0,-1.61,-0.02057674495630897,0.0,0.0,0.0,0.0,0.0,0.0,-0.228,0.0,0.0,0.0
102,0.0,0.0,0.0,-0.014564453125,0.0,0.0,0.0,0.0,0.0,0.0,-0.089,0.0,0.0,0.0,0.0,0.0,-1.61,-0.020615054615907062,0.0,0.0,0.0,0.0,0.0,0.0,-0.228,0.0,0.0,0.0
103,0.0,0.0,0.0,-0.014564453125,0.0,0.0,0.0,0.0,0.0,0.0,-0.089,0.0,0.0,0.0,0.0,0.0,-1.61,-0.020673658717770056,0.0,0.0,0.0,0.0,0.0,0.0,-0.228,0.0,0.0,0.0
104,0.0,0.0,0.0,-0.01571875,0.0,0.0,0.0,0.0,0.0,0.0,-0.118,0.0,0.0,0.0,0.0,0.0,-1.61,-0.02187768781296764,0.0,0.0,0.0,0.0,0.0,0.0,0.088,0.0,0.0,0.0
105,0.0,0.0,0.0,-0.01571875,0.0,0.0,0.0,0.0,0.0,0.0,-0.118,0.0,0.0,0.0,0.0,0.0,-1.61,-0.021923906309955925,0.0,0.0,0.0,0.0,0.0,0.0,0.088,0.0,0.0,0.0
106,0.0,0.0,0.0,-0.0168740234375,0.0,0.0,0.0,0.0,0.0,0.0,-0.112,0.0,0.0,0.0,0.0,0.0,-1.61,-0.023126877927871988,0.0,0.0,0.0,0.0,0.0,0.0,0.136,0.0,0.0,0.0
107,0.0,0.0,0.0,-0.0168740234375,0.0,0.0,0.0,0.0,0.0,0.0,-0.112,0.0,0.0,0.0,0.0,0.0,-1.61,-0.02317192438578707,0.0,0.0,0.0,0.0,0.0,0.0,0.136,0.0,0.0,0.0
108,0.0,0.0,0.0,-0.0168740234375,0.0,0.0,0.0,0.0,0.0,0.0,-0.112,0.0,0.0,0.0,0.0,0.0,-1.61,-0.023212780568641504,0.0,0.0,0.0,0.0,0.0,0.0,0.136,0.0,0.0,0.0
109,0.0,0.0,0.0,-0.0180380859375,0.0,0.0,0.0,0.0,0.0,0.0,-0.113,0.0,0.0,0.0,0.0,0.0,-1.61,-0.024417823318885652,0.0,0.0,0.0,0.0,0.0,0.0,0.204,0.0,0.0,0.0
110,0.0,0.0,0.0,-0.0180380859375,0.0,0.0,0.0,0.0,0.0,0.0,-0.113,0.0,0.0,0.0,0.0,0.0,-1.61,-0.02445871416069309,0.0,0.0,0.0,0.0,0.0,0.0,0.204,0.0,0.0,0.0
111,0.0,0.0,0.0,-0.0180380859375,0.0,0.0,0.0,0.0,0.0,0.0,-0.113,0.0,0.0,0.0,0.0,0.0,-1.61,-0.024504334917795575,0.0,0.0,0.0,0.0,0.0,0.0,0.204,0.0,0.0,0.0
112,0.0,0.0,0.0,-0.0193369140625,0.0,0.0,0.0,0.0,0.0,0.0,-0.126,0.0,0.0,0.0,0.0,0.0,-1.61,-0.025864178877999217,0.0,0.0,0.0,0.0,0.0,0.0,0.408,0.0,0.0,0.0
113,0.0,0.0,0.0,-0.0193369140625,0.0,0.0,0.0,0.0,0.0,0.0,-0.126,0.0,0.0,0.0,0.0,0.0,-1.61,-0.025916265219902403,0.0,0.0,0.0,0.0,0.0,0.0,0.408,0.0,0.0,0.0
114,0.0,0.0,0.0,-0.02034765625,0.0,0.0,0.0,0.0,0.0,0.0,-0.121,0.0,0.0,0.0,0.0,0.0,-1.61,-0.026981741037991898,0.0,0.0,0.0,0.0,0.0,0.0,0.388,0.0,0.0,0.0
115,0.0,0.0,0.0,-0.02034765625,0.0,0.0,0.0,0.0,0.0,0.0,-0.121,0.0,0.0,0.0,0.0,0.0,-1.61,-0.027041541097323894,0.0,0.0,0.0,0.0,0.0,0.0,0.388,0.0,0.0,0.0
116,0.0,0.0,0.0,-0.02165625,0.0,0.0,0.0,0.0,0.0,0.0,-0.117,0.0,0.0,0.0,0.0,0.0,-1.61,-0.028407911048259505,0.0,0.0,0.0,0.0,0.0,0.0,0.204,0.0,0.0,0.0
117,0.0,0.0,0.0,-0.02165625,0.0,0.0,0.0,0.0,0.0,0.0,-0.117,0.0,0.0,0.0,0.0,0.0,-1.61,-0.028457362139376458,0.0,0.0,0.0,0.0,0.0,0.0,0.204,0.0,0.0,0.0
118,0.0,0.0,0.0,-0.0229560546875,0.0,0.0,0.0,0.0,0.0,0.0,-0.129,0.0,0.0,0.0,0.0,0.0,-1.61,-0.029806289539935454,0.0,0.0,0.0,0.0,0.0,0.0,0.0,0.0,0.0,0.0
119,0.0,0.0,0.0,-0.0229560546875,0.0,0.0,0.0,0.0,0.0,0.0,-0.129,0.0,0.0,0.0,0.0,0.0,-1.61,-0.029873841081105038,0.0,0.0,0.0,0.0,0.0,0.0,0.0,0.0,0.0,0.0
120,0.0,0.0,0.0,-0.024263671875,0.0,0.0,0.0,0.0,0.0,0.0,-0.129,0.0,0.0,0.0,0.0,0.0,-1.61,-0.03125125517795494,0.0,0.0,0.0,0.0,0.0,0.0,-0.02,0.0,0.0,0.0
121,0.0,0.0,0.0,-0.0255634765625,0.0,0.0,0.0,0.0,0.0,0.0,-0.13,0.0,0.0,0.0,0.0,0.0,-1.61,-0.03259893184171291,0.0,0.0,0.0,0.0,0.0,0.0,-0.044,0.0,0.0,0.0
122,0.0,0.0,0.0,-0.0255634765625,0.0,0.0,0.0,0.0,0.0,0.0,-0.13,0.0,0.0,0.0,0.0,0.0,-1.61,-0.03263468976584494,0.0,0.0,0.0,0.0,0.0,0.0,-0.044,0.0,0.0,0.0
123,0.0,0.0,0.0,-0.0255634765625,0.0,0.0,0.0,0.0,0.0,0.0,-0.13,0.0,0.0,0.0,0.0,0.0,-1.61,-0.03267233809481347,0.0,0.0,0.0,0.0,0.0,0.0,-0.044,0.0,0.0,0.0
124,0.0,0.0,0.0,-0.02671875,0.0,0.0,0.0,0.0,0.0,0.0,-0.128,0.0,0.0,0.0,0.0,0.0,-1.61,-0.03386679814990725,0.0,0.0,0.0,0.0,0.0,0.0,0.16,0.0,0.0,0.0
125,0.0,0.0,0.0,-0.02671875,0.0,0.0,0.0,0.0,0.0,0.0,-0.128,0.0,0.0,0.0,0.0,0.0,-1.61,-0.033899457471324924,0.0,0.0,0.0,0.0,0.0,0.0,0.16,0.0,0.0,0.0
126,0.0,0.0,0.0,-0.0281708984375,0.0,0.0,0.0,0.0,0.0,0.0,-0.13,0.0,0.0,0.0,0.0,0.0,-1.61,-0.03540858176108014,0.0,0.0,0.0,0.0,0.0,0.0,-0.364,0.0,0.0,0.0
127,0.0,0.0,0.0,-0.0281708984375,0.0,0.0,0.0,0.0,0.0,0.0,-0.13,0.0,0.0,0.0,0.0,0.0,-1.61,-0.0354504196844799,0.0,0.0,0.0,0.0,0.0,0.0,-0.364,0.0,0.0,0.0
128,0.0,0.0,0.0,-0.0281708984375,0.0,0.0,0.0,0.0,0.0,0.0,-0.13,0.0,0.0,0.0,0.0,0.0,-1.61,-0.03550411581237443,0.0,0.0,0.0,0.0,0.0,0.0,-0.364,0.0,0.0,0.0
129,0.0,0.0,0.0,-0.029615234375,0.0,0.0,0.0,0.0,0.0,0.0,-0.144,0.0,0.0,0.0,0.0,0.0,-1.61,-0.03701366403211743,0.0,0.0,0.0,0.0,0.0,0.0,-0.248,0.0,0.0,0.0
130,0.0,0.0,0.0,-0.0310771484375,0.0,0.0,0.0,0.0,0.0,0.0,-0.147,0.0,0.0,0.0,0.0,0.0,-1.61,-0.038553075932115925,0.0,0.0,0.0,0.0,0.0,0.0,-0.18,0.0,0.0,0.0
131,0.0,0.0,0.0,-0.0310771484375,0.0,0.0,0.0,0.0,0.0,0.0,-0.147,0.0,0.0,0.0,0.0,0.0,-1.61,-0.03859675671482095,0.0,0.0,0.0,0.0,0.0,0.0,-0.18,0.0,0.0,0.0
132,0.0,0.0,0.0,-0.0325205078125,0.0,0.0,0.0,0.0,0.0,0.0,-0.147,0.0,0.0,0.0,0.0,0.0,-1.61,-0.04008834535708132,0.0,0.0,0.0,0.0,0.0,0.0,-0.088,0.0,0.0,0.0
133,0.0,0.0,0.0,-0.0325205078125,0.0,0.0,0.0,0.0,0.0,0.0,-0.147,0.0,0.0,0.0,0.0,0.0,-1.61,-0.04012342705470283,0.0,0.0,0.0,0.0,0.0,0.0,-0.088,0.0,0.0,0.0
134,0.0,0.0,0.0,-0.0338291015625,0.0,0.0,0.0,0.0,0.0,0.0,-0.137,0.0,0.0,0.0,0.0,0.0,-1.61,-0.041472723899244,0.0,0.0,0.0,0.0,0.0,0.0,-0.02,0.0,0.0,0.0
135,0.0,0.0,0.0,-0.0338291015625,0.0,0.0,0.0,0.0,0.0,0.0,-0.137,0.0,0.0,0.0,0.0,0.0,-1.61,-0.04150413394609637,0.0,0.0,0.0,0.0,0.0,0.0,-0.02,0.0,0.0,0.0
136,0.0,0.0,0.0,-0.0338291015625,0.0,0.0,0.0,0.0,0.0,0.0,-0.137,0.0,0.0,0.0,0.0,0.0,-1.61,-0.0415380358045111,0.0,0.0,0.0,0.0,0.0,0.0,-0.02,0.0,0.0,0.0
137,0.0,0.0,0.0,-0.0351279296875,0.0,0.0,0.0,0.0,0.0,0.0,-0.13,0.0,0.0,0.0,0.0,0.0,-1.61,-0.0428735490684873,0.0,0.0,0.0,0.0,0.0,0.0,-0.456,0.0,0.0,0.0
138,0.0,0.0,0.0,-0.0351279296875,0.0,0.0,0.0,0.0,0.0,0.0,-0.13,0.0,0.0,0.0,0.0,0.0,-1.61,-0.04290843901800329,0.0,0.0,0.0,0.0,0.0,0.0,-0.456,0.0,0.0,0.0
139,0.0,0.0,0.0,-0.0351279296875,0.0,0.0,0.0,0.0,0.0,0.0,-0.13,0.0,0.0,0.0,0.0,0.0,-1.61,-0.04294147049899428,0.0,0.0,0.0,0.0,0.0,0.0,-0.456,0.0,0.0,0.0
140,0.0,0.0,0.0,-0.0367255859375,0.0,0.0,0.0,0.0,0.0,0.0,-0.146,0.0,0.0,0.0,0.0,0.0,-1.61,-0.04457394245054479,0.0,0.0,0.0,0.0,0.0,0.0,-0.684,0.0,0.0,0.0
141,0.0,0.0,0.0,-0.0367255859375,0.0,0.0,0.0,0.0,0.0,0.0,-0.146,0.0,0.0,0.0,0.0,0.0,-1.61,-0.04461911118535116,0.0,0.0,0.0,0.0,0.0,0.0,-0.684,0.0,0.0,0.0
142,0.0,0.0,0.0,-0.0383134765625,0.0,0.0,0.0,0.0,0.0,0.0,-0.166,0.0,0.0,0.0,0.0,0.0,-1.61,-0.04626136338082874,0.0,0.0,0.0,0.0,0.0,0.0,-0.616,0.0,0.0,0.0
143,0.0,0.0,0.0,-0.0383134765625,0.0,0.0,0.0,0.0,0.0,0.0,-0.166,0.0,0.0,0.0,0.0,0.0,-1.61,-0.04630285797853401,0.0,0.0,0.0,0.0,0.0,0.0,-0.616,0.0,0.0,0.0
144,0.0,0.0,0.0,-0.0399111328125,0.0,0.0,0.0,0.0,0.0,0.0,-0.163,0.0,0.0,0.0,0.0,0.0,-1.61,-0.04794656492288461,0.0,0.0,0.0,0.0,0.0,0.0,-0.548,0.0,0.0,0.0
145,0.0,0.0,0.0,-0.0399111328125,0.0,0.0,0.0,0.0,0.0,0.0,-0.163,0.0,0.0,0.0,0.0,0.0,-1.61,-0.047980531453002705,0.0,0.0,0.0,0.0,0.0,0.0,-0.548,0.0,0.0,0.0
146,0.0,0.0,0.0,-0.0416435546875,0.0,0.0,0.0,0.0,0.0,0.0,-0.165,0.0,0.0,0.0,0.0,0.0,-1.61,-0.04974851982244395,0.0,0.0,0.0,0.0,0.0,0.0,-0.34,0.0,0.0,0.0
147,0.0,0.0,0.0,-0.0416435546875,0.0,0.0,0.0,0.0,0.0,0.0,-0.165,0.0,0.0,0.0,0.0,0.0,-1.61,-0.04977584325626187,0.0,0.0,0.0,0.0,0.0,0.0,-0.34,0.0,0.0,0.0
148,0.0,0.0,0.0,-0.0416435546875,0.0,0.0,0.0,0.0,0.0,0.0,-0.165,0.0,0.0,0.0,0.0,0.0,-1.61,-0.04981816310938539,0.0,0.0,0.0,0.0,0.0,0.0,-0.34,0.0,0.0,0.0
149,0.0,0.0,0.0,-0.043240234375,0.0,0.0,0.0,0.0,0.0,0.0,-0.168,0.0,0.0,0.0,0.0,0.0,-1.61,-0.0514550743942333,0.0,0.0,0.0,0.0,0.0,0.0,-0.248,0.0,0.0,0.0
150,0.0,0.0,0.0,-0.043240234375,0.0,0.0,0.0,0.0,0.0,0.0,-0.168,0.0,0.0,0.0,0.0,0.0,-1.61,-0.051486773704725035,0.0,0.0,0.0,0.0,0.0,0.0,-0.248,0.0,0.0,0.0
151,0.0,0.0,0.0,-0.044828125,0.0,0.0,0.0,0.0,0.0,0.0,-0.159,0.0,0.0,0.0,0.0,0.0,-1.61,-0.05310637558180515,0.0,0.0,0.0,0.0,0.0,0.0,-0.456,0.0,0.0,0.0
152,0.0,0.0,0.0,-0.044828125,0.0,0.0,0.0,0.0,0.0,0.0,-0.159,0.0,0.0,0.0,0.0,0.0,-1.61,-0.0531411614523602,0.0,0.0,0.0,0.0,0.0,0.0,-0.456,0.0,0.0,0.0
153,0.0,0.0,0.0,-0.044828125,0.0,0.0,0.0,0.0,0.0,0.0,-0.159,0.0,0.0,0.0,0.0,0.0,-1.61,-0.053173964305040365,0.0,0.0,0.0,0.0,0.0,0.0,-0.456,0.0,0.0,0.0
154,0.0,0.0,0.0,-0.0465703125,0.0,0.0,0.0,0.0,0.0,0.0,-0.173,0.0,0.0,0.0,0.0,0.0,-1.61,-0.05494722022910028,0.0,0.0,0.0,0.0,0.0,0.0,-0.136,0.0,0.0,0.0
155,0.0,0.0,0.0,-0.0465703125,0.0,0.0,0.0,0.0,0.0,0.0,-0.173,0.0,0.0,0.0,0.0,0.0,-1.61,-0.05497403687876591,0.0,0.0,0.0,0.0,0.0,0.0,-0.136,0.0,0.0,0.0
156,0.0,0.0,0.0,-0.0465703125,0.0,0.0,0.0,0.0,0.0,0.0,-0.173,0.0,0.0,0.0,0.0,0.0,-1.61,-0.05499975481289132,0.0,0.0,0.0,0.0,0.0,0.0,-0.136,0.0,0.0,0.0
157,0.0,0.0,0.0,-0.048302734375,0.0,0.0,0.0,0.0,0.0,0.0,-0.176,0.0,0.0,0.0,0.0,0.0,-1.61,-0.056789042744029676,0.0,0.0,0.0,0.0,0.0,0.0,-0.088,0.0,0.0,0.0
158,0.0,0.0,0.0,-0.0500439453125,0.0,0.0,0.0,0.0,0.0,0.0,-0.175,0.0,0.0,0.0,0.0,0.0,-1.61,-0.05857192206443143,0.0,0.0,0.0,0.0,0.0,0.0,-0.044,0.0,0.0,0.0
159,0.0,0.0,0.0,-0.0500439453125,0.0,0.0,0.0,0.0,0.0,0.0,-0.175,0.0,0.0,0.0,0.0,0.0,-1.61,-0.058597731017984725,0.0,0.0,0.0,0.0,0.0,0.0,-0.044,0.0,0.0,0.0
160,0.0,0.0,0.0,-0.0500439453125,0.0,0.0,0.0,0.0,0.0,0.0,-0.175,0.0,0.0,0.0,0.0,0.0,-1.61,-0.0586254856166017,0.0,0.0,0.0,0.0,0.0,0.0,-0.044,0.0,0.0,0.0
161,0.0,0.0,0.0,-0.0519296875,0.0,0.0,0.0,0.0,0.0,0.0,-0.181,0.0,0.0,0.0,0.0,0.0,-1.61,-0.06053655876194215,0.0,0.0,0.0,0.0,0.0,0.0,0.272,0.0,0.0,0.0
162,0.0,0.0,0.0,-0.0519296875,0.0,0.0,0.0,0.0,0.0,0.0,-0.181,0.0,0.0,0.0,0.0,0.0,-1.61,-0.060560782761204184,0.0,0.0,0.0,0.0,0.0,0.0,0.272,0.0,0.0,0.0
163,0.0,0.0,0.0,-0.0519296875,0.0,0.0,0.0,0.0,0.0,0.0,-0.181,0.0,0.0,0.0,0.0,0.0,-1.61,-0.06058932395551617,0.0,0.0,0.0,0.0,0.0,0.0,0.272,0.0,0.0,0.0
164,0.0,0.0,0.0,-0.053671875,0.0,0.0,0.0,0.0,0.0,0.0,-0.18,0.0,0.0,0.0,0.0,0.0,-1.61,-0.062360196570194246,0.0,0.0,0.0,0.0,0.0,0.0,0.272,0.0,0.0,0.0
165,0.0,0.0,0.0,-0.053671875,0.0,0.0,0.0,0.0,0.0,0.0,-0.18,0.0,0.0,0.0,0.0,0.0,-1.61,-0.0624004017538199,0.0,0.0,0.0,0.0,0.0,0.0,0.272,0.0,0.0,0.0
166,0.0,0.0,0.0,-0.055845703125,0.0,0.0,0.0,0.0,0.0,0.0,-0.193,0.0,0.0,0.0,0.0,0.0,-1.61,-0.06460602924910515,0.0,0.0,0.0,0.0,0.0,0.0,0.248,0.0,0.0,0.0
167,0.0,0.0,0.0,-0.055845703125,0.0,0.0,0.0,0.0,0.0,0.0,-0.193,0.0,0.0,0.0,0.0,0.0,-1.61,-0.06463338987462075,0.0,0.0,0.0,0.0,0.0,0.0,0.248,0.0,0.0,0.0
168,0.0,0.0,0.0,-0.055845703125,0.0,0.0,0.0,0.0,0.0,0.0,-0.193,0.0,0.0,0.0,0.0,0.0,-1.61,-0.0646612583002283,0.0,0.0,0.0,0.0,0.0,0.0,0.248,0.0,0.0,0.0
169,0.0,0.0,0.0,-0.0578759765625,0.0,0.0,0.0,0.0,0.0,0.0,-0.216,0.0,0.0,0.0,0.0,0.0,-1.61,-0.06671873058382016,0.0,0.0,0.0,0.0,0.0,0.0,0.728,0.0,0.0,0.0
170,0.0,0.0,0.0,-0.0578759765625,0.0,0.0,0.0,0.0,0.0,0.0,-0.216,0.0,0.0,0.0,0.0,0.0,-1.61,-0.06674120219605563,0.0,0.0,0.0,0.0,0.0,0.0,0.728,0.0,0.0,0.0
171,0.0,0.0,0.0,-0.0597529296875,0.0,0.0,0.0,0.0,0.0,0.0,-0.2,0.0,0.0,0.0,0.0,0.0,-1.61,-0.06864406937615847,0.0,0.0,0.0,0.0,0.0,0.0,0.272,0.0,0.0,0.0
172,0.0,0.0,0.0,-0.0597529296875,0.0,0.0,0.0,0.0,0.0,0.0,-0.2,0.0,0.0,0.0,0.0,0.0,-1.61,-0.06866773695060162,0.0,0.0,0.0,0.0,0.0,0.0,0.272,0.0,0.0,0.0
173,0.0,0.0,0.0,-0.0597529296875,0.0,0.0,0.0,0.0,0.0,0.0,-0.2,0.0,0.0,0.0,0.0,0.0,-1.61,-0.06870019341693671,0.0,0.0,0.0,0.0,0.0,0.0,0.272,0.0,0.0,0.0
174,0.0,0.0,0.0,-0.061927734375,0.0,0.0,0.0,0.0,0.0,0.0,-0.205,0.0,0.0,0.0,0.0,0.0,-1.61,-0.07090542830847724,0.0,0.0,0.0,0.0,0.0,0.0,0.204,0.0,0.0,0.0
175,0.0,0.0,0.0,-0.061927734375,0.0,0.0,0.0,0.0,0.0,0.0,-0.205,0.0,0.0,0.0,0.0,0.0,-1.61,-0.07092939009410233,0.0,0.0,0.0,0.0,0.0,0.0,0.204,0.0,0.0,0.0
176,0.0,0.0,0.0,-0.0639580078125,0.0,0.0,0.0,0.0,0.0,0.0,-0.213,0.0,0.0,0.0,0.0,0.0,-1.61,-0.07298407189571354,0.0,0.0,0.0,0.0,0.0,0.0,-0.112,0.0,0.0,0.0
177,0.0,0.0,0.0,-0.0639580078125,0.0,0.0,0.0,0.0,0.0,0.0,-0.213,0.0,0.0,0.0,0.0,0.0,-1.61,-0.07300815542651978,0.0,0.0,0.0,0.0,0.0,0.0,-0.112,0.0,0.0,0.0
178,0.0,0.0,0.0,-0.0639580078125,0.0,0.0,0.0,0.0,0.0,0.0,-0.213,0.0,0.0,0.0,0.0,0.0,-1.61,-0.07302845008694052,0.0,0.0,0.0,0.0,0.0,0.0,-0.112,0.0,0.0,0.0
179,0.0,0.0,0.0,-0.0661240234375,0.0,0.0,0.0,0.0,0.0,0.0,-0.205,0.0,0.0,0.0,0.0,0.0,-1.61,-0.0752169018212004,0.0,0.0,0.0,0.0,0.0,0.0,-0.18,0.0,0.0,0.0
180,0.0,0.0,0.0,-0.0661240234375,0.0,0.0,0.0,0.0,0.0,0.0,-0.205,0.0,0.0,0.0,0.0,0.0,-1.61,-0.0752380747797047,0.0,0.0,0.0,0.0,0.0,0.0,-0.18,0.0,0.0,0.0
181,0.0,0.0,0.0,-0.0661240234375,0.0,0.0,0.0,0.0,0.0,0.0,-0.205,0.0,0.0,0.0,0.0,0.0,-1.61,-0.07525746623822224,0.0,0.0,0.0,0.0,0.0,0.0,-0.18,0.0,0.0,0.0
182,0.0,0.0,0.0,-0.0684423828125,0.0,0.0,0.0,0.0,0.0,0.0,-0.221,0.0,0.0,0.0,0.0,0.0,-1.61,-0.07760923935855112,0.0,0.0,0.0,0.0,0.0,0.0,0.02,0.0,0.0,0.0
183,0.0,0.0,0.0,-0.0684423828125,0.0,0.0,0.0,0.0,0.0,0.0,-0.221,0.0,0.0,0.0,0.0,0.0,-1.61,-0.07763553762634846,0.0,0.0,0.0,0.0,0.0,0.0,0.02,0.0,0.0,0.0
184,0.0,0.0,0.0,-0.0706171875,0.0,0.0,0.0,0.0,0.0,0.0,-0.232,0.0,0.0,0.0,0.0,0.0,-1.61,-0.07983357256420393,0.0,0.0,0.0,0.0,0.0,0.0,0.02,0.0,0.0,0.0
185,0.0,0.0,0.0,-0.0706171875,0.0,0.0,0.0,0.0,0.0,0.0,-0.232,0.0,0.0,0.0,0.0,0.0,-1.61,-0.07985504129289114,0.0,0.0,0.0,0.0,0.0,0.0,0.02,0.0,0.0,0.0
186,0.0,0.0,0.0,-0.0706171875,0.0,0.0,0.0,0.0,0.0,0.0,-0.232,0.0,0.0,0.0,0.0,0.0,-1.61,-0.07987648555394972,0.0,0.0,0.0,0.0,0.0,0.0,0.02,0.0,0.0,0.0
187,0.0,0.0,0.0,-0.072927734375,0.0,0.0,0.0,0.0,0.0,0.0,-0.231,0.0,0.0,0.0,0.0,0.0,-1.61,-0.08220603481743566,0.0,0.0,0.0,0.0,0.0,0.0,0.248,0.0,0.0,0.0
188,0.0,0.0,0.0,-0.072927734375,0.0,0.0,0.0,0.0,0.0,0.0,-0.231,0.0,0.0,0.0,0.0,0.0,-1.61,-0.08222540121853308,0.0,0.0,0.0,0.0,0.0,0.0,0.248,0.0,0.0,0.0
189,0.0,0.0,0.0,-0.075255859375,0.0,0.0,0.0,0.0,0.0,0.0,-0.231,0.0,0.0,0.0,0.0,0.0,-1.61,-0.08457805508611466,0.0,0.0,0.0,0.0,0.0,0.0,0.364,0.0,0.0,0.0
190,0.0,0.0,0.0,-0.075255859375,0.0,0.0,0.0,0.0,0.0,0.0,-0.231,0.0,0.0,0.0,0.0,0.0,-1.61,-0.08460822600324769,0.0,0.0,0.0,0.0,0.0,0.0,0.364,0.0,0.0,0.0
191,0.0,0.0,0.0,-0.07757421875,0.0,0.0,0.0,0.0,0.0,0.0,-0.229,0.0,0.0,0.0,0.0,0.0,-1.61,-0.08694880755001201,0.0,0.0,0.0,0.0,0.0,0.0,0.364,0.0,0.0,0.0
192,0.0,0.0,0.0,-0.07757421875,0.0,0.0,0.0,0.0,0.0,0.0,-0.229,0.0,0.0,0.0,0.0,0.0,-1.61,-0.08696621664138204,0.0,0.0,0.0,0.0,0.0,0.0,0.364,0.0,0.0,0.0
193,0.0,0.0,0.0,-0.07757421875,0.0,0.0,0.0,0.0,0.0,0.0,-0.229,0.0,0.0,0.0,0.0,0.0,-1.61,-0.0869963069858968,0.0,0.0,0.0,0.0,0.0,0.0,0.364,0.0,0.0,0.0
194,0.0,0.0,0.0,-0.0797490234375,0.0,0.0,0.0,0.0,0.0,0.0,-0.229,0.0,0.0,0.0,0.0,0.0,-1.61,-0.08920299622384836,0.0,0.0,0.0,0.0,0.0,0.0,0.044,0.0,0.0,0.0
195,0.0,0.0,0.0,-0.082203125,0.0,0.0,0.0,0.0,0.0,0.0,-0.235,0.0,0.0,0.0,0.0,0.0,-1.61,-0.09168578071612549,0.0,0.0,0.0,0.0,0.0,0.0,-0.136,0.0,0.0,0.0
196,0.0,0.0,0.0,-0.082203125,0.0,0.0,0.0,0.0,0.0,0.0,-0.235,0.0,0.0,0.0,0.0,0.0,-1.61,-0.09170250967944596,0.0,0.0,0.0,0.0,0.0,0.0,-0.136,0.0,0.0,0.0
197,0.0,0.0,0.0,-0.0845224609375,0.0,0.0,0.0,0.0,0.0,0.0,-0.237,0.0,0.0,0.0,0.0,0.0,-1.61,-0.09404639281508138,0.0,0.0,0.0,0.0,0.0,0.0,0.388,0.0,0.0,0.0
198,0.0,0.0,0.0,-0.0845224609375,0.0,0.0,0.0,0.0,0.0,0.0,-0.237,0.0,0.0,0.0,0.0,0.0,-1.61,-0.0940625009674814,0.0,0.0,0.0,0.0,0.0,0.0,0.388,0.0,0.0,0.0
199,0.0,0.0,0.0,-0.0845224609375,0.0,0.0,0.0,0.0,0.0,0.0,-0.237,0.0,0.0,0.0,0.0,0.0,-1.61,-0.094079002055991,0.0,0.0,0.0,0.0,0.0,0.0,0.388,0.0,0.0,0.0
200,0.0,0.0,0.0,-0.086697265625,0.0,0.0,0.0,0.0,0.0,0.0,-0.223,0.0,0.0,0.0,0.0,0.0,-1.61,-0.09626879710850438,0.0,0.0,0.0,0.0,0.0,0.0,0.0,0.0,0.0,0.0
201,0.0,0.0,0.0,-0.086697265625,0.0,0.0,0.0,0.0,0.0,0.0,-0.223,0.0,0.0,0.0,0.0,0.0,-1.61,-0.09628457203134158,0.0,0.0,0.0,0.0,0.0,0.0,0.0,0.0,0.0,0.0
202,0.0,0.0,0.0,-0.086697265625,0.0,0.0,0.0,0.0,0.0,0.0,-0.223,0.0,0.0,0.0,0.0,0.0,-1.61,-0.09629894275547508,0.0,0.0,0.0,0.0,0.0,0.0,0.0,0.0,0.0,0.0
203,0.0,0.0,0.0,-0.08916015625,0.0,0.0,0.0,0.0,0.0,0.0,-0.238,0.0,0.0,0.0,0.0,0.0,-1.61,-0.09877654827927783,0.0,0.0,0.0,0.0,0.0,0.0,-0.204,0.0,0.0,0.0
204,0.0,0.0,0.0,-0.08916015625,0.0,0.0,0.0,0.0,0.0,0.0,-0.238,0.0,0.0,0.0,0.0,0.0,-1.61,-0.09879256783488963,0.0,0.0,0.0,0.0,0.0,0.0,-0.204,0.0,0.0,0.0
205,0.0,0.0,0.0,-0.091615234375,0.0,0.0,0.0,0.0,0.0,0.0,-0.252,0.0,0.0,0.0,0.0,0.0,-1.61,-0.10126483126694384,0.0,0.0,0.0,0.0,0.0,0.0,0.02,0.0,0.0,0.0
206,0.0,0.0,0.0,-0.091615234375,0.0,0.0,0.0,0.0,0.0,0.0,-0.252,0.0,0.0,0.0,0.0,0.0,-1.61,-0.10128458389565072,0.0,0.0,0.0,0.0,0.0,0.0,0.02,0.0,0.0,0.0
207,0.0,0.0,0.0,-0.091615234375,0.0,0.0,0.0,0.0,0.0,0.0,-0.252,0.0,0.0,0.0,0.0,0.0,-1.61,-0.1012985476699518,0.0,0.0,0.0,0.0,0.0,0.0,0.02,0.0,0.0,0.0
208,0.0,0.0,0.0,-0.0937900390625,0.0,0.0,0.0,0.0,0.0,0.0,-0.234,0.0,0.0,0.0,0.0,0.0,-1.61,-0.10349085887716658,0.0,0.0,0.0,0.0,0.0,0.0,0.044,0.0,0.0,0.0
209,0.0,0.0,0.0,-0.0937900390625,0.0,0.0,0.0,0.0,0.0,0.0,-0.234,0.0,0.0,0.0,0.0,0.0,-1.61,-0.10350751384937841,0.0,0.0,0.0,0.0,0.0,0.0,0.044,0.0,0.0,0.0
210,0.0,0.0,0.0,-0.0962529296875,0.0,0.0,0.0,0.0,0.0,0.0,-0.232,0.0,0.0,0.0,0.0,0.0,-1.61,-0.10598479142120924,0.0,0.0,0.0,0.0,0.0,0.0,-0.068,0.0,0.0,0.0
211,0.0,0.0,0.0,-0.0962529296875,0.0,0.0,0.0,0.0,0.0,0.0,-0.232,0.0,0.0,0.0,0.0,0.0,-1.61,-0.10599761959115646,0.0,0.0,0.0,0.0,0.0,0.0,-0.068,0.0,0.0,0.0
212,0.0,0.0,0.0,-0.0985810546875,0.0,0.0,0.0,0.0,0.0,0.0,-0.244,0.0,0.0,0.0,0.0,0.0,-1.61,-0.10834120402095047,0.0,0.0,0.0,0.0,0.0,0.0,-0.068,0.0,0.0,0.0
213,0.0,0.0,0.0,-0.0985810546875,0.0,0.0,0.0,0.0,0.0,0.0,-0.244,0.0,0.0,0.0,0.0,0.0,-1.61,-0.10835951419417578,0.0,0.0,0.0,0.0,0.0,0.0,-0.068,0.0,0.0,0.0
214,0.0,0.0,0.0,-0.1007470703125,0.0,0.0,0.0,0.0,0.0,0.0,-0.228,0.0,0.0,0.0,0.0,0.0,-1.61,-0.11054527888435141,0.0,0.0,0.0,0.0,0.0,0.0,-0.02,0.0,0.0,0.0
215,0.0,0.0,0.0,-0.1007470703125,0.0,0.0,0.0,0.0,0.0,0.0,-0.228,0.0,0.0,0.0,0.0,0.0,-1.61,-0.11055615441639725,0.0,0.0,0.0,0.0,0.0,0.0,-0.02,0.0,0.0,0.0
216,0.0,0.0,0.0,-0.1032099609375,0.0,0.0,0.0,0.0,0.0,0.0,-0.226,0.0,0.0,0.0,0.0,0.0,-1.61,-0.11302985669204656,0.0,0.0,0.0,0.0,0.0,0.0,-0.34,0.0,0.0,0.0
217,0.0,0.0,0.0,-0.1032099609375,0.0,0.0,0.0,0.0,0.0,0.0,-0.226,0.0,0.0,0.0,0.0,0.0,-1.61,-0.11303954964744561,0.0,0.0,0.0,0.0,0.0,0.0,-0.34,0.0,0.0,0.0
218,0.0,0.0,0.0,-0.1032099609375,0.0,0.0,0.0,0.0,0.0,0.0,-0.226,0.0,0.0,0.0,0.0,0.0,-1.61,-0.11304845608719677,0.0,0.0,0.0,0.0,0.0,0.0,-0.34,0.0,0.0,0.0
219,0.0,0.0,0.0,-0.105673828125,0.0,0.0,0.0,0.0,0.0,0.0,-0.252,0.0,0.0,0.0,0.0,0.0,-1.61,-0.11552105485474405,0.0,0.0,0.0,0.0,0.0,0.0,-0.432,0.0,0.0,0.0
220,0.0,0.0,0.0,-0.105673828125,0.0,0.0,0.0,0.0,0.0,0.0,-0.252,0.0,0.0,0.0,0.0,0.0,-1.61,-0.11552897424278985,0.0,0.0,0.0,0.0,0.0,0.0,-0.432,0.0,0.0,0.0
221,0.0,0.0,0.0,-0.105673828125,0.0,0.0,0.0,0.0,0.0,0.0,-0.252,0.0,0.0,0.0,0.0,0.0,-1.61,-0.11554166928856353,0.0,0.0,0.0,0.0,0.0,0.0,-0.432,0.0,0.0,0.0
222,0.0,0.0,0.0,-0.1079921875,0.0,0.0,0.0,0.0,0.0,0.0,-0.243,0.0,0.0,0.0,0.0,0.0,-1.61,-0.11787116268369029,0.0,0.0,0.0,0.0,0.0,0.0,-0.16,0.0,0.0,0.0
223,0.0,0.0,0.0,-0.1079921875,0.0,0.0,0.0,0.0,0.0,0.0,-0.243,0.0,0.0,0.0,0.0,0.0,-1.61,-0.1178801438689144,0.0,0.0,0.0,0.0,0.0,0.0,-0.16,0.0,0.0,0.0
224,0.0,0.0,0.0,-0.1104560546875,0.0,0.0,0.0,0.0,0.0,0.0,-0.233,0.0,0.0,0.0,0.0,0.0,-1.61,-0.12035153228491885,0.0,0.0,0.0,0.0,0.0,0.0,0.112,0.0,0.0,0.0
225,0.0,0.0,0.0,-0.1104560546875,0.0,0.0,0.0,0.0,0.0,0.0,-0.233,0.0,0.0,0.0,0.0,0.0,-1.61,-0.1203592770898136,0.0,0.0,0.0,0.0,0.0,0.0,0.112,0.0,0.0,0.0
226,0.0,0.0,0.0,-0.1104560546875,0.0,0.0,0.0,0.0,0.0,0.0,-0.233,0.0,0.0,0.0,0.0,0.0,-1.61,-0.12036595327947759,0.0,0.0,0.0,0.0,0.0,0.0,0.112,0.0,0.0,0.0
227,0.0,0.0,0.0,-0.112765625,0.0,0.0,0.0,0.0,0.0,0.0,-0.246,0.0,0.0,0.0,0.0,0.0,-1.61,-0.1226819622414345,0.0,0.0,0.0,0.0,0.0,0.0,0.524,0.0,0.0,0.0
228,0.0,0.0,0.0,-0.112765625,0.0,0.0,0.0,0.0,0.0,0.0,-0.246,0.0,0.0,0.0,0.0,0.0,-1.61,-0.1226880365278326,0.0,0.0,0.0,0.0,0.0,0.0,0.524,0.0,0.0,0.0
229,0.0,0.0,0.0,-0.112765625,0.0,0.0,0.0,0.0,0.0,0.0,-0.246,0.0,0.0,0.0,0.0,0.0,-1.61,-0.12269383273410019,0.0,0.0,0.0,0.0,0.0,0.0,0.524,0.0,0.0,0.0
230,0.0,0.0,0.0,-0.1150849609375,0.0,0.0,0.0,0.0,0.0,0.0,-0.232,0.0,0.0,0.0,0.0,0.0,-1.61,-0.12502164642694366,0.0,0.0,0.0,0.0,0.0,0.0,0.364,0.0,0.0,0.0
231,0.0,0.0,0.0,-0.1150849609375,0.0,0.0,0.0,0.0,0.0,0.0,-0.232,0.0,0.0,0.0,0.0,0.0,-1.61,-0.1250290417188604,0.0,0.0,0.0,0.0,0.0,0.0,0.364,0.0,0.0,0.0
232,0.0,0.0,0.0,-0.1178369140625,0.0,0.0,0.0,0.0,0.0,0.0,-0.248,0.0,0.0,0.0,0.0,0.0,-1.61,-0.12778689768763166,0.0,0.0,0.0,0.0,0.0,0.0,0.248,0.0,0.0,0.0
233,0.0,0.0,0.0,-0.1178369140625,0.0,0.0,0.0,0.0,0.0,0.0,-0.248,0.0,0.0,0.0,0.0,0.0,-1.61,-0.12779227692611395,0.0,0.0,0.0,0.0,0.0,0.0,0.248,0.0,0.0,0.0
234,0.0,0.0,0.0,-0.1178369140625,0.0,0.0,0.0,0.0,0.0,0.0,-0.248,0.0,0.0,0.0,0.0,0.0,-1.61,-0.12779820208641732,0.0,0.0,0.0,0.0,0.0,0.0,0.248,0.0,0.0,0.0
235,0.0,0.0,0.0,-0.1203095703125,0.0,0.0,0.0,0.0,0.0,0.0,-0.272,0.0,0.0,0.0,0.0,0.0,-1.61,-0.1302763456180483,0.0,0.0,0.0,0.0,0.0,0.0,0.524,0.0,0.0,0.0
236,0.0,0.0,0.0,-0.1203095703125,0.0,0.0,0.0,0.0,0.0,0.0,-0.272,0.0,0.0,0.0,0.0,0.0,-1.61,-0.13028090008704638,0.0,0.0,0.0,0.0,0.0,0.0,0.524,0.0,0.0,0.0
237,0.0,0.0,0.0,-0.122763671875,0.0,0.0,0.0,0.0,0.0,0.0,-0.247,0.0,0.0,0.0,0.0,0.0,-1.61,-0.13273884312355538,0.0,0.0,0.0,0.0,0.0,0.0,0.136,0.0,0.0,0.0
238,0.0,0.0,0.0,-0.122763671875,0.0,0.0,0.0,0.0,0.0,0.0,-0.247,0.0,0.0,0.0,0.0,0.0,-1.61,-0.13274354871021146,0.0,0.0,0.0,0.0,0.0,0.0,0.136,0.0,0.0,0.0
239,0.0,0.0,0.0,-0.122763671875,0.0,0.0,0.0,0.0,0.0,0.0,-0.247,0.0,0.0,0.0,0.0,0.0,-1.61,-0.13274729216848524,0.0,0.0,0.0,0.0,0.0,0.0,0.136,0.0,0.0,0.0
240,0.0,0.0,0.0,-0.12537109375,0.0,0.0,0.0,0.0,0.0,0.0,-0.256,0.0,0.0,0.0,0.0,0.0,-1.61,-0.13535768747843083,0.0,0.0,0.0,0.0,0.0,0.0,0.136,0.0,0.0,0.0
241,0.0,0.0,0.0,-0.12537109375,0.0,0.0,0.0,0.0,0.0,0.0,-0.256,0.0,0.0,0.0,0.0,0.0,-1.61,-0.13536027505941872,0.0,0.0,0.0,0.0,0.0,0.0,0.136,0.0,0.0,0.0
242,0.0,0.0,0.0,-0.1279794921875,0.0,0.0,0.0,0.0,0.0,0.0,-0.264,0.0,0.0,0.0,0.0,0.0,-1.61,-0.13797125107310823,0.0,0.0,0.0,0.0,0.0,0.0,0.228,0.0,0.0,0.0
243,0.0,0.0,0.0,-0.1279794921875,0.0,0.0,0.0,0.0,0.0,0.0,-0.264,0.0,0.0,0.0,0.0,0.0,-1.61,-0.1379732564554568,0.0,0.0,0.0,0.0,0.0,0.0,0.228,0.0,0.0,0.0
244,0.0,0.0,0.0,-0.1279794921875,0.0,0.0,0.0,0.0,0.0,0.0,-0.264,0.0,0.0,0.0,0.0,0.0,-1.61,-0.13797481511440254,0.0,0.0,0.0,0.0,0.0,0.0,0.228,0.0,0.0,0.0
245,0.0,0.0,0.0,-0.1304423828125,0.0,0.0,0.0,0.0,0.0,0.0,-0.254,0.0,0.0,0.0,0.0,0.0,-1.61,-0.14043910242292645,0.0,0.0,0.0,0.0,0.0,0.0,0.044,0.0,0.0,0.0
246,0.0,0.0,0.0,-0.1304423828125,0.0,0.0,0.0,0.0,0.0,0.0,-0.254,0.0,0.0,0.0,0.0,0.0,-1.61,-0.14044036597150403,0.0,0.0,0.0,0.0,0.0,0.0,0.044,0.0,0.0,0.0
247,0.0,0.0,0.0,-0.1304423828125,0.0,0.0,0.0,0.0,0.0,0.0,-0.254,0.0,0.0,0.0,0.0,0.0,-1.61,-0.14044155280437287,0.0,0.0,0.0,0.0,0.0,0.0,0.044,0.0,0.0,0.0
248,0.0,0.0,0.0,-0.1331953125,0.0,0.0,0.0,0.0,0.0,0.0,-0.263,0.0,0.0,0.0,0.0,0.0,-1.61,-0.14319510211746678,0.0,0.0,0.0,0.0,0.0,0.0,0.204,0.0,0.0,0.0
249,0.0,0.0,0.0,-0.1331953125,0.0,0.0,0.0,0.0,0.0,0.0,-0.263,0.0,0.0,0.0,0.0,0.0,-1.61,-0.14319531069508823,0.0,0.0,0.0,0.0,0.0,0.0,0.204,0.0,0.0,0.0
250,0.0,0.0,0.0,-0.135802734375,0.0,0.0,0.0,0.0,0.0,0.0,-0.263,0.0,0.0,0.0,0.0,0.0,-1.61,-0.14580255854058338,0.0,0.0,0.0,0.0,0.0,0.0,-0.34,0.0,0.0,0.0
251,0.0,0.0,0.0,-0.135802734375,0.0,0.0,0.0,0.0,0.0,0.0,-0.263,0.0,0.0,0.0,0.0,0.0,-1.61,-0.14580195722350647,0.0,0.0,0.0,0.0,0.0,0.0,-0.34,0.0,0.0,0.0
252,0.0,0.0,0.0,-0.135802734375,0.0,0.0,0.0,0.0,0.0,0.0,-0.263,0.0,0.0,0.0,0.0,0.0,-1.61,-0.1458012092661666,0.0,0.0,0.0,0.0,0.0,0.0,-0.34,0.0,0.0,0.0
253,0.0,0.0,0.0,-0.1384013671875,0.0,0.0,0.0,0.0,0.0,0.0,-0.265,0.0,0.0,0.0,0.0,0.0,-1.61,-0.148398530582876,0.0,0.0,0.0,0.0,0.0,0.0,-0.044,0.0,0.0,0.0
254,0.0,0.0,0.0,-0.1384013671875,0.0,0.0,0.0,0.0,0.0,0.0,-0.265,0.0,0.0,0.0,0.0,0.0,-1.61,-0.14839673582885687,0.0,0.0,0.0,0.0,0.0,0.0,-0.044,0.0,0.0,0.0
255,0.0,0.0,0.0,-0.140865234375,0.0,0.0,0.0,0.0,0.0,0.0,-0.253,0.0,0.0,0.0,0.0,0.0,-1.61,-0.15085701821246547,0.0,0.0,0.0,0.0,0.0,0.0,0.136,0.0,0.0,0.0
256,0.0,0.0,0.0,-0.140865234375,0.0,0.0,0.0,0.0,0.0,0.0,-0.253,0.0,0.0,0.0,0.0,0.0,-1.61,-0.15085435073030742,0.0,0.0,0.0,0.0,0.0,0.0,0.136,0.0,0.0,0.0
257,0.0,0.0,0.0,-0.1436259765625,0.0,0.0,0.0,0.0,0.0,0.0,-0.262,0.0,0.0,0.0,0.0,0.0,-1.61,-0.15361201806546262,0.0,0.0,0.0,0.0,0.0,0.0,0.044,0.0,0.0,0.0
258,0.0,0.0,0.0,-0.1436259765625,0.0,0.0,0.0,0.0,0.0,0.0,-0.262,0.0,0.0,0.0,0.0,0.0,-1.61,-0.1536090657634962,0.0,0.0,0.0,0.0,0.0,0.0,0.044,0.0,0.0,0.0
259,0.0,0.0,0.0,-0.1460888671875,0.0,0.0,0.0,0.0,0.0,0.0,-0.269,0.0,0.0,0.0,0.0,0.0,-1.61,-0.1560686745778048,0.0,0.0,0.0,0.0,0.0,0.0,0.8,0.0,0.0,0.0
260,0.0,0.0,0.0,-0.1460888671875,0.0,0.0,0.0,0.0,0.0,0.0,-0.269,0.0,0.0,0.0,0.0,0.0,-1.61,-0.15606434901213556,0.0,0.0,0.0,0.0,0.0,0.0,0.8,0.0,0.0,0.0
261,0.0,0.0,0.0,-0.148408203125,0.0,0.0,0.0,0.0,0.0,0.0,-0.242,0.0,0.0,0.0,0.0,0.0,-1.61,-0.15837281480059384,0.0,0.0,0.0,0.0,0.0,0.0,0.248,0.0,0.0,0.0
262,0.0,0.0,0.0,-0.148408203125,0.0,0.0,0.0,0.0,0.0,0.0,-0.242,0.0,0.0,0.0,0.0,0.0,-1.61,-0.15836622382925505,0.0,0.0,0.0,0.0,0.0,0.0,0.248,0.0,0.0,0.0
263,0.0,0.0,0.0,-0.15116015625,0.0,0.0,0.0,0.0,0.0,0.0,-0.249,0.0,0.0,0.0,0.0,0.0,-1.61,-0.1611118659468756,0.0,0.0,0.0,0.0,0.0,0.0,-0.272,0.0,0.0,0.0
264,0.0,0.0,0.0,-0.15116015625,0.0,0.0,0.0,0.0,0.0,0.0,-0.249,0.0,0.0,0.0,0.0,0.0,-1.61,-0.16110603597127485,0.0,0.0,0.0,0.0,0.0,0.0,-0.272,0.0,0.0,0.0
265,0.0,0.0,0.0,-0.1537587890625,0.0,0.0,0.0,0.0,0.0,0.0,-0.279,0.0,0.0,0.0,0.0,0.0,-1.61,-0.16369602103226696,0.0,0.0,0.0,0.0,0.0,0.0,0.068,0.0,0.0,0.0
266,0.0,0.0,0.0,-0.1537587890625,0.0,0.0,0.0,0.0,0.0,0.0,-0.279,0.0,0.0,0.0,0.0,0.0,-1.61,-0.16368894095671901,0.0,0.0,0.0,0.0,0.0,0.0,0.068,0.0,0.0,0.0
267,0.0,0.0,0.0,-0.1557890625,0.0,0.0,0.0,0.0,0.0,0.0,-0.237,0.0,0.0,0.0,0.0,0.0,-1.61,-0.16571251144276908,0.0,0.0,0.0,0.0,0.0,0.0,0.16,0.0,0.0,0.0
268,0.0,0.0,0.0,-0.1557890625,0.0,0.0,0.0,0.0,0.0,0.0,-0.237,0.0,0.0,0.0,0.0,0.0,-1.61,-0.16570630947229006,0.0,0.0,0.0,0.0,0.0,0.0,0.16,0.0,0.0,0.0
269,0.0,0.0,0.0,-0.1557890625,0.0,0.0,0.0,0.0,0.0,0.0,-0.237,0.0,0.0,0.0,0.0,0.0,-1.61,-0.1656974624001059,0.0,0.0,0.0,0.0,0.0,0.0,0.16,0.0,0.0,0.0
270,0.0,0.0,0.0,-0.1585419921875,0.0,0.0,0.0,0.0,0.0,0.0,-0.233,0.0,0.0,0.0,0.0,0.0,-1.61,-0.16843967517426844,0.0,0.0,0.0,0.0,0.0,0.0,-0.32,0.0,0.0,0.0
271,0.0,0.0,0.0,-0.1585419921875,0.0,0.0,0.0,0.0,0.0,0.0,-0.233,0.0,0.0,0.0,0.0,0.0,-1.61,-0.16842702354775219,0.0,0.0,0.0,0.0,0.0,0.0,-0.32,0.0,0.0,0.0
272,0.0,0.0,0.0,-0.1614384765625,0.0,0.0,0.0,0.0,0.0,0.0,-0.284,0.0,0.0,0.0,0.0,0.0,-1.61,-0.17131153268615654,0.0,0.0,0.0,0.0,0.0,0.0,0.044,0.0,0.0,0.0
273,0.0,0.0,0.0,-0.1614384765625,0.0,0.0,0.0,0.0,0.0,0.0,-0.284,0.0,0.0,0.0,0.0,0.0,-1.61,-0.17130257015954883,0.0,0.0,0.0,0.0,0.0,0.0,0.044,0.0,0.0,0.0
274,0.0,0.0,0.0,-0.163603515625,0.0,0.0,0.0,0.0,0.0,0.0,-0.263,0.0,0.0,0.0,0.0,0.0,-1.61,-0.17345939591090587,0.0,0.0,0.0,0.0,0.0,0.0,0.044,0.0,0.0,0.0
275,0.0,0.0,0.0,-0.163603515625,0.0,0.0,0.0,0.0,0.0,0.0,-0.263,0.0,0.0,0.0,0.0,0.0,-1.61,-0.17345140797545322,0.0,0.0,0.0,0.0,0.0,0.0,0.044,0.0,0.0,0.0
276,0.0,0.0,0.0,-0.163603515625,0.0,0.0,0.0,0.0,0.0,0.0,-0.263,0.0,0.0,0.0,0.0,0.0,-1.61,-0.17344221173174912,0.0,0.0,0.0,0.0,0.0,0.0,0.044,0.0,0.0,0.0
277,0.0,0.0,0.0,-0.166220703125,0.0,0.0,0.0,0.0,0.0,0.0,-0.24,0.0,0.0,0.0,0.0,0.0,-1.61,-0.17604498499630356,0.0,0.0,0.0,0.0,0.0,0.0,-0.204,0.0,0.0,0.0
278,0.0,0.0,0.0,-0.166220703125,0.0,0.0,0.0,0.0,0.0,0.0,-0.24,0.0,0.0,0.0,0.0,0.0,-1.61,-0.176032724797664,0.0,0.0,0.0,0.0,0.0,0.0,-0.204,0.0,0.0,0.0
279,0.0,0.0,0.0,-0.16897265625,0.0,0.0,0.0,0.0,0.0,0.0,-0.272,0.0,0.0,0.0,0.0,0.0,-1.61,-0.1787748955830378,0.0,0.0,0.0,0.0,0.0,0.0,0.272,0.0,0.0,0.0
280,0.0,0.0,0.0,-0.16897265625,0.0,0.0,0.0,0.0,0.0,0.0,-0.272,0.0,0.0,0.0,0.0,0.0,-1.61,-0.1787638954276021,0.0,0.0,0.0,0.0,0.0,0.0,0.272,0.0,0.0,0.0
281,0.0,0.0,0.0,-0.16897265625,0.0,0.0,0.0,0.0,0.0,0.0,-0.272,0.0,0.0,0.0,0.0,0.0,-1.61,-0.17875234479198107,0.0,0.0,0.0,0.0,0.0,0.0,0.272,0.0,0.0,0.0
282,0.0,0.0,0.0,-0.1711474609375,0.0,0.0,0.0,0.0,0.0,0.0,-0.255,0.0,0.0,0.0,0.0,0.0,-1.61,-0.18091617699694398,0.0,0.0,0.0,0.0,0.0,0.0,0.068,0.0,0.0,0.0
283,0.0,0.0,0.0,-0.1711474609375,0.0,0.0,0.0,0.0,0.0,0.0,-0.255,0.0,0.0,0.0,0.0,0.0,-1.61,-0.18090589598008544,0.0,0.0,0.0,0.0,0.0,0.0,0.068,0.0,0.0,0.0
284,0.0,0.0,0.0,-0.1711474609375,0.0,0.0,0.0,0.0,0.0,0.0,-0.255,0.0,0.0,0.0,0.0,0.0,-1.61,-0.18089466758394274,0.0,0.0,0.0,0.0,0.0,0.0,0.068,0.0,0.0,0.0
285,0.0,0.0,0.0,-0.1736103515625,0.0,0.0,0.0,0.0,0.0,0.0,-0.227,0.0,0.0,0.0,0.0,0.0,-1.61,-0.1833460160101949,0.0,0.0,0.0,0.0,0.0,0.0,0.228,0.0,0.0,0.0
286,0.0,0.0,0.0,-0.1736103515625,0.0,0.0,0.0,0.0,0.0,0.0,-0.227,0.0,0.0,0.0,0.0,0.0,-1.61,-0.18332912815017835,0.0,0.0,0.0,0.0,0.0,0.0,0.228,0.0,0.0,0.0
287,0.0,0.0,0.0,-0.1736103515625,0.0,0.0,0.0,0.0,0.0,0.0,-0.227,0.0,0.0,0.0,0.0,0.0,-1.61,-0.1833138751277133,0.0,0.0,0.0,0.0,0.0,0.0,0.228,0.0,0.0,0.0
288,0.0,0.0,0.0,-0.1762099609375,0.0,0.0,0.0,0.0,0.0,0.0,-0.253,0.0,0.0,0.0,0.0,0.0,-1.61,-0.18589787567971583,0.0,0.0,0.0,0.0,0.0,0.0,0.432,0.0,0.0,0.0
289,0.0,0.0,0.0,-0.1786728515625,0.0,0.0,0.0,0.0,0.0,0.0,-0.259,0.0,0.0,0.0,0.0,0.0,-1.61,-0.18833739864518248,0.0,0.0,0.0,0.0,0.0,0.0,0.524,0.0,0.0,0.0
290,0.0,0.0,0.0,-0.1786728515625,0.0,0.0,0.0,0.0,0.0,0.0,-0.259,0.0,0.0,0.0,0.0,0.0,-1.61,-0.1883187000636041,0.0,0.0,0.0,0.0,0.0,0.0,0.524,0.0,0.0,0.0
291,0.0,0.0,0.0,-0.1786728515625,0.0,0.0,0.0,0.0,0.0,0.0,-0.259,0.0,0.0,0.0,0.0,0.0,-1.61,-0.18830541974958528,0.0,0.0,0.0,0.0,0.0,0.0,0.524,0.0,0.0,0.0
292,0.0,0.0,0.0,-0.1812802734375,0.0,0.0,0.0,0.0,0.0,0.0,-0.251,0.0,0.0,0.0,0.0,0.0,-1.61,-0.190899429069524,0.0,0.0,0.0,0.0,0.0,0.0,0.524,0.0,0.0,0.0
293,0.0,0.0,0.0,-0.1812802734375,0.0,0.0,0.0,0.0,0.0,0.0,-0.251,0.0,0.0,0.0,0.0,0.0,-1.61,-0.1908855679608423,0.0,0.0,0.0,0.0,0.0,0.0,0.524,0.0,0.0,0.0
294,0.0,0.0,0.0,-0.183888671875,0.0,0.0,0.0,0.0,0.0,0.0,-0.267,0.0,0.0,0.0,0.0,0.0,-1.61,-0.19346982271047686,0.0,0.0,0.0,0.0,0.0,0.0,0.936,0.0,0.0,0.0
295,0.0,0.0,0.0,-0.183888671875,0.0,0.0,0.0,0.0,0.0,0.0,-0.267,0.0,0.0,0.0,0.0,0.0,-1.61,-0.19345185412288832,0.0,0.0,0.0,0.0,0.0,0.0,0.936,0.0,0.0,0.0
296,0.0,0.0,0.0,-0.183888671875,0.0,0.0,0.0,0.0,0.0,0.0,-0.267,0.0,0.0,0.0,0.0,0.0,-1.61,-0.19343468295698066,0.0,0.0,0.0,0.0,0.0,0.0,0.936,0.0,0.0,0.0
297,0.0,0.0,0.0,-0.1863515625,0.0,0.0,0.0,0.0,0.0,0.0,-0.253,0.0,0.0,0.0,0.0,0.0,-1.61,-0.19587940075549196,0.0,0.0,0.0,0.0,0.0,0.0,0.64,0.0,0.0,0.0
298,0.0,0.0,0.0,-0.1863515625,0.0,0.0,0.0,0.0,0.0,0.0,-0.253,0.0,0.0,0.0,0.0,0.0,-1.61,-0.1958623970716317,0.0,0.0,0.0,0.0,0.0,0.0,0.64,0.0,0.0,0.0
299,0.0,0.0,0.0,-0.1888154296875,0.0,0.0,0.0,0.0,0.0,0.0,-0.246,0.0,0.0,0.0,0.0,0.0,-1.61,-0.19830951006996425,0.0,0.0,0.0,0.0,0.0,0.0,0.136,0.0,0.0,0.0
300,0.0,0.0,0.0,-0.1888154296875,0.0,0.0,0.0,0.0,0.0,0.0,-0.246,0.0,0.0,0.0,0.0,0.0,-1.61,-0.19829351820585567,0.0,0.0,0.0,0.0,0.0,0.0,0.136,0.0,0.0,0.0
301,0.0,0.0,0.0,-0.1888154296875,0.0,0.0,0.0,0.0,0.0,0.0,-0.246,0.0,0.0,0.0,0.0,0.0,-1.61,-0.19827526398269224,0.0,0.0,0.0,0.0,0.0,0.0,0.136,0.0,0.0,0.0
302,0.0,0.0,0.0,-0.1914228515625,0.0,0.0,0.0,0.0,0.0,0.0,-0.261,0.0,0.0,0.0,0.0,0.0,-1.61,-0.20085758192156924,0.0,0.0,0.0,0.0,0.0,0.0,0.272,0.0,0.0,0.0
303,0.0,0.0,0.0,-0.1914228515625,0.0,0.0,0.0,0.0,0.0,0.0,-0.261,0.0,0.0,0.0,0.0,0.0,-1.61,-0.2008371203966071,0.0,0.0,0.0,0.0,0.0,0.0,0.272,0.0,0.0,0.0
304,0.0,0.0,0.0,-0.1937421875,0.0,0.0,0.0,0.0,0.0,0.0,-0.25,0.0,0.0,0.0,0.0,0.0,-1.61,-0.20313645514301293,0.0,0.0,0.0,0.0,0.0,0.0,0.0,0.0,0.0,0.0
305,0.0,0.0,0.0,-0.1937421875,0.0,0.0,0.0,0.0,0.0,0.0,-0.25,0.0,0.0,0.0,0.0,0.0,-1.61,-0.2031184719941314,0.0,0.0,0.0,0.0,0.0,0.0,0.0,0.0,0.0,0.0
306,0.0,0.0,0.0,-0.1937421875,0.0,0.0,0.0,0.0,0.0,0.0,-0.25,0.0,0.0,0.0,0.0,0.0,-1.61,-0.2031000225627028,0.0,0.0,0.0,0.0,0.0,0.0,0.0,0.0,0.0,0.0
307,0.0,0.0,0.0,-0.196349609375,0.0,0.0,0.0,0.0,0.0,0.0,-0.245,0.0,0.0,0.0,0.0,0.0,-1.61,-0.20568919150483084,0.0,0.0,0.0,0.0,0.0,0.0,-0.044,0.0,0.0,0.0
308,0.0,0.0,0.0,-0.196349609375,0.0,0.0,0.0,0.0,0.0,0.0,-0.245,0.0,0.0,0.0,0.0,0.0,-1.61,-0.20567027838845645,0.0,0.0,0.0,0.0,0.0,0.0,-0.044,0.0,0.0,0.0
309,0.0,0.0,0.0,-0.196349609375,0.0,0.0,0.0,0.0,0.0,0.0,-0.245,0.0,0.0,0.0,0.0,0.0,-1.61,-0.20564984661908595,0.0,0.0,0.0,0.0,0.0,0.0,-0.044,0.0,0.0,0.0
310,0.0,0.0,0.0,-0.1989580078125,0.0,0.0,0.0,0.0,0.0,0.0,-0.261,0.0,0.0,0.0,0.0,0.0,-1.61,-0.20823897383432216,0.0,0.0,0.0,0.0,0.0,0.0,0.16,0.0,0.0,0.0
311,0.0,0.0,0.0,-0.1989580078125,0.0,0.0,0.0,0.0,0.0,0.0,-0.261,0.0,0.0,0.0,0.0,0.0,-1.61,-0.20821065133357586,0.0,0.0,0.0,0.0,0.0,0.0,0.16,0.0,0.0,0.0
312,0.0,0.0,0.0,-0.201267578125,0.0,0.0,0.0,0.0,0.0,0.0,-0.251,0.0,0.0,0.0,0.0,0.0,-1.61,-0.21049473680484887,0.0,0.0,0.0,0.0,0.0,0.0,-0.02,0.0,0.0,0.0
313,0.0,0.0,0.0,-0.201267578125,0.0,0.0,0.0,0.0,0.0,0.0,-0.251,0.0,0.0,0.0,0.0,0.0,-1.61,-0.2104754075309905,0.0,0.0,0.0,0.0,0.0,0.0,-0.02,0.0,0.0,0.0
314,0.0,0.0,0.0,-0.201267578125,0.0,0.0,0.0,0.0,0.0,0.0,-0.251,0.0,0.0,0.0,0.0,0.0,-1.61,-0.21045561940050767,0.0,0.0,0.0,0.0,0.0,0.0,-0.02,0.0,0.0,0.0
315,0.0,0.0,0.0,-0.203875,0.0,0.0,0.0,0.0,0.0,0.0,-0.247,0.0,0.0,0.0,0.0,0.0,-1.61,-0.2130400277834275,0.0,0.0,0.0,0.0,0.0,0.0,0.296,0.0,0.0,0.0
316,0.0,0.0,0.0,-0.203875,0.0,0.0,0.0,0.0,0.0,0.0,-0.247,0.0,0.0,0.0,0.0,0.0,-1.61,-0.21301565419645976,0.0,0.0,0.0,0.0,0.0,0.0,0.296,0.0,0.0,0.0
317,0.0,0.0,0.0,-0.203875,0.0,0.0,0.0,0.0,0.0,0.0,-0.247,0.0,0.0,0.0,0.0,0.0,-1.61,-0.21299141484837317,0.0,0.0,0.0,0.0,0.0,0.0,0.296,0.0,0.0,0.0
318,0.0,0.0,0.0,-0.2061943359375,0.0,0.0,0.0,0.0,0.0,0.0,-0.25,0.0,0.0,0.0,0.0,0.0,-1.61,-0.21528784976414753,0.0,0.0,0.0,0.0,0.0,0.0,0.34,0.0,0.0,0.0
319,0.0,0.0,0.0,-0.2061943359375,0.0,0.0,0.0,0.0,0.0,0.0,-0.25,0.0,0.0,0.0,0.0,0.0,-1.61,-0.2152620162771059,0.0,0.0,0.0,0.0,0.0,0.0,0.34,0.0,0.0,0.0
320,0.0,0.0,0.0,-0.208658203125,0.0,0.0,0.0,0.0,0.0,0.0,-0.241,0.0,0.0,0.0,0.0,0.0,-1.61,-0.21769360892562617,0.0,0.0,0.0,0.0,0.0,0.0,0.32,0.0,0.0,0.0
321,0.0,0.0,0.0,-0.208658203125,0.0,0.0,0.0,0.0,0.0,0.0,-0.241,0.0,0.0,0.0,0.0,0.0,-1.61,-0.21766914831434694,0.0,0.0,0.0,0.0,0.0,0.0,0.32,0.0,0.0,0.0
322,0.0,0.0,0.0,-0.2109677734375,0.0,0.0,0.0,0.0,0.0,0.0,-0.238,0.0,0.0,0.0,0.0,0.0,-1.61,-0.2199534139327178,0.0,0.0,0.0,0.0,0.0,0.0,0.32,0.0,0.0,0.0
323,0.0,0.0,0.0,-0.2109677734375,0.0,0.0,0.0,0.0,0.0,0.0,-0.238,0.0,0.0,0.0,0.0,0.0,-1.61,-0.21992438837269035,0.0,0.0,0.0,0.0,0.0,0.0,0.32,0.0,0.0,0.0
324,0.0,0.0,0.0,-0.2109677734375,0.0,0.0,0.0,0.0,0.0,0.0,-0.238,0.0,0.0,0.0,0.0,0.0,-1.61,-0.21990247986601807,0.0,0.0,0.0,0.0,0.0,0.0,0.32,0.0,0.0,0.0
325,0.0,0.0,0.0,-0.2131513671875,0.0,0.0,0.0,0.0,0.0,0.0,-0.232,0.0,0.0,0.0,0.0,0.0,-1.61,-0.2220630663475542,0.0,0.0,0.0,0.0,0.0,0.0,0.204,0.0,0.0,0.0
326,0.0,0.0,0.0,-0.2131513671875,0.0,0.0,0.0,0.0,0.0,0.0,-0.232,0.0,0.0,0.0,0.0,0.0,-1.61,-0.22204085151448044,0.0,0.0,0.0,0.0,0.0,0.0,0.204,0.0,0.0,0.0
327,0.0,0.0,0.0,-0.2131513671875,0.0,0.0,0.0,0.0,0.0,0.0,-0.232,0.0,0.0,0.0,0.0,0.0,-1.61,-0.22201836933975572,0.0,0.0,0.0,0.0,0.0,0.0,0.204,0.0,0.0,0.0
328,0.0,0.0,0.0,-0.215470703125,0.0,0.0,0.0,0.0,0.0,0.0,-0.223,0.0,0.0,0.0,0.0,0.0,-1.61,-0.2243013384464548,0.0,0.0,0.0,0.0,0.0,0.0,-0.136,0.0,0.0,0.0
329,0.0,0.0,0.0,-0.215470703125,0.0,0.0,0.0,0.0,0.0,0.0,-0.223,0.0,0.0,0.0,0.0,0.0,-1.61,-0.22427216937085193,0.0,0.0,0.0,0.0,0.0,0.0,-0.136,0.0,0.0,0.0
330,0.0,0.0,0.0,-0.2177802734375,0.0,0.0,0.0,0.0,0.0,0.0,-0.231,0.0,0.0,0.0,0.0,0.0,-1.61,-0.22655183948287175,0.0,0.0,0.0,0.0,0.0,0.0,-0.112,0.0,0.0,0.0
331,0.0,0.0,0.0,-0.2177802734375,0.0,0.0,0.0,0.0,0.0,0.0,-0.231,0.0,0.0,0.0,0.0,0.0,-1.61,-0.2265205529077128,0.0,0.0,0.0,0.0,0.0,0.0,-0.112,0.0,0.0,0.0
332,0.0,0.0,0.0,-0.2177802734375,0.0,0.0,0.0,0.0,0.0,0.0,-0.231,0.0,0.0,0.0,0.0,0.0,-1.61,-0.2264929362279381,0.0,0.0,0.0,0.0,0.0,0.0,-0.112,0.0,0.0,0.0
333,0.0,0.0,0.0,-0.219955078125,0.0,0.0,0.0,0.0,0.0,0.0,-0.233,0.0,0.0,0.0,0.0,0.0,-1.61,-0.22864160905018532,0.0,0.0,0.0,0.0,0.0,0.0,0.408,0.0,0.0,0.0
334,0.0,0.0,0.0,-0.219955078125,0.0,0.0,0.0,0.0,0.0,0.0,-0.233,0.0,0.0,0.0,0.0,0.0,-1.61,-0.2286160950262381,0.0,0.0,0.0,0.0,0.0,0.0,0.408,0.0,0.0,0.0
335,0.0,0.0,0.0,-0.2221298828125,0.0,0.0,0.0,0.0,0.0,0.0,-0.215,0.0,0.0,0.0,0.0,0.0,-1.61,-0.2307604488837828,0.0,0.0,0.0,0.0,0.0,0.0,0.204,0.0,0.0,0.0
336,0.0,0.0,0.0,-0.2221298828125,0.0,0.0,0.0,0.0,0.0,0.0,-0.215,0.0,0.0,0.0,0.0,0.0,-1.61,-0.23072689294004364,0.0,0.0,0.0,0.0,0.0,0.0,0.204,0.0,0.0,0.0
337,0.0,0.0,0.0,-0.2221298828125,0.0,0.0,0.0,0.0,0.0,0.0,-0.215,0.0,0.0,0.0,0.0,0.0,-1.61,-0.23069310219045197,0.0,0.0,0.0,0.0,0.0,0.0,0.204,0.0,0.0,0.0
338,0.0,0.0,0.0,-0.2243046875,0.0,0.0,0.0,0.0,0.0,0.0,-0.223,0.0,0.0,0.0,0.0,0.0,-1.61,-0.2328382829284952,0.0,0.0,0.0,0.0,0.0,0.0,0.48,0.0,0.0,0.0
339,0.0,0.0,0.0,-0.2243046875,0.0,0.0,0.0,0.0,0.0,0.0,-0.223,0.0,0.0,0.0,0.0,0.0,-1.61,-0.2328074830947509,0.0,0.0,0.0,0.0,0.0,0.0,0.48,0.0,0.0,0.0
340,0.0,0.0,0.0,-0.2263251953125,0.0,0.0,0.0,0.0,0.0,0.0,-0.211,0.0,0.0,0.0,0.0,0.0,-1.61,-0.23479714223052256,0.0,0.0,0.0,0.0,0.0,0.0,-0.228,0.0,0.0,0.0
341,0.0,0.0,0.0,-0.2263251953125,0.0,0.0,0.0,0.0,0.0,0.0,-0.211,0.0,0.0,0.0,0.0,0.0,-1.61,-0.23475215090776125,0.0,0.0,0.0,0.0,0.0,0.0,-0.228,0.0,0.0,0.0
342,0.0,0.0,0.0,-0.22864453125,0.0,0.0,0.0,0.0,0.0,0.0,-0.214,0.0,0.0,0.0,0.0,0.0,-1.61,-0.23703341903054476,0.0,0.0,0.0,0.0,0.0,0.0,-0.432,0.0,0.0,0.0
343,0.0,0.0,0.0,-0.22864453125,0.0,0.0,0.0,0.0,0.0,0.0,-0.214,0.0,0.0,0.0,0.0,0.0,-1.61,-0.2369971079992121,0.0,0.0,0.0,0.0,0.0,0.0,-0.432,0.0,0.0,0.0
344,0.0,0.0,0.0,-0.230666015625,0.0,0.0,0.0,0.0,0.0,0.0,-0.218,0.0,0.0,0.0,0.0,0.0,-1.61,-0.23897877779883964,0.0,0.0,0.0,0.0,0.0,0.0,-0.18,0.0,0.0,0.0
345,0.0,0.0,0.0,-0.230666015625,0.0,0.0,0.0,0.0,0.0,0.0,-0.218,0.0,0.0,0.0,0.0,0.0,-1.61,-0.23894960711947547,0.0,0.0,0.0,0.0,0.0,0.0,-0.18,0.0,0.0,0.0
346,0.0,0.0,0.0,-0.230666015625,0.0,0.0,0.0,0.0,0.0,0.0,-0.218,0.0,0.0,0.0,0.0,0.0,-1.61,-0.2389213606713234,0.0,0.0,0.0,0.0,0.0,0.0,-0.18,0.0,0.0,0.0
347,0.0,0.0,0.0,-0.2326962890625,0.0,0.0,0.0,0.0,0.0,0.0,-0.205,0.0,0.0,0.0,0.0,0.0,-1.61,-0.24092225823071167,0.0,0.0,0.0,0.0,0.0,0.0,-0.044,0.0,0.0,0.0
348,0.0,0.0,0.0,-0.2326962890625,0.0,0.0,0.0,0.0,0.0,0.0,-0.205,0.0,0.0,0.0,0.0,0.0,-1.61,-0.2408856358582712,0.0,0.0,0.0,0.0,0.0,0.0,-0.044,0.0,0.0,0.0
349,0.0,0.0,0.0,-0.2326962890625,0.0,0.0,0.0,0.0,0.0,0.0,-0.205,0.0,0.0,0.0,0.0,0.0,-1.61,-0.2408477903843072,0.0,0.0,0.0,0.0,0.0,0.0,-0.044,0.0,0.0,0.0
350,0.0,0.0,0.0,-0.2347265625,0.0,0.0,0.0,0.0,0.0,0.0,-0.207,0.0,0.0,0.0,0.0,0.0,-1.61,-0.24284721561635397,0.0,0.0,0.0,0.0,0.0,0.0,0.18,0.0,0.0,0.0
351,0.0,0.0,0.0,-0.2347265625,0.0,0.0,0.0,0.0,0.0,0.0,-0.207,0.0,0.0,0.0,0.0,0.0,-1.61,-0.24281862729164622,0.0,0.0,0.0,0.0,0.0,0.0,0.18,0.0,0.0,0.0
352,0.0,0.0,0.0,-0.236748046875,0.0,0.0,0.0,0.0,0.0,0.0,-0.211,0.0,0.0,0.0,0.0,0.0,-1.61,-0.24480173777741365,0.0,0.0,0.0,0.0,0.0,0.0,0.456,0.0,0.0,0.0
353,0.0,0.0,0.0,-0.236748046875,0.0,0.0,0.0,0.0,0.0,0.0,-0.211,0.0,0.0,0.0,0.0,0.0,-1.61,-0.24474740357199481,0.0,0.0,0.0,0.0,0.0,0.0,0.456,0.0,0.0,0.0
354,0.0,0.0,0.0,-0.238787109375,0.0,0.0,0.0,0.0,0.0,0.0,-0.2,0.0,0.0,0.0,0.0,0.0,-1.61,-0.24673036013568275,0.0,0.0,0.0,0.0,0.0,0.0,0.5,0.0,0.0,0.0
355,0.0,0.0,0.0,-0.238787109375,0.0,0.0,0.0,0.0,0.0,0.0,-0.2,0.0,0.0,0.0,0.0,0.0,-1.61,-0.2466761117501983,0.0,0.0,0.0,0.0,0.0,0.0,0.5,0.0,0.0,0.0
356,0.0,0.0,0.0,-0.2408173828125,0.0,0.0,0.0,0.0,0.0,0.0,-0.202,0.0,0.0,0.0,0.0,0.0,-1.61,-0.24866193484121496,0.0,0.0,0.0,0.0,0.0,0.0,0.82,0.0,0.0,0.0
357,0.0,0.0,0.0,-0.2408173828125,0.0,0.0,0.0,0.0,0.0,0.0,-0.202,0.0,0.0,0.0,0.0,0.0,-1.61,-0.24862689791322076,0.0,0.0,0.0,0.0,0.0,0.0,0.82,0.0,0.0,0.0
358,0.0,0.0,0.0,-0.2428388671875,0.0,0.0,0.0,0.0,0.0,0.0,-0.205,0.0,0.0,0.0,0.0,0.0,-1.61,-0.25060839671205837,0.0,0.0,0.0,0.0,0.0,0.0,0.728,0.0,0.0,0.0
359,0.0,0.0,0.0,-0.2428388671875,0.0,0.0,0.0,0.0,0.0,0.0,-0.205,0.0,0.0,0.0,0.0,0.0,-1.61,-0.2505662092275229,0.0,0.0,0.0,0.0,0.0,0.0,0.728,0.0,0.0,0.0
360,0.0,0.0,0.0,-0.244869140625,0.0,0.0,0.0,0.0,0.0,0.0,-0.204,0.0,0.0,0.0,0.0,0.0,-1.61,-0.252557617999402,0.0,0.0,0.0,0.0,0.0,0.0,0.34,0.0,0.0,0.0
361,0.0,0.0,0.0,-0.244869140625,0.0,0.0,0.0,0.0,0.0,0.0,-0.204,0.0,0.0,0.0,0.0,0.0,-1.61,-0.2525266155210632,0.0,0.0,0.0,0.0,0.0,0.0,0.34,0.0,0.0,0.0
362,0.0,0.0,0.0,-0.244869140625,0.0,0.0,0.0,0.0,0.0,0.0,-0.204,0.0,0.0,0.0,0.0,0.0,-1.61,-0.2524873548514097,0.0,0.0,0.0,0.0,0.0,0.0,0.34,0.0,0.0,0.0
363,0.0,0.0,0.0,-0.24704296875,0.0,0.0,0.0,0.0,0.0,0.0,-0.216,0.0,0.0,0.0,0.0,0.0,-1.61,-0.25461783372724084,0.0,0.0,0.0,0.0,0.0,0.0,0.5,0.0,0.0,0.0
364,0.0,0.0,0.0,-0.24704296875,0.0,0.0,0.0,0.0,0.0,0.0,-0.216,0.0,0.0,0.0,0.0,0.0,-1.61,-0.2545780028164477,0.0,0.0,0.0,0.0,0.0,0.0,0.5,0.0,0.0,0.0
365,0.0,0.0,0.0,-0.249064453125,0.0,0.0,0.0,0.0,0.0,0.0,-0.204,0.0,0.0,0.0,0.0,0.0,-1.61,-0.2565498382861997,0.0,0.0,0.0,0.0,0.0,0.0,0.456,0.0,0.0,0.0
366,0.0,0.0,0.0,-0.249064453125,0.0,0.0,0.0,0.0,0.0,0.0,-0.204,0.0,0.0,0.0,0.0,0.0,-1.61,-0.2565138234009117,0.0,0.0,0.0,0.0,0.0,0.0,0.456,0.0,0.0,0.0
367,0.0,0.0,0.0,-0.249064453125,0.0,0.0,0.0,0.0,0.0,0.0,-0.204,0.0,0.0,0.0,0.0,0.0,-1.61,-0.256470707092741,0.0,0.0,0.0,0.0,0.0,0.0,0.456,0.0,0.0,0.0
368,0.0,0.0,0.0,-0.2510947265625,0.0,0.0,0.0,0.0,0.0,0.0,-0.21,0.0,0.0,0.0,0.0,0.0,-1.61,-0.25846149796199724,0.0,0.0,0.0,0.0,0.0,0.0,0.48,0.0,0.0,0.0
369,0.0,0.0,0.0,-0.2510947265625,0.0,0.0,0.0,0.0,0.0,0.0,-0.21,0.0,0.0,0.0,0.0,0.0,-1.61,-0.25842014639470756,0.0,0.0,0.0,0.0,0.0,0.0,0.48,0.0,0.0,0.0
370,0.0,0.0,0.0,-0.2510947265625,0.0,0.0,0.0,0.0,0.0,0.0,-0.21,0.0,0.0,0.0,0.0,0.0,-1.61,-0.2583802206066799,0.0,0.0,0.0,0.0,0.0,0.0,0.48,0.0,0.0,0.0
371,0.0,0.0,0.0,-0.2529716796875,0.0,0.0,0.0,0.0,0.0,0.0,-0.2,0.0,0.0,0.0,0.0,0.0,-1.61,-0.2601936319344763,0.0,0.0,0.0,0.0,0.0,0.0,0.684,0.0,0.0,0.0
372,0.0,0.0,0.0,-0.254712890625,0.0,0.0,0.0,0.0,0.0,0.0,-0.182,0.0,0.0,0.0,0.0,0.0,-1.61,-0.2618519619514018,0.0,0.0,0.0,0.0,0.0,0.0,0.228,0.0,0.0,0.0
373,0.0,0.0,0.0,-0.254712890625,0.0,0.0,0.0,0.0,0.0,0.0,-0.182,0.0,0.0,0.0,0.0,0.0,-1.61,-0.26180130877139535,0.0,0.0,0.0,0.0,0.0,0.0,0.228,0.0,0.0,0.0
374,0.0,0.0,0.0,-0.25658984375,0.0,0.0,0.0,0.0,0.0,0.0,-0.188,0.0,0.0,0.0,0.0,0.0,-1.61,-0.2636173856400507,0.0,0.0,0.0,0.0,0.0,0.0,0.204,0.0,0.0,0.0
375,0.0,0.0,0.0,-0.25658984375,0.0,0.0,0.0,0.0,0.0,0.0,-0.188,0.0,0.0,0.0,0.0,0.0,-1.61,-0.26357195282480483,0.0,0.0,0.0,0.0,0.0,0.0,0.204,0.0,0.0,0.0
376,0.0,0.0,0.0,-0.2581875,0.0,0.0,0.0,0.0,0.0,0.0,-0.178,0.0,0.0,0.0,0.0,0.0,-1.61,-0.26513348300124306,0.0,0.0,0.0,0.0,0.0,0.0,0.936,0.0,0.0,0.0
377,0.0,0.0,0.0,-0.2581875,0.0,0.0,0.0,0.0,0.0,0.0,-0.178,0.0,0.0,0.0,0.0,0.0,-1.61,-0.26509876291060797,0.0,0.0,0.0,0.0,0.0,0.0,0.936,0.0,0.0,0.0
378,0.0,0.0,0.0,-0.259775390625,0.0,0.0,0.0,0.0,0.0,0.0,-0.148,0.0,0.0,0.0,0.0,0.0,-1.61,-0.2666291862847067,0.0,0.0,0.0,0.0,0.0,0.0,0.112,0.0,0.0,0.0
379,0.0,0.0,0.0,-0.259775390625,0.0,0.0,0.0,0.0,0.0,0.0,-0.148,0.0,0.0,0.0,0.0,0.0,-1.61,-0.26658640438642944,0.0,0.0,0.0,0.0,0.0,0.0,0.112,0.0,0.0,0.0
380,0.0,0.0,0.0,-0.259775390625,0.0,0.0,0.0,0.0,0.0,0.0,-0.148,0.0,0.0,0.0,0.0,0.0,-1.61,-0.26654737365068054,0.0,0.0,0.0,0.0,0.0,0.0,0.112,0.0,0.0,0.0
381,0.0,0.0,0.0,-0.2618056640625,0.0,0.0,0.0,0.0,0.0,0.0,-0.185,0.0,0.0,0.0,0.0,0.0,-1.61,-0.2685345977101545,0.0,0.0,0.0,0.0,0.0,0.0,0.136,0.0,0.0,0.0
382,0.0,0.0,0.0,-0.2618056640625,0.0,0.0,0.0,0.0,0.0,0.0,-0.185,0.0,0.0,0.0,0.0,0.0,-1.61,-0.2684848274813443,0.0,0.0,0.0,0.0,0.0,0.0,0.136,0.0,0.0,0.0
383,0.0,0.0,0.0,-0.263556640625,0.0,0.0,0.0,0.0,0.0,0.0,-0.195,0.0,0.0,0.0,0.0,0.0,-1.61,-0.27018230265709,0.0,0.0,0.0,0.0,0.0,0.0,0.112,0.0,0.0,0.0
384,0.0,0.0,0.0,-0.263556640625,0.0,0.0,0.0,0.0,0.0,0.0,-0.195,0.0,0.0,0.0,0.0,0.0,-1.61,-0.27013092982801656,0.0,0.0,0.0,0.0,0.0,0.0,0.112,0.0,0.0,0.0
385,0.0,0.0,0.0,-0.2652890625,0.0,0.0,0.0,0.0,0.0,0.0,-0.167,0.0,0.0,0.0,0.0,0.0,-1.61,-0.2717994481394655,0.0,0.0,0.0,0.0,0.0,0.0,0.02,0.0,0.0,0.0
386,0.0,0.0,0.0,-0.2652890625,0.0,0.0,0.0,0.0,0.0,0.0,-0.167,0.0,0.0,0.0,0.0,0.0,-1.61,-0.271746416558049,0.0,0.0,0.0,0.0,0.0,0.0,0.02,0.0,0.0,0.0
387,0.0,0.0,0.0,-0.2670302734375,0.0,0.0,0.0,0.0,0.0,0.0,-0.18,0.0,0.0,0.0,0.0,0.0,-1.61,-0.2734406033739439,0.0,0.0,0.0,0.0,0.0,0.0,1.028,0.0,0.0,0.0
388,0.0,0.0,0.0,-0.2670302734375,0.0,0.0,0.0,0.0,0.0,0.0,-0.18,0.0,0.0,0.0,0.0,0.0,-1.61,-0.273400325741154,0.0,0.0,0.0,0.0,0.0,0.0,1.028,0.0,0.0,0.0
389,0.0,0.0,0.0,-0.2670302734375,0.0,0.0,0.0,0.0,0.0,0.0,-0.18,0.0,0.0,0.0,0.0,0.0,-1.61,-0.27335344788909993,0.0,0.0,0.0,0.0,0.0,0.0,1.028,0.0,0.0,0.0
390,0.0,0.0,0.0,-0.2684736328125,0.0,0.0,0.0,0.0,0.0,0.0,-0.166,0.0,0.0,0.0,0.0,0.0,-1.61,-0.2747493709753486,0.0,0.0,0.0,0.0,0.0,0.0,0.98,0.0,0.0,0.0
391,0.0,0.0,0.0,-0.2684736328125,0.0,0.0,0.0,0.0,0.0,0.0,-0.166,0.0,0.0,0.0,0.0,0.0,-1.61,-0.27470571206001876,0.0,0.0,0.0,0.0,0.0,0.0,0.98,0.0,0.0,0.0
392,0.0,0.0,0.0,-0.2684736328125,0.0,0.0,0.0,0.0,0.0,0.0,-0.166,0.0,0.0,0.0,0.0,0.0,-1.61,-0.27466482701123185,0.0,0.0,0.0,0.0,0.0,0.0,0.98,0.0,0.0,0.0
393,0.0,0.0,0.0,-0.2700712890625,0.0,0.0,0.0,0.0,0.0,0.0,-0.146,0.0,0.0,0.0,0.0,0.0,-1.61,-0.2762133501383028,0.0,0.0,0.0,0.0,0.0,0.0,0.16,0.0,0.0,0.0
394,0.0,0.0,0.0,-0.2700712890625,0.0,0.0,0.0,0.0,0.0,0.0,-0.146,0.0,0.0,0.0,0.0,0.0,-1.61,-0.2761490021024351,0.0,0.0,0.0,0.0,0.0,0.0,0.16,0.0,0.0,0.0
395,0.0,0.0,0.0,-0.2716591796875,0.0,0.0,0.0,0.0,0.0,0.0,-0.165,0.0,0.0,0.0,0.0,0.0,-1.61,-0.2776833673014881,0.0,0.0,0.0,0.0,0.0,0.0,0.18,0.0,0.0,0.0
396,0.0,0.0,0.0,-0.2716591796875,0.0,0.0,0.0,0.0,0.0,0.0,-0.165,0.0,0.0,0.0,0.0,0.0,-1.61,-0.27763426213791625,0.0,0.0,0.0,0.0,0.0,0.0,0.18,0.0,0.0,0.0
397,0.0,0.0,0.0,-0.2731123046875,0.0,0.0,0.0,0.0,0.0,0.0,-0.158,0.0,0.0,0.0,0.0,0.0,-1.61,-0.27903305187130767,0.0,0.0,0.0,0.0,0.0,0.0,0.34,0.0,0.0,0.0
398,0.0,0.0,0.0,-0.2731123046875,0.0,0.0,0.0,0.0,0.0,0.0,-0.158,0.0,0.0,0.0,0.0,0.0,-1.61,-0.27896625761515015,0.0,0.0,0.0,0.0,0.0,0.0,0.34,0.0,0.0,0.0
399,0.0,0.0,0.0,-0.2742666015625,0.0,0.0,0.0,0.0,0.0,0.0,-0.133,0.0,0.0,0.0,0.0,0.0,-1.61,-0.28005061852591395,0.0,0.0,0.0,0.0,0.0,0.0,0.616,0.0,0.0,0.0
400,0.0,0.0,0.0,-0.2742666015625,0.0,0.0,0.0,0.0,0.0,0.0,-0.133,0.0,0.0,0.0,0.0,0.0,-1.61,-0.27999726865301994,0.0,0.0,0.0,0.0,0.0,0.0,0.616,0.0,0.0,0.0
401,0.0,0.0,0.0,-0.2757109375,0.0,0.0,0.0,0.0,0.0,0.0,-0.129,0.0,0.0,0.0,0.0,0.0,-1.61,-0.2813905512249966,0.0,0.0,0.0,0.0,0.0,0.0,0.592,0.0,0.0,0.0
402,0.0,0.0,0.0,-0.2757109375,0.0,0.0,0.0,0.0,0.0,0.0,-0.129,0.0,0.0,0.0,0.0,0.0,-1.61,-0.2813437825587294,0.0,0.0,0.0,0.0,0.0,0.0,0.592,0.0,0.0,0.0
403,0.0,0.0,0.0,-0.2757109375,0.0,0.0,0.0,0.0,0.0,0.0,-0.129,0.0,0.0,0.0,0.0,0.0,-1.61,-0.28129836028339356,0.0,0.0,0.0,0.0,0.0,0.0,0.592,0.0,0.0,0.0
404,0.0,0.0,0.0,-0.2771630859375,0.0,0.0,0.0,0.0,0.0,0.0,-0.146,0.0,0.0,0.0,0.0,0.0,-1.61,-0.282699225144004,0.0,0.0,0.0,0.0,0.0,0.0,0.16,0.0,0.0,0.0
405,0.0,0.0,0.0,-0.2771630859375,0.0,0.0,0.0,0.0,0.0,0.0,-0.146,0.0,0.0,0.0,0.0,0.0,-1.61,-0.2826277692817588,0.0,0.0,0.0,0.0,0.0,0.0,0.16,0.0,0.0,0.0
406,0.0,0.0,0.0,-0.278318359375,0.0,0.0,0.0,0.0,0.0,0.0,-0.131,0.0,0.0,0.0,0.0,0.0,-1.61,-0.2837160256571122,0.0,0.0,0.0,0.0,0.0,0.0,0.18,0.0,0.0,0.0
407,0.0,0.0,0.0,-0.278318359375,0.0,0.0,0.0,0.0,0.0,0.0,-0.131,0.0,0.0,0.0,0.0,0.0,-1.61,-0.28366532089171254,0.0,0.0,0.0,0.0,0.0,0.0,0.18,0.0,0.0,0.0
408,0.0,0.0,0.0,-0.2793291015625,0.0,0.0,0.0,0.0,0.0,0.0,-0.111,0.0,0.0,0.0,0.0,0.0,-1.61,-0.2846192696005825,0.0,0.0,0.0,0.0,0.0,0.0,0.548,0.0,0.0,0.0
409,0.0,0.0,0.0,-0.2793291015625,0.0,0.0,0.0,0.0,0.0,0.0,-0.111,0.0,0.0,0.0,0.0,0.0,-1.61,-0.2845702751224827,0.0,0.0,0.0,0.0,0.0,0.0,0.548,0.0,0.0,0.0
410,0.0,0.0,0.0,-0.2803486328125,0.0,0.0,0.0,0.0,0.0,0.0,-0.102,0.0,0.0,0.0,0.0,0.0,-1.61,-0.28554257548410134,0.0,0.0,0.0,0.0,0.0,0.0,0.708,0.0,0.0,0.0
411,0.0,0.0,0.0,-0.2803486328125,0.0,0.0,0.0,0.0,0.0,0.0,-0.102,0.0,0.0,0.0,0.0,0.0,-1.61,-0.2854985149920223,0.0,0.0,0.0,0.0,0.0,0.0,0.708,0.0,0.0,0.0
412,0.0,0.0,0.0,-0.2803486328125,0.0,0.0,0.0,0.0,0.0,0.0,-0.102,0.0,0.0,0.0,0.0,0.0,-1.61,-0.2854391841292574,0.0,0.0,0.0,0.0,0.0,0.0,0.708,0.0,0.0,0.0
413,0.0,0.0,0.0,-0.281359375,0.0,0.0,0.0,0.0,0.0,0.0,-0.101,0.0,0.0,0.0,0.0,0.0,-1.61,-0.28639940872909175,0.0,0.0,0.0,0.0,0.0,0.0,0.204,0.0,0.0,0.0
414,0.0,0.0,0.0,-0.281359375,0.0,0.0,0.0,0.0,0.0,0.0,-0.101,0.0,0.0,0.0,0.0,0.0,-1.61,-0.28635682692064696,0.0,0.0,0.0,0.0,0.0,0.0,0.204,0.0,0.0,0.0
415,0.0,0.0,0.0,-0.281359375,0.0,0.0,0.0,0.0,0.0,0.0,-0.101,0.0,0.0,0.0,0.0,0.0,-1.61,-0.2863069961672166,0.0,0.0,0.0,0.0,0.0,0.0,0.204,0.0,0.0,0.0
416,0.0,0.0,0.0,-0.2822255859375,0.0,0.0,0.0,0.0,0.0,0.0,-0.101,0.0,0.0,0.0,0.0,0.0,-1.61,-0.2871084548973754,0.0,0.0,0.0,0.0,0.0,0.0,-0.296,0.0,0.0,0.0
417,0.0,0.0,0.0,-0.2822255859375,0.0,0.0,0.0,0.0,0.0,0.0,-0.101,0.0,0.0,0.0,0.0,0.0,-1.61,-0.2870556250235337,0.0,0.0,0.0,0.0,0.0,0.0,-0.296,0.0,0.0,0.0
418,0.0,0.0,0.0,-0.2832451171875,0.0,0.0,0.0,0.0,0.0,0.0,-0.099,0.0,0.0,0.0,0.0,0.0,-1.61,-0.2880240475418008,0.0,0.0,0.0,0.0,0.0,0.0,-0.296,0.0,0.0,0.0
419,0.0,0.0,0.0,-0.2832451171875,0.0,0.0,0.0,0.0,0.0,0.0,-0.099,0.0,0.0,0.0,0.0,0.0,-1.61,-0.28797557784684547,0.0,0.0,0.0,0.0,0.0,0.0,-0.296,0.0,0.0,0.0
420,0.0,0.0,0.0,-0.284255859375,0.0,0.0,0.0,0.0,0.0,0.0,-0.105,0.0,0.0,0.0,0.0,0.0,-1.61,-0.2889204309941747,0.0,0.0,0.0,0.0,0.0,0.0,0.18,0.0,0.0,0.0
421,0.0,0.0,0.0,-0.284255859375,0.0,0.0,0.0,0.0,0.0,0.0,-0.105,0.0,0.0,0.0,0.0,0.0,-1.61,-0.2888726216721717,0.0,0.0,0.0,0.0,0.0,0.0,0.18,0.0,0.0,0.0
422,0.0,0.0,0.0,-0.284255859375,0.0,0.0,0.0,0.0,0.0,0.0,-0.105,0.0,0.0,0.0,0.0,0.0,-1.61,-0.2888204781734405,0.0,0.0,0.0,0.0,0.0,0.0,0.18,0.0,0.0,0.0
423,0.0,0.0,0.0,-0.2849775390625,0.0,0.0,0.0,0.0,0.0,0.0,-0.088,0.0,0.0,0.0,0.0,0.0,-1.61,-0.28948517138072205,0.0,0.0,0.0,0.0,0.0,0.0,0.64,0.0,0.0,0.0
424,0.0,0.0,0.0,-0.2849775390625,0.0,0.0,0.0,0.0,0.0,0.0,-0.088,0.0,0.0,0.0,0.0,0.0,-1.61,-0.2894372120632894,0.0,0.0,0.0,0.0,0.0,0.0,0.64,0.0,0.0,0.0
425,0.0,0.0,0.0,-0.2855556640625,0.0,0.0,0.0,0.0,0.0,0.0,-0.064,0.0,0.0,0.0,0.0,0.0,-1.61,-0.2899518021544509,0.0,0.0,0.0,0.0,0.0,0.0,0.432,0.0,0.0,0.0
426,0.0,0.0,0.0,-0.2855556640625,0.0,0.0,0.0,0.0,0.0,0.0,-0.064,0.0,0.0,0.0,0.0,0.0,-1.61,-0.2899005484403005,0.0,0.0,0.0,0.0,0.0,0.0,0.432,0.0,0.0,0.0
427,0.0,0.0,0.0,-0.2855556640625,0.0,0.0,0.0,0.0,0.0,0.0,-0.064,0.0,0.0,0.0,0.0,0.0,-1.61,-0.28985501818134185,0.0,0.0,0.0,0.0,0.0,0.0,0.432,0.0,0.0,0.0
428,0.0,0.0,0.0,-0.2862861328125,0.0,0.0,0.0,0.0,0.0,0.0,-0.068,0.0,0.0,0.0,0.0,0.0,-1.61,-0.2905234953310609,0.0,0.0,0.0,0.0,0.0,0.0,-0.204,0.0,0.0,0.0
429,0.0,0.0,0.0,-0.2862861328125,0.0,0.0,0.0,0.0,0.0,0.0,-0.068,0.0,0.0,0.0,0.0,0.0,-1.61,-0.2904429908717119,0.0,0.0,0.0,0.0,0.0,0.0,-0.204,0.0,0.0,0.0
430,0.0,0.0,0.0,-0.2870078125,0.0,0.0,0.0,0.0,0.0,0.0,-0.071,0.0,0.0,0.0,0.0,0.0,-1.61,-0.2911104503148573,0.0,0.0,0.0,0.0,0.0,0.0,-0.364,0.0,0.0,0.0
431,0.0,0.0,0.0,-0.2870078125,0.0,0.0,0.0,0.0,0.0,0.0,-0.071,0.0,0.0,0.0,0.0,0.0,-1.61,-0.29105314788188724,0.0,0.0,0.0,0.0,0.0,0.0,-0.364,0.0,0.0,0.0
432,0.0,0.0,0.0,-0.2874501953125,0.0,0.0,0.0,0.0,0.0,0.0,-0.059,0.0,0.0,0.0,0.0,0.0,-1.61,-0.29143128569361104,0.0,0.0,0.0,0.0,0.0,0.0,-0.248,0.0,0.0,0.0
433,0.0,0.0,0.0,-0.2874501953125,0.0,0.0,0.0,0.0,0.0,0.0,-0.059,0.0,0.0,0.0,0.0,0.0,-1.61,-0.2913674667375693,0.0,0.0,0.0,0.0,0.0,0.0,-0.248,0.0,0.0,0.0
434,0.0,0.0,0.0,-0.28802734375,0.0,0.0,0.0,0.0,0.0,0.0,-0.057,0.0,0.0,0.0,0.0,0.0,-1.61,-0.2918776599925732,0.0,0.0,0.0,0.0,0.0,0.0,0.02,0.0,0.0,0.0
435,0.0,0.0,0.0,-0.28802734375,0.0,0.0,0.0,0.0,0.0,0.0,-0.057,0.0,0.0,0.0,0.0,0.0,-1.61,-0.2918224690477487,0.0,0.0,0.0,0.0,0.0,0.0,0.02,0.0,0.0,0.0
436,0.0,0.0,0.0,-0.28802734375,0.0,0.0,0.0,0.0,0.0,0.0,-0.057,0.0,0.0,0.0,0.0,0.0,-1.61,-0.2917673185056796,0.0,0.0,0.0,0.0,0.0,0.0,0.02,0.0,0.0,0.0
437,0.0,0.0,0.0,-0.2884609375,0.0,0.0,0.0,0.0,0.0,0.0,-0.049,0.0,0.0,0.0,0.0,0.0,-1.61,-0.2921466231899498,0.0,0.0,0.0,0.0,0.0,0.0,0.044,0.0,0.0,0.0
438,0.0,0.0,0.0,-0.2884609375,0.0,0.0,0.0,0.0,0.0,0.0,-0.049,0.0,0.0,0.0,0.0,0.0,-1.61,-0.292101692895289,0.0,0.0,0.0,0.0,0.0,0.0,0.044,0.0,0.0,0.0
439,0.0,0.0,0.0,-0.28875,0.0,0.0,0.0,0.0,0.0,0.0,-0.041,0.0,0.0,0.0,0.0,0.0,-1.61,-0.2923364045971797,0.0,0.0,0.0,0.0,0.0,0.0,-0.02,0.0,0.0,0.0
440,0.0,0.0,0.0,-0.28875,0.0,0.0,0.0,0.0,0.0,0.0,-0.041,0.0,0.0,0.0,0.0,0.0,-1.61,-0.29228701367178145,0.0,0.0,0.0,0.0,0.0,0.0,-0.02,0.0,0.0,0.0
441,0.0,0.0,0.0,-0.2891826171875,0.0,0.0,0.0,0.0,0.0,0.0,-0.031,0.0,0.0,0.0,0.0,0.0,-1.61,-0.29262836410878523,0.0,0.0,0.0,0.0,0.0,0.0,-0.112,0.0,0.0,0.0
442,0.0,0.0,0.0,-0.2891826171875,0.0,0.0,0.0,0.0,0.0,0.0,-0.031,0.0,0.0,0.0,0.0,0.0,-1.61,-0.29256714903127484,0.0,0.0,0.0,0.0,0.0,0.0,-0.112,0.0,0.0,0.0
443,0.0,0.0,0.0,-0.2893271484375,0.0,0.0,0.0,0.0,0.0,0.0,-0.031,0.0,0.0,0.0,0.0,0.0,-1.61,-0.2926194778406294,0.0,0.0,0.0,0.0,0.0,0.0,0.18,0.0,0.0,0.0
444,0.0,0.0,0.0,-0.2893271484375,0.0,0.0,0.0,0.0,0.0,0.0,-0.031,0.0,0.0,0.0,0.0,0.0,-1.61,-0.2925528007945979,0.0,0.0,0.0,0.0,0.0,0.0,0.18,0.0,0.0,0.0
445,0.0,0.0,0.0,-0.2893271484375,0.0,0.0,0.0,0.0,0.0,0.0,-0.031,0.0,0.0,0.0,0.0,0.0,-1.61,-0.29250010249826275,0.0,0.0,0.0,0.0,0.0,0.0,0.18,0.0,0.0,0.0
446,0.0,0.0,0.0,-0.28948046875,0.0,0.0,0.0,0.0,0.0,0.0,-0.022,0.0,0.0,0.0,0.0,0.0,-1.61,-0.2925385141861955,0.0,0.0,0.0,0.0,0.0,0.0,-0.088,0.0,0.0,0.0
447,0.0,0.0,0.0,-0.289625,0.0,0.0,0.0,0.0,0.0,0.0,-0.013,0.0,0.0,0.0,0.0,0.0,-1.61,-0.2926081586857863,0.0,0.0,0.0,0.0,0.0,0.0,-0.16,0.0,0.0,0.0
448,0.0,0.0,0.0,-0.289625,0.0,0.0,0.0,0.0,0.0,0.0,-0.013,0.0,0.0,0.0,0.0,0.0,-1.61,-0.29255149810315684,0.0,0.0,0.0,0.0,0.0,0.0,-0.16,0.0,0.0,0.0
449,0.0,0.0,0.0,-0.289625,0.0,0.0,0.0,0.0,0.0,0.0,-0.008,0.0,0.0,0.0,0.0,0.0,-1.61,-0.2924872173779914,0.0,0.0,0.0,0.0,0.0,0.0,-0.32,0.0,0.0,0.0
450,0.0,0.0,0.0,-0.289625,0.0,0.0,0.0,0.0,0.0,0.0,-0.008,0.0,0.0,0.0,0.0,0.0,-1.61,-0.29241693241073224,0.0,0.0,0.0,0.0,0.0,0.0,-0.32,0.0,0.0,0.0
451,0.0,0.0,0.0,-0.289625,0.0,0.0,0.0,0.0,0.0,0.0,-0.008,0.0,0.0,0.0,0.0,0.0,-1.61,-0.2923653402461684,0.0,0.0,0.0,0.0,0.0,0.0,-0.32,0.0,0.0,0.0
452,0.0,0.0,0.0,-0.28976953125,0.0,0.0,0.0,0.0,0.0,0.0,-0.001,0.0,0.0,0.0,0.0,0.0,-1.61,-0.29245043192907544,0.0,0.0,0.0,0.0,0.0,0.0,-0.068,0.0,0.0,0.0
453,0.0,0.0,0.0,-0.28976953125,0.0,0.0,0.0,0.0,0.0,0.0,-0.001,0.0,0.0,0.0,0.0,0.0,-1.61,-0.29238545750306233,0.0,0.0,0.0,0.0,0.0,0.0,-0.068,0.0,0.0,0.0
454,0.0,0.0,0.0,-0.28976953125,0.0,0.0,0.0,0.0,0.0,0.0,-0.011,0.0,0.0,0.0,0.0,0.0,-1.61,-0.2922916485132207,0.0,0.0,0.0,0.0,0.0,0.0,0.088,0.0,0.0,0.0
455,0.0,0.0,0.0,-0.28976953125,0.0,0.0,0.0,0.0,0.0,0.0,-0.002,0.0,0.0,0.0,0.0,0.0,-1.61,-0.29221145560826634,0.0,0.0,0.0,0.0,0.0,0.0,0.18,0.0,0.0,0.0
456,0.0,0.0,0.0,-0.28976953125,0.0,0.0,0.0,0.0,0.0,0.0,-0.002,0.0,0.0,0.0,0.0,0.0,-1.61,-0.29215873381886087,0.0,0.0,0.0,0.0,0.0,0.0,0.18,0.0,0.0,0.0
457,0.0,0.0,0.0,-0.28976953125,0.0,0.0,0.0,0.0,0.0,0.0,-0.002,0.0,0.0,0.0,0.0,0.0,-1.61,-0.292099643634465,0.0,0.0,0.0,0.0,0.0,0.0,0.18,0.0,0.0,0.0
458,0.0,0.0,0.0,-0.289625,0.0,0.0,0.0,0.0,0.0,0.0,-0.001,0.0,0.0,0.0,0.0,0.0,-1.61,-0.29189314271423095,0.0,0.0,0.0,0.0,0.0,0.0,-0.02,0.0,0.0,0.0
459,0.0,0.0,0.0,-0.289625,0.0,0.0,0.0,0.0,0.0,0.0,-0.001,0.0,0.0,0.0,0.0,0.0,-1.61,-0.29183880318549926,0.0,0.0,0.0,0.0,0.0,0.0,-0.02,0.0,0.0,0.0
460,0.0,0.0,0.0,-0.289625,0.0,0.0,0.0,0.0,0.0,0.0,-0.001,0.0,0.0,0.0,0.0,0.0,-1.61,-0.2917835218480607,0.0,0.0,0.0,0.0,0.0,0.0,-0.02,0.0,0.0,0.0
461,0.0,0.0,0.0,-0.289625,0.0,0.0,0.0,0.0,0.0,0.0,0.01,0.0,0.0,0.0,0.0,0.0,-1.61,-0.2917233565946661,0.0,0.0,0.0,0.0,0.0,0.0,-0.248,0.0,0.0,0.0
462,0.0,0.0,0.0,-0.289625,0.0,0.0,0.0,0.0,0.0,0.0,0.01,0.0,0.0,0.0,0.0,0.0,-1.61,-0.2916461628778842,0.0,0.0,0.0,0.0,0.0,0.0,-0.248,0.0,0.0,0.0
463,0.0,0.0,0.0,-0.289625,0.0,0.0,0.0,0.0,0.0,0.0,0.001,0.0,0.0,0.0,0.0,0.0,-1.61,-0.29157618520964845,0.0,0.0,0.0,0.0,0.0,0.0,-0.228,0.0,0.0,0.0
464,0.0,0.0,0.0,-0.289625,0.0,0.0,0.0,0.0,0.0,0.0,0.001,0.0,0.0,0.0,0.0,0.0,-1.61,-0.29152176760158777,0.0,0.0,0.0,0.0,0.0,0.0,-0.228,0.0,0.0,0.0
465,0.0,0.0,0.0,-0.289625,0.0,0.0,0.0,0.0,0.0,0.0,-0.001,0.0,0.0,0.0,0.0,0.0,-1.61,-0.29144435792864326,0.0,0.0,0.0,0.0,0.0,0.0,-0.34,0.0,0.0,0.0
466,0.0,0.0,0.0,-0.289625,0.0,0.0,0.0,0.0,0.0,0.0,-0.001,0.0,0.0,0.0,0.0,0.0,-1.61,-0.2913582560456264,0.0,0.0,0.0,0.0,0.0,0.0,-0.34,0.0,0.0,0.0
467,0.0,0.0,0.0,-0.289625,0.0,0.0,0.0,0.0,0.0,0.0,-0.001,0.0,0.0,0.0,0.0,0.0,-1.61,-0.2912861471649698,0.0,0.0,0.0,0.0,0.0,0.0,-0.34,0.0,0.0,0.0
468,0.0,0.0,0.0,-0.289625,0.0,0.0,0.0,0.0,0.0,0.0,-0.001,0.0,0.0,0.0,0.0,0.0,-1.61,-0.29122964544976954,0.0,0.0,0.0,0.0,0.0,0.0,-0.34,0.0,0.0,0.0
469,0.0,0.0,0.0,-0.289625,0.0,0.0,0.0,0.0,0.0,0.0,-0.001,0.0,0.0,0.0,0.0,0.0,-1.61,-0.29116139879223596,0.0,0.0,0.0,0.0,0.0,0.0,-0.248,0.0,0.0,0.0
470,0.0,0.0,0.0,-0.289625,0.0,0.0,0.0,0.0,0.0,0.0,-0.001,0.0,0.0,0.0,0.0,0.0,-1.61,-0.29110833082810916,0.0,0.0,0.0,0.0,0.0,0.0,-0.248,0.0,0.0,0.0
471,0.0,0.0,0.0,-0.289625,0.0,0.0,0.0,0.0,0.0,0.0,-0.001,0.0,0.0,0.0,0.0,0.0,-1.61,-0.2910519813880908,0.0,0.0,0.0,0.0,0.0,0.0,-0.248,0.0,0.0,0.0
472,0.0,0.0,0.0,-0.289625,0.0,0.0,0.0,0.0,0.0,0.0,-0.001,0.0,0.0,0.0,0.0,0.0,-1.61,-0.2909874869863683,0.0,0.0,0.0,0.0,0.0,0.0,-0.32,0.0,0.0,0.0
473,0.0,0.0,0.0,-0.289625,0.0,0.0,0.0,0.0,0.0,0.0,-0.001,0.0,0.0,0.0,0.0,0.0,-1.61,-0.29091790990513916,0.0,0.0,0.0,0.0,0.0,0.0,-0.32,0.0,0.0,0.0
474,0.0,0.0,0.0,-0.28948046875,0.0,0.0,0.0,0.0,0.0,0.0,0.006,0.0,0.0,0.0,0.0,0.0,-1.61,-0.2907118656151962,0.0,0.0,0.0,0.0,0.0,0.0,-0.34,0.0,0.0,0.0
475,0.0,0.0,0.0,-0.28948046875,0.0,0.0,0.0,0.0,0.0,0.0,0.006,0.0,0.0,0.0,0.0,0.0,-1.61,-0.29066208545624833,0.0,0.0,0.0,0.0,0.0,0.0,-0.34,0.0,0.0,0.0
476,0.0,0.0,0.0,-0.28948046875,0.0,0.0,0.0,0.0,0.0,0.0,0.009,0.0,0.0,0.0,0.0,0.0,-1.61,-0.29058926498005994,0.0,0.0,0.0,0.0,0.0,0.0,-0.48,0.0,0.0,0.0
477,0.0,0.0,0.0,-0.28948046875,0.0,0.0,0.0,0.0,0.0,0.0,0.009,0.0,0.0,0.0,0.0,0.0,-1.61,-0.2905316718302012,0.0,0.0,0.0,0.0,0.0,0.0,-0.48,0.0,0.0,0.0
478,0.0,0.0,0.0,-0.28948046875,0.0,0.0,0.0,0.0,0.0,0.0,0.009,0.0,0.0,0.0,0.0,0.0,-1.61,-0.2904745985375482,0.0,0.0,0.0,0.0,0.0,0.0,-0.48,0.0,0.0,0.0
479,0.0,0.0,0.0,-0.28948046875,0.0,0.0,0.0,0.0,0.0,0.0,-0.001,0.0,0.0,0.0,0.0,0.0,-1.61,-0.2903718723216343,0.0,0.0,0.0,0.0,0.0,0.0,-0.548,0.0,0.0,0.0
480,0.0,0.0,0.0,-0.28948046875,0.0,0.0,0.0,0.0,0.0,0.0,-0.001,0.0,0.0,0.0,0.0,0.0,-1.61,-0.29026035195879696,0.0,0.0,0.0,0.0,0.0,0.0,-0.728,0.0,0.0,0.0
481,0.0,0.0,0.0,-0.28948046875,0.0,0.0,0.0,0.0,0.0,0.0,-0.001,0.0,0.0,0.0,0.0,0.0,-1.61,-0.29020304725763385,0.0,0.0,0.0,0.0,0.0,0.0,-0.728,0.0,0.0,0.0
482,0.0,0.0,0.0,-0.28948046875,0.0,0.0,0.0,0.0,0.0,0.0,0.011,0.0,0.0,0.0,0.0,0.0,-1.61,-0.29013861393467794,0.0,0.0,0.0,0.0,0.0,0.0,-0.708,0.0,0.0,0.0
483,0.0,0.0,0.0,-0.28948046875,0.0,0.0,0.0,0.0,0.0,0.0,0.011,0.0,0.0,0.0,0.0,0.0,-1.61,-0.29007001551402417,0.0,0.0,0.0,0.0,0.0,0.0,-0.708,0.0,0.0,0.0
484,0.0,0.0,0.0,-0.28948046875,0.0,0.0,0.0,0.0,0.0,0.0,-0.008,0.0,0.0,0.0,0.0,0.0,-1.61,-0.28999218190216774,0.0,0.0,0.0,0.0,0.0,0.0,-0.64,0.0,0.0,0.0
485,0.0,0.0,0.0,-0.28948046875,0.0,0.0,0.0,0.0,0.0,0.0,-0.008,0.0,0.0,0.0,0.0,0.0,-1.61,-0.2899213271342551,0.0,0.0,0.0,0.0,0.0,0.0,-0.64,0.0,0.0,0.0
486,0.0,0.0,0.0,-0.28948046875,0.0,0.0,0.0,0.0,0.0,0.0,-0.008,0.0,0.0,0.0,0.0,0.0,-1.61,-0.28986914063910924,0.0,0.0,0.0,0.0,0.0,0.0,-0.64,0.0,0.0,0.0
487,0.0,0.0,0.0,-0.28948046875,0.0,0.0,0.0,0.0,0.0,0.0,-0.002,0.0,0.0,0.0,0.0,0.0,-1.61,-0.2898029571741826,0.0,0.0,0.0,0.0,0.0,0.0,-0.388,0.0,0.0,0.0
488,0.0,0.0,0.0,-0.28948046875,0.0,0.0,0.0,0.0,0.0,0.0,-0.002,0.0,0.0,0.0,0.0,0.0,-1.61,-0.28974835344181754,0.0,0.0,0.0,0.0,0.0,0.0,-0.388,0.0,0.0,0.0
489,0.0,0.0,0.0,-0.28948046875,0.0,0.0,0.0,0.0,0.0,0.0,-0.001,0.0,0.0,0.0,0.0,0.0,-1.61,-0.2896928836036859,0.0,0.0,0.0,0.0,0.0,0.0,-0.408,0.0,0.0,0.0
490,0.0,0.0,0.0,-0.28948046875,0.0,0.0,0.0,0.0,0.0,0.0,-0.001,0.0,0.0,0.0,0.0,0.0,-1.61,-0.28964390090857506,0.0,0.0,0.0,0.0,0.0,0.0,-0.408,0.0,0.0,0.0
491,0.0,0.0,0.0,-0.28948046875,0.0,0.0,0.0,0.0,0.0,0.0,-0.001,0.0,0.0,0.0,0.0,0.0,-1.61,-0.2895794978477223,0.0,0.0,0.0,0.0,0.0,0.0,-0.408,0.0,0.0,0.0
492,0.0,0.0,0.0,-0.28948046875,0.0,0.0,0.0,0.0,0.0,0.0,-0.001,0.0,0.0,0.0,0.0,0.0,-1.61,-0.2895172507352019,0.0,0.0,0.0,0.0,0.0,0.0,-0.432,0.0,0.0,0.0
493,0.0,0.0,0.0,-0.28948046875,0.0,0.0,0.0,0.0,0.0,0.0,-0.001,0.0,0.0,0.0,0.0,0.0,-1.61,-0.2894614359006903,0.0,0.0,0.0,0.0,0.0,0.0,-0.432,0.0,0.0,0.0
494,0.0,0.0,0.0,-0.28948046875,0.0,0.0,0.0,0.0,0.0,0.0,-0.001,0.0,0.0,0.0,0.0,0.0,-1.61,-0.28940929439595037,0.0,0.0,0.0,0.0,0.0,0.0,-0.432,0.0,0.0,0.0
495,0.0,0.0,0.0,-0.28948046875,0.0,0.0,0.0,0.0,0.0,0.0,-0.001,0.0,0.0,0.0,0.0,0.0,-1.61,-0.28935741229857875,0.0,0.0,0.0,0.0,0.0,0.0,-0.5,0.0,0.0,0.0
496,0.0,0.0,0.0,-0.28948046875,0.0,0.0,0.0,0.0,0.0,0.0,-0.001,0.0,0.0,0.0,0.0,0.0,-1.61,-0.28928987562160186,0.0,0.0,0.0,0.0,0.0,0.0,-0.5,0.0,0.0,0.0
497,0.0,0.0,0.0,-0.28948046875,0.0,0.0,0.0,0.0,0.0,0.0,-0.001,0.0,0.0,0.0,0.0,0.0,-1.61,-0.28923423854844815,0.0,0.0,0.0,0.0,0.0,0.0,-0.66,0.0,0.0,0.0
498,0.0,0.0,0.0,-0.28948046875,0.0,0.0,0.0,0.0,0.0,0.0,-0.001,0.0,0.0,0.0,0.0,0.0,-1.61,-0.2891775760299806,0.0,0.0,0.0,0.0,0.0,0.0,-0.66,0.0,0.0,0.0
499,0.0,0.0,0.0,-0.28948046875,0.0,0.0,0.0,0.0,0.0,0.0,-0.001,0.0,0.0,0.0,0.0,0.0,-1.61,-0.28911817845366317,0.0,0.0,0.0,0.0,0.0,0.0,-0.66,0.0,0.0,0.0
500,0.0,0.0,0.0,-0.28948046875,0.0,0.0,0.0,0.0,0.0,0.0,-0.001,0.0,0.0,0.0,0.0,0.0,-1.61,-0.28903977844009715,0.0,0.0,0.0,0.0,0.0,0.0,-0.432,0.0,0.0,0.0
501,0.0,0.0,0.0,-0.28948046875,0.0,0.0,0.0,0.0,0.0,0.0,-0.001,0.0,0.0,0.0,0.0,0.0,-1.61,-0.288980863813781,0.0,0.0,0.0,0.0,0.0,0.0,-0.432,0.0,0.0,0.0
502,0.0,0.0,0.0,-0.289625,0.0,0.0,0.0,0.0,0.0,0.0,-0.01,0.0,0.0,0.0,0.0,0.0,-1.61,-0.2890693436820601,0.0,0.0,0.0,0.0,0.0,0.0,-0.32,0.0,0.0,0.0
503,0.0,0.0,0.0,-0.289625,0.0,0.0,0.0,0.0,0.0,0.0,-0.01,0.0,0.0,0.0,0.0,0.0,-1.61,-0.28901974588314183,0.0,0.0,0.0,0.0,0.0,0.0,-0.32,0.0,0.0,0.0
504,0.0,0.0,0.0,-0.289625,0.0,0.0,0.0,0.0,0.0,0.0,-0.01,0.0,0.0,0.0,0.0,0.0,-1.61,-0.28895395531625356,0.0,0.0,0.0,0.0,0.0,0.0,-0.32,0.0,0.0,0.0
505,0.0,0.0,0.0,-0.289625,0.0,0.0,0.0,0.0,0.0,0.0,-0.007,0.0,0.0,0.0,0.0,0.0,-1.61,-0.2888950775389853,0.0,0.0,0.0,0.0,0.0,0.0,-0.228,0.0,0.0,0.0
506,0.0,0.0,0.0,-0.289625,0.0,0.0,0.0,0.0,0.0,0.0,-0.007,0.0,0.0,0.0,0.0,0.0,-1.61,-0.28883720917041616,0.0,0.0,0.0,0.0,0.0,0.0,-0.228,0.0,0.0,0.0
507,0.0,0.0,0.0,-0.289625,0.0,0.0,0.0,0.0,0.0,0.0,-0.001,0.0,0.0,0.0,0.0,0.0,-1.61,-0.2887826243883661,0.0,0.0,0.0,0.0,0.0,0.0,-0.204,0.0,0.0,0.0
508,0.0,0.0,0.0,-0.289625,0.0,0.0,0.0,0.0,0.0,0.0,-0.001,0.0,0.0,0.0,0.0,0.0,-1.61,-0.28871456268678014,0.0,0.0,0.0,0.0,0.0,0.0,-0.204,0.0,0.0,0.0
509,0.0,0.0,0.0,-0.289625,0.0,0.0,0.0,0.0,0.0,0.0,-0.001,0.0,0.0,0.0,0.0,0.0,-1.61,-0.28864508070104067,0.0,0.0,0.0,0.0,0.0,0.0,-0.32,0.0,0.0,0.0
510,0.0,0.0,0.0,-0.289625,0.0,0.0,0.0,0.0,0.0,0.0,-0.001,0.0,0.0,0.0,0.0,0.0,-1.61,-0.2885957109621117,0.0,0.0,0.0,0.0,0.0,0.0,-0.32,0.0,0.0,0.0
511,0.0,0.0,0.0,-0.289625,0.0,0.0,0.0,0.0,0.0,0.0,-0.001,0.0,0.0,0.0,0.0,0.0,-1.61,-0.2885474865276581,0.0,0.0,0.0,0.0,0.0,0.0,-0.32,0.0,0.0,0.0
512,0.0,0.0,0.0,-0.289625,0.0,0.0,0.0,0.0,0.0,0.0,-0.001,0.0,0.0,0.0,0.0,0.0,-1.61,-0.28849123902766655,0.0,0.0,0.0,0.0,0.0,0.0,-0.16,0.0,0.0,0.0
513,0.0,0.0,0.0,-0.289625,0.0,0.0,0.0,0.0,0.0,0.0,-0.001,0.0,0.0,0.0,0.0,0.0,-1.61,-0.2884321978507458,0.0,0.0,0.0,0.0,0.0,0.0,-0.16,0.0,0.0,0.0
514,0.0,0.0,0.0,-0.289625,0.0,0.0,0.0,0.0,0.0,0.0,-0.001,0.0,0.0,0.0,0.0,0.0,-1.61,-0.28837687478712143,0.0,0.0,0.0,0.0,0.0,0.0,-0.16,0.0,0.0,0.0
515,0.0,0.0,0.0,-0.289625,0.0,0.0,0.0,0.0,0.0,0.0,-0.001,0.0,0.0,0.0,0.0,0.0,-1.61,-0.2883248314023132,0.0,0.0,0.0,0.0,0.0,0.0,-0.16,0.0,0.0,0.0
516,0.0,0.0,0.0,-0.289625,0.0,0.0,0.0,0.0,0.0,0.0,-0.001,0.0,0.0,0.0,0.0,0.0,-1.61,-0.2882779229892666,0.0,0.0,0.0,0.0,0.0,0.0,-0.16,0.0,0.0,0.0
517,0.0,0.0,0.0,-0.289625,0.0,0.0,0.0,0.0,0.0,0.0,-0.001,0.0,0.0,0.0,0.0,0.0,-1.61,-0.28820545956606103,0.0,0.0,0.0,0.0,0.0,0.0,-0.16,0.0,0.0,0.0
518,0.0,0.0,0.0,-0.289625,0.0,0.0,0.0,0.0,0.0,0.0,-0.001,0.0,0.0,0.0,0.0,0.0,-1.61,-0.28814134394635926,0.0,0.0,0.0,0.0,0.0,0.0,-0.228,0.0,0.0,0.0
519,0.0,0.0,0.0,-0.289625,0.0,0.0,0.0,0.0,0.0,0.0,-0.001,0.0,0.0,0.0,0.0,0.0,-1.61,-0.28808940353968204,0.0,0.0,0.0,0.0,0.0,0.0,-0.228,0.0,0.0,0.0
520,0.0,0.0,0.0,-0.289625,0.0,0.0,0.0,0.0,0.0,0.0,-0.001,0.0,0.0,0.0,0.0,0.0,-1.61,-0.288028244612144,0.0,0.0,0.0,0.0,0.0,0.0,-0.02,0.0,0.0,0.0
521,0.0,0.0,0.0,-0.289625,0.0,0.0,0.0,0.0,0.0,0.0,-0.001,0.0,0.0,0.0,0.0,0.0,-1.61,-0.2879442273003187,0.0,0.0,0.0,0.0,0.0,0.0,-0.02,0.0,0.0,0.0
522,0.0,0.0,0.0,-0.28948046875,0.0,0.0,0.0,0.0,0.0,0.0,0.01,0.0,0.0,0.0,0.0,0.0,-1.61,-0.28771095714251493,0.0,0.0,0.0,0.0,0.0,0.0,-0.068,0.0,0.0,0.0
523,0.0,0.0,0.0,-0.28948046875,0.0,0.0,0.0,0.0,0.0,0.0,0.01,0.0,0.0,0.0,0.0,0.0,-1.61,-0.28763940400518345,0.0,0.0,0.0,0.0,0.0,0.0,-0.068,0.0,0.0,0.0
524,0.0,0.0,0.0,-0.28948046875,0.0,0.0,0.0,0.0,0.0,0.0,0.004,0.0,0.0,0.0,0.0,0.0,-1.61,-0.2875608510566506,0.0,0.0,0.0,0.0,0.0,0.0,-0.16,0.0,0.0,0.0
525,0.0,0.0,0.0,-0.28948046875,0.0,0.0,0.0,0.0,0.0,0.0,0.004,0.0,0.0,0.0,0.0,0.0,-1.61,-0.2874843447246401,0.0,0.0,0.0,0.0,0.0,0.0,-0.16,0.0,0.0,0.0
526,0.0,0.0,0.0,-0.28948046875,0.0,0.0,0.0,0.0,0.0,0.0,-0.001,0.0,0.0,0.0,0.0,0.0,-1.61,-0.2874003160218033,0.0,0.0,0.0,0.0,0.0,0.0,-0.044,0.0,0.0,0.0
527,0.0,0.0,0.0,-0.28948046875,0.0,0.0,0.0,0.0,0.0,0.0,-0.001,0.0,0.0,0.0,0.0,0.0,-1.61,-0.28734385059502915,0.0,0.0,0.0,0.0,0.0,0.0,-0.044,0.0,0.0,0.0
528,0.0,0.0,0.0,-0.2893271484375,0.0,0.0,0.0,0.0,0.0,0.0,0.005,0.0,0.0,0.0,0.0,0.0,-1.61,-0.28712696639598073,0.0,0.0,0.0,0.0,0.0,0.0,-0.068,0.0,0.0,0.0
529,0.0,0.0,0.0,-0.2893271484375,0.0,0.0,0.0,0.0,0.0,0.0,0.005,0.0,0.0,0.0,0.0,0.0,-1.61,-0.2870790417940463,0.0,0.0,0.0,0.0,0.0,0.0,-0.068,0.0,0.0,0.0
530,0.0,0.0,0.0,-0.2893271484375,0.0,0.0,0.0,0.0,0.0,0.0,0.005,0.0,0.0,0.0,0.0,0.0,-1.61,-0.287028588886825,0.0,0.0,0.0,0.0,0.0,0.0,-0.068,0.0,0.0,0.0
531,0.0,0.0,0.0,-0.2890380859375,0.0,0.0,0.0,0.0,0.0,0.0,0.019,0.0,0.0,0.0,0.0,0.0,-1.61,-0.2866835805722649,0.0,0.0,0.0,0.0,0.0,0.0,-0.044,0.0,0.0,0.0
532,0.0,0.0,0.0,-0.2890380859375,0.0,0.0,0.0,0.0,0.0,0.0,0.019,0.0,0.0,0.0,0.0,0.0,-1.61,-0.2866042950687696,0.0,0.0,0.0,0.0,0.0,0.0,-0.044,0.0,0.0,0.0
533,0.0,0.0,0.0,-0.2888935546875,0.0,0.0,0.0,0.0,0.0,0.0,0.024,0.0,0.0,0.0,0.0,0.0,-1.61,-0.2863847496589463,0.0,0.0,0.0,0.0,0.0,0.0,-0.088,0.0,0.0,0.0
534,0.0,0.0,0.0,-0.2888935546875,0.0,0.0,0.0,0.0,0.0,0.0,0.024,0.0,0.0,0.0,0.0,0.0,-1.61,-0.2863208013718699,0.0,0.0,0.0,0.0,0.0,0.0,-0.088,0.0,0.0,0.0
535,0.0,0.0,0.0,-0.28860546875,0.0,0.0,0.0,0.0,0.0,0.0,0.025,0.0,0.0,0.0,0.0,0.0,-1.61,-0.28593710126289573,0.0,0.0,0.0,0.0,0.0,0.0,0.0,0.0,0.0,0.0
536,0.0,0.0,0.0,-0.28860546875,0.0,0.0,0.0,0.0,0.0,0.0,0.025,0.0,0.0,0.0,0.0,0.0,-1.61,-0.28588755392515797,0.0,0.0,0.0,0.0,0.0,0.0,0.0,0.0,0.0,0.0
537,0.0,0.0,0.0,-0.28831640625,0.0,0.0,0.0,0.0,0.0,0.0,0.031,0.0,0.0,0.0,0.0,0.0,-1.61,-0.2855466792194204,0.0,0.0,0.0,0.0,0.0,0.0,0.0,0.0,0.0,0.0
538,0.0,0.0,0.0,-0.28831640625,0.0,0.0,0.0,0.0,0.0,0.0,0.031,0.0,0.0,0.0,0.0,0.0,-1.61,-0.2855009041395295,0.0,0.0,0.0,0.0,0.0,0.0,0.0,0.0,0.0,0.0
539,0.0,0.0,0.0,-0.28831640625,0.0,0.0,0.0,0.0,0.0,0.0,0.031,0.0,0.0,0.0,0.0,0.0,-1.61,-0.28544130053235284,0.0,0.0,0.0,0.0,0.0,0.0,0.0,0.0,0.0,0.0
540,0.0,0.0,0.0,-0.2878837890625,0.0,0.0,0.0,0.0,0.0,0.0,0.033,0.0,0.0,0.0,0.0,0.0,-1.61,-0.28494392634317817,0.0,0.0,0.0,0.0,0.0,0.0,0.0,0.0,0.0,0.0
541,0.0,0.0,0.0,-0.2878837890625,0.0,0.0,0.0,0.0,0.0,0.0,0.033,0.0,0.0,0.0,0.0,0.0,-1.61,-0.2848968930374171,0.0,0.0,0.0,0.0,0.0,0.0,0.0,0.0,0.0,0.0
542,0.0,0.0,0.0,-0.2874501953125,0.0,0.0,0.0,0.0,0.0,0.0,0.036,0.0,0.0,0.0,0.0,0.0,-1.61,-0.28441189508286535,0.0,0.0,0.0,0.0,0.0,0.0,0.18,0.0,0.0,0.0
543,0.0,0.0,0.0,-0.2874501953125,0.0,0.0,0.0,0.0,0.0,0.0,0.036,0.0,0.0,0.0,0.0,0.0,-1.61,-0.28435287623607175,0.0,0.0,0.0,0.0,0.0,0.0,0.18,0.0,0.0,0.0
544,0.0,0.0,0.0,-0.2874501953125,0.0,0.0,0.0,0.0,0.0,0.0,0.036,0.0,0.0,0.0,0.0,0.0,-1.61,-0.28429606694121323,0.0,0.0,0.0,0.0,0.0,0.0,0.18,0.0,0.0,0.0
545,0.0,0.0,0.0,-0.2870078125,0.0,0.0,0.0,0.0,0.0,0.0,0.044,0.0,0.0,0.0,0.0,0.0,-1.61,-0.2837989792267991,0.0,0.0,0.0,0.0,0.0,0.0,0.088,0.0,0.0,0.0
546,0.0,0.0,0.0,-0.2870078125,0.0,0.0,0.0,0.0,0.0,0.0,0.044,0.0,0.0,0.0,0.0,0.0,-1.61,-0.28373051458004767,0.0,0.0,0.0,0.0,0.0,0.0,0.088,0.0,0.0,0.0
547,0.0,0.0,0.0,-0.2864306640625,0.0,0.0,0.0,0.0,0.0,0.0,0.051,0.0,0.0,0.0,0.0,0.0,-1.61,-0.28306669178715643,0.0,0.0,0.0,0.0,0.0,0.0,0.112,0.0,0.0,0.0
548,0.0,0.0,0.0,-0.2864306640625,0.0,0.0,0.0,0.0,0.0,0.0,0.051,0.0,0.0,0.0,0.0,0.0,-1.61,-0.2830147168315752,0.0,0.0,0.0,0.0,0.0,0.0,0.112,0.0,0.0,0.0
549,0.0,0.0,0.0,-0.28584375,0.0,0.0,0.0,0.0,0.0,0.0,0.055,0.0,0.0,0.0,0.0,0.0,-1.61,-0.28237697529827877,0.0,0.0,0.0,0.0,0.0,0.0,0.112,0.0,0.0,0.0
550,0.0,0.0,0.0,-0.28584375,0.0,0.0,0.0,0.0,0.0,0.0,0.055,0.0,0.0,0.0,0.0,0.0,-1.61,-0.2823324133533661,0.0,0.0,0.0,0.0,0.0,0.0,0.112,0.0,0.0,0.0
551,0.0,0.0,0.0,-0.28584375,0.0,0.0,0.0,0.0,0.0,0.0,0.055,0.0,0.0,0.0,0.0,0.0,-1.61,-0.2822872856968903,0.0,0.0,0.0,0.0,0.0,0.0,0.112,0.0,0.0,0.0
552,0.0,0.0,0.0,-0.2852666015625,0.0,0.0,0.0,0.0,0.0,0.0,0.058,0.0,0.0,0.0,0.0,0.0,-1.61,-0.2816506705777486,0.0,0.0,0.0,0.0,0.0,0.0,0.02,0.0,0.0,0.0
553,0.0,0.0,0.0,-0.2852666015625,0.0,0.0,0.0,0.0,0.0,0.0,0.058,0.0,0.0,0.0,0.0,0.0,-1.61,-0.2816045085796272,0.0,0.0,0.0,0.0,0.0,0.0,0.02,0.0,0.0,0.0
554,0.0,0.0,0.0,-0.2852666015625,0.0,0.0,0.0,0.0,0.0,0.0,0.058,0.0,0.0,0.0,0.0,0.0,-1.61,-0.28155945287222567,0.0,0.0,0.0,0.0,0.0,0.0,0.02,0.0,0.0,0.0
555,0.0,0.0,0.0,-0.284544921875,0.0,0.0,0.0,0.0,0.0,0.0,0.063,0.0,0.0,0.0,0.0,0.0,-1.61,-0.2807811553345682,0.0,0.0,0.0,0.0,0.0,0.0,0.272,0.0,0.0,0.0
556,0.0,0.0,0.0,-0.284544921875,0.0,0.0,0.0,0.0,0.0,0.0,0.063,0.0,0.0,0.0,0.0,0.0,-1.61,-0.2807181677541165,0.0,0.0,0.0,0.0,0.0,0.0,0.272,0.0,0.0,0.0
557,0.0,0.0,0.0,-0.2838232421875,0.0,0.0,0.0,0.0,0.0,0.0,0.075,0.0,0.0,0.0,0.0,0.0,-1.61,-0.27993682449174817,0.0,0.0,0.0,0.0,0.0,0.0,0.248,0.0,0.0,0.0
558,0.0,0.0,0.0,-0.2838232421875,0.0,0.0,0.0,0.0,0.0,0.0,0.075,0.0,0.0,0.0,0.0,0.0,-1.61,-0.27988662835937056,0.0,0.0,0.0,0.0,0.0,0.0,0.248,0.0,0.0,0.0
559,0.0,0.0,0.0,-0.2838232421875,0.0,0.0,0.0,0.0,0.0,0.0,0.075,0.0,0.0,0.0,0.0,0.0,-1.61,-0.2798338699204999,0.0,0.0,0.0,0.0,0.0,0.0,0.248,0.0,0.0,0.0
560,0.0,0.0,0.0,-0.28295703125,0.0,0.0,0.0,0.0,0.0,0.0,0.082,0.0,0.0,0.0,0.0,0.0,-1.61,-0.2789115749966096,0.0,0.0,0.0,0.0,0.0,0.0,-0.112,0.0,0.0,0.0
561,0.0,0.0,0.0,-0.28295703125,0.0,0.0,0.0,0.0,0.0,0.0,0.082,0.0,0.0,0.0,0.0,0.0,-1.61,-0.2788600725447668,0.0,0.0,0.0,0.0,0.0,0.0,-0.112,0.0,0.0,0.0
562,0.0,0.0,0.0,-0.2822255859375,0.0,0.0,0.0,0.0,0.0,0.0,0.074,0.0,0.0,0.0,0.0,0.0,-1.61,-0.27806561872502983,0.0,0.0,0.0,0.0,0.0,0.0,0.112,0.0,0.0,0.0
563,0.0,0.0,0.0,-0.2822255859375,0.0,0.0,0.0,0.0,0.0,0.0,0.074,0.0,0.0,0.0,0.0,0.0,-1.61,-0.2780204525350003,0.0,0.0,0.0,0.0,0.0,0.0,0.112,0.0,0.0,0.0
564,0.0,0.0,0.0,-0.2822255859375,0.0,0.0,0.0,0.0,0.0,0.0,0.074,0.0,0.0,0.0,0.0,0.0,-1.61,-0.27796225182024875,0.0,0.0,0.0,0.0,0.0,0.0,0.112,0.0,0.0,0.0
565,0.0,0.0,0.0,-0.28121484375,0.0,0.0,0.0,0.0,0.0,0.0,0.085,0.0,0.0,0.0,0.0,0.0,-1.61,-0.27689333329895216,0.0,0.0,0.0,0.0,0.0,0.0,0.136,0.0,0.0,0.0
566,0.0,0.0,0.0,-0.28121484375,0.0,0.0,0.0,0.0,0.0,0.0,0.085,0.0,0.0,0.0,0.0,0.0,-1.61,-0.27684510622051434,0.0,0.0,0.0,0.0,0.0,0.0,0.136,0.0,0.0,0.0
567,0.0,0.0,0.0,-0.2803486328125,0.0,0.0,0.0,0.0,0.0,0.0,0.097,0.0,0.0,0.0,0.0,0.0,-1.61,-0.2759279126261043,0.0,0.0,0.0,0.0,0.0,0.0,0.32,0.0,0.0,0.0
568,0.0,0.0,0.0,-0.2803486328125,0.0,0.0,0.0,0.0,0.0,0.0,0.097,0.0,0.0,0.0,0.0,0.0,-1.61,-0.2758829335853488,0.0,0.0,0.0,0.0,0.0,0.0,0.32,0.0,0.0,0.0
569,0.0,0.0,0.0,-0.2803486328125,0.0,0.0,0.0,0.0,0.0,0.0,0.097,0.0,0.0,0.0,0.0,0.0,-1.61,-0.2758212511126207,0.0,0.0,0.0,0.0,0.0,0.0,0.32,0.0,0.0,0.0
570,0.0,0.0,0.0,-0.2793291015625,0.0,0.0,0.0,0.0,0.0,0.0,0.099,0.0,0.0,0.0,0.0,0.0,-1.61,-0.2747533146192596,0.0,0.0,0.0,0.0,0.0,0.0,0.248,0.0,0.0,0.0
571,0.0,0.0,0.0,-0.2793291015625,0.0,0.0,0.0,0.0,0.0,0.0,0.099,0.0,0.0,0.0,0.0,0.0,-1.61,-0.2747111403025293,0.0,0.0,0.0,0.0,0.0,0.0,0.248,0.0,0.0,0.0
572,0.0,0.0,0.0,-0.2793291015625,0.0,0.0,0.0,0.0,0.0,0.0,0.099,0.0,0.0,0.0,0.0,0.0,-1.61,-0.2746675450431043,0.0,0.0,0.0,0.0,0.0,0.0,0.248,0.0,0.0,0.0
573,0.0,0.0,0.0,-0.278173828125,0.0,0.0,0.0,0.0,0.0,0.0,0.108,0.0,0.0,0.0,0.0,0.0,-1.61,-0.2734535447932101,0.0,0.0,0.0,0.0,0.0,0.0,0.204,0.0,0.0,0.0
574,0.0,0.0,0.0,-0.278173828125,0.0,0.0,0.0,0.0,0.0,0.0,0.108,0.0,0.0,0.0,0.0,0.0,-1.61,-0.2734066701169685,0.0,0.0,0.0,0.0,0.0,0.0,0.204,0.0,0.0,0.0
575,0.0,0.0,0.0,-0.278173828125,0.0,0.0,0.0,0.0,0.0,0.0,0.108,0.0,0.0,0.0,0.0,0.0,-1.61,-0.27335955758524727,0.0,0.0,0.0,0.0,0.0,0.0,0.204,0.0,0.0,0.0
576,0.0,0.0,0.0,-0.27701953125,0.0,0.0,0.0,0.0,0.0,0.0,0.114,0.0,0.0,0.0,0.0,0.0,-1.61,-0.27215939325038346,0.0,0.0,0.0,0.0,0.0,0.0,0.088,0.0,0.0,0.0
577,0.0,0.0,0.0,-0.27701953125,0.0,0.0,0.0,0.0,0.0,0.0,0.114,0.0,0.0,0.0,0.0,0.0,-1.61,-0.27210787954507903,0.0,0.0,0.0,0.0,0.0,0.0,0.088,0.0,0.0,0.0
578,0.0,0.0,0.0,-0.27585546875,0.0,0.0,0.0,0.0,0.0,0.0,0.113,0.0,0.0,0.0,0.0,0.0,-1.61,-0.2708753863362185,0.0,0.0,0.0,0.0,0.0,0.0,0.112,0.0,0.0,0.0
579,0.0,0.0,0.0,-0.27585546875,0.0,0.0,0.0,0.0,0.0,0.0,0.113,0.0,0.0,0.0,0.0,0.0,-1.61,-0.2708324303921024,0.0,0.0,0.0,0.0,0.0,0.0,0.112,0.0,0.0,0.0
580,0.0,0.0,0.0,-0.27585546875,0.0,0.0,0.0,0.0,0.0,0.0,0.113,0.0,0.0,0.0,0.0,0.0,-1.61,-0.270788993716211,0.0,0.0,0.0,0.0,0.0,0.0,0.112,0.0,0.0,0.0
581,0.0,0.0,0.0,-0.2747001953125,0.0,0.0,0.0,0.0,0.0,0.0,0.112,0.0,0.0,0.0,0.0,0.0,-1.61,-0.2695855739352045,0.0,0.0,0.0,0.0,0.0,0.0,0.456,0.0,0.0,0.0
582,0.0,0.0,0.0,-0.2747001953125,0.0,0.0,0.0,0.0,0.0,0.0,0.112,0.0,0.0,0.0,0.0,0.0,-1.61,-0.26952598116453136,0.0,0.0,0.0,0.0,0.0,0.0,0.456,0.0,0.0,0.0
583,0.0,0.0,0.0,-0.273400390625,0.0,0.0,0.0,0.0,0.0,0.0,0.126,0.0,0.0,0.0,0.0,0.0,-1.61,-0.26817758591503355,0.0,0.0,0.0,0.0,0.0,0.0,0.524,0.0,0.0,0.0
584,0.0,0.0,0.0,-0.273400390625,0.0,0.0,0.0,0.0,0.0,0.0,0.126,0.0,0.0,0.0,0.0,0.0,-1.61,-0.26813604957704,0.0,0.0,0.0,0.0,0.0,0.0,0.524,0.0,0.0,0.0
585,0.0,0.0,0.0,-0.273400390625,0.0,0.0,0.0,0.0,0.0,0.0,0.126,0.0,0.0,0.0,0.0,0.0,-1.61,-0.2680902800734225,0.0,0.0,0.0,0.0,0.0,0.0,0.524,0.0,0.0,0.0
586,0.0,0.0,0.0,-0.2720927734375,0.0,0.0,0.0,0.0,0.0,0.0,0.13,0.0,0.0,0.0,0.0,0.0,-1.61,-0.2667302331051346,0.0,0.0,0.0,0.0,0.0,0.0,0.616,0.0,0.0,0.0
587,0.0,0.0,0.0,-0.2720927734375,0.0,0.0,0.0,0.0,0.0,0.0,0.13,0.0,0.0,0.0,0.0,0.0,-1.61,-0.26664971473405635,0.0,0.0,0.0,0.0,0.0,0.0,0.616,0.0,0.0,0.0
588,0.0,0.0,0.0,-0.2706484375,0.0,0.0,0.0,0.0,0.0,0.0,0.136,0.0,0.0,0.0,0.0,0.0,-1.61,-0.265126062399218,0.0,0.0,0.0,0.0,0.0,0.0,0.48,0.0,0.0,0.0
589,0.0,0.0,0.0,-0.26933984375,0.0,0.0,0.0,0.0,0.0,0.0,0.135,0.0,0.0,0.0,0.0,0.0,-1.61,-0.263740634116752,0.0,0.0,0.0,0.0,0.0,0.0,0.524,0.0,0.0,0.0
590,0.0,0.0,0.0,-0.26933984375,0.0,0.0,0.0,0.0,0.0,0.0,0.135,0.0,0.0,0.0,0.0,0.0,-1.61,-0.26369424018684456,0.0,0.0,0.0,0.0,0.0,0.0,0.524,0.0,0.0,0.0
591,0.0,0.0,0.0,-0.26933984375,0.0,0.0,0.0,0.0,0.0,0.0,0.135,0.0,0.0,0.0,0.0,0.0,-1.61,-0.263643008585502,0.0,0.0,0.0,0.0,0.0,0.0,0.524,0.0,0.0,0.0
592,0.0,0.0,0.0,-0.267896484375,0.0,0.0,0.0,0.0,0.0,0.0,0.141,0.0,0.0,0.0,0.0,0.0,-1.61,-0.26212990607530634,0.0,0.0,0.0,0.0,0.0,0.0,0.32,0.0,0.0,0.0
593,0.0,0.0,0.0,-0.267896484375,0.0,0.0,0.0,0.0,0.0,0.0,0.141,0.0,0.0,0.0,0.0,0.0,-1.61,-0.26207320896624087,0.0,0.0,0.0,0.0,0.0,0.0,0.32,0.0,0.0,0.0
594,0.0,0.0,0.0,-0.2667412109375,0.0,0.0,0.0,0.0,0.0,0.0,0.131,0.0,0.0,0.0,0.0,0.0,-1.61,-0.26087519128535064,0.0,0.0,0.0,0.0,0.0,0.0,0.524,0.0,0.0,0.0
595,0.0,0.0,0.0,-0.2667412109375,0.0,0.0,0.0,0.0,0.0,0.0,0.131,0.0,0.0,0.0,0.0,0.0,-1.61,-0.26082724745908237,0.0,0.0,0.0,0.0,0.0,0.0,0.524,0.0,0.0,0.0
596,0.0,0.0,0.0,-0.26514453125,0.0,0.0,0.0,0.0,0.0,0.0,0.138,0.0,0.0,0.0,0.0,0.0,-1.61,-0.259170521488737,0.0,0.0,0.0,0.0,0.0,0.0,0.98,0.0,0.0,0.0
597,0.0,0.0,0.0,-0.26514453125,0.0,0.0,0.0,0.0,0.0,0.0,0.138,0.0,0.0,0.0,0.0,0.0,-1.61,-0.2591149358412793,0.0,0.0,0.0,0.0,0.0,0.0,0.98,0.0,0.0,0.0
598,0.0,0.0,0.0,-0.263556640625,0.0,0.0,0.0,0.0,0.0,0.0,0.164,0.0,0.0,0.0,0.0,0.0,-1.61,-0.2574766304303744,0.0,0.0,0.0,0.0,0.0,0.0,0.752,0.0,0.0,0.0
599,0.0,0.0,0.0,-0.263556640625,0.0,0.0,0.0,0.0,0.0,0.0,0.164,0.0,0.0,0.0,0.0,0.0,-1.61,-0.25743333639189425,0.0,0.0,0.0,0.0,0.0,0.0,0.752,0.0,0.0,0.0
600,0.0,0.0,0.0,-0.263556640625,0.0,0.0,0.0,0.0,0.0,0.0,0.164,0.0,0.0,0.0,0.0,0.0,-1.61,-0.25738969592119293,0.0,0.0,0.0,0.0,0.0,0.0,0.752,0.0,0.0,0.0
601,0.0,0.0,0.0,-0.261958984375,0.0,0.0,0.0,0.0,0.0,0.0,0.154,0.0,0.0,0.0,0.0,0.0,-1.61,-0.2557382670163749,0.0,0.0,0.0,0.0,0.0,0.0,0.96,0.0,0.0,0.0
602,0.0,0.0,0.0,-0.261958984375,0.0,0.0,0.0,0.0,0.0,0.0,0.154,0.0,0.0,0.0,0.0,0.0,-1.61,-0.2556992499892777,0.0,0.0,0.0,0.0,0.0,0.0,0.96,0.0,0.0,0.0
603,0.0,0.0,0.0,-0.261958984375,0.0,0.0,0.0,0.0,0.0,0.0,0.154,0.0,0.0,0.0,0.0,0.0,-1.61,-0.2556587780843168,0.0,0.0,0.0,0.0,0.0,0.0,0.96,0.0,0.0,0.0
604,0.0,0.0,0.0,-0.2602177734375,0.0,0.0,0.0,0.0,0.0,0.0,0.168,0.0,0.0,0.0,0.0,0.0,-1.61,-0.253868837392075,0.0,0.0,0.0,0.0,0.0,0.0,1.004,0.0,0.0,0.0
605,0.0,0.0,0.0,-0.2602177734375,0.0,0.0,0.0,0.0,0.0,0.0,0.168,0.0,0.0,0.0,0.0,0.0,-1.61,-0.2538126602919618,0.0,0.0,0.0,0.0,0.0,0.0,1.004,0.0,0.0,0.0
606,0.0,0.0,0.0,-0.25833203125,0.0,0.0,0.0,0.0,0.0,0.0,0.186,0.0,0.0,0.0,0.0,0.0,-1.61,-0.2518548278557849,0.0,0.0,0.0,0.0,0.0,0.0,0.64,0.0,0.0,0.0
607,0.0,0.0,0.0,-0.25833203125,0.0,0.0,0.0,0.0,0.0,0.0,0.186,0.0,0.0,0.0,0.0,0.0,-1.61,-0.2517970644401258,0.0,0.0,0.0,0.0,0.0,0.0,0.64,0.0,0.0,0.0
608,0.0,0.0,0.0,-0.2567431640625,0.0,0.0,0.0,0.0,0.0,0.0,0.176,0.0,0.0,0.0,0.0,0.0,-1.61,-0.25016075402803045,0.0,0.0,0.0,0.0,0.0,0.0,0.5,0.0,0.0,0.0
609,0.0,0.0,0.0,-0.2567431640625,0.0,0.0,0.0,0.0,0.0,0.0,0.176,0.0,0.0,0.0,0.0,0.0,-1.61,-0.25012030982731565,0.0,0.0,0.0,0.0,0.0,0.0,0.5,0.0,0.0,0.0
610,0.0,0.0,0.0,-0.255146484375,0.0,0.0,0.0,0.0,0.0,0.0,0.15,0.0,0.0,0.0,0.0,0.0,-1.61,-0.2484833593336022,0.0,0.0,0.0,0.0,0.0,0.0,0.8,0.0,0.0,0.0
611,0.0,0.0,0.0,-0.255146484375,0.0,0.0,0.0,0.0,0.0,0.0,0.15,0.0,0.0,0.0,0.0,0.0,-1.61,-0.24844271137786092,0.0,0.0,0.0,0.0,0.0,0.0,0.8,0.0,0.0,0.0
612,0.0,0.0,0.0,-0.2534140625,0.0,0.0,0.0,0.0,0.0,0.0,0.165,0.0,0.0,0.0,0.0,0.0,-1.61,-0.2466489584572616,0.0,0.0,0.0,0.0,0.0,0.0,0.936,0.0,0.0,0.0
613,0.0,0.0,0.0,-0.2534140625,0.0,0.0,0.0,0.0,0.0,0.0,0.165,0.0,0.0,0.0,0.0,0.0,-1.61,-0.24660496059487663,0.0,0.0,0.0,0.0,0.0,0.0,0.936,0.0,0.0,0.0
614,0.0,0.0,0.0,-0.2534140625,0.0,0.0,0.0,0.0,0.0,0.0,0.165,0.0,0.0,0.0,0.0,0.0,-1.61,-0.24655844423086803,0.0,0.0,0.0,0.0,0.0,0.0,0.936,0.0,0.0,0.0
615,0.0,0.0,0.0,-0.25181640625,0.0,0.0,0.0,0.0,0.0,0.0,0.174,0.0,0.0,0.0,0.0,0.0,-1.61,-0.24490137073624832,0.0,0.0,0.0,0.0,0.0,0.0,1.212,0.0,0.0,0.0
616,0.0,0.0,0.0,-0.25181640625,0.0,0.0,0.0,0.0,0.0,0.0,0.174,0.0,0.0,0.0,0.0,0.0,-1.61,-0.2448383589281653,0.0,0.0,0.0,0.0,0.0,0.0,1.212,0.0,0.0,0.0
617,0.0,0.0,0.0,-0.2499306640625,0.0,0.0,0.0,0.0,0.0,0.0,0.175,0.0,0.0,0.0,0.0,0.0,-1.61,-0.24291315116730375,0.0,0.0,0.0,0.0,0.0,0.0,1.256,0.0,0.0,0.0
618,0.0,0.0,0.0,-0.2499306640625,0.0,0.0,0.0,0.0,0.0,0.0,0.175,0.0,0.0,0.0,0.0,0.0,-1.61,-0.24287927116724056,0.0,0.0,0.0,0.0,0.0,0.0,1.256,0.0,0.0,0.0
619,0.0,0.0,0.0,-0.2480537109375,0.0,0.0,0.0,0.0,0.0,0.0,0.189,0.0,0.0,0.0,0.0,0.0,-1.61,-0.24095411917742393,0.0,0.0,0.0,0.0,0.0,0.0,0.616,0.0,0.0,0.0
620,0.0,0.0,0.0,-0.2480537109375,0.0,0.0,0.0,0.0,0.0,0.0,0.189,0.0,0.0,0.0,0.0,0.0,-1.61,-0.24090762638827617,0.0,0.0,0.0,0.0,0.0,0.0,0.616,0.0,0.0,0.0
621,0.0,0.0,0.0,-0.2480537109375,0.0,0.0,0.0,0.0,0.0,0.0,0.189,0.0,0.0,0.0,0.0,0.0,-1.61,-0.2408721896717806,0.0,0.0,0.0,0.0,0.0,0.0,0.616,0.0,0.0,0.0
622,0.0,0.0,0.0,-0.24645703125,0.0,0.0,0.0,0.0,0.0,0.0,0.167,0.0,0.0,0.0,0.0,0.0,-1.61,-0.2392386396780209,0.0,0.0,0.0,0.0,0.0,0.0,0.408,0.0,0.0,0.0
623,0.0,0.0,0.0,-0.24645703125,0.0,0.0,0.0,0.0,0.0,0.0,0.167,0.0,0.0,0.0,0.0,0.0,-1.61,-0.23919754437871224,0.0,0.0,0.0,0.0,0.0,0.0,0.408,0.0,0.0,0.0
624,0.0,0.0,0.0,-0.244580078125,0.0,0.0,0.0,0.0,0.0,0.0,0.168,0.0,0.0,0.0,0.0,0.0,-1.61,-0.237266054555709,0.0,0.0,0.0,0.0,0.0,0.0,0.776,0.0,0.0,0.0
625,0.0,0.0,0.0,-0.244580078125,0.0,0.0,0.0,0.0,0.0,0.0,0.168,0.0,0.0,0.0,0.0,0.0,-1.61,-0.23722698602721284,0.0,0.0,0.0,0.0,0.0,0.0,0.776,0.0,0.0,0.0
626,0.0,0.0,0.0,-0.244580078125,0.0,0.0,0.0,0.0,0.0,0.0,0.168,0.0,0.0,0.0,0.0,0.0,-1.61,-0.2371939027179934,0.0,0.0,0.0,0.0,0.0,0.0,0.776,0.0,0.0,0.0
627,0.0,0.0,0.0,-0.2425498046875,0.0,0.0,0.0,0.0,0.0,0.0,0.198,0.0,0.0,0.0,0.0,0.0,-1.61,-0.23512619977068558,0.0,0.0,0.0,0.0,0.0,0.0,1.004,0.0,0.0,0.0
628,0.0,0.0,0.0,-0.2425498046875,0.0,0.0,0.0,0.0,0.0,0.0,0.198,0.0,0.0,0.0,0.0,0.0,-1.61,-0.23507965895838814,0.0,0.0,0.0,0.0,0.0,0.0,1.004,0.0,0.0,0.0
629,0.0,0.0,0.0,-0.2406728515625,0.0,0.0,0.0,0.0,0.0,0.0,0.195,0.0,0.0,0.0,0.0,0.0,-1.61,-0.2331629620684175,0.0,0.0,0.0,0.0,0.0,0.0,1.14,0.0,0.0,0.0
630,0.0,0.0,0.0,-0.2406728515625,0.0,0.0,0.0,0.0,0.0,0.0,0.195,0.0,0.0,0.0,0.0,0.0,-1.61,-0.23313091862594554,0.0,0.0,0.0,0.0,0.0,0.0,1.14,0.0,0.0,0.0
631,0.0,0.0,0.0,-0.2406728515625,0.0,0.0,0.0,0.0,0.0,0.0,0.195,0.0,0.0,0.0,0.0,0.0,-1.61,-0.2330986054343124,0.0,0.0,0.0,0.0,0.0,0.0,1.14,0.0,0.0,0.0
632,0.0,0.0,0.0,-0.238642578125,0.0,0.0,0.0,0.0,0.0,0.0,0.194,0.0,0.0,0.0,0.0,0.0,-1.61,-0.23102520964529139,0.0,0.0,0.0,0.0,0.0,0.0,1.14,0.0,0.0,0.0
633,0.0,0.0,0.0,-0.238642578125,0.0,0.0,0.0,0.0,0.0,0.0,0.194,0.0,0.0,0.0,0.0,0.0,-1.61,-0.23098504582632823,0.0,0.0,0.0,0.0,0.0,0.0,1.14,0.0,0.0,0.0
634,0.0,0.0,0.0,-0.236603515625,0.0,0.0,0.0,0.0,0.0,0.0,0.208,0.0,0.0,0.0,0.0,0.0,-1.61,-0.22890491982833353,0.0,0.0,0.0,0.0,0.0,0.0,0.568,0.0,0.0,0.0
635,0.0,0.0,0.0,-0.236603515625,0.0,0.0,0.0,0.0,0.0,0.0,0.208,0.0,0.0,0.0,0.0,0.0,-1.61,-0.22887120482183396,0.0,0.0,0.0,0.0,0.0,0.0,0.568,0.0,0.0,0.0
636,0.0,0.0,0.0,-0.236603515625,0.0,0.0,0.0,0.0,0.0,0.0,0.208,0.0,0.0,0.0,0.0,0.0,-1.61,-0.22883163619824684,0.0,0.0,0.0,0.0,0.0,0.0,0.568,0.0,0.0,0.0
637,0.0,0.0,0.0,-0.2347265625,0.0,0.0,0.0,0.0,0.0,0.0,0.199,0.0,0.0,0.0,0.0,0.0,-1.61,-0.22691380743060777,0.0,0.0,0.0,0.0,0.0,0.0,0.524,0.0,0.0,0.0
638,0.0,0.0,0.0,-0.2347265625,0.0,0.0,0.0,0.0,0.0,0.0,0.199,0.0,0.0,0.0,0.0,0.0,-1.61,-0.22688143393197394,0.0,0.0,0.0,0.0,0.0,0.0,0.524,0.0,0.0,0.0
639,0.0,0.0,0.0,-0.2347265625,0.0,0.0,0.0,0.0,0.0,0.0,0.199,0.0,0.0,0.0,0.0,0.0,-1.61,-0.22685161086734318,0.0,0.0,0.0,0.0,0.0,0.0,0.524,0.0,0.0,0.0
640,0.0,0.0,0.0,-0.2324072265625,0.0,0.0,0.0,0.0,0.0,0.0,0.207,0.0,0.0,0.0,0.0,0.0,-1.61,-0.22448736337890351,0.0,0.0,0.0,0.0,0.0,0.0,0.684,0.0,0.0,0.0
641,0.0,0.0,0.0,-0.2324072265625,0.0,0.0,0.0,0.0,0.0,0.0,0.207,0.0,0.0,0.0,0.0,0.0,-1.61,-0.22444165028354854,0.0,0.0,0.0,0.0,0.0,0.0,0.684,0.0,0.0,0.0
642,0.0,0.0,0.0,-0.2299443359375,0.0,0.0,0.0,0.0,0.0,0.0,0.243,0.0,0.0,0.0,0.0,0.0,-1.61,-0.22193075198186096,0.0,0.0,0.0,0.0,0.0,0.0,0.136,0.0,0.0,0.0
643,0.0,0.0,0.0,-0.2299443359375,0.0,0.0,0.0,0.0,0.0,0.0,0.243,0.0,0.0,0.0,0.0,0.0,-1.61,-0.22190056276270886,0.0,0.0,0.0,0.0,0.0,0.0,0.136,0.0,0.0,0.0
644,0.0,0.0,0.0,-0.2277783203125,0.0,0.0,0.0,0.0,0.0,0.0,0.237,0.0,0.0,0.0,0.0,0.0,-1.61,-0.21969499902586123,0.0,0.0,0.0,0.0,0.0,0.0,-0.248,0.0,0.0,0.0
645,0.0,0.0,0.0,-0.2277783203125,0.0,0.0,0.0,0.0,0.0,0.0,0.237,0.0,0.0,0.0,0.0,0.0,-1.61,-0.21964381590864948,0.0,0.0,0.0,0.0,0.0,0.0,-0.248,0.0,0.0,0.0
646,0.0,0.0,0.0,-0.225603515625,0.0,0.0,0.0,0.0,0.0,0.0,0.212,0.0,0.0,0.0,0.0,0.0,-1.61,-0.21743382715392762,0.0,0.0,0.0,0.0,0.0,0.0,-0.228,0.0,0.0,0.0
647,0.0,0.0,0.0,-0.225603515625,0.0,0.0,0.0,0.0,0.0,0.0,0.212,0.0,0.0,0.0,0.0,0.0,-1.61,-0.21739137048800475,0.0,0.0,0.0,0.0,0.0,0.0,-0.228,0.0,0.0,0.0
648,0.0,0.0,0.0,-0.22328515625,0.0,0.0,0.0,0.0,0.0,0.0,0.22,0.0,0.0,0.0,0.0,0.0,-1.61,-0.2150312001143667,0.0,0.0,0.0,0.0,0.0,0.0,0.708,0.0,0.0,0.0
649,0.0,0.0,0.0,-0.22328515625,0.0,0.0,0.0,0.0,0.0,0.0,0.22,0.0,0.0,0.0,0.0,0.0,-1.61,-0.2150033984141009,0.0,0.0,0.0,0.0,0.0,0.0,0.708,0.0,0.0,0.0
650,0.0,0.0,0.0,-0.22328515625,0.0,0.0,0.0,0.0,0.0,0.0,0.22,0.0,0.0,0.0,0.0,0.0,-1.61,-0.21497682585601108,0.0,0.0,0.0,0.0,0.0,0.0,0.708,0.0,0.0,0.0
651,0.0,0.0,0.0,-0.2205322265625,0.0,0.0,0.0,0.0,0.0,0.0,0.258,0.0,0.0,0.0,0.0,0.0,-1.61,-0.21219062153955842,0.0,0.0,0.0,0.0,0.0,0.0,0.66,0.0,0.0,0.0
652,0.0,0.0,0.0,-0.2205322265625,0.0,0.0,0.0,0.0,0.0,0.0,0.258,0.0,0.0,0.0,0.0,0.0,-1.61,-0.21213083680737935,0.0,0.0,0.0,0.0,0.0,0.0,0.66,0.0,0.0,0.0
653,0.0,0.0,0.0,-0.218078125,0.0,0.0,0.0,0.0,0.0,0.0,0.26,0.0,0.0,0.0,0.0,0.0,-1.61,-0.20962863160204262,0.0,0.0,0.0,0.0,0.0,0.0,0.432,0.0,0.0,0.0
654,0.0,0.0,0.0,-0.215615234375,0.0,0.0,0.0,0.0,0.0,0.0,0.242,0.0,0.0,0.0,0.0,0.0,-1.61,-0.20712618219027806,0.0,0.0,0.0,0.0,0.0,0.0,-0.204,0.0,0.0,0.0
655,0.0,0.0,0.0,-0.215615234375,0.0,0.0,0.0,0.0,0.0,0.0,0.242,0.0,0.0,0.0,0.0,0.0,-1.61,-0.20709294980159515,0.0,0.0,0.0,0.0,0.0,0.0,-0.204,0.0,0.0,0.0
656,0.0,0.0,0.0,-0.215615234375,0.0,0.0,0.0,0.0,0.0,0.0,0.242,0.0,0.0,0.0,0.0,0.0,-1.61,-0.20706638028920726,0.0,0.0,0.0,0.0,0.0,0.0,-0.204,0.0,0.0,0.0
657,0.0,0.0,0.0,-0.2132958984375,0.0,0.0,0.0,0.0,0.0,0.0,0.249,0.0,0.0,0.0,0.0,0.0,-1.61,-0.20471787986291606,0.0,0.0,0.0,0.0,0.0,0.0,-0.844,0.0,0.0,0.0
658,0.0,0.0,0.0,-0.2132958984375,0.0,0.0,0.0,0.0,0.0,0.0,0.249,0.0,0.0,0.0,0.0,0.0,-1.61,-0.20468757820308076,0.0,0.0,0.0,0.0,0.0,0.0,-0.844,0.0,0.0,0.0
659,0.0,0.0,0.0,-0.2108232421875,0.0,0.0,0.0,0.0,0.0,0.0,0.233,0.0,0.0,0.0,0.0,0.0,-1.61,-0.2021736083327711,0.0,0.0,0.0,0.0,0.0,0.0,0.64,0.0,0.0,0.0
660,0.0,0.0,0.0,-0.2108232421875,0.0,0.0,0.0,0.0,0.0,0.0,0.233,0.0,0.0,0.0,0.0,0.0,-1.61,-0.2021401843500927,0.0,0.0,0.0,0.0,0.0,0.0,0.64,0.0,0.0,0.0
661,0.0,0.0,0.0,-0.2079267578125,0.0,0.0,0.0,0.0,0.0,0.0,0.267,0.0,0.0,0.0,0.0,0.0,-1.61,-0.1992118878442733,0.0,0.0,0.0,0.0,0.0,0.0,1.256,0.0,0.0,0.0
662,0.0,0.0,0.0,-0.2079267578125,0.0,0.0,0.0,0.0,0.0,0.0,0.267,0.0,0.0,0.0,0.0,0.0,-1.61,-0.1991822263253853,0.0,0.0,0.0,0.0,0.0,0.0,1.256,0.0,0.0,0.0
