EmanuelSamir/lab201_ws_projsamir/sawyer_dev/data/sawyer/temp/test_dradnew_discrete.csv
,j1,j2,j3,j4,j5,j6,j7,v1,v2,v3,v4,v5,v6,v7,jd1,jd2,jd3,jd4,jd5,jd6,jd7,e1,e2,e3,e4,e5,e6,e7
0,0.0,0.0,0.0,0.0,0.0,0.0,0.0,0.0,0.0,0.0,0.0,0.0,0.0,0.0,0.0,0.0,0.0,0.0,0.0,0.0,0.0,0.0,0.0,0.0,0.0,0.0,0.0,0.0
1,0.0,0.0,0.0,0.0021015625,0.0,0.0,0.0,0.0,0.0,0.0,-0.001,0.0,0.0,0.0,0.0,0.0,-1.61,1.0696333639190783,0.0,0.0,0.0,0.0,0.0,0.0,0.8,0.0,0.0,0.0
2,0.0,0.0,0.0,0.0021015625,0.0,0.0,0.0,0.0,0.0,0.0,-0.001,0.0,0.0,0.0,0.0,0.0,-1.61,-0.002871571679019123,0.0,0.0,0.0,0.0,0.0,0.0,0.66,0.0,0.0,0.0
3,0.0,0.0,0.0,0.0021015625,0.0,0.0,0.0,0.0,0.0,0.0,-0.001,0.0,0.0,0.0,0.0,0.0,-1.61,-0.0029575483785533744,0.0,0.0,0.0,0.0,0.0,0.0,0.776,0.0,0.0,0.0
4,0.0,0.0,0.0,0.00224609375,0.0,0.0,0.0,0.0,0.0,0.0,0.003,0.0,0.0,0.0,0.0,0.0,-1.61,-0.0028984469822472382,0.0,0.0,0.0,0.0,0.0,0.0,1.028,0.0,0.0,0.0
5,0.0,0.0,0.0,0.00224609375,0.0,0.0,0.0,0.0,0.0,0.0,0.018,0.0,0.0,0.0,0.0,0.0,-1.61,-0.002983873022448469,0.0,0.0,0.0,0.0,0.0,0.0,0.408,0.0,0.0,0.0
6,0.0,0.0,0.0,0.0013798828125,0.0,0.0,0.0,0.0,0.0,0.0,-0.034,0.0,0.0,0.0,0.0,0.0,-1.61,-0.003934674362662271,0.0,0.0,0.0,0.0,0.0,0.0,-0.8,0.0,0.0,0.0
7,0.0,0.0,0.0,0.0006484375,0.0,0.0,0.0,0.0,0.0,0.0,-0.089,0.0,0.0,0.0,0.0,0.0,-1.61,-0.004750417540660511,0.0,0.0,0.0,0.0,0.0,0.0,-0.432,0.0,0.0,0.0
8,0.0,0.0,0.0,-7.32421875e-05,0.0,0.0,0.0,0.0,0.0,0.0,-0.069,0.0,0.0,0.0,0.0,0.0,-1.61,-0.0055561046723326514,0.0,0.0,0.0,0.0,0.0,0.0,-0.592,0.0,0.0,0.0
9,0.0,0.0,0.0,-0.0012275390625,0.0,0.0,0.0,0.0,0.0,0.0,-0.095,0.0,0.0,0.0,0.0,0.0,-1.61,-0.006793674712099513,0.0,0.0,0.0,0.0,0.0,0.0,0.34,0.0,0.0,0.0
10,0.0,0.0,0.0,-0.00194921875,0.0,0.0,0.0,0.0,0.0,0.0,-0.102,0.0,0.0,0.0,0.0,0.0,-1.61,-0.007598472214609317,0.0,0.0,0.0,0.0,0.0,0.0,0.868,0.0,0.0,0.0
11,0.0,0.0,0.0,-0.0025361328125,0.0,0.0,0.0,0.0,0.0,0.0,-0.062,0.0,0.0,0.0,0.0,0.0,-1.61,-0.008267900533957004,0.0,0.0,0.0,0.0,0.0,0.0,0.136,0.0,0.0,0.0
12,0.0,0.0,0.0,-0.00340234375,0.0,0.0,0.0,0.0,0.0,0.0,-0.068,0.0,0.0,0.0,0.0,0.0,-1.61,-0.009216317092292389,0.0,0.0,0.0,0.0,0.0,0.0,-0.64,0.0,0.0,0.0
13,0.0,0.0,0.0,-0.0042685546875,0.0,0.0,0.0,0.0,0.0,0.0,-0.091,0.0,0.0,0.0,0.0,0.0,-1.61,-0.01016395501121172,0.0,0.0,0.0,0.0,0.0,0.0,-0.936,0.0,0.0,0.0
14,0.0,0.0,0.0,-0.005279296875,0.0,0.0,0.0,0.0,0.0,0.0,-0.092,0.0,0.0,0.0,0.0,0.0,-1.61,-0.011255959607091852,0.0,0.0,0.0,0.0,0.0,0.0,-0.844,0.0,0.0,0.0
15,0.0,0.0,0.0,-0.0065869140625,0.0,0.0,0.0,0.0,0.0,0.0,-0.114,0.0,0.0,0.0,0.0,0.0,-1.61,-0.012644200378067013,0.0,0.0,0.0,0.0,0.0,0.0,-0.136,0.0,0.0,0.0
16,0.0,0.0,0.0,-0.00759765625,0.0,0.0,0.0,0.0,0.0,0.0,-0.123,0.0,0.0,0.0,0.0,0.0,-1.61,-0.013735075973096561,0.0,0.0,0.0,0.0,0.0,0.0,0.752,0.0,0.0,0.0
17,0.0,0.0,0.0,-0.0084736328125,0.0,0.0,0.0,0.0,0.0,0.0,-0.099,0.0,0.0,0.0,0.0,0.0,-1.61,-0.01469068928251547,0.0,0.0,0.0,0.0,0.0,0.0,0.432,0.0,0.0,0.0
18,0.0,0.0,0.0,-0.00963671875,0.0,0.0,0.0,0.0,0.0,0.0,-0.105,0.0,0.0,0.0,0.0,0.0,-1.61,-0.01593290886185101,0.0,0.0,0.0,0.0,0.0,0.0,-0.5,0.0,0.0,0.0
19,0.0,0.0,0.0,-0.0107919921875,0.0,0.0,0.0,0.0,0.0,0.0,-0.117,0.0,0.0,0.0,0.0,0.0,-1.61,-0.01716680643234321,0.0,0.0,0.0,0.0,0.0,0.0,-0.548,0.0,0.0,0.0
20,0.0,0.0,0.0,-0.0121005859375,0.0,0.0,0.0,0.0,0.0,0.0,-0.116,0.0,0.0,0.0,0.0,0.0,-1.61,-0.018553680498881765,0.0,0.0,0.0,0.0,0.0,0.0,-0.524,0.0,0.0,0.0
21,0.0,0.0,0.0,-0.0135439453125,0.0,0.0,0.0,0.0,0.0,0.0,-0.14,0.0,0.0,0.0,0.0,0.0,-1.61,-0.02007463004203977,0.0,0.0,0.0,0.0,0.0,0.0,0.272,0.0,0.0,0.0
22,0.0,0.0,0.0,-0.0149970703125,0.0,0.0,0.0,0.0,0.0,0.0,-0.146,0.0,0.0,0.0,0.0,0.0,-1.61,-0.021604816697249368,0.0,0.0,0.0,0.0,0.0,0.0,1.028,0.0,0.0,0.0
23,0.0,0.0,0.0,-0.01615234375,0.0,0.0,0.0,0.0,0.0,0.0,-0.135,0.0,0.0,0.0,0.0,0.0,-1.61,-0.022836617040591624,0.0,0.0,0.0,0.0,0.0,0.0,0.912,0.0,0.0,0.0
24,0.0,0.0,0.0,-0.017595703125,0.0,0.0,0.0,0.0,0.0,0.0,-0.13,0.0,0.0,0.0,0.0,0.0,-1.61,-0.02435596237892465,0.0,0.0,0.0,0.0,0.0,0.0,0.592,0.0,0.0,0.0
25,0.0,0.0,0.0,-0.018904296875,0.0,0.0,0.0,0.0,0.0,0.0,-0.138,0.0,0.0,0.0,0.0,0.0,-1.61,-0.02574017715968185,0.0,0.0,0.0,0.0,0.0,0.0,0.248,0.0,0.0,0.0
26,0.0,0.0,0.0,-0.02034765625,0.0,0.0,0.0,0.0,0.0,0.0,-0.139,0.0,0.0,0.0,0.0,0.0,-1.61,-0.027258242027164634,0.0,0.0,0.0,0.0,0.0,0.0,-0.136,0.0,0.0,0.0
27,0.0,0.0,0.0,-0.0222333984375,0.0,0.0,0.0,0.0,0.0,0.0,-0.163,0.0,0.0,0.0,0.0,0.0,-1.61,-0.02921849671599525,0.0,0.0,0.0,0.0,0.0,0.0,0.432,0.0,0.0,0.0
28,0.0,0.0,0.0,-0.0239755859375,0.0,0.0,0.0,0.0,0.0,0.0,-0.176,0.0,0.0,0.0,0.0,0.0,-1.61,-0.031034261194093093,0.0,0.0,0.0,0.0,0.0,0.0,0.5,0.0,0.0,0.0
29,0.0,0.0,0.0,-0.0255634765625,0.0,0.0,0.0,0.0,0.0,0.0,-0.176,0.0,0.0,0.0,0.0,0.0,-1.61,-0.032695721648921074,0.0,0.0,0.0,0.0,0.0,0.0,0.708,0.0,0.0,0.0
30,0.0,0.0,0.0,-0.0270166015625,0.0,0.0,0.0,0.0,0.0,0.0,-0.156,0.0,0.0,0.0,0.0,0.0,-1.61,-0.03422127512835275,0.0,0.0,0.0,0.0,0.0,0.0,0.684,0.0,0.0,0.0
31,0.0,0.0,0.0,-0.0284599609375,0.0,0.0,0.0,0.0,0.0,0.0,-0.146,0.0,0.0,0.0,0.0,0.0,-1.61,-0.03573666794100225,0.0,0.0,0.0,0.0,0.0,0.0,-0.088,0.0,0.0,0.0
32,0.0,0.0,0.0,-0.030201171875,0.0,0.0,0.0,0.0,0.0,0.0,-0.155,0.0,0.0,0.0,0.0,0.0,-1.61,-0.03754951908037525,0.0,0.0,0.0,0.0,0.0,0.0,-0.616,0.0,0.0,0.0
33,0.0,0.0,0.0,-0.031798828125,0.0,0.0,0.0,0.0,0.0,0.0,-0.167,0.0,0.0,0.0,0.0,0.0,-1.61,-0.03921783133741806,0.0,0.0,0.0,0.0,0.0,0.0,-0.684,0.0,0.0,0.0
34,0.0,0.0,0.0,-0.0333955078125,0.0,0.0,0.0,0.0,0.0,0.0,-0.163,0.0,0.0,0.0,0.0,0.0,-1.61,-0.040884959800044474,0.0,0.0,0.0,0.0,0.0,0.0,-0.456,0.0,0.0,0.0
35,0.0,0.0,0.0,-0.0351279296875,0.0,0.0,0.0,0.0,0.0,0.0,-0.168,0.0,0.0,0.0,0.0,0.0,-1.61,-0.04268722984341166,0.0,0.0,0.0,0.0,0.0,0.0,-0.068,0.0,0.0,0.0
36,0.0,0.0,0.0,-0.0367255859375,0.0,0.0,0.0,0.0,0.0,0.0,-0.169,0.0,0.0,0.0,0.0,0.0,-1.61,-0.04435372179132949,0.0,0.0,0.0,0.0,0.0,0.0,0.112,0.0,0.0,0.0
37,0.0,0.0,0.0,-0.0380244140625,0.0,0.0,0.0,0.0,0.0,0.0,-0.144,0.0,0.0,0.0,0.0,0.0,-1.61,-0.045720967627501316,0.0,0.0,0.0,0.0,0.0,0.0,-0.296,0.0,0.0,0.0
38,0.0,0.0,0.0,-0.0396220703125,0.0,0.0,0.0,0.0,0.0,0.0,-0.146,0.0,0.0,0.0,0.0,0.0,-1.61,-0.04738662531679407,0.0,0.0,0.0,0.0,0.0,0.0,-0.568,0.0,0.0,0.0
39,0.0,0.0,0.0,-0.0410654296875,0.0,0.0,0.0,0.0,0.0,0.0,-0.157,0.0,0.0,0.0,0.0,0.0,-1.61,-0.04889736302903343,0.0,0.0,0.0,0.0,0.0,0.0,-0.568,0.0,0.0,0.0
40,0.0,0.0,0.0,-0.0426630859375,0.0,0.0,0.0,0.0,0.0,0.0,-0.148,0.0,0.0,0.0,0.0,0.0,-1.61,-0.050561138422904314,0.0,0.0,0.0,0.0,0.0,0.0,-0.592,0.0,0.0,0.0
41,0.0,0.0,0.0,-0.0443955078125,0.0,0.0,0.0,0.0,0.0,0.0,-0.171,0.0,0.0,0.0,0.0,0.0,-1.61,-0.05235966544197,0.0,0.0,0.0,0.0,0.0,0.0,-0.16,0.0,0.0,0.0
42,0.0,0.0,0.0,-0.04613671875,0.0,0.0,0.0,0.0,0.0,0.0,-0.174,0.0,0.0,0.0,0.0,0.0,-1.61,-0.05416612847066868,0.0,0.0,0.0,0.0,0.0,0.0,0.068,0.0,0.0,0.0
43,0.0,0.0,0.0,-0.047869140625,0.0,0.0,0.0,0.0,0.0,0.0,-0.174,0.0,0.0,0.0,0.0,0.0,-1.61,-0.05596336787868614,0.0,0.0,0.0,0.0,0.0,0.0,-0.044,0.0,0.0,0.0
44,0.0,0.0,0.0,-0.049466796875,0.0,0.0,0.0,0.0,0.0,0.0,-0.174,0.0,0.0,0.0,0.0,0.0,-1.61,-0.05762497455367555,0.0,0.0,0.0,0.0,0.0,0.0,0.272,0.0,0.0,0.0
45,0.0,0.0,0.0,-0.05119921875,0.0,0.0,0.0,0.0,0.0,0.0,-0.166,0.0,0.0,0.0,0.0,0.0,-1.61,-0.05942046779082888,0.0,0.0,0.0,0.0,0.0,0.0,0.228,0.0,0.0,0.0
46,0.0,0.0,0.0,-0.05309375,0.0,0.0,0.0,0.0,0.0,0.0,-0.182,0.0,0.0,0.0,0.0,0.0,-1.61,-0.06137784066863578,0.0,0.0,0.0,0.0,0.0,0.0,0.296,0.0,0.0,0.0
47,0.0,0.0,0.0,-0.0549794921875,0.0,0.0,0.0,0.0,0.0,0.0,-0.194,0.0,0.0,0.0,0.0,0.0,-1.61,-0.06332553689748924,0.0,0.0,0.0,0.0,0.0,0.0,0.568,0.0,0.0,0.0
48,0.0,0.0,0.0,-0.0568564453125,0.0,0.0,0.0,0.0,0.0,0.0,-0.189,0.0,0.0,0.0,0.0,0.0,-1.61,-0.0652637684948707,0.0,0.0,0.0,0.0,0.0,0.0,0.408,0.0,0.0,0.0
49,0.0,0.0,0.0,-0.05917578125,0.0,0.0,0.0,0.0,0.0,0.0,-0.202,0.0,0.0,0.0,0.0,0.0,-1.61,-0.0676439275715155,0.0,0.0,0.0,0.0,0.0,0.0,0.364,0.0,0.0,0.0
50,0.0,0.0,0.0,-0.0610615234375,0.0,0.0,0.0,0.0,0.0,0.0,-0.219,0.0,0.0,0.0,0.0,0.0,-1.61,-0.0695893586506577,0.0,0.0,0.0,0.0,0.0,0.0,0.708,0.0,0.0,0.0
51,0.0,0.0,0.0,-0.0630830078125,0.0,0.0,0.0,0.0,0.0,0.0,-0.192,0.0,0.0,0.0,0.0,0.0,-1.61,-0.07167029356715517,0.0,0.0,0.0,0.0,0.0,0.0,0.32,0.0,0.0,0.0
52,0.0,0.0,0.0,-0.0652578125,0.0,0.0,0.0,0.0,0.0,0.0,-0.211,0.0,0.0,0.0,0.0,0.0,-1.61,-0.07390362846722202,0.0,0.0,0.0,0.0,0.0,0.0,0.02,0.0,0.0,0.0
53,0.0,0.0,0.0,-0.0674326171875,0.0,0.0,0.0,0.0,0.0,0.0,-0.224,0.0,0.0,0.0,0.0,0.0,-1.61,-0.07613626349629983,0.0,0.0,0.0,0.0,0.0,0.0,0.432,0.0,0.0,0.0
54,0.0,0.0,0.0,-0.06930859375,0.0,0.0,0.0,0.0,0.0,0.0,-0.203,0.0,0.0,0.0,0.0,0.0,-1.61,-0.0780693658480738,0.0,0.0,0.0,0.0,0.0,0.0,0.228,0.0,0.0,0.0
55,0.0,0.0,0.0,-0.0714833984375,0.0,0.0,0.0,0.0,0.0,0.0,-0.208,0.0,0.0,0.0,0.0,0.0,-1.61,-0.08030082153786082,0.0,0.0,0.0,0.0,0.0,0.0,0.296,0.0,0.0,0.0
56,0.0,0.0,0.0,-0.073802734375,0.0,0.0,0.0,0.0,0.0,0.0,-0.227,0.0,0.0,0.0,0.0,0.0,-1.61,-0.08267586327779912,0.0,0.0,0.0,0.0,0.0,0.0,0.112,0.0,0.0,0.0
57,0.0,0.0,0.0,-0.0761220703125,0.0,0.0,0.0,0.0,0.0,0.0,-0.231,0.0,0.0,0.0,0.0,0.0,-1.61,-0.08505018670790392,0.0,0.0,0.0,0.0,0.0,0.0,0.18,0.0,0.0,0.0
58,0.0,0.0,0.0,-0.078296875,0.0,0.0,0.0,0.0,0.0,0.0,-0.222,0.0,0.0,0.0,0.0,0.0,-1.61,-0.0872792561267512,0.0,0.0,0.0,0.0,0.0,0.0,0.592,0.0,0.0,0.0
59,0.0,0.0,0.0,-0.080326171875,0.0,0.0,0.0,0.0,0.0,0.0,-0.217,0.0,0.0,0.0,0.0,0.0,-1.61,-0.08936209057892729,0.0,0.0,0.0,0.0,0.0,0.0,0.96,0.0,0.0,0.0
60,0.0,0.0,0.0,-0.0826455078125,0.0,0.0,0.0,0.0,0.0,0.0,-0.214,0.0,0.0,0.0,0.0,0.0,-1.61,-0.09173423260538426,0.0,0.0,0.0,0.0,0.0,0.0,0.728,0.0,0.0,0.0
61,0.0,0.0,0.0,-0.0849560546875,0.0,0.0,0.0,0.0,0.0,0.0,-0.233,0.0,0.0,0.0,0.0,0.0,-1.61,-0.094097092706938,0.0,0.0,0.0,0.0,0.0,0.0,0.364,0.0,0.0,0.0
62,0.0,0.0,0.0,-0.0874189453125,0.0,0.0,0.0,0.0,0.0,0.0,-0.244,0.0,0.0,0.0,0.0,0.0,-1.61,-0.096611072129211,0.0,0.0,0.0,0.0,0.0,0.0,-0.136,0.0,0.0,0.0
63,0.0,0.0,0.0,-0.0898828125,0.0,0.0,0.0,0.0,0.0,0.0,-0.248,0.0,0.0,0.0,0.0,0.0,-1.61,-0.09912577109241864,0.0,0.0,0.0,0.0,0.0,0.0,-0.044,0.0,0.0,0.0
64,0.0,0.0,0.0,-0.092345703125,0.0,0.0,0.0,0.0,0.0,0.0,-0.25,0.0,0.0,0.0,0.0,0.0,-1.61,-0.10163874919635484,0.0,0.0,0.0,0.0,0.0,0.0,0.66,0.0,0.0,0.0
65,0.0,0.0,0.0,-0.09465625,0.0,0.0,0.0,0.0,0.0,0.0,-0.234,0.0,0.0,0.0,0.0,0.0,-1.61,-0.10399813873292374,0.0,0.0,0.0,0.0,0.0,0.0,0.248,0.0,0.0,0.0
66,0.0,0.0,0.0,-0.096984375,0.0,0.0,0.0,0.0,0.0,0.0,-0.235,0.0,0.0,0.0,0.0,0.0,-1.61,-0.10637459567849926,0.0,0.0,0.0,0.0,0.0,0.0,-0.112,0.0,0.0,0.0
67,0.0,0.0,0.0,-0.099158203125,0.0,0.0,0.0,0.0,0.0,0.0,-0.229,0.0,0.0,0.0,0.0,0.0,-1.61,-0.10859624624279017,0.0,0.0,0.0,0.0,0.0,0.0,-0.592,0.0,0.0,0.0
68,0.0,0.0,0.0,-0.1014775390625,0.0,0.0,0.0,0.0,0.0,0.0,-0.222,0.0,0.0,0.0,0.0,0.0,-1.61,-0.11096239231398485,0.0,0.0,0.0,0.0,0.0,0.0,-0.96,0.0,0.0,0.0
69,0.0,0.0,0.0,-0.103787109375,0.0,0.0,0.0,0.0,0.0,0.0,-0.239,0.0,0.0,0.0,0.0,0.0,-1.61,-0.1133177517036814,0.0,0.0,0.0,0.0,0.0,0.0,-0.524,0.0,0.0,0.0
70,0.0,0.0,0.0,-0.1062509765625,0.0,0.0,0.0,0.0,0.0,0.0,-0.244,0.0,0.0,0.0,0.0,0.0,-1.61,-0.11582714142728719,0.0,0.0,0.0,0.0,0.0,0.0,-0.16,0.0,0.0,0.0
71,0.0,0.0,0.0,-0.1085703125,0.0,0.0,0.0,0.0,0.0,0.0,-0.24,0.0,0.0,0.0,0.0,0.0,-1.61,-0.11819097266140517,0.0,0.0,0.0,0.0,0.0,0.0,0.112,0.0,0.0,0.0
72,0.0,0.0,0.0,-0.110888671875,0.0,0.0,0.0,0.0,0.0,0.0,-0.235,0.0,0.0,0.0,0.0,0.0,-1.61,-0.12055304842545038,0.0,0.0,0.0,0.0,0.0,0.0,0.432,0.0,0.0,0.0
73,0.0,0.0,0.0,-0.1130546875,0.0,0.0,0.0,0.0,0.0,0.0,-0.226,0.0,0.0,0.0,0.0,0.0,-1.61,-0.12276225576988506,0.0,0.0,0.0,0.0,0.0,0.0,0.456,0.0,0.0,0.0
74,0.0,0.0,0.0,-0.1153740234375,0.0,0.0,0.0,0.0,0.0,0.0,-0.226,0.0,0.0,0.0,0.0,0.0,-1.61,-0.12512374193928075,0.0,0.0,0.0,0.0,0.0,0.0,0.568,0.0,0.0,0.0
75,0.0,0.0,0.0,-0.1179814453125,0.0,0.0,0.0,0.0,0.0,0.0,-0.242,0.0,0.0,0.0,0.0,0.0,-1.61,-0.12777226467881675,0.0,0.0,0.0,0.0,0.0,0.0,0.456,0.0,0.0,0.0
76,0.0,0.0,0.0,-0.1205986328125,0.0,0.0,0.0,0.0,0.0,0.0,-0.265,0.0,0.0,0.0,0.0,0.0,-1.61,-0.1304305402037137,0.0,0.0,0.0,0.0,0.0,0.0,0.684,0.0,0.0,0.0
77,0.0,0.0,0.0,-0.1229169921875,0.0,0.0,0.0,0.0,0.0,0.0,-0.254,0.0,0.0,0.0,0.0,0.0,-1.61,-0.1327881495877407,0.0,0.0,0.0,0.0,0.0,0.0,1.028,0.0,0.0,0.0
78,0.0,0.0,0.0,-0.125515625,0.0,0.0,0.0,0.0,0.0,0.0,-0.245,0.0,0.0,0.0,0.0,0.0,-1.61,-0.1354262793567789,0.0,0.0,0.0,0.0,0.0,0.0,1.072,0.0,0.0,0.0
79,0.0,0.0,0.0,-0.1279794921875,0.0,0.0,0.0,0.0,0.0,0.0,-0.251,0.0,0.0,0.0,0.0,0.0,-1.61,-0.13792805486317383,0.0,0.0,0.0,0.0,0.0,0.0,0.5,0.0,0.0,0.0
80,0.0,0.0,0.0,-0.1305869140625,0.0,0.0,0.0,0.0,0.0,0.0,-0.257,0.0,0.0,0.0,0.0,0.0,-1.61,-0.140573106714794,0.0,0.0,0.0,0.0,0.0,0.0,-0.136,0.0,0.0,0.0
81,0.0,0.0,0.0,-0.1331953125,0.0,0.0,0.0,0.0,0.0,0.0,-0.264,0.0,0.0,0.0,0.0,0.0,-1.61,-0.14321806344264054,0.0,0.0,0.0,0.0,0.0,0.0,-0.16,0.0,0.0,0.0
82,0.0,0.0,0.0,-0.135947265625,0.0,0.0,0.0,0.0,0.0,0.0,-0.274,0.0,0.0,0.0,0.0,0.0,-1.61,-0.14600576331034645,0.0,0.0,0.0,0.0,0.0,0.0,-0.228,0.0,0.0,0.0
83,0.0,0.0,0.0,-0.13869921875,0.0,0.0,0.0,0.0,0.0,0.0,-0.279,0.0,0.0,0.0,0.0,0.0,-1.61,-0.14879264873597822,0.0,0.0,0.0,0.0,0.0,0.0,0.844,0.0,0.0,0.0
84,0.0,0.0,0.0,-0.1411533203125,0.0,0.0,0.0,0.0,0.0,0.0,-0.262,0.0,0.0,0.0,0.0,0.0,-1.61,-0.15128113410947813,0.0,0.0,0.0,0.0,0.0,0.0,0.888,0.0,0.0,0.0
85,0.0,0.0,0.0,-0.1439150390625,0.0,0.0,0.0,0.0,0.0,0.0,-0.26,0.0,0.0,0.0,0.0,0.0,-1.61,-0.1540758799470298,0.0,0.0,0.0,0.0,0.0,0.0,0.272,0.0,0.0,0.0
86,0.0,0.0,0.0,-0.1466669921875,0.0,0.0,0.0,0.0,0.0,0.0,-0.28,0.0,0.0,0.0,0.0,0.0,-1.61,-0.15686057582029267,0.0,0.0,0.0,0.0,0.0,0.0,0.228,0.0,0.0,0.0
87,0.0,0.0,0.0,-0.148986328125,0.0,0.0,0.0,0.0,0.0,0.0,-0.258,0.0,0.0,0.0,0.0,0.0,-1.61,-0.15921156030133016,0.0,0.0,0.0,0.0,0.0,0.0,-0.204,0.0,0.0,0.0
88,0.0,0.0,0.0,-0.15173828125,0.0,0.0,0.0,0.0,0.0,0.0,-0.254,0.0,0.0,0.0,0.0,0.0,-1.61,-0.16199433398333613,0.0,0.0,0.0,0.0,0.0,0.0,0.32,0.0,0.0,0.0
89,0.0,0.0,0.0,-0.154634765625,0.0,0.0,0.0,0.0,0.0,0.0,-0.281,0.0,0.0,0.0,0.0,0.0,-1.61,-0.16492108135156414,0.0,0.0,0.0,0.0,0.0,0.0,0.592,0.0,0.0,0.0
90,0.0,0.0,0.0,-0.1569443359375,0.0,0.0,0.0,0.0,0.0,0.0,-0.268,0.0,0.0,0.0,0.0,0.0,-1.61,-0.1672595366712068,0.0,0.0,0.0,0.0,0.0,0.0,0.48,0.0,0.0,0.0
91,0.0,0.0,0.0,-0.159552734375,0.0,0.0,0.0,0.0,0.0,0.0,-0.246,0.0,0.0,0.0,0.0,0.0,-1.61,-0.16989653139823646,0.0,0.0,0.0,0.0,0.0,0.0,-0.408,0.0,0.0,0.0
92,0.0,0.0,0.0,-0.16216015625,0.0,0.0,0.0,0.0,0.0,0.0,-0.263,0.0,0.0,0.0,0.0,0.0,-1.61,-0.1725314390126381,0.0,0.0,0.0,0.0,0.0,0.0,-0.568,0.0,0.0,0.0
93,0.0,0.0,0.0,-0.164767578125,0.0,0.0,0.0,0.0,0.0,0.0,-0.263,0.0,0.0,0.0,0.0,0.0,-1.61,-0.17516523093843853,0.0,0.0,0.0,0.0,0.0,0.0,-0.408,0.0,0.0,0.0
94,0.0,0.0,0.0,-0.167529296875,0.0,0.0,0.0,0.0,0.0,0.0,-0.265,0.0,0.0,0.0,0.0,0.0,-1.61,-0.17795302871383095,0.0,0.0,0.0,0.0,0.0,0.0,-0.5,0.0,0.0,0.0
95,0.0,0.0,0.0,-0.17028125,0.0,0.0,0.0,0.0,0.0,0.0,-0.279,0.0,0.0,0.0,0.0,0.0,-1.61,-0.18073021877687878,0.0,0.0,0.0,0.0,0.0,0.0,0.388,0.0,0.0,0.0
96,0.0,0.0,0.0,-0.1725908203125,0.0,0.0,0.0,0.0,0.0,0.0,-0.255,0.0,0.0,0.0,0.0,0.0,-1.61,-0.1830636262216786,0.0,0.0,0.0,0.0,0.0,0.0,0.616,0.0,0.0,0.0
97,0.0,0.0,0.0,-0.1750546875,0.0,0.0,0.0,0.0,0.0,0.0,-0.243,0.0,0.0,0.0,0.0,0.0,-1.61,-0.18555103735292863,0.0,0.0,0.0,0.0,0.0,0.0,0.34,0.0,0.0,0.0
98,0.0,0.0,0.0,-0.177806640625,0.0,0.0,0.0,0.0,0.0,0.0,-0.266,0.0,0.0,0.0,0.0,0.0,-1.61,-0.18832512826848097,0.0,0.0,0.0,0.0,0.0,0.0,0.708,0.0,0.0,0.0
99,0.0,0.0,0.0,-0.1804140625,0.0,0.0,0.0,0.0,0.0,0.0,-0.265,0.0,0.0,0.0,0.0,0.0,-1.61,-0.19095439346661316,0.0,0.0,0.0,0.0,0.0,0.0,0.524,0.0,0.0,0.0
100,0.0,0.0,0.0,-0.183455078125,0.0,0.0,0.0,0.0,0.0,0.0,-0.276,0.0,0.0,0.0,0.0,0.0,-1.61,-0.1940161204361494,0.0,0.0,0.0,0.0,0.0,0.0,0.64,0.0,0.0,0.0
101,0.0,0.0,0.0,-0.18620703125,0.0,0.0,0.0,0.0,0.0,0.0,-0.298,0.0,0.0,0.0,0.0,0.0,-1.61,-0.19678792963634892,0.0,0.0,0.0,0.0,0.0,0.0,1.392,0.0,0.0,0.0
102,0.0,0.0,0.0,-0.1888154296875,0.0,0.0,0.0,0.0,0.0,0.0,-0.269,0.0,0.0,0.0,0.0,0.0,-1.61,-0.19941560834499114,0.0,0.0,0.0,0.0,0.0,0.0,0.96,0.0,0.0,0.0
103,0.0,0.0,0.0,-0.1918564453125,0.0,0.0,0.0,0.0,0.0,0.0,-0.278,0.0,0.0,0.0,0.0,0.0,-1.61,-0.20247476569034273,0.0,0.0,0.0,0.0,0.0,0.0,0.112,0.0,0.0,0.0
104,0.0,0.0,0.0,-0.1947529296875,0.0,0.0,0.0,0.0,0.0,0.0,-0.304,0.0,0.0,0.0,0.0,0.0,-1.61,-0.20538853183221953,0.0,0.0,0.0,0.0,0.0,0.0,-0.248,0.0,0.0,0.0
105,0.0,0.0,0.0,-0.1976494140625,0.0,0.0,0.0,0.0,0.0,0.0,-0.292,0.0,0.0,0.0,0.0,0.0,-1.61,-0.20830143662101083,0.0,0.0,0.0,0.0,0.0,0.0,-0.64,0.0,0.0,0.0
106,0.0,0.0,0.0,-0.2005458984375,0.0,0.0,0.0,0.0,0.0,0.0,-0.292,0.0,0.0,0.0,0.0,0.0,-1.61,-0.21121347872686488,0.0,0.0,0.0,0.0,0.0,0.0,0.364,0.0,0.0,0.0
107,0.0,0.0,0.0,-0.2031533203125,0.0,0.0,0.0,0.0,0.0,0.0,-0.286,0.0,0.0,0.0,0.0,0.0,-1.61,-0.21383559438979652,0.0,0.0,0.0,0.0,0.0,0.0,1.212,0.0,0.0,0.0
108,0.0,0.0,0.0,-0.2057607421875,0.0,0.0,0.0,0.0,0.0,0.0,-0.256,0.0,0.0,0.0,0.0,0.0,-1.61,-0.21645684491978961,0.0,0.0,0.0,0.0,0.0,0.0,0.708,0.0,0.0,0.0
109,0.0,0.0,0.0,-0.2088017578125,0.0,0.0,0.0,0.0,0.0,0.0,-0.281,0.0,0.0,0.0,0.0,0.0,-1.61,-0.219510822946893,0.0,0.0,0.0,0.0,0.0,0.0,-0.388,0.0,0.0,0.0
110,0.0,0.0,0.0,-0.2118427734375,0.0,0.0,0.0,0.0,0.0,0.0,-0.312,0.0,0.0,0.0,0.0,0.0,-1.61,-0.22256421785820757,0.0,0.0,0.0,0.0,0.0,0.0,-0.548,0.0,0.0,0.0
111,0.0,0.0,0.0,-0.2147490234375,0.0,0.0,0.0,0.0,0.0,0.0,-0.296,0.0,0.0,0.0,0.0,0.0,-1.61,-0.22548169524723477,0.0,0.0,0.0,0.0,0.0,0.0,-0.088,0.0,0.0,0.0
112,0.0,0.0,0.0,-0.2176357421875,0.0,0.0,0.0,0.0,0.0,0.0,-0.289,0.0,0.0,0.0,0.0,0.0,-1.61,-0.22837877212567012,0.0,0.0,0.0,0.0,0.0,0.0,0.728,0.0,0.0,0.0
113,0.0,0.0,0.0,-0.2208212890625,0.0,0.0,0.0,0.0,0.0,0.0,-0.304,0.0,0.0,0.0,0.0,0.0,-1.61,-0.23157409200513215,0.0,0.0,0.0,0.0,0.0,0.0,0.364,0.0,0.0,0.0
114,0.0,0.0,0.0,-0.2235732421875,0.0,0.0,0.0,0.0,0.0,0.0,-0.311,0.0,0.0,0.0,0.0,0.0,-1.61,-0.2343346627245736,0.0,0.0,0.0,0.0,0.0,0.0,0.136,0.0,0.0,0.0
115,0.0,0.0,0.0,-0.225748046875,0.0,0.0,0.0,0.0,0.0,0.0,-0.253,0.0,0.0,0.0,0.0,0.0,-1.61,-0.2365172133713253,0.0,0.0,0.0,0.0,0.0,0.0,-0.044,0.0,0.0,0.0
116,0.0,0.0,0.0,-0.2285,0.0,0.0,0.0,0.0,0.0,0.0,-0.238,0.0,0.0,0.0,0.0,0.0,-1.61,-0.23927575463651163,0.0,0.0,0.0,0.0,0.0,0.0,-0.96,0.0,0.0,0.0
117,0.0,0.0,0.0,-0.231685546875,0.0,0.0,0.0,0.0,0.0,0.0,-0.297,0.0,0.0,0.0,0.0,0.0,-1.61,-0.2424675877979265,0.0,0.0,0.0,0.0,0.0,0.0,-0.408,0.0,0.0,0.0
118,0.0,0.0,0.0,-0.2341484375,0.0,0.0,0.0,0.0,0.0,0.0,-0.293,0.0,0.0,0.0,0.0,0.0,-1.61,-0.24493589184618508,0.0,0.0,0.0,0.0,0.0,0.0,-0.112,0.0,0.0,0.0
119,0.0,0.0,0.0,-0.237044921875,0.0,0.0,0.0,0.0,0.0,0.0,-0.268,0.0,0.0,0.0,0.0,0.0,-1.61,-0.24783634436856933,0.0,0.0,0.0,0.0,0.0,0.0,0.432,0.0,0.0,0.0
120,0.0,0.0,0.0,-0.2400859375,0.0,0.0,0.0,0.0,0.0,0.0,-0.301,0.0,0.0,0.0,0.0,0.0,-1.61,-0.2508807397796048,0.0,0.0,0.0,0.0,0.0,0.0,1.62,0.0,0.0,0.0
121,0.0,0.0,0.0,-0.2425498046875,0.0,0.0,0.0,0.0,0.0,0.0,-0.28,0.0,0.0,0.0,0.0,0.0,-1.61,-0.2533473984761687,0.0,0.0,0.0,0.0,0.0,0.0,1.324,0.0,0.0,0.0
122,0.0,0.0,0.0,-0.2454462890625,0.0,0.0,0.0,0.0,0.0,0.0,-0.269,0.0,0.0,0.0,0.0,0.0,-1.61,-0.2562455138195372,0.0,0.0,0.0,0.0,0.0,0.0,0.18,0.0,0.0,0.0
123,0.0,0.0,0.0,-0.248775390625,0.0,0.0,0.0,0.0,0.0,0.0,-0.311,0.0,0.0,0.0,0.0,0.0,-1.61,-0.2595750855047878,0.0,0.0,0.0,0.0,0.0,0.0,0.408,0.0,0.0,0.0
124,0.0,0.0,0.0,-0.2516728515625,0.0,0.0,0.0,0.0,0.0,0.0,-0.314,0.0,0.0,0.0,0.0,0.0,-1.61,-0.262473000066494,0.0,0.0,0.0,0.0,0.0,0.0,0.408,0.0,0.0,0.0
125,0.0,0.0,0.0,-0.254712890625,0.0,0.0,0.0,0.0,0.0,0.0,-0.295,0.0,0.0,0.0,0.0,0.0,-1.61,-0.2655120457012197,0.0,0.0,0.0,0.0,0.0,0.0,0.66,0.0,0.0,0.0
126,0.0,0.0,0.0,-0.2578984375,0.0,0.0,0.0,0.0,0.0,0.0,-0.32,0.0,0.0,0.0,0.0,0.0,-1.61,-0.26869515238745245,0.0,0.0,0.0,0.0,0.0,0.0,1.028,0.0,0.0,0.0
127,0.0,0.0,0.0,-0.260939453125,0.0,0.0,0.0,0.0,0.0,0.0,-0.306,0.0,0.0,0.0,0.0,0.0,-1.61,-0.2717339973127751,0.0,0.0,0.0,0.0,0.0,0.0,-0.044,0.0,0.0,0.0
128,0.0,0.0,0.0,-0.2638447265625,0.0,0.0,0.0,0.0,0.0,0.0,-0.302,0.0,0.0,0.0,0.0,0.0,-1.61,-0.2746356535409616,0.0,0.0,0.0,0.0,0.0,0.0,-0.16,0.0,0.0,0.0
129,0.0,0.0,0.0,-0.2668857421875,0.0,0.0,0.0,0.0,0.0,0.0,-0.303,0.0,0.0,0.0,0.0,0.0,-1.61,-0.27767217783892717,0.0,0.0,0.0,0.0,0.0,0.0,0.16,0.0,0.0,0.0
130,0.0,0.0,0.0,-0.26962890625,0.0,0.0,0.0,0.0,0.0,0.0,-0.291,0.0,0.0,0.0,0.0,0.0,-1.61,-0.2804102623329894,0.0,0.0,0.0,0.0,0.0,0.0,0.752,0.0,0.0,0.0
131,0.0,0.0,0.0,-0.272525390625,0.0,0.0,0.0,0.0,0.0,0.0,-0.282,0.0,0.0,0.0,0.0,0.0,-1.61,-0.2833002226184328,0.0,0.0,0.0,0.0,0.0,0.0,0.568,0.0,0.0,0.0
132,0.0,0.0,0.0,-0.2757109375,0.0,0.0,0.0,0.0,0.0,0.0,-0.309,0.0,0.0,0.0,0.0,0.0,-1.61,-0.2864789433918579,0.0,0.0,0.0,0.0,0.0,0.0,0.0,0.0,0.0,0.0
133,0.0,0.0,0.0,-0.278607421875,0.0,0.0,0.0,0.0,0.0,0.0,-0.312,0.0,0.0,0.0,0.0,0.0,-1.61,-0.28936715893286635,0.0,0.0,0.0,0.0,0.0,0.0,-0.044,0.0,0.0,0.0
134,0.0,0.0,0.0,-0.28121484375,0.0,0.0,0.0,0.0,0.0,0.0,-0.276,0.0,0.0,0.0,0.0,0.0,-1.61,-0.2919660103849584,0.0,0.0,0.0,0.0,0.0,0.0,0.0,0.0,0.0,0.0
135,0.0,0.0,0.0,-0.284400390625,0.0,0.0,0.0,0.0,0.0,0.0,-0.28,0.0,0.0,0.0,0.0,0.0,-1.61,-0.29514183075822936,0.0,0.0,0.0,0.0,0.0,0.0,-0.204,0.0,0.0,0.0
136,0.0,0.0,0.0,-0.28715234375,0.0,0.0,0.0,0.0,0.0,0.0,-0.309,0.0,0.0,0.0,0.0,0.0,-1.61,-0.29788318722635654,0.0,0.0,0.0,0.0,0.0,0.0,0.088,0.0,0.0,0.0
137,0.0,0.0,0.0,-0.2899140625,0.0,0.0,0.0,0.0,0.0,0.0,-0.274,0.0,0.0,0.0,0.0,0.0,-1.61,-0.30063344002276626,0.0,0.0,0.0,0.0,0.0,0.0,-0.708,0.0,0.0,0.0
138,0.0,0.0,0.0,-0.2929541015625,0.0,0.0,0.0,0.0,0.0,0.0,-0.294,0.0,0.0,0.0,0.0,0.0,-1.61,-0.30366142821554637,0.0,0.0,0.0,0.0,0.0,0.0,-0.568,0.0,0.0,0.0
139,0.0,0.0,0.0,-0.295841796875,0.0,0.0,0.0,0.0,0.0,0.0,-0.299,0.0,0.0,0.0,0.0,0.0,-1.61,-0.30653592111553224,0.0,0.0,0.0,0.0,0.0,0.0,0.16,0.0,0.0,0.0
140,0.0,0.0,0.0,-0.29873828125,0.0,0.0,0.0,0.0,0.0,0.0,-0.292,0.0,0.0,0.0,0.0,0.0,-1.61,-0.30941833670999863,0.0,0.0,0.0,0.0,0.0,0.0,0.456,0.0,0.0,0.0
141,0.0,0.0,0.0,-0.301634765625,0.0,0.0,0.0,0.0,0.0,0.0,-0.292,0.0,0.0,0.0,0.0,0.0,-1.61,-0.31229988707620593,0.0,0.0,0.0,0.0,0.0,0.0,1.212,0.0,0.0,0.0
142,0.0,0.0,0.0,-0.30438671875,0.0,0.0,0.0,0.0,0.0,0.0,-0.287,0.0,0.0,0.0,0.0,0.0,-1.61,-0.31503604217400993,0.0,0.0,0.0,0.0,0.0,0.0,1.232,0.0,0.0,0.0
143,0.0,0.0,0.0,-0.3072841796875,0.0,0.0,0.0,0.0,0.0,0.0,-0.282,0.0,0.0,0.0,0.0,0.0,-1.61,-0.3179171237625043,0.0,0.0,0.0,0.0,0.0,0.0,0.776,0.0,0.0,0.0
144,0.0,0.0,0.0,-0.31032421875,0.0,0.0,0.0,0.0,0.0,0.0,-0.298,0.0,0.0,0.0,0.0,0.0,-1.61,-0.32093935877817814,0.0,0.0,0.0,0.0,0.0,0.0,0.548,0.0,0.0,0.0
145,0.0,0.0,0.0,-0.313365234375,0.0,0.0,0.0,0.0,0.0,0.0,-0.309,0.0,0.0,0.0,0.0,0.0,-1.61,-0.3239622726994915,0.0,0.0,0.0,0.0,0.0,0.0,0.568,0.0,0.0,0.0
146,0.0,0.0,0.0,-0.3165595703125,0.0,0.0,0.0,0.0,0.0,0.0,-0.318,0.0,0.0,0.0,0.0,0.0,-1.61,-0.32713736696832896,0.0,0.0,0.0,0.0,0.0,0.0,0.776,0.0,0.0,0.0
147,0.0,0.0,0.0,-0.3196005859375,0.0,0.0,0.0,0.0,0.0,0.0,-0.312,0.0,0.0,0.0,0.0,0.0,-1.61,-0.33015828393534824,0.0,0.0,0.0,0.0,0.0,0.0,0.844,0.0,0.0,0.0
148,0.0,0.0,0.0,-0.32219921875,0.0,0.0,0.0,0.0,0.0,0.0,-0.291,0.0,0.0,0.0,0.0,0.0,-1.61,-0.33273596272889744,0.0,0.0,0.0,0.0,0.0,0.0,0.524,0.0,0.0,0.0
149,0.0,0.0,0.0,-0.325240234375,0.0,0.0,0.0,0.0,0.0,0.0,-0.282,0.0,0.0,0.0,0.0,0.0,-1.61,-0.3357554488944947,0.0,0.0,0.0,0.0,0.0,0.0,-0.408,0.0,0.0,0.0
150,0.0,0.0,0.0,-0.32828125,0.0,0.0,0.0,0.0,0.0,0.0,-0.309,0.0,0.0,0.0,0.0,0.0,-1.61,-0.3387735261063645,0.0,0.0,0.0,0.0,0.0,0.0,-0.136,0.0,0.0,0.0
151,0.0,0.0,0.0,-0.331033203125,0.0,0.0,0.0,0.0,0.0,0.0,-0.288,0.0,0.0,0.0,0.0,0.0,-1.61,-0.34150224654681816,0.0,0.0,0.0,0.0,0.0,0.0,0.32,0.0,0.0,0.0
152,0.0,0.0,0.0,-0.33378515625,0.0,0.0,0.0,0.0,0.0,0.0,-0.282,0.0,0.0,0.0,0.0,0.0,-1.61,-0.344229840541092,0.0,0.0,0.0,0.0,0.0,0.0,1.416,0.0,0.0,0.0
153,0.0,0.0,0.0,-0.336681640625,0.0,0.0,0.0,0.0,0.0,0.0,-0.278,0.0,0.0,0.0,0.0,0.0,-1.61,-0.3471011195356836,0.0,0.0,0.0,0.0,0.0,0.0,0.48,0.0,0.0,0.0
154,0.0,0.0,0.0,-0.33972265625,0.0,0.0,0.0,0.0,0.0,0.0,-0.301,0.0,0.0,0.0,0.0,0.0,-1.61,-0.3501163605138051,0.0,0.0,0.0,0.0,0.0,0.0,-0.228,0.0,0.0,0.0
155,0.0,0.0,0.0,-0.3423310546875,0.0,0.0,0.0,0.0,0.0,0.0,-0.294,0.0,0.0,0.0,0.0,0.0,-1.61,-0.3526975916020647,0.0,0.0,0.0,0.0,0.0,0.0,-0.5,0.0,0.0,0.0
156,0.0,0.0,0.0,-0.3452275390625,0.0,0.0,0.0,0.0,0.0,0.0,-0.272,0.0,0.0,0.0,0.0,0.0,-1.61,-0.35556634435196705,0.0,0.0,0.0,0.0,0.0,0.0,-0.524,0.0,0.0,0.0
157,0.0,0.0,0.0,-0.348412109375,0.0,0.0,0.0,0.0,0.0,0.0,-0.299,0.0,0.0,0.0,0.0,0.0,-1.61,-0.3587226180723661,0.0,0.0,0.0,0.0,0.0,0.0,-0.044,0.0,0.0,0.0
158,0.0,0.0,0.0,-0.3511650390625,0.0,0.0,0.0,0.0,0.0,0.0,-0.307,0.0,0.0,0.0,0.0,0.0,-1.61,-0.3614461415274096,0.0,0.0,0.0,0.0,0.0,0.0,0.64,0.0,0.0,0.0
159,0.0,0.0,0.0,-0.3534833984375,0.0,0.0,0.0,0.0,0.0,0.0,-0.254,0.0,0.0,0.0,0.0,0.0,-1.61,-0.3637342616298772,0.0,0.0,0.0,0.0,0.0,0.0,-0.068,0.0,0.0,0.0
160,0.0,0.0,0.0,-0.3563798828125,0.0,0.0,0.0,0.0,0.0,0.0,-0.256,0.0,0.0,0.0,0.0,0.0,-1.61,-0.36659967614244615,0.0,0.0,0.0,0.0,0.0,0.0,-0.708,0.0,0.0,0.0
161,0.0,0.0,0.0,-0.359267578125,0.0,0.0,0.0,0.0,0.0,0.0,-0.307,0.0,0.0,0.0,0.0,0.0,-1.61,-0.36945574293263816,0.0,0.0,0.0,0.0,0.0,0.0,-0.248,0.0,0.0,0.0
162,0.0,0.0,0.0,-0.361875,0.0,0.0,0.0,0.0,0.0,0.0,-0.269,0.0,0.0,0.0,0.0,0.0,-1.61,-0.3720304396296335,0.0,0.0,0.0,0.0,0.0,0.0,0.136,0.0,0.0,0.0
163,0.0,0.0,0.0,-0.364771484375,0.0,0.0,0.0,0.0,0.0,0.0,-0.276,0.0,0.0,0.0,0.0,0.0,-1.61,-0.3748931082895049,0.0,0.0,0.0,0.0,0.0,0.0,1.28,0.0,0.0,0.0
164,0.0,0.0,0.0,-0.36766796875,0.0,0.0,0.0,0.0,0.0,0.0,-0.294,0.0,0.0,0.0,0.0,0.0,-1.61,-0.37775549295815714,0.0,0.0,0.0,0.0,0.0,0.0,1.76,0.0,0.0,0.0
165,0.0,0.0,0.0,-0.3704296875,0.0,0.0,0.0,0.0,0.0,0.0,-0.288,0.0,0.0,0.0,0.0,0.0,-1.61,-0.3804822918401174,0.0,0.0,0.0,0.0,0.0,0.0,1.164,0.0,0.0,0.0
166,0.0,0.0,0.0,-0.3733173828125,0.0,0.0,0.0,0.0,0.0,0.0,-0.28,0.0,0.0,0.0,0.0,0.0,-1.61,-0.38333372022974554,0.0,0.0,0.0,0.0,0.0,0.0,0.0,0.0,0.0,0.0
167,0.0,0.0,0.0,-0.3762138671875,0.0,0.0,0.0,0.0,0.0,0.0,-0.295,0.0,0.0,0.0,0.0,0.0,-1.61,-0.3861936565877224,0.0,0.0,0.0,0.0,0.0,0.0,0.296,0.0,0.0,0.0
168,0.0,0.0,0.0,-0.3791103515625,0.0,0.0,0.0,0.0,0.0,0.0,-0.289,0.0,0.0,0.0,0.0,0.0,-1.61,-0.3890525184626187,0.0,0.0,0.0,0.0,0.0,0.0,0.32,0.0,0.0,0.0
169,0.0,0.0,0.0,-0.3821513671875,0.0,0.0,0.0,0.0,0.0,0.0,-0.3,0.0,0.0,0.0,0.0,0.0,-1.61,-0.3920548441387066,0.0,0.0,0.0,0.0,0.0,0.0,1.028,0.0,0.0,0.0
170,0.0,0.0,0.0,-0.3849033203125,0.0,0.0,0.0,0.0,0.0,0.0,-0.299,0.0,0.0,0.0,0.0,0.0,-1.61,-0.3947678293879106,0.0,0.0,0.0,0.0,0.0,0.0,0.752,0.0,0.0,0.0
171,0.0,0.0,0.0,-0.3877998046875,0.0,0.0,0.0,0.0,0.0,0.0,-0.281,0.0,0.0,0.0,0.0,0.0,-1.61,-0.3976242837028848,0.0,0.0,0.0,0.0,0.0,0.0,0.136,0.0,0.0,0.0
172,0.0,0.0,0.0,-0.39025390625,0.0,0.0,0.0,0.0,0.0,0.0,-0.272,0.0,0.0,0.0,0.0,0.0,-1.61,-0.40003781765336655,0.0,0.0,0.0,0.0,0.0,0.0,-0.112,0.0,0.0,0.0
173,0.0,0.0,0.0,-0.393150390625,0.0,0.0,0.0,0.0,0.0,0.0,-0.267,0.0,0.0,0.0,0.0,0.0,-1.61,-0.4028924233382558,0.0,0.0,0.0,0.0,0.0,0.0,-0.228,0.0,0.0,0.0
174,0.0,0.0,0.0,-0.39590234375,0.0,0.0,0.0,0.0,0.0,0.0,-0.287,0.0,0.0,0.0,0.0,0.0,-1.61,-0.40560196799398385,0.0,0.0,0.0,0.0,0.0,0.0,0.616,0.0,0.0,0.0
175,0.0,0.0,0.0,-0.3986640625,0.0,0.0,0.0,0.0,0.0,0.0,-0.272,0.0,0.0,0.0,0.0,0.0,-1.61,-0.4083207474395211,0.0,0.0,0.0,0.0,0.0,0.0,0.408,0.0,0.0,0.0
176,0.0,0.0,0.0,-0.401416015625,0.0,0.0,0.0,0.0,0.0,0.0,-0.287,0.0,0.0,0.0,0.0,0.0,-1.61,-0.41102897522672627,0.0,0.0,0.0,0.0,0.0,0.0,0.868,0.0,0.0,0.0
177,0.0,0.0,0.0,-0.4040146484375,0.0,0.0,0.0,0.0,0.0,0.0,-0.265,0.0,0.0,0.0,0.0,0.0,-1.61,-0.4135823417014095,0.0,0.0,0.0,0.0,0.0,0.0,-0.02,0.0,0.0,0.0
178,0.0,0.0,0.0,-0.4066220703125,0.0,0.0,0.0,0.0,0.0,0.0,-0.263,0.0,0.0,0.0,0.0,0.0,-1.61,-0.4161447354396902,0.0,0.0,0.0,0.0,0.0,0.0,-0.16,0.0,0.0,0.0
179,0.0,0.0,0.0,-0.4090859375,0.0,0.0,0.0,0.0,0.0,0.0,-0.254,0.0,0.0,0.0,0.0,0.0,-1.61,-0.41856229474432094,0.0,0.0,0.0,0.0,0.0,0.0,-0.248,0.0,0.0,0.0
180,0.0,0.0,0.0,-0.4115498046875,0.0,0.0,0.0,0.0,0.0,0.0,-0.25,0.0,0.0,0.0,0.0,0.0,-1.61,-0.4209788369590869,0.0,0.0,0.0,0.0,0.0,0.0,0.16,0.0,0.0,0.0
181,0.0,0.0,0.0,-0.4142919921875,0.0,0.0,0.0,0.0,0.0,0.0,-0.257,0.0,0.0,0.0,0.0,0.0,-1.61,-0.4236734347666733,0.0,0.0,0.0,0.0,0.0,0.0,-0.48,0.0,0.0,0.0
182,0.0,0.0,0.0,-0.416900390625,0.0,0.0,0.0,0.0,0.0,0.0,-0.275,0.0,0.0,0.0,0.0,0.0,-1.61,-0.42623298633877743,0.0,0.0,0.0,0.0,0.0,0.0,0.068,0.0,0.0,0.0
183,0.0,0.0,0.0,-0.4190751953125,0.0,0.0,0.0,0.0,0.0,0.0,-0.25,0.0,0.0,0.0,0.0,0.0,-1.61,-0.4283589273499759,0.0,0.0,0.0,0.0,0.0,0.0,0.0,0.0,0.0,0.0
184,0.0,0.0,0.0,-0.421818359375,0.0,0.0,0.0,0.0,0.0,0.0,-0.239,0.0,0.0,0.0,0.0,0.0,-1.61,-0.43105173581459244,0.0,0.0,0.0,0.0,0.0,0.0,-0.02,0.0,0.0,0.0
185,0.0,0.0,0.0,-0.42428125,0.0,0.0,0.0,0.0,0.0,0.0,-0.27,0.0,0.0,0.0,0.0,0.0,-1.61,-0.4334640115624698,0.0,0.0,0.0,0.0,0.0,0.0,0.616,0.0,0.0,0.0
186,0.0,0.0,0.0,-0.42675390625,0.0,0.0,0.0,0.0,0.0,0.0,-0.242,0.0,0.0,0.0,0.0,0.0,-1.61,-0.4358848223603482,0.0,0.0,0.0,0.0,0.0,0.0,0.844,0.0,0.0,0.0
187,0.0,0.0,0.0,-0.429216796875,0.0,0.0,0.0,0.0,0.0,0.0,-0.249,0.0,0.0,0.0,0.0,0.0,-1.61,-0.4382956111311403,0.0,0.0,0.0,0.0,0.0,0.0,1.052,0.0,0.0,0.0
188,0.0,0.0,0.0,-0.431671875,0.0,0.0,0.0,0.0,0.0,0.0,-0.246,0.0,0.0,0.0,0.0,0.0,-1.61,-0.44069760907649774,0.0,0.0,0.0,0.0,0.0,0.0,0.96,0.0,0.0,0.0
189,0.0,0.0,0.0,-0.434568359375,0.0,0.0,0.0,0.0,0.0,0.0,-0.268,0.0,0.0,0.0,0.0,0.0,-1.61,-0.4435407555256898,0.0,0.0,0.0,0.0,0.0,0.0,0.5,0.0,0.0,0.0
190,0.0,0.0,0.0,-0.43717578125,0.0,0.0,0.0,0.0,0.0,0.0,-0.28,0.0,0.0,0.0,0.0,0.0,-1.61,-0.44609316187298054,0.0,0.0,0.0,0.0,0.0,0.0,0.776,0.0,0.0,0.0
191,0.0,0.0,0.0,-0.4396396484375,0.0,0.0,0.0,0.0,0.0,0.0,-0.25,0.0,0.0,0.0,0.0,0.0,-1.61,-0.4485017674379072,0.0,0.0,0.0,0.0,0.0,0.0,0.888,0.0,0.0,0.0
192,0.0,0.0,0.0,-0.4423828125,0.0,0.0,0.0,0.0,0.0,0.0,-0.261,0.0,0.0,0.0,0.0,0.0,-1.61,-0.45118918408842934,0.0,0.0,0.0,0.0,0.0,0.0,0.388,0.0,0.0,0.0
193,0.0,0.0,0.0,-0.444990234375,0.0,0.0,0.0,0.0,0.0,0.0,-0.281,0.0,0.0,0.0,0.0,0.0,-1.61,-0.45373990934571135,0.0,0.0,0.0,0.0,0.0,0.0,0.432,0.0,0.0,0.0
194,0.0,0.0,0.0,-0.447453125,0.0,0.0,0.0,0.0,0.0,0.0,-0.254,0.0,0.0,0.0,0.0,0.0,-1.61,-0.4561451647481477,0.0,0.0,0.0,0.0,0.0,0.0,-0.136,0.0,0.0,0.0
195,0.0,0.0,0.0,-0.449908203125,0.0,0.0,0.0,0.0,0.0,0.0,-0.245,0.0,0.0,0.0,0.0,0.0,-1.61,-0.4585425914001221,0.0,0.0,0.0,0.0,0.0,0.0,-0.248,0.0,0.0,0.0
196,0.0,0.0,0.0,-0.45266015625,0.0,0.0,0.0,0.0,0.0,0.0,-0.261,0.0,0.0,0.0,0.0,0.0,-1.61,-0.46123550495931187,0.0,0.0,0.0,0.0,0.0,0.0,0.088,0.0,0.0,0.0
197,0.0,0.0,0.0,-0.4549794921875,0.0,0.0,0.0,0.0,0.0,0.0,-0.258,0.0,0.0,0.0,0.0,0.0,-1.61,-0.4634953357064264,0.0,0.0,0.0,0.0,0.0,0.0,0.64,0.0,0.0,0.0
198,0.0,0.0,0.0,-0.457009765625,0.0,0.0,0.0,0.0,0.0,0.0,-0.224,0.0,0.0,0.0,0.0,0.0,-1.61,-0.46546585997113826,0.0,0.0,0.0,0.0,0.0,0.0,1.052,0.0,0.0,0.0
199,0.0,0.0,0.0,-0.45918359375,0.0,0.0,0.0,0.0,0.0,0.0,-0.21,0.0,0.0,0.0,0.0,0.0,-1.61,-0.46757835784371554,0.0,0.0,0.0,0.0,0.0,0.0,0.728,0.0,0.0,0.0
200,0.0,0.0,0.0,-0.4616474609375,0.0,0.0,0.0,0.0,0.0,0.0,-0.228,0.0,0.0,0.0,0.0,0.0,-1.61,-0.46998088367821045,0.0,0.0,0.0,0.0,0.0,0.0,-0.02,0.0,0.0,0.0
201,0.0,0.0,0.0,-0.4641015625,0.0,0.0,0.0,0.0,0.0,0.0,-0.254,0.0,0.0,0.0,0.0,0.0,-1.61,-0.4723727452883343,0.0,0.0,0.0,0.0,0.0,0.0,-0.248,0.0,0.0,0.0
202,0.0,0.0,0.0,-0.4664208984375,0.0,0.0,0.0,0.0,0.0,0.0,-0.245,0.0,0.0,0.0,0.0,0.0,-1.61,-0.47462917084127854,0.0,0.0,0.0,0.0,0.0,0.0,0.068,0.0,0.0,0.0
203,0.0,0.0,0.0,-0.4688837890625,0.0,0.0,0.0,0.0,0.0,0.0,-0.237,0.0,0.0,0.0,0.0,0.0,-1.61,-0.4770289154234583,0.0,0.0,0.0,0.0,0.0,0.0,0.64,0.0,0.0,0.0
204,0.0,0.0,0.0,-0.4711943359375,0.0,0.0,0.0,0.0,0.0,0.0,-0.237,0.0,0.0,0.0,0.0,0.0,-1.61,-0.47927479330717376,0.0,0.0,0.0,0.0,0.0,0.0,0.752,0.0,0.0,0.0
205,0.0,0.0,0.0,-0.473224609375,0.0,0.0,0.0,0.0,0.0,0.0,-0.224,0.0,0.0,0.0,0.0,0.0,-1.61,-0.4812403872404908,0.0,0.0,0.0,0.0,0.0,0.0,0.388,0.0,0.0,0.0
206,0.0,0.0,0.0,-0.47524609375,0.0,0.0,0.0,0.0,0.0,0.0,-0.208,0.0,0.0,0.0,0.0,0.0,-1.61,-0.483196327509625,0.0,0.0,0.0,0.0,0.0,0.0,-0.388,0.0,0.0,0.0
207,0.0,0.0,0.0,-0.4772763671875,0.0,0.0,0.0,0.0,0.0,0.0,-0.203,0.0,0.0,0.0,0.0,0.0,-1.61,-0.4851604123899168,0.0,0.0,0.0,0.0,0.0,0.0,-0.844,0.0,0.0,0.0
208,0.0,0.0,0.0,-0.4795947265625,0.0,0.0,0.0,0.0,0.0,0.0,-0.216,0.0,0.0,0.0,0.0,0.0,-1.61,-0.4874119441216558,0.0,0.0,0.0,0.0,0.0,0.0,-0.364,0.0,0.0,0.0
209,0.0,0.0,0.0,-0.4817607421875,0.0,0.0,0.0,0.0,0.0,0.0,-0.223,0.0,0.0,0.0,0.0,0.0,-1.61,-0.4895107027565191,0.0,0.0,0.0,0.0,0.0,0.0,0.088,0.0,0.0,0.0
210,0.0,0.0,0.0,-0.483791015625,0.0,0.0,0.0,0.0,0.0,0.0,-0.213,0.0,0.0,0.0,0.0,0.0,-1.61,-0.4914728830585637,0.0,0.0,0.0,0.0,0.0,0.0,0.272,0.0,0.0,0.0
211,0.0,0.0,0.0,-0.48566796875,0.0,0.0,0.0,0.0,0.0,0.0,-0.199,0.0,0.0,0.0,0.0,0.0,-1.61,-0.4932809196348609,0.0,0.0,0.0,0.0,0.0,0.0,0.248,0.0,0.0,0.0
212,0.0,0.0,0.0,-0.4875625,0.0,0.0,0.0,0.0,0.0,0.0,-0.192,0.0,0.0,0.0,0.0,0.0,-1.61,-0.49510651922488913,0.0,0.0,0.0,0.0,0.0,0.0,0.364,0.0,0.0,0.0
213,0.0,0.0,0.0,-0.489439453125,0.0,0.0,0.0,0.0,0.0,0.0,-0.191,0.0,0.0,0.0,0.0,0.0,-1.61,-0.49691332710183506,0.0,0.0,0.0,0.0,0.0,0.0,0.548,0.0,0.0,0.0
214,0.0,0.0,0.0,-0.4916142578125,0.0,0.0,0.0,0.0,0.0,0.0,-0.204,0.0,0.0,0.0,0.0,0.0,-1.61,-0.4990177764571766,0.0,0.0,0.0,0.0,0.0,0.0,0.64,0.0,0.0,0.0
215,0.0,0.0,0.0,-0.4937890625,0.0,0.0,0.0,0.0,0.0,0.0,-0.221,0.0,0.0,0.0,0.0,0.0,-1.61,-0.5011214267758992,0.0,0.0,0.0,0.0,0.0,0.0,1.372,0.0,0.0,0.0
216,0.0,0.0,0.0,-0.495666015625,0.0,0.0,0.0,0.0,0.0,0.0,-0.202,0.0,0.0,0.0,0.0,0.0,-1.61,-0.5029266311027404,0.0,0.0,0.0,0.0,0.0,0.0,1.3,0.0,0.0,0.0
217,0.0,0.0,0.0,-0.497984375,0.0,0.0,0.0,0.0,0.0,0.0,-0.204,0.0,0.0,0.0,0.0,0.0,-1.61,-0.5051726530668221,0.0,0.0,0.0,0.0,0.0,0.0,0.684,0.0,0.0,0.0
218,0.0,0.0,0.0,-0.499861328125,0.0,0.0,0.0,0.0,0.0,0.0,-0.22,0.0,0.0,0.0,0.0,0.0,-1.61,-0.5069766860324854,0.0,0.0,0.0,0.0,0.0,0.0,0.776,0.0,0.0,0.0
219,0.0,0.0,0.0,-0.5017470703125,0.0,0.0,0.0,0.0,0.0,0.0,-0.19,0.0,0.0,0.0,0.0,0.0,-1.61,-0.5087889312238141,0.0,0.0,0.0,0.0,0.0,0.0,0.568,0.0,0.0,0.0
220,0.0,0.0,0.0,-0.5036240234375,0.0,0.0,0.0,0.0,0.0,0.0,-0.189,0.0,0.0,0.0,0.0,0.0,-1.61,-0.5105918164741553,0.0,0.0,0.0,0.0,0.0,0.0,0.432,0.0,0.0,0.0
221,0.0,0.0,0.0,-0.505943359375,0.0,0.0,0.0,0.0,0.0,0.0,-0.211,0.0,0.0,0.0,0.0,0.0,-1.61,-0.5128365196631374,0.0,0.0,0.0,0.0,0.0,0.0,0.228,0.0,0.0,0.0
222,0.0,0.0,0.0,-0.50796484375,0.0,0.0,0.0,0.0,0.0,0.0,-0.227,0.0,0.0,0.0,0.0,0.0,-1.61,-0.5147829920024507,0.0,0.0,0.0,0.0,0.0,0.0,0.776,0.0,0.0,0.0
223,0.0,0.0,0.0,-0.5097060546875,0.0,0.0,0.0,0.0,0.0,0.0,-0.187,0.0,0.0,0.0,0.0,0.0,-1.61,-0.516448454614353,0.0,0.0,0.0,0.0,0.0,0.0,0.844,0.0,0.0,0.0
224,0.0,0.0,0.0,-0.5112939453125,0.0,0.0,0.0,0.0,0.0,0.0,-0.164,0.0,0.0,0.0,0.0,0.0,-1.61,-0.5179602257792404,0.0,0.0,0.0,0.0,0.0,0.0,0.752,0.0,0.0,0.0
225,0.0,0.0,0.0,-0.5130361328125,0.0,0.0,0.0,0.0,0.0,0.0,-0.167,0.0,0.0,0.0,0.0,0.0,-1.61,-0.5196252268867644,0.0,0.0,0.0,0.0,0.0,0.0,-0.088,0.0,0.0,0.0
226,0.0,0.0,0.0,-0.514912109375,0.0,0.0,0.0,0.0,0.0,0.0,-0.191,0.0,0.0,0.0,0.0,0.0,-1.61,-0.5214241807273209,0.0,0.0,0.0,0.0,0.0,0.0,-0.02,0.0,0.0,0.0
227,0.0,0.0,0.0,-0.516509765625,0.0,0.0,0.0,0.0,0.0,0.0,-0.175,0.0,0.0,0.0,0.0,0.0,-1.61,-0.5229439352788922,0.0,0.0,0.0,0.0,0.0,0.0,0.16,0.0,0.0,0.0
228,0.0,0.0,0.0,-0.51838671875,0.0,0.0,0.0,0.0,0.0,0.0,-0.171,0.0,0.0,0.0,0.0,0.0,-1.61,-0.5247422977912428,0.0,0.0,0.0,0.0,0.0,0.0,0.8,0.0,0.0,0.0
229,0.0,0.0,0.0,-0.52028125,0.0,0.0,0.0,0.0,0.0,0.0,-0.191,0.0,0.0,0.0,0.0,0.0,-1.61,-0.5265580597063886,0.0,0.0,0.0,0.0,0.0,0.0,1.324,0.0,0.0,0.0
230,0.0,0.0,0.0,-0.522013671875,0.0,0.0,0.0,0.0,0.0,0.0,-0.183,0.0,0.0,0.0,0.0,0.0,-1.61,-0.5282110340073647,0.0,0.0,0.0,0.0,0.0,0.0,1.052,0.0,0.0,0.0
231,0.0,0.0,0.0,-0.523611328125,0.0,0.0,0.0,0.0,0.0,0.0,-0.171,0.0,0.0,0.0,0.0,0.0,-1.61,-0.5297287402145325,0.0,0.0,0.0,0.0,0.0,0.0,0.592,0.0,0.0,0.0
232,0.0,0.0,0.0,-0.52519921875,0.0,0.0,0.0,0.0,0.0,0.0,-0.156,0.0,0.0,0.0,0.0,0.0,-1.61,-0.5312363435883228,0.0,0.0,0.0,0.0,0.0,0.0,0.0,0.0,0.0,0.0
233,0.0,0.0,0.0,-0.526787109375,0.0,0.0,0.0,0.0,0.0,0.0,-0.163,0.0,0.0,0.0,0.0,0.0,-1.61,-0.5327432944206766,0.0,0.0,0.0,0.0,0.0,0.0,0.272,0.0,0.0,0.0
234,0.0,0.0,0.0,-0.528529296875,0.0,0.0,0.0,0.0,0.0,0.0,-0.165,0.0,0.0,0.0,0.0,0.0,-1.61,-0.5344039047212173,0.0,0.0,0.0,0.0,0.0,0.0,-0.068,0.0,0.0,0.0
235,0.0,0.0,0.0,-0.5301171875,0.0,0.0,0.0,0.0,0.0,0.0,-0.175,0.0,0.0,0.0,0.0,0.0,-1.61,-0.5359100529162536,0.0,0.0,0.0,0.0,0.0,0.0,0.64,0.0,0.0,0.0
236,0.0,0.0,0.0,-0.53113671875,0.0,0.0,0.0,0.0,0.0,0.0,-0.134,0.0,0.0,0.0,0.0,0.0,-1.61,-0.5368472154095829,0.0,0.0,0.0,0.0,0.0,0.0,0.32,0.0,0.0,0.0
237,0.0,0.0,0.0,-0.532724609375,0.0,0.0,0.0,0.0,0.0,0.0,-0.132,0.0,0.0,0.0,0.0,0.0,-1.61,-0.5383524221640996,0.0,0.0,0.0,0.0,0.0,0.0,-0.228,0.0,0.0,0.0
238,0.0,0.0,0.0,-0.5340244140625,0.0,0.0,0.0,0.0,0.0,0.0,-0.144,0.0,0.0,0.0,0.0,0.0,-1.61,-0.5395686429614502,0.0,0.0,0.0,0.0,0.0,0.0,-0.432,0.0,0.0,0.0
239,0.0,0.0,0.0,-0.5353330078125,0.0,0.0,0.0,0.0,0.0,0.0,-0.128,0.0,0.0,0.0,0.0,0.0,-1.61,-0.5407940774013464,0.0,0.0,0.0,0.0,0.0,0.0,-0.364,0.0,0.0,0.0
240,0.0,0.0,0.0,-0.5364873046875,0.0,0.0,0.0,0.0,0.0,0.0,-0.128,0.0,0.0,0.0,0.0,0.0,-1.61,-0.5418637567693712,0.0,0.0,0.0,0.0,0.0,0.0,-0.068,0.0,0.0,0.0
241,0.0,0.0,0.0,-0.537787109375,0.0,0.0,0.0,0.0,0.0,0.0,-0.125,0.0,0.0,0.0,0.0,0.0,-1.61,-0.5430790840884896,0.0,0.0,0.0,0.0,0.0,0.0,0.136,0.0,0.0,0.0
242,0.0,0.0,0.0,-0.538806640625,0.0,0.0,0.0,0.0,0.0,0.0,-0.122,0.0,0.0,0.0,0.0,0.0,-1.61,-0.5440135653916196,0.0,0.0,0.0,0.0,0.0,0.0,0.272,0.0,0.0,0.0
243,0.0,0.0,0.0,-0.5398173828125,0.0,0.0,0.0,0.0,0.0,0.0,-0.102,0.0,0.0,0.0,0.0,0.0,-1.61,-0.5449389698854094,0.0,0.0,0.0,0.0,0.0,0.0,-0.32,0.0,0.0,0.0
244,0.0,0.0,0.0,-0.54068359375,0.0,0.0,0.0,0.0,0.0,0.0,-0.097,0.0,0.0,0.0,0.0,0.0,-1.61,-0.5457191566410929,0.0,0.0,0.0,0.0,0.0,0.0,-0.728,0.0,0.0,0.0
245,0.0,0.0,0.0,-0.5418388671875,0.0,0.0,0.0,0.0,0.0,0.0,-0.098,0.0,0.0,0.0,0.0,0.0,-1.61,-0.5467881343136135,0.0,0.0,0.0,0.0,0.0,0.0,-0.568,0.0,0.0,0.0
246,0.0,0.0,0.0,-0.5425693359375,0.0,0.0,0.0,0.0,0.0,0.0,-0.098,0.0,0.0,0.0,0.0,0.0,-1.61,-0.5474320335739365,0.0,0.0,0.0,0.0,0.0,0.0,0.0,0.0,0.0,0.0
247,0.0,0.0,0.0,-0.543435546875,0.0,0.0,0.0,0.0,0.0,0.0,-0.079,0.0,0.0,0.0,0.0,0.0,-1.61,-0.5482111485173521,0.0,0.0,0.0,0.0,0.0,0.0,0.112,0.0,0.0,0.0
248,0.0,0.0,0.0,-0.5443017578125,0.0,0.0,0.0,0.0,0.0,0.0,-0.086,0.0,0.0,0.0,0.0,0.0,-1.61,-0.5489898762037311,0.0,0.0,0.0,0.0,0.0,0.0,0.112,0.0,0.0,0.0
249,0.0,0.0,0.0,-0.5450234375,0.0,0.0,0.0,0.0,0.0,0.0,-0.08,0.0,0.0,0.0,0.0,0.0,-1.61,-0.5496238131072078,0.0,0.0,0.0,0.0,0.0,0.0,-0.204,0.0,0.0,0.0
250,0.0,0.0,0.0,-0.54574609375,0.0,0.0,0.0,0.0,0.0,0.0,-0.078,0.0,0.0,0.0,0.0,0.0,-1.61,-0.5502581099340007,0.0,0.0,0.0,0.0,0.0,0.0,-0.408,0.0,0.0,0.0
251,0.0,0.0,0.0,-0.5464765625,0.0,0.0,0.0,0.0,0.0,0.0,-0.081,0.0,0.0,0.0,0.0,0.0,-1.61,-0.5508999763393939,0.0,0.0,0.0,0.0,0.0,0.0,-0.296,0.0,0.0,0.0
252,0.0,0.0,0.0,-0.5473427734375,0.0,0.0,0.0,0.0,0.0,0.0,-0.072,0.0,0.0,0.0,0.0,0.0,-1.61,-0.5516773398127421,0.0,0.0,0.0,0.0,0.0,0.0,0.136,0.0,0.0,0.0
253,0.0,0.0,0.0,-0.547919921875,0.0,0.0,0.0,0.0,0.0,0.0,-0.076,0.0,0.0,0.0,0.0,0.0,-1.61,-0.5521651709852861,0.0,0.0,0.0,0.0,0.0,0.0,0.568,0.0,0.0,0.0
254,0.0,0.0,0.0,-0.548498046875,0.0,0.0,0.0,0.0,0.0,0.0,-0.058,0.0,0.0,0.0,0.0,0.0,-1.61,-0.5526536344517392,0.0,0.0,0.0,0.0,0.0,0.0,0.548,0.0,0.0,0.0
255,0.0,0.0,0.0,-0.5490751953125,0.0,0.0,0.0,0.0,0.0,0.0,-0.054,0.0,0.0,0.0,0.0,0.0,-1.61,-0.5531407843582067,0.0,0.0,0.0,0.0,0.0,0.0,0.272,0.0,0.0,0.0
256,0.0,0.0,0.0,-0.54965234375,0.0,0.0,0.0,0.0,0.0,0.0,-0.057,0.0,0.0,0.0,0.0,0.0,-1.61,-0.5536276045656208,0.0,0.0,0.0,0.0,0.0,0.0,0.068,0.0,0.0,0.0
257,0.0,0.0,0.0,-0.5503837890625,0.0,0.0,0.0,0.0,0.0,0.0,-0.062,0.0,0.0,0.0,0.0,0.0,-1.61,-0.5542685009176908,0.0,0.0,0.0,0.0,0.0,0.0,0.136,0.0,0.0,0.0
258,0.0,0.0,0.0,-0.55110546875,0.0,0.0,0.0,0.0,0.0,0.0,-0.077,0.0,0.0,0.0,0.0,0.0,-1.61,-0.554899210153687,0.0,0.0,0.0,0.0,0.0,0.0,0.64,0.0,0.0,0.0
259,0.0,0.0,0.0,-0.5516826171875,0.0,0.0,0.0,0.0,0.0,0.0,-0.067,0.0,0.0,0.0,0.0,0.0,-1.61,-0.5553850804698321,0.0,0.0,0.0,0.0,0.0,0.0,1.12,0.0,0.0,0.0
260,0.0,0.0,0.0,-0.5521162109375,0.0,0.0,0.0,0.0,0.0,0.0,-0.058,0.0,0.0,0.0,0.0,0.0,-1.61,-0.5557270958312186,0.0,0.0,0.0,0.0,0.0,0.0,1.14,0.0,0.0,0.0
261,0.0,0.0,0.0,-0.552837890625,0.0,0.0,0.0,0.0,0.0,0.0,-0.055,0.0,0.0,0.0,0.0,0.0,-1.61,-0.5563569042897925,0.0,0.0,0.0,0.0,0.0,0.0,0.82,0.0,0.0,0.0
262,0.0,0.0,0.0,-0.5534150390625,0.0,0.0,0.0,0.0,0.0,0.0,-0.067,0.0,0.0,0.0,0.0,0.0,-1.61,-0.5568419856111376,0.0,0.0,0.0,0.0,0.0,0.0,0.64,0.0,0.0,0.0
263,0.0,0.0,0.0,-0.554001953125,0.0,0.0,0.0,0.0,0.0,0.0,-0.06,0.0,0.0,0.0,0.0,0.0,-1.61,-0.5573363731861407,0.0,0.0,0.0,0.0,0.0,0.0,0.548,0.0,0.0,0.0
264,0.0,0.0,0.0,-0.5547333984375,0.0,0.0,0.0,0.0,0.0,0.0,-0.067,0.0,0.0,0.0,0.0,0.0,-1.61,-0.5579752827251845,0.0,0.0,0.0,0.0,0.0,0.0,1.12,0.0,0.0,0.0
265,0.0,0.0,0.0,-0.555310546875,0.0,0.0,0.0,0.0,0.0,0.0,-0.063,0.0,0.0,0.0,0.0,0.0,-1.61,-0.5584593713131313,0.0,0.0,0.0,0.0,0.0,0.0,1.484,0.0,0.0,0.0
266,0.0,0.0,0.0,-0.555599609375,0.0,0.0,0.0,0.0,0.0,0.0,-0.048,0.0,0.0,0.0,0.0,0.0,-1.61,-0.558655205634073,0.0,0.0,0.0,0.0,0.0,0.0,1.692,0.0,0.0,0.0
267,0.0,0.0,0.0,-0.5558876953125,0.0,0.0,0.0,0.0,0.0,0.0,-0.035,0.0,0.0,0.0,0.0,0.0,-1.61,-0.558849815572612,0.0,0.0,0.0,0.0,0.0,0.0,1.28,0.0,0.0,0.0
268,0.0,0.0,0.0,-0.5563212890625,0.0,0.0,0.0,0.0,0.0,0.0,-0.032,0.0,0.0,0.0,0.0,0.0,-1.61,-0.5591897677803137,0.0,0.0,0.0,0.0,0.0,0.0,0.8,0.0,0.0,0.0
269,0.0,0.0,0.0,-0.55675390625,0.0,0.0,0.0,0.0,0.0,0.0,-0.044,0.0,0.0,0.0,0.0,0.0,-1.61,-0.5595283589067226,0.0,0.0,0.0,0.0,0.0,0.0,0.82,0.0,0.0,0.0
270,0.0,0.0,0.0,-0.5571875,0.0,0.0,0.0,0.0,0.0,0.0,-0.048,0.0,0.0,0.0,0.0,0.0,-1.61,-0.5598678484659501,0.0,0.0,0.0,0.0,0.0,0.0,1.46,0.0,0.0,0.0
271,0.0,0.0,0.0,-0.5574755859375,0.0,0.0,0.0,0.0,0.0,0.0,-0.036,0.0,0.0,0.0,0.0,0.0,-1.61,-0.5600615381198928,0.0,0.0,0.0,0.0,0.0,0.0,1.804,0.0,0.0,0.0
272,0.0,0.0,0.0,-0.55791796875,0.0,0.0,0.0,0.0,0.0,0.0,-0.04,0.0,0.0,0.0,0.0,0.0,-1.61,-0.5604093149076605,0.0,0.0,0.0,0.0,0.0,0.0,1.828,0.0,0.0,0.0
273,0.0,0.0,0.0,-0.55820703125,0.0,0.0,0.0,0.0,0.0,0.0,-0.036,0.0,0.0,0.0,0.0,0.0,-1.61,-0.5606035693150495,0.0,0.0,0.0,0.0,0.0,0.0,1.392,0.0,0.0,0.0
274,0.0,0.0,0.0,-0.5583515625,0.0,0.0,0.0,0.0,0.0,0.0,-0.022,0.0,0.0,0.0,0.0,0.0,-1.61,-0.5606530980942466,0.0,0.0,0.0,0.0,0.0,0.0,1.188,0.0,0.0,0.0
275,0.0,0.0,0.0,-0.55849609375,0.0,0.0,0.0,0.0,0.0,0.0,-0.017,0.0,0.0,0.0,0.0,0.0,-1.61,-0.5607024973482203,0.0,0.0,0.0,0.0,0.0,0.0,1.004,0.0,0.0,0.0
276,0.0,0.0,0.0,-0.5587841796875,0.0,0.0,0.0,0.0,0.0,0.0,-0.026,0.0,0.0,0.0,0.0,0.0,-1.61,-0.5608952101359564,0.0,0.0,0.0,0.0,0.0,0.0,1.484,0.0,0.0,0.0
277,0.0,0.0,0.0,-0.5589287109375,0.0,0.0,0.0,0.0,0.0,0.0,-0.023,0.0,0.0,0.0,0.0,0.0,-1.61,-0.5609441970058607,0.0,0.0,0.0,0.0,0.0,0.0,1.668,0.0,0.0,0.0
278,0.0,0.0,0.0,-0.5590732421875,0.0,0.0,0.0,0.0,0.0,0.0,-0.009,0.0,0.0,0.0,0.0,0.0,-1.61,-0.5609929708420256,0.0,0.0,0.0,0.0,0.0,0.0,1.532,0.0,0.0,0.0
279,0.0,0.0,0.0,-0.5589287109375,0.0,0.0,0.0,0.0,0.0,0.0,-0.009,0.0,0.0,0.0,0.0,0.0,-1.61,-0.5607526751204174,0.0,0.0,0.0,0.0,0.0,0.0,1.28,0.0,0.0,0.0
280,0.0,0.0,0.0,-0.5589287109375,0.0,0.0,0.0,0.0,0.0,0.0,0.01,0.0,0.0,0.0,0.0,0.0,-1.61,-0.5606566140474055,0.0,0.0,0.0,0.0,0.0,0.0,1.188,0.0,0.0,0.0
281,0.0,0.0,0.0,-0.5589287109375,0.0,0.0,0.0,0.0,0.0,0.0,-0.001,0.0,0.0,0.0,0.0,0.0,-1.61,-0.5605605042962761,0.0,0.0,0.0,0.0,0.0,0.0,1.028,0.0,0.0,0.0
282,0.0,0.0,0.0,-0.5589287109375,0.0,0.0,0.0,0.0,0.0,0.0,-0.001,0.0,0.0,0.0,0.0,0.0,-1.61,-0.5604641757942493,0.0,0.0,0.0,0.0,0.0,0.0,0.98,0.0,0.0,0.0
283,0.0,0.0,0.0,-0.5589287109375,0.0,0.0,0.0,0.0,0.0,0.0,-0.001,0.0,0.0,0.0,0.0,0.0,-1.61,-0.5603678408536629,0.0,0.0,0.0,0.0,0.0,0.0,1.212,0.0,0.0,0.0
284,0.0,0.0,0.0,-0.5589287109375,0.0,0.0,0.0,0.0,0.0,0.0,-0.001,0.0,0.0,0.0,0.0,0.0,-1.61,-0.560271271062924,0.0,0.0,0.0,0.0,0.0,0.0,1.324,0.0,0.0,0.0
285,0.0,0.0,0.0,-0.5589287109375,0.0,0.0,0.0,0.0,0.0,0.0,-0.001,0.0,0.0,0.0,0.0,0.0,-1.61,-0.5601746317404649,0.0,0.0,0.0,0.0,0.0,0.0,1.188,0.0,0.0,0.0
286,0.0,0.0,0.0,-0.5587841796875,0.0,0.0,0.0,0.0,0.0,0.0,-0.001,0.0,0.0,0.0,0.0,0.0,-1.61,-0.5599333601032727,0.0,0.0,0.0,0.0,0.0,0.0,0.868,0.0,0.0,0.0
287,0.0,0.0,0.0,-0.5587841796875,0.0,0.0,0.0,0.0,0.0,0.0,0.01,0.0,0.0,0.0,0.0,0.0,-1.61,-0.5598365530736534,0.0,0.0,0.0,0.0,0.0,0.0,0.912,0.0,0.0,0.0
288,0.0,0.0,0.0,-0.5587841796875,0.0,0.0,0.0,0.0,0.0,0.0,0.001,0.0,0.0,0.0,0.0,0.0,-1.61,-0.5597396049645343,0.0,0.0,0.0,0.0,0.0,0.0,0.8,0.0,0.0,0.0
289,0.0,0.0,0.0,-0.5587841796875,0.0,0.0,0.0,0.0,0.0,0.0,-0.001,0.0,0.0,0.0,0.0,0.0,-1.61,-0.5596426728130955,0.0,0.0,0.0,0.0,0.0,0.0,0.82,0.0,0.0,0.0
290,0.0,0.0,0.0,-0.5589287109375,0.0,0.0,0.0,0.0,0.0,0.0,-0.011,0.0,0.0,0.0,0.0,0.0,-1.61,-0.5596900659301248,0.0,0.0,0.0,0.0,0.0,0.0,0.888,0.0,0.0,0.0
291,0.0,0.0,0.0,-0.5589287109375,0.0,0.0,0.0,0.0,0.0,0.0,-0.005,0.0,0.0,0.0,0.0,0.0,-1.61,-0.5595929706577835,0.0,0.0,0.0,0.0,0.0,0.0,0.96,0.0,0.0,0.0
292,0.0,0.0,0.0,-0.5589287109375,0.0,0.0,0.0,0.0,0.0,0.0,-0.001,0.0,0.0,0.0,0.0,0.0,-1.61,-0.5594957648943742,0.0,0.0,0.0,0.0,0.0,0.0,0.936,0.0,0.0,0.0
293,0.0,0.0,0.0,-0.5587841796875,0.0,0.0,0.0,0.0,0.0,0.0,0.01,0.0,0.0,0.0,0.0,0.0,-1.61,-0.559254011899582,0.0,0.0,0.0,0.0,0.0,0.0,0.936,0.0,0.0,0.0
294,0.0,0.0,0.0,-0.5587841796875,0.0,0.0,0.0,0.0,0.0,0.0,0.003,0.0,0.0,0.0,0.0,0.0,-1.61,-0.5591567271684724,0.0,0.0,0.0,0.0,0.0,0.0,0.888,0.0,0.0,0.0
295,0.0,0.0,0.0,-0.5589287109375,0.0,0.0,0.0,0.0,0.0,0.0,-0.009,0.0,0.0,0.0,0.0,0.0,-1.61,-0.5592039631877904,0.0,0.0,0.0,0.0,0.0,0.0,0.936,0.0,0.0,0.0
296,0.0,0.0,0.0,-0.5589287109375,0.0,0.0,0.0,0.0,0.0,0.0,-0.008,0.0,0.0,0.0,0.0,0.0,-1.61,-0.5591066344778698,0.0,0.0,0.0,0.0,0.0,0.0,1.12,0.0,0.0,0.0
297,0.0,0.0,0.0,-0.5589287109375,0.0,0.0,0.0,0.0,0.0,0.0,-0.001,0.0,0.0,0.0,0.0,0.0,-1.61,-0.5590092913338863,0.0,0.0,0.0,0.0,0.0,0.0,1.004,0.0,0.0,0.0
298,0.0,0.0,0.0,-0.5589287109375,0.0,0.0,0.0,0.0,0.0,0.0,-0.001,0.0,0.0,0.0,0.0,0.0,-1.61,-0.5589119399204375,0.0,0.0,0.0,0.0,0.0,0.0,1.12,0.0,0.0,0.0
299,0.0,0.0,0.0,-0.5589287109375,0.0,0.0,0.0,0.0,0.0,0.0,-0.001,0.0,0.0,0.0,0.0,0.0,-1.61,-0.5588145907553813,0.0,0.0,0.0,0.0,0.0,0.0,1.12,0.0,0.0,0.0
300,0.0,0.0,0.0,-0.5589287109375,0.0,0.0,0.0,0.0,0.0,0.0,-0.001,0.0,0.0,0.0,0.0,0.0,-1.61,-0.5587172448072449,0.0,0.0,0.0,0.0,0.0,0.0,1.096,0.0,0.0,0.0
301,0.0,0.0,0.0,-0.5589287109375,0.0,0.0,0.0,0.0,0.0,0.0,-0.001,0.0,0.0,0.0,0.0,0.0,-1.61,-0.5586199177475987,0.0,0.0,0.0,0.0,0.0,0.0,1.14,0.0,0.0,0.0
302,0.0,0.0,0.0,-0.5589287109375,0.0,0.0,0.0,0.0,0.0,0.0,-0.001,0.0,0.0,0.0,0.0,0.0,-1.61,-0.5585226277768561,0.0,0.0,0.0,0.0,0.0,0.0,1.14,0.0,0.0,0.0
303,0.0,0.0,0.0,-0.5589287109375,0.0,0.0,0.0,0.0,0.0,0.0,-0.001,0.0,0.0,0.0,0.0,0.0,-1.61,-0.5584253346422582,0.0,0.0,0.0,0.0,0.0,0.0,1.14,0.0,0.0,0.0
304,0.0,0.0,0.0,-0.5589287109375,0.0,0.0,0.0,0.0,0.0,0.0,-0.001,0.0,0.0,0.0,0.0,0.0,-1.61,-0.5583281184553998,0.0,0.0,0.0,0.0,0.0,0.0,1.12,0.0,0.0,0.0
305,0.0,0.0,0.0,-0.5589287109375,0.0,0.0,0.0,0.0,0.0,0.0,-0.001,0.0,0.0,0.0,0.0,0.0,-1.61,-0.5582309389575358,0.0,0.0,0.0,0.0,0.0,0.0,1.072,0.0,0.0,0.0
306,0.0,0.0,0.0,-0.5589287109375,0.0,0.0,0.0,0.0,0.0,0.0,-0.001,0.0,0.0,0.0,0.0,0.0,-1.61,-0.5581337937439369,0.0,0.0,0.0,0.0,0.0,0.0,1.212,0.0,0.0,0.0
307,0.0,0.0,0.0,-0.5589287109375,0.0,0.0,0.0,0.0,0.0,0.0,-0.001,0.0,0.0,0.0,0.0,0.0,-1.61,-0.5580367302087713,0.0,0.0,0.0,0.0,0.0,0.0,1.028,0.0,0.0,0.0
308,0.0,0.0,0.0,-0.5589287109375,0.0,0.0,0.0,0.0,0.0,0.0,-0.001,0.0,0.0,0.0,0.0,0.0,-1.61,-0.5579397390432826,0.0,0.0,0.0,0.0,0.0,0.0,1.14,0.0,0.0,0.0
309,0.0,0.0,0.0,-0.5589287109375,0.0,0.0,0.0,0.0,0.0,0.0,-0.001,0.0,0.0,0.0,0.0,0.0,-1.61,-0.5578428281167204,0.0,0.0,0.0,0.0,0.0,0.0,1.028,0.0,0.0,0.0
310,0.0,0.0,0.0,-0.5589287109375,0.0,0.0,0.0,0.0,0.0,0.0,-0.001,0.0,0.0,0.0,0.0,0.0,-1.61,-0.5577460052918252,0.0,0.0,0.0,0.0,0.0,0.0,0.96,0.0,0.0,0.0
311,0.0,0.0,0.0,-0.5589287109375,0.0,0.0,0.0,0.0,0.0,0.0,-0.001,0.0,0.0,0.0,0.0,0.0,-1.61,-0.5576492432795802,0.0,0.0,0.0,0.0,0.0,0.0,1.052,0.0,0.0,0.0
312,0.0,0.0,0.0,-0.5589287109375,0.0,0.0,0.0,0.0,0.0,0.0,-0.001,0.0,0.0,0.0,0.0,0.0,-1.61,-0.557552615104789,0.0,0.0,0.0,0.0,0.0,0.0,1.052,0.0,0.0,0.0
313,0.0,0.0,0.0,-0.5589287109375,0.0,0.0,0.0,0.0,0.0,0.0,-0.001,0.0,0.0,0.0,0.0,0.0,-1.61,-0.5574560985836235,0.0,0.0,0.0,0.0,0.0,0.0,1.072,0.0,0.0,0.0
314,0.0,0.0,0.0,-0.5589287109375,0.0,0.0,0.0,0.0,0.0,0.0,-0.001,0.0,0.0,0.0,0.0,0.0,-1.61,-0.557359658743518,0.0,0.0,0.0,0.0,0.0,0.0,0.912,0.0,0.0,0.0
315,0.0,0.0,0.0,-0.5589287109375,0.0,0.0,0.0,0.0,0.0,0.0,-0.001,0.0,0.0,0.0,0.0,0.0,-1.61,-0.5572634292707505,0.0,0.0,0.0,0.0,0.0,0.0,1.096,0.0,0.0,0.0
316,0.0,0.0,0.0,-0.5589287109375,0.0,0.0,0.0,0.0,0.0,0.0,-0.001,0.0,0.0,0.0,0.0,0.0,-1.61,-0.557167294661658,0.0,0.0,0.0,0.0,0.0,0.0,1.052,0.0,0.0,0.0
317,0.0,0.0,0.0,-0.5589287109375,0.0,0.0,0.0,0.0,0.0,0.0,-0.001,0.0,0.0,0.0,0.0,0.0,-1.61,-0.5570713029703115,0.0,0.0,0.0,0.0,0.0,0.0,1.072,0.0,0.0,0.0
318,0.0,0.0,0.0,-0.5589287109375,0.0,0.0,0.0,0.0,0.0,0.0,-0.001,0.0,0.0,0.0,0.0,0.0,-1.61,-0.5569754090190148,0.0,0.0,0.0,0.0,0.0,0.0,1.096,0.0,0.0,0.0
319,0.0,0.0,0.0,-0.5589287109375,0.0,0.0,0.0,0.0,0.0,0.0,-0.001,0.0,0.0,0.0,0.0,0.0,-1.61,-0.5568797214557976,0.0,0.0,0.0,0.0,0.0,0.0,1.096,0.0,0.0,0.0
320,0.0,0.0,0.0,-0.5589287109375,0.0,0.0,0.0,0.0,0.0,0.0,-0.001,0.0,0.0,0.0,0.0,0.0,-1.61,-0.5567842581749117,0.0,0.0,0.0,0.0,0.0,0.0,1.12,0.0,0.0,0.0
321,0.0,0.0,0.0,-0.5589287109375,0.0,0.0,0.0,0.0,0.0,0.0,-0.001,0.0,0.0,0.0,0.0,0.0,-1.61,-0.5566887948364606,0.0,0.0,0.0,0.0,0.0,0.0,1.072,0.0,0.0,0.0
322,0.0,0.0,0.0,-0.5589287109375,0.0,0.0,0.0,0.0,0.0,0.0,-0.001,0.0,0.0,0.0,0.0,0.0,-1.61,-0.5565936873132072,0.0,0.0,0.0,0.0,0.0,0.0,1.12,0.0,0.0,0.0
323,0.0,0.0,0.0,-0.5589287109375,0.0,0.0,0.0,0.0,0.0,0.0,-0.001,0.0,0.0,0.0,0.0,0.0,-1.61,-0.5564987112363883,0.0,0.0,0.0,0.0,0.0,0.0,1.14,0.0,0.0,0.0
324,0.0,0.0,0.0,-0.5589287109375,0.0,0.0,0.0,0.0,0.0,0.0,-0.001,0.0,0.0,0.0,0.0,0.0,-1.61,-0.5564038642578205,0.0,0.0,0.0,0.0,0.0,0.0,1.14,0.0,0.0,0.0
325,0.0,0.0,0.0,-0.5589287109375,0.0,0.0,0.0,0.0,0.0,0.0,-0.001,0.0,0.0,0.0,0.0,0.0,-1.61,-0.5563092852221406,0.0,0.0,0.0,0.0,0.0,0.0,1.096,0.0,0.0,0.0
326,0.0,0.0,0.0,-0.5589287109375,0.0,0.0,0.0,0.0,0.0,0.0,-0.001,0.0,0.0,0.0,0.0,0.0,-1.61,-0.5562149187438544,0.0,0.0,0.0,0.0,0.0,0.0,1.164,0.0,0.0,0.0
327,0.0,0.0,0.0,-0.5589287109375,0.0,0.0,0.0,0.0,0.0,0.0,-0.001,0.0,0.0,0.0,0.0,0.0,-1.61,-0.5561207724804783,0.0,0.0,0.0,0.0,0.0,0.0,1.052,0.0,0.0,0.0
328,0.0,0.0,0.0,-0.5589287109375,0.0,0.0,0.0,0.0,0.0,0.0,-0.001,0.0,0.0,0.0,0.0,0.0,-1.61,-0.5560268540716568,0.0,0.0,0.0,0.0,0.0,0.0,1.212,0.0,0.0,0.0
329,0.0,0.0,0.0,-0.5589287109375,0.0,0.0,0.0,0.0,0.0,0.0,-0.001,0.0,0.0,0.0,0.0,0.0,-1.61,-0.5559331711385472,0.0,0.0,0.0,0.0,0.0,0.0,1.256,0.0,0.0,0.0
330,0.0,0.0,0.0,-0.5587841796875,0.0,0.0,0.0,0.0,0.0,0.0,0.01,0.0,0.0,0.0,0.0,0.0,-1.61,-0.555695117043019,0.0,0.0,0.0,0.0,0.0,0.0,1.12,0.0,0.0,0.0
331,0.0,0.0,0.0,-0.5587841796875,0.0,0.0,0.0,0.0,0.0,0.0,0.003,0.0,0.0,0.0,0.0,0.0,-1.61,-0.5556019229215904,0.0,0.0,0.0,0.0,0.0,0.0,1.212,0.0,0.0,0.0
332,0.0,0.0,0.0,-0.5587841796875,0.0,0.0,0.0,0.0,0.0,0.0,-0.001,0.0,0.0,0.0,0.0,0.0,-1.61,-0.5555089870430302,0.0,0.0,0.0,0.0,0.0,0.0,1.028,0.0,0.0,0.0
333,0.0,0.0,0.0,-0.5586396484375,0.0,0.0,0.0,0.0,0.0,0.0,0.003,0.0,0.0,0.0,0.0,0.0,-1.61,-0.5552717856991654,0.0,0.0,0.0,0.0,0.0,0.0,1.324,0.0,0.0,0.0
334,0.0,0.0,0.0,-0.55849609375,0.0,0.0,0.0,0.0,0.0,0.0,0.01,0.0,0.0,0.0,0.0,0.0,-1.61,-0.5550358342227532,0.0,0.0,0.0,0.0,0.0,0.0,1.392,0.0,0.0,0.0
335,0.0,0.0,0.0,-0.5583515625,0.0,0.0,0.0,0.0,0.0,0.0,0.01,0.0,0.0,0.0,0.0,0.0,-1.61,-0.5547991869868723,0.0,0.0,0.0,0.0,0.0,0.0,1.256,0.0,0.0,0.0
336,0.0,0.0,0.0,-0.55820703125,0.0,0.0,0.0,0.0,0.0,0.0,0.015,0.0,0.0,0.0,0.0,0.0,-1.61,-0.5545627303683911,0.0,0.0,0.0,0.0,0.0,0.0,1.3,0.0,0.0,0.0
337,0.0,0.0,0.0,-0.5580625,0.0,0.0,0.0,0.0,0.0,0.0,0.019,0.0,0.0,0.0,0.0,0.0,-1.61,-0.5543267623834495,0.0,0.0,0.0,0.0,0.0,0.0,1.324,0.0,0.0,0.0
338,0.0,0.0,0.0,-0.5577734375,0.0,0.0,0.0,0.0,0.0,0.0,0.019,0.0,0.0,0.0,0.0,0.0,-1.61,-0.5539463685824321,0.0,0.0,0.0,0.0,0.0,0.0,1.324,0.0,0.0,0.0
339,0.0,0.0,0.0,-0.5576201171875,0.0,0.0,0.0,0.0,0.0,0.0,0.024,0.0,0.0,0.0,0.0,0.0,-1.61,-0.5537019154318724,0.0,0.0,0.0,0.0,0.0,0.0,1.372,0.0,0.0,0.0
340,0.0,0.0,0.0,-0.55733203125,0.0,0.0,0.0,0.0,0.0,0.0,0.023,0.0,0.0,0.0,0.0,0.0,-1.61,-0.5533235366887813,0.0,0.0,0.0,0.0,0.0,0.0,1.552,0.0,0.0,0.0
341,0.0,0.0,0.0,-0.5568984375,0.0,0.0,0.0,0.0,0.0,0.0,0.034,0.0,0.0,0.0,0.0,0.0,-1.61,-0.5527994486143487,0.0,0.0,0.0,0.0,0.0,0.0,1.416,0.0,0.0,0.0
342,0.0,0.0,0.0,-0.556609375,0.0,0.0,0.0,0.0,0.0,0.0,0.032,0.0,0.0,0.0,0.0,0.0,-1.61,-0.5524204342459319,0.0,0.0,0.0,0.0,0.0,0.0,1.28,0.0,0.0,0.0
343,0.0,0.0,0.0,-0.5563212890625,0.0,0.0,0.0,0.0,0.0,0.0,0.029,0.0,0.0,0.0,0.0,0.0,-1.61,-0.552042850826006,0.0,0.0,0.0,0.0,0.0,0.0,1.324,0.0,0.0,0.0
344,0.0,0.0,0.0,-0.5558876953125,0.0,0.0,0.0,0.0,0.0,0.0,0.035,0.0,0.0,0.0,0.0,0.0,-1.61,-0.5515198803685457,0.0,0.0,0.0,0.0,0.0,0.0,1.392,0.0,0.0,0.0
345,0.0,0.0,0.0,-0.555455078125,0.0,0.0,0.0,0.0,0.0,0.0,0.042,0.0,0.0,0.0,0.0,0.0,-1.61,-0.5509984721296611,0.0,0.0,0.0,0.0,0.0,0.0,1.6,0.0,0.0,0.0
346,0.0,0.0,0.0,-0.554876953125,0.0,0.0,0.0,0.0,0.0,0.0,0.047,0.0,0.0,0.0,0.0,0.0,-1.61,-0.5503315604243699,0.0,0.0,0.0,0.0,0.0,0.0,1.484,0.0,0.0,0.0
347,0.0,0.0,0.0,-0.554435546875,0.0,0.0,0.0,0.0,0.0,0.0,0.053,0.0,0.0,0.0,0.0,0.0,-1.61,-0.5498020937202466,0.0,0.0,0.0,0.0,0.0,0.0,1.324,0.0,0.0,0.0
348,0.0,0.0,0.0,-0.553857421875,0.0,0.0,0.0,0.0,0.0,0.0,0.057,0.0,0.0,0.0,0.0,0.0,-1.61,-0.5491360390891106,0.0,0.0,0.0,0.0,0.0,0.0,1.372,0.0,0.0,0.0
349,0.0,0.0,0.0,-0.553126953125,0.0,0.0,0.0,0.0,0.0,0.0,0.063,0.0,0.0,0.0,0.0,0.0,-1.61,-0.5483182737856696,0.0,0.0,0.0,0.0,0.0,0.0,1.256,0.0,0.0,0.0
350,0.0,0.0,0.0,-0.552548828125,0.0,0.0,0.0,0.0,0.0,0.0,0.065,0.0,0.0,0.0,0.0,0.0,-1.61,-0.5476529880026302,0.0,0.0,0.0,0.0,0.0,0.0,1.212,0.0,0.0,0.0
351,0.0,0.0,0.0,-0.5519716796875,0.0,0.0,0.0,0.0,0.0,0.0,0.057,0.0,0.0,0.0,0.0,0.0,-1.61,-0.5469892022525793,0.0,0.0,0.0,0.0,0.0,0.0,1.164,0.0,0.0,0.0
352,0.0,0.0,0.0,-0.55139453125,0.0,0.0,0.0,0.0,0.0,0.0,0.058,0.0,0.0,0.0,0.0,0.0,-1.61,-0.5463258208990583,0.0,0.0,0.0,0.0,0.0,0.0,1.052,0.0,0.0,0.0
353,0.0,0.0,0.0,-0.5505283203125,0.0,0.0,0.0,0.0,0.0,0.0,0.066,0.0,0.0,0.0,0.0,0.0,-1.61,-0.5453737884410546,0.0,0.0,0.0,0.0,0.0,0.0,1.12,0.0,0.0,0.0
354,0.0,0.0,0.0,-0.549796875,0.0,0.0,0.0,0.0,0.0,0.0,0.081,0.0,0.0,0.0,0.0,0.0,-1.61,-0.5445568001725001,0.0,0.0,0.0,0.0,0.0,0.0,0.844,0.0,0.0,0.0
355,0.0,0.0,0.0,-0.5487861328125,0.0,0.0,0.0,0.0,0.0,0.0,0.089,0.0,0.0,0.0,0.0,0.0,-1.61,-0.5434612176718504,0.0,0.0,0.0,0.0,0.0,0.0,0.684,0.0,0.0,0.0
356,0.0,0.0,0.0,-0.5477763671875,0.0,0.0,0.0,0.0,0.0,0.0,0.099,0.0,0.0,0.0,0.0,0.0,-1.61,-0.5423667621100698,0.0,0.0,0.0,0.0,0.0,0.0,0.708,0.0,0.0,0.0
357,0.0,0.0,0.0,-0.5464765625,0.0,0.0,0.0,0.0,0.0,0.0,0.114,0.0,0.0,0.0,0.0,0.0,-1.61,-0.540982846369502,0.0,0.0,0.0,0.0,0.0,0.0,0.616,0.0,0.0,0.0
358,0.0,0.0,0.0,-0.5453125,0.0,0.0,0.0,0.0,0.0,0.0,0.119,0.0,0.0,0.0,0.0,0.0,-1.61,-0.5397351187306126,0.0,0.0,0.0,0.0,0.0,0.0,0.364,0.0,0.0,0.0
359,0.0,0.0,0.0,-0.5440126953125,0.0,0.0,0.0,0.0,0.0,0.0,0.123,0.0,0.0,0.0,0.0,0.0,-1.61,-0.5383521016093371,0.0,0.0,0.0,0.0,0.0,0.0,0.456,0.0,0.0,0.0
360,0.0,0.0,0.0,-0.5425693359375,0.0,0.0,0.0,0.0,0.0,0.0,0.133,0.0,0.0,0.0,0.0,0.0,-1.61,-0.5368258361803319,0.0,0.0,0.0,0.0,0.0,0.0,0.568,0.0,0.0,0.0
361,0.0,0.0,0.0,-0.5412607421875,0.0,0.0,0.0,0.0,0.0,0.0,0.137,0.0,0.0,0.0,0.0,0.0,-1.61,-0.5354351065402321,0.0,0.0,0.0,0.0,0.0,0.0,0.592,0.0,0.0,0.0
362,0.0,0.0,0.0,-0.5396728515625,0.0,0.0,0.0,0.0,0.0,0.0,0.14,0.0,0.0,0.0,0.0,0.0,-1.61,-0.5337652445751067,0.0,0.0,0.0,0.0,0.0,0.0,0.432,0.0,0.0,0.0
363,0.0,0.0,0.0,-0.538076171875,0.0,0.0,0.0,0.0,0.0,0.0,0.156,0.0,0.0,0.0,0.0,0.0,-1.61,-0.5320873857170398,0.0,0.0,0.0,0.0,0.0,0.0,0.456,0.0,0.0,0.0
364,0.0,0.0,0.0,-0.5366318359375,0.0,0.0,0.0,0.0,0.0,0.0,0.158,0.0,0.0,0.0,0.0,0.0,-1.61,-0.5305618780784233,0.0,0.0,0.0,0.0,0.0,0.0,0.388,0.0,0.0,0.0
365,0.0,0.0,0.0,-0.5350439453125,0.0,0.0,0.0,0.0,0.0,0.0,0.156,0.0,0.0,0.0,0.0,0.0,-1.61,-0.5288936233104261,0.0,0.0,0.0,0.0,0.0,0.0,0.272,0.0,0.0,0.0
366,0.0,0.0,0.0,-0.533302734375,0.0,0.0,0.0,0.0,0.0,0.0,0.163,0.0,0.0,0.0,0.0,0.0,-1.61,-0.5270727134079563,0.0,0.0,0.0,0.0,0.0,0.0,0.32,0.0,0.0,0.0
367,0.0,0.0,0.0,-0.5317138671875,0.0,0.0,0.0,0.0,0.0,0.0,0.167,0.0,0.0,0.0,0.0,0.0,-1.61,-0.5254043232631549,0.0,0.0,0.0,0.0,0.0,0.0,0.02,0.0,0.0,0.0
368,0.0,0.0,0.0,-0.5301171875,0.0,0.0,0.0,0.0,0.0,0.0,0.156,0.0,0.0,0.0,0.0,0.0,-1.61,-0.523728966703166,0.0,0.0,0.0,0.0,0.0,0.0,-0.044,0.0,0.0,0.0
369,0.0,0.0,0.0,-0.528384765625,0.0,0.0,0.0,0.0,0.0,0.0,0.167,0.0,0.0,0.0,0.0,0.0,-1.61,-0.5219180484327339,0.0,0.0,0.0,0.0,0.0,0.0,0.136,0.0,0.0,0.0
370,0.0,0.0,0.0,-0.5264990234375,0.0,0.0,0.0,0.0,0.0,0.0,0.186,0.0,0.0,0.0,0.0,0.0,-1.61,-0.5199545028049257,0.0,0.0,0.0,0.0,0.0,0.0,0.044,0.0,0.0,0.0
371,0.0,0.0,0.0,-0.5246220703125,0.0,0.0,0.0,0.0,0.0,0.0,0.181,0.0,0.0,0.0,0.0,0.0,-1.61,-0.5180002775017704,0.0,0.0,0.0,0.0,0.0,0.0,0.044,0.0,0.0,0.0
372,0.0,0.0,0.0,-0.522736328125,0.0,0.0,0.0,0.0,0.0,0.0,0.189,0.0,0.0,0.0,0.0,0.0,-1.61,-0.5160376224038282,0.0,0.0,0.0,0.0,0.0,0.0,0.272,0.0,0.0,0.0
373,0.0,0.0,0.0,-0.52071484375,0.0,0.0,0.0,0.0,0.0,0.0,0.197,0.0,0.0,0.0,0.0,0.0,-1.61,-0.513940123407649,0.0,0.0,0.0,0.0,0.0,0.0,0.136,0.0,0.0,0.0
374,0.0,0.0,0.0,-0.5191083984375,0.0,0.0,0.0,0.0,0.0,0.0,0.183,0.0,0.0,0.0,0.0,0.0,-1.61,-0.5122578549088266,0.0,0.0,0.0,0.0,0.0,0.0,-0.204,0.0,0.0,0.0
375,0.0,0.0,0.0,-0.5173759765625,0.0,0.0,0.0,0.0,0.0,0.0,0.167,0.0,0.0,0.0,0.0,0.0,-1.61,-0.5104505284980551,0.0,0.0,0.0,0.0,0.0,0.0,0.272,0.0,0.0,0.0
376,0.0,0.0,0.0,-0.515490234375,0.0,0.0,0.0,0.0,0.0,0.0,0.183,0.0,0.0,0.0,0.0,0.0,-1.61,-0.5084900774687886,0.0,0.0,0.0,0.0,0.0,0.0,0.752,0.0,0.0,0.0
377,0.0,0.0,0.0,-0.51332421875,0.0,0.0,0.0,0.0,0.0,0.0,0.204,0.0,0.0,0.0,0.0,0.0,-1.61,-0.5062501035516535,0.0,0.0,0.0,0.0,0.0,0.0,1.072,0.0,0.0,0.0
378,0.0,0.0,0.0,-0.5111494140625,0.0,0.0,0.0,0.0,0.0,0.0,0.215,0.0,0.0,0.0,0.0,0.0,-1.61,-0.5040017247571154,0.0,0.0,0.0,0.0,0.0,0.0,0.888,0.0,0.0,0.0
379,0.0,0.0,0.0,-0.50912890625,0.0,0.0,0.0,0.0,0.0,0.0,0.207,0.0,0.0,0.0,0.0,0.0,-1.61,-0.5019086013557568,0.0,0.0,0.0,0.0,0.0,0.0,0.456,0.0,0.0,0.0
380,0.0,0.0,0.0,-0.50738671875,0.0,0.0,0.0,0.0,0.0,0.0,0.195,0.0,0.0,0.0,0.0,0.0,-1.61,-0.5000940023338745,0.0,0.0,0.0,0.0,0.0,0.0,-0.088,0.0,0.0,0.0
381,0.0,0.0,0.0,-0.505509765625,0.0,0.0,0.0,0.0,0.0,0.0,0.183,0.0,0.0,0.0,0.0,0.0,-1.61,-0.4981456156535724,0.0,0.0,0.0,0.0,0.0,0.0,0.912,0.0,0.0,0.0
382,0.0,0.0,0.0,-0.5036240234375,0.0,0.0,0.0,0.0,0.0,0.0,0.195,0.0,0.0,0.0,0.0,0.0,-1.61,-0.4961888457223542,0.0,0.0,0.0,0.0,0.0,0.0,1.28,0.0,0.0,0.0
383,0.0,0.0,0.0,-0.5018916015625,0.0,0.0,0.0,0.0,0.0,0.0,0.179,0.0,0.0,0.0,0.0,0.0,-1.61,-0.4943856006290184,0.0,0.0,0.0,0.0,0.0,0.0,1.392,0.0,0.0,0.0
384,0.0,0.0,0.0,-0.499861328125,0.0,0.0,0.0,0.0,0.0,0.0,0.183,0.0,0.0,0.0,0.0,0.0,-1.61,-0.49228570637089036,0.0,0.0,0.0,0.0,0.0,0.0,1.028,0.0,0.0,0.0
385,0.0,0.0,0.0,-0.49783984375,0.0,0.0,0.0,0.0,0.0,0.0,0.203,0.0,0.0,0.0,0.0,0.0,-1.61,-0.4901950185247027,0.0,0.0,0.0,0.0,0.0,0.0,0.524,0.0,0.0,0.0
386,0.0,0.0,0.0,-0.495666015625,0.0,0.0,0.0,0.0,0.0,0.0,0.207,0.0,0.0,0.0,0.0,0.0,-1.61,-0.48795240257188444,0.0,0.0,0.0,0.0,0.0,0.0,0.364,0.0,0.0,0.0
387,0.0,0.0,0.0,-0.4937890625,0.0,0.0,0.0,0.0,0.0,0.0,0.213,0.0,0.0,0.0,0.0,0.0,-1.61,-0.48600748925760917,0.0,0.0,0.0,0.0,0.0,0.0,0.66,0.0,0.0,0.0
388,0.0,0.0,0.0,-0.4919033203125,0.0,0.0,0.0,0.0,0.0,0.0,0.186,0.0,0.0,0.0,0.0,0.0,-1.61,-0.48405462722953113,0.0,0.0,0.0,0.0,0.0,0.0,1.072,0.0,0.0,0.0
389,0.0,0.0,0.0,-0.489728515625,0.0,0.0,0.0,0.0,0.0,0.0,0.197,0.0,0.0,0.0,0.0,0.0,-1.61,-0.48181271425058797,0.0,0.0,0.0,0.0,0.0,0.0,1.072,0.0,0.0,0.0
390,0.0,0.0,0.0,-0.4878515625,0.0,0.0,0.0,0.0,0.0,0.0,0.209,0.0,0.0,0.0,0.0,0.0,-1.61,-0.4798699211967878,0.0,0.0,0.0,0.0,0.0,0.0,0.728,0.0,0.0,0.0
391,0.0,0.0,0.0,-0.48566796875,0.0,0.0,0.0,0.0,0.0,0.0,0.203,0.0,0.0,0.0,0.0,0.0,-1.61,-0.47762071319350224,0.0,0.0,0.0,0.0,0.0,0.0,0.5,0.0,0.0,0.0
392,0.0,0.0,0.0,-0.483501953125,0.0,0.0,0.0,0.0,0.0,0.0,0.223,0.0,0.0,0.0,0.0,0.0,-1.61,-0.4753901625134841,0.0,0.0,0.0,0.0,0.0,0.0,0.364,0.0,0.0,0.0
393,0.0,0.0,0.0,-0.4811826171875,0.0,0.0,0.0,0.0,0.0,0.0,0.222,0.0,0.0,0.0,0.0,0.0,-1.61,-0.47300673805159266,0.0,0.0,0.0,0.0,0.0,0.0,0.272,0.0,0.0,0.0
394,0.0,0.0,0.0,-0.4788642578125,0.0,0.0,0.0,0.0,0.0,0.0,0.234,0.0,0.0,0.0,0.0,0.0,-1.61,-0.47062473510331043,0.0,0.0,0.0,0.0,0.0,0.0,0.18,0.0,0.0,0.0
395,0.0,0.0,0.0,-0.4766982421875,0.0,0.0,0.0,0.0,0.0,0.0,0.226,0.0,0.0,0.0,0.0,0.0,-1.61,-0.46839596039150955,0.0,0.0,0.0,0.0,0.0,0.0,0.204,0.0,0.0,0.0
396,0.0,0.0,0.0,-0.4739462890625,0.0,0.0,0.0,0.0,0.0,0.0,0.239,0.0,0.0,0.0,0.0,0.0,-1.61,-0.4655819222736751,0.0,0.0,0.0,0.0,0.0,0.0,0.684,0.0,0.0,0.0
397,0.0,0.0,0.0,-0.471626953125,0.0,0.0,0.0,0.0,0.0,0.0,0.258,0.0,0.0,0.0,0.0,0.0,-1.61,-0.4632009567324249,0.0,0.0,0.0,0.0,0.0,0.0,0.088,0.0,0.0,0.0
398,0.0,0.0,0.0,-0.4691728515625,0.0,0.0,0.0,0.0,0.0,0.0,0.236,0.0,0.0,0.0,0.0,0.0,-1.61,-0.46068658092423376,0.0,0.0,0.0,0.0,0.0,0.0,0.068,0.0,0.0,0.0
399,0.0,0.0,0.0,-0.4667099609375,0.0,0.0,0.0,0.0,0.0,0.0,0.245,0.0,0.0,0.0,0.0,0.0,-1.61,-0.45816320694441875,0.0,0.0,0.0,0.0,0.0,0.0,-0.044,0.0,0.0,0.0
400,0.0,0.0,0.0,-0.46424609375,0.0,0.0,0.0,0.0,0.0,0.0,0.249,0.0,0.0,0.0,0.0,0.0,-1.61,-0.45563999787398096,0.0,0.0,0.0,0.0,0.0,0.0,0.228,0.0,0.0,0.0
401,0.0,0.0,0.0,-0.4616474609375,0.0,0.0,0.0,0.0,0.0,0.0,0.259,0.0,0.0,0.0,0.0,0.0,-1.61,-0.4529827219773125,0.0,0.0,0.0,0.0,0.0,0.0,0.64,0.0,0.0,0.0
402,0.0,0.0,0.0,-0.4588955078125,0.0,0.0,0.0,0.0,0.0,0.0,0.262,0.0,0.0,0.0,0.0,0.0,-1.61,-0.45017282932862146,0.0,0.0,0.0,0.0,0.0,0.0,1.004,0.0,0.0,0.0
403,0.0,0.0,0.0,-0.456287109375,0.0,0.0,0.0,0.0,0.0,0.0,0.267,0.0,0.0,0.0,0.0,0.0,-1.61,-0.4475071996324877,0.0,0.0,0.0,0.0,0.0,0.0,0.296,0.0,0.0,0.0
404,0.0,0.0,0.0,-0.45396875,0.0,0.0,0.0,0.0,0.0,0.0,0.247,0.0,0.0,0.0,0.0,0.0,-1.61,-0.4451323219109818,0.0,0.0,0.0,0.0,0.0,0.0,0.228,0.0,0.0,0.0
405,0.0,0.0,0.0,-0.451072265625,0.0,0.0,0.0,0.0,0.0,0.0,0.262,0.0,0.0,0.0,0.0,0.0,-1.61,-0.442180036690787,0.0,0.0,0.0,0.0,0.0,0.0,0.728,0.0,0.0,0.0
406,0.0,0.0,0.0,-0.4483193359375,0.0,0.0,0.0,0.0,0.0,0.0,0.288,0.0,0.0,0.0,0.0,0.0,-1.61,-0.4393717907354762,0.0,0.0,0.0,0.0,0.0,0.0,0.8,0.0,0.0,0.0
407,0.0,0.0,0.0,-0.4457119140625,0.0,0.0,0.0,0.0,0.0,0.0,0.268,0.0,0.0,0.0,0.0,0.0,-1.61,-0.4367100136951456,0.0,0.0,0.0,0.0,0.0,0.0,0.82,0.0,0.0,0.0
408,0.0,0.0,0.0,-0.4429599609375,0.0,0.0,0.0,0.0,0.0,0.0,0.268,0.0,0.0,0.0,0.0,0.0,-1.61,-0.43390443638084253,0.0,0.0,0.0,0.0,0.0,0.0,0.98,0.0,0.0,0.0
409,0.0,0.0,0.0,-0.439927734375,0.0,0.0,0.0,0.0,0.0,0.0,0.291,0.0,0.0,0.0,0.0,0.0,-1.61,-0.4308193209594807,0.0,0.0,0.0,0.0,0.0,0.0,0.616,0.0,0.0,0.0
410,0.0,0.0,0.0,-0.43717578125,0.0,0.0,0.0,0.0,0.0,0.0,0.294,0.0,0.0,0.0,0.0,0.0,-1.61,-0.42801521860076286,0.0,0.0,0.0,0.0,0.0,0.0,0.32,0.0,0.0,0.0
411,0.0,0.0,0.0,-0.434712890625,0.0,0.0,0.0,0.0,0.0,0.0,0.262,0.0,0.0,0.0,0.0,0.0,-1.61,-0.42550092260183286,0.0,0.0,0.0,0.0,0.0,0.0,0.616,0.0,0.0,0.0
412,0.0,0.0,0.0,-0.4319599609375,0.0,0.0,0.0,0.0,0.0,0.0,0.268,0.0,0.0,0.0,0.0,0.0,-1.61,-0.4226970898419635,0.0,0.0,0.0,0.0,0.0,0.0,0.568,0.0,0.0,0.0
413,0.0,0.0,0.0,-0.429361328125,0.0,0.0,0.0,0.0,0.0,0.0,0.268,0.0,0.0,0.0,0.0,0.0,-1.61,-0.42004854921625995,0.0,0.0,0.0,0.0,0.0,0.0,0.868,0.0,0.0,0.0
414,0.0,0.0,0.0,-0.42646484375,0.0,0.0,0.0,0.0,0.0,0.0,0.27,0.0,0.0,0.0,0.0,0.0,-1.61,-0.41710291328818766,0.0,0.0,0.0,0.0,0.0,0.0,1.212,0.0,0.0,0.0
415,0.0,0.0,0.0,-0.4237041015625,0.0,0.0,0.0,0.0,0.0,0.0,0.29,0.0,0.0,0.0,0.0,0.0,-1.61,-0.4142937797991823,0.0,0.0,0.0,0.0,0.0,0.0,0.5,0.0,0.0,0.0
416,0.0,0.0,0.0,-0.4209521484375,0.0,0.0,0.0,0.0,0.0,0.0,0.277,0.0,0.0,0.0,0.0,0.0,-1.61,-0.41149394870050554,0.0,0.0,0.0,0.0,0.0,0.0,-0.112,0.0,0.0,0.0
417,0.0,0.0,0.0,-0.4180556640625,0.0,0.0,0.0,0.0,0.0,0.0,0.28,0.0,0.0,0.0,0.0,0.0,-1.61,-0.40855085487804804,0.0,0.0,0.0,0.0,0.0,0.0,0.02,0.0,0.0,0.0
418,0.0,0.0,0.0,-0.4150234375,0.0,0.0,0.0,0.0,0.0,0.0,0.301,0.0,0.0,0.0,0.0,0.0,-1.61,-0.4054725411188647,0.0,0.0,0.0,0.0,0.0,0.0,0.16,0.0,0.0,0.0
419,0.0,0.0,0.0,-0.411982421875,0.0,0.0,0.0,0.0,0.0,0.0,0.302,0.0,0.0,0.0,0.0,0.0,-1.61,-0.4023859594134046,0.0,0.0,0.0,0.0,0.0,0.0,0.18,0.0,0.0,0.0
420,0.0,0.0,0.0,-0.4090859375,0.0,0.0,0.0,0.0,0.0,0.0,0.292,0.0,0.0,0.0,0.0,0.0,-1.61,-0.39944494037931955,0.0,0.0,0.0,0.0,0.0,0.0,0.272,0.0,0.0,0.0
421,0.0,0.0,0.0,-0.405755859375,0.0,0.0,0.0,0.0,0.0,0.0,0.315,0.0,0.0,0.0,0.0,0.0,-1.61,-0.3960713673459707,0.0,0.0,0.0,0.0,0.0,0.0,0.228,0.0,0.0,0.0
422,0.0,0.0,0.0,-0.4027158203125,0.0,0.0,0.0,0.0,0.0,0.0,0.325,0.0,0.0,0.0,0.0,0.0,-1.61,-0.39298810741827916,0.0,0.0,0.0,0.0,0.0,0.0,-0.296,0.0,0.0,0.0
423,0.0,0.0,0.0,-0.3998193359375,0.0,0.0,0.0,0.0,0.0,0.0,0.298,0.0,0.0,0.0,0.0,0.0,-1.61,-0.39004944782397394,0.0,0.0,0.0,0.0,0.0,0.0,0.272,0.0,0.0,0.0
424,0.0,0.0,0.0,-0.3966337890625,0.0,0.0,0.0,0.0,0.0,0.0,0.308,0.0,0.0,0.0,0.0,0.0,-1.61,-0.38682225904057477,0.0,0.0,0.0,0.0,0.0,0.0,0.64,0.0,0.0,0.0
425,0.0,0.0,0.0,-0.393439453125,0.0,0.0,0.0,0.0,0.0,0.0,0.32,0.0,0.0,0.0,0.0,0.0,-1.61,-0.3835873359629634,0.0,0.0,0.0,0.0,0.0,0.0,0.888,0.0,0.0,0.0
426,0.0,0.0,0.0,-0.3905517578125,0.0,0.0,0.0,0.0,0.0,0.0,0.306,0.0,0.0,0.0,0.0,0.0,-1.61,-0.38066011586975396,0.0,0.0,0.0,0.0,0.0,0.0,0.5,0.0,0.0,0.0
427,0.0,0.0,0.0,-0.3876552734375,0.0,0.0,0.0,0.0,0.0,0.0,0.281,0.0,0.0,0.0,0.0,0.0,-1.61,-0.37772438667529934,0.0,0.0,0.0,0.0,0.0,0.0,0.684,0.0,0.0,0.0
428,0.0,0.0,0.0,-0.3843251953125,0.0,0.0,0.0,0.0,0.0,0.0,0.31,0.0,0.0,0.0,0.0,0.0,-1.61,-0.37435613144556223,0.0,0.0,0.0,0.0,0.0,0.0,1.004,0.0,0.0,0.0
429,0.0,0.0,0.0,-0.38128515625,0.0,0.0,0.0,0.0,0.0,0.0,0.33,0.0,0.0,0.0,0.0,0.0,-1.61,-0.3712787249188741,0.0,0.0,0.0,0.0,0.0,0.0,0.8,0.0,0.0,0.0
430,0.0,0.0,0.0,-0.3785322265625,0.0,0.0,0.0,0.0,0.0,0.0,0.294,0.0,0.0,0.0,0.0,0.0,-1.61,-0.3684892404425447,0.0,0.0,0.0,0.0,0.0,0.0,0.728,0.0,0.0,0.0
431,0.0,0.0,0.0,-0.37505859375,0.0,0.0,0.0,0.0,0.0,0.0,0.302,0.0,0.0,0.0,0.0,0.0,-1.61,-0.3649798684853825,0.0,0.0,0.0,0.0,0.0,0.0,1.072,0.0,0.0,0.0
432,0.0,0.0,0.0,-0.371873046875,0.0,0.0,0.0,0.0,0.0,0.0,0.34,0.0,0.0,0.0,0.0,0.0,-1.61,-0.36175913299390605,0.0,0.0,0.0,0.0,0.0,0.0,0.272,0.0,0.0,0.0
433,0.0,0.0,0.0,-0.36912109375,0.0,0.0,0.0,0.0,0.0,0.0,0.3,0.0,0.0,0.0,0.0,0.0,-1.61,-0.3589730788713137,0.0,0.0,0.0,0.0,0.0,0.0,0.364,0.0,0.0,0.0
434,0.0,0.0,0.0,-0.3663603515625,0.0,0.0,0.0,0.0,0.0,0.0,0.274,0.0,0.0,0.0,0.0,0.0,-1.61,-0.3561790599039395,0.0,0.0,0.0,0.0,0.0,0.0,0.548,0.0,0.0,0.0
435,0.0,0.0,0.0,-0.36347265625,0.0,0.0,0.0,0.0,0.0,0.0,0.286,0.0,0.0,0.0,0.0,0.0,-1.61,-0.35325891473201027,0.0,0.0,0.0,0.0,0.0,0.0,0.456,0.0,0.0,0.0
436,0.0,0.0,0.0,-0.360720703125,0.0,0.0,0.0,0.0,0.0,0.0,0.289,0.0,0.0,0.0,0.0,0.0,-1.61,-0.3504753413035906,0.0,0.0,0.0,0.0,0.0,0.0,0.068,0.0,0.0,0.0
437,0.0,0.0,0.0,-0.3581123046875,0.0,0.0,0.0,0.0,0.0,0.0,0.263,0.0,0.0,0.0,0.0,0.0,-1.61,-0.34783615468686896,0.0,0.0,0.0,0.0,0.0,0.0,0.408,0.0,0.0,0.0
438,0.0,0.0,0.0,-0.354638671875,0.0,0.0,0.0,0.0,0.0,0.0,0.298,0.0,0.0,0.0,0.0,0.0,-1.61,-0.34433229528286163,0.0,0.0,0.0,0.0,0.0,0.0,0.456,0.0,0.0,0.0
439,0.0,0.0,0.0,-0.351453125,0.0,0.0,0.0,0.0,0.0,0.0,0.343,0.0,0.0,0.0,0.0,0.0,-1.61,-0.34111763039267096,0.0,0.0,0.0,0.0,0.0,0.0,-0.044,0.0,0.0,0.0
440,0.0,0.0,0.0,-0.348412109375,0.0,0.0,0.0,0.0,0.0,0.0,0.308,0.0,0.0,0.0,0.0,0.0,-1.61,-0.3380483362416423,0.0,0.0,0.0,0.0,0.0,0.0,-0.272,0.0,0.0,0.0
441,0.0,0.0,0.0,-0.3449384765625,0.0,0.0,0.0,0.0,0.0,0.0,0.315,0.0,0.0,0.0,0.0,0.0,-1.61,-0.3345472666891681,0.0,0.0,0.0,0.0,0.0,0.0,-0.068,0.0,0.0,0.0
442,0.0,0.0,0.0,-0.3417529296875,0.0,0.0,0.0,0.0,0.0,0.0,0.349,0.0,0.0,0.0,0.0,0.0,-1.61,-0.3313348511485165,0.0,0.0,0.0,0.0,0.0,0.0,-0.776,0.0,0.0,0.0
443,0.0,0.0,0.0,-0.33913671875,0.0,0.0,0.0,0.0,0.0,0.0,0.293,0.0,0.0,0.0,0.0,0.0,-1.61,-0.3286931689305084,0.0,0.0,0.0,0.0,0.0,0.0,-0.136,0.0,0.0,0.0
444,0.0,0.0,0.0,-0.335806640625,0.0,0.0,0.0,0.0,0.0,0.0,0.28,0.0,0.0,0.0,0.0,0.0,-1.61,-0.32533819254288654,0.0,0.0,0.0,0.0,0.0,0.0,1.392,0.0,0.0,0.0
445,0.0,0.0,0.0,-0.3320439453125,0.0,0.0,0.0,0.0,0.0,0.0,0.363,0.0,0.0,0.0,0.0,0.0,-1.61,-0.32155144925592644,0.0,0.0,0.0,0.0,0.0,0.0,1.3,0.0,0.0,0.0
446,0.0,0.0,0.0,-0.3290029296875,0.0,0.0,0.0,0.0,0.0,0.0,0.352,0.0,0.0,0.0,0.0,0.0,-1.61,-0.3184869594130594,0.0,0.0,0.0,0.0,0.0,0.0,0.456,0.0,0.0,0.0
447,0.0,0.0,0.0,-0.326115234375,0.0,0.0,0.0,0.0,0.0,0.0,0.286,0.0,0.0,0.0,0.0,0.0,-1.61,-0.31557692133355997,0.0,0.0,0.0,0.0,0.0,0.0,0.432,0.0,0.0,0.0
448,0.0,0.0,0.0,-0.32234375,0.0,0.0,0.0,0.0,0.0,0.0,0.331,0.0,0.0,0.0,0.0,0.0,-1.61,-0.3117839501997148,0.0,0.0,0.0,0.0,0.0,0.0,0.548,0.0,0.0,0.0
449,0.0,0.0,0.0,-0.3193115234375,0.0,0.0,0.0,0.0,0.0,0.0,0.357,0.0,0.0,0.0,0.0,0.0,-1.61,-0.3087308144758514,0.0,0.0,0.0,0.0,0.0,0.0,0.64,0.0,0.0,0.0
450,0.0,0.0,0.0,-0.3164150390625,0.0,0.0,0.0,0.0,0.0,0.0,0.286,0.0,0.0,0.0,0.0,0.0,-1.61,-0.30581512083663914,0.0,0.0,0.0,0.0,0.0,0.0,2.308,0.0,0.0,0.0
451,0.0,0.0,0.0,-0.3127880859375,0.0,0.0,0.0,0.0,0.0,0.0,0.334,0.0,0.0,0.0,0.0,0.0,-1.61,-0.30216869785801165,0.0,0.0,0.0,0.0,0.0,0.0,1.348,0.0,0.0,0.0
452,0.0,0.0,0.0,-0.3100361328125,0.0,0.0,0.0,0.0,0.0,0.0,0.335,0.0,0.0,0.0,0.0,0.0,-1.61,-0.2993986978307475,0.0,0.0,0.0,0.0,0.0,0.0,-0.248,0.0,0.0,0.0
453,0.0,0.0,0.0,-0.3071396484375,0.0,0.0,0.0,0.0,0.0,0.0,0.274,0.0,0.0,0.0,0.0,0.0,-1.61,-0.2964853127243092,0.0,0.0,0.0,0.0,0.0,0.0,0.5,0.0,0.0,0.0
454,0.0,0.0,0.0,-0.3038095703125,0.0,0.0,0.0,0.0,0.0,0.0,0.311,0.0,0.0,0.0,0.0,0.0,-1.61,-0.29313863565829984,0.0,0.0,0.0,0.0,0.0,0.0,0.8,0.0,0.0,0.0
455,0.0,0.0,0.0,-0.3007685546875,0.0,0.0,0.0,0.0,0.0,0.0,0.33,0.0,0.0,0.0,0.0,0.0,-1.61,-0.2900821695412841,0.0,0.0,0.0,0.0,0.0,0.0,0.82,0.0,0.0,0.0
456,0.0,0.0,0.0,-0.2980166015625,0.0,0.0,0.0,0.0,0.0,0.0,0.286,0.0,0.0,0.0,0.0,0.0,-1.61,-0.28731563400597815,0.0,0.0,0.0,0.0,0.0,0.0,0.82,0.0,0.0,0.0
457,0.0,0.0,0.0,-0.2943984375,0.0,0.0,0.0,0.0,0.0,0.0,0.304,0.0,0.0,0.0,0.0,0.0,-1.61,-0.28368347319107245,0.0,0.0,0.0,0.0,0.0,0.0,0.16,0.0,0.0,0.0
458,0.0,0.0,0.0,-0.291068359375,0.0,0.0,0.0,0.0,0.0,0.0,0.364,0.0,0.0,0.0,0.0,0.0,-1.61,-0.2803405516458478,0.0,0.0,0.0,0.0,0.0,0.0,-0.912,0.0,0.0,0.0
459,0.0,0.0,0.0,-0.2877392578125,0.0,0.0,0.0,0.0,0.0,0.0,0.323,0.0,0.0,0.0,0.0,0.0,-1.61,-0.27699976239753743,0.0,0.0,0.0,0.0,0.0,0.0,0.388,0.0,0.0,0.0
460,0.0,0.0,0.0,-0.284111328125,0.0,0.0,0.0,0.0,0.0,0.0,0.356,0.0,0.0,0.0,0.0,0.0,-1.61,-0.2733604492880414,0.0,0.0,0.0,0.0,0.0,0.0,-0.204,0.0,0.0,0.0
461,0.0,0.0,0.0,-0.2810703125,0.0,0.0,0.0,0.0,0.0,0.0,0.343,0.0,0.0,0.0,0.0,0.0,-1.61,-0.2703094923272691,0.0,0.0,0.0,0.0,0.0,0.0,-0.568,0.0,0.0,0.0
462,0.0,0.0,0.0,-0.2777412109375,0.0,0.0,0.0,0.0,0.0,0.0,0.309,0.0,0.0,0.0,0.0,0.0,-1.61,-0.26697046927842266,0.0,0.0,0.0,0.0,0.0,0.0,0.34,0.0,0.0,0.0
463,0.0,0.0,0.0,-0.273978515625,0.0,0.0,0.0,0.0,0.0,0.0,0.351,0.0,0.0,0.0,0.0,0.0,-1.61,-0.263199581785139,0.0,0.0,0.0,0.0,0.0,0.0,0.66,0.0,0.0,0.0
464,0.0,0.0,0.0,-0.27079296875,0.0,0.0,0.0,0.0,0.0,0.0,0.365,0.0,0.0,0.0,0.0,0.0,-1.61,-0.2600061481719222,0.0,0.0,0.0,0.0,0.0,0.0,-0.088,0.0,0.0,0.0
465,0.0,0.0,0.0,-0.268041015625,0.0,0.0,0.0,0.0,0.0,0.0,0.293,0.0,0.0,0.0,0.0,0.0,-1.61,-0.25724775524729515,0.0,0.0,0.0,0.0,0.0,0.0,0.8,0.0,0.0,0.0
466,0.0,0.0,0.0,-0.2642783203125,0.0,0.0,0.0,0.0,0.0,0.0,0.32,0.0,0.0,0.0,0.0,0.0,-1.61,-0.25347864025361083,0.0,0.0,0.0,0.0,0.0,0.0,0.616,0.0,0.0,0.0
467,0.0,0.0,0.0,-0.261228515625,0.0,0.0,0.0,0.0,0.0,0.0,0.351,0.0,0.0,0.0,0.0,0.0,-1.61,-0.25042443585045826,0.0,0.0,0.0,0.0,0.0,0.0,0.32,0.0,0.0,0.0
468,0.0,0.0,0.0,-0.2586201171875,0.0,0.0,0.0,0.0,0.0,0.0,0.281,0.0,0.0,0.0,0.0,0.0,-1.61,-0.24781165826543816,0.0,0.0,0.0,0.0,0.0,0.0,1.256,0.0,0.0,0.0
469,0.0,0.0,0.0,-0.255001953125,0.0,0.0,0.0,0.0,0.0,0.0,0.302,0.0,0.0,0.0,0.0,0.0,-1.61,-0.24419027887648445,0.0,0.0,0.0,0.0,0.0,0.0,1.644,0.0,0.0,0.0
470,0.0,0.0,0.0,-0.2513837890625,0.0,0.0,0.0,0.0,0.0,0.0,0.371,0.0,0.0,0.0,0.0,0.0,-1.61,-0.24056949176943973,0.0,0.0,0.0,0.0,0.0,0.0,0.912,0.0,0.0,0.0
471,0.0,0.0,0.0,-0.2483427734375,0.0,0.0,0.0,0.0,0.0,0.0,0.343,0.0,0.0,0.0,0.0,0.0,-1.61,-0.23752730375554232,0.0,0.0,0.0,0.0,0.0,0.0,0.844,0.0,0.0,0.0
472,0.0,0.0,0.0,-0.2450126953125,0.0,0.0,0.0,0.0,0.0,0.0,0.309,0.0,0.0,0.0,0.0,0.0,-1.61,-0.23419664588209657,0.0,0.0,0.0,0.0,0.0,0.0,0.548,0.0,0.0,0.0
473,0.0,0.0,0.0,-0.24139453125,0.0,0.0,0.0,0.0,0.0,0.0,0.349,0.0,0.0,0.0,0.0,0.0,-1.61,-0.23057849469736352,0.0,0.0,0.0,0.0,0.0,0.0,0.48,0.0,0.0,0.0
474,0.0,0.0,0.0,-0.238353515625,0.0,0.0,0.0,0.0,0.0,0.0,0.343,0.0,0.0,0.0,0.0,0.0,-1.61,-0.22753865680043908,0.0,0.0,0.0,0.0,0.0,0.0,0.524,0.0,0.0,0.0
475,0.0,0.0,0.0,-0.2358818359375,0.0,0.0,0.0,0.0,0.0,0.0,0.281,0.0,0.0,0.0,0.0,0.0,-1.61,-0.22506903349840252,0.0,0.0,0.0,0.0,0.0,0.0,0.364,0.0,0.0,0.0
476,0.0,0.0,0.0,-0.2325517578125,0.0,0.0,0.0,0.0,0.0,0.0,0.284,0.0,0.0,0.0,0.0,0.0,-1.61,-0.221741890249182,0.0,0.0,0.0,0.0,0.0,0.0,0.868,0.0,0.0,0.0
477,0.0,0.0,0.0,-0.22864453125,0.0,0.0,0.0,0.0,0.0,0.0,0.364,0.0,0.0,0.0,0.0,0.0,-1.61,-0.21783847681433238,0.0,0.0,0.0,0.0,0.0,0.0,0.48,0.0,0.0,0.0
478,0.0,0.0,0.0,-0.225458984375,0.0,0.0,0.0,0.0,0.0,0.0,0.359,0.0,0.0,0.0,0.0,0.0,-1.61,-0.21465733537383272,0.0,0.0,0.0,0.0,0.0,0.0,0.044,0.0,0.0,0.0
479,0.0,0.0,0.0,-0.2218408203125,0.0,0.0,0.0,0.0,0.0,0.0,0.333,0.0,0.0,0.0,0.0,0.0,-1.61,-0.21104474025979858,0.0,0.0,0.0,0.0,0.0,0.0,-0.068,0.0,0.0,0.0
480,0.0,0.0,0.0,-0.21793359375,0.0,0.0,0.0,0.0,0.0,0.0,0.381,0.0,0.0,0.0,0.0,0.0,-1.61,-0.20714424511808893,0.0,0.0,0.0,0.0,0.0,0.0,-0.844,0.0,0.0,0.0
481,0.0,0.0,0.0,-0.2147490234375,0.0,0.0,0.0,0.0,0.0,0.0,0.369,0.0,0.0,0.0,0.0,0.0,-1.61,-0.2039667120870116,0.0,0.0,0.0,0.0,0.0,0.0,-0.5,0.0,0.0,0.0
482,0.0,0.0,0.0,-0.2115546875,0.0,0.0,0.0,0.0,0.0,0.0,0.316,0.0,0.0,0.0,0.0,0.0,-1.61,-0.2007805749666529,0.0,0.0,0.0,0.0,0.0,0.0,0.728,0.0,0.0,0.0
483,0.0,0.0,0.0,-0.2077822265625,0.0,0.0,0.0,0.0,0.0,0.0,0.339,0.0,0.0,0.0,0.0,0.0,-1.61,-0.19701690363062063,0.0,0.0,0.0,0.0,0.0,0.0,1.324,0.0,0.0,0.0
484,0.0,0.0,0.0,-0.20459765625,0.0,0.0,0.0,0.0,0.0,0.0,0.363,0.0,0.0,0.0,0.0,0.0,-1.61,-0.1938425670681101,0.0,0.0,0.0,0.0,0.0,0.0,0.64,0.0,0.0,0.0
485,0.0,0.0,0.0,-0.201556640625,0.0,0.0,0.0,0.0,0.0,0.0,0.309,0.0,0.0,0.0,0.0,0.0,-1.61,-0.19081237418019958,0.0,0.0,0.0,0.0,0.0,0.0,0.592,0.0,0.0,0.0
486,0.0,0.0,0.0,-0.19808203125,0.0,0.0,0.0,0.0,0.0,0.0,0.322,0.0,0.0,0.0,0.0,0.0,-1.61,-0.18734917679504953,0.0,0.0,0.0,0.0,0.0,0.0,0.228,0.0,0.0,0.0
487,0.0,0.0,0.0,-0.1946083984375,0.0,0.0,0.0,0.0,0.0,0.0,0.349,0.0,0.0,0.0,0.0,0.0,-1.61,-0.18388839576533403,0.0,0.0,0.0,0.0,0.0,0.0,1.324,0.0,0.0,0.0
488,0.0,0.0,0.0,-0.1911337890625,0.0,0.0,0.0,0.0,0.0,0.0,0.35,0.0,0.0,0.0,0.0,0.0,-1.61,-0.18042694212898114,0.0,0.0,0.0,0.0,0.0,0.0,1.62,0.0,0.0,0.0
489,0.0,0.0,0.0,-0.1879404296875,0.0,0.0,0.0,0.0,0.0,0.0,0.336,0.0,0.0,0.0,0.0,0.0,-1.61,-0.17724760956748553,0.0,0.0,0.0,0.0,0.0,0.0,0.728,0.0,0.0,0.0
490,0.0,0.0,0.0,-0.1847548828125,0.0,0.0,0.0,0.0,0.0,0.0,0.324,0.0,0.0,0.0,0.0,0.0,-1.61,-0.17407752395939,0.0,0.0,0.0,0.0,0.0,0.0,0.364,0.0,0.0,0.0
491,0.0,0.0,0.0,-0.18113671875,0.0,0.0,0.0,0.0,0.0,0.0,0.342,0.0,0.0,0.0,0.0,0.0,-1.61,-0.17047512397136452,0.0,0.0,0.0,0.0,0.0,0.0,0.34,0.0,0.0,0.0
492,0.0,0.0,0.0,-0.178095703125,0.0,0.0,0.0,0.0,0.0,0.0,0.34,0.0,0.0,0.0,0.0,0.0,-1.61,-0.1674510213783082,0.0,0.0,0.0,0.0,0.0,0.0,0.34,0.0,0.0,0.0
493,0.0,0.0,0.0,-0.1750546875,0.0,0.0,0.0,0.0,0.0,0.0,0.298,0.0,0.0,0.0,0.0,0.0,-1.61,-0.164428064579181,0.0,0.0,0.0,0.0,0.0,0.0,1.3,0.0,0.0,0.0
494,0.0,0.0,0.0,-0.1714365234375,0.0,0.0,0.0,0.0,0.0,0.0,0.33,0.0,0.0,0.0,0.0,0.0,-1.61,-0.1608282607112638,0.0,0.0,0.0,0.0,0.0,0.0,0.568,0.0,0.0,0.0
495,0.0,0.0,0.0,-0.1681064453125,0.0,0.0,0.0,0.0,0.0,0.0,0.35,0.0,0.0,0.0,0.0,0.0,-1.61,-0.15751768609706004,0.0,0.0,0.0,0.0,0.0,0.0,0.068,0.0,0.0,0.0
496,0.0,0.0,0.0,-0.164767578125,0.0,0.0,0.0,0.0,0.0,0.0,0.336,0.0,0.0,0.0,0.0,0.0,-1.61,-0.15419918284473047,0.0,0.0,0.0,0.0,0.0,0.0,-0.5,0.0,0.0,0.0
497,0.0,0.0,0.0,-0.1614384765625,0.0,0.0,0.0,0.0,0.0,0.0,0.342,0.0,0.0,0.0,0.0,0.0,-1.61,-0.15089130398703654,0.0,0.0,0.0,0.0,0.0,0.0,-0.912,0.0,0.0,0.0
498,0.0,0.0,0.0,-0.1578193359375,0.0,0.0,0.0,0.0,0.0,0.0,0.337,0.0,0.0,0.0,0.0,0.0,-1.61,-0.14729424311195796,0.0,0.0,0.0,0.0,0.0,0.0,0.044,0.0,0.0,0.0
499,0.0,0.0,0.0,-0.154345703125,0.0,0.0,0.0,0.0,0.0,0.0,0.364,0.0,0.0,0.0,0.0,0.0,-1.61,-0.1438432678424414,0.0,0.0,0.0,0.0,0.0,0.0,0.272,0.0,0.0,0.0
500,0.0,0.0,0.0,-0.1510068359375,0.0,0.0,0.0,0.0,0.0,0.0,0.347,0.0,0.0,0.0,0.0,0.0,-1.61,-0.1405284671414417,0.0,0.0,0.0,0.0,0.0,0.0,0.204,0.0,0.0,0.0
501,0.0,0.0,0.0,-0.147677734375,0.0,0.0,0.0,0.0,0.0,0.0,0.329,0.0,0.0,0.0,0.0,0.0,-1.61,-0.13722400544389382,0.0,0.0,0.0,0.0,0.0,0.0,0.48,0.0,0.0,0.0
502,0.0,0.0,0.0,-0.1437705078125,0.0,0.0,0.0,0.0,0.0,0.0,0.358,0.0,0.0,0.0,0.0,0.0,-1.61,-0.1333419927292711,0.0,0.0,0.0,0.0,0.0,0.0,0.364,0.0,0.0,0.0
503,0.0,0.0,0.0,-0.140576171875,0.0,0.0,0.0,0.0,0.0,0.0,0.368,0.0,0.0,0.0,0.0,0.0,-1.61,-0.130173720143812,0.0,0.0,0.0,0.0,0.0,0.0,0.136,0.0,0.0,0.0
504,0.0,0.0,0.0,-0.1376796875,0.0,0.0,0.0,0.0,0.0,0.0,0.306,0.0,0.0,0.0,0.0,0.0,-1.61,-0.1273046946813394,0.0,0.0,0.0,0.0,0.0,0.0,0.524,0.0,0.0,0.0
505,0.0,0.0,0.0,-0.134494140625,0.0,0.0,0.0,0.0,0.0,0.0,0.296,0.0,0.0,0.0,0.0,0.0,-1.61,-0.1241471743484445,0.0,0.0,0.0,0.0,0.0,0.0,0.96,0.0,0.0,0.0
506,0.0,0.0,0.0,-0.1311650390625,0.0,0.0,0.0,0.0,0.0,0.0,0.332,0.0,0.0,0.0,0.0,0.0,-1.61,-0.12084666764498497,0.0,0.0,0.0,0.0,0.0,0.0,1.46,0.0,0.0,0.0
507,0.0,0.0,0.0,-0.1278349609375,0.0,0.0,0.0,0.0,0.0,0.0,0.336,0.0,0.0,0.0,0.0,0.0,-1.61,-0.11754629695207267,0.0,0.0,0.0,0.0,0.0,0.0,1.28,0.0,0.0,0.0
508,0.0,0.0,0.0,-0.1246494140625,0.0,0.0,0.0,0.0,0.0,0.0,0.32,0.0,0.0,0.0,0.0,0.0,-1.61,-0.11439156452541842,0.0,0.0,0.0,0.0,0.0,0.0,0.684,0.0,0.0,0.0
509,0.0,0.0,0.0,-0.12117578125,0.0,0.0,0.0,0.0,0.0,0.0,0.336,0.0,0.0,0.0,0.0,0.0,-1.61,-0.11094903718853005,0.0,0.0,0.0,0.0,0.0,0.0,0.228,0.0,0.0,0.0
510,0.0,0.0,0.0,-0.1178369140625,0.0,0.0,0.0,0.0,0.0,0.0,0.349,0.0,0.0,0.0,0.0,0.0,-1.61,-0.1076423782796908,0.0,0.0,0.0,0.0,0.0,0.0,0.044,0.0,0.0,0.0
511,0.0,0.0,0.0,-0.1150849609375,0.0,0.0,0.0,0.0,0.0,0.0,0.303,0.0,0.0,0.0,0.0,0.0,-1.61,-0.10492319361109377,0.0,0.0,0.0,0.0,0.0,0.0,0.408,0.0,0.0,0.0
512,0.0,0.0,0.0,-0.1121884765625,0.0,0.0,0.0,0.0,0.0,0.0,0.276,0.0,0.0,0.0,0.0,0.0,-1.61,-0.10206110838686336,0.0,0.0,0.0,0.0,0.0,0.0,0.82,0.0,0.0,0.0
513,0.0,0.0,0.0,-0.1087138671875,0.0,0.0,0.0,0.0,0.0,0.0,0.317,0.0,0.0,0.0,0.0,0.0,-1.61,-0.0986206498372841,0.0,0.0,0.0,0.0,0.0,0.0,0.96,0.0,0.0,0.0
514,0.0,0.0,0.0,-0.105529296875,0.0,0.0,0.0,0.0,0.0,0.0,0.345,0.0,0.0,0.0,0.0,0.0,-1.61,-0.09547132172281102,0.0,0.0,0.0,0.0,0.0,0.0,0.136,0.0,0.0,0.0
515,0.0,0.0,0.0,-0.1026328125,0.0,0.0,0.0,0.0,0.0,0.0,0.308,0.0,0.0,0.0,0.0,0.0,-1.61,-0.09261169349506837,0.0,0.0,0.0,0.0,0.0,0.0,-0.64,0.0,0.0,0.0
516,0.0,0.0,0.0,-0.099447265625,0.0,0.0,0.0,0.0,0.0,0.0,0.303,0.0,0.0,0.0,0.0,0.0,-1.61,-0.0894630206697049,0.0,0.0,0.0,0.0,0.0,0.0,-0.8,0.0,0.0,0.0
517,0.0,0.0,0.0,-0.0962529296875,0.0,0.0,0.0,0.0,0.0,0.0,0.324,0.0,0.0,0.0,0.0,0.0,-1.61,-0.08630663572895515,0.0,0.0,0.0,0.0,0.0,0.0,-0.388,0.0,0.0,0.0
518,0.0,0.0,0.0,-0.092923828125,0.0,0.0,0.0,0.0,0.0,0.0,0.328,0.0,0.0,0.0,0.0,0.0,-1.61,-0.08301629351021961,0.0,0.0,0.0,0.0,0.0,0.0,0.844,0.0,0.0,0.0
519,0.0,0.0,0.0,-0.08959375,0.0,0.0,0.0,0.0,0.0,0.0,0.333,0.0,0.0,0.0,0.0,0.0,-1.61,-0.07972551948168569,0.0,0.0,0.0,0.0,0.0,0.0,0.728,0.0,0.0,0.0
520,0.0,0.0,0.0,-0.086263671875,0.0,0.0,0.0,0.0,0.0,0.0,0.329,0.0,0.0,0.0,0.0,0.0,-1.61,-0.07643606940141584,0.0,0.0,0.0,0.0,0.0,0.0,0.456,0.0,0.0,0.0
521,0.0,0.0,0.0,-0.0826455078125,0.0,0.0,0.0,0.0,0.0,0.0,0.348,0.0,0.0,0.0,0.0,0.0,-1.61,-0.07285907058320028,0.0,0.0,0.0,0.0,0.0,0.0,-0.248,0.0,0.0,0.0
522,0.0,0.0,0.0,-0.0798935546875,0.0,0.0,0.0,0.0,0.0,0.0,0.333,0.0,0.0,0.0,0.0,0.0,-1.61,-0.07014856376435916,0.0,0.0,0.0,0.0,0.0,0.0,-1.072,0.0,0.0,0.0
523,0.0,0.0,0.0,-0.0774296875,0.0,0.0,0.0,0.0,0.0,0.0,0.259,0.0,0.0,0.0,0.0,0.0,-1.61,-0.06772796569709648,0.0,0.0,0.0,0.0,0.0,0.0,0.136,0.0,0.0,0.0
524,0.0,0.0,0.0,-0.0743896484375,0.0,0.0,0.0,0.0,0.0,0.0,0.271,0.0,0.0,0.0,0.0,0.0,-1.61,-0.06473121284773768,0.0,0.0,0.0,0.0,0.0,0.0,1.92,0.0,0.0,0.0
525,0.0,0.0,0.0,-0.07105078125,0.0,0.0,0.0,0.0,0.0,0.0,0.331,0.0,0.0,0.0,0.0,0.0,-1.61,-0.06143642035305111,0.0,0.0,0.0,0.0,0.0,0.0,2.192,0.0,0.0,0.0
526,0.0,0.0,0.0,-0.068154296875,0.0,0.0,0.0,0.0,0.0,0.0,0.31,0.0,0.0,0.0,0.0,0.0,-1.61,-0.05858530058718085,0.0,0.0,0.0,0.0,0.0,0.0,1.256,0.0,0.0,0.0
527,0.0,0.0,0.0,-0.0652578125,0.0,0.0,0.0,0.0,0.0,0.0,0.286,0.0,0.0,0.0,0.0,0.0,-1.61,-0.0557344524685605,0.0,0.0,0.0,0.0,0.0,0.0,-0.088,0.0,0.0,0.0
528,0.0,0.0,0.0,-0.062072265625,0.0,0.0,0.0,0.0,0.0,0.0,0.303,0.0,0.0,0.0,0.0,0.0,-1.61,-0.052595819557072473,0.0,0.0,0.0,0.0,0.0,0.0,-0.868,0.0,0.0,0.0
529,0.0,0.0,0.0,-0.05917578125,0.0,0.0,0.0,0.0,0.0,0.0,0.31,0.0,0.0,0.0,0.0,0.0,-1.61,-0.049746518165493796,0.0,0.0,0.0,0.0,0.0,0.0,0.088,0.0,0.0,0.0
530,0.0,0.0,0.0,-0.0568564453125,0.0,0.0,0.0,0.0,0.0,0.0,0.264,0.0,0.0,0.0,0.0,0.0,-1.61,-0.04747563029397583,0.0,0.0,0.0,0.0,0.0,0.0,1.096,0.0,0.0,0.0
531,0.0,0.0,0.0,-0.0542490234375,0.0,0.0,0.0,0.0,0.0,0.0,0.242,0.0,0.0,0.0,0.0,0.0,-1.61,-0.04491692279006716,0.0,0.0,0.0,0.0,0.0,0.0,1.872,0.0,0.0,0.0
532,0.0,0.0,0.0,-0.0510546875,0.0,0.0,0.0,0.0,0.0,0.0,0.293,0.0,0.0,0.0,0.0,0.0,-1.61,-0.04177206364925015,0.0,0.0,0.0,0.0,0.0,0.0,1.3,0.0,0.0,0.0
533,0.0,0.0,0.0,-0.048158203125,0.0,0.0,0.0,0.0,0.0,0.0,0.317,0.0,0.0,0.0,0.0,0.0,-1.61,-0.03892654497222484,0.0,0.0,0.0,0.0,0.0,0.0,0.088,0.0,0.0,0.0
534,0.0,0.0,0.0,-0.04526171875,0.0,0.0,0.0,0.0,0.0,0.0,0.285,0.0,0.0,0.0,0.0,0.0,-1.61,-0.03608080012940322,0.0,0.0,0.0,0.0,0.0,0.0,-0.272,0.0,0.0,0.0
535,0.0,0.0,0.0,-0.0423740234375,0.0,0.0,0.0,0.0,0.0,0.0,0.291,0.0,0.0,0.0,0.0,0.0,-1.61,-0.03324508023265719,0.0,0.0,0.0,0.0,0.0,0.0,-0.432,0.0,0.0,0.0
536,0.0,0.0,0.0,-0.0394775390625,0.0,0.0,0.0,0.0,0.0,0.0,0.291,0.0,0.0,0.0,0.0,0.0,-1.61,-0.03040155262410886,0.0,0.0,0.0,0.0,0.0,0.0,0.48,0.0,0.0,0.0
537,0.0,0.0,0.0,-0.0365810546875,0.0,0.0,0.0,0.0,0.0,0.0,0.291,0.0,0.0,0.0,0.0,0.0,-1.61,-0.027558282718825933,0.0,0.0,0.0,0.0,0.0,0.0,1.028,0.0,0.0,0.0
538,0.0,0.0,0.0,-0.0335400390625,0.0,0.0,0.0,0.0,0.0,0.0,0.297,0.0,0.0,0.0,0.0,0.0,-1.61,-0.024571455688071925,0.0,0.0,0.0,0.0,0.0,0.0,0.568,0.0,0.0,0.0
539,0.0,0.0,0.0,-0.030490234375,0.0,0.0,0.0,0.0,0.0,0.0,0.307,0.0,0.0,0.0,0.0,0.0,-1.61,-0.02157633361263147,0.0,0.0,0.0,0.0,0.0,0.0,-0.136,0.0,0.0,0.0
540,0.0,0.0,0.0,-0.02744921875,0.0,0.0,0.0,0.0,0.0,0.0,0.308,0.0,0.0,0.0,0.0,0.0,-1.61,-0.018590963085908293,0.0,0.0,0.0,0.0,0.0,0.0,-0.5,0.0,0.0,0.0
541,0.0,0.0,0.0,-0.024552734375,0.0,0.0,0.0,0.0,0.0,0.0,0.309,0.0,0.0,0.0,0.0,0.0,-1.61,-0.015751075886541625,0.0,0.0,0.0,0.0,0.0,0.0,-0.248,0.0,0.0,0.0
542,0.0,0.0,0.0,-0.02165625,0.0,0.0,0.0,0.0,0.0,0.0,0.287,0.0,0.0,0.0,0.0,0.0,-1.61,-0.012911669136692904,0.0,0.0,0.0,0.0,0.0,0.0,0.82,0.0,0.0,0.0
543,0.0,0.0,0.0,-0.018759765625,0.0,0.0,0.0,0.0,0.0,0.0,0.288,0.0,0.0,0.0,0.0,0.0,-1.61,-0.010072744234178775,0.0,0.0,0.0,0.0,0.0,0.0,1.212,0.0,0.0,0.0
544,0.0,0.0,0.0,-0.0160078125,0.0,0.0,0.0,0.0,0.0,0.0,0.285,0.0,0.0,0.0,0.0,0.0,-1.61,-0.007379288739705451,0.0,0.0,0.0,0.0,0.0,0.0,0.752,0.0,0.0,0.0
545,0.0,0.0,0.0,-0.013255859375,0.0,0.0,0.0,0.0,0.0,0.0,0.272,0.0,0.0,0.0,0.0,0.0,-1.61,-0.004686534643884509,0.0,0.0,0.0,0.0,0.0,0.0,0.32,0.0,0.0,0.0
546,0.0,0.0,0.0,-0.010359375,0.0,0.0,0.0,0.0,0.0,0.0,0.282,0.0,0.0,0.0,0.0,0.0,-1.61,-0.0018501701084254162,0.0,0.0,0.0,0.0,0.0,0.0,0.5,0.0,0.0,0.0
547,0.0,0.0,0.0,-0.007453125,0.0,0.0,0.0,0.0,0.0,0.0,0.297,0.0,0.0,0.0,0.0,0.0,-1.61,0.0009957183934615251,0.0,0.0,0.0,0.0,0.0,0.0,0.708,0.0,0.0,0.0
548,0.0,0.0,0.0,-0.004990234375,0.0,0.0,0.0,0.0,0.0,0.0,0.273,0.0,0.0,0.0,0.0,0.0,-1.61,0.003397776877198235,0.0,0.0,0.0,0.0,0.0,0.0,0.752,0.0,0.0,0.0
549,0.0,0.0,0.0,-0.00209375,0.0,0.0,0.0,0.0,0.0,0.0,0.268,0.0,0.0,0.0,0.0,0.0,-1.61,0.006231860071399869,0.0,0.0,0.0,0.0,0.0,0.0,0.936,0.0,0.0,0.0
550,0.0,0.0,0.0,0.00079296875,0.0,0.0,0.0,0.0,0.0,0.0,0.294,0.0,0.0,0.0,0.0,0.0,-1.61,0.009055946090546928,0.0,0.0,0.0,0.0,0.0,0.0,0.34,0.0,0.0,0.0
551,0.0,0.0,0.0,0.003255859375,0.0,0.0,0.0,0.0,0.0,0.0,0.268,0.0,0.0,0.0,0.0,0.0,-1.61,0.011455748288584807,0.0,0.0,0.0,0.0,0.0,0.0,0.044,0.0,0.0,0.0
552,0.0,0.0,0.0,0.0058642578125,0.0,0.0,0.0,0.0,0.0,0.0,0.253,0.0,0.0,0.0,0.0,0.0,-1.61,0.014000172372333312,0.0,0.0,0.0,0.0,0.0,0.0,0.136,0.0,0.0,0.0
553,0.0,0.0,0.0,0.0083271484375,0.0,0.0,0.0,0.0,0.0,0.0,0.255,0.0,0.0,0.0,0.0,0.0,-1.61,0.016398427253352457,0.0,0.0,0.0,0.0,0.0,0.0,0.136,0.0,0.0,0.0
554,0.0,0.0,0.0,0.010646484375,0.0,0.0,0.0,0.0,0.0,0.0,0.237,0.0,0.0,0.0,0.0,0.0,-1.61,0.01865247131105459,0.0,0.0,0.0,0.0,0.0,0.0,1.028,0.0,0.0,0.0
555,0.0,0.0,0.0,0.013263671875,0.0,0.0,0.0,0.0,0.0,0.0,0.251,0.0,0.0,0.0,0.0,0.0,-1.61,0.021203716103190502,0.0,0.0,0.0,0.0,0.0,0.0,0.8,0.0,0.0,0.0
556,0.0,0.0,0.0,0.0155732421875,0.0,0.0,0.0,0.0,0.0,0.0,0.252,0.0,0.0,0.0,0.0,0.0,-1.61,0.02344690555319617,0.0,0.0,0.0,0.0,0.0,0.0,0.296,0.0,0.0,0.0
557,0.0,0.0,0.0,0.0183251953125,0.0,0.0,0.0,0.0,0.0,0.0,0.248,0.0,0.0,0.0,0.0,0.0,-1.61,0.02613162687632188,0.0,0.0,0.0,0.0,0.0,0.0,0.364,0.0,0.0,0.0
558,0.0,0.0,0.0,0.0210771484375,0.0,0.0,0.0,0.0,0.0,0.0,0.282,0.0,0.0,0.0,0.0,0.0,-1.61,0.028815509836515513,0.0,0.0,0.0,0.0,0.0,0.0,-0.524,0.0,0.0,0.0
559,0.0,0.0,0.0,0.023396484375,0.0,0.0,0.0,0.0,0.0,0.0,0.261,0.0,0.0,0.0,0.0,0.0,-1.61,0.03106655575415143,0.0,0.0,0.0,0.0,0.0,0.0,-0.548,0.0,0.0,0.0
560,0.0,0.0,0.0,0.02600390625,0.0,0.0,0.0,0.0,0.0,0.0,0.238,0.0,0.0,0.0,0.0,0.0,-1.61,0.03360485852912927,0.0,0.0,0.0,0.0,0.0,0.0,0.228,0.0,0.0,0.0
561,0.0,0.0,0.0,0.0287568359375,0.0,0.0,0.0,0.0,0.0,0.0,0.27,0.0,0.0,0.0,0.0,0.0,-1.61,0.03628805118221179,0.0,0.0,0.0,0.0,0.0,0.0,0.136,0.0,0.0,0.0
562,0.0,0.0,0.0,0.030921875,0.0,0.0,0.0,0.0,0.0,0.0,0.249,0.0,0.0,0.0,0.0,0.0,-1.61,0.038382740945308705,0.0,0.0,0.0,0.0,0.0,0.0,-0.02,0.0,0.0,0.0
563,0.0,0.0,0.0,0.0335390625,0.0,0.0,0.0,0.0,0.0,0.0,0.229,0.0,0.0,0.0,0.0,0.0,-1.61,0.04092916706386502,0.0,0.0,0.0,0.0,0.0,0.0,0.844,0.0,0.0,0.0
564,0.0,0.0,0.0,0.036435546875,0.0,0.0,0.0,0.0,0.0,0.0,0.282,0.0,0.0,0.0,0.0,0.0,-1.61,0.043753898452572215,0.0,0.0,0.0,0.0,0.0,0.0,0.044,0.0,0.0,0.0
565,0.0,0.0,0.0,0.0386103515625,0.0,0.0,0.0,0.0,0.0,0.0,0.266,0.0,0.0,0.0,0.0,0.0,-1.61,0.04585674218994725,0.0,0.0,0.0,0.0,0.0,0.0,-0.296,0.0,0.0,0.0
566,0.0,0.0,0.0,0.0409287109375,0.0,0.0,0.0,0.0,0.0,0.0,0.219,0.0,0.0,0.0,0.0,0.0,-1.61,0.04810235701029947,0.0,0.0,0.0,0.0,0.0,0.0,0.568,0.0,0.0,0.0
567,0.0,0.0,0.0,0.04352734375,0.0,0.0,0.0,0.0,0.0,0.0,0.248,0.0,0.0,0.0,0.0,0.0,-1.61,0.050627662041614396,0.0,0.0,0.0,0.0,0.0,0.0,0.728,0.0,0.0,0.0
568,0.0,0.0,0.0,0.0455576171875,0.0,0.0,0.0,0.0,0.0,0.0,0.243,0.0,0.0,0.0,0.0,0.0,-1.61,0.05258403043303366,0.0,0.0,0.0,0.0,0.0,0.0,0.684,0.0,0.0,0.0
569,0.0,0.0,0.0,0.047876953125,0.0,0.0,0.0,0.0,0.0,0.0,0.206,0.0,0.0,0.0,0.0,0.0,-1.61,0.05482889006813079,0.0,0.0,0.0,0.0,0.0,0.0,1.28,0.0,0.0,0.0
570,0.0,0.0,0.0,0.0501962890625,0.0,0.0,0.0,0.0,0.0,0.0,0.233,0.0,0.0,0.0,0.0,0.0,-1.61,0.05707336534189416,0.0,0.0,0.0,0.0,0.0,0.0,0.34,0.0,0.0,0.0
571,0.0,0.0,0.0,0.052361328125,0.0,0.0,0.0,0.0,0.0,0.0,0.223,0.0,0.0,0.0,0.0,0.0,-1.61,0.05916262095403497,0.0,0.0,0.0,0.0,0.0,0.0,0.32,0.0,0.0,0.0
572,0.0,0.0,0.0,0.0545458984375,0.0,0.0,0.0,0.0,0.0,0.0,0.22,0.0,0.0,0.0,0.0,0.0,-1.61,0.06127103769404594,0.0,0.0,0.0,0.0,0.0,0.0,0.82,0.0,0.0,0.0
573,0.0,0.0,0.0,0.0567197265625,0.0,0.0,0.0,0.0,0.0,0.0,0.227,0.0,0.0,0.0,0.0,0.0,-1.61,0.06336834026160797,0.0,0.0,0.0,0.0,0.0,0.0,0.296,0.0,0.0,0.0
574,0.0,0.0,0.0,0.0585966796875,0.0,0.0,0.0,0.0,0.0,0.0,0.202,0.0,0.0,0.0,0.0,0.0,-1.61,0.06516804842622477,0.0,0.0,0.0,0.0,0.0,0.0,0.364,0.0,0.0,0.0
575,0.0,0.0,0.0,0.060771484375,0.0,0.0,0.0,0.0,0.0,0.0,0.194,0.0,0.0,0.0,0.0,0.0,-1.61,0.06726507386446243,0.0,0.0,0.0,0.0,0.0,0.0,0.888,0.0,0.0,0.0
576,0.0,0.0,0.0,0.0629462890625,0.0,0.0,0.0,0.0,0.0,0.0,0.229,0.0,0.0,0.0,0.0,0.0,-1.61,0.06936157133770737,0.0,0.0,0.0,0.0,0.0,0.0,0.408,0.0,0.0,0.0
577,0.0,0.0,0.0,0.0648232421875,0.0,0.0,0.0,0.0,0.0,0.0,0.206,0.0,0.0,0.0,0.0,0.0,-1.61,0.07115969565027212,0.0,0.0,0.0,0.0,0.0,0.0,0.18,0.0,0.0,0.0
578,0.0,0.0,0.0,0.066708984375,0.0,0.0,0.0,0.0,0.0,0.0,0.183,0.0,0.0,0.0,0.0,0.0,-1.61,0.07296609383637803,0.0,0.0,0.0,0.0,0.0,0.0,0.34,0.0,0.0,0.0
579,0.0,0.0,0.0,0.0690283203125,0.0,0.0,0.0,0.0,0.0,0.0,0.208,0.0,0.0,0.0,0.0,0.0,-1.61,0.07520573930754143,0.0,0.0,0.0,0.0,0.0,0.0,0.456,0.0,0.0,0.0
580,0.0,0.0,0.0,0.0707607421875,0.0,0.0,0.0,0.0,0.0,0.0,0.209,0.0,0.0,0.0,0.0,0.0,-1.61,0.07685780193536101,0.0,0.0,0.0,0.0,0.0,0.0,0.48,0.0,0.0,0.0
581,0.0,0.0,0.0,0.072357421875,0.0,0.0,0.0,0.0,0.0,0.0,0.172,0.0,0.0,0.0,0.0,0.0,-1.61,0.07837346862728017,0.0,0.0,0.0,0.0,0.0,0.0,0.66,0.0,0.0,0.0
582,0.0,0.0,0.0,0.07408984375,0.0,0.0,0.0,0.0,0.0,0.0,0.166,0.0,0.0,0.0,0.0,0.0,-1.61,0.08002470648159138,0.0,0.0,0.0,0.0,0.0,0.0,0.296,0.0,0.0,0.0
583,0.0,0.0,0.0,0.0759853515625,0.0,0.0,0.0,0.0,0.0,0.0,0.177,0.0,0.0,0.0,0.0,0.0,-1.61,0.08183854123913673,0.0,0.0,0.0,0.0,0.0,0.0,0.548,0.0,0.0,0.0
584,0.0,0.0,0.0,0.0777265625,0.0,0.0,0.0,0.0,0.0,0.0,0.188,0.0,0.0,0.0,0.0,0.0,-1.61,0.08349714220135208,0.0,0.0,0.0,0.0,0.0,0.0,0.616,0.0,0.0,0.0
585,0.0,0.0,0.0,0.079603515625,0.0,0.0,0.0,0.0,0.0,0.0,0.176,0.0,0.0,0.0,0.0,0.0,-1.61,0.08529162643747178,0.0,0.0,0.0,0.0,0.0,0.0,0.432,0.0,0.0,0.0
586,0.0,0.0,0.0,0.0813447265625,0.0,0.0,0.0,0.0,0.0,0.0,0.182,0.0,0.0,0.0,0.0,0.0,-1.61,0.0869494515351514,0.0,0.0,0.0,0.0,0.0,0.0,0.088,0.0,0.0,0.0
587,0.0,0.0,0.0,0.0832216796875,0.0,0.0,0.0,0.0,0.0,0.0,0.183,0.0,0.0,0.0,0.0,0.0,-1.61,0.08874271458877975,0.0,0.0,0.0,0.0,0.0,0.0,-0.432,0.0,0.0,0.0
588,0.0,0.0,0.0,0.0846748046875,0.0,0.0,0.0,0.0,0.0,0.0,0.168,0.0,0.0,0.0,0.0,0.0,-1.61,0.0901118432398712,0.0,0.0,0.0,0.0,0.0,0.0,-0.48,0.0,0.0,0.0
589,0.0,0.0,0.0,0.0862626953125,0.0,0.0,0.0,0.0,0.0,0.0,0.152,0.0,0.0,0.0,0.0,0.0,-1.61,0.09161528871608118,0.0,0.0,0.0,0.0,0.0,0.0,0.364,0.0,0.0,0.0
590,0.0,0.0,0.0,0.0881484375,0.0,0.0,0.0,0.0,0.0,0.0,0.179,0.0,0.0,0.0,0.0,0.0,-1.61,0.09341586748123963,0.0,0.0,0.0,0.0,0.0,0.0,0.66,0.0,0.0,0.0
591,0.0,0.0,0.0,0.089890625,0.0,0.0,0.0,0.0,0.0,0.0,0.181,0.0,0.0,0.0,0.0,0.0,-1.61,0.09507247000285757,0.0,0.0,0.0,0.0,0.0,0.0,0.272,0.0,0.0,0.0
592,0.0,0.0,0.0,0.091478515625,0.0,0.0,0.0,0.0,0.0,0.0,0.165,0.0,0.0,0.0,0.0,0.0,-1.61,0.0965747619101445,0.0,0.0,0.0,0.0,0.0,0.0,-0.5,0.0,0.0,0.0
593,0.0,0.0,0.0,0.0930751953125,0.0,0.0,0.0,0.0,0.0,0.0,0.162,0.0,0.0,0.0,0.0,0.0,-1.61,0.09808502086480944,0.0,0.0,0.0,0.0,0.0,0.0,-0.888,0.0,0.0,0.0
594,0.0,0.0,0.0,0.09451953125,0.0,0.0,0.0,0.0,0.0,0.0,0.154,0.0,0.0,0.0,0.0,0.0,-1.61,0.09944279359228657,0.0,0.0,0.0,0.0,0.0,0.0,-0.364,0.0,0.0,0.0
595,0.0,0.0,0.0,0.096125,0.0,0.0,0.0,0.0,0.0,0.0,0.154,0.0,0.0,0.0,0.0,0.0,-1.61,0.10096103847137304,0.0,0.0,0.0,0.0,0.0,0.0,0.18,0.0,0.0,0.0
596,0.0,0.0,0.0,0.0975693359375,0.0,0.0,0.0,0.0,0.0,0.0,0.153,0.0,0.0,0.0,0.0,0.0,-1.61,0.10231801300319837,0.0,0.0,0.0,0.0,0.0,0.0,0.388,0.0,0.0,0.0
597,0.0,0.0,0.0,0.099310546875,0.0,0.0,0.0,0.0,0.0,0.0,0.151,0.0,0.0,0.0,0.0,0.0,-1.61,0.10397122530202578,0.0,0.0,0.0,0.0,0.0,0.0,0.456,0.0,0.0,0.0
598,0.0,0.0,0.0,0.10104296875,0.0,0.0,0.0,0.0,0.0,0.0,0.178,0.0,0.0,0.0,0.0,0.0,-1.61,0.10561563571403647,0.0,0.0,0.0,0.0,0.0,0.0,-0.388,0.0,0.0,0.0
599,0.0,0.0,0.0,0.1024873046875,0.0,0.0,0.0,0.0,0.0,0.0,0.167,0.0,0.0,0.0,0.0,0.0,-1.61,0.1069712221713538,0.0,0.0,0.0,0.0,0.0,0.0,-0.524,0.0,0.0,0.0
600,0.0,0.0,0.0,0.1037861328125,0.0,0.0,0.0,0.0,0.0,0.0,0.139,0.0,0.0,0.0,0.0,0.0,-1.61,0.10818105825248066,0.0,0.0,0.0,0.0,0.0,0.0,-0.432,0.0,0.0,0.0
601,0.0,0.0,0.0,0.1049501953125,0.0,0.0,0.0,0.0,0.0,0.0,0.123,0.0,0.0,0.0,0.0,0.0,-1.61,0.10925577131999947,0.0,0.0,0.0,0.0,0.0,0.0,0.272,0.0,0.0,0.0
602,0.0,0.0,0.0,0.1063935546875,0.0,0.0,0.0,0.0,0.0,0.0,0.129,0.0,0.0,0.0,0.0,0.0,-1.61,0.11060943113966937,0.0,0.0,0.0,0.0,0.0,0.0,1.096,0.0,0.0,0.0
603,0.0,0.0,0.0,0.107693359375,0.0,0.0,0.0,0.0,0.0,0.0,0.14,0.0,0.0,0.0,0.0,0.0,-1.61,0.11181930133258032,0.0,0.0,0.0,0.0,0.0,0.0,0.936,0.0,0.0,0.0
604,0.0,0.0,0.0,0.109001953125,0.0,0.0,0.0,0.0,0.0,0.0,0.127,0.0,0.0,0.0,0.0,0.0,-1.61,0.11303751240432641,0.0,0.0,0.0,0.0,0.0,0.0,0.248,0.0,0.0,0.0
605,0.0,0.0,0.0,0.1101572265625,0.0,0.0,0.0,0.0,0.0,0.0,0.121,0.0,0.0,0.0,0.0,0.0,-1.61,0.1141020749807183,0.0,0.0,0.0,0.0,0.0,0.0,-0.16,0.0,0.0,0.0
606,0.0,0.0,0.0,0.11146484375,0.0,0.0,0.0,0.0,0.0,0.0,0.129,0.0,0.0,0.0,0.0,0.0,-1.61,0.1153186605011133,0.0,0.0,0.0,0.0,0.0,0.0,-0.044,0.0,0.0,0.0
607,0.0,0.0,0.0,0.1123310546875,0.0,0.0,0.0,0.0,0.0,0.0,0.114,0.0,0.0,0.0,0.0,0.0,-1.61,0.11609352636845945,0.0,0.0,0.0,0.0,0.0,0.0,0.32,0.0,0.0,0.0
608,0.0,0.0,0.0,0.113341796875,0.0,0.0,0.0,0.0,0.0,0.0,0.089,0.0,0.0,0.0,0.0,0.0,-1.61,0.1170126175111904,0.0,0.0,0.0,0.0,0.0,0.0,0.752,0.0,0.0,0.0
609,0.0,0.0,0.0,0.114361328125,0.0,0.0,0.0,0.0,0.0,0.0,0.103,0.0,0.0,0.0,0.0,0.0,-1.61,0.1179402925960702,0.0,0.0,0.0,0.0,0.0,0.0,0.82,0.0,0.0,0.0
610,0.0,0.0,0.0,0.115380859375,0.0,0.0,0.0,0.0,0.0,0.0,0.104,0.0,0.0,0.0,0.0,0.0,-1.61,0.1188674873928898,0.0,0.0,0.0,0.0,0.0,0.0,0.32,0.0,0.0,0.0
611,0.0,0.0,0.0,0.116103515625,0.0,0.0,0.0,0.0,0.0,0.0,0.089,0.0,0.0,0.0,0.0,0.0,-1.61,0.11949761948327699,0.0,0.0,0.0,0.0,0.0,0.0,0.0,0.0,0.0,0.0
612,0.0,0.0,0.0,0.116978515625,0.0,0.0,0.0,0.0,0.0,0.0,0.079,0.0,0.0,0.0,0.0,0.0,-1.61,0.12027999140869178,0.0,0.0,0.0,0.0,0.0,0.0,0.112,0.0,0.0,0.0
613,0.0,0.0,0.0,0.1177001953125,0.0,0.0,0.0,0.0,0.0,0.0,0.08,0.0,0.0,0.0,0.0,0.0,-1.61,0.12090842541644045,0.0,0.0,0.0,0.0,0.0,0.0,0.66,0.0,0.0,0.0
614,0.0,0.0,0.0,0.11827734375,0.0,0.0,0.0,0.0,0.0,0.0,0.067,0.0,0.0,0.0,0.0,0.0,-1.61,0.12139240652197537,0.0,0.0,0.0,0.0,0.0,0.0,1.028,0.0,0.0,0.0
615,0.0,0.0,0.0,0.11885546875,0.0,0.0,0.0,0.0,0.0,0.0,0.059,0.0,0.0,0.0,0.0,0.0,-1.61,0.12187686009591162,0.0,0.0,0.0,0.0,0.0,0.0,1.052,0.0,0.0,0.0
616,0.0,0.0,0.0,0.1194326171875,0.0,0.0,0.0,0.0,0.0,0.0,0.06,0.0,0.0,0.0,0.0,0.0,-1.61,0.12236017497376908,0.0,0.0,0.0,0.0,0.0,0.0,0.548,0.0,0.0,0.0
617,0.0,0.0,0.0,0.1198662109375,0.0,0.0,0.0,0.0,0.0,0.0,0.053,0.0,0.0,0.0,0.0,0.0,-1.61,0.12269977073924748,0.0,0.0,0.0,0.0,0.0,0.0,0.228,0.0,0.0,0.0
618,0.0,0.0,0.0,0.1203076171875,0.0,0.0,0.0,0.0,0.0,0.0,0.041,0.0,0.0,0.0,0.0,0.0,-1.61,0.12304679873987961,0.0,0.0,0.0,0.0,0.0,0.0,0.068,0.0,0.0,0.0
619,0.0,0.0,0.0,0.1204521484375,0.0,0.0,0.0,0.0,0.0,0.0,0.026,0.0,0.0,0.0,0.0,0.0,-1.61,0.12309687379259497,0.0,0.0,0.0,0.0,0.0,0.0,0.34,0.0,0.0,0.0
620,0.0,0.0,0.0,0.1204521484375,0.0,0.0,0.0,0.0,0.0,0.0,0.01,0.0,0.0,0.0,0.0,0.0,-1.61,0.1230020626721217,0.0,0.0,0.0,0.0,0.0,0.0,0.64,0.0,0.0,0.0
621,0.0,0.0,0.0,0.1207412109375,0.0,0.0,0.0,0.0,0.0,0.0,0.009,0.0,0.0,0.0,0.0,0.0,-1.61,0.12319624148964446,0.0,0.0,0.0,0.0,0.0,0.0,0.936,0.0,0.0,0.0
622,0.0,0.0,0.0,0.1208857421875,0.0,0.0,0.0,0.0,0.0,0.0,0.023,0.0,0.0,0.0,0.0,0.0,-1.61,0.12324562071939812,0.0,0.0,0.0,0.0,0.0,0.0,0.728,0.0,0.0,0.0
623,0.0,0.0,0.0,0.1210302734375,0.0,0.0,0.0,0.0,0.0,0.0,0.019,0.0,0.0,0.0,0.0,0.0,-1.61,0.12329480801700005,0.0,0.0,0.0,0.0,0.0,0.0,0.272,0.0,0.0,0.0
624,0.0,0.0,0.0,0.1211748046875,0.0,0.0,0.0,0.0,0.0,0.0,0.015,0.0,0.0,0.0,0.0,0.0,-1.61,0.12334381113690376,0.0,0.0,0.0,0.0,0.0,0.0,0.088,0.0,0.0,0.0
625,0.0,0.0,0.0,0.1211748046875,0.0,0.0,0.0,0.0,0.0,0.0,0.007,0.0,0.0,0.0,0.0,0.0,-1.61,0.12324816014349951,0.0,0.0,0.0,0.0,0.0,0.0,0.088,0.0,0.0,0.0
626,0.0,0.0,0.0,0.1208857421875,0.0,0.0,0.0,0.0,0.0,0.0,-0.011,0.0,0.0,0.0,0.0,0.0,-1.61,0.12286321940710063,0.0,0.0,0.0,0.0,0.0,0.0,0.388,0.0,0.0,0.0
627,0.0,0.0,0.0,0.1207412109375,0.0,0.0,0.0,0.0,0.0,0.0,-0.018,0.0,0.0,0.0,0.0,0.0,-1.61,0.12262260061408257,0.0,0.0,0.0,0.0,0.0,0.0,0.776,0.0,0.0,0.0
628,0.0,0.0,0.0,0.1207412109375,0.0,0.0,0.0,0.0,0.0,0.0,-0.013,0.0,0.0,0.0,0.0,0.0,-1.61,0.122526459522306,0.0,0.0,0.0,0.0,0.0,0.0,0.96,0.0,0.0,0.0
629,0.0,0.0,0.0,0.1207412109375,0.0,0.0,0.0,0.0,0.0,0.0,-0.001,0.0,0.0,0.0,0.0,0.0,-1.61,0.12243012221799564,0.0,0.0,0.0,0.0,0.0,0.0,0.912,0.0,0.0,0.0
630,0.0,0.0,0.0,0.1208857421875,0.0,0.0,0.0,0.0,0.0,0.0,0.009,0.0,0.0,0.0,0.0,0.0,-1.61,0.12247817879495534,0.0,0.0,0.0,0.0,0.0,0.0,0.592,0.0,0.0,0.0
631,0.0,0.0,0.0,0.1208857421875,0.0,0.0,0.0,0.0,0.0,0.0,0.006,0.0,0.0,0.0,0.0,0.0,-1.61,0.12238157460001717,0.0,0.0,0.0,0.0,0.0,0.0,0.592,0.0,0.0,0.0
632,0.0,0.0,0.0,0.1208857421875,0.0,0.0,0.0,0.0,0.0,0.0,-0.001,0.0,0.0,0.0,0.0,0.0,-1.61,0.12228484874054832,0.0,0.0,0.0,0.0,0.0,0.0,0.548,0.0,0.0,0.0
633,0.0,0.0,0.0,0.1207412109375,0.0,0.0,0.0,0.0,0.0,0.0,-0.005,0.0,0.0,0.0,0.0,0.0,-1.61,0.12204347783381163,0.0,0.0,0.0,0.0,0.0,0.0,0.82,0.0,0.0,0.0
634,0.0,0.0,0.0,0.1207412109375,0.0,0.0,0.0,0.0,0.0,0.0,-0.011,0.0,0.0,0.0,0.0,0.0,-1.61,0.12194656283802284,0.0,0.0,0.0,0.0,0.0,0.0,1.12,0.0,0.0,0.0
635,0.0,0.0,0.0,0.1205966796875,0.0,0.0,0.0,0.0,0.0,0.0,-0.011,0.0,0.0,0.0,0.0,0.0,-1.61,0.12170495482653589,0.0,0.0,0.0,0.0,0.0,0.0,1.12,0.0,0.0,0.0
636,0.0,0.0,0.0,0.1207412109375,0.0,0.0,0.0,0.0,0.0,0.0,0.001,0.0,0.0,0.0,0.0,0.0,-1.61,0.12175235231864466,0.0,0.0,0.0,0.0,0.0,0.0,1.14,0.0,0.0,0.0
637,0.0,0.0,0.0,0.1207412109375,0.0,0.0,0.0,0.0,0.0,0.0,0.009,0.0,0.0,0.0,0.0,0.0,-1.61,0.12165515919384005,0.0,0.0,0.0,0.0,0.0,0.0,0.936,0.0,0.0,0.0
638,0.0,0.0,0.0,0.1208857421875,0.0,0.0,0.0,0.0,0.0,0.0,0.001,0.0,0.0,0.0,0.0,0.0,-1.61,0.12170239496349852,0.0,0.0,0.0,0.0,0.0,0.0,0.912,0.0,0.0,0.0
639,0.0,0.0,0.0,0.1208857421875,0.0,0.0,0.0,0.0,0.0,0.0,0.01,0.0,0.0,0.0,0.0,0.0,-1.61,0.1216050507839492,0.0,0.0,0.0,0.0,0.0,0.0,0.752,0.0,0.0,0.0
640,0.0,0.0,0.0,0.1207412109375,0.0,0.0,0.0,0.0,0.0,0.0,-0.008,0.0,0.0,0.0,0.0,0.0,-1.61,0.12136309396781818,0.0,0.0,0.0,0.0,0.0,0.0,0.8,0.0,0.0,0.0
641,0.0,0.0,0.0,0.1207412109375,0.0,0.0,0.0,0.0,0.0,0.0,-0.009,0.0,0.0,0.0,0.0,0.0,-1.61,0.12126560524124184,0.0,0.0,0.0,0.0,0.0,0.0,0.868,0.0,0.0,0.0
642,0.0,0.0,0.0,0.1207412109375,0.0,0.0,0.0,0.0,0.0,0.0,-0.001,0.0,0.0,0.0,0.0,0.0,-1.61,0.12116810158319812,0.0,0.0,0.0,0.0,0.0,0.0,0.868,0.0,0.0,0.0
643,0.0,0.0,0.0,0.1208857421875,0.0,0.0,0.0,0.0,0.0,0.0,0.007,0.0,0.0,0.0,0.0,0.0,-1.61,0.12121507188254418,0.0,0.0,0.0,0.0,0.0,0.0,0.752,0.0,0.0,0.0
644,0.0,0.0,0.0,0.1208857421875,0.0,0.0,0.0,0.0,0.0,0.0,0.008,0.0,0.0,0.0,0.0,0.0,-1.61,0.12111749671804681,0.0,0.0,0.0,0.0,0.0,0.0,0.684,0.0,0.0,0.0
645,0.0,0.0,0.0,0.1208857421875,0.0,0.0,0.0,0.0,0.0,0.0,-0.001,0.0,0.0,0.0,0.0,0.0,-1.61,0.1210199049591176,0.0,0.0,0.0,0.0,0.0,0.0,0.456,0.0,0.0,0.0
646,0.0,0.0,0.0,0.1208857421875,0.0,0.0,0.0,0.0,0.0,0.0,-0.001,0.0,0.0,0.0,0.0,0.0,-1.61,0.12092229487042558,0.0,0.0,0.0,0.0,0.0,0.0,0.64,0.0,0.0,0.0
647,0.0,0.0,0.0,0.1208857421875,0.0,0.0,0.0,0.0,0.0,0.0,-0.001,0.0,0.0,0.0,0.0,0.0,-1.61,0.12082467890407031,0.0,0.0,0.0,0.0,0.0,0.0,0.568,0.0,0.0,0.0
648,0.0,0.0,0.0,0.1208857421875,0.0,0.0,0.0,0.0,0.0,0.0,-0.001,0.0,0.0,0.0,0.0,0.0,-1.61,0.1207270766175623,0.0,0.0,0.0,0.0,0.0,0.0,0.684,0.0,0.0,0.0
649,0.0,0.0,0.0,0.1208857421875,0.0,0.0,0.0,0.0,0.0,0.0,-0.001,0.0,0.0,0.0,0.0,0.0,-1.61,0.12062947046080572,0.0,0.0,0.0,0.0,0.0,0.0,0.728,0.0,0.0,0.0
650,0.0,0.0,0.0,0.1208857421875,0.0,0.0,0.0,0.0,0.0,0.0,-0.001,0.0,0.0,0.0,0.0,0.0,-1.61,0.12053190160310365,0.0,0.0,0.0,0.0,0.0,0.0,0.616,0.0,0.0,0.0
651,0.0,0.0,0.0,0.1208857421875,0.0,0.0,0.0,0.0,0.0,0.0,-0.001,0.0,0.0,0.0,0.0,0.0,-1.61,0.120434342822582,0.0,0.0,0.0,0.0,0.0,0.0,0.616,0.0,0.0,0.0
652,0.0,0.0,0.0,0.1208857421875,0.0,0.0,0.0,0.0,0.0,0.0,-0.001,0.0,0.0,0.0,0.0,0.0,-1.61,0.12033684462527547,0.0,0.0,0.0,0.0,0.0,0.0,0.5,0.0,0.0,0.0
653,0.0,0.0,0.0,0.1208857421875,0.0,0.0,0.0,0.0,0.0,0.0,-0.001,0.0,0.0,0.0,0.0,0.0,-1.61,0.1202393620602624,0.0,0.0,0.0,0.0,0.0,0.0,0.684,0.0,0.0,0.0
654,0.0,0.0,0.0,0.1208857421875,0.0,0.0,0.0,0.0,0.0,0.0,-0.001,0.0,0.0,0.0,0.0,0.0,-1.61,0.12014194529865116,0.0,0.0,0.0,0.0,0.0,0.0,0.8,0.0,0.0,0.0
655,0.0,0.0,0.0,0.1207412109375,0.0,0.0,0.0,0.0,0.0,0.0,-0.004,0.0,0.0,0.0,0.0,0.0,-1.61,0.11990008131507666,0.0,0.0,0.0,0.0,0.0,0.0,0.752,0.0,0.0,0.0
656,0.0,0.0,0.0,0.1207412109375,0.0,0.0,0.0,0.0,0.0,0.0,-0.011,0.0,0.0,0.0,0.0,0.0,-1.61,0.11980274644444165,0.0,0.0,0.0,0.0,0.0,0.0,0.844,0.0,0.0,0.0
657,0.0,0.0,0.0,0.1207412109375,0.0,0.0,0.0,0.0,0.0,0.0,-0.001,0.0,0.0,0.0,0.0,0.0,-1.61,0.11970555847830543,0.0,0.0,0.0,0.0,0.0,0.0,0.912,0.0,0.0,0.0
658,0.0,0.0,0.0,0.1208857421875,0.0,0.0,0.0,0.0,0.0,0.0,0.008,0.0,0.0,0.0,0.0,0.0,-1.61,0.11975296248979503,0.0,0.0,0.0,0.0,0.0,0.0,0.752,0.0,0.0,0.0
659,0.0,0.0,0.0,0.1208857421875,0.0,0.0,0.0,0.0,0.0,0.0,0.007,0.0,0.0,0.0,0.0,0.0,-1.61,0.11965589361062731,0.0,0.0,0.0,0.0,0.0,0.0,0.776,0.0,0.0,0.0
660,0.0,0.0,0.0,0.1208857421875,0.0,0.0,0.0,0.0,0.0,0.0,-0.001,0.0,0.0,0.0,0.0,0.0,-1.61,0.11955898979547538,0.0,0.0,0.0,0.0,0.0,0.0,0.844,0.0,0.0,0.0
661,0.0,0.0,0.0,0.1207412109375,0.0,0.0,0.0,0.0,0.0,0.0,-0.01,0.0,0.0,0.0,0.0,0.0,-1.61,0.11931759252304573,0.0,0.0,0.0,0.0,0.0,0.0,0.8,0.0,0.0,0.0
662,0.0,0.0,0.0,0.1207412109375,0.0,0.0,0.0,0.0,0.0,0.0,-0.007,0.0,0.0,0.0,0.0,0.0,-1.61,0.11922087610672981,0.0,0.0,0.0,0.0,0.0,0.0,0.888,0.0,0.0,0.0
663,0.0,0.0,0.0,0.1207412109375,0.0,0.0,0.0,0.0,0.0,0.0,-0.001,0.0,0.0,0.0,0.0,0.0,-1.61,0.11912428337401836,0.0,0.0,0.0,0.0,0.0,0.0,0.844,0.0,0.0,0.0
