EmanuelSamir/lab201_ws_projsamir/sawyer_dev/data/sawyer/temp/test2.csv
,j1,j2,j3,j4,j5,j6,j7,jd1,jd2,jd3,jd4,jd5,jd6,jd7,e1,e2,e3,e4,e5,e6,e7
0,0.0,0.0,0.0,0.0,0.0,0.0,0.0,0.0,0.0,0.0,0.0,0.0,0.0,0.0,0.0,0.0,0.0,0.0,0.0,0.0,0.0
1,0.0,0.0,0.0,0.0,0.0,0.000474609375,0.0,0.0,0.0,0.0,0.0,0.0,-0.9737688662268054,0.0,0.0,0.0,0.0,0.0,0.0,-0.728,0.0
2,0.0,0.0,0.0,0.0,0.0,0.000474609375,0.0,0.0,0.0,0.0,0.0,0.0,-0.9737688662268054,0.0,0.0,0.0,0.0,0.0,0.0,-0.732,0.0
3,0.0,0.0,0.0,0.0,0.0,0.000474609375,0.0,0.0,0.0,0.0,0.0,0.0,-0.9737688662268054,0.0,0.0,0.0,0.0,0.0,0.0,-0.748,0.0
4,0.0,0.0,0.0,0.0,0.0,0.00028125,0.0,0.0,0.0,0.0,0.0,0.0,-0.9737688662268054,0.0,0.0,0.0,0.0,0.0,0.0,-0.864,0.0
5,0.0,0.0,0.0,0.0,0.0,-0.0028173828125,0.0,0.0,0.0,0.0,0.0,0.0,-0.9737688662268054,0.0,0.0,0.0,0.0,0.0,0.0,-1.34,0.0
6,0.0,0.0,0.0,0.0,0.0,-0.01003515625,0.0,0.0,0.0,0.0,0.0,0.0,-0.9737688662268054,0.0,0.0,0.0,0.0,0.0,0.0,-1.052,0.0
7,0.0,0.0,0.0,0.0,0.0,-0.0190986328125,0.0,0.0,0.0,0.0,0.0,0.0,-0.9737688662268054,0.0,0.0,0.0,0.0,0.0,0.0,-1.184,0.0
8,0.0,0.0,0.0,0.0,0.0,-0.03270703125,0.0,0.0,0.0,0.0,0.0,0.0,-0.9737688662268054,0.0,0.0,0.0,0.0,0.0,0.0,-1.104,0.0
9,0.0,0.0,0.0,0.0,0.0,-0.0473349609375,0.0,0.0,0.0,0.0,0.0,0.0,-0.9737688662268054,0.0,0.0,0.0,0.0,0.0,0.0,-0.52,0.0
10,0.0,0.0,0.0,0.0,0.0,-0.0615625,0.0,0.0,0.0,0.0,0.0,0.0,-0.9737688662268054,0.0,0.0,0.0,0.0,0.0,0.0,-0.884,0.0
11,0.0,0.0,0.0,0.0,0.0,-0.079095703125,0.0,0.0,0.0,0.0,0.0,0.0,-0.9737688662268054,0.0,0.0,0.0,0.0,0.0,0.0,-1.064,0.0
12,0.0,0.0,0.0,0.0,0.0,-0.0953759765625,0.0,0.0,0.0,0.0,0.0,0.0,-0.9737688662268054,0.0,0.0,0.0,0.0,0.0,0.0,-0.668,0.0
13,0.0,0.0,0.0,0.0,0.0,-0.1102236328125,0.0,0.0,0.0,0.0,0.0,0.0,-0.9737688662268054,0.0,0.0,0.0,0.0,0.0,0.0,-1.06,0.0
14,0.0,0.0,0.0,0.0,0.0,-0.1281826171875,0.0,0.0,0.0,0.0,0.0,0.0,-0.9737688662268054,0.0,0.0,0.0,0.0,0.0,0.0,-0.4,0.0
15,0.0,0.0,0.0,0.0,0.0,-0.1409775390625,0.0,0.0,0.0,0.0,0.0,0.0,-0.9737688662268054,0.0,0.0,0.0,0.0,0.0,0.0,-0.024,0.0
16,0.0,0.0,0.0,0.0,0.0,-0.1523134765625,0.0,0.0,0.0,0.0,0.0,0.0,-0.9737688662268054,0.0,0.0,0.0,0.0,0.0,0.0,-0.956,0.0
17,0.0,0.0,0.0,0.0,0.0,-0.1661416015625,0.0,0.0,0.0,0.0,0.0,0.0,-0.9737688662268054,0.0,0.0,0.0,0.0,0.0,0.0,-0.208,0.0
18,0.0,0.0,0.0,0.0,0.0,-0.173978515625,0.0,0.0,0.0,0.0,0.0,0.0,-0.9737688662268054,0.0,0.0,0.0,0.0,0.0,0.0,-0.524,0.0
19,0.0,0.0,0.0,0.0,0.0,-0.1824345703125,0.0,0.0,0.0,0.0,0.0,0.0,-0.9737688662268054,0.0,0.0,0.0,0.0,0.0,0.0,-0.968,0.0
20,0.0,0.0,0.0,0.0,0.0,-0.19151171875,0.0,0.0,0.0,0.0,0.0,0.0,-0.9737688662268054,0.0,0.0,0.0,0.0,0.0,0.0,0.24,0.0
21,0.0,0.0,0.0,0.0,0.0,-0.1968818359375,0.0,0.0,0.0,0.0,0.0,0.0,-0.9737688662268054,0.0,0.0,0.0,0.0,0.0,0.0,-0.44,0.0
22,0.0,0.0,0.0,0.0,0.0,-0.2053388671875,0.0,0.0,0.0,0.0,0.0,0.0,-0.9737688662268054,0.0,0.0,0.0,0.0,0.0,0.0,-0.556,0.0
23,0.0,0.0,0.0,0.0,0.0,-0.2125556640625,0.0,0.0,0.0,0.0,0.0,0.0,-0.9737688662268054,0.0,0.0,0.0,0.0,0.0,0.0,-0.22,0.0
24,0.0,0.0,0.0,0.0,0.0,-0.219166015625,0.0,0.0,0.0,0.0,0.0,0.0,-0.9737688662268054,0.0,0.0,0.0,0.0,0.0,0.0,-0.82,0.0
25,0.0,0.0,0.0,0.0,0.0,-0.2280361328125,0.0,0.0,0.0,0.0,0.0,0.0,-0.9737688662268054,0.0,0.0,0.0,0.0,0.0,0.0,-0.368,0.0
26,0.0,0.0,0.0,0.0,0.0,-0.235873046875,0.0,0.0,0.0,0.0,0.0,0.0,-0.9737688662268054,0.0,0.0,0.0,0.0,0.0,0.0,-0.356,0.0
27,0.0,0.0,0.0,0.0,0.0,-0.24558203125,0.0,0.0,0.0,0.0,0.0,0.0,-0.9737688662268054,0.0,0.0,0.0,0.0,0.0,0.0,-0.908,0.0
28,0.0,0.0,0.0,0.0,0.0,-0.256724609375,0.0,0.0,0.0,0.0,0.0,0.0,-0.9737688662268054,0.0,0.0,0.0,0.0,0.0,0.0,-0.604,0.0
29,0.0,0.0,0.0,0.0,0.0,-0.2664208984375,0.0,0.0,0.0,0.0,0.0,0.0,-0.9737688662268054,0.0,0.0,0.0,0.0,0.0,0.0,-0.76,0.0
30,0.0,0.0,0.0,0.0,0.0,-0.277369140625,0.0,0.0,0.0,0.0,0.0,0.0,-0.9737688662268054,0.0,0.0,0.0,0.0,0.0,0.0,-0.664,0.0
31,0.0,0.0,0.0,0.0,0.0,-0.2899697265625,0.0,0.0,0.0,0.0,0.0,0.0,-0.9737688662268054,0.0,0.0,0.0,0.0,0.0,0.0,-0.42,0.0
32,0.0,0.0,0.0,0.0,0.0,-0.3019384765625,0.0,0.0,0.0,0.0,0.0,0.0,-0.9737688662268054,0.0,0.0,0.0,0.0,0.0,0.0,-0.592,0.0
33,0.0,0.0,0.0,0.0,0.0,-0.3135068359375,0.0,0.0,0.0,0.0,0.0,0.0,-0.9737688662268054,0.0,0.0,0.0,0.0,0.0,0.0,-0.664,0.0
34,0.0,0.0,0.0,0.0,0.0,-0.3252685546875,0.0,0.0,0.0,0.0,0.0,0.0,-0.9737688662268054,0.0,0.0,0.0,0.0,0.0,0.0,-0.644,0.0
35,0.0,0.0,0.0,0.0,0.0,-0.338076171875,0.0,0.0,0.0,0.0,0.0,0.0,-0.9737688662268054,0.0,0.0,0.0,0.0,0.0,0.0,-0.648,0.0
36,0.0,0.0,0.0,0.0,0.0,-0.3496318359375,0.0,0.0,0.0,0.0,0.0,0.0,-0.9737688662268054,0.0,0.0,0.0,0.0,0.0,0.0,-0.576,0.0
37,0.0,0.0,0.0,0.0,0.0,-0.3599599609375,0.0,0.0,0.0,0.0,0.0,0.0,-0.9737688662268054,0.0,0.0,0.0,0.0,0.0,0.0,-0.636,0.0
38,0.0,0.0,0.0,0.0,0.0,-0.371115234375,0.0,0.0,0.0,0.0,0.0,0.0,-0.9737688662268054,0.0,0.0,0.0,0.0,0.0,0.0,-0.512,0.0
39,0.0,0.0,0.0,0.0,0.0,-0.3824765625,0.0,0.0,0.0,0.0,0.0,0.0,-0.9737688662268054,0.0,0.0,0.0,0.0,0.0,0.0,-0.46,0.0
40,0.0,0.0,0.0,0.0,0.0,-0.3928056640625,0.0,0.0,0.0,0.0,0.0,0.0,-0.9737688662268054,0.0,0.0,0.0,0.0,0.0,0.0,-0.608,0.0
41,0.0,0.0,0.0,0.0,0.0,-0.4025146484375,0.0,0.0,0.0,0.0,0.0,0.0,-0.9737688662268054,0.0,0.0,0.0,0.0,0.0,0.0,-0.532,0.0
42,0.0,0.0,0.0,0.0,0.0,-0.4124306640625,0.0,0.0,0.0,0.0,0.0,0.0,-0.9737688662268054,0.0,0.0,0.0,0.0,0.0,0.0,-0.436,0.0
43,0.0,0.0,0.0,0.0,0.0,-0.422978515625,0.0,0.0,0.0,0.0,0.0,0.0,-0.9737688662268054,0.0,0.0,0.0,0.0,0.0,0.0,-0.532,0.0
44,0.0,0.0,0.0,0.0,0.0,-0.4324814453125,0.0,0.0,0.0,0.0,0.0,0.0,-0.9737688662268054,0.0,0.0,0.0,0.0,0.0,0.0,-0.584,0.0
45,0.0,0.0,0.0,0.0,0.0,-0.4413642578125,0.0,0.0,0.0,0.0,0.0,0.0,-0.9737688662268054,0.0,0.0,0.0,0.0,0.0,0.0,-0.7,0.0
46,0.0,0.0,0.0,0.0,0.0,-0.4508662109375,0.0,0.0,0.0,0.0,0.0,0.0,-0.9737688662268054,0.0,0.0,0.0,0.0,0.0,0.0,-0.44,0.0
47,0.0,0.0,0.0,0.0,0.0,-0.46098828125,0.0,0.0,0.0,0.0,0.0,0.0,-0.9737688662268054,0.0,0.0,0.0,0.0,0.0,0.0,-0.4,0.0
48,0.0,0.0,0.0,0.0,0.0,-0.471330078125,0.0,0.0,0.0,0.0,0.0,0.0,-0.9737688662268054,0.0,0.0,0.0,0.0,0.0,0.0,-0.488,0.0
49,0.0,0.0,0.0,0.0,0.0,-0.48124609375,0.0,0.0,0.0,0.0,0.0,0.0,-0.9737688662268054,0.0,0.0,0.0,0.0,0.0,0.0,-0.408,0.0
50,0.0,0.0,0.0,0.0,0.0,-0.4905419921875,0.0,0.0,0.0,0.0,0.0,0.0,-0.9737688662268054,0.0,0.0,0.0,0.0,0.0,0.0,-0.428,0.0
51,0.0,0.0,0.0,0.0,0.0,-0.5006767578125,0.0,0.0,0.0,0.0,0.0,0.0,-0.9737688662268054,0.0,0.0,0.0,0.0,0.0,0.0,-0.628,0.0
52,0.0,0.0,0.0,0.0,0.0,-0.51183203125,0.0,0.0,0.0,0.0,0.0,0.0,-0.9737688662268054,0.0,0.0,0.0,0.0,0.0,0.0,-0.624,0.0
53,0.0,0.0,0.0,0.0,0.0,-0.522173828125,0.0,0.0,0.0,0.0,0.0,0.0,-0.9737688662268054,0.0,0.0,0.0,0.0,0.0,0.0,-0.628,0.0
54,0.0,0.0,0.0,0.0,0.0,-0.5320888671875,0.0,0.0,0.0,0.0,0.0,0.0,-0.9737688662268054,0.0,0.0,0.0,0.0,0.0,0.0,-0.572,0.0
55,0.0,0.0,0.0,0.0,0.0,-0.542650390625,0.0,0.0,0.0,0.0,0.0,0.0,-0.9737688662268054,0.0,0.0,0.0,0.0,0.0,0.0,-0.428,0.0
56,0.0,0.0,0.0,0.0,0.0,-0.55421875,0.0,0.0,0.0,0.0,0.0,0.0,-0.9737688662268054,0.0,0.0,0.0,0.0,0.0,0.0,-0.42,0.0
57,0.0,0.0,0.0,0.0,0.0,-0.5649736328125,0.0,0.0,0.0,0.0,0.0,0.0,-0.9737688662268054,0.0,0.0,0.0,0.0,0.0,0.0,-0.468,0.0
58,0.0,0.0,0.0,0.0,0.0,-0.5749013671875,0.0,0.0,0.0,0.0,0.0,0.0,-0.9737688662268054,0.0,0.0,0.0,0.0,0.0,0.0,-0.524,0.0
59,0.0,0.0,0.0,0.0,0.0,-0.5854501953125,0.0,0.0,0.0,0.0,0.0,0.0,-0.9737688662268054,0.0,0.0,0.0,0.0,0.0,0.0,-0.592,0.0
60,0.0,0.0,0.0,0.0,0.0,-0.5972373046875,0.0,0.0,0.0,0.0,0.0,0.0,-0.9737688662268054,0.0,0.0,0.0,0.0,0.0,0.0,-0.524,0.0
61,0.0,0.0,0.0,0.0,0.0,-0.6079794921875,0.0,0.0,0.0,0.0,0.0,0.0,-0.9737688662268054,0.0,0.0,0.0,0.0,0.0,0.0,-0.452,0.0
62,0.0,0.0,0.0,0.0,0.0,-0.617701171875,0.0,0.0,0.0,0.0,0.0,0.0,-0.9737688662268054,0.0,0.0,0.0,0.0,0.0,0.0,-0.532,0.0
63,0.0,0.0,0.0,0.0,0.0,-0.6278369140625,0.0,0.0,0.0,0.0,0.0,0.0,-0.9737688662268054,0.0,0.0,0.0,0.0,0.0,0.0,-0.468,0.0
64,0.0,0.0,0.0,0.0,0.0,-0.6392109375,0.0,0.0,0.0,0.0,0.0,0.0,-0.9737688662268054,0.0,0.0,0.0,0.0,0.0,0.0,-0.428,0.0
65,0.0,0.0,0.0,0.0,0.0,-0.6501982421875,0.0,0.0,0.0,0.0,0.0,0.0,-0.9737688662268054,0.0,0.0,0.0,0.0,0.0,0.0,-0.312,0.0
66,0.0,0.0,0.0,0.0,0.0,-0.659919921875,0.0,0.0,0.0,0.0,0.0,0.0,-0.9737688662268054,0.0,0.0,0.0,0.0,0.0,0.0,-0.316,0.0
67,0.0,0.0,0.0,0.0,0.0,-0.6698486328125,0.0,0.0,0.0,0.0,0.0,0.0,-0.9737688662268054,0.0,0.0,0.0,0.0,0.0,0.0,-0.44,0.0
68,0.0,0.0,0.0,0.0,0.0,-0.6810166015625,0.0,0.0,0.0,0.0,0.0,0.0,-0.9737688662268054,0.0,0.0,0.0,0.0,0.0,0.0,-0.472,0.0
69,0.0,0.0,0.0,0.0,0.0,-0.691771484375,0.0,0.0,0.0,0.0,0.0,0.0,-0.9737688662268054,0.0,0.0,0.0,0.0,0.0,0.0,-0.4,0.0
70,0.0,0.0,0.0,0.0,0.0,-0.7012998046875,0.0,0.0,0.0,0.0,0.0,0.0,-0.9737688662268054,0.0,0.0,0.0,0.0,0.0,0.0,-0.4,0.0
71,0.0,0.0,0.0,0.0,0.0,-0.7108154296875,0.0,0.0,0.0,0.0,0.0,0.0,-0.9737688662268054,0.0,0.0,0.0,0.0,0.0,0.0,-0.4,0.0
72,0.0,0.0,0.0,0.0,0.0,-0.7215703125,0.0,0.0,0.0,0.0,0.0,0.0,-0.9737688662268054,0.0,0.0,0.0,0.0,0.0,0.0,-0.348,0.0
73,0.0,0.0,0.0,0.0,0.0,-0.7327509765625,0.0,0.0,0.0,0.0,0.0,0.0,-0.9737688662268054,0.0,0.0,0.0,0.0,0.0,0.0,-0.244,0.0
74,0.0,0.0,0.0,0.0,0.0,-0.7426923828125,0.0,0.0,0.0,0.0,0.0,0.0,-0.9737688662268054,0.0,0.0,0.0,0.0,0.0,0.0,-0.192,0.0
75,0.0,0.0,0.0,0.0,0.0,-0.7518076171875,0.0,0.0,0.0,0.0,0.0,0.0,-0.9737688662268054,0.0,0.0,0.0,0.0,0.0,0.0,-0.4,0.0
76,0.0,0.0,0.0,0.0,0.0,-0.76235546875,0.0,0.0,0.0,0.0,0.0,0.0,-0.9737688662268054,0.0,0.0,0.0,0.0,0.0,0.0,-0.544,0.0
77,0.0,0.0,0.0,0.0,0.0,-0.7737431640625,0.0,0.0,0.0,0.0,0.0,0.0,-0.9737688662268054,0.0,0.0,0.0,0.0,0.0,0.0,-0.396,0.0
78,0.0,0.0,0.0,0.0,0.0,-0.7838916015625,0.0,0.0,0.0,0.0,0.0,0.0,-0.9737688662268054,0.0,0.0,0.0,0.0,0.0,0.0,-0.312,0.0
79,0.0,0.0,0.0,0.0,0.0,-0.7932001953125,0.0,0.0,0.0,0.0,0.0,0.0,-0.9737688662268054,0.0,0.0,0.0,0.0,0.0,0.0,-0.364,0.0
80,0.0,0.0,0.0,0.0,0.0,-0.80334765625,0.0,0.0,0.0,0.0,0.0,0.0,-0.9737688662268054,0.0,0.0,0.0,0.0,0.0,0.0,-0.448,0.0
81,0.0,0.0,0.0,0.0,0.0,-0.8147353515625,0.0,0.0,0.0,0.0,0.0,0.0,-0.9737688662268054,0.0,0.0,0.0,0.0,0.0,0.0,-0.364,0.0
82,0.0,0.0,0.0,0.0,0.0,-0.82572265625,0.0,0.0,0.0,0.0,0.0,0.0,-0.9737688662268054,0.0,0.0,0.0,0.0,0.0,0.0,-0.148,0.0
83,0.0,0.0,0.0,0.0,0.0,-0.83523828125,0.0,0.0,0.0,0.0,0.0,0.0,-0.9737688662268054,0.0,0.0,0.0,0.0,0.0,0.0,-0.22,0.0
84,0.0,0.0,0.0,0.0,0.0,-0.84497265625,0.0,0.0,0.0,0.0,0.0,0.0,-0.9737688662268054,0.0,0.0,0.0,0.0,0.0,0.0,-0.544,0.0
85,0.0,0.0,0.0,0.0,0.0,-0.85656640625,0.0,0.0,0.0,0.0,0.0,0.0,-0.9737688662268054,0.0,0.0,0.0,0.0,0.0,0.0,-0.52,0.0
86,0.0,0.0,0.0,0.0,0.0,-0.8677607421875,0.0,0.0,0.0,0.0,0.0,0.0,-0.9737688662268054,0.0,0.0,0.0,0.0,0.0,0.0,-0.172,0.0
87,0.0,0.0,0.0,0.0,0.0,-0.8770693359375,0.0,0.0,0.0,0.0,0.0,0.0,-0.9737688662268054,0.0,0.0,0.0,0.0,0.0,0.0,-0.12,0.0
88,0.0,0.0,0.0,0.0,0.0,-0.886390625,0.0,0.0,0.0,0.0,0.0,0.0,-0.9737688662268054,0.0,0.0,0.0,0.0,0.0,0.0,-0.416,0.0
89,0.0,0.0,0.0,0.0,0.0,-0.897791015625,0.0,0.0,0.0,0.0,0.0,0.0,-0.9737688662268054,0.0,0.0,0.0,0.0,0.0,0.0,-0.46,0.0
90,0.0,0.0,0.0,0.0,0.0,-0.9093857421875,0.0,0.0,0.0,0.0,0.0,0.0,-0.9737688662268054,0.0,0.0,0.0,0.0,0.0,0.0,-0.052,0.0
91,0.0,0.0,0.0,0.0,0.0,-0.91933984375,0.0,0.0,0.0,0.0,0.0,0.0,-0.9737688662268054,0.0,0.0,0.0,0.0,0.0,0.0,0.148,0.0
92,0.0,0.0,0.0,0.0,0.0,-0.928248046875,0.0,0.0,0.0,0.0,0.0,0.0,-0.9737688662268054,0.0,0.0,0.0,0.0,0.0,0.0,-0.304,0.0
93,0.0,0.0,0.0,0.0,0.0,-0.9392353515625,0.0,0.0,0.0,0.0,0.0,0.0,1.1036391864001425,0.0,0.0,0.0,0.0,0.0,0.0,-0.644,0.0
94,0.0,0.0,0.0,0.0,0.0,-0.9512431640625,0.0,0.0,0.0,0.0,0.0,0.0,1.1036391864001425,0.0,0.0,0.0,0.0,0.0,0.0,-0.172,0.0
95,0.0,0.0,0.0,0.0,0.0,-0.960990234375,0.0,0.0,0.0,0.0,0.0,0.0,1.1036391864001425,0.0,0.0,0.0,0.0,0.0,0.0,0.272,0.0
96,0.0,0.0,0.0,0.0,0.0,-0.9676142578125,0.0,0.0,0.0,0.0,0.0,0.0,1.1036391864001425,0.0,0.0,0.0,0.0,0.0,0.0,0.396,0.0
97,0.0,0.0,0.0,0.0,0.0,-0.9707255859375,0.0,0.0,0.0,0.0,0.0,0.0,1.1036391864001425,0.0,0.0,0.0,0.0,0.0,0.0,0.592,0.0
98,0.0,0.0,0.0,0.0,0.0,-0.9707255859375,0.0,0.0,0.0,0.0,0.0,0.0,1.1036391864001425,0.0,0.0,0.0,0.0,0.0,0.0,0.708,0.0
99,0.0,0.0,0.0,0.0,0.0,-0.9676142578125,0.0,0.0,0.0,0.0,0.0,0.0,1.1036391864001425,0.0,0.0,0.0,0.0,0.0,0.0,0.728,0.0
100,0.0,0.0,0.0,0.0,0.0,-0.9607841796875,0.0,0.0,0.0,0.0,0.0,0.0,1.1036391864001425,0.0,0.0,0.0,0.0,0.0,0.0,0.384,0.0
101,0.0,0.0,0.0,0.0,0.0,-0.951875,0.0,0.0,0.0,0.0,0.0,0.0,1.1036391864001425,0.0,0.0,0.0,0.0,0.0,0.0,0.036,0.0
102,0.0,0.0,0.0,0.0,0.0,-0.940681640625,0.0,0.0,0.0,0.0,0.0,0.0,1.1036391864001425,0.0,0.0,0.0,0.0,0.0,0.0,0.556,0.0
103,0.0,0.0,0.0,0.0,0.0,-0.9259755859375,0.0,0.0,0.0,0.0,0.0,0.0,1.1036391864001425,0.0,0.0,0.0,0.0,0.0,0.0,0.732,0.0
104,0.0,0.0,0.0,0.0,0.0,-0.9091787109375,0.0,0.0,0.0,0.0,0.0,0.0,1.1036391864001425,0.0,0.0,0.0,0.0,0.0,0.0,-0.016,0.0
105,0.0,0.0,0.0,0.0,0.0,-0.892201171875,0.0,0.0,0.0,0.0,0.0,0.0,1.1036391864001425,0.0,0.0,0.0,0.0,0.0,0.0,0.368,0.0
106,0.0,0.0,0.0,0.0,0.0,-0.8725244140625,0.0,0.0,0.0,0.0,0.0,0.0,1.1036391864001425,0.0,0.0,0.0,0.0,0.0,0.0,0.172,0.0
107,0.0,0.0,0.0,0.0,0.0,-0.85326171875,0.0,0.0,0.0,0.0,0.0,0.0,1.1036391864001425,0.0,0.0,0.0,0.0,0.0,0.0,-0.364,0.0
108,0.0,0.0,0.0,0.0,0.0,-0.83337890625,0.0,0.0,0.0,0.0,0.0,0.0,1.1036391864001425,0.0,0.0,0.0,0.0,0.0,0.0,0.244,0.0
109,0.0,0.0,0.0,0.0,0.0,-0.81349609375,0.0,0.0,0.0,0.0,0.0,0.0,1.1036391864001425,0.0,0.0,0.0,0.0,0.0,0.0,-0.46,0.0
110,0.0,0.0,0.0,0.0,0.0,-0.7946455078125,0.0,0.0,0.0,0.0,0.0,0.0,1.1036391864001425,0.0,0.0,0.0,0.0,0.0,0.0,0.252,0.0
111,0.0,0.0,0.0,0.0,0.0,-0.774982421875,0.0,0.0,0.0,0.0,0.0,0.0,1.1036391864001425,0.0,0.0,0.0,0.0,0.0,0.0,-0.752,0.0
112,0.0,0.0,0.0,0.0,0.0,-0.757591796875,0.0,0.0,0.0,0.0,0.0,0.0,1.1036391864001425,0.0,0.0,0.0,0.0,0.0,0.0,-0.52,0.0
113,0.0,0.0,0.0,0.0,0.0,-0.7410400390625,0.0,0.0,0.0,0.0,0.0,0.0,1.1036391864001425,0.0,0.0,0.0,0.0,0.0,0.0,-0.336,0.0
114,0.0,0.0,0.0,0.0,0.0,-0.7255078125,0.0,0.0,0.0,0.0,0.0,0.0,1.1036391864001425,0.0,0.0,0.0,0.0,0.0,0.0,-0.656,0.0
115,0.0,0.0,0.0,0.0,0.0,-0.711228515625,0.0,0.0,0.0,0.0,0.0,0.0,1.1036391864001425,0.0,0.0,0.0,0.0,0.0,0.0,-0.284,0.0
116,0.0,0.0,0.0,0.0,0.0,-0.69839453125,0.0,0.0,0.0,0.0,0.0,0.0,1.1036391864001425,0.0,0.0,0.0,0.0,0.0,0.0,-0.8,0.0
117,0.0,0.0,0.0,0.0,0.0,-0.6878466796875,0.0,0.0,0.0,0.0,0.0,0.0,1.1036391864001425,0.0,0.0,0.0,0.0,0.0,0.0,-0.924,0.0
118,0.0,0.0,0.0,0.0,0.0,-0.6775048828125,0.0,0.0,0.0,0.0,0.0,0.0,1.1036391864001425,0.0,0.0,0.0,0.0,0.0,0.0,-0.416,0.0
119,0.0,0.0,0.0,0.0,0.0,-0.6675634765625,0.0,0.0,0.0,0.0,0.0,0.0,1.1036391864001425,0.0,0.0,0.0,0.0,0.0,0.0,-0.664,0.0
120,0.0,0.0,0.0,0.0,0.0,-0.660126953125,0.0,0.0,0.0,0.0,0.0,0.0,1.1036391864001425,0.0,0.0,0.0,0.0,0.0,0.0,-0.664,0.0
121,0.0,0.0,0.0,0.0,0.0,-0.6537099609375,0.0,0.0,0.0,0.0,0.0,0.0,1.1036391864001425,0.0,0.0,0.0,0.0,0.0,0.0,-0.616,0.0
122,0.0,0.0,0.0,0.0,0.0,-0.6477060546875,0.0,0.0,0.0,0.0,0.0,0.0,1.1036391864001425,0.0,0.0,0.0,0.0,0.0,0.0,-0.624,0.0
123,0.0,0.0,0.0,0.0,0.0,-0.6415087890625,0.0,0.0,0.0,0.0,0.0,0.0,1.1036391864001425,0.0,0.0,0.0,0.0,0.0,0.0,-0.46,0.0
124,0.0,0.0,0.0,0.0,0.0,-0.6352861328125,0.0,0.0,0.0,0.0,0.0,0.0,1.1036391864001425,0.0,0.0,0.0,0.0,0.0,0.0,-0.592,0.0
125,0.0,0.0,0.0,0.0,0.0,-0.6307412109375,0.0,0.0,0.0,0.0,0.0,0.0,1.1036391864001425,0.0,0.0,0.0,0.0,0.0,0.0,-0.22,0.0
126,0.0,0.0,0.0,0.0,0.0,-0.62473828125,0.0,0.0,0.0,0.0,0.0,0.0,1.1036391864001425,0.0,0.0,0.0,0.0,0.0,0.0,-0.104,0.0
127,0.0,0.0,0.0,0.0,0.0,-0.6183212890625,0.0,0.0,0.0,0.0,0.0,0.0,1.1036391864001425,0.0,0.0,0.0,0.0,0.0,0.0,-0.748,0.0
128,0.0,0.0,0.0,0.0,0.0,-0.614189453125,0.0,0.0,0.0,0.0,0.0,0.0,1.1036391864001425,0.0,0.0,0.0,0.0,0.0,0.0,-0.46,0.0
129,0.0,0.0,0.0,0.0,0.0,-0.6079794921875,0.0,0.0,0.0,0.0,0.0,0.0,1.1036391864001425,0.0,0.0,0.0,0.0,0.0,0.0,-0.136,0.0
130,0.0,0.0,0.0,0.0,0.0,-0.6001298828125,0.0,0.0,0.0,0.0,0.0,0.0,1.1036391864001425,0.0,0.0,0.0,0.0,0.0,0.0,-0.616,0.0
131,0.0,0.0,0.0,0.0,0.0,-0.5926796875,0.0,0.0,0.0,0.0,0.0,0.0,1.1036391864001425,0.0,0.0,0.0,0.0,0.0,0.0,-0.232,0.0
132,0.0,0.0,0.0,0.0,0.0,-0.5837841796875,0.0,0.0,0.0,0.0,0.0,0.0,1.1036391864001425,0.0,0.0,0.0,0.0,0.0,0.0,-0.096,0.0
133,0.0,0.0,0.0,0.0,0.0,-0.57448828125,0.0,0.0,0.0,0.0,0.0,0.0,1.1036391864001425,0.0,0.0,0.0,0.0,0.0,0.0,-0.364,0.0
134,0.0,0.0,0.0,0.0,0.0,-0.5657998046875,0.0,0.0,0.0,0.0,0.0,0.0,1.1036391864001425,0.0,0.0,0.0,0.0,0.0,0.0,-0.332,0.0
135,0.0,0.0,0.0,0.0,0.0,-0.5558837890625,0.0,0.0,0.0,0.0,0.0,0.0,1.1036391864001425,0.0,0.0,0.0,0.0,0.0,0.0,-0.2,0.0
136,0.0,0.0,0.0,0.0,0.0,-0.5447158203125,0.0,0.0,0.0,0.0,0.0,0.0,1.1036391864001425,0.0,0.0,0.0,0.0,0.0,0.0,0.012,0.0
137,0.0,0.0,0.0,0.0,0.0,-0.5331220703125,0.0,0.0,0.0,0.0,0.0,0.0,1.1036391864001425,0.0,0.0,0.0,0.0,0.0,0.0,-0.136,0.0
138,0.0,0.0,0.0,0.0,0.0,-0.521966796875,0.0,0.0,0.0,0.0,0.0,0.0,1.1036391864001425,0.0,0.0,0.0,0.0,0.0,0.0,-0.656,0.0
139,0.0,0.0,0.0,0.0,0.0,-0.511005859375,0.0,0.0,0.0,0.0,0.0,0.0,1.1036391864001425,0.0,0.0,0.0,0.0,0.0,0.0,-0.244,0.0
140,0.0,0.0,0.0,0.0,0.0,-0.4975654296875,0.0,0.0,0.0,0.0,0.0,0.0,1.1036391864001425,0.0,0.0,0.0,0.0,0.0,0.0,-0.224,0.0
141,0.0,0.0,0.0,0.0,0.0,-0.485376953125,0.0,0.0,0.0,0.0,0.0,0.0,1.1036391864001425,0.0,0.0,0.0,0.0,0.0,0.0,-0.624,0.0
142,0.0,0.0,0.0,0.0,0.0,-0.474841796875,0.0,0.0,0.0,0.0,0.0,0.0,1.1036391864001425,0.0,0.0,0.0,0.0,0.0,0.0,-0.172,0.0
143,0.0,0.0,0.0,0.0,0.0,-0.4611953125,0.0,0.0,0.0,0.0,0.0,0.0,1.1036391864001425,0.0,0.0,0.0,0.0,0.0,0.0,-0.032,0.0
144,0.0,0.0,0.0,0.0,0.0,-0.447767578125,0.0,0.0,0.0,0.0,0.0,0.0,1.1036391864001425,0.0,0.0,0.0,0.0,0.0,0.0,-0.628,0.0
145,0.0,0.0,0.0,0.0,0.0,-0.437025390625,0.0,0.0,0.0,0.0,0.0,0.0,1.1036391864001425,0.0,0.0,0.0,0.0,0.0,0.0,-0.592,0.0
146,0.0,0.0,0.0,0.0,0.0,-0.4250439453125,0.0,0.0,0.0,0.0,0.0,0.0,1.1036391864001425,0.0,0.0,0.0,0.0,0.0,0.0,-0.4,0.0
147,0.0,0.0,0.0,0.0,0.0,-0.411810546875,0.0,0.0,0.0,0.0,0.0,0.0,1.1036391864001425,0.0,0.0,0.0,0.0,0.0,0.0,-0.532,0.0
148,0.0,0.0,0.0,0.0,0.0,-0.4002421875,0.0,0.0,0.0,0.0,0.0,0.0,1.1036391864001425,0.0,0.0,0.0,0.0,0.0,0.0,-0.512,0.0
149,0.0,0.0,0.0,0.0,0.0,-0.3895009765625,0.0,0.0,0.0,0.0,0.0,0.0,1.1036391864001425,0.0,0.0,0.0,0.0,0.0,0.0,-0.46,0.0
150,0.0,0.0,0.0,0.0,0.0,-0.37751953125,0.0,0.0,0.0,0.0,0.0,0.0,1.1036391864001425,0.0,0.0,0.0,0.0,0.0,0.0,-0.428,0.0
151,0.0,0.0,0.0,0.0,0.0,-0.3655380859375,0.0,0.0,0.0,0.0,0.0,0.0,1.1036391864001425,0.0,0.0,0.0,0.0,0.0,0.0,-0.664,0.0
152,0.0,0.0,0.0,0.0,0.0,-0.3556220703125,0.0,0.0,0.0,0.0,0.0,0.0,1.1036391864001425,0.0,0.0,0.0,0.0,0.0,0.0,-0.572,0.0
153,0.0,0.0,0.0,0.0,0.0,-0.3455126953125,0.0,0.0,0.0,0.0,0.0,0.0,1.1036391864001425,0.0,0.0,0.0,0.0,0.0,0.0,-0.576,0.0
154,0.0,0.0,0.0,0.0,0.0,-0.334564453125,0.0,0.0,0.0,0.0,0.0,0.0,1.1036391864001425,0.0,0.0,0.0,0.0,0.0,0.0,-0.748,0.0
155,0.0,0.0,0.0,0.0,0.0,-0.3246484375,0.0,0.0,0.0,0.0,0.0,0.0,1.1036391864001425,0.0,0.0,0.0,0.0,0.0,0.0,-0.5,0.0
156,0.0,0.0,0.0,0.0,0.0,-0.314126953125,0.0,0.0,0.0,0.0,0.0,0.0,1.1036391864001425,0.0,0.0,0.0,0.0,0.0,0.0,-0.408,0.0
157,0.0,0.0,0.0,0.0,0.0,-0.3044169921875,0.0,0.0,0.0,0.0,0.0,0.0,1.1036391864001425,0.0,0.0,0.0,0.0,0.0,0.0,-0.924,0.0
158,0.0,0.0,0.0,0.0,0.0,-0.29575390625,0.0,0.0,0.0,0.0,0.0,0.0,1.1036391864001425,0.0,0.0,0.0,0.0,0.0,0.0,-0.5,0.0
159,0.0,0.0,0.0,0.0,0.0,-0.2852060546875,0.0,0.0,0.0,0.0,0.0,0.0,1.1036391864001425,0.0,0.0,0.0,0.0,0.0,0.0,-0.368,0.0
160,0.0,0.0,0.0,0.0,0.0,-0.275716796875,0.0,0.0,0.0,0.0,0.0,0.0,1.1036391864001425,0.0,0.0,0.0,0.0,0.0,0.0,-0.524,0.0
161,0.0,0.0,0.0,0.0,0.0,-0.266833984375,0.0,0.0,0.0,0.0,0.0,0.0,1.1036391864001425,0.0,0.0,0.0,0.0,0.0,0.0,-0.468,0.0
162,0.0,0.0,0.0,0.0,0.0,-0.2571376953125,0.0,0.0,0.0,0.0,0.0,0.0,1.1036391864001425,0.0,0.0,0.0,0.0,0.0,0.0,-0.856,0.0
163,0.0,0.0,0.0,0.0,0.0,-0.2480478515625,0.0,0.0,0.0,0.0,0.0,0.0,1.1036391864001425,0.0,0.0,0.0,0.0,0.0,0.0,-0.696,0.0
164,0.0,0.0,0.0,0.0,0.0,-0.23855859375,0.0,0.0,0.0,0.0,0.0,0.0,1.1036391864001425,0.0,0.0,0.0,0.0,0.0,0.0,-0.272,0.0
165,0.0,0.0,0.0,0.0,0.0,-0.22844921875,0.0,0.0,0.0,0.0,0.0,0.0,1.1036391864001425,0.0,0.0,0.0,0.0,0.0,0.0,-0.388,0.0
166,0.0,0.0,0.0,0.0,0.0,-0.219580078125,0.0,0.0,0.0,0.0,0.0,0.0,1.1036391864001425,0.0,0.0,0.0,0.0,0.0,0.0,-0.552,0.0
167,0.0,0.0,0.0,0.0,0.0,-0.2100771484375,0.0,0.0,0.0,0.0,0.0,0.0,1.1036391864001425,0.0,0.0,0.0,0.0,0.0,0.0,-0.416,0.0
168,0.0,0.0,0.0,0.0,0.0,-0.1995546875,0.0,0.0,0.0,0.0,0.0,0.0,1.1036391864001425,0.0,0.0,0.0,0.0,0.0,0.0,-0.452,0.0
169,0.0,0.0,0.0,0.0,0.0,-0.1900654296875,0.0,0.0,0.0,0.0,0.0,0.0,1.1036391864001425,0.0,0.0,0.0,0.0,0.0,0.0,-0.312,0.0
170,0.0,0.0,0.0,0.0,0.0,-0.1799560546875,0.0,0.0,0.0,0.0,0.0,0.0,1.1036391864001425,0.0,0.0,0.0,0.0,0.0,0.0,-0.48,0.0
171,0.0,0.0,0.0,0.0,0.0,-0.1700537109375,0.0,0.0,0.0,0.0,0.0,0.0,1.1036391864001425,0.0,0.0,0.0,0.0,0.0,0.0,-0.804,0.0
172,0.0,0.0,0.0,0.0,0.0,-0.1597373046875,0.0,0.0,0.0,0.0,0.0,0.0,1.1036391864001425,0.0,0.0,0.0,0.0,0.0,0.0,-0.452,0.0
173,0.0,0.0,0.0,0.0,0.0,-0.1486083984375,0.0,0.0,0.0,0.0,0.0,0.0,1.1036391864001425,0.0,0.0,0.0,0.0,0.0,0.0,-0.488,0.0
174,0.0,0.0,0.0,0.0,0.0,-0.1382919921875,0.0,0.0,0.0,0.0,0.0,0.0,1.1036391864001425,0.0,0.0,0.0,0.0,0.0,0.0,-0.556,0.0
175,0.0,0.0,0.0,0.0,0.0,-0.1281826171875,0.0,0.0,0.0,0.0,0.0,0.0,1.1036391864001425,0.0,0.0,0.0,0.0,0.0,0.0,-0.532,0.0
176,0.0,0.0,0.0,0.0,0.0,-0.1170537109375,0.0,0.0,0.0,0.0,0.0,0.0,1.1036391864001425,0.0,0.0,0.0,0.0,0.0,0.0,-0.452,0.0
177,0.0,0.0,0.0,0.0,0.0,-0.10610546875,0.0,0.0,0.0,0.0,0.0,0.0,1.1036391864001425,0.0,0.0,0.0,0.0,0.0,0.0,-0.408,0.0
178,0.0,0.0,0.0,0.0,0.0,-0.094962890625,0.0,0.0,0.0,0.0,0.0,0.0,1.1036391864001425,0.0,0.0,0.0,0.0,0.0,0.0,-0.488,0.0
179,0.0,0.0,0.0,0.0,0.0,-0.0844541015625,0.0,0.0,0.0,0.0,0.0,0.0,1.1036391864001425,0.0,0.0,0.0,0.0,0.0,0.0,-0.856,0.0
180,0.0,0.0,0.0,0.0,0.0,-0.0735185546875,0.0,0.0,0.0,0.0,0.0,0.0,1.1036391864001425,0.0,0.0,0.0,0.0,0.0,0.0,-0.608,0.0
181,0.0,0.0,0.0,0.0,0.0,-0.0619755859375,0.0,0.0,0.0,0.0,0.0,0.0,1.1036391864001425,0.0,0.0,0.0,0.0,0.0,0.0,-0.492,0.0
182,0.0,0.0,0.0,0.0,0.0,-0.051052734375,0.0,0.0,0.0,0.0,0.0,0.0,1.1036391864001425,0.0,0.0,0.0,0.0,0.0,0.0,-0.564,0.0
183,0.0,0.0,0.0,0.0,0.0,-0.0405439453125,0.0,0.0,0.0,0.0,0.0,0.0,1.1036391864001425,0.0,0.0,0.0,0.0,0.0,0.0,-0.604,0.0
184,0.0,0.0,0.0,0.0,0.0,-0.0294013671875,0.0,0.0,0.0,0.0,0.0,0.0,1.1036391864001425,0.0,0.0,0.0,0.0,0.0,0.0,-0.504,0.0
185,0.0,0.0,0.0,0.0,0.0,-0.0182724609375,0.0,0.0,0.0,0.0,0.0,0.0,1.1036391864001425,0.0,0.0,0.0,0.0,0.0,0.0,-0.472,0.0
186,0.0,0.0,0.0,0.0,0.0,-0.007556640625,0.0,0.0,0.0,0.0,0.0,0.0,1.1036391864001425,0.0,0.0,0.0,0.0,0.0,0.0,-0.552,0.0
187,0.0,0.0,0.0,0.0,0.0,0.0029521484375,0.0,0.0,0.0,0.0,0.0,0.0,1.1036391864001425,0.0,0.0,0.0,0.0,0.0,0.0,-0.844,0.0
188,0.0,0.0,0.0,0.0,0.0,0.0132548828125,0.0,0.0,0.0,0.0,0.0,0.0,1.1036391864001425,0.0,0.0,0.0,0.0,0.0,0.0,-0.628,0.0
189,0.0,0.0,0.0,0.0,0.0,0.0245908203125,0.0,0.0,0.0,0.0,0.0,0.0,1.1036391864001425,0.0,0.0,0.0,0.0,0.0,0.0,-0.488,0.0
190,0.0,0.0,0.0,0.0,0.0,0.0351005859375,0.0,0.0,0.0,0.0,0.0,0.0,1.1036391864001425,0.0,0.0,0.0,0.0,0.0,0.0,-0.564,0.0
191,0.0,0.0,0.0,0.0,0.0,0.044990234375,0.0,0.0,0.0,0.0,0.0,0.0,1.1036391864001425,0.0,0.0,0.0,0.0,0.0,0.0,-0.604,0.0
192,0.0,0.0,0.0,0.0,0.0,0.0555,0.0,0.0,0.0,0.0,0.0,0.0,1.1036391864001425,0.0,0.0,0.0,0.0,0.0,0.0,-0.5,0.0
193,0.0,0.0,0.0,0.0,0.0,0.066009765625,0.0,0.0,0.0,0.0,0.0,0.0,1.1036391864001425,0.0,0.0,0.0,0.0,0.0,0.0,-0.48,0.0
194,0.0,0.0,0.0,0.0,0.0,0.0763125,0.0,0.0,0.0,0.0,0.0,0.0,1.1036391864001425,0.0,0.0,0.0,0.0,0.0,0.0,-0.42,0.0
195,0.0,0.0,0.0,0.0,0.0,0.086615234375,0.0,0.0,0.0,0.0,0.0,0.0,1.1036391864001425,0.0,0.0,0.0,0.0,0.0,0.0,-0.8,0.0
196,0.0,0.0,0.0,0.0,0.0,0.096298828125,0.0,0.0,0.0,0.0,0.0,0.0,1.1036391864001425,0.0,0.0,0.0,0.0,0.0,0.0,-0.696,0.0
197,0.0,0.0,0.0,0.0,0.0,0.106794921875,0.0,0.0,0.0,0.0,0.0,0.0,1.1036391864001425,0.0,0.0,0.0,0.0,0.0,0.0,-0.524,0.0
198,0.0,0.0,0.0,0.0,0.0,0.1173046875,0.0,0.0,0.0,0.0,0.0,0.0,1.1036391864001425,0.0,0.0,0.0,0.0,0.0,0.0,-0.408,0.0
199,0.0,0.0,0.0,0.0,0.0,0.1271943359375,0.0,0.0,0.0,0.0,0.0,0.0,1.1036391864001425,0.0,0.0,0.0,0.0,0.0,0.0,-0.524,0.0
200,0.0,0.0,0.0,0.0,0.0,0.1368779296875,0.0,0.0,0.0,0.0,0.0,0.0,1.1036391864001425,0.0,0.0,0.0,0.0,0.0,0.0,-0.48,0.0
201,0.0,0.0,0.0,0.0,0.0,0.1473740234375,0.0,0.0,0.0,0.0,0.0,0.0,1.1036391864001425,0.0,0.0,0.0,0.0,0.0,0.0,-0.5,0.0
202,0.0,0.0,0.0,0.0,0.0,0.157470703125,0.0,0.0,0.0,0.0,0.0,0.0,1.1036391864001425,0.0,0.0,0.0,0.0,0.0,0.0,-0.368,0.0
203,0.0,0.0,0.0,0.0,0.0,0.167966796875,0.0,0.0,0.0,0.0,0.0,0.0,1.1036391864001425,0.0,0.0,0.0,0.0,0.0,0.0,-0.628,0.0
204,0.0,0.0,0.0,0.0,0.0,0.177650390625,0.0,0.0,0.0,0.0,0.0,0.0,1.1036391864001425,0.0,0.0,0.0,0.0,0.0,0.0,-0.676,0.0
205,0.0,0.0,0.0,0.0,0.0,0.1879404296875,0.0,0.0,0.0,0.0,0.0,0.0,1.1036391864001425,0.0,0.0,0.0,0.0,0.0,0.0,-0.576,0.0
206,0.0,0.0,0.0,0.0,0.0,0.1986435546875,0.0,0.0,0.0,0.0,0.0,0.0,1.1036391864001425,0.0,0.0,0.0,0.0,0.0,0.0,-0.4,0.0
207,0.0,0.0,0.0,0.0,0.0,0.2089462890625,0.0,0.0,0.0,0.0,0.0,0.0,1.1036391864001425,0.0,0.0,0.0,0.0,0.0,0.0,-0.408,0.0
208,0.0,0.0,0.0,0.0,0.0,0.2190302734375,0.0,0.0,0.0,0.0,0.0,0.0,1.1036391864001425,0.0,0.0,0.0,0.0,0.0,0.0,-0.492,0.0
209,0.0,0.0,0.0,0.0,0.0,0.2293203125,0.0,0.0,0.0,0.0,0.0,0.0,1.1036391864001425,0.0,0.0,0.0,0.0,0.0,0.0,-0.44,0.0
210,0.0,0.0,0.0,0.0,0.0,0.2400361328125,0.0,0.0,0.0,0.0,0.0,0.0,1.1036391864001425,0.0,0.0,0.0,0.0,0.0,0.0,-0.368,0.0
211,0.0,0.0,0.0,0.0,0.0,0.2507392578125,0.0,0.0,0.0,0.0,0.0,0.0,1.1036391864001425,0.0,0.0,0.0,0.0,0.0,0.0,-0.472,0.0
212,0.0,0.0,0.0,0.0,0.0,0.261029296875,0.0,0.0,0.0,0.0,0.0,0.0,1.1036391864001425,0.0,0.0,0.0,0.0,0.0,0.0,-0.644,0.0
213,0.0,0.0,0.0,0.0,0.0,0.2711123046875,0.0,0.0,0.0,0.0,0.0,0.0,1.1036391864001425,0.0,0.0,0.0,0.0,0.0,0.0,-0.616,0.0
214,0.0,0.0,0.0,0.0,0.0,0.2818154296875,0.0,0.0,0.0,0.0,0.0,0.0,1.1036391864001425,0.0,0.0,0.0,0.0,0.0,0.0,-0.396,0.0
215,0.0,0.0,0.0,0.0,0.0,0.2929326171875,0.0,0.0,0.0,0.0,0.0,0.0,1.1036391864001425,0.0,0.0,0.0,0.0,0.0,0.0,-0.348,0.0
216,0.0,0.0,0.0,0.0,0.0,0.3034287109375,0.0,0.0,0.0,0.0,0.0,0.0,1.1036391864001425,0.0,0.0,0.0,0.0,0.0,0.0,-0.532,0.0
217,0.0,0.0,0.0,0.0,0.0,0.31351171875,0.0,0.0,0.0,0.0,0.0,0.0,1.1036391864001425,0.0,0.0,0.0,0.0,0.0,0.0,-0.364,0.0
218,0.0,0.0,0.0,0.0,0.0,0.324421875,0.0,0.0,0.0,0.0,0.0,0.0,1.1036391864001425,0.0,0.0,0.0,0.0,0.0,0.0,-0.344,0.0
219,0.0,0.0,0.0,0.0,0.0,0.335318359375,0.0,0.0,0.0,0.0,0.0,0.0,1.1036391864001425,0.0,0.0,0.0,0.0,0.0,0.0,-0.448,0.0
220,0.0,0.0,0.0,0.0,0.0,0.3456083984375,0.0,0.0,0.0,0.0,0.0,0.0,1.1036391864001425,0.0,0.0,0.0,0.0,0.0,0.0,-0.604,0.0
221,0.0,0.0,0.0,0.0,0.0,0.35610546875,0.0,0.0,0.0,0.0,0.0,0.0,1.1036391864001425,0.0,0.0,0.0,0.0,0.0,0.0,-0.544,0.0
222,0.0,0.0,0.0,0.0,0.0,0.36680859375,0.0,0.0,0.0,0.0,0.0,0.0,1.1036391864001425,0.0,0.0,0.0,0.0,0.0,0.0,-0.42,0.0
223,0.0,0.0,0.0,0.0,0.0,0.377705078125,0.0,0.0,0.0,0.0,0.0,0.0,1.1036391864001425,0.0,0.0,0.0,0.0,0.0,0.0,-0.264,0.0
224,0.0,0.0,0.0,0.0,0.0,0.388408203125,0.0,0.0,0.0,0.0,0.0,0.0,1.1036391864001425,0.0,0.0,0.0,0.0,0.0,0.0,-0.436,0.0
225,0.0,0.0,0.0,0.0,0.0,0.3984921875,0.0,0.0,0.0,0.0,0.0,0.0,1.1036391864001425,0.0,0.0,0.0,0.0,0.0,0.0,-0.388,0.0
226,0.0,0.0,0.0,0.0,0.0,0.40876953125,0.0,0.0,0.0,0.0,0.0,0.0,1.1036391864001425,0.0,0.0,0.0,0.0,0.0,0.0,-0.284,0.0
227,0.0,0.0,0.0,0.0,0.0,0.4198857421875,0.0,0.0,0.0,0.0,0.0,0.0,1.1036391864001425,0.0,0.0,0.0,0.0,0.0,0.0,-0.316,0.0
228,0.0,0.0,0.0,0.0,0.0,0.430162109375,0.0,0.0,0.0,0.0,0.0,0.0,1.1036391864001425,0.0,0.0,0.0,0.0,0.0,0.0,-0.552,0.0
229,0.0,0.0,0.0,0.0,0.0,0.4400390625,0.0,0.0,0.0,0.0,0.0,0.0,1.1036391864001425,0.0,0.0,0.0,0.0,0.0,0.0,-0.48,0.0
230,0.0,0.0,0.0,0.0,0.0,0.4507294921875,0.0,0.0,0.0,0.0,0.0,0.0,1.1036391864001425,0.0,0.0,0.0,0.0,0.0,0.0,-0.42,0.0
231,0.0,0.0,0.0,0.0,0.0,0.4614326171875,0.0,0.0,0.0,0.0,0.0,0.0,1.1036391864001425,0.0,0.0,0.0,0.0,0.0,0.0,-0.224,0.0
232,0.0,0.0,0.0,0.0,0.0,0.4719169921875,0.0,0.0,0.0,0.0,0.0,0.0,1.1036391864001425,0.0,0.0,0.0,0.0,0.0,0.0,-0.344,0.0
233,0.0,0.0,0.0,0.0,0.0,0.4819873046875,0.0,0.0,0.0,0.0,0.0,0.0,1.1036391864001425,0.0,0.0,0.0,0.0,0.0,0.0,-0.292,0.0
234,0.0,0.0,0.0,0.0,0.0,0.4920703125,0.0,0.0,0.0,0.0,0.0,0.0,1.1036391864001425,0.0,0.0,0.0,0.0,0.0,0.0,-0.284,0.0
235,0.0,0.0,0.0,0.0,0.0,0.5027607421875,0.0,0.0,0.0,0.0,0.0,0.0,1.1036391864001425,0.0,0.0,0.0,0.0,0.0,0.0,-0.192,0.0
236,0.0,0.0,0.0,0.0,0.0,0.513451171875,0.0,0.0,0.0,0.0,0.0,0.0,1.1036391864001425,0.0,0.0,0.0,0.0,0.0,0.0,-0.364,0.0
237,0.0,0.0,0.0,0.0,0.0,0.5235341796875,0.0,0.0,0.0,0.0,0.0,0.0,1.1036391864001425,0.0,0.0,0.0,0.0,0.0,0.0,-0.468,0.0
238,0.0,0.0,0.0,0.0,0.0,0.53360546875,0.0,0.0,0.0,0.0,0.0,0.0,1.1036391864001425,0.0,0.0,0.0,0.0,0.0,0.0,-0.376,0.0
239,0.0,0.0,0.0,0.0,0.0,0.5440888671875,0.0,0.0,0.0,0.0,0.0,0.0,1.1036391864001425,0.0,0.0,0.0,0.0,0.0,0.0,-0.16,0.0
240,0.0,0.0,0.0,0.0,0.0,0.5551923828125,0.0,0.0,0.0,0.0,0.0,0.0,1.1036391864001425,0.0,0.0,0.0,0.0,0.0,0.0,-0.26,0.0
241,0.0,0.0,0.0,0.0,0.0,0.565275390625,0.0,0.0,0.0,0.0,0.0,0.0,1.1036391864001425,0.0,0.0,0.0,0.0,0.0,0.0,-0.312,0.0
242,0.0,0.0,0.0,0.0,0.0,0.5751396484375,0.0,0.0,0.0,0.0,0.0,0.0,1.1036391864001425,0.0,0.0,0.0,0.0,0.0,0.0,-0.208,0.0
243,0.0,0.0,0.0,0.0,0.0,0.585830078125,0.0,0.0,0.0,0.0,0.0,0.0,1.1036391864001425,0.0,0.0,0.0,0.0,0.0,0.0,-0.12,0.0
244,0.0,0.0,0.0,0.0,0.0,0.5967265625,0.0,0.0,0.0,0.0,0.0,0.0,1.1036391864001425,0.0,0.0,0.0,0.0,0.0,0.0,-0.276,0.0
245,0.0,0.0,0.0,0.0,0.0,0.60700390625,0.0,0.0,0.0,0.0,0.0,0.0,1.1036391864001425,0.0,0.0,0.0,0.0,0.0,0.0,-0.468,0.0
246,0.0,0.0,0.0,0.0,0.0,0.6168681640625,0.0,0.0,0.0,0.0,0.0,0.0,1.1036391864001425,0.0,0.0,0.0,0.0,0.0,0.0,-0.356,0.0
247,0.0,0.0,0.0,0.0,0.0,0.6275576171875,0.0,0.0,0.0,0.0,0.0,0.0,1.1036391864001425,0.0,0.0,0.0,0.0,0.0,0.0,-0.108,0.0
248,0.0,0.0,0.0,0.0,0.0,0.6386611328125,0.0,0.0,0.0,0.0,0.0,0.0,1.1036391864001425,0.0,0.0,0.0,0.0,0.0,0.0,-0.128,0.0
249,0.0,0.0,0.0,0.0,0.0,0.6491318359375,0.0,0.0,0.0,0.0,0.0,0.0,1.1036391864001425,0.0,0.0,0.0,0.0,0.0,0.0,-0.244,0.0
250,0.0,0.0,0.0,0.0,0.0,0.65899609375,0.0,0.0,0.0,0.0,0.0,0.0,1.1036391864001425,0.0,0.0,0.0,0.0,0.0,0.0,-0.18,0.0
251,0.0,0.0,0.0,0.0,0.0,0.6692734375,0.0,0.0,0.0,0.0,0.0,0.0,1.1036391864001425,0.0,0.0,0.0,0.0,0.0,0.0,-0.068,0.0
252,0.0,0.0,0.0,0.0,0.0,0.68036328125,0.0,0.0,0.0,0.0,0.0,0.0,1.1036391864001425,0.0,0.0,0.0,0.0,0.0,0.0,-0.136,0.0
253,0.0,0.0,0.0,0.0,0.0,0.6912607421875,0.0,0.0,0.0,0.0,0.0,0.0,1.1036391864001425,0.0,0.0,0.0,0.0,0.0,0.0,-0.368,0.0
254,0.0,0.0,0.0,0.0,0.0,0.7011240234375,0.0,0.0,0.0,0.0,0.0,0.0,1.1036391864001425,0.0,0.0,0.0,0.0,0.0,0.0,-0.344,0.0
255,0.0,0.0,0.0,0.0,0.0,0.7114013671875,0.0,0.0,0.0,0.0,0.0,0.0,1.1036391864001425,0.0,0.0,0.0,0.0,0.0,0.0,-0.032,0.0
256,0.0,0.0,0.0,0.0,0.0,0.7224921875,0.0,0.0,0.0,0.0,0.0,0.0,1.1036391864001425,0.0,0.0,0.0,0.0,0.0,0.0,0.016,0.0
257,0.0,0.0,0.0,0.0,0.0,0.733595703125,0.0,0.0,0.0,0.0,0.0,0.0,1.1036391864001425,0.0,0.0,0.0,0.0,0.0,0.0,-0.212,0.0
258,0.0,0.0,0.0,0.0,0.0,0.743458984375,0.0,0.0,0.0,0.0,0.0,0.0,1.1036391864001425,0.0,0.0,0.0,0.0,0.0,0.0,-0.148,0.0
259,0.0,0.0,0.0,0.0,0.0,0.7535302734375,0.0,0.0,0.0,0.0,0.0,0.0,1.1036391864001425,0.0,0.0,0.0,0.0,0.0,0.0,0.096,0.0
260,0.0,0.0,0.0,0.0,0.0,0.7646201171875,0.0,0.0,0.0,0.0,0.0,0.0,1.1036391864001425,0.0,0.0,0.0,0.0,0.0,0.0,0.016,0.0
261,0.0,0.0,0.0,0.0,0.0,0.7757236328125,0.0,0.0,0.0,0.0,0.0,0.0,1.1036391864001425,0.0,0.0,0.0,0.0,0.0,0.0,-0.276,0.0
262,0.0,0.0,0.0,0.0,0.0,0.785587890625,0.0,0.0,0.0,0.0,0.0,0.0,1.1036391864001425,0.0,0.0,0.0,0.0,0.0,0.0,-0.332,0.0
263,0.0,0.0,0.0,0.0,0.0,0.7954384765625,0.0,0.0,0.0,0.0,0.0,0.0,1.1036391864001425,0.0,0.0,0.0,0.0,0.0,0.0,0.012,0.0
264,0.0,0.0,0.0,0.0,0.0,0.8063359375,0.0,0.0,0.0,0.0,0.0,0.0,1.1036391864001425,0.0,0.0,0.0,0.0,0.0,0.0,0.172,0.0
265,0.0,0.0,0.0,0.0,0.0,0.8176201171875,0.0,0.0,0.0,0.0,0.0,0.0,1.1036391864001425,0.0,0.0,0.0,0.0,0.0,0.0,-0.14,0.0
266,0.0,0.0,0.0,0.0,0.0,0.8276904296875,0.0,0.0,0.0,0.0,0.0,0.0,1.1036391864001425,0.0,0.0,0.0,0.0,0.0,0.0,-0.192,0.0
267,0.0,0.0,0.0,0.0,0.0,0.8371416015625,0.0,0.0,0.0,0.0,0.0,0.0,1.1036391864001425,0.0,0.0,0.0,0.0,0.0,0.0,0.108,0.0
268,0.0,0.0,0.0,0.0,0.0,0.847818359375,0.0,0.0,0.0,0.0,0.0,0.0,1.1036391864001425,0.0,0.0,0.0,0.0,0.0,0.0,0.212,0.0
269,0.0,0.0,0.0,0.0,0.0,0.859115234375,0.0,0.0,0.0,0.0,0.0,0.0,1.1036391864001425,0.0,0.0,0.0,0.0,0.0,0.0,-0.14,0.0
270,0.0,0.0,0.0,0.0,0.0,0.869392578125,0.0,0.0,0.0,0.0,0.0,0.0,1.1036391864001425,0.0,0.0,0.0,0.0,0.0,0.0,-0.332,0.0
271,0.0,0.0,0.0,0.0,0.0,0.87884375,0.0,0.0,0.0,0.0,0.0,0.0,1.1036391864001425,0.0,0.0,0.0,0.0,0.0,0.0,-0.096,0.0
272,0.0,0.0,0.0,0.0,0.0,0.88912109375,0.0,0.0,0.0,0.0,0.0,0.0,1.1036391864001425,0.0,0.0,0.0,0.0,0.0,0.0,0.384,0.0
273,0.0,0.0,0.0,0.0,0.0,0.9006240234375,0.0,0.0,0.0,0.0,0.0,0.0,1.1036391864001425,0.0,0.0,0.0,0.0,0.0,0.0,0.128,0.0
274,0.0,0.0,0.0,0.0,0.0,0.9115078125,0.0,0.0,0.0,0.0,0.0,0.0,1.1036391864001425,0.0,0.0,0.0,0.0,0.0,0.0,-0.172,0.0
275,0.0,0.0,0.0,0.0,0.0,0.9207529296875,0.0,0.0,0.0,0.0,0.0,0.0,1.1036391864001425,0.0,0.0,0.0,0.0,0.0,0.0,0.016,0.0
276,0.0,0.0,0.0,0.0,0.0,0.9306162109375,0.0,0.0,0.0,0.0,0.0,0.0,1.1036391864001425,0.0,0.0,0.0,0.0,0.0,0.0,0.448,0.0
277,0.0,0.0,0.0,0.0,0.0,0.9421201171875,0.0,0.0,0.0,0.0,0.0,0.0,1.1036391864001425,0.0,0.0,0.0,0.0,0.0,0.0,0.192,0.0
278,0.0,0.0,0.0,0.0,0.0,0.953197265625,0.0,0.0,0.0,0.0,0.0,0.0,1.1036391864001425,0.0,0.0,0.0,0.0,0.0,0.0,-0.252,0.0
279,0.0,0.0,0.0,0.0,0.0,0.9626484375,0.0,0.0,0.0,0.0,0.0,0.0,1.1036391864001425,0.0,0.0,0.0,0.0,0.0,0.0,-0.156,0.0
280,0.0,0.0,0.0,0.0,0.0,0.97229296875,0.0,0.0,0.0,0.0,0.0,0.0,1.1036391864001425,0.0,0.0,0.0,0.0,0.0,0.0,0.46,0.0
281,0.0,0.0,0.0,0.0,0.0,0.983796875,0.0,0.0,0.0,0.0,0.0,0.0,1.1036391864001425,0.0,0.0,0.0,0.0,0.0,0.0,0.46,0.0
282,0.0,0.0,0.0,0.0,0.0,0.99530078125,0.0,0.0,0.0,0.0,0.0,0.0,1.1036391864001425,0.0,0.0,0.0,0.0,0.0,0.0,-0.036,0.0
283,0.0,0.0,0.0,0.0,0.0,1.0049580078125,0.0,0.0,0.0,0.0,0.0,0.0,1.1036391864001425,0.0,0.0,0.0,0.0,0.0,0.0,-0.128,0.0
284,0.0,0.0,0.0,0.0,0.0,1.0142021484375,0.0,0.0,0.0,0.0,0.0,0.0,1.1036391864001425,0.0,0.0,0.0,0.0,0.0,0.0,0.488,0.0
285,0.0,0.0,0.0,0.0,0.0,1.0252919921875,0.0,0.0,0.0,0.0,0.0,0.0,1.1036391864001425,0.0,0.0,0.0,0.0,0.0,0.0,0.556,0.0
286,0.0,0.0,0.0,0.0,0.0,1.037208984375,0.0,0.0,0.0,0.0,0.0,0.0,1.1036391864001425,0.0,0.0,0.0,0.0,0.0,0.0,-0.024,0.0
287,0.0,0.0,0.0,0.0,0.0,1.0472666015625,0.0,0.0,0.0,0.0,0.0,0.0,1.1036391864001425,0.0,0.0,0.0,0.0,0.0,0.0,-0.364,0.0
288,0.0,0.0,0.0,0.0,0.0,1.0563046875,0.0,0.0,0.0,0.0,0.0,0.0,1.1036391864001425,0.0,0.0,0.0,0.0,0.0,0.0,0.348,0.0
289,0.0,0.0,0.0,0.0,0.0,1.066775390625,0.0,0.0,0.0,0.0,0.0,0.0,-0.8308071677469115,0.0,0.0,0.0,0.0,0.0,0.0,0.8,0.0
290,0.0,0.0,0.0,0.0,0.0,1.0788857421875,0.0,0.0,0.0,0.0,0.0,0.0,-0.8308071677469115,0.0,0.0,0.0,0.0,0.0,0.0,0.272,0.0
291,0.0,0.0,0.0,0.0,0.0,1.0895634765625,0.0,0.0,0.0,0.0,0.0,0.0,-0.8308071677469115,0.0,0.0,0.0,0.0,0.0,0.0,-0.348,0.0
292,0.0,0.0,0.0,0.0,0.0,1.096341796875,0.0,0.0,0.0,0.0,0.0,0.0,-0.8308071677469115,0.0,0.0,0.0,0.0,0.0,0.0,-0.48,0.0
293,0.0,0.0,0.0,0.0,0.0,1.0996337890625,0.0,0.0,0.0,0.0,0.0,0.0,-0.8308071677469115,0.0,0.0,0.0,0.0,0.0,0.0,-0.148,0.0
294,0.0,0.0,0.0,0.0,0.0,1.1012734375,0.0,0.0,0.0,0.0,0.0,0.0,-0.8308071677469115,0.0,0.0,0.0,0.0,0.0,0.0,-0.128,0.0
295,0.0,0.0,0.0,0.0,0.0,1.1002529296875,0.0,0.0,0.0,0.0,0.0,0.0,-0.8308071677469115,0.0,0.0,0.0,0.0,0.0,0.0,-0.572,0.0
296,0.0,0.0,0.0,0.0,0.0,1.0953212890625,0.0,0.0,0.0,0.0,0.0,0.0,-0.8308071677469115,0.0,0.0,0.0,0.0,0.0,0.0,-0.452,0.0
297,0.0,0.0,0.0,0.0,0.0,1.087716796875,0.0,0.0,0.0,0.0,0.0,0.0,-0.8308071677469115,0.0,0.0,0.0,0.0,0.0,0.0,0.012,0.0
298,0.0,0.0,0.0,0.0,0.0,1.0788857421875,0.0,0.0,0.0,0.0,0.0,0.0,-0.8308071677469115,0.0,0.0,0.0,0.0,0.0,0.0,-0.16,0.0
299,0.0,0.0,0.0,0.0,0.0,1.06696875,0.0,0.0,0.0,0.0,0.0,0.0,-0.8308071677469115,0.0,0.0,0.0,0.0,0.0,0.0,-0.668,0.0
300,0.0,0.0,0.0,0.0,0.0,1.0515791015625,0.0,0.0,0.0,0.0,0.0,0.0,-0.8308071677469115,0.0,0.0,0.0,0.0,0.0,0.0,-0.396,0.0
301,0.0,0.0,0.0,0.0,0.0,1.03515625,0.0,0.0,0.0,0.0,0.0,0.0,-0.8308071677469115,0.0,0.0,0.0,0.0,0.0,0.0,0.18,0.0
302,0.0,0.0,0.0,0.0,0.0,1.018720703125,0.0,0.0,0.0,0.0,0.0,0.0,-0.8308071677469115,0.0,0.0,0.0,0.0,0.0,0.0,-0.324,0.0
303,0.0,0.0,0.0,0.0,0.0,0.9998193359375,0.0,0.0,0.0,0.0,0.0,0.0,-0.8308071677469115,0.0,0.0,0.0,0.0,0.0,0.0,-0.232,0.0
304,0.0,0.0,0.0,0.0,0.0,0.980517578125,0.0,0.0,0.0,0.0,0.0,0.0,-0.8308071677469115,0.0,0.0,0.0,0.0,0.0,0.0,-0.088,0.0
305,0.0,0.0,0.0,0.0,0.0,0.9601826171875,0.0,0.0,0.0,0.0,0.0,0.0,-0.8308071677469115,0.0,0.0,0.0,0.0,0.0,0.0,-0.036,0.0
306,0.0,0.0,0.0,0.0,0.0,0.940673828125,0.0,0.0,0.0,0.0,0.0,0.0,-0.8308071677469115,0.0,0.0,0.0,0.0,0.0,0.0,0.26,0.0
307,0.0,0.0,0.0,0.0,0.0,0.9217724609375,0.0,0.0,0.0,0.0,0.0,0.0,-0.8308071677469115,0.0,0.0,0.0,0.0,0.0,0.0,-0.284,0.0
308,0.0,0.0,0.0,0.0,0.0,0.90164453125,0.0,0.0,0.0,0.0,0.0,0.0,-0.8308071677469115,0.0,0.0,0.0,0.0,0.0,0.0,0.188,0.0
309,0.0,0.0,0.0,0.0,0.0,0.88315625,0.0,0.0,0.0,0.0,0.0,0.0,-0.8308071677469115,0.0,0.0,0.0,0.0,0.0,0.0,0.284,0.0
310,0.0,0.0,0.0,0.0,0.0,0.8661005859375,0.0,0.0,0.0,0.0,0.0,0.0,-0.8308071677469115,0.0,0.0,0.0,0.0,0.0,0.0,-0.032,0.0
311,0.0,0.0,0.0,0.0,0.0,0.849677734375,0.0,0.0,0.0,0.0,0.0,0.0,-0.8308071677469115,0.0,0.0,0.0,0.0,0.0,0.0,-0.156,0.0
312,0.0,0.0,0.0,0.0,0.0,0.83303515625,0.0,0.0,0.0,0.0,0.0,0.0,-0.8308071677469115,0.0,0.0,0.0,0.0,0.0,0.0,0.312,0.0
313,0.0,0.0,0.0,0.0,0.0,0.819052734375,0.0,0.0,0.0,0.0,0.0,0.0,-0.8308071677469115,0.0,0.0,0.0,0.0,0.0,0.0,0.656,0.0
314,0.0,0.0,0.0,0.0,0.0,0.806955078125,0.0,0.0,0.0,0.0,0.0,0.0,-0.8308071677469115,0.0,0.0,0.0,0.0,0.0,0.0,0.024,0.0
315,0.0,0.0,0.0,0.0,0.0,0.7946259765625,0.0,0.0,0.0,0.0,0.0,0.0,-0.8308071677469115,0.0,0.0,0.0,0.0,0.0,0.0,-0.016,0.0
316,0.0,0.0,0.0,0.0,0.0,0.7835224609375,0.0,0.0,0.0,0.0,0.0,0.0,-0.8308071677469115,0.0,0.0,0.0,0.0,0.0,0.0,0.276,0.0
317,0.0,0.0,0.0,0.0,0.0,0.7748974609375,0.0,0.0,0.0,0.0,0.0,0.0,-0.8308071677469115,0.0,0.0,0.0,0.0,0.0,0.0,0.108,0.0
318,0.0,0.0,0.0,0.0,0.0,0.7666728515625,0.0,0.0,0.0,0.0,0.0,0.0,-0.8308071677469115,0.0,0.0,0.0,0.0,0.0,0.0,-0.108,0.0
319,0.0,0.0,0.0,0.0,0.0,0.7586689453125,0.0,0.0,0.0,0.0,0.0,0.0,-0.8308071677469115,0.0,0.0,0.0,0.0,0.0,0.0,-0.032,0.0
320,0.0,0.0,0.0,0.0,0.0,0.7514775390625,0.0,0.0,0.0,0.0,0.0,0.0,-0.8308071677469115,0.0,0.0,0.0,0.0,0.0,0.0,0.224,0.0
321,0.0,0.0,0.0,0.0,0.0,0.74571875,0.0,0.0,0.0,0.0,0.0,0.0,-0.8308071677469115,0.0,0.0,0.0,0.0,0.0,0.0,0.2,0.0
322,0.0,0.0,0.0,0.0,0.0,0.740580078125,0.0,0.0,0.0,0.0,0.0,0.0,-0.8308071677469115,0.0,0.0,0.0,0.0,0.0,0.0,-0.156,0.0
323,0.0,0.0,0.0,0.0,0.0,0.7346279296875,0.0,0.0,0.0,0.0,0.0,0.0,-0.8308071677469115,0.0,0.0,0.0,0.0,0.0,0.0,-0.172,0.0
324,0.0,0.0,0.0,0.0,0.0,0.72845703125,0.0,0.0,0.0,0.0,0.0,0.0,-0.8308071677469115,0.0,0.0,0.0,0.0,0.0,0.0,0.192,0.0
325,0.0,0.0,0.0,0.0,0.0,0.723525390625,0.0,0.0,0.0,0.0,0.0,0.0,-0.8308071677469115,0.0,0.0,0.0,0.0,0.0,0.0,-0.128,0.0
326,0.0,0.0,0.0,0.0,0.0,0.7173662109375,0.0,0.0,0.0,0.0,0.0,0.0,-0.8308071677469115,0.0,0.0,0.0,0.0,0.0,0.0,-0.52,0.0
327,0.0,0.0,0.0,0.0,0.0,0.70996875,0.0,0.0,0.0,0.0,0.0,0.0,-0.8308071677469115,0.0,0.0,0.0,0.0,0.0,0.0,-0.104,0.0
328,0.0,0.0,0.0,0.0,0.0,0.7033837890625,0.0,0.0,0.0,0.0,0.0,0.0,-0.8308071677469115,0.0,0.0,0.0,0.0,0.0,0.0,-0.088,0.0
329,0.0,0.0,0.0,0.0,0.0,0.6968125,0.0,0.0,0.0,0.0,0.0,0.0,-0.8308071677469115,0.0,0.0,0.0,0.0,0.0,0.0,-0.52,0.0
330,0.0,0.0,0.0,0.0,0.0,0.688794921875,0.0,0.0,0.0,0.0,0.0,0.0,-0.8308071677469115,0.0,0.0,0.0,0.0,0.0,0.0,-0.524,0.0
331,0.0,0.0,0.0,0.0,0.0,0.6799638671875,0.0,0.0,0.0,0.0,0.0,0.0,-0.8308071677469115,0.0,0.0,0.0,0.0,0.0,0.0,-0.348,0.0
332,0.0,0.0,0.0,0.0,0.0,0.6709130859375,0.0,0.0,0.0,0.0,0.0,0.0,-0.8308071677469115,0.0,0.0,0.0,0.0,0.0,0.0,-0.448,0.0
333,0.0,0.0,0.0,0.0,0.0,0.6608427734375,0.0,0.0,0.0,0.0,0.0,0.0,-0.8308071677469115,0.0,0.0,0.0,0.0,0.0,0.0,-0.336,0.0
334,0.0,0.0,0.0,0.0,0.0,0.6503583984375,0.0,0.0,0.0,0.0,0.0,0.0,-0.8308071677469115,0.0,0.0,0.0,0.0,0.0,0.0,-0.156,0.0
335,0.0,0.0,0.0,0.0,0.0,0.6398876953125,0.0,0.0,0.0,0.0,0.0,0.0,-0.8308071677469115,0.0,0.0,0.0,0.0,0.0,0.0,-0.356,0.0
336,0.0,0.0,0.0,0.0,0.0,0.6283837890625,0.0,0.0,0.0,0.0,0.0,0.0,-0.8308071677469115,0.0,0.0,0.0,0.0,0.0,0.0,-0.492,0.0
337,0.0,0.0,0.0,0.0,0.0,0.616248046875,0.0,0.0,0.0,0.0,0.0,0.0,-0.8308071677469115,0.0,0.0,0.0,0.0,0.0,0.0,-0.4,0.0
338,0.0,0.0,0.0,0.0,0.0,0.6045380859375,0.0,0.0,0.0,0.0,0.0,0.0,-0.8308071677469115,0.0,0.0,0.0,0.0,0.0,0.0,-0.42,0.0
339,0.0,0.0,0.0,0.0,0.0,0.5924013671875,0.0,0.0,0.0,0.0,0.0,0.0,-0.8308071677469115,0.0,0.0,0.0,0.0,0.0,0.0,-0.5,0.0
340,0.0,0.0,0.0,0.0,0.0,0.5794521484375,0.0,0.0,0.0,0.0,0.0,0.0,-0.8308071677469115,0.0,0.0,0.0,0.0,0.0,0.0,-0.316,0.0
341,0.0,0.0,0.0,0.0,0.0,0.5669150390625,0.0,0.0,0.0,0.0,0.0,0.0,-0.8308071677469115,0.0,0.0,0.0,0.0,0.0,0.0,-0.148,0.0
342,0.0,0.0,0.0,0.0,0.0,0.5551923828125,0.0,0.0,0.0,0.0,0.0,0.0,-0.8308071677469115,0.0,0.0,0.0,0.0,0.0,0.0,-0.384,0.0
343,0.0,0.0,0.0,0.0,0.0,0.54244921875,0.0,0.0,0.0,0.0,0.0,0.0,-0.8308071677469115,0.0,0.0,0.0,0.0,0.0,0.0,-0.564,0.0
344,0.0,0.0,0.0,0.0,0.0,0.5290859375,0.0,0.0,0.0,0.0,0.0,0.0,-0.8308071677469115,0.0,0.0,0.0,0.0,0.0,0.0,-0.2,0.0
345,0.0,0.0,0.0,0.0,0.0,0.5177763671875,0.0,0.0,0.0,0.0,0.0,0.0,-0.8308071677469115,0.0,0.0,0.0,0.0,0.0,0.0,-0.22,0.0
346,0.0,0.0,0.0,0.0,0.0,0.5064658203125,0.0,0.0,0.0,0.0,0.0,0.0,-0.8308071677469115,0.0,0.0,0.0,0.0,0.0,0.0,-0.54,0.0
347,0.0,0.0,0.0,0.0,0.0,0.4939169921875,0.0,0.0,0.0,0.0,0.0,0.0,-0.8308071677469115,0.0,0.0,0.0,0.0,0.0,0.0,-0.252,0.0
348,0.0,0.0,0.0,0.0,0.0,0.482400390625,0.0,0.0,0.0,0.0,0.0,0.0,-0.8308071677469115,0.0,0.0,0.0,0.0,0.0,0.0,-0.056,0.0
349,0.0,0.0,0.0,0.0,0.0,0.4719169921875,0.0,0.0,0.0,0.0,0.0,0.0,-0.8308071677469115,0.0,0.0,0.0,0.0,0.0,0.0,-0.396,0.0
350,0.0,0.0,0.0,0.0,0.0,0.4606064453125,0.0,0.0,0.0,0.0,0.0,0.0,-0.8308071677469115,0.0,0.0,0.0,0.0,0.0,0.0,-0.336,0.0
351,0.0,0.0,0.0,0.0,0.0,0.4495029296875,0.0,0.0,0.0,0.0,0.0,0.0,-0.8308071677469115,0.0,0.0,0.0,0.0,0.0,0.0,-0.068,0.0
352,0.0,0.0,0.0,0.0,0.0,0.4396259765625,0.0,0.0,0.0,0.0,0.0,0.0,-0.8308071677469115,0.0,0.0,0.0,0.0,0.0,0.0,-0.384,0.0
353,0.0,0.0,0.0,0.0,0.0,0.4299560546875,0.0,0.0,0.0,0.0,0.0,0.0,-0.8308071677469115,0.0,0.0,0.0,0.0,0.0,0.0,-0.572,0.0
354,0.0,0.0,0.0,0.0,0.0,0.4198857421875,0.0,0.0,0.0,0.0,0.0,0.0,-0.8308071677469115,0.0,0.0,0.0,0.0,0.0,0.0,-0.368,0.0
355,0.0,0.0,0.0,0.0,0.0,0.4100087890625,0.0,0.0,0.0,0.0,0.0,0.0,-0.8308071677469115,0.0,0.0,0.0,0.0,0.0,0.0,-0.284,0.0
356,0.0,0.0,0.0,0.0,0.0,0.4001318359375,0.0,0.0,0.0,0.0,0.0,0.0,-0.8308071677469115,0.0,0.0,0.0,0.0,0.0,0.0,-0.336,0.0
357,0.0,0.0,0.0,0.0,0.0,0.3904609375,0.0,0.0,0.0,0.0,0.0,0.0,-0.8308071677469115,0.0,0.0,0.0,0.0,0.0,0.0,-0.22,0.0
358,0.0,0.0,0.0,0.0,0.0,0.3814111328125,0.0,0.0,0.0,0.0,0.0,0.0,-0.8308071677469115,0.0,0.0,0.0,0.0,0.0,0.0,-0.368,0.0
359,0.0,0.0,0.0,0.0,0.0,0.371947265625,0.0,0.0,0.0,0.0,0.0,0.0,-0.8308071677469115,0.0,0.0,0.0,0.0,0.0,0.0,-0.472,0.0
360,0.0,0.0,0.0,0.0,0.0,0.3620703125,0.0,0.0,0.0,0.0,0.0,0.0,-0.8308071677469115,0.0,0.0,0.0,0.0,0.0,0.0,-0.416,0.0
361,0.0,0.0,0.0,0.0,0.0,0.3526064453125,0.0,0.0,0.0,0.0,0.0,0.0,-0.8308071677469115,0.0,0.0,0.0,0.0,0.0,0.0,-0.52,0.0
362,0.0,0.0,0.0,0.0,0.0,0.3435556640625,0.0,0.0,0.0,0.0,0.0,0.0,-0.8308071677469115,0.0,0.0,0.0,0.0,0.0,0.0,-0.664,0.0
363,0.0,0.0,0.0,0.0,0.0,0.3336787109375,0.0,0.0,0.0,0.0,0.0,0.0,-0.8308071677469115,0.0,0.0,0.0,0.0,0.0,0.0,-0.492,0.0
364,0.0,0.0,0.0,0.0,0.0,0.3242158203125,0.0,0.0,0.0,0.0,0.0,0.0,-0.8308071677469115,0.0,0.0,0.0,0.0,0.0,0.0,-0.384,0.0
365,0.0,0.0,0.0,0.0,0.0,0.3143388671875,0.0,0.0,0.0,0.0,0.0,0.0,-0.8308071677469115,0.0,0.0,0.0,0.0,0.0,0.0,-0.572,0.0
366,0.0,0.0,0.0,0.0,0.0,0.304048828125,0.0,0.0,0.0,0.0,0.0,0.0,-0.8308071677469115,0.0,0.0,0.0,0.0,0.0,0.0,-0.488,0.0
367,0.0,0.0,0.0,0.0,0.0,0.294158203125,0.0,0.0,0.0,0.0,0.0,0.0,-0.8308071677469115,0.0,0.0,0.0,0.0,0.0,0.0,-0.524,0.0
368,0.0,0.0,0.0,0.0,0.0,0.2840751953125,0.0,0.0,0.0,0.0,0.0,0.0,-0.8308071677469115,0.0,0.0,0.0,0.0,0.0,0.0,-0.552,0.0
369,0.0,0.0,0.0,0.0,0.0,0.2731650390625,0.0,0.0,0.0,0.0,0.0,0.0,-0.8308071677469115,0.0,0.0,0.0,0.0,0.0,0.0,-0.48,0.0
370,0.0,0.0,0.0,0.0,0.0,0.262875,0.0,0.0,0.0,0.0,0.0,0.0,-0.8308071677469115,0.0,0.0,0.0,0.0,0.0,0.0,-0.648,0.0
371,0.0,0.0,0.0,0.0,0.0,0.2527919921875,0.0,0.0,0.0,0.0,0.0,0.0,-0.8308071677469115,0.0,0.0,0.0,0.0,0.0,0.0,-0.78,0.0
372,0.0,0.0,0.0,0.0,0.0,0.2418818359375,0.0,0.0,0.0,0.0,0.0,0.0,-0.8308071677469115,0.0,0.0,0.0,0.0,0.0,0.0,-0.552,0.0
373,0.0,0.0,0.0,0.0,0.0,0.230765625,0.0,0.0,0.0,0.0,0.0,0.0,-0.8308071677469115,0.0,0.0,0.0,0.0,0.0,0.0,-0.436,0.0
374,0.0,0.0,0.0,0.0,0.0,0.2200625,0.0,0.0,0.0,0.0,0.0,0.0,-0.8308071677469115,0.0,0.0,0.0,0.0,0.0,0.0,-0.452,0.0
375,0.0,0.0,0.0,0.0,0.0,0.209359375,0.0,0.0,0.0,0.0,0.0,0.0,-0.8308071677469115,0.0,0.0,0.0,0.0,0.0,0.0,-0.532,0.0
376,0.0,0.0,0.0,0.0,0.0,0.1986435546875,0.0,0.0,0.0,0.0,0.0,0.0,-0.8308071677469115,0.0,0.0,0.0,0.0,0.0,0.0,-0.5,0.0
377,0.0,0.0,0.0,0.0,0.0,0.1873203125,0.0,0.0,0.0,0.0,0.0,0.0,-0.8308071677469115,0.0,0.0,0.0,0.0,0.0,0.0,-0.556,0.0
378,0.0,0.0,0.0,0.0,0.0,0.1764111328125,0.0,0.0,0.0,0.0,0.0,0.0,-0.8308071677469115,0.0,0.0,0.0,0.0,0.0,0.0,-0.604,0.0
379,0.0,0.0,0.0,0.0,0.0,0.1659140625,0.0,0.0,0.0,0.0,0.0,0.0,-0.8308071677469115,0.0,0.0,0.0,0.0,0.0,0.0,-0.648,0.0
380,0.0,0.0,0.0,0.0,0.0,0.1551982421875,0.0,0.0,0.0,0.0,0.0,0.0,-0.8308071677469115,0.0,0.0,0.0,0.0,0.0,0.0,-0.488,0.0
381,0.0,0.0,0.0,0.0,0.0,0.14408203125,0.0,0.0,0.0,0.0,0.0,0.0,-0.8308071677469115,0.0,0.0,0.0,0.0,0.0,0.0,-0.428,0.0
382,0.0,0.0,0.0,0.0,0.0,0.1331591796875,0.0,0.0,0.0,0.0,0.0,0.0,-0.8308071677469115,0.0,0.0,0.0,0.0,0.0,0.0,-0.504,0.0
383,0.0,0.0,0.0,0.0,0.0,0.122869140625,0.0,0.0,0.0,0.0,0.0,0.0,-0.8308071677469115,0.0,0.0,0.0,0.0,0.0,0.0,-0.592,0.0
384,0.0,0.0,0.0,0.0,0.0,0.1121533203125,0.0,0.0,0.0,0.0,0.0,0.0,-0.8308071677469115,0.0,0.0,0.0,0.0,0.0,0.0,-0.452,0.0
385,0.0,0.0,0.0,0.0,0.0,0.1014501953125,0.0,0.0,0.0,0.0,0.0,0.0,-0.8308071677469115,0.0,0.0,0.0,0.0,0.0,0.0,-0.54,0.0
386,0.0,0.0,0.0,0.0,0.0,0.0907333984375,0.0,0.0,0.0,0.0,0.0,0.0,-0.8308071677469115,0.0,0.0,0.0,0.0,0.0,0.0,-0.636,0.0
387,0.0,0.0,0.0,0.0,0.0,0.08084375,0.0,0.0,0.0,0.0,0.0,0.0,-0.8308071677469115,0.0,0.0,0.0,0.0,0.0,0.0,-0.708,0.0
388,0.0,0.0,0.0,0.0,0.0,0.070748046875,0.0,0.0,0.0,0.0,0.0,0.0,-0.8308071677469115,0.0,0.0,0.0,0.0,0.0,0.0,-0.572,0.0
389,0.0,0.0,0.0,0.0,0.0,0.06003125,0.0,0.0,0.0,0.0,0.0,0.0,-0.8308071677469115,0.0,0.0,0.0,0.0,0.0,0.0,-0.532,0.0
390,0.0,0.0,0.0,0.0,0.0,0.0493154296875,0.0,0.0,0.0,0.0,0.0,0.0,-0.8308071677469115,0.0,0.0,0.0,0.0,0.0,0.0,-0.48,0.0
391,0.0,0.0,0.0,0.0,0.0,0.03942578125,0.0,0.0,0.0,0.0,0.0,0.0,-0.8308071677469115,0.0,0.0,0.0,0.0,0.0,0.0,-0.576,0.0
392,0.0,0.0,0.0,0.0,0.0,0.0293291015625,0.0,0.0,0.0,0.0,0.0,0.0,-0.8308071677469115,0.0,0.0,0.0,0.0,0.0,0.0,-0.544,0.0
393,0.0,0.0,0.0,0.0,0.0,0.0192333984375,0.0,0.0,0.0,0.0,0.0,0.0,-0.8308071677469115,0.0,0.0,0.0,0.0,0.0,0.0,-0.532,0.0
394,0.0,0.0,0.0,0.0,0.0,0.0085166015625,0.0,0.0,0.0,0.0,0.0,0.0,-0.8308071677469115,0.0,0.0,0.0,0.0,0.0,0.0,-0.688,0.0
395,0.0,0.0,0.0,0.0,0.0,-0.0013720703125,0.0,0.0,0.0,0.0,0.0,0.0,-0.8308071677469115,0.0,0.0,0.0,0.0,0.0,0.0,-0.748,0.0
396,0.0,0.0,0.0,0.0,0.0,-0.0114677734375,0.0,0.0,0.0,0.0,0.0,0.0,-0.8308071677469115,0.0,0.0,0.0,0.0,0.0,0.0,-0.68,0.0
397,0.0,0.0,0.0,0.0,0.0,-0.0215771484375,0.0,0.0,0.0,0.0,0.0,0.0,-0.8308071677469115,0.0,0.0,0.0,0.0,0.0,0.0,-0.524,0.0
398,0.0,0.0,0.0,0.0,0.0,-0.0325,0.0,0.0,0.0,0.0,0.0,0.0,-0.8308071677469115,0.0,0.0,0.0,0.0,0.0,0.0,-0.5,0.0
399,0.0,0.0,0.0,0.0,0.0,-0.042802734375,0.0,0.0,0.0,0.0,0.0,0.0,-0.8308071677469115,0.0,0.0,0.0,0.0,0.0,0.0,-0.576,0.0
400,0.0,0.0,0.0,0.0,0.0,-0.0527060546875,0.0,0.0,0.0,0.0,0.0,0.0,-0.8308071677469115,0.0,0.0,0.0,0.0,0.0,0.0,-0.628,0.0
401,0.0,0.0,0.0,0.0,0.0,-0.0630087890625,0.0,0.0,0.0,0.0,0.0,0.0,-0.8308071677469115,0.0,0.0,0.0,0.0,0.0,0.0,-0.492,0.0
402,0.0,0.0,0.0,0.0,0.0,-0.073724609375,0.0,0.0,0.0,0.0,0.0,0.0,-0.8308071677469115,0.0,0.0,0.0,0.0,0.0,0.0,-0.616,0.0
403,0.0,0.0,0.0,0.0,0.0,-0.0842470703125,0.0,0.0,0.0,0.0,0.0,0.0,-0.8308071677469115,0.0,0.0,0.0,0.0,0.0,0.0,-0.72,0.0
404,0.0,0.0,0.0,0.0,0.0,-0.0943564453125,0.0,0.0,0.0,0.0,0.0,0.0,-0.8308071677469115,0.0,0.0,0.0,0.0,0.0,0.0,-0.728,0.0
405,0.0,0.0,0.0,0.0,0.0,-0.104453125,0.0,0.0,0.0,0.0,0.0,0.0,-0.8308071677469115,0.0,0.0,0.0,0.0,0.0,0.0,-0.492,0.0
406,0.0,0.0,0.0,0.0,0.0,-0.1154013671875,0.0,0.0,0.0,0.0,0.0,0.0,-0.8308071677469115,0.0,0.0,0.0,0.0,0.0,0.0,-0.564,0.0
407,0.0,0.0,0.0,0.0,0.0,-0.12632421875,0.0,0.0,0.0,0.0,0.0,0.0,-0.8308071677469115,0.0,0.0,0.0,0.0,0.0,0.0,-0.532,0.0
408,0.0,0.0,0.0,0.0,0.0,-0.13643359375,0.0,0.0,0.0,0.0,0.0,0.0,-0.8308071677469115,0.0,0.0,0.0,0.0,0.0,0.0,-0.596,0.0
409,0.0,0.0,0.0,0.0,0.0,-0.1467490234375,0.0,0.0,0.0,0.0,0.0,0.0,-0.8308071677469115,0.0,0.0,0.0,0.0,0.0,0.0,-0.488,0.0
410,0.0,0.0,0.0,0.0,0.0,-0.1574775390625,0.0,0.0,0.0,0.0,0.0,0.0,-0.8308071677469115,0.0,0.0,0.0,0.0,0.0,0.0,-0.604,0.0
411,0.0,0.0,0.0,0.0,0.0,-0.1684140625,0.0,0.0,0.0,0.0,0.0,0.0,-0.8308071677469115,0.0,0.0,0.0,0.0,0.0,0.0,-0.676,0.0
412,0.0,0.0,0.0,0.0,0.0,-0.1783037109375,0.0,0.0,0.0,0.0,0.0,0.0,-0.8308071677469115,0.0,0.0,0.0,0.0,0.0,0.0,-0.748,0.0
413,0.0,0.0,0.0,0.0,0.0,-0.188619140625,0.0,0.0,0.0,0.0,0.0,0.0,-0.8308071677469115,0.0,0.0,0.0,0.0,0.0,0.0,-0.604,0.0
414,0.0,0.0,0.0,0.0,0.0,-0.1993486328125,0.0,0.0,0.0,0.0,0.0,0.0,-0.8308071677469115,0.0,0.0,0.0,0.0,0.0,0.0,-0.52,0.0
415,0.0,0.0,0.0,0.0,0.0,-0.2102841796875,0.0,0.0,0.0,0.0,0.0,0.0,-0.8308071677469115,0.0,0.0,0.0,0.0,0.0,0.0,-0.52,0.0
416,0.0,0.0,0.0,0.0,0.0,-0.2206123046875,0.0,0.0,0.0,0.0,0.0,0.0,-0.8308071677469115,0.0,0.0,0.0,0.0,0.0,0.0,-0.564,0.0
417,0.0,0.0,0.0,0.0,0.0,-0.2307216796875,0.0,0.0,0.0,0.0,0.0,0.0,-0.8308071677469115,0.0,0.0,0.0,0.0,0.0,0.0,-0.572,0.0
418,0.0,0.0,0.0,0.0,0.0,-0.241244140625,0.0,0.0,0.0,0.0,0.0,0.0,-0.8308071677469115,0.0,0.0,0.0,0.0,0.0,0.0,-0.596,0.0
419,0.0,0.0,0.0,0.0,0.0,-0.25238671875,0.0,0.0,0.0,0.0,0.0,0.0,-0.8308071677469115,0.0,0.0,0.0,0.0,0.0,0.0,-0.616,0.0
420,0.0,0.0,0.0,0.0,0.0,-0.26249609375,0.0,0.0,0.0,0.0,0.0,0.0,-0.8308071677469115,0.0,0.0,0.0,0.0,0.0,0.0,-0.732,0.0
421,0.0,0.0,0.0,0.0,0.0,-0.2724111328125,0.0,0.0,0.0,0.0,0.0,0.0,-0.8308071677469115,0.0,0.0,0.0,0.0,0.0,0.0,-0.668,0.0
422,0.0,0.0,0.0,0.0,0.0,-0.28293359375,0.0,0.0,0.0,0.0,0.0,0.0,-0.8308071677469115,0.0,0.0,0.0,0.0,0.0,0.0,-0.472,0.0
423,0.0,0.0,0.0,0.0,0.0,-0.2938955078125,0.0,0.0,0.0,0.0,0.0,0.0,-0.8308071677469115,0.0,0.0,0.0,0.0,0.0,0.0,-0.468,0.0
424,0.0,0.0,0.0,0.0,0.0,-0.3044169921875,0.0,0.0,0.0,0.0,0.0,0.0,-0.8308071677469115,0.0,0.0,0.0,0.0,0.0,0.0,-0.604,0.0
425,0.0,0.0,0.0,0.0,0.0,-0.3145400390625,0.0,0.0,0.0,0.0,0.0,0.0,-0.8308071677469115,0.0,0.0,0.0,0.0,0.0,0.0,-0.556,0.0
426,0.0,0.0,0.0,0.0,0.0,-0.3246484375,0.0,0.0,0.0,0.0,0.0,0.0,-0.8308071677469115,0.0,0.0,0.0,0.0,0.0,0.0,-0.472,0.0
427,0.0,0.0,0.0,0.0,0.0,-0.3358037109375,0.0,0.0,0.0,0.0,0.0,0.0,-0.8308071677469115,0.0,0.0,0.0,0.0,0.0,0.0,-0.624,0.0
428,0.0,0.0,0.0,0.0,0.0,-0.3461328125,0.0,0.0,0.0,0.0,0.0,0.0,-0.8308071677469115,0.0,0.0,0.0,0.0,0.0,0.0,-0.68,0.0
429,0.0,0.0,0.0,0.0,0.0,-0.35603515625,0.0,0.0,0.0,0.0,0.0,0.0,-0.8308071677469115,0.0,0.0,0.0,0.0,0.0,0.0,-0.648,0.0
430,0.0,0.0,0.0,0.0,0.0,-0.3661572265625,0.0,0.0,0.0,0.0,0.0,0.0,-0.8308071677469115,0.0,0.0,0.0,0.0,0.0,0.0,-0.492,0.0
431,0.0,0.0,0.0,0.0,0.0,-0.3771064453125,0.0,0.0,0.0,0.0,0.0,0.0,-0.8308071677469115,0.0,0.0,0.0,0.0,0.0,0.0,-0.472,0.0
432,0.0,0.0,0.0,0.0,0.0,-0.3876416015625,0.0,0.0,0.0,0.0,0.0,0.0,-0.8308071677469115,0.0,0.0,0.0,0.0,0.0,0.0,-0.504,0.0
433,0.0,0.0,0.0,0.0,0.0,-0.397763671875,0.0,0.0,0.0,0.0,0.0,0.0,-0.8308071677469115,0.0,0.0,0.0,0.0,0.0,0.0,-0.564,0.0
434,0.0,0.0,0.0,0.0,0.0,-0.4076787109375,0.0,0.0,0.0,0.0,0.0,0.0,-0.8308071677469115,0.0,0.0,0.0,0.0,0.0,0.0,-0.46,0.0
435,0.0,0.0,0.0,0.0,0.0,-0.4186279296875,0.0,0.0,0.0,0.0,0.0,0.0,-0.8308071677469115,0.0,0.0,0.0,0.0,0.0,0.0,-0.596,0.0
436,0.0,0.0,0.0,0.0,0.0,-0.4293828125,0.0,0.0,0.0,0.0,0.0,0.0,-0.8308071677469115,0.0,0.0,0.0,0.0,0.0,0.0,-0.628,0.0
437,0.0,0.0,0.0,0.0,0.0,-0.4392978515625,0.0,0.0,0.0,0.0,0.0,0.0,-0.8308071677469115,0.0,0.0,0.0,0.0,0.0,0.0,-0.628,0.0
438,0.0,0.0,0.0,0.0,0.0,-0.4492138671875,0.0,0.0,0.0,0.0,0.0,0.0,-0.8308071677469115,0.0,0.0,0.0,0.0,0.0,0.0,-0.468,0.0
439,0.0,0.0,0.0,0.0,0.0,-0.4599560546875,0.0,0.0,0.0,0.0,0.0,0.0,-0.8308071677469115,0.0,0.0,0.0,0.0,0.0,0.0,-0.524,0.0
440,0.0,0.0,0.0,0.0,0.0,-0.4711240234375,0.0,0.0,0.0,0.0,0.0,0.0,-0.8308071677469115,0.0,0.0,0.0,0.0,0.0,0.0,-0.44,0.0
441,0.0,0.0,0.0,0.0,0.0,-0.48124609375,0.0,0.0,0.0,0.0,0.0,0.0,-0.8308071677469115,0.0,0.0,0.0,0.0,0.0,0.0,-0.448,0.0
442,0.0,0.0,0.0,0.0,0.0,-0.4911611328125,0.0,0.0,0.0,0.0,0.0,0.0,-0.8308071677469115,0.0,0.0,0.0,0.0,0.0,0.0,-0.504,0.0
443,0.0,0.0,0.0,0.0,0.0,-0.5017099609375,0.0,0.0,0.0,0.0,0.0,0.0,-0.8308071677469115,0.0,0.0,0.0,0.0,0.0,0.0,-0.556,0.0
444,0.0,0.0,0.0,0.0,0.0,-0.5128642578125,0.0,0.0,0.0,0.0,0.0,0.0,-0.8308071677469115,0.0,0.0,0.0,0.0,0.0,0.0,-0.552,0.0
445,0.0,0.0,0.0,0.0,0.0,-0.523,0.0,0.0,0.0,0.0,0.0,0.0,-0.8308071677469115,0.0,0.0,0.0,0.0,0.0,0.0,-0.616,0.0
446,0.0,0.0,0.0,0.0,0.0,-0.532708984375,0.0,0.0,0.0,0.0,0.0,0.0,-0.8308071677469115,0.0,0.0,0.0,0.0,0.0,0.0,-0.564,0.0
447,0.0,0.0,0.0,0.0,0.0,-0.54326953125,0.0,0.0,0.0,0.0,0.0,0.0,-0.8308071677469115,0.0,0.0,0.0,0.0,0.0,0.0,-0.46,0.0
448,0.0,0.0,0.0,0.0,0.0,-0.5544248046875,0.0,0.0,0.0,0.0,0.0,0.0,-0.8308071677469115,0.0,0.0,0.0,0.0,0.0,0.0,-0.4,0.0
449,0.0,0.0,0.0,0.0,0.0,-0.5649736328125,0.0,0.0,0.0,0.0,0.0,0.0,-0.8308071677469115,0.0,0.0,0.0,0.0,0.0,0.0,-0.44,0.0
450,0.0,0.0,0.0,0.0,0.0,-0.5746953125,0.0,0.0,0.0,0.0,0.0,0.0,-0.8308071677469115,0.0,0.0,0.0,0.0,0.0,0.0,-0.472,0.0
451,0.0,0.0,0.0,0.0,0.0,-0.585037109375,0.0,0.0,0.0,0.0,0.0,0.0,-0.8308071677469115,0.0,0.0,0.0,0.0,0.0,0.0,-0.5,0.0
452,0.0,0.0,0.0,0.0,0.0,-0.59619140625,0.0,0.0,0.0,0.0,0.0,0.0,-0.8308071677469115,0.0,0.0,0.0,0.0,0.0,0.0,-0.524,0.0
453,0.0,0.0,0.0,0.0,0.0,-0.6069462890625,0.0,0.0,0.0,0.0,0.0,0.0,-0.8308071677469115,0.0,0.0,0.0,0.0,0.0,0.0,-0.524,0.0
454,0.0,0.0,0.0,0.0,0.0,-0.6166689453125,0.0,0.0,0.0,0.0,0.0,0.0,-0.8308071677469115,0.0,0.0,0.0,0.0,0.0,0.0,-0.492,0.0
455,0.0,0.0,0.0,0.0,0.0,-0.6265966796875,0.0,0.0,0.0,0.0,0.0,0.0,-0.8308071677469115,0.0,0.0,0.0,0.0,0.0,0.0,-0.408,0.0
456,0.0,0.0,0.0,0.0,0.0,-0.6377646484375,0.0,0.0,0.0,0.0,0.0,0.0,-0.8308071677469115,0.0,0.0,0.0,0.0,0.0,0.0,-0.416,0.0
457,0.0,0.0,0.0,0.0,0.0,-0.6487392578125,0.0,0.0,0.0,0.0,0.0,0.0,-0.8308071677469115,0.0,0.0,0.0,0.0,0.0,0.0,-0.356,0.0
458,0.0,0.0,0.0,0.0,0.0,-0.6584609375,0.0,0.0,0.0,0.0,0.0,0.0,-0.8308071677469115,0.0,0.0,0.0,0.0,0.0,0.0,-0.336,0.0
459,0.0,0.0,0.0,0.0,0.0,-0.66840234375,0.0,0.0,0.0,0.0,0.0,0.0,-0.8308071677469115,0.0,0.0,0.0,0.0,0.0,0.0,-0.472,0.0
460,0.0,0.0,0.0,0.0,0.0,-0.6795703125,0.0,0.0,0.0,0.0,0.0,0.0,-0.8308071677469115,0.0,0.0,0.0,0.0,0.0,0.0,-0.544,0.0
461,0.0,0.0,0.0,0.0,0.0,-0.6905322265625,0.0,0.0,0.0,0.0,0.0,0.0,-0.8308071677469115,0.0,0.0,0.0,0.0,0.0,0.0,-0.44,0.0
462,0.0,0.0,0.0,0.0,0.0,-0.7004609375,0.0,0.0,0.0,0.0,0.0,0.0,-0.8308071677469115,0.0,0.0,0.0,0.0,0.0,0.0,-0.384,0.0
463,0.0,0.0,0.0,0.0,0.0,-0.7099892578125,0.0,0.0,0.0,0.0,0.0,0.0,-0.8308071677469115,0.0,0.0,0.0,0.0,0.0,0.0,-0.468,0.0
464,0.0,0.0,0.0,0.0,0.0,-0.720744140625,0.0,0.0,0.0,0.0,0.0,0.0,-0.8308071677469115,0.0,0.0,0.0,0.0,0.0,0.0,-0.436,0.0
465,0.0,0.0,0.0,0.0,0.0,-0.732130859375,0.0,0.0,0.0,0.0,0.0,0.0,-0.8308071677469115,0.0,0.0,0.0,0.0,0.0,0.0,-0.296,0.0
466,0.0,0.0,0.0,0.0,0.0,-0.742279296875,0.0,0.0,0.0,0.0,0.0,0.0,-0.8308071677469115,0.0,0.0,0.0,0.0,0.0,0.0,-0.22,0.0
467,0.0,0.0,0.0,0.0,0.0,-0.7518076171875,0.0,0.0,0.0,0.0,0.0,0.0,-0.8308071677469115,0.0,0.0,0.0,0.0,0.0,0.0,-0.364,0.0
468,0.0,0.0,0.0,0.0,0.0,-0.76235546875,0.0,0.0,0.0,0.0,0.0,0.0,-0.8308071677469115,0.0,0.0,0.0,0.0,0.0,0.0,-0.572,0.0
469,0.0,0.0,0.0,0.0,0.0,-0.77394921875,0.0,0.0,0.0,0.0,0.0,0.0,-0.8308071677469115,0.0,0.0,0.0,0.0,0.0,0.0,-0.396,0.0
470,0.0,0.0,0.0,0.0,0.0,-0.78409765625,0.0,0.0,0.0,0.0,0.0,0.0,-0.8308071677469115,0.0,0.0,0.0,0.0,0.0,0.0,-0.26,0.0
471,0.0,0.0,0.0,0.0,0.0,-0.79340625,0.0,0.0,0.0,0.0,0.0,0.0,0.5733259912202067,0.0,0.0,0.0,0.0,0.0,0.0,-0.368,0.0
472,0.0,0.0,0.0,0.0,0.0,-0.8037607421875,0.0,0.0,0.0,0.0,0.0,0.0,0.5733259912202067,0.0,0.0,0.0,0.0,0.0,0.0,-0.448,0.0
473,0.0,0.0,0.0,0.0,0.0,-0.8151484375,0.0,0.0,0.0,0.0,0.0,0.0,0.5733259912202067,0.0,0.0,0.0,0.0,0.0,0.0,-0.172,0.0
474,0.0,0.0,0.0,0.0,0.0,-0.8234248046875,0.0,0.0,0.0,0.0,0.0,0.0,0.5733259912202067,0.0,0.0,0.0,0.0,0.0,0.0,0.544,0.0
475,0.0,0.0,0.0,0.0,0.0,-0.8263427734375,0.0,0.0,0.0,0.0,0.0,0.0,0.5733259912202067,0.0,0.0,0.0,0.0,0.0,0.0,0.512,0.0
476,0.0,0.0,0.0,0.0,0.0,-0.826755859375,0.0,0.0,0.0,0.0,0.0,0.0,0.5733259912202067,0.0,0.0,0.0,0.0,0.0,0.0,-0.052,0.0
477,0.0,0.0,0.0,0.0,0.0,-0.8261357421875,0.0,0.0,0.0,0.0,0.0,0.0,0.5733259912202067,0.0,0.0,0.0,0.0,0.0,0.0,0.22,0.0
478,0.0,0.0,0.0,0.0,0.0,-0.821771484375,0.0,0.0,0.0,0.0,0.0,0.0,0.5733259912202067,0.0,0.0,0.0,0.0,0.0,0.0,0.556,0.0
479,0.0,0.0,0.0,0.0,0.0,-0.8137021484375,0.0,0.0,0.0,0.0,0.0,0.0,0.5733259912202067,0.0,0.0,0.0,0.0,0.0,0.0,0.316,0.0
480,0.0,0.0,0.0,0.0,0.0,-0.80334765625,0.0,0.0,0.0,0.0,0.0,0.0,0.5733259912202067,0.0,0.0,0.0,0.0,0.0,0.0,0.192,0.0
481,0.0,0.0,0.0,0.0,0.0,-0.79175390625,0.0,0.0,0.0,0.0,0.0,0.0,0.5733259912202067,0.0,0.0,0.0,0.0,0.0,0.0,0.252,0.0
482,0.0,0.0,0.0,0.0,0.0,-0.7785068359375,0.0,0.0,0.0,0.0,0.0,0.0,0.5733259912202067,0.0,0.0,0.0,0.0,0.0,0.0,0.18,0.0
483,0.0,0.0,0.0,0.0,0.0,-0.7619423828125,0.0,0.0,0.0,0.0,0.0,0.0,0.5733259912202067,0.0,0.0,0.0,0.0,0.0,0.0,0.416,0.0
484,0.0,0.0,0.0,0.0,0.0,-0.74310546875,0.0,0.0,0.0,0.0,0.0,0.0,0.5733259912202067,0.0,0.0,0.0,0.0,0.0,0.0,-0.296,0.0
485,0.0,0.0,0.0,0.0,0.0,-0.726541015625,0.0,0.0,0.0,0.0,0.0,0.0,0.5733259912202067,0.0,0.0,0.0,0.0,0.0,0.0,-0.264,0.0
486,0.0,0.0,0.0,0.0,0.0,-0.7072900390625,0.0,0.0,0.0,0.0,0.0,0.0,0.5733259912202067,0.0,0.0,0.0,0.0,0.0,0.0,0.752,0.0
487,0.0,0.0,0.0,0.0,0.0,-0.6861943359375,0.0,0.0,0.0,0.0,0.0,0.0,0.5733259912202067,0.0,0.0,0.0,0.0,0.0,0.0,-0.836,0.0
488,0.0,0.0,0.0,0.0,0.0,-0.667357421875,0.0,0.0,0.0,0.0,0.0,0.0,0.5733259912202067,0.0,0.0,0.0,0.0,0.0,0.0,-0.084,0.0
489,0.0,0.0,0.0,0.0,0.0,-0.64729296875,0.0,0.0,0.0,0.0,0.0,0.0,0.5733259912202067,0.0,0.0,0.0,0.0,0.0,0.0,-0.348,0.0
490,0.0,0.0,0.0,0.0,0.0,-0.6284560546875,0.0,0.0,0.0,0.0,0.0,0.0,0.5733259912202067,0.0,0.0,0.0,0.0,0.0,0.0,-0.172,0.0
491,0.0,0.0,0.0,0.0,0.0,-0.6094384765625,0.0,0.0,0.0,0.0,0.0,0.0,0.5733259912202067,0.0,0.0,0.0,0.0,0.0,0.0,-0.492,0.0
492,0.0,0.0,0.0,0.0,0.0,-0.592060546875,0.0,0.0,0.0,0.0,0.0,0.0,0.5733259912202067,0.0,0.0,0.0,0.0,0.0,0.0,-0.856,0.0
493,0.0,0.0,0.0,0.0,0.0,-0.5759345703125,0.0,0.0,0.0,0.0,0.0,0.0,0.5733259912202067,0.0,0.0,0.0,0.0,0.0,0.0,-0.036,0.0
494,0.0,0.0,0.0,0.0,0.0,-0.5593955078125,0.0,0.0,0.0,0.0,0.0,0.0,0.5733259912202067,0.0,0.0,0.0,0.0,0.0,0.0,-0.916,0.0
495,0.0,0.0,0.0,0.0,0.0,-0.5453359375,0.0,0.0,0.0,0.0,0.0,0.0,0.5733259912202067,0.0,0.0,0.0,0.0,0.0,0.0,-0.772,0.0
496,0.0,0.0,0.0,0.0,0.0,-0.532708984375,0.0,0.0,0.0,0.0,0.0,0.0,0.5733259912202067,0.0,0.0,0.0,0.0,0.0,0.0,-0.276,0.0
497,0.0,0.0,0.0,0.0,0.0,-0.5203017578125,0.0,0.0,0.0,0.0,0.0,0.0,0.5733259912202067,0.0,0.0,0.0,0.0,0.0,0.0,-1.1,0.0
498,0.0,0.0,0.0,0.0,0.0,-0.5105927734375,0.0,0.0,0.0,0.0,0.0,0.0,0.5733259912202067,0.0,0.0,0.0,0.0,0.0,0.0,-0.896,0.0
499,0.0,0.0,0.0,0.0,0.0,-0.5008828125,0.0,0.0,0.0,0.0,0.0,0.0,0.5733259912202067,0.0,0.0,0.0,0.0,0.0,0.0,-0.388,0.0
500,0.0,0.0,0.0,0.0,0.0,-0.4913681640625,0.0,0.0,0.0,0.0,0.0,0.0,0.5733259912202067,0.0,0.0,0.0,0.0,0.0,0.0,-0.716,0.0
501,0.0,0.0,0.0,0.0,0.0,-0.4843447265625,0.0,0.0,0.0,0.0,0.0,0.0,0.5733259912202067,0.0,0.0,0.0,0.0,0.0,0.0,-0.916,0.0
502,0.0,0.0,0.0,0.0,0.0,-0.478560546875,0.0,0.0,0.0,0.0,0.0,0.0,0.5733259912202067,0.0,0.0,0.0,0.0,0.0,0.0,-0.624,0.0
503,0.0,0.0,0.0,0.0,0.0,-0.47215625,0.0,0.0,0.0,0.0,0.0,0.0,0.5733259912202067,0.0,0.0,0.0,0.0,0.0,0.0,-0.624,0.0
504,0.0,0.0,0.0,0.0,0.0,-0.4657392578125,0.0,0.0,0.0,0.0,0.0,0.0,0.5733259912202067,0.0,0.0,0.0,0.0,0.0,0.0,-0.7,0.0
505,0.0,0.0,0.0,0.0,0.0,-0.4605751953125,0.0,0.0,0.0,0.0,0.0,0.0,0.5733259912202067,0.0,0.0,0.0,0.0,0.0,0.0,-0.396,0.0
506,0.0,0.0,0.0,0.0,0.0,-0.454791015625,0.0,0.0,0.0,0.0,0.0,0.0,0.5733259912202067,0.0,0.0,0.0,0.0,0.0,0.0,-0.224,0.0
507,0.0,0.0,0.0,0.0,0.0,-0.4483876953125,0.0,0.0,0.0,0.0,0.0,0.0,0.5733259912202067,0.0,0.0,0.0,0.0,0.0,0.0,-0.592,0.0
508,0.0,0.0,0.0,0.0,0.0,-0.4436357421875,0.0,0.0,0.0,0.0,0.0,0.0,0.5733259912202067,0.0,0.0,0.0,0.0,0.0,0.0,-0.68,0.0
509,0.0,0.0,0.0,0.0,0.0,-0.4384716796875,0.0,0.0,0.0,0.0,0.0,0.0,0.5733259912202067,0.0,0.0,0.0,0.0,0.0,0.0,-0.264,0.0
510,0.0,0.0,0.0,0.0,0.0,-0.4312412109375,0.0,0.0,0.0,0.0,0.0,0.0,0.5733259912202067,0.0,0.0,0.0,0.0,0.0,0.0,-0.7,0.0
511,0.0,0.0,0.0,0.0,0.0,-0.424837890625,0.0,0.0,0.0,0.0,0.0,0.0,0.5733259912202067,0.0,0.0,0.0,0.0,0.0,0.0,-0.52,0.0
512,0.0,0.0,0.0,0.0,0.0,-0.4167685546875,0.0,0.0,0.0,0.0,0.0,0.0,0.5733259912202067,0.0,0.0,0.0,0.0,0.0,0.0,-0.056,0.0
513,0.0,0.0,0.0,0.0,0.0,-0.407265625,0.0,0.0,0.0,0.0,0.0,0.0,0.5733259912202067,0.0,0.0,0.0,0.0,0.0,0.0,-0.436,0.0
514,0.0,0.0,0.0,0.0,0.0,-0.3992099609375,0.0,0.0,0.0,0.0,0.0,0.0,0.5733259912202067,0.0,0.0,0.0,0.0,0.0,0.0,-0.416,0.0
515,0.0,0.0,0.0,0.0,0.0,-0.3903271484375,0.0,0.0,0.0,0.0,0.0,0.0,0.5733259912202067,0.0,0.0,0.0,0.0,0.0,0.0,-0.2,0.0
516,0.0,0.0,0.0,0.0,0.0,-0.3797919921875,0.0,0.0,0.0,0.0,0.0,0.0,0.5733259912202067,0.0,0.0,0.0,0.0,0.0,0.0,-0.304,0.0
517,0.0,0.0,0.0,0.0,0.0,-0.3690498046875,0.0,0.0,0.0,0.0,0.0,0.0,0.5733259912202067,0.0,0.0,0.0,0.0,0.0,0.0,-0.12,0.0
518,0.0,0.0,0.0,0.0,0.0,-0.3576884765625,0.0,0.0,0.0,0.0,0.0,0.0,0.5733259912202067,0.0,0.0,0.0,0.0,0.0,0.0,-0.192,0.0
519,0.0,0.0,0.0,0.0,0.0,-0.3463388671875,0.0,0.0,0.0,0.0,0.0,0.0,0.5733259912202067,0.0,0.0,0.0,0.0,0.0,0.0,-0.656,0.0
520,0.0,0.0,0.0,0.0,0.0,-0.334771484375,0.0,0.0,0.0,0.0,0.0,0.0,0.5733259912202067,0.0,0.0,0.0,0.0,0.0,0.0,-0.396,0.0
521,0.0,0.0,0.0,0.0,0.0,-0.3217568359375,0.0,0.0,0.0,0.0,0.0,0.0,0.5733259912202067,0.0,0.0,0.0,0.0,0.0,0.0,-0.272,0.0
522,0.0,0.0,0.0,0.0,0.0,-0.3097880859375,0.0,0.0,0.0,0.0,0.0,0.0,0.5733259912202067,0.0,0.0,0.0,0.0,0.0,0.0,-0.452,0.0
523,0.0,0.0,0.0,0.0,0.0,-0.297806640625,0.0,0.0,0.0,0.0,0.0,0.0,0.5733259912202067,0.0,0.0,0.0,0.0,0.0,0.0,-0.364,0.0
524,0.0,0.0,0.0,0.0,0.0,-0.2843798828125,0.0,0.0,0.0,0.0,0.0,0.0,0.5733259912202067,0.0,0.0,0.0,0.0,0.0,0.0,-0.212,0.0
525,0.0,0.0,0.0,0.0,0.0,-0.2713779296875,0.0,0.0,0.0,0.0,0.0,0.0,0.5733259912202067,0.0,0.0,0.0,0.0,0.0,0.0,-0.564,0.0
526,0.0,0.0,0.0,0.0,0.0,-0.260029296875,0.0,0.0,0.0,0.0,0.0,0.0,0.5733259912202067,0.0,0.0,0.0,0.0,0.0,0.0,-0.72,0.0
527,0.0,0.0,0.0,0.0,0.0,-0.247634765625,0.0,0.0,0.0,0.0,0.0,0.0,0.5733259912202067,0.0,0.0,0.0,0.0,0.0,0.0,-0.384,0.0
528,0.0,0.0,0.0,0.0,0.0,-0.234220703125,0.0,0.0,0.0,0.0,0.0,0.0,0.5733259912202067,0.0,0.0,0.0,0.0,0.0,0.0,-0.52,0.0
529,0.0,0.0,0.0,0.0,0.0,-0.2228720703125,0.0,0.0,0.0,0.0,0.0,0.0,0.5733259912202067,0.0,0.0,0.0,0.0,0.0,0.0,-0.648,0.0
530,0.0,0.0,0.0,0.0,0.0,-0.2115234375,0.0,0.0,0.0,0.0,0.0,0.0,0.5733259912202067,0.0,0.0,0.0,0.0,0.0,0.0,-0.492,0.0
531,0.0,0.0,0.0,0.0,0.0,-0.1989345703125,0.0,0.0,0.0,0.0,0.0,0.0,0.5733259912202067,0.0,0.0,0.0,0.0,0.0,0.0,-0.644,0.0
532,0.0,0.0,0.0,0.0,0.0,-0.1880126953125,0.0,0.0,0.0,0.0,0.0,0.0,0.5733259912202067,0.0,0.0,0.0,0.0,0.0,0.0,-0.564,0.0
533,0.0,0.0,0.0,0.0,0.0,-0.177490234375,0.0,0.0,0.0,0.0,0.0,0.0,0.5733259912202067,0.0,0.0,0.0,0.0,0.0,0.0,-0.628,0.0
534,0.0,0.0,0.0,0.0,0.0,-0.1669677734375,0.0,0.0,0.0,0.0,0.0,0.0,0.5733259912202067,0.0,0.0,0.0,0.0,0.0,0.0,-0.904,0.0
535,0.0,0.0,0.0,0.0,0.0,-0.1564453125,0.0,0.0,0.0,0.0,0.0,0.0,0.5733259912202067,0.0,0.0,0.0,0.0,0.0,0.0,-0.524,0.0
536,0.0,0.0,0.0,0.0,0.0,-0.145509765625,0.0,0.0,0.0,0.0,0.0,0.0,0.5733259912202067,0.0,0.0,0.0,0.0,0.0,0.0,-0.5,0.0
537,0.0,0.0,0.0,0.0,0.0,-0.1358134765625,0.0,0.0,0.0,0.0,0.0,0.0,0.5733259912202067,0.0,0.0,0.0,0.0,0.0,0.0,-0.812,0.0
538,0.0,0.0,0.0,0.0,0.0,-0.1267373046875,0.0,0.0,0.0,0.0,0.0,0.0,0.5733259912202067,0.0,0.0,0.0,0.0,0.0,0.0,-0.604,0.0
539,0.0,0.0,0.0,0.0,0.0,-0.116640625,0.0,0.0,0.0,0.0,0.0,0.0,0.5733259912202067,0.0,0.0,0.0,0.0,0.0,0.0,-0.524,0.0
540,0.0,0.0,0.0,0.0,0.0,-0.107138671875,0.0,0.0,0.0,0.0,0.0,0.0,0.5733259912202067,0.0,0.0,0.0,0.0,0.0,0.0,-0.48,0.0
541,0.0,0.0,0.0,0.0,0.0,-0.09785546875,0.0,0.0,0.0,0.0,0.0,0.0,0.5733259912202067,0.0,0.0,0.0,0.0,0.0,0.0,-0.324,0.0
542,0.0,0.0,0.0,0.0,0.0,-0.0883662109375,0.0,0.0,0.0,0.0,0.0,0.0,0.5733259912202067,0.0,0.0,0.0,0.0,0.0,0.0,-0.884,0.0
543,0.0,0.0,0.0,0.0,0.0,-0.0797158203125,0.0,0.0,0.0,0.0,0.0,0.0,0.5733259912202067,0.0,0.0,0.0,0.0,0.0,0.0,-0.8,0.0
544,0.0,0.0,0.0,0.0,0.0,-0.0698125,0.0,0.0,0.0,0.0,0.0,0.0,0.5733259912202067,0.0,0.0,0.0,0.0,0.0,0.0,-0.532,0.0
545,0.0,0.0,0.0,0.0,0.0,-0.0603232421875,0.0,0.0,0.0,0.0,0.0,0.0,0.5733259912202067,0.0,0.0,0.0,0.0,0.0,0.0,-0.472,0.0
546,0.0,0.0,0.0,0.0,0.0,-0.0514658203125,0.0,0.0,0.0,0.0,0.0,0.0,0.5733259912202067,0.0,0.0,0.0,0.0,0.0,0.0,-0.356,0.0
547,0.0,0.0,0.0,0.0,0.0,-0.0419765625,0.0,0.0,0.0,0.0,0.0,0.0,0.5733259912202067,0.0,0.0,0.0,0.0,0.0,0.0,-0.572,0.0
548,0.0,0.0,0.0,0.0,0.0,-0.0325,0.0,0.0,0.0,0.0,0.0,0.0,0.5733259912202067,0.0,0.0,0.0,0.0,0.0,0.0,-0.46,0.0
549,0.0,0.0,0.0,0.0,0.0,-0.0226103515625,0.0,0.0,0.0,0.0,0.0,0.0,0.5733259912202067,0.0,0.0,0.0,0.0,0.0,0.0,-0.284,0.0
550,0.0,0.0,0.0,0.0,0.0,-0.0125009765625,0.0,0.0,0.0,0.0,0.0,0.0,0.5733259912202067,0.0,0.0,0.0,0.0,0.0,0.0,-0.4,0.0
551,0.0,0.0,0.0,0.0,0.0,-0.0030244140625,0.0,0.0,0.0,0.0,0.0,0.0,0.5733259912202067,0.0,0.0,0.0,0.0,0.0,0.0,-0.608,0.0
552,0.0,0.0,0.0,0.0,0.0,0.0068642578125,0.0,0.0,0.0,0.0,0.0,0.0,0.5733259912202067,0.0,0.0,0.0,0.0,0.0,0.0,-0.572,0.0
553,0.0,0.0,0.0,0.0,0.0,0.017580078125,0.0,0.0,0.0,0.0,0.0,0.0,0.5733259912202067,0.0,0.0,0.0,0.0,0.0,0.0,-0.512,0.0
554,0.0,0.0,0.0,0.0,0.0,0.02808984375,0.0,0.0,0.0,0.0,0.0,0.0,0.5733259912202067,0.0,0.0,0.0,0.0,0.0,0.0,-0.344,0.0
555,0.0,0.0,0.0,0.0,0.0,0.0388056640625,0.0,0.0,0.0,0.0,0.0,0.0,0.5733259912202067,0.0,0.0,0.0,0.0,0.0,0.0,-0.54,0.0
556,0.0,0.0,0.0,0.0,0.0,0.04890234375,0.0,0.0,0.0,0.0,0.0,0.0,0.5733259912202067,0.0,0.0,0.0,0.0,0.0,0.0,-0.524,0.0
557,0.0,0.0,0.0,0.0,0.0,0.0598251953125,0.0,0.0,0.0,0.0,0.0,0.0,0.5733259912202067,0.0,0.0,0.0,0.0,0.0,0.0,-0.272,0.0
558,0.0,0.0,0.0,0.0,0.0,0.0711611328125,0.0,0.0,0.0,0.0,0.0,0.0,0.5733259912202067,0.0,0.0,0.0,0.0,0.0,0.0,-0.388,0.0
559,0.0,0.0,0.0,0.0,0.0,0.081876953125,0.0,0.0,0.0,0.0,0.0,0.0,0.5733259912202067,0.0,0.0,0.0,0.0,0.0,0.0,-0.596,0.0
560,0.0,0.0,0.0,0.0,0.0,0.092580078125,0.0,0.0,0.0,0.0,0.0,0.0,0.5733259912202067,0.0,0.0,0.0,0.0,0.0,0.0,-0.656,0.0
561,0.0,0.0,0.0,0.0,0.0,0.103916015625,0.0,0.0,0.0,0.0,0.0,0.0,0.5733259912202067,0.0,0.0,0.0,0.0,0.0,0.0,-0.556,0.0
562,0.0,0.0,0.0,0.0,0.0,0.115044921875,0.0,0.0,0.0,0.0,0.0,0.0,0.5733259912202067,0.0,0.0,0.0,0.0,0.0,0.0,-0.384,0.0
563,0.0,0.0,0.0,0.0,0.0,0.1261611328125,0.0,0.0,0.0,0.0,0.0,0.0,0.5733259912202067,0.0,0.0,0.0,0.0,0.0,0.0,-0.524,0.0
564,0.0,0.0,0.0,0.0,0.0,0.1366708984375,0.0,0.0,0.0,0.0,0.0,0.0,0.5733259912202067,0.0,0.0,0.0,0.0,0.0,0.0,-0.48,0.0
565,0.0,0.0,0.0,0.0,0.0,0.147994140625,0.0,0.0,0.0,0.0,0.0,0.0,0.5733259912202067,0.0,0.0,0.0,0.0,0.0,0.0,-0.344,0.0
566,0.0,0.0,0.0,0.0,0.0,0.15931640625,0.0,0.0,0.0,0.0,0.0,0.0,0.5733259912202067,0.0,0.0,0.0,0.0,0.0,0.0,-0.452,0.0
567,0.0,0.0,0.0,0.0,0.0,0.169826171875,0.0,0.0,0.0,0.0,0.0,0.0,0.5733259912202067,0.0,0.0,0.0,0.0,0.0,0.0,-0.664,0.0
568,0.0,0.0,0.0,0.0,0.0,0.1803232421875,0.0,0.0,0.0,0.0,0.0,0.0,0.5733259912202067,0.0,0.0,0.0,0.0,0.0,0.0,-0.616,0.0
569,0.0,0.0,0.0,0.0,0.0,0.191232421875,0.0,0.0,0.0,0.0,0.0,0.0,0.5733259912202067,0.0,0.0,0.0,0.0,0.0,0.0,-0.5,0.0
570,0.0,0.0,0.0,0.0,0.0,0.2021552734375,0.0,0.0,0.0,0.0,0.0,0.0,0.5733259912202067,0.0,0.0,0.0,0.0,0.0,0.0,-0.324,0.0
571,0.0,0.0,0.0,0.0,0.0,0.2128583984375,0.0,0.0,0.0,0.0,0.0,0.0,0.5733259912202067,0.0,0.0,0.0,0.0,0.0,0.0,-0.5,0.0
572,0.0,0.0,0.0,0.0,0.0,0.2229423828125,0.0,0.0,0.0,0.0,0.0,0.0,0.5733259912202067,0.0,0.0,0.0,0.0,0.0,0.0,-0.504,0.0
573,0.0,0.0,0.0,0.0,0.0,0.233232421875,0.0,0.0,0.0,0.0,0.0,0.0,0.5733259912202067,0.0,0.0,0.0,0.0,0.0,0.0,-0.296,0.0
574,0.0,0.0,0.0,0.0,0.0,0.2439482421875,0.0,0.0,0.0,0.0,0.0,0.0,0.5733259912202067,0.0,0.0,0.0,0.0,0.0,0.0,-0.344,0.0
575,0.0,0.0,0.0,0.0,0.0,0.25423828125,0.0,0.0,0.0,0.0,0.0,0.0,0.5733259912202067,0.0,0.0,0.0,0.0,0.0,0.0,-0.54,0.0
576,0.0,0.0,0.0,0.0,0.0,0.264115234375,0.0,0.0,0.0,0.0,0.0,0.0,0.5733259912202067,0.0,0.0,0.0,0.0,0.0,0.0,-0.544,0.0
577,0.0,0.0,0.0,0.0,0.0,0.2744052734375,0.0,0.0,0.0,0.0,0.0,0.0,0.5733259912202067,0.0,0.0,0.0,0.0,0.0,0.0,-0.504,0.0
578,0.0,0.0,0.0,0.0,0.0,0.28448828125,0.0,0.0,0.0,0.0,0.0,0.0,0.5733259912202067,0.0,0.0,0.0,0.0,0.0,0.0,-0.296,0.0
579,0.0,0.0,0.0,0.0,0.0,0.2949853515625,0.0,0.0,0.0,0.0,0.0,0.0,0.5733259912202067,0.0,0.0,0.0,0.0,0.0,0.0,-0.348,0.0
580,0.0,0.0,0.0,0.0,0.0,0.3048623046875,0.0,0.0,0.0,0.0,0.0,0.0,0.5733259912202067,0.0,0.0,0.0,0.0,0.0,0.0,-0.468,0.0
581,0.0,0.0,0.0,0.0,0.0,0.314544921875,0.0,0.0,0.0,0.0,0.0,0.0,0.5733259912202067,0.0,0.0,0.0,0.0,0.0,0.0,-0.304,0.0
582,0.0,0.0,0.0,0.0,0.0,0.3250283203125,0.0,0.0,0.0,0.0,0.0,0.0,0.5733259912202067,0.0,0.0,0.0,0.0,0.0,0.0,-0.188,0.0
583,0.0,0.0,0.0,0.0,0.0,0.335318359375,0.0,0.0,0.0,0.0,0.0,0.0,0.5733259912202067,0.0,0.0,0.0,0.0,0.0,0.0,-0.468,0.0
584,0.0,0.0,0.0,0.0,0.0,0.3451953125,0.0,0.0,0.0,0.0,0.0,0.0,0.5733259912202067,0.0,0.0,0.0,0.0,0.0,0.0,-0.544,0.0
585,0.0,0.0,0.0,0.0,0.0,0.355072265625,0.0,0.0,0.0,0.0,0.0,0.0,0.5733259912202067,0.0,0.0,0.0,0.0,0.0,0.0,-0.5,0.0
586,0.0,0.0,0.0,0.0,0.0,0.3655693359375,0.0,0.0,0.0,0.0,0.0,0.0,0.5733259912202067,0.0,0.0,0.0,0.0,0.0,0.0,-0.388,0.0
587,0.0,0.0,0.0,0.0,0.0,0.375859375,0.0,0.0,0.0,0.0,0.0,0.0,0.5733259912202067,0.0,0.0,0.0,0.0,0.0,0.0,-0.212,0.0
588,0.0,0.0,0.0,0.0,0.0,0.3863427734375,0.0,0.0,0.0,0.0,0.0,0.0,0.5733259912202067,0.0,0.0,0.0,0.0,0.0,0.0,-0.368,0.0
589,0.0,0.0,0.0,0.0,0.0,0.3966328125,0.0,0.0,0.0,0.0,0.0,0.0,0.5733259912202067,0.0,0.0,0.0,0.0,0.0,0.0,-0.384,0.0
590,0.0,0.0,0.0,0.0,0.0,0.4067158203125,0.0,0.0,0.0,0.0,0.0,0.0,0.5733259912202067,0.0,0.0,0.0,0.0,0.0,0.0,-0.192,0.0
591,0.0,0.0,0.0,0.0,0.0,0.41740625,0.0,0.0,0.0,0.0,0.0,0.0,0.5733259912202067,0.0,0.0,0.0,0.0,0.0,0.0,-0.22,0.0
592,0.0,0.0,0.0,0.0,0.0,0.428109375,0.0,0.0,0.0,0.0,0.0,0.0,0.5733259912202067,0.0,0.0,0.0,0.0,0.0,0.0,-0.488,0.0
593,0.0,0.0,0.0,0.0,0.0,0.4381806640625,0.0,0.0,0.0,0.0,0.0,0.0,0.5733259912202067,0.0,0.0,0.0,0.0,0.0,0.0,-0.44,0.0
594,0.0,0.0,0.0,0.0,0.0,0.4488837890625,0.0,0.0,0.0,0.0,0.0,0.0,0.5733259912202067,0.0,0.0,0.0,0.0,0.0,0.0,-0.368,0.0
595,0.0,0.0,0.0,0.0,0.0,0.4595732421875,0.0,0.0,0.0,0.0,0.0,0.0,0.5733259912202067,0.0,0.0,0.0,0.0,0.0,0.0,-0.212,0.0
596,0.0,0.0,0.0,0.0,0.0,0.4706767578125,0.0,0.0,0.0,0.0,0.0,0.0,0.5733259912202067,0.0,0.0,0.0,0.0,0.0,0.0,-0.312,0.0
597,0.0,0.0,0.0,0.0,0.0,0.480966796875,0.0,0.0,0.0,0.0,0.0,0.0,0.5733259912202067,0.0,0.0,0.0,0.0,0.0,0.0,-0.312,0.0
598,0.0,0.0,0.0,0.0,0.0,0.491244140625,0.0,0.0,0.0,0.0,0.0,0.0,0.5733259912202067,0.0,0.0,0.0,0.0,0.0,0.0,-0.24,0.0
599,0.0,0.0,0.0,0.0,0.0,0.502140625,0.0,0.0,0.0,0.0,0.0,0.0,0.5733259912202067,0.0,0.0,0.0,0.0,0.0,0.0,-0.192,0.0
600,0.0,0.0,0.0,0.0,0.0,0.513244140625,0.0,0.0,0.0,0.0,0.0,0.0,0.5733259912202067,0.0,0.0,0.0,0.0,0.0,0.0,-0.368,0.0
601,0.0,0.0,0.0,0.0,0.0,0.5235341796875,0.0,0.0,0.0,0.0,0.0,0.0,0.5733259912202067,0.0,0.0,0.0,0.0,0.0,0.0,-0.452,0.0
602,0.0,0.0,0.0,0.0,0.0,0.5338115234375,0.0,0.0,0.0,0.0,0.0,0.0,-0.8275159545851793,0.0,0.0,0.0,0.0,0.0,0.0,-0.376,0.0
603,0.0,0.0,0.0,0.0,0.0,0.5447080078125,0.0,0.0,0.0,0.0,0.0,0.0,-0.8275159545851793,0.0,0.0,0.0,0.0,0.0,0.0,-0.116,0.0
604,0.0,0.0,0.0,0.0,0.0,0.5558115234375,0.0,0.0,0.0,0.0,0.0,0.0,-0.8275159545851793,0.0,0.0,0.0,0.0,0.0,0.0,-0.316,0.0
605,0.0,0.0,0.0,0.0,0.0,0.563416015625,0.0,0.0,0.0,0.0,0.0,0.0,-0.8275159545851793,0.0,0.0,0.0,0.0,0.0,0.0,-0.948,0.0
606,0.0,0.0,0.0,0.0,0.0,0.566708984375,0.0,0.0,0.0,0.0,0.0,0.0,-0.8275159545851793,0.0,0.0,0.0,0.0,0.0,0.0,-0.824,0.0
607,0.0,0.0,0.0,0.0,0.0,0.5679482421875,0.0,0.0,0.0,0.0,0.0,0.0,-0.8275159545851793,0.0,0.0,0.0,0.0,0.0,0.0,-0.676,0.0
608,0.0,0.0,0.0,0.0,0.0,0.566501953125,0.0,0.0,0.0,0.0,0.0,0.0,-0.8275159545851793,0.0,0.0,0.0,0.0,0.0,0.0,-0.996,0.0
609,0.0,0.0,0.0,0.0,0.0,0.5611572265625,0.0,0.0,0.0,0.0,0.0,0.0,-0.8275159545851793,0.0,0.0,0.0,0.0,0.0,0.0,-0.716,0.0
610,0.0,0.0,0.0,0.0,0.0,0.5537587890625,0.0,0.0,0.0,0.0,0.0,0.0,-0.8275159545851793,0.0,0.0,0.0,0.0,0.0,0.0,-0.572,0.0
611,0.0,0.0,0.0,0.0,0.0,0.544294921875,0.0,0.0,0.0,0.0,0.0,0.0,-0.8275159545851793,0.0,0.0,0.0,0.0,0.0,0.0,-0.976,0.0
612,0.0,0.0,0.0,0.0,0.0,0.531345703125,0.0,0.0,0.0,0.0,0.0,0.0,-0.8275159545851793,0.0,0.0,0.0,0.0,0.0,0.0,-1.152,0.0
613,0.0,0.0,0.0,0.0,0.0,0.5167431640625,0.0,0.0,0.0,0.0,0.0,0.0,-0.8275159545851793,0.0,0.0,0.0,0.0,0.0,0.0,-0.688,0.0
614,0.0,0.0,0.0,0.0,0.0,0.50112109375,0.0,0.0,0.0,0.0,0.0,0.0,-0.8275159545851793,0.0,0.0,0.0,0.0,0.0,0.0,-0.804,0.0
615,0.0,0.0,0.0,0.0,0.0,0.48301953125,0.0,0.0,0.0,0.0,0.0,0.0,-0.8275159545851793,0.0,0.0,0.0,0.0,0.0,0.0,-0.7,0.0
616,0.0,0.0,0.0,0.0,0.0,0.4645185546875,0.0,0.0,0.0,0.0,0.0,0.0,-0.8275159545851793,0.0,0.0,0.0,0.0,0.0,0.0,-0.416,0.0
617,0.0,0.0,0.0,0.0,0.0,0.44600390625,0.0,0.0,0.0,0.0,0.0,0.0,-0.8275159545851793,0.0,0.0,0.0,0.0,0.0,0.0,-0.948,0.0
618,0.0,0.0,0.0,0.0,0.0,0.4254375,0.0,0.0,0.0,0.0,0.0,0.0,-0.8275159545851793,0.0,0.0,0.0,0.0,0.0,0.0,-0.7,0.0
619,0.0,0.0,0.0,0.0,0.0,0.4058896484375,0.0,0.0,0.0,0.0,0.0,0.0,-0.8275159545851793,0.0,0.0,0.0,0.0,0.0,0.0,-0.332,0.0
620,0.0,0.0,0.0,0.0,0.0,0.3863427734375,0.0,0.0,0.0,0.0,0.0,0.0,-0.8275159545851793,0.0,0.0,0.0,0.0,0.0,0.0,-0.4,0.0
621,0.0,0.0,0.0,0.0,0.0,0.3674150390625,0.0,0.0,0.0,0.0,0.0,0.0,-0.8275159545851793,0.0,0.0,0.0,0.0,0.0,0.0,-0.312,0.0
622,0.0,0.0,0.0,0.0,0.0,0.349314453125,0.0,0.0,0.0,0.0,0.0,0.0,-0.8275159545851793,0.0,0.0,0.0,0.0,0.0,0.0,-0.696,0.0
623,0.0,0.0,0.0,0.0,0.0,0.3320263671875,0.0,0.0,0.0,0.0,0.0,0.0,-0.8275159545851793,0.0,0.0,0.0,0.0,0.0,0.0,-0.364,0.0
624,0.0,0.0,0.0,0.0,0.0,0.315978515625,0.0,0.0,0.0,0.0,0.0,0.0,-0.8275159545851793,0.0,0.0,0.0,0.0,0.0,0.0,-0.408,0.0
625,0.0,0.0,0.0,0.0,0.0,0.2997236328125,0.0,0.0,0.0,0.0,0.0,0.0,-0.8275159545851793,0.0,0.0,0.0,0.0,0.0,0.0,-0.036,0.0
626,0.0,0.0,0.0,0.0,0.0,0.28634765625,0.0,0.0,0.0,0.0,0.0,0.0,-0.8275159545851793,0.0,0.0,0.0,0.0,0.0,0.0,0.0,0.0
627,0.0,0.0,0.0,0.0,0.0,0.27378515625,0.0,0.0,0.0,0.0,0.0,0.0,-0.8275159545851793,0.0,0.0,0.0,0.0,0.0,0.0,-0.492,0.0
628,0.0,0.0,0.0,0.0,0.0,0.2614423828125,0.0,0.0,0.0,0.0,0.0,0.0,-0.8275159545851793,0.0,0.0,0.0,0.0,0.0,0.0,-0.188,0.0
629,0.0,0.0,0.0,0.0,0.0,0.252171875,0.0,0.0,0.0,0.0,0.0,0.0,-0.8275159545851793,0.0,0.0,0.0,0.0,0.0,0.0,-0.436,0.0
630,0.0,0.0,0.0,0.0,0.0,0.242501953125,0.0,0.0,0.0,0.0,0.0,0.0,-0.8275159545851793,0.0,0.0,0.0,0.0,0.0,0.0,-0.44,0.0
631,0.0,0.0,0.0,0.0,0.0,0.233232421875,0.0,0.0,0.0,0.0,0.0,0.0,-0.8275159545851793,0.0,0.0,0.0,0.0,0.0,0.0,0.208,0.0
632,0.0,0.0,0.0,0.0,0.0,0.2266474609375,0.0,0.0,0.0,0.0,0.0,0.0,-0.8275159545851793,0.0,0.0,0.0,0.0,0.0,0.0,-0.26,0.0
633,0.0,0.0,0.0,0.0,0.0,0.219443359375,0.0,0.0,0.0,0.0,0.0,0.0,-0.8275159545851793,0.0,0.0,0.0,0.0,0.0,0.0,-0.368,0.0
634,0.0,0.0,0.0,0.0,0.0,0.213271484375,0.0,0.0,0.0,0.0,0.0,0.0,-0.8275159545851793,0.0,0.0,0.0,0.0,0.0,0.0,-0.16,0.0
635,0.0,0.0,0.0,0.0,0.0,0.20770703125,0.0,0.0,0.0,0.0,0.0,0.0,-0.8275159545851793,0.0,0.0,0.0,0.0,0.0,0.0,-0.5,0.0
636,0.0,0.0,0.0,0.0,0.0,0.2011220703125,0.0,0.0,0.0,0.0,0.0,0.0,-0.8275159545851793,0.0,0.0,0.0,0.0,0.0,0.0,-0.22,0.0
637,0.0,0.0,0.0,0.0,0.0,0.1955576171875,0.0,0.0,0.0,0.0,0.0,0.0,-0.8275159545851793,0.0,0.0,0.0,0.0,0.0,0.0,-0.232,0.0
638,0.0,0.0,0.0,0.0,0.0,0.18938671875,0.0,0.0,0.0,0.0,0.0,0.0,-0.8275159545851793,0.0,0.0,0.0,0.0,0.0,0.0,-0.552,0.0
639,0.0,0.0,0.0,0.0,0.0,0.1827890625,0.0,0.0,0.0,0.0,0.0,0.0,-0.8275159545851793,0.0,0.0,0.0,0.0,0.0,0.0,-0.48,0.0
640,0.0,0.0,0.0,0.0,0.0,0.1766171875,0.0,0.0,0.0,0.0,0.0,0.0,-0.8275159545851793,0.0,0.0,0.0,0.0,0.0,0.0,-0.708,0.0
641,0.0,0.0,0.0,0.0,0.0,0.1694130859375,0.0,0.0,0.0,0.0,0.0,0.0,-0.8275159545851793,0.0,0.0,0.0,0.0,0.0,0.0,-0.752,0.0
642,0.0,0.0,0.0,0.0,0.0,0.162001953125,0.0,0.0,0.0,0.0,0.0,0.0,-0.8275159545851793,0.0,0.0,0.0,0.0,0.0,0.0,-0.472,0.0
643,0.0,0.0,0.0,0.0,0.0,0.154578125,0.0,0.0,0.0,0.0,0.0,0.0,-0.8275159545851793,0.0,0.0,0.0,0.0,0.0,0.0,-0.78,0.0
644,0.0,0.0,0.0,0.0,0.0,0.144908203125,0.0,0.0,0.0,0.0,0.0,0.0,-0.8275159545851793,0.0,0.0,0.0,0.0,0.0,0.0,-0.688,0.0
645,0.0,0.0,0.0,0.0,0.0,0.1356376953125,0.0,0.0,0.0,0.0,0.0,0.0,-0.8275159545851793,0.0,0.0,0.0,0.0,0.0,0.0,-0.544,0.0
646,0.0,0.0,0.0,0.0,0.0,0.1261611328125,0.0,0.0,0.0,0.0,0.0,0.0,-0.8275159545851793,0.0,0.0,0.0,0.0,0.0,0.0,-0.908,0.0
647,0.0,0.0,0.0,0.0,0.0,0.1152392578125,0.0,0.0,0.0,0.0,0.0,0.0,-0.8275159545851793,0.0,0.0,0.0,0.0,0.0,0.0,-0.472,0.0
648,0.0,0.0,0.0,0.0,0.0,0.1051552734375,0.0,0.0,0.0,0.0,0.0,0.0,-0.8275159545851793,0.0,0.0,0.0,0.0,0.0,0.0,-0.676,0.0
649,0.0,0.0,0.0,0.0,0.0,0.0932001953125,0.0,0.0,0.0,0.0,0.0,0.0,-0.8275159545851793,0.0,0.0,0.0,0.0,0.0,0.0,-1.02,0.0
650,0.0,0.0,0.0,0.0,0.0,0.0814638671875,0.0,0.0,0.0,0.0,0.0,0.0,-0.8275159545851793,0.0,0.0,0.0,0.0,0.0,0.0,-0.664,0.0
651,0.0,0.0,0.0,0.0,0.0,0.070748046875,0.0,0.0,0.0,0.0,0.0,0.0,-0.8275159545851793,0.0,0.0,0.0,0.0,0.0,0.0,-0.872,0.0
652,0.0,0.0,0.0,0.0,0.0,0.05715234375,0.0,0.0,0.0,0.0,0.0,0.0,-0.8275159545851793,0.0,0.0,0.0,0.0,0.0,0.0,-0.624,0.0
653,0.0,0.0,0.0,0.0,0.0,0.044990234375,0.0,0.0,0.0,0.0,0.0,0.0,-0.8275159545851793,0.0,0.0,0.0,0.0,0.0,0.0,-0.376,0.0
654,0.0,0.0,0.0,0.0,0.0,0.033861328125,0.0,0.0,0.0,0.0,0.0,0.0,-0.8275159545851793,0.0,0.0,0.0,0.0,0.0,0.0,-0.94,0.0
655,0.0,0.0,0.0,0.0,0.0,0.0206787109375,0.0,0.0,0.0,0.0,0.0,0.0,-0.8275159545851793,0.0,0.0,0.0,0.0,0.0,0.0,-0.552,0.0
656,0.0,0.0,0.0,0.0,0.0,0.0085166015625,0.0,0.0,0.0,0.0,0.0,0.0,-0.8275159545851793,0.0,0.0,0.0,0.0,0.0,0.0,-0.644,0.0
657,0.0,0.0,0.0,0.0,0.0,-0.0034375,0.0,0.0,0.0,0.0,0.0,0.0,-0.8275159545851793,0.0,0.0,0.0,0.0,0.0,0.0,-0.888,0.0
658,0.0,0.0,0.0,0.0,0.0,-0.015599609375,0.0,0.0,0.0,0.0,0.0,0.0,-0.8275159545851793,0.0,0.0,0.0,0.0,0.0,0.0,-0.416,0.0
659,0.0,0.0,0.0,0.0,0.0,-0.026935546875,0.0,0.0,0.0,0.0,0.0,0.0,-0.8275159545851793,0.0,0.0,0.0,0.0,0.0,0.0,-0.592,0.0
660,0.0,0.0,0.0,0.0,0.0,-0.0395107421875,0.0,0.0,0.0,0.0,0.0,0.0,-0.8275159545851793,0.0,0.0,0.0,0.0,0.0,0.0,-0.504,0.0
661,0.0,0.0,0.0,0.0,0.0,-0.0502265625,0.0,0.0,0.0,0.0,0.0,0.0,-0.8275159545851793,0.0,0.0,0.0,0.0,0.0,0.0,-0.396,0.0
662,0.0,0.0,0.0,0.0,0.0,-0.060736328125,0.0,0.0,0.0,0.0,0.0,0.0,-0.8275159545851793,0.0,0.0,0.0,0.0,0.0,0.0,-0.624,0.0
663,0.0,0.0,0.0,0.0,0.0,-0.0729111328125,0.0,0.0,0.0,0.0,0.0,0.0,-0.8275159545851793,0.0,0.0,0.0,0.0,0.0,0.0,-0.388,0.0
664,0.0,0.0,0.0,0.0,0.0,-0.0830078125,0.0,0.0,0.0,0.0,0.0,0.0,-0.8275159545851793,0.0,0.0,0.0,0.0,0.0,0.0,-0.504,0.0
665,0.0,0.0,0.0,0.0,0.0,-0.09291015625,0.0,0.0,0.0,0.0,0.0,0.0,-0.8275159545851793,0.0,0.0,0.0,0.0,0.0,0.0,-0.832,0.0
666,0.0,0.0,0.0,0.0,0.0,-0.103419921875,0.0,0.0,0.0,0.0,0.0,0.0,-0.8275159545851793,0.0,0.0,0.0,0.0,0.0,0.0,-0.26,0.0
667,0.0,0.0,0.0,0.0,0.0,-0.112703125,0.0,0.0,0.0,0.0,0.0,0.0,-0.8275159545851793,0.0,0.0,0.0,0.0,0.0,0.0,-0.564,0.0
668,0.0,0.0,0.0,0.0,0.0,-0.1236513671875,0.0,0.0,0.0,0.0,0.0,0.0,-0.8275159545851793,0.0,0.0,0.0,0.0,0.0,0.0,-0.5,0.0
669,0.0,0.0,0.0,0.0,0.0,-0.133140625,0.0,0.0,0.0,0.0,0.0,0.0,-0.8275159545851793,0.0,0.0,0.0,0.0,0.0,0.0,-0.332,0.0
670,0.0,0.0,0.0,0.0,0.0,-0.141998046875,0.0,0.0,0.0,0.0,0.0,0.0,-0.8275159545851793,0.0,0.0,0.0,0.0,0.0,0.0,-0.664,0.0
671,0.0,0.0,0.0,0.0,0.0,-0.152107421875,0.0,0.0,0.0,0.0,0.0,0.0,-0.8275159545851793,0.0,0.0,0.0,0.0,0.0,0.0,-0.428,0.0
672,0.0,0.0,0.0,0.0,0.0,-0.161802734375,0.0,0.0,0.0,0.0,0.0,0.0,-0.8275159545851793,0.0,0.0,0.0,0.0,0.0,0.0,-0.552,0.0
673,0.0,0.0,0.0,0.0,0.0,-0.1710859375,0.0,0.0,0.0,0.0,0.0,0.0,-0.8275159545851793,0.0,0.0,0.0,0.0,0.0,0.0,-0.916,0.0
674,0.0,0.0,0.0,0.0,0.0,-0.1807822265625,0.0,0.0,0.0,0.0,0.0,0.0,-0.8275159545851793,0.0,0.0,0.0,0.0,0.0,0.0,-0.596,0.0
675,0.0,0.0,0.0,0.0,0.0,-0.18965234375,0.0,0.0,0.0,0.0,0.0,0.0,-0.8275159545851793,0.0,0.0,0.0,0.0,0.0,0.0,-0.452,0.0
676,0.0,0.0,0.0,0.0,0.0,-0.19976171875,0.0,0.0,0.0,0.0,0.0,0.0,-0.8275159545851793,0.0,0.0,0.0,0.0,0.0,0.0,-0.644,0.0
677,0.0,0.0,0.0,0.0,0.0,-0.2100771484375,0.0,0.0,0.0,0.0,0.0,0.0,-0.8275159545851793,0.0,0.0,0.0,0.0,0.0,0.0,-0.448,0.0
678,0.0,0.0,0.0,0.0,0.0,-0.219166015625,0.0,0.0,0.0,0.0,0.0,0.0,-0.8275159545851793,0.0,0.0,0.0,0.0,0.0,0.0,-0.804,0.0
679,0.0,0.0,0.0,0.0,0.0,-0.229275390625,0.0,0.0,0.0,0.0,0.0,0.0,-0.8275159545851793,0.0,0.0,0.0,0.0,0.0,0.0,-0.656,0.0
680,0.0,0.0,0.0,0.0,0.0,-0.239384765625,0.0,0.0,0.0,0.0,0.0,0.0,-0.8275159545851793,0.0,0.0,0.0,0.0,0.0,0.0,-0.468,0.0
681,0.0,0.0,0.0,0.0,0.0,-0.2499072265625,0.0,0.0,0.0,0.0,0.0,0.0,-0.8275159545851793,0.0,0.0,0.0,0.0,0.0,0.0,-0.78,0.0
682,0.0,0.0,0.0,0.0,0.0,-0.2604423828125,0.0,0.0,0.0,0.0,0.0,0.0,-0.8275159545851793,0.0,0.0,0.0,0.0,0.0,0.0,-0.752,0.0
683,0.0,0.0,0.0,0.0,0.0,-0.270138671875,0.0,0.0,0.0,0.0,0.0,0.0,-0.8275159545851793,0.0,0.0,0.0,0.0,0.0,0.0,-0.708,0.0
684,0.0,0.0,0.0,0.0,0.0,-0.280455078125,0.0,0.0,0.0,0.0,0.0,0.0,-0.8275159545851793,0.0,0.0,0.0,0.0,0.0,0.0,-0.628,0.0
685,0.0,0.0,0.0,0.0,0.0,-0.2920361328125,0.0,0.0,0.0,0.0,0.0,0.0,-0.8275159545851793,0.0,0.0,0.0,0.0,0.0,0.0,-0.488,0.0
686,0.0,0.0,0.0,0.0,0.0,-0.3027646484375,0.0,0.0,0.0,0.0,0.0,0.0,-0.8275159545851793,0.0,0.0,0.0,0.0,0.0,0.0,-0.564,0.0
687,0.0,0.0,0.0,0.0,0.0,-0.31309375,0.0,0.0,0.0,0.0,0.0,0.0,-0.8275159545851793,0.0,0.0,0.0,0.0,0.0,0.0,-0.656,0.0
688,0.0,0.0,0.0,0.0,0.0,-0.3236162109375,0.0,0.0,0.0,0.0,0.0,0.0,-0.8275159545851793,0.0,0.0,0.0,0.0,0.0,0.0,-0.472,0.0
689,0.0,0.0,0.0,0.0,0.0,-0.3349775390625,0.0,0.0,0.0,0.0,0.0,0.0,-0.8275159545851793,0.0,0.0,0.0,0.0,0.0,0.0,-0.644,0.0
690,0.0,0.0,0.0,0.0,0.0,-0.34592578125,0.0,0.0,0.0,0.0,0.0,0.0,-0.8275159545851793,0.0,0.0,0.0,0.0,0.0,0.0,-0.716,0.0
691,0.0,0.0,0.0,0.0,0.0,-0.3562421875,0.0,0.0,0.0,0.0,0.0,0.0,-0.8275159545851793,0.0,0.0,0.0,0.0,0.0,0.0,-0.616,0.0
692,0.0,0.0,0.0,0.0,0.0,-0.36677734375,0.0,0.0,0.0,0.0,0.0,0.0,-0.8275159545851793,0.0,0.0,0.0,0.0,0.0,0.0,-0.48,0.0
693,0.0,0.0,0.0,0.0,0.0,-0.378138671875,0.0,0.0,0.0,0.0,0.0,0.0,-0.8275159545851793,0.0,0.0,0.0,0.0,0.0,0.0,-0.468,0.0
694,0.0,0.0,0.0,0.0,0.0,-0.389087890625,0.0,0.0,0.0,0.0,0.0,0.0,-0.8275159545851793,0.0,0.0,0.0,0.0,0.0,0.0,-0.48,0.0
695,0.0,0.0,0.0,0.0,0.0,-0.3992099609375,0.0,0.0,0.0,0.0,0.0,0.0,-0.8275159545851793,0.0,0.0,0.0,0.0,0.0,0.0,-0.532,0.0
696,0.0,0.0,0.0,0.0,0.0,-0.4095380859375,0.0,0.0,0.0,0.0,0.0,0.0,-0.8275159545851793,0.0,0.0,0.0,0.0,0.0,0.0,-0.488,0.0
697,0.0,0.0,0.0,0.0,0.0,-0.420693359375,0.0,0.0,0.0,0.0,0.0,0.0,-0.8275159545851793,0.0,0.0,0.0,0.0,0.0,0.0,-0.544,0.0
698,0.0,0.0,0.0,0.0,0.0,-0.4314482421875,0.0,0.0,0.0,0.0,0.0,0.0,-0.8275159545851793,0.0,0.0,0.0,0.0,0.0,0.0,-0.552,0.0
699,0.0,0.0,0.0,0.0,0.0,-0.4411572265625,0.0,0.0,0.0,0.0,0.0,0.0,-0.8275159545851793,0.0,0.0,0.0,0.0,0.0,0.0,-0.656,0.0
700,0.0,0.0,0.0,0.0,0.0,-0.451486328125,0.0,0.0,0.0,0.0,0.0,0.0,-0.8275159545851793,0.0,0.0,0.0,0.0,0.0,0.0,-0.428,0.0
701,0.0,0.0,0.0,0.0,0.0,-0.4622275390625,0.0,0.0,0.0,0.0,0.0,0.0,-0.8275159545851793,0.0,0.0,0.0,0.0,0.0,0.0,-0.44,0.0
702,0.0,0.0,0.0,0.0,0.0,-0.472982421875,0.0,0.0,0.0,0.0,0.0,0.0,-0.8275159545851793,0.0,0.0,0.0,0.0,0.0,0.0,-0.46,0.0
703,0.0,0.0,0.0,0.0,0.0,-0.4831044921875,0.0,0.0,0.0,0.0,0.0,0.0,-0.8275159545851793,0.0,0.0,0.0,0.0,0.0,0.0,-0.436,0.0
704,0.0,0.0,0.0,0.0,0.0,-0.492607421875,0.0,0.0,0.0,0.0,0.0,0.0,-0.8275159545851793,0.0,0.0,0.0,0.0,0.0,0.0,-0.428,0.0
705,0.0,0.0,0.0,0.0,0.0,-0.5031552734375,0.0,0.0,0.0,0.0,0.0,0.0,-0.8275159545851793,0.0,0.0,0.0,0.0,0.0,0.0,-0.604,0.0
706,0.0,0.0,0.0,0.0,0.0,-0.5141044921875,0.0,0.0,0.0,0.0,0.0,0.0,-0.8275159545851793,0.0,0.0,0.0,0.0,0.0,0.0,-0.556,0.0
707,0.0,0.0,0.0,0.0,0.0,-0.5240322265625,0.0,0.0,0.0,0.0,0.0,0.0,-0.8275159545851793,0.0,0.0,0.0,0.0,0.0,0.0,-0.604,0.0
708,0.0,0.0,0.0,0.0,0.0,-0.5337412109375,0.0,0.0,0.0,0.0,0.0,0.0,-0.8275159545851793,0.0,0.0,0.0,0.0,0.0,0.0,-0.552,0.0
709,0.0,0.0,0.0,0.0,0.0,-0.544095703125,0.0,0.0,0.0,0.0,0.0,0.0,-0.8275159545851793,0.0,0.0,0.0,0.0,0.0,0.0,-0.488,0.0
710,0.0,0.0,0.0,0.0,0.0,-0.555044921875,0.0,0.0,0.0,0.0,0.0,0.0,-0.8275159545851793,0.0,0.0,0.0,0.0,0.0,0.0,-0.396,0.0
711,0.0,0.0,0.0,0.0,0.0,-0.5651796875,0.0,0.0,0.0,0.0,0.0,0.0,-0.8275159545851793,0.0,0.0,0.0,0.0,0.0,0.0,-0.452,0.0
712,0.0,0.0,0.0,0.0,0.0,-0.5749013671875,0.0,0.0,0.0,0.0,0.0,0.0,-0.8275159545851793,0.0,0.0,0.0,0.0,0.0,0.0,-0.532,0.0
713,0.0,0.0,0.0,0.0,0.0,-0.585037109375,0.0,0.0,0.0,0.0,0.0,0.0,-0.8275159545851793,0.0,0.0,0.0,0.0,0.0,0.0,-0.472,0.0
714,0.0,0.0,0.0,0.0,0.0,-0.5959853515625,0.0,0.0,0.0,0.0,0.0,0.0,-0.8275159545851793,0.0,0.0,0.0,0.0,0.0,0.0,-0.504,0.0
715,0.0,0.0,0.0,0.0,0.0,-0.606533203125,0.0,0.0,0.0,0.0,0.0,0.0,-0.8275159545851793,0.0,0.0,0.0,0.0,0.0,0.0,-0.556,0.0
716,0.0,0.0,0.0,0.0,0.0,-0.616255859375,0.0,0.0,0.0,0.0,0.0,0.0,-0.8275159545851793,0.0,0.0,0.0,0.0,0.0,0.0,-0.5,0.0
717,0.0,0.0,0.0,0.0,0.0,-0.6259775390625,0.0,0.0,0.0,0.0,0.0,0.0,-0.8275159545851793,0.0,0.0,0.0,0.0,0.0,0.0,-0.376,0.0
718,0.0,0.0,0.0,0.0,0.0,-0.6369384765625,0.0,0.0,0.0,0.0,0.0,0.0,-0.8275159545851793,0.0,0.0,0.0,0.0,0.0,0.0,-0.408,0.0
719,0.0,0.0,0.0,0.0,0.0,-0.6479130859375,0.0,0.0,0.0,0.0,0.0,0.0,-0.8275159545851793,0.0,0.0,0.0,0.0,0.0,0.0,-0.376,0.0
720,0.0,0.0,0.0,0.0,0.0,-0.6580478515625,0.0,0.0,0.0,0.0,0.0,0.0,-0.8275159545851793,0.0,0.0,0.0,0.0,0.0,0.0,-0.304,0.0
721,0.0,0.0,0.0,0.0,0.0,-0.6675634765625,0.0,0.0,0.0,0.0,0.0,0.0,-0.8275159545851793,0.0,0.0,0.0,0.0,0.0,0.0,-0.408,0.0
722,0.0,0.0,0.0,0.0,0.0,-0.678744140625,0.0,0.0,0.0,0.0,0.0,0.0,-0.8275159545851793,0.0,0.0,0.0,0.0,0.0,0.0,-0.556,0.0
723,0.0,0.0,0.0,0.0,0.0,-0.690119140625,0.0,0.0,0.0,0.0,0.0,0.0,-0.8275159545851793,0.0,0.0,0.0,0.0,0.0,0.0,-0.408,0.0
724,0.0,0.0,0.0,0.0,0.0,-0.7000478515625,0.0,0.0,0.0,0.0,0.0,0.0,-0.8275159545851793,0.0,0.0,0.0,0.0,0.0,0.0,-0.324,0.0
725,0.0,0.0,0.0,0.0,0.0,-0.709369140625,0.0,0.0,0.0,0.0,0.0,0.0,-0.8275159545851793,0.0,0.0,0.0,0.0,0.0,0.0,-0.468,0.0
726,0.0,0.0,0.0,0.0,0.0,-0.720330078125,0.0,0.0,0.0,0.0,0.0,0.0,-0.8275159545851793,0.0,0.0,0.0,0.0,0.0,0.0,-0.472,0.0
727,0.0,0.0,0.0,0.0,0.0,-0.7319248046875,0.0,0.0,0.0,0.0,0.0,0.0,-0.8275159545851793,0.0,0.0,0.0,0.0,0.0,0.0,-0.252,0.0
728,0.0,0.0,0.0,0.0,0.0,-0.742072265625,0.0,0.0,0.0,0.0,0.0,0.0,-0.8275159545851793,0.0,0.0,0.0,0.0,0.0,0.0,-0.18,0.0
729,0.0,0.0,0.0,0.0,0.0,-0.7516005859375,0.0,0.0,0.0,0.0,0.0,0.0,-0.8275159545851793,0.0,0.0,0.0,0.0,0.0,0.0,-0.396,0.0
730,0.0,0.0,0.0,0.0,0.0,-0.76235546875,0.0,0.0,0.0,0.0,0.0,0.0,-0.8275159545851793,0.0,0.0,0.0,0.0,0.0,0.0,-0.584,0.0
731,0.0,0.0,0.0,0.0,0.0,-0.7737431640625,0.0,0.0,0.0,0.0,0.0,0.0,-0.8275159545851793,0.0,0.0,0.0,0.0,0.0,0.0,-0.344,0.0
732,0.0,0.0,0.0,0.0,0.0,-0.7838916015625,0.0,0.0,0.0,0.0,0.0,0.0,-0.8275159545851793,0.0,0.0,0.0,0.0,0.0,0.0,-0.276,0.0
733,0.0,0.0,0.0,0.0,0.0,-0.7932001953125,0.0,0.0,0.0,0.0,0.0,0.0,1.257930972371502,0.0,0.0,0.0,0.0,0.0,0.0,-0.408,0.0
734,0.0,0.0,0.0,0.0,0.0,-0.8035546875,0.0,0.0,0.0,0.0,0.0,0.0,1.257930972371502,0.0,0.0,0.0,0.0,0.0,0.0,-0.448,0.0
735,0.0,0.0,0.0,0.0,0.0,-0.8149423828125,0.0,0.0,0.0,0.0,0.0,0.0,1.257930972371502,0.0,0.0,0.0,0.0,0.0,0.0,-0.22,0.0
736,0.0,0.0,0.0,0.0,0.0,-0.8234248046875,0.0,0.0,0.0,0.0,0.0,0.0,1.257930972371502,0.0,0.0,0.0,0.0,0.0,0.0,0.488,0.0
737,0.0,0.0,0.0,0.0,0.0,-0.826755859375,0.0,0.0,0.0,0.0,0.0,0.0,1.257930972371502,0.0,0.0,0.0,0.0,0.0,0.0,0.54,0.0
738,0.0,0.0,0.0,0.0,0.0,-0.827375,0.0,0.0,0.0,0.0,0.0,0.0,1.257930972371502,0.0,0.0,0.0,0.0,0.0,0.0,-0.024,0.0
739,0.0,0.0,0.0,0.0,0.0,-0.826755859375,0.0,0.0,0.0,0.0,0.0,0.0,1.257930972371502,0.0,0.0,0.0,0.0,0.0,0.0,0.172,0.0
740,0.0,0.0,0.0,0.0,0.0,-0.82301171875,0.0,0.0,0.0,0.0,0.0,0.0,1.257930972371502,0.0,0.0,0.0,0.0,0.0,0.0,0.564,0.0
741,0.0,0.0,0.0,0.0,0.0,-0.8151484375,0.0,0.0,0.0,0.0,0.0,0.0,1.257930972371502,0.0,0.0,0.0,0.0,0.0,0.0,0.344,0.0
742,0.0,0.0,0.0,0.0,0.0,-0.8050009765625,0.0,0.0,0.0,0.0,0.0,0.0,1.257930972371502,0.0,0.0,0.0,0.0,0.0,0.0,0.2,0.0
743,0.0,0.0,0.0,0.0,0.0,-0.79340625,0.0,0.0,0.0,0.0,0.0,0.0,1.257930972371502,0.0,0.0,0.0,0.0,0.0,0.0,0.388,0.0
744,0.0,0.0,0.0,0.0,0.0,-0.78016015625,0.0,0.0,0.0,0.0,0.0,0.0,1.257930972371502,0.0,0.0,0.0,0.0,0.0,0.0,0.272,0.0
745,0.0,0.0,0.0,0.0,0.0,-0.7638017578125,0.0,0.0,0.0,0.0,0.0,0.0,1.257930972371502,0.0,0.0,0.0,0.0,0.0,0.0,0.332,0.0
746,0.0,0.0,0.0,0.0,0.0,-0.7451845703125,0.0,0.0,0.0,0.0,0.0,0.0,1.257930972371502,0.0,0.0,0.0,0.0,0.0,0.0,-0.136,0.0
747,0.0,0.0,0.0,0.0,0.0,-0.728193359375,0.0,0.0,0.0,0.0,0.0,0.0,1.257930972371502,0.0,0.0,0.0,0.0,0.0,0.0,-0.364,0.0
748,0.0,0.0,0.0,0.0,0.0,-0.709369140625,0.0,0.0,0.0,0.0,0.0,0.0,1.257930972371502,0.0,0.0,0.0,0.0,0.0,0.0,0.708,0.0
749,0.0,0.0,0.0,0.0,0.0,-0.688259765625,0.0,0.0,0.0,0.0,0.0,0.0,1.257930972371502,0.0,0.0,0.0,0.0,0.0,0.0,-0.676,0.0
750,0.0,0.0,0.0,0.0,0.0,-0.669435546875,0.0,0.0,0.0,0.0,0.0,0.0,1.257930972371502,0.0,0.0,0.0,0.0,0.0,0.0,-0.168,0.0
751,0.0,0.0,0.0,0.0,0.0,-0.649578125,0.0,0.0,0.0,0.0,0.0,0.0,1.257930972371502,0.0,0.0,0.0,0.0,0.0,0.0,-0.208,0.0
752,0.0,0.0,0.0,0.0,0.0,-0.630328125,0.0,0.0,0.0,0.0,0.0,0.0,1.257930972371502,0.0,0.0,0.0,0.0,0.0,0.0,-0.304,0.0
753,0.0,0.0,0.0,0.0,0.0,-0.6112978515625,0.0,0.0,0.0,0.0,0.0,0.0,1.257930972371502,0.0,0.0,0.0,0.0,0.0,0.0,-0.436,0.0
754,0.0,0.0,0.0,0.0,0.0,-0.593712890625,0.0,0.0,0.0,0.0,0.0,0.0,1.257930972371502,0.0,0.0,0.0,0.0,0.0,0.0,-0.936,0.0
755,0.0,0.0,0.0,0.0,0.0,-0.577380859375,0.0,0.0,0.0,0.0,0.0,0.0,1.257930972371502,0.0,0.0,0.0,0.0,0.0,0.0,-0.024,0.0
756,0.0,0.0,0.0,0.0,0.0,-0.560634765625,0.0,0.0,0.0,0.0,0.0,0.0,1.257930972371502,0.0,0.0,0.0,0.0,0.0,0.0,-0.864,0.0
757,0.0,0.0,0.0,0.0,0.0,-0.54678125,0.0,0.0,0.0,0.0,0.0,0.0,1.257930972371502,0.0,0.0,0.0,0.0,0.0,0.0,-0.74,0.0
758,0.0,0.0,0.0,0.0,0.0,-0.5337412109375,0.0,0.0,0.0,0.0,0.0,0.0,1.257930972371502,0.0,0.0,0.0,0.0,0.0,0.0,-0.252,0.0
759,0.0,0.0,0.0,0.0,0.0,-0.521140625,0.0,0.0,0.0,0.0,0.0,0.0,1.257930972371502,0.0,0.0,0.0,0.0,0.0,0.0,-1.116,0.0
760,0.0,0.0,0.0,0.0,0.0,-0.511625,0.0,0.0,0.0,0.0,0.0,0.0,1.257930972371502,0.0,0.0,0.0,0.0,0.0,0.0,-0.968,0.0
761,0.0,0.0,0.0,0.0,0.0,-0.5017099609375,0.0,0.0,0.0,0.0,0.0,0.0,1.257930972371502,0.0,0.0,0.0,0.0,0.0,0.0,-0.376,0.0
762,0.0,0.0,0.0,0.0,0.0,-0.4919873046875,0.0,0.0,0.0,0.0,0.0,0.0,1.257930972371502,0.0,0.0,0.0,0.0,0.0,0.0,-0.664,0.0
763,0.0,0.0,0.0,0.0,0.0,-0.4847578125,0.0,0.0,0.0,0.0,0.0,0.0,1.257930972371502,0.0,0.0,0.0,0.0,0.0,0.0,-0.896,0.0
764,0.0,0.0,0.0,0.0,0.0,-0.4787666015625,0.0,0.0,0.0,0.0,0.0,0.0,1.257930972371502,0.0,0.0,0.0,0.0,0.0,0.0,-0.716,0.0
765,0.0,0.0,0.0,0.0,0.0,-0.4725693359375,0.0,0.0,0.0,0.0,0.0,0.0,1.257930972371502,0.0,0.0,0.0,0.0,0.0,0.0,-0.592,0.0
766,0.0,0.0,0.0,0.0,0.0,-0.46615234375,0.0,0.0,0.0,0.0,0.0,0.0,1.257930972371502,0.0,0.0,0.0,0.0,0.0,0.0,-0.68,0.0
767,0.0,0.0,0.0,0.0,0.0,-0.46098828125,0.0,0.0,0.0,0.0,0.0,0.0,1.257930972371502,0.0,0.0,0.0,0.0,0.0,0.0,-0.504,0.0
768,0.0,0.0,0.0,0.0,0.0,-0.4556171875,0.0,0.0,0.0,0.0,0.0,0.0,1.257930972371502,0.0,0.0,0.0,0.0,0.0,0.0,-0.116,0.0
769,0.0,0.0,0.0,0.0,0.0,-0.44880078125,0.0,0.0,0.0,0.0,0.0,0.0,1.257930972371502,0.0,0.0,0.0,0.0,0.0,0.0,-0.644,0.0
770,0.0,0.0,0.0,0.0,0.0,-0.444255859375,0.0,0.0,0.0,0.0,0.0,0.0,1.257930972371502,0.0,0.0,0.0,0.0,0.0,0.0,-0.74,0.0
771,0.0,0.0,0.0,0.0,0.0,-0.4392978515625,0.0,0.0,0.0,0.0,0.0,0.0,1.257930972371502,0.0,0.0,0.0,0.0,0.0,0.0,-0.16,0.0
772,0.0,0.0,0.0,0.0,0.0,-0.432068359375,0.0,0.0,0.0,0.0,0.0,0.0,1.257930972371502,0.0,0.0,0.0,0.0,0.0,0.0,-0.752,0.0
773,0.0,0.0,0.0,0.0,0.0,-0.42587109375,0.0,0.0,0.0,0.0,0.0,0.0,1.257930972371502,0.0,0.0,0.0,0.0,0.0,0.0,-0.524,0.0
774,0.0,0.0,0.0,0.0,0.0,-0.4180078125,0.0,0.0,0.0,0.0,0.0,0.0,1.257930972371502,0.0,0.0,0.0,0.0,0.0,0.0,-0.024,0.0
775,0.0,0.0,0.0,0.0,0.0,-0.408298828125,0.0,0.0,0.0,0.0,0.0,0.0,1.257930972371502,0.0,0.0,0.0,0.0,0.0,0.0,-0.52,0.0
776,0.0,0.0,0.0,0.0,0.0,-0.40044921875,0.0,0.0,0.0,0.0,0.0,0.0,1.257930972371502,0.0,0.0,0.0,0.0,0.0,0.0,-0.42,0.0
777,0.0,0.0,0.0,0.0,0.0,-0.39156640625,0.0,0.0,0.0,0.0,0.0,0.0,1.257930972371502,0.0,0.0,0.0,0.0,0.0,0.0,-0.2,0.0
778,0.0,0.0,0.0,0.0,0.0,-0.3812373046875,0.0,0.0,0.0,0.0,0.0,0.0,1.257930972371502,0.0,0.0,0.0,0.0,0.0,0.0,-0.336,0.0
779,0.0,0.0,0.0,0.0,0.0,-0.37049609375,0.0,0.0,0.0,0.0,0.0,0.0,1.257930972371502,0.0,0.0,0.0,0.0,0.0,0.0,-0.076,0.0
780,0.0,0.0,0.0,0.0,0.0,-0.358927734375,0.0,0.0,0.0,0.0,0.0,0.0,1.257930972371502,0.0,0.0,0.0,0.0,0.0,0.0,-0.136,0.0
781,0.0,0.0,0.0,0.0,0.0,-0.34778515625,0.0,0.0,0.0,0.0,0.0,0.0,1.257930972371502,0.0,0.0,0.0,0.0,0.0,0.0,-0.668,0.0
782,0.0,0.0,0.0,0.0,0.0,-0.336216796875,0.0,0.0,0.0,0.0,0.0,0.0,1.257930972371502,0.0,0.0,0.0,0.0,0.0,0.0,-0.46,0.0
783,0.0,0.0,0.0,0.0,0.0,-0.323203125,0.0,0.0,0.0,0.0,0.0,0.0,1.257930972371502,0.0,0.0,0.0,0.0,0.0,0.0,-0.316,0.0
784,0.0,0.0,0.0,0.0,0.0,-0.3110283203125,0.0,0.0,0.0,0.0,0.0,0.0,1.257930972371502,0.0,0.0,0.0,0.0,0.0,0.0,-0.408,0.0
785,0.0,0.0,0.0,0.0,0.0,-0.299046875,0.0,0.0,0.0,0.0,0.0,0.0,1.257930972371502,0.0,0.0,0.0,0.0,0.0,0.0,-0.348,0.0
786,0.0,0.0,0.0,0.0,0.0,-0.285619140625,0.0,0.0,0.0,0.0,0.0,0.0,1.257930972371502,0.0,0.0,0.0,0.0,0.0,0.0,-0.224,0.0
787,0.0,0.0,0.0,0.0,0.0,-0.2724111328125,0.0,0.0,0.0,0.0,0.0,0.0,1.257930972371502,0.0,0.0,0.0,0.0,0.0,0.0,-0.532,0.0
788,0.0,0.0,0.0,0.0,0.0,-0.26085546875,0.0,0.0,0.0,0.0,0.0,0.0,1.257930972371502,0.0,0.0,0.0,0.0,0.0,0.0,-0.768,0.0
789,0.0,0.0,0.0,0.0,0.0,-0.24866796875,0.0,0.0,0.0,0.0,0.0,0.0,1.257930972371502,0.0,0.0,0.0,0.0,0.0,0.0,-0.388,0.0
790,0.0,0.0,0.0,0.0,0.0,-0.235046875,0.0,0.0,0.0,0.0,0.0,0.0,1.257930972371502,0.0,0.0,0.0,0.0,0.0,0.0,-0.504,0.0
791,0.0,0.0,0.0,0.0,0.0,-0.2236982421875,0.0,0.0,0.0,0.0,0.0,0.0,1.257930972371502,0.0,0.0,0.0,0.0,0.0,0.0,-0.644,0.0
792,0.0,0.0,0.0,0.0,0.0,-0.212349609375,0.0,0.0,0.0,0.0,0.0,0.0,1.257930972371502,0.0,0.0,0.0,0.0,0.0,0.0,-0.488,0.0
793,0.0,0.0,0.0,0.0,0.0,-0.19976171875,0.0,0.0,0.0,0.0,0.0,0.0,1.257930972371502,0.0,0.0,0.0,0.0,0.0,0.0,-0.636,0.0
794,0.0,0.0,0.0,0.0,0.0,-0.188826171875,0.0,0.0,0.0,0.0,0.0,0.0,1.257930972371502,0.0,0.0,0.0,0.0,0.0,0.0,-0.564,0.0
795,0.0,0.0,0.0,0.0,0.0,-0.1783037109375,0.0,0.0,0.0,0.0,0.0,0.0,1.257930972371502,0.0,0.0,0.0,0.0,0.0,0.0,-0.552,0.0
796,0.0,0.0,0.0,0.0,0.0,-0.1675869140625,0.0,0.0,0.0,0.0,0.0,0.0,1.257930972371502,0.0,0.0,0.0,0.0,0.0,0.0,-0.904,0.0
797,0.0,0.0,0.0,0.0,0.0,-0.157271484375,0.0,0.0,0.0,0.0,0.0,0.0,1.257930972371502,0.0,0.0,0.0,0.0,0.0,0.0,-0.572,0.0
798,0.0,0.0,0.0,0.0,0.0,-0.1463359375,0.0,0.0,0.0,0.0,0.0,0.0,1.257930972371502,0.0,0.0,0.0,0.0,0.0,0.0,-0.48,0.0
799,0.0,0.0,0.0,0.0,0.0,-0.13643359375,0.0,0.0,0.0,0.0,0.0,0.0,1.257930972371502,0.0,0.0,0.0,0.0,0.0,0.0,-0.852,0.0
800,0.0,0.0,0.0,0.0,0.0,-0.12776953125,0.0,0.0,0.0,0.0,0.0,0.0,1.257930972371502,0.0,0.0,0.0,0.0,0.0,0.0,-0.616,0.0
801,0.0,0.0,0.0,0.0,0.0,-0.1176611328125,0.0,0.0,0.0,0.0,0.0,0.0,1.257930972371502,0.0,0.0,0.0,0.0,0.0,0.0,-0.524,0.0
802,0.0,0.0,0.0,0.0,0.0,-0.1081708984375,0.0,0.0,0.0,0.0,0.0,0.0,1.257930972371502,0.0,0.0,0.0,0.0,0.0,0.0,-0.564,0.0
803,0.0,0.0,0.0,0.0,0.0,-0.0988876953125,0.0,0.0,0.0,0.0,0.0,0.0,1.257930972371502,0.0,0.0,0.0,0.0,0.0,0.0,-0.304,0.0
804,0.0,0.0,0.0,0.0,0.0,-0.0891923828125,0.0,0.0,0.0,0.0,0.0,0.0,1.257930972371502,0.0,0.0,0.0,0.0,0.0,0.0,-0.924,0.0
805,0.0,0.0,0.0,0.0,0.0,-0.0809423828125,0.0,0.0,0.0,0.0,0.0,0.0,1.257930972371502,0.0,0.0,0.0,0.0,0.0,0.0,-0.8,0.0
806,0.0,0.0,0.0,0.0,0.0,-0.0712587890625,0.0,0.0,0.0,0.0,0.0,0.0,1.257930972371502,0.0,0.0,0.0,0.0,0.0,0.0,-0.436,0.0
807,0.0,0.0,0.0,0.0,0.0,-0.0615625,0.0,0.0,0.0,0.0,0.0,0.0,1.257930972371502,0.0,0.0,0.0,0.0,0.0,0.0,-0.452,0.0
808,0.0,0.0,0.0,0.0,0.0,-0.0527060546875,0.0,0.0,0.0,0.0,0.0,0.0,1.257930972371502,0.0,0.0,0.0,0.0,0.0,0.0,-0.312,0.0
809,0.0,0.0,0.0,0.0,0.0,-0.043009765625,0.0,0.0,0.0,0.0,0.0,0.0,1.257930972371502,0.0,0.0,0.0,0.0,0.0,0.0,-0.596,0.0
810,0.0,0.0,0.0,0.0,0.0,-0.0337392578125,0.0,0.0,0.0,0.0,0.0,0.0,1.257930972371502,0.0,0.0,0.0,0.0,0.0,0.0,-0.604,0.0
811,0.0,0.0,0.0,0.0,0.0,-0.02404296875,0.0,0.0,0.0,0.0,0.0,0.0,1.257930972371502,0.0,0.0,0.0,0.0,0.0,0.0,-0.212,0.0
812,0.0,0.0,0.0,0.0,0.0,-0.013740234375,0.0,0.0,0.0,0.0,0.0,0.0,1.257930972371502,0.0,0.0,0.0,0.0,0.0,0.0,-0.376,0.0
813,0.0,0.0,0.0,0.0,0.0,-0.004263671875,0.0,0.0,0.0,0.0,0.0,0.0,1.257930972371502,0.0,0.0,0.0,0.0,0.0,0.0,-0.596,0.0
814,0.0,0.0,0.0,0.0,0.0,0.0056376953125,0.0,0.0,0.0,0.0,0.0,0.0,1.257930972371502,0.0,0.0,0.0,0.0,0.0,0.0,-0.556,0.0
815,0.0,0.0,0.0,0.0,0.0,0.016560546875,0.0,0.0,0.0,0.0,0.0,0.0,1.257930972371502,0.0,0.0,0.0,0.0,0.0,0.0,-0.628,0.0
816,0.0,0.0,0.0,0.0,0.0,0.02686328125,0.0,0.0,0.0,0.0,0.0,0.0,1.257930972371502,0.0,0.0,0.0,0.0,0.0,0.0,-0.364,0.0
817,0.0,0.0,0.0,0.0,0.0,0.0375791015625,0.0,0.0,0.0,0.0,0.0,0.0,1.257930972371502,0.0,0.0,0.0,0.0,0.0,0.0,-0.472,0.0
818,0.0,0.0,0.0,0.0,0.0,0.0478828125,0.0,0.0,0.0,0.0,0.0,0.0,1.257930972371502,0.0,0.0,0.0,0.0,0.0,0.0,-0.544,0.0
819,0.0,0.0,0.0,0.0,0.0,0.0585859375,0.0,0.0,0.0,0.0,0.0,0.0,1.257930972371502,0.0,0.0,0.0,0.0,0.0,0.0,-0.22,0.0
820,0.0,0.0,0.0,0.0,0.0,0.0701279296875,0.0,0.0,0.0,0.0,0.0,0.0,1.257930972371502,0.0,0.0,0.0,0.0,0.0,0.0,-0.42,0.0
821,0.0,0.0,0.0,0.0,0.0,0.08084375,0.0,0.0,0.0,0.0,0.0,0.0,1.257930972371502,0.0,0.0,0.0,0.0,0.0,0.0,-0.664,0.0
822,0.0,0.0,0.0,0.0,0.0,0.091560546875,0.0,0.0,0.0,0.0,0.0,0.0,1.257930972371502,0.0,0.0,0.0,0.0,0.0,0.0,-0.608,0.0
823,0.0,0.0,0.0,0.0,0.0,0.1028828125,0.0,0.0,0.0,0.0,0.0,0.0,1.257930972371502,0.0,0.0,0.0,0.0,0.0,0.0,-0.564,0.0
824,0.0,0.0,0.0,0.0,0.0,0.1140126953125,0.0,0.0,0.0,0.0,0.0,0.0,1.257930972371502,0.0,0.0,0.0,0.0,0.0,0.0,-0.348,0.0
825,0.0,0.0,0.0,0.0,0.0,0.12512890625,0.0,0.0,0.0,0.0,0.0,0.0,1.257930972371502,0.0,0.0,0.0,0.0,0.0,0.0,-0.44,0.0
826,0.0,0.0,0.0,0.0,0.0,0.1358447265625,0.0,0.0,0.0,0.0,0.0,0.0,1.257930972371502,0.0,0.0,0.0,0.0,0.0,0.0,-0.576,0.0
827,0.0,0.0,0.0,0.0,0.0,0.1469609375,0.0,0.0,0.0,0.0,0.0,0.0,1.257930972371502,0.0,0.0,0.0,0.0,0.0,0.0,-0.344,0.0
828,0.0,0.0,0.0,0.0,0.0,0.1582841796875,0.0,0.0,0.0,0.0,0.0,0.0,1.257930972371502,0.0,0.0,0.0,0.0,0.0,0.0,-0.436,0.0
829,0.0,0.0,0.0,0.0,0.0,0.1582841796875,0.0,0.0,0.0,0.0,0.0,0.0,1.257930972371502,0.0,0.0,0.0,0.0,0.0,0.0,-0.436,0.0
830,0.0,0.0,0.0,0.0,0.0,0.1792900390625,0.0,0.0,0.0,0.0,0.0,0.0,1.257930972371502,0.0,0.0,0.0,0.0,0.0,0.0,-0.576,0.0
831,0.0,0.0,0.0,0.0,0.0,0.1904189453125,0.0,0.0,0.0,0.0,0.0,0.0,1.257930972371502,0.0,0.0,0.0,0.0,0.0,0.0,-0.512,0.0
832,0.0,0.0,0.0,0.0,0.0,0.2013291015625,0.0,0.0,0.0,0.0,0.0,0.0,1.257930972371502,0.0,0.0,0.0,0.0,0.0,0.0,-0.4,0.0
833,0.0,0.0,0.0,0.0,0.0,0.2118251953125,0.0,0.0,0.0,0.0,0.0,0.0,1.257930972371502,0.0,0.0,0.0,0.0,0.0,0.0,-0.48,0.0
834,0.0,0.0,0.0,0.0,0.0,0.222115234375,0.0,0.0,0.0,0.0,0.0,0.0,1.257930972371502,0.0,0.0,0.0,0.0,0.0,0.0,-0.504,0.0
835,0.0,0.0,0.0,0.0,0.0,0.2324189453125,0.0,0.0,0.0,0.0,0.0,0.0,1.257930972371502,0.0,0.0,0.0,0.0,0.0,0.0,-0.348,0.0
836,0.0,0.0,0.0,0.0,0.0,0.2429150390625,0.0,0.0,0.0,0.0,0.0,0.0,1.257930972371502,0.0,0.0,0.0,0.0,0.0,0.0,-0.316,0.0
837,0.0,0.0,0.0,0.0,0.0,0.253412109375,0.0,0.0,0.0,0.0,0.0,0.0,1.257930972371502,0.0,0.0,0.0,0.0,0.0,0.0,-0.564,0.0
838,0.0,0.0,0.0,0.0,0.0,0.26308203125,0.0,0.0,0.0,0.0,0.0,0.0,1.257930972371502,0.0,0.0,0.0,0.0,0.0,0.0,-0.624,0.0
839,0.0,0.0,0.0,0.0,0.0,0.2733720703125,0.0,0.0,0.0,0.0,0.0,0.0,1.257930972371502,0.0,0.0,0.0,0.0,0.0,0.0,-0.52,0.0
840,0.0,0.0,0.0,0.0,0.0,0.2836748046875,0.0,0.0,0.0,0.0,0.0,0.0,1.257930972371502,0.0,0.0,0.0,0.0,0.0,0.0,-0.344,0.0
841,0.0,0.0,0.0,0.0,0.0,0.2937587890625,0.0,0.0,0.0,0.0,0.0,0.0,1.257930972371502,0.0,0.0,0.0,0.0,0.0,0.0,-0.348,0.0
842,0.0,0.0,0.0,0.0,0.0,0.303841796875,0.0,0.0,0.0,0.0,0.0,0.0,1.257930972371502,0.0,0.0,0.0,0.0,0.0,0.0,-0.46,0.0
843,0.0,0.0,0.0,0.0,0.0,0.31473828125,0.0,0.0,0.0,0.0,0.0,0.0,1.257930972371502,0.0,0.0,0.0,0.0,0.0,0.0,-0.368,0.0
844,0.0,0.0,0.0,0.0,0.0,0.3238017578125,0.0,0.0,0.0,0.0,0.0,0.0,1.257930972371502,0.0,0.0,0.0,0.0,0.0,0.0,-0.212,0.0
845,0.0,0.0,0.0,0.0,0.0,0.334298828125,0.0,0.0,0.0,0.0,0.0,0.0,1.257930972371502,0.0,0.0,0.0,0.0,0.0,0.0,-0.416,0.0
846,0.0,0.0,0.0,0.0,0.0,0.34417578125,0.0,0.0,0.0,0.0,0.0,0.0,1.257930972371502,0.0,0.0,0.0,0.0,0.0,0.0,-0.572,0.0
847,0.0,0.0,0.0,0.0,0.0,0.3542587890625,0.0,0.0,0.0,0.0,0.0,0.0,1.257930972371502,0.0,0.0,0.0,0.0,0.0,0.0,-0.5,0.0
848,0.0,0.0,0.0,0.0,0.0,0.3645361328125,0.0,0.0,0.0,0.0,0.0,0.0,1.257930972371502,0.0,0.0,0.0,0.0,0.0,0.0,-0.428,0.0
849,0.0,0.0,0.0,0.0,0.0,0.374826171875,0.0,0.0,0.0,0.0,0.0,0.0,1.257930972371502,0.0,0.0,0.0,0.0,0.0,0.0,-0.2,0.0
850,0.0,0.0,0.0,0.0,0.0,0.3853232421875,0.0,0.0,0.0,0.0,0.0,0.0,1.257930972371502,0.0,0.0,0.0,0.0,0.0,0.0,-0.332,0.0
