EmanuelSamir/lab201_ws_projsamir/sawyer_dev/data/sawyer/temp/test_drad_ultimate.csv
,j1,j2,j3,j4,j5,j6,j7,v1,v2,v3,v4,v5,v6,v7,jd1,jd2,jd3,jd4,jd5,jd6,jd7,e1,e2,e3,e4,e5,e6,e7
0,0.0,0.0,0.0,0.0,0.0,0.0,0.0,0.0,0.0,0.0,0.0,0.0,0.0,0.0,0.0,0.0,0.0,0.0,0.0,0.0,0.0,0.0,0.0,0.0,0.0,0.0,0.0,0.0
1,0.0020185546875,-0.0014072265625,-0.0037236328125,-0.000505859375,0.0043740234375,-0.0048837890625,0.0018134765625,-0.001,-0.001,-0.001,-0.001,-0.001,-0.001,-0.001,0.0012908177389012458,-0.006058614384060185,-0.010568955269818228,-0.011472407559163136,-0.006609948360188247,-0.019072862318068082,-0.01683086641540902,0.052,-44.376,-4.672,-13.856,2.328,-0.716,-0.064
2,0.0020185546875,-0.0014072265625,-0.0037236328125,-0.000505859375,0.0043740234375,-0.0048837890625,0.0018134765625,-0.001,-0.001,-0.001,-0.001,-0.001,-0.001,-0.001,-0.12902242407849934,-0.10499787094909525,-0.10688712140466756,-0.1295520568475038,-0.09757160220083774,-0.10491925694707487,-0.09503306650183516,0.052,-44.376,-4.672,-13.856,2.328,-0.716,-0.064
3,0.0020185546875,-0.0014072265625,-0.0037236328125,-0.000505859375,0.0043740234375,-0.0048837890625,0.0018134765625,-0.001,-0.001,-0.001,-0.001,-0.001,-0.001,-0.001,-0.10399358317669458,-0.08524289399354097,-0.0871810715370797,-0.10494195885270433,-0.07882739830192702,-0.08810936836184924,-0.08146281005392819,0.052,-44.376,-4.672,-13.856,2.328,-0.716,-0.064
4,0.0020185546875,-0.0014072265625,-0.0037236328125,-0.000505859375,0.0043740234375,-0.0048837890625,0.0018134765625,-0.001,-0.001,-0.001,-0.001,-0.001,-0.001,-0.001,-0.10463224673403537,-0.0874316581189856,-0.09004752591435604,-0.10921603598116511,-0.08258147199669684,-0.09218977636199452,-0.08679411483815747,0.052,-44.376,-4.672,-13.856,2.328,-0.716,-0.064
5,0.0020185546875,-0.0014072265625,-0.0037236328125,-0.000505859375,0.0043740234375,-0.0048837890625,0.0018134765625,-0.001,-0.001,-0.001,-0.001,-0.001,-0.001,-0.001,-0.10469417973377182,-0.08637111224114616,-0.0886008853118825,-0.10719576236882186,-0.08070534279864315,-0.0899968726471935,-0.08234140201639492,0.052,-44.376,-4.672,-13.856,2.328,-0.716,-0.064
6,0.0020185546875,-0.0014072265625,-0.0037236328125,-0.000505859375,0.0043740234375,-0.0048837890625,0.0018134765625,-0.001,-0.001,-0.001,-0.001,-0.001,-0.001,-0.001,-0.10563167251582345,-0.08815554811652657,-0.0899733950714481,-0.10761336697978183,-0.08056655013659446,-0.08917287705073393,-0.08189143524841744,0.052,-44.376,-4.672,-13.856,2.328,-0.716,-0.064
7,0.0020185546875,-0.0014072265625,-0.0037236328125,-0.000505859375,0.0043740234375,-0.0048837890625,0.0018134765625,-0.001,-0.001,-0.001,-0.001,-0.001,-0.001,-0.001,-0.14487915150143738,-0.11923292120024462,-0.12234196118310027,-0.1500121259131064,-0.11561777424322404,-0.1256417322101049,-0.11964337181966064,0.052,-44.376,-4.672,-13.856,2.328,-0.716,-0.064
8,0.0020185546875,-0.0014072265625,-0.0037236328125,-0.000505859375,0.0043740234375,-0.0048837890625,0.0018134765625,-0.001,-0.001,-0.001,-0.001,-0.001,-0.001,-0.001,-0.08106917923013435,-0.06674129149699423,-0.06816107589923283,-0.08093554633750519,-0.05926517018569015,-0.06973386219449121,-0.0622601572205119,0.052,-44.376,-4.672,-13.856,2.328,-0.716,-0.064
9,0.0020185546875,-0.0014072265625,-0.0037236328125,-0.000505859375,0.0043740234375,-0.0048837890625,0.0018134765625,-0.001,-0.001,-0.001,-0.001,-0.001,-0.001,-0.001,-0.08669372563169098,-0.07222728369277195,-0.07454067094314744,-0.08831106100153449,-0.065470923027428,-0.07258591949893003,-0.06577593508955468,0.052,-44.376,-4.672,-13.856,2.328,-0.716,-0.064
10,0.0020185546875,-0.0014072265625,-0.0037236328125,-0.000505859375,0.0043740234375,-0.0048837890625,0.0018134765625,-0.001,-0.001,-0.001,-0.001,-0.001,-0.001,-0.001,-0.1056384975736886,-0.08928091808899882,-0.0926877957009873,-0.11486305697481844,-0.08782032738860561,-0.09770590994975839,-0.0940632020228209,0.052,-44.376,-4.672,-13.856,2.328,-0.716,-0.064
11,0.0020185546875,-0.0014072265625,-0.0037236328125,-0.000505859375,0.0043740234375,-0.0048837890625,0.0018134765625,-0.001,-0.001,-0.001,-0.001,-0.001,-0.001,-0.001,-0.14451896175869805,-0.11931730734367449,-0.12086583609238101,-0.1442182490834741,-0.1103620281727276,-0.1193635924932516,-0.10997314734577243,0.052,-44.376,-4.672,-13.856,2.328,-0.716,-0.064
12,0.0020185546875,-0.0014072265625,-0.0037236328125,-0.000505859375,0.0043740234375,-0.0048837890625,0.0018134765625,-0.001,-0.001,-0.001,-0.001,-0.001,-0.001,-0.001,-0.06458817330574029,-0.05391875198454529,-0.05623986340490729,-0.06609243691063124,-0.04808082777888016,-0.0573636329757802,-0.05067316166749222,0.052,-44.376,-4.672,-13.856,2.328,-0.716,-0.064
13,0.0020185546875,-0.0014072265625,-0.0037236328125,-0.000505859375,0.0043740234375,-0.0048837890625,0.0018134765625,-0.001,-0.001,-0.001,-0.001,-0.001,-0.001,-0.001,-0.10060756167237206,-0.08406985330511871,-0.08632739656557477,-0.10348370303686402,-0.07815660184350008,-0.08847030112520352,-0.08222109671116826,0.052,-44.376,-4.672,-13.856,2.328,-0.716,-0.064
14,0.0020185546875,-0.0014072265625,-0.0037236328125,-0.000505859375,0.0043740234375,-0.0048837890625,0.0018134765625,-0.001,-0.001,-0.001,-0.001,-0.001,-0.001,-0.001,-0.1031150858172305,-0.08634810532900292,-0.08871041322779884,-0.10646152851874066,-0.0806925412095492,-0.0889058232037099,-0.08171552189729267,0.052,-44.376,-4.672,-13.856,2.328,-0.716,-0.064
15,0.0020185546875,-0.0014072265625,-0.0037236328125,-0.000505859375,0.0043740234375,-0.0048837890625,0.0018134765625,-0.001,-0.001,-0.001,-0.001,-0.001,-0.001,-0.001,-0.10263831081443975,-0.08527031486328093,-0.08906030244333264,-0.10624431650648256,-0.0802412085555753,-0.0890920443965402,-0.08206241057576832,0.052,-44.376,-4.672,-13.856,2.328,-0.716,-0.064
16,0.0020185546875,-0.0014072265625,-0.0037236328125,-0.000505859375,0.0043740234375,-0.0048837890625,0.0018134765625,-0.001,-0.001,-0.001,-0.001,-0.001,-0.001,-0.001,-0.10253080369056189,-0.0885666443666728,-0.08971470597945021,-0.11049578484185082,-0.08485321453739596,-0.09493147176804276,-0.08917498424600032,0.052,-44.376,-4.672,-13.856,2.328,-0.716,-0.064
17,0.0020185546875,-0.0014072265625,-0.0037236328125,-0.000505859375,0.0043740234375,-0.0048837890625,0.0018134765625,-0.001,-0.001,-0.001,-0.001,-0.001,-0.001,-0.001,-0.10213858026617051,-0.08345904875138263,-0.08535323988409872,-0.09890519462995637,-0.07437917762447292,-0.08302258157056788,-0.0756066193387763,0.052,-44.376,-4.672,-13.856,2.328,-0.716,-0.064
18,0.0020185546875,-0.0014072265625,-0.0037236328125,-0.000505859375,0.0043740234375,-0.0048837890625,0.0018134765625,-0.001,-0.001,-0.001,-0.001,-0.001,-0.001,-0.001,-0.10190916598507727,-0.08633447538890635,-0.0889991882174427,-0.10682317623891999,-0.0819179769701877,-0.09211717238976894,-0.08610366350910256,0.052,-44.376,-4.672,-13.856,2.328,-0.716,-0.064
19,0.0020185546875,-0.0014072265625,-0.0037236328125,-0.000505859375,0.0043740234375,-0.0048837890625,0.0018134765625,-0.001,-0.001,-0.001,-0.001,-0.001,-0.001,-0.001,-0.10043573776521453,-0.08409298164486764,-0.0862618488948065,-0.10219123880972766,-0.07825704551686212,-0.08690011113744414,-0.07979787873058572,0.052,-44.376,-4.672,-13.856,2.328,-0.716,-0.064
20,0.0020185546875,-0.0014072265625,-0.0037236328125,-0.000505859375,0.0043740234375,-0.0048837890625,0.0018134765625,-0.001,-0.001,-0.001,-0.001,-0.001,-0.001,-0.001,-0.10142177226330684,-0.08753453524656638,-0.09053965069668703,-0.10840593516189043,-0.08245582725068683,-0.09181851964713286,-0.08564107395172768,0.052,-44.376,-4.672,-13.856,2.328,-0.716,-0.064
21,0.0020185546875,-0.0014072265625,-0.0037236328125,-0.000505859375,0.0043740234375,-0.0048837890625,0.0018134765625,-0.001,-0.001,-0.001,-0.001,-0.001,-0.001,-0.001,-0.09958944446357387,-0.08116149917711055,-0.08275720583154923,-0.09731300181951982,-0.07410162267663405,-0.08329565170380218,-0.07614562568408753,0.052,-44.376,-4.672,-13.856,2.328,-0.716,-0.064
22,0.0020185546875,-0.0014072265625,-0.0037236328125,-0.000505859375,0.0043740234375,-0.0048837890625,0.0018134765625,-0.001,-0.001,-0.001,-0.001,-0.001,-0.001,-0.001,-0.0999058539066775,-0.08520042168420858,-0.0877610160169079,-0.10429792007351721,-0.08000945751431625,-0.08937098069369401,-0.08275970750663328,0.052,-44.376,-4.672,-13.856,2.328,-0.716,-0.064
23,0.0020185546875,-0.0014072265625,-0.0037236328125,-0.000505859375,0.0043740234375,-0.0048837890625,0.0018134765625,-0.001,-0.001,-0.001,-0.001,-0.001,-0.001,-0.001,-0.09914636084372264,-0.08395607479851838,-0.08644797712151732,-0.10230437752617536,-0.07869566564785373,-0.08806414837061441,-0.08149337403892495,0.052,-44.376,-4.672,-13.856,2.328,-0.716,-0.064
24,0.0020185546875,-0.0014072265625,-0.0037236328125,-0.000505859375,0.0043740234375,-0.0048837890625,0.0018134765625,-0.001,-0.001,-0.001,-0.001,-0.001,-0.001,-0.001,-0.09816339937332863,-0.0833518321377282,-0.085324934345015,-0.10010121886220211,-0.07867863297203974,-0.08746813443797888,-0.08017338765408108,0.052,-44.376,-4.672,-13.856,2.328,-0.716,-0.064
25,0.0020185546875,-0.0014072265625,-0.0037236328125,-0.000505859375,0.0043740234375,-0.0048837890625,0.0018134765625,-0.001,-0.001,-0.001,-0.001,-0.001,-0.001,-0.001,-0.0980921414844933,-0.08268794344798566,-0.08502445983520514,-0.09935053281162662,-0.07373868683605304,-0.08260767793640203,-0.07567049285267566,0.052,-44.376,-4.672,-13.856,2.328,-0.716,-0.064
26,0.0020185546875,-0.0014072265625,-0.0037236328125,-0.000505859375,0.0043740234375,-0.0048837890625,0.0018134765625,-0.001,-0.001,-0.001,-0.001,-0.001,-0.001,-0.001,-0.09800277608080066,-0.08430135518571655,-0.08659454462558082,-0.10228052116952255,-0.07964904371729435,-0.08954910846774602,-0.083499846905946,0.052,-44.376,-4.672,-13.856,2.328,-0.716,-0.064
27,0.0020185546875,-0.0014072265625,-0.0037236328125,-0.000505859375,0.0043740234375,-0.0048837890625,0.0018134765625,-0.001,-0.001,-0.001,-0.001,-0.001,-0.001,-0.001,-0.09640027285217911,-0.0822941494508582,-0.08451571152482619,-0.09908377955525302,-0.07644722365538774,-0.08552876988021543,-0.07867071757515817,0.052,-44.376,-4.672,-13.856,2.328,-0.716,-0.064
28,0.0020185546875,-0.0014072265625,-0.0037236328125,-0.000505859375,0.0043740234375,-0.0048837890625,0.0018134765625,-0.001,-0.001,-0.001,-0.001,-0.001,-0.001,-0.001,-0.09621948172638062,-0.08275841713017337,-0.08516561525449519,-0.09912033663644101,-0.07687829693355246,-0.08653371089813813,-0.08100510613664011,0.052,-44.376,-4.672,-13.856,2.328,-0.716,-0.064
29,0.0020185546875,-0.0014072265625,-0.0037236328125,-0.000505859375,0.0043740234375,-0.0048837890625,0.0018134765625,-0.001,-0.001,-0.001,-0.001,-0.001,-0.001,-0.001,-0.09619646314426378,-0.08224773398723759,-0.08455020178007312,-0.09843202284569849,-0.07651939943400503,-0.0854741839951603,-0.07767765338965302,0.052,-44.376,-4.672,-13.856,2.328,-0.716,-0.064
30,0.0020185546875,-0.0014072265625,-0.0037236328125,-0.000505859375,0.0043740234375,-0.0048837890625,0.0018134765625,-0.001,-0.001,-0.001,-0.001,-0.001,-0.001,-0.001,-0.09370014575786945,-0.08096415059305803,-0.08333154425346069,-0.0966531617384043,-0.07481235790570366,-0.08354221851363722,-0.07633427404264245,0.052,-44.376,-4.672,-13.856,2.328,-0.716,-0.064
31,0.0020185546875,-0.0014072265625,-0.0037236328125,-0.000505859375,0.0043740234375,-0.0048837890625,0.0018134765625,-0.001,-0.001,-0.001,-0.001,-0.001,-0.001,-0.001,-0.09423071551621787,-0.08092012937218016,-0.08269499682786909,-0.09498997003369333,-0.0739490307515596,-0.08322574887900672,-0.07652448594944336,0.052,-44.376,-4.672,-13.856,2.328,-0.716,-0.064
32,0.0020185546875,-0.0014072265625,-0.0037236328125,-0.000505859375,0.0043740234375,-0.0048837890625,0.0018134765625,-0.001,-0.001,-0.001,-0.001,-0.001,-0.001,-0.001,-0.09343756320733299,-0.08846655443284376,-0.09109596684790712,-0.10585745303745628,-0.08374986084741502,-0.09335301447688929,-0.08698405612296065,0.052,-44.376,-4.672,-13.856,2.328,-0.716,-0.064
33,0.0020185546875,-0.0014072265625,-0.0037236328125,-0.000505859375,0.0043740234375,-0.0048837890625,0.0018134765625,-0.001,-0.001,-0.001,-0.001,-0.001,-0.001,-0.001,-0.09296273320099058,-0.07385618086245246,-0.07647390557865376,-0.08744463572538083,-0.06839681950173775,-0.07756233867365728,-0.07099323704698476,0.052,-44.376,-4.672,-13.856,2.328,-0.716,-0.064
34,0.0020185546875,-0.0014072265625,-0.0037236328125,-0.000505859375,0.0043740234375,-0.0048837890625,0.0018134765625,-0.001,-0.001,-0.001,-0.001,-0.001,-0.001,-0.001,-0.09156048268132455,-0.08032943316761784,-0.08248973008130801,-0.09478751764749657,-0.07457582393045063,-0.0840394422442701,-0.07715540185441669,0.052,-44.376,-4.672,-13.856,2.328,-0.716,-0.064
35,0.0020185546875,-0.0014072265625,-0.0037236328125,-0.000505859375,0.0043740234375,-0.0048837890625,0.0018134765625,-0.001,-0.001,-0.001,-0.001,-0.001,-0.001,-0.001,-0.0913583672989362,-0.07984959833440738,-0.08235234310684793,-0.09342857847365635,-0.07329544197020547,-0.0831554301123292,-0.07744319015673093,0.052,-44.376,-4.672,-13.856,2.328,-0.716,-0.064
36,0.0020185546875,-0.0014072265625,-0.0037236328125,-0.000505859375,0.0043740234375,-0.0048837890625,0.0018134765625,-0.001,-0.001,-0.001,-0.001,-0.001,-0.001,-0.001,-0.09341031368680719,-0.08252628729398534,-0.08490396337018281,-0.09755067841065299,-0.0782636073162191,-0.0871598842861128,-0.07998524171394147,0.052,-44.376,-4.672,-13.856,2.328,-0.716,-0.064
37,0.0020185546875,-0.0014072265625,-0.0037236328125,-0.000505859375,0.0043740234375,-0.0048837890625,0.0018134765625,-0.001,-0.001,-0.001,-0.001,-0.001,-0.001,-0.001,-0.08632157582547828,-0.0759721634077419,-0.07793124521476615,-0.08773772728118431,-0.06913629531289338,-0.07803918131798085,-0.07093878408495777,0.052,-44.376,-4.672,-13.856,2.328,-0.716,-0.064
38,0.0020185546875,-0.0014072265625,-0.0037236328125,-0.000505859375,0.0043740234375,-0.0048837890625,0.0018134765625,-0.001,-0.001,-0.001,-0.001,-0.001,-0.001,-0.001,-0.08865946390807311,-0.0787707576060794,-0.08109602802850081,-0.0910953862905601,-0.07217050913240168,-0.08095049779769184,-0.07374788063959323,0.052,-44.376,-4.672,-13.856,2.328,-0.716,-0.064
39,0.0020185546875,-0.0014072265625,-0.0037236328125,-0.000505859375,0.0043740234375,-0.0048837890625,0.0018134765625,-0.001,-0.001,-0.001,-0.001,-0.001,-0.001,-0.001,-0.08749076258795618,-0.0781047114174431,-0.08083918491717003,-0.09190854710192162,-0.07440392985724946,-0.08439040737354667,-0.07798504913933077,0.052,-44.376,-4.672,-13.856,2.328,-0.716,-0.064
40,0.0020185546875,-0.0014072265625,-0.0037236328125,-0.000505859375,0.0043740234375,-0.0048837890625,0.0018134765625,-0.001,-0.001,-0.001,-0.001,-0.001,-0.001,-0.001,-0.0931599476849172,-0.0822979715398697,-0.08395923599656942,-0.09323118724700438,-0.07461026169134959,-0.08361620539300965,-0.07759543791019216,0.052,-44.376,-4.672,-13.856,2.328,-0.716,-0.064
41,0.0020185546875,-0.0014072265625,-0.0037236328125,-0.000505859375,0.0043740234375,-0.0048837890625,0.0018134765625,-0.001,-0.001,-0.001,-0.001,-0.001,-0.001,-0.001,-0.07938052396090711,-0.07159625966994262,-0.07395125638246593,-0.08212017478975084,-0.06593102429861046,-0.07506109101000139,-0.06774990288060098,0.052,-44.376,-4.672,-13.856,2.328,-0.716,-0.064
42,0.0020185546875,-0.0014072265625,-0.0037236328125,-0.000505859375,0.0043740234375,-0.0048837890625,0.0018134765625,-0.001,-0.001,-0.001,-0.001,-0.001,-0.001,-0.001,-0.08401991938102515,-0.07582293474206223,-0.07829815800507357,-0.08669389907926292,-0.06969191550099234,-0.07862127566745361,-0.07169198371072436,0.052,-44.376,-4.672,-13.856,2.328,-0.716,-0.064
43,0.0020185546875,-0.0014072265625,-0.0037236328125,-0.000505859375,0.0043740234375,-0.0048837890625,0.0018134765625,-0.001,-0.001,-0.001,-0.001,-0.001,-0.001,-0.001,-0.08438443495136383,-0.0762454708391844,-0.07815790755426501,-0.08603263442926498,-0.07016079069411534,-0.07979978438819282,-0.07341561155693507,0.052,-44.376,-4.672,-13.856,2.328,-0.716,-0.064
44,0.0020185546875,-0.0014072265625,-0.0037236328125,-0.000505859375,0.0043740234375,-0.0048837890625,0.0018134765625,-0.001,-0.001,-0.001,-0.001,-0.001,-0.001,-0.001,-0.083162041552578,-0.07671490174890946,-0.07979439931803424,-0.08857926554031523,-0.07308661438051205,-0.08265967037973157,-0.07624217129254515,0.052,-44.376,-4.672,-13.856,2.328,-0.716,-0.064
45,0.0020185546875,-0.0014072265625,-0.0037236328125,-0.000505859375,0.0043740234375,-0.0048837890625,0.0018134765625,-0.001,-0.001,-0.001,-0.001,-0.001,-0.001,-0.001,-0.08215623165412556,-0.07520637269043526,-0.0774428937120132,-0.08455135761735375,-0.06924911449020925,-0.07855565798562994,-0.07190715298174408,0.052,-44.376,-4.672,-13.856,2.328,-0.716,-0.064
46,0.0020185546875,-0.0014072265625,-0.0037236328125,-0.000505859375,0.0043740234375,-0.0048837890625,0.0018134765625,-0.001,-0.001,-0.001,-0.001,-0.001,-0.001,-0.001,-0.08031962634253365,-0.07347727027176429,-0.07544942197790173,-0.0815021595863383,-0.06664644232699483,-0.07554308630002529,-0.06846399431160008,0.052,-44.376,-4.672,-13.856,2.328,-0.716,-0.064
47,0.0020185546875,-0.0014072265625,-0.0037236328125,-0.000505859375,0.0043740234375,-0.0048837890625,0.0018134765625,-0.001,-0.001,-0.001,-0.001,-0.001,-0.001,-0.001,-0.08040141397578804,-0.07495176826295921,-0.07770631003317331,-0.08444685267770688,-0.07027508289278321,-0.07983510011343745,-0.07349691493400676,0.052,-44.376,-4.672,-13.856,2.328,-0.716,-0.064
48,0.0020185546875,-0.0014072265625,-0.0037236328125,-0.000505859375,0.0043740234375,-0.0048837890625,0.0018134765625,-0.001,-0.001,-0.001,-0.001,-0.001,-0.001,-0.001,-0.07955773425271229,-0.07466217505401104,-0.07671463590740792,-0.08215192901547394,-0.06817160930553383,-0.077225084040377,-0.0709305352112963,0.052,-44.376,-4.672,-13.856,2.328,-0.716,-0.064
49,0.0020185546875,-0.0014072265625,-0.0037236328125,-0.000505859375,0.0043740234375,-0.0048837890625,0.0018134765625,-0.001,-0.001,-0.001,-0.001,-0.001,-0.001,-0.001,-0.07631454212917,-0.06980266487255912,-0.07149716513481987,-0.07549979165039919,-0.06219304935022256,-0.07085901790511098,-0.06296258211522773,0.052,-44.376,-4.672,-13.856,2.328,-0.716,-0.064
50,0.0020185546875,-0.0014072265625,-0.0037236328125,-0.000505859375,0.0043740234375,-0.0048837890625,0.0018134765625,-0.001,-0.001,-0.001,-0.001,-0.001,-0.001,-0.001,-0.07646350842046346,-0.07250122621984609,-0.07493240997372731,-0.07989028016257824,-0.06728202487366035,-0.0766821012942989,-0.07008318398344612,0.052,-44.376,-4.672,-13.856,2.328,-0.716,-0.064
51,0.0020185546875,-0.0014072265625,-0.0037236328125,-0.000505859375,0.0043740234375,-0.0048837890625,0.0018134765625,-0.001,-0.001,-0.001,-0.001,-0.001,-0.001,-0.001,-0.07557479263513134,-0.07222042337075216,-0.07514379900300829,-0.07968823102246422,-0.0680209157895935,-0.07785077248480635,-0.07192847936341937,0.052,-44.376,-4.672,-13.856,2.328,-0.716,-0.064
52,0.0020185546875,-0.0014072265625,-0.0037236328125,-0.000505859375,0.0043740234375,-0.0048837890625,0.0018134765625,-0.001,-0.001,-0.001,-0.001,-0.001,-0.001,-0.001,-0.07431670301799542,-0.07071411450345907,-0.07278182403896406,-0.0772626096599289,-0.06547009504236039,-0.07449488467530932,-0.06739647282004221,0.052,-44.376,-4.672,-13.856,2.328,-0.716,-0.064
53,0.0020185546875,-0.0014072265625,-0.0037236328125,-0.000505859375,0.0043740234375,-0.0048837890625,0.0018134765625,-0.001,-0.001,-0.001,-0.001,-0.001,-0.001,-0.001,-0.07307640721031916,-0.07238233590125384,-0.07473005992569072,-0.07657708998826337,-0.06537232556987264,-0.0750038154184132,-0.06825514794135132,0.052,-44.376,-4.672,-13.856,2.328,-0.716,-0.064
54,0.0020185546875,-0.0014072265625,-0.0037236328125,-0.000505859375,0.0043740234375,-0.0048837890625,0.0018134765625,-0.001,-0.001,-0.001,-0.001,-0.001,-0.001,-0.001,-0.07185942365215148,-0.06740239261246403,-0.0695894761302699,-0.07169505656250583,-0.06141163441678303,-0.07023498959571553,-0.06331749320752064,0.052,-44.376,-4.672,-13.856,2.328,-0.716,-0.064
55,0.0020185546875,-0.0014072265625,-0.0037236328125,-0.000505859375,0.0043740234375,-0.0048837890625,0.0018134765625,-0.001,-0.001,-0.001,-0.001,-0.001,-0.001,-0.001,-0.0707480698624412,-0.06916047020264246,-0.07155463748306347,-0.07346361836751034,-0.06359820210857885,-0.07295971930802628,-0.06654275860284728,0.052,-44.376,-4.672,-13.856,2.328,-0.716,-0.064
56,0.0020185546875,-0.0014072265625,-0.0037236328125,-0.000505859375,0.0043740234375,-0.0048837890625,0.0018134765625,-0.001,-0.001,-0.001,-0.001,-0.001,-0.001,-0.001,-0.06969059117597265,-0.06827581268925995,-0.0700944080503544,-0.0709276696870331,-0.06142773891637203,-0.07040745819233221,-0.06341325232769798,0.052,-44.376,-4.672,-13.856,2.328,-0.716,-0.064
57,0.0020185546875,-0.0014072265625,-0.0037236328125,-0.000505859375,0.0043740234375,-0.0048837890625,0.0018134765625,-0.001,-0.001,-0.001,-0.001,-0.001,-0.001,-0.001,-0.06871190240473446,-0.06847871930272673,-0.07123031004867543,-0.07232459564721958,-0.06375333593258974,-0.07485566654043366,-0.06855800883681337,0.052,-44.376,-4.672,-13.856,2.328,-0.716,-0.064
58,0.0020185546875,-0.0014072265625,-0.0037236328125,-0.000505859375,0.0043740234375,-0.0048837890625,0.0018134765625,-0.001,-0.001,-0.001,-0.001,-0.001,-0.001,-0.001,-0.06666366513418875,-0.06651954103323662,-0.06885885404951066,-0.06867691679176155,-0.060410144492205206,-0.06795013957637577,-0.06100549703723421,0.052,-44.376,-4.672,-13.856,2.328,-0.716,-0.064
59,0.0020185546875,-0.0014072265625,-0.0037236328125,-0.000505859375,0.0043740234375,-0.0048837890625,0.0018134765625,-0.001,-0.001,-0.001,-0.001,-0.001,-0.001,-0.001,-0.06589793045768921,-0.06646916930082922,-0.06883060714894008,-0.06841393499281254,-0.06083489820850056,-0.07014514036909139,-0.06348342340456978,0.052,-44.376,-4.672,-13.856,2.328,-0.716,-0.064
60,0.0020185546875,-0.0014072265625,-0.0037236328125,-0.000505859375,0.0043740234375,-0.0048837890625,0.0018134765625,-0.001,-0.001,-0.001,-0.001,-0.001,-0.001,-0.001,-0.06457738828517989,-0.06571419862696645,-0.06785778234395846,-0.06659888893455343,-0.06057543653535484,-0.06977744182438775,-0.06304902055064329,0.052,-44.376,-4.672,-13.856,2.328,-0.716,-0.064
61,0.0020185546875,-0.0014072265625,-0.0037236328125,-0.000505859375,0.0043740234375,-0.0048837890625,0.0018134765625,-0.001,-0.001,-0.001,-0.001,-0.001,-0.001,-0.001,-0.06325509640994209,-0.06489610612663396,-0.06725866413720628,-0.06555991997620045,-0.05827561921849282,-0.06810407984267444,-0.06139569632431649,0.052,-44.376,-4.672,-13.856,2.328,-0.716,-0.064
62,0.0020185546875,-0.0014072265625,-0.0037236328125,-0.000505859375,0.0043740234375,-0.0048837890625,0.0018134765625,-0.001,-0.001,-0.001,-0.001,-0.001,-0.001,-0.001,-0.06184752052302312,-0.06413089216739751,-0.06670968912328314,-0.0646189511242454,-0.058870435523317874,-0.06800300521369687,-0.061282450625324864,0.052,-44.376,-4.672,-13.856,2.328,-0.716,-0.064
63,0.0020185546875,-0.0014072265625,-0.0037236328125,-0.000505859375,0.0043740234375,-0.0048837890625,0.0018134765625,-0.001,-0.001,-0.001,-0.001,-0.001,-0.001,-0.001,-0.060807506169429544,-0.06395556955356449,-0.06607831554257605,-0.0632939779484438,-0.05834855111608421,-0.06692376895564747,-0.06010917911206623,0.052,-44.376,-4.672,-13.856,2.328,-0.716,-0.064
64,0.0020185546875,-0.0014072265625,-0.0037236328125,-0.000505859375,0.0043740234375,-0.0048837890625,0.0018134765625,-0.001,-0.001,-0.001,-0.001,-0.001,-0.001,-0.001,-0.05903283707362573,-0.0629919021671361,-0.06573319766946718,-0.061505804931925895,-0.056609457481028344,-0.06594835459749307,-0.059563933979148026,0.052,-44.376,-4.672,-13.856,2.328,-0.716,-0.064
65,0.0020185546875,-0.0014072265625,-0.0037236328125,-0.000505859375,0.0043740234375,-0.0048837890625,0.0018134765625,-0.001,-0.001,-0.001,-0.001,-0.001,-0.001,-0.001,-0.05806809793567869,-0.06172240176232455,-0.06350797351734085,-0.05961457050759475,-0.05591397932852819,-0.06537279627053197,-0.05855351317544508,0.052,-44.376,-4.672,-13.856,2.328,-0.716,-0.064
66,0.0020185546875,-0.0014072265625,-0.0037236328125,-0.000505859375,0.0043740234375,-0.0048837890625,0.0018134765625,-0.001,-0.001,-0.001,-0.001,-0.001,-0.001,-0.001,-0.057795175114161886,-0.06266348109685912,-0.06493708123888621,-0.06000898862925294,-0.05665157817779791,-0.06601523492127706,-0.05991199854845772,0.052,-44.376,-4.672,-13.856,2.328,-0.716,-0.064
67,0.0020185546875,-0.0014072265625,-0.0037236328125,-0.000505859375,0.0043740234375,-0.0048837890625,0.0018134765625,-0.001,-0.001,-0.001,-0.001,-0.001,-0.001,-0.001,-0.05390107894419938,-0.059108760536980415,-0.061495784901423614,-0.056089409418892594,-0.053421299973639244,-0.06251182439575301,-0.05517045222903147,0.052,-44.376,-4.672,-13.856,2.328,-0.716,-0.064
68,0.0020185546875,-0.0014072265625,-0.0037236328125,-0.000505859375,0.0043740234375,-0.0048837890625,0.0018134765625,-0.001,-0.001,-0.001,-0.001,-0.001,-0.001,-0.001,-0.05425792946687747,-0.06044965457214532,-0.0627646979976716,-0.05673717693984057,-0.054889848260715454,-0.06436550184639137,-0.05784162773257148,0.052,-44.376,-4.672,-13.856,2.328,-0.716,-0.064
69,0.0020185546875,-0.0014072265625,-0.0037236328125,-0.000505859375,0.0043740234375,-0.0048837890625,0.0018134765625,-0.001,-0.001,-0.001,-0.001,-0.001,-0.001,-0.001,-0.05262531421210515,-0.05902500680418418,-0.0612167731981489,-0.05434953473243362,-0.05263762146833466,-0.06192034268073845,-0.05634558174135404,0.052,-44.376,-4.672,-13.856,2.328,-0.716,-0.064
70,0.0020185546875,-0.0014072265625,-0.0037236328125,-0.000505859375,0.0043740234375,-0.0048837890625,0.0018134765625,-0.001,-0.001,-0.001,-0.001,-0.001,-0.001,-0.001,-0.07629350704715687,-0.08571910028475413,-0.08800729284052435,-0.07828875392852461,-0.07983408382310513,-0.08868012042648024,-0.08053376823966915,0.052,-44.376,-4.672,-13.856,2.328,-0.716,-0.064
71,0.0020185546875,-0.0014072265625,-0.0037236328125,-0.000505859375,0.0043740234375,-0.0048837890625,0.0018134765625,-0.001,-0.001,-0.001,-0.001,-0.001,-0.001,-0.001,-0.03014548720753841,-0.036467471078675845,-0.03878653151595292,-0.03245339274887102,-0.0307351048321272,-0.04002398817219157,-0.03336421181279456,0.052,-44.376,-4.672,-13.856,2.328,-0.716,-0.064
72,0.0020185546875,-0.0014072265625,-0.0037236328125,-0.000505859375,0.0043740234375,-0.0048837890625,0.0018134765625,-0.001,-0.001,-0.001,-0.001,-0.001,-0.001,-0.001,-0.04200508907440171,-0.05022447597491839,-0.05250195759859179,-0.04446340717542438,-0.044377372694665504,-0.053603329276580756,-0.04684507503920973,0.052,-44.376,-4.672,-13.856,2.328,-0.716,-0.064
73,0.0020185546875,-0.0014072265625,-0.0037236328125,-0.000505859375,0.0043740234375,-0.0048837890625,0.0018134765625,-0.001,-0.001,-0.001,-0.001,-0.001,-0.001,-0.001,-0.04682010138051763,-0.0558981828125564,-0.0582006562902241,-0.04890420215354305,-0.05010537461777824,-0.05937809538297658,-0.05273829042302311,0.052,-44.376,-4.672,-13.856,2.328,-0.716,-0.064
74,0.0020185546875,-0.0014072265625,-0.0037236328125,-0.000505859375,0.0043740234375,-0.0048837890625,0.0018134765625,-0.001,-0.001,-0.001,-0.001,-0.001,-0.001,-0.001,-0.045228175109982345,-0.05564354114072964,-0.05796359168267519,-0.04791939272841181,-0.049830139892475686,-0.05905226497980178,-0.0522844115021934,0.052,-44.376,-4.672,-13.856,2.328,-0.716,-0.064
75,0.0020185546875,-0.0014072265625,-0.0037236328125,-0.000505859375,0.0043740234375,-0.0048837890625,0.0018134765625,-0.001,-0.001,-0.001,-0.001,-0.001,-0.001,-0.001,-0.04437078052167732,-0.05442305913862652,-0.0566950218995811,-0.0460146808763042,-0.048503068297643545,-0.05772839869259163,-0.05101231272104376,0.052,-44.376,-4.672,-13.856,2.328,-0.716,-0.064
76,0.0020185546875,-0.0014072265625,-0.0037236328125,-0.000505859375,0.0043740234375,-0.0048837890625,0.0018134765625,-0.001,-0.001,-0.001,-0.001,-0.001,-0.001,-0.001,-0.041991864098619665,-0.053227952297882214,-0.05563512417199047,-0.04448268377237949,-0.04784899045230455,-0.05720770642750119,-0.050596202757824366,0.052,-44.376,-4.672,-13.856,2.328,-0.716,-0.064
77,0.0020185546875,-0.0014072265625,-0.0037236328125,-0.000505859375,0.0043740234375,-0.0048837890625,0.0018134765625,-0.001,-0.001,-0.001,-0.001,-0.001,-0.001,-0.001,-0.040860189515614216,-0.05439163210760009,-0.05786142838353116,-0.04626202454666559,-0.05200907408017068,-0.07847351373993552,-0.08112894932574297,0.052,-44.376,-4.672,-13.856,2.328,-0.716,-0.064
78,0.0020185546875,-0.0014072265625,-0.0037236328125,-0.000505859375,0.0043740234375,-0.0048837890625,0.0018134765625,-0.001,-0.001,-0.001,-0.001,-0.001,-0.001,-0.001,-0.05230678868920791,-0.06644870258073274,-0.06812507016484116,-0.05223890568722475,-0.058519461159578776,-0.050899053087086775,-0.03517349358476893,0.052,-44.376,-4.672,-13.856,2.328,-0.716,-0.064
79,0.0020185546875,-0.0014072265625,-0.0037236328125,-0.000505859375,0.0043740234375,-0.0048837890625,0.0018134765625,-0.001,-0.001,-0.001,-0.001,-0.001,-0.001,-0.001,-0.024863488713128497,-0.03434986488663336,-0.03595200209087847,-0.02552657782515408,-0.02656314881043302,-0.03532805534496466,-0.028106592227646637,0.052,-44.376,-4.672,-13.856,2.328,-0.716,-0.064
80,0.0020185546875,-0.0014072265625,-0.0037236328125,-0.000505859375,0.0043740234375,-0.0048837890625,0.0018134765625,-0.001,-0.001,-0.001,-0.001,-0.001,-0.001,-0.001,-0.036719429568989,-0.050471790198428595,-0.05273679655010878,-0.038727893517762596,-0.044593011395498025,-0.05377964387425995,-0.047070402851677934,0.052,-44.376,-4.672,-13.856,2.328,-0.716,-0.064
81,0.0020185546875,-0.0014072265625,-0.0037236328125,-0.000505859375,0.0043740234375,-0.0048837890625,0.0018134765625,-0.001,-0.001,-0.001,-0.001,-0.001,-0.001,-0.001,-0.03481558854337408,-0.04947112399710926,-0.05197934033495767,-0.03751148214000463,-0.0444697956424565,-0.05401392165049381,-0.047563884885990476,0.052,-44.376,-4.672,-13.856,2.328,-0.716,-0.064
82,0.0020185546875,-0.0014072265625,-0.0037236328125,-0.000505859375,0.0043740234375,-0.0048837890625,0.0018134765625,-0.001,-0.001,-0.001,-0.001,-0.001,-0.001,-0.001,-0.033185216316626416,-0.049409260130332394,-0.05179863643612216,-0.03619168390705593,-0.043582892625764466,-0.05278115911823613,-0.04603453222947082,0.052,-44.376,-4.672,-13.856,2.328,-0.716,-0.064
83,0.0020185546875,-0.0014072265625,-0.0037236328125,-0.000505859375,0.0043740234375,-0.0048837890625,0.0018134765625,-0.001,-0.001,-0.001,-0.001,-0.001,-0.001,-0.001,-0.0314972251774357,-0.04658947412515976,-0.048957593176782846,-0.03355436743332338,-0.04166063340447072,-0.05102593048183992,-0.04433936780729028,0.052,-44.376,-4.672,-13.856,2.328,-0.716,-0.064
84,0.0020185546875,-0.0014072265625,-0.0037236328125,-0.000505859375,0.0043740234375,-0.0048837890625,0.0018134765625,-0.001,-0.001,-0.001,-0.001,-0.001,-0.001,-0.001,-0.030372766023868188,-0.04643664838648151,-0.04873021710619331,-0.0319661460204603,-0.04004290373742174,-0.04936631065342636,-0.04288132250890617,0.052,-44.376,-4.672,-13.856,2.328,-0.716,-0.064
85,0.0020185546875,-0.0014072265625,-0.0037236328125,-0.000505859375,0.0043740234375,-0.0048837890625,0.0018134765625,-0.001,-0.001,-0.001,-0.001,-0.001,-0.001,-0.001,-0.028558442924028433,-0.04506233056072981,-0.04697832507138679,-0.029870991935810637,-0.038114819377517414,-0.0467953530007861,-0.03946797558624923,0.052,-44.376,-4.672,-13.856,2.328,-0.716,-0.064
86,0.0020185546875,-0.0014072265625,-0.0037236328125,-0.000505859375,0.0043740234375,-0.0048837890625,0.0018134765625,-0.001,-0.001,-0.001,-0.001,-0.001,-0.001,-0.001,-0.027142730195732774,-0.04531498008276477,-0.04790828017492545,-0.029843474306649548,-0.04027968956290477,-0.04986764945897961,-0.04350346036789607,0.052,-44.376,-4.672,-13.856,2.328,-0.716,-0.064
87,0.0020185546875,-0.0014072265625,-0.0037236328125,-0.000505859375,0.0043740234375,-0.0048837890625,0.0018134765625,-0.001,-0.001,-0.001,-0.001,-0.001,-0.001,-0.001,-0.02577713730263121,-0.04423651970726025,-0.046510586056130246,-0.027819217196983964,-0.03846719413714643,-0.04771218045605321,-0.040993068649648884,0.052,-44.376,-4.672,-13.856,2.328,-0.716,-0.064
88,0.0020185546875,-0.0014072265625,-0.0037236328125,-0.000505859375,0.0043740234375,-0.0048837890625,0.0018134765625,-0.001,-0.001,-0.001,-0.001,-0.001,-0.001,-0.001,-0.023894664916765514,-0.04299053354231683,-0.04519207645683555,-0.025873891820586054,-0.036670178042141274,-0.04578775214309141,-0.03895543293886125,0.052,-44.376,-4.672,-13.856,2.328,-0.716,-0.064
89,0.0020185546875,-0.0014072265625,-0.0037236328125,-0.000505859375,0.0043740234375,-0.0048837890625,0.0018134765625,-0.001,-0.001,-0.001,-0.001,-0.001,-0.001,-0.001,-0.02248902419807309,-0.04214754516624916,-0.044440667449307095,-0.024506477916661468,-0.03626556343519764,-0.0454813300440662,-0.03872199163390985,0.052,-44.376,-4.672,-13.856,2.328,-0.716,-0.064
90,0.0020185546875,-0.0014072265625,-0.0037236328125,-0.000505859375,0.0043740234375,-0.0048837890625,0.0018134765625,-0.001,-0.001,-0.001,-0.001,-0.001,-0.001,-0.001,-0.02069622213162426,-0.04098195764408727,-0.0434602862868,-0.02290795181825353,-0.03516260230071859,-0.04421091103630095,-0.03733103216489295,0.052,-44.376,-4.672,-13.856,2.328,-0.716,-0.064
91,0.0020185546875,-0.0014072265625,-0.0037236328125,-0.000505859375,0.0043740234375,-0.0048837890625,0.0018134765625,-0.001,-0.001,-0.001,-0.001,-0.001,-0.001,-0.001,-0.019245815618218927,-0.03999786876705633,-0.0419043969133054,-0.020873390924406515,-0.03353343973515992,-0.04277772578038943,-0.03619138291489052,0.052,-44.376,-4.672,-13.856,2.328,-0.716,-0.064
92,0.0020185546875,-0.0014072265625,-0.0037236328125,-0.000505859375,0.0043740234375,-0.0048837890625,0.0018134765625,-0.001,-0.001,-0.001,-0.001,-0.001,-0.001,-0.001,-0.01763493637830394,-0.03941545683437672,-0.04192543058572697,-0.019932911429400207,-0.03384028598508086,-0.04309964071574315,-0.03627040020045144,0.052,-44.376,-4.672,-13.856,2.328,-0.716,-0.064
93,0.0020185546875,-0.0014072265625,-0.0037236328125,-0.000505859375,0.0043740234375,-0.0048837890625,0.0018134765625,-0.001,-0.001,-0.001,-0.001,-0.001,-0.001,-0.001,-0.01617966709492969,-0.03886602846383111,-0.04132462683568762,-0.018633265077421662,-0.03390209186309194,-0.04335466542583146,-0.03668341839586817,0.052,-44.376,-4.672,-13.856,2.328,-0.716,-0.064
94,0.0020185546875,-0.0014072265625,-0.0037236328125,-0.000505859375,0.0043740234375,-0.0048837890625,0.0018134765625,-0.001,-0.001,-0.001,-0.001,-0.001,-0.001,-0.001,-0.014419854613281664,-0.03728018143193809,-0.03949909933991415,-0.016659113781114926,-0.031785036857489055,-0.041053477372699175,-0.03461285209600981,0.052,-44.376,-4.672,-13.856,2.328,-0.716,-0.064
95,0.0020185546875,-0.0014072265625,-0.0037236328125,-0.000505859375,0.0043740234375,-0.0048837890625,0.0018134765625,-0.001,-0.001,-0.001,-0.001,-0.001,-0.001,-0.001,-0.0128545255790904,-0.03629652367222322,-0.038548471328438874,-0.014603722642643618,-0.029735102447628045,-0.03894646823303185,-0.032120874299889274,0.052,-44.376,-4.672,-13.856,2.328,-0.716,-0.064
96,0.0020185546875,-0.0014072265625,-0.0037236328125,-0.000505859375,0.0043740234375,-0.0048837890625,0.0018134765625,-0.001,-0.001,-0.001,-0.001,-0.001,-0.001,-0.001,-0.011371997431288257,-0.03586770831929817,-0.03810749365404033,-0.013429978063411036,-0.029622250261799807,-0.038858992820468584,-0.03220840334928529,0.052,-44.376,-4.672,-13.856,2.328,-0.716,-0.064
97,0.0020185546875,-0.0014072265625,-0.0037236328125,-0.000505859375,0.0043740234375,-0.0048837890625,0.0018134765625,-0.001,-0.001,-0.001,-0.001,-0.001,-0.001,-0.001,-0.009676393247772815,-0.03467551767785457,-0.03708678611434725,-0.011915783988730916,-0.029394670512059393,-0.03869302376256802,-0.03197923543322198,0.052,-44.376,-4.672,-13.856,2.328,-0.716,-0.064
98,0.0020185546875,-0.0014072265625,-0.0037236328125,-0.000505859375,0.0043740234375,-0.0048837890625,0.0018134765625,-0.001,-0.001,-0.001,-0.001,-0.001,-0.001,-0.001,-0.008112849759736925,-0.03433322744515907,-0.03659669124201405,-0.010449272455197417,-0.028939956884284343,-0.03832314061654676,-0.03156812803898387,0.052,-44.376,-4.672,-13.856,2.328,-0.716,-0.064
99,0.0020185546875,-0.0014072265625,-0.0037236328125,-0.000505859375,0.0043740234375,-0.0048837890625,0.0018134765625,-0.001,-0.001,-0.001,-0.001,-0.001,-0.001,-0.001,-0.006457159825801646,-0.03191203172633392,-0.034025266351949926,-0.00820294895703097,-0.02500237897527162,-0.03388723456983891,-0.027003249539833768,0.052,-44.376,-4.672,-13.856,2.328,-0.716,-0.064
100,0.0020185546875,-0.0014072265625,-0.0037236328125,-0.000505859375,0.0043740234375,-0.0048837890625,0.0018134765625,-0.001,-0.001,-0.001,-0.001,-0.001,-0.001,-0.001,-0.004872844138652084,-0.03184163523549641,-0.03416852629245949,-0.00705231627186717,-0.026090468035021616,-0.03535920804425776,-0.028669916058324113,0.052,-44.376,-4.672,-13.856,2.328,-0.716,-0.064
101,0.0020185546875,-0.0014072265625,-0.0037236328125,-0.000505859375,0.0043740234375,-0.0048837890625,0.0018134765625,-0.001,-0.001,-0.001,-0.001,-0.001,-0.001,-0.001,-0.003282709018482606,-0.031295098921132,-0.033857473143278485,-0.0055685851958173485,-0.026243599484328237,-0.0357326504366833,-0.029266379348678456,0.052,-44.376,-4.672,-13.856,2.328,-0.716,-0.064
102,0.0020185546875,-0.0014072265625,-0.0037236328125,-0.000505859375,0.0043740234375,-0.0048837890625,0.0018134765625,-0.001,-0.001,-0.001,-0.001,-0.001,-0.001,-0.001,-0.0016524724502726754,-0.02969477262265238,-0.032070249506609985,-0.0037717963820335923,-0.024059633439390368,-0.03339111720362522,-0.026744820061070457,0.052,-44.376,-4.672,-13.856,2.328,-0.716,-0.064
103,0.0020185546875,-0.0014072265625,-0.0037236328125,-0.000505859375,0.0043740234375,-0.0048837890625,0.0018134765625,-0.001,-0.001,-0.001,-0.001,-0.001,-0.001,-0.001,-4.6306214095188925e-05,-0.028603823995723778,-0.030668554929333857,-0.002147507012403487,-0.02210151059885339,-0.031232887563532843,-0.02449091182913407,0.052,-44.376,-4.672,-13.856,2.328,-0.716,-0.064
104,0.0020185546875,-0.0014072265625,-0.0037236328125,-0.000505859375,0.0043740234375,-0.0048837890625,0.0018134765625,-0.001,-0.001,-0.001,-0.001,-0.001,-0.001,-0.001,0.0015510339585551522,-0.02787678580210892,-0.03009294689061982,-0.0006169779241460276,-0.021804872696062724,-0.030844856627793484,-0.023845000485231943,0.052,-44.376,-4.672,-13.856,2.328,-0.716,-0.064
105,0.0020185546875,-0.0014072265625,-0.0037236328125,-0.000505859375,0.0043740234375,-0.0048837890625,0.0018134765625,-0.001,-0.001,-0.001,-0.001,-0.001,-0.001,-0.001,0.0031658891399306485,-0.02707926137993352,-0.029454982369843462,0.0010039024273727222,-0.021470652843401702,-0.0307723960639821,-0.024150340130580233,0.052,-44.376,-4.672,-13.856,2.328,-0.716,-0.064
106,0.0020185546875,-0.0014072265625,-0.0037236328125,-0.000505859375,0.0043740234375,-0.0048837890625,0.0018134765625,-0.001,-0.001,-0.001,-0.001,-0.001,-0.001,-0.001,0.004785658203171998,-0.02606695567200942,-0.028417591011101428,0.0026326712632203384,-0.020389311432172527,-0.029691791476551346,-0.02303377379546842,0.052,-44.376,-4.672,-13.856,2.328,-0.716,-0.064
107,0.0020185546875,-0.0014072265625,-0.0037236328125,-0.000505859375,0.0043740234375,-0.0048837890625,0.0018134765625,-0.001,-0.001,-0.001,-0.001,-0.001,-0.001,-0.001,0.006352328641281872,-0.024615498826498352,-0.0268312829313614,0.0040880591637604555,-0.01850140142916716,-0.027638568372928576,-0.020822967460088798,0.052,-44.376,-4.672,-13.856,2.328,-0.716,-0.064
108,0.0020185546875,-0.0014072265625,-0.0037236328125,-0.000505859375,0.0043740234375,-0.0048837890625,0.0018134765625,-0.001,-0.001,-0.001,-0.001,-0.001,-0.001,-0.001,0.00802926752089838,-0.024789730681775004,-0.028296655490839383,0.006526992582198716,-0.020740058057982666,-0.03022203451321628,-0.02378596749786685,0.052,-44.376,-4.672,-13.856,2.328,-0.716,-0.064
109,0.0020185546875,-0.0014072265625,-0.0037236328125,-0.000505859375,0.0043740234375,-0.0048837890625,0.0018134765625,-0.001,-0.001,-0.001,-0.001,-0.001,-0.001,-0.001,0.009544390604437673,-0.022443233733010905,-0.023889127697410372,0.007025005675173752,-0.015968449657671344,-0.025287560523733512,-0.01867208188779565,0.052,-44.376,-4.672,-13.856,2.328,-0.716,-0.064
110,0.0020185546875,-0.0014072265625,-0.0037236328125,-0.000505859375,0.0043740234375,-0.0048837890625,0.0018134765625,-0.001,-0.001,-0.001,-0.001,-0.001,-0.001,-0.001,0.01117922467090881,-0.021686583025213948,-0.02369462745188845,0.008574336822148282,-0.014859009783032825,-0.023788943261970254,-0.016708380250582494,0.052,-44.376,-4.672,-13.856,2.328,-0.716,-0.064
111,0.0020185546875,-0.0014072265625,-0.0037236328125,-0.000505859375,0.0043740234375,-0.0048837890625,0.0018134765625,-0.001,-0.001,-0.001,-0.001,-0.001,-0.001,-0.001,0.012710886019517524,-0.02074839865129016,-0.022969993195326565,0.010375794424533097,-0.014919125085344917,-0.024238724338433906,-0.017525108881148527,0.052,-44.376,-4.672,-13.856,2.328,-0.716,-0.064
112,0.0020185546875,-0.0014072265625,-0.0037236328125,-0.000505859375,0.0043740234375,-0.0048837890625,0.0018134765625,-0.001,-0.001,-0.001,-0.001,-0.001,-0.001,-0.001,0.014401207781944862,-0.020096942676057074,-0.02249303403655468,0.012340935248522228,-0.014463867196360433,-0.023750524838485967,-0.017148511916363213,0.052,-44.376,-4.672,-13.856,2.328,-0.716,-0.064
113,0.0020185546875,-0.0014072265625,-0.0037236328125,-0.000505859375,0.0043740234375,-0.0048837890625,0.0018134765625,-0.001,-0.001,-0.001,-0.001,-0.001,-0.001,-0.001,0.015949805040285973,-0.019015115683166797,-0.02126647973239394,0.013652505589170999,-0.012960356269936121,-0.022108642166747374,-0.015317364311979248,0.052,-44.376,-4.672,-13.856,2.328,-0.716,-0.064
114,0.0020185546875,-0.0014072265625,-0.0037236328125,-0.000505859375,0.0043740234375,-0.0048837890625,0.0018134765625,-0.001,-0.001,-0.001,-0.001,-0.001,-0.001,-0.001,0.01747968450501069,-0.017792938021764484,-0.020132334093201264,0.015241962534647185,-0.012152164797167672,-0.021475311605948535,-0.014933575582675801,0.052,-44.376,-4.672,-13.856,2.328,-0.716,-0.064
115,0.0020185546875,-0.0014072265625,-0.0037236328125,-0.000505859375,0.0043740234375,-0.0048837890625,0.0018134765625,-0.001,-0.001,-0.001,-0.001,-0.001,-0.001,-0.001,0.019209895356943278,-0.01763162729255471,-0.02077076053163286,0.018749468404284847,-0.012655697008756392,-0.021888075992098324,-0.015064505518592924,0.052,-44.376,-4.672,-13.856,2.328,-0.716,-0.064
116,0.0020185546875,-0.0014072265625,-0.0037236328125,-0.000505859375,0.0043740234375,-0.0048837890625,0.0018134765625,-0.001,-0.001,-0.001,-0.001,-0.001,-0.001,-0.001,0.020683799026568465,-0.01534128132420262,-0.016842694250991285,0.01674375789225116,-0.008718633878637846,-0.017983282579017847,-0.011287323779499453,0.052,-44.376,-4.672,-13.856,2.328,-0.716,-0.064
117,0.0020185546875,-0.0014072265625,-0.0037236328125,-0.000505859375,0.0043740234375,-0.0048837890625,0.0018134765625,-0.001,-0.001,-0.001,-0.001,-0.001,-0.001,-0.001,0.02229421143751597,-0.014869945275632205,-0.017403026490772865,0.020698735826433917,-0.009700283149973551,-0.019135626572575306,-0.012726865133054738,0.052,-44.376,-4.672,-13.856,2.328,-0.716,-0.064
118,0.0020185546875,-0.0014072265625,-0.0037236328125,-0.000505859375,0.0043740234375,-0.0048837890625,0.0018134765625,-0.001,-0.001,-0.001,-0.001,-0.001,-0.001,-0.001,0.02411870465721399,-0.014149976857104478,-0.016247540379886415,0.021416629630117284,-0.007751705287016449,-0.01680251035571503,-0.009797461299910076,0.052,-44.376,-4.672,-13.856,2.328,-0.716,-0.064
119,0.0020185546875,-0.0014072265625,-0.0037236328125,-0.000505859375,0.0043740234375,-0.0048837890625,0.0018134765625,-0.001,-0.001,-0.001,-0.001,-0.001,-0.001,-0.001,0.025340352877138976,-0.012603204202169508,-0.014778107791406548,0.022057861341301638,-0.0064156322460580525,-0.015565141576976218,-0.00875883547881437,0.052,-44.376,-4.672,-13.856,2.328,-0.716,-0.064
120,0.0020185546875,-0.0014072265625,-0.0037236328125,-0.000505859375,0.0043740234375,-0.0048837890625,0.0018134765625,-0.001,-0.001,-0.001,-0.001,-0.001,-0.001,-0.001,0.026703776273746975,-0.011830688737145515,-0.014304358218578351,0.02546756526519814,-0.006569646655668656,-0.016024306709675053,-0.009503108889313133,0.052,-44.376,-4.672,-13.856,2.328,-0.716,-0.064
121,0.0020185546875,-0.0014072265625,-0.0037236328125,-0.000505859375,0.0043740234375,-0.0048837890625,0.0018134765625,-0.001,-0.001,-0.001,-0.001,-0.001,-0.001,-0.001,0.028295296454994727,-0.010733021471948071,-0.012949296714742332,0.025364791479773025,-0.00460122792046684,-0.013705354283762874,-0.006857706623689424,0.052,-44.376,-4.672,-13.856,2.328,-0.716,-0.064
122,0.0020185546875,-0.0014072265625,-0.0037236328125,-0.000505859375,0.0043740234375,-0.0048837890625,0.0018134765625,-0.001,-0.001,-0.001,-0.001,-0.001,-0.001,-0.001,0.030057428183087424,-0.009850979815826137,-0.012144681782679257,0.027719555678681146,-0.003994216356341603,-0.013236550649135006,-0.006541484341866493,0.052,-44.376,-4.672,-13.856,2.328,-0.716,-0.064
123,0.0020185546875,-0.0014072265625,-0.0037236328125,-0.000505859375,0.0043740234375,-0.0048837890625,0.0018134765625,-0.001,-0.001,-0.001,-0.001,-0.001,-0.001,-0.001,0.03175758737960343,-0.008831235246148787,-0.011124819012718569,0.029319140710782704,-0.0029937418322661244,-0.012241543169009519,-0.005534015977520539,0.052,-44.376,-4.672,-13.856,2.328,-0.716,-0.064
124,0.0020185546875,-0.0014072265625,-0.0037236328125,-0.000505859375,0.0043740234375,-0.0048837890625,0.0018134765625,-0.001,-0.001,-0.001,-0.001,-0.001,-0.001,-0.001,0.03373159765657351,-0.00789059163268943,-0.010195231278784867,0.03138433512764485,-0.0020711369483755035,-0.01130919066364269,-0.00459086100262504,0.052,-44.376,-4.672,-13.856,2.328,-0.716,-0.064
125,0.0020185546875,-0.0014072265625,-0.0037236328125,-0.000505859375,0.0043740234375,-0.0048837890625,0.0018134765625,-0.001,-0.001,-0.001,-0.001,-0.001,-0.001,-0.001,0.033656273085072456,-0.006566356327964065,-0.00886450997263556,0.03111453954003099,-0.0007284677531303315,-0.009967498391842768,-0.00325643482385815,0.052,-44.376,-4.672,-13.856,2.328,-0.716,-0.064
126,0.0020185546875,-0.0014072265625,-0.0037236328125,-0.000505859375,0.0043740234375,-0.0048837890625,0.0018134765625,-0.001,-0.001,-0.001,-0.001,-0.001,-0.001,-0.001,0.03646166692551222,-0.005825431744912649,-0.008149928415929332,0.035021403741794216,-9.001549943858569e-05,-0.009363785302434004,-0.0026668647519149926,0.052,-44.376,-4.672,-13.856,2.328,-0.716,-0.064
127,0.0020185546875,-0.0014072265625,-0.0037236328125,-0.000505859375,0.0043740234375,-0.0048837890625,0.0018134765625,-0.001,-0.001,-0.001,-0.001,-0.001,-0.001,-0.001,0.03756451187649911,-0.004682169089300828,-0.006977069142022686,0.03485259266112187,0.00121798095246524,-0.00799453491019866,-0.0012779615070641342,0.052,-44.376,-4.672,-13.856,2.328,-0.716,-0.064
128,0.0020185546875,-0.0014072265625,-0.0037236328125,-0.000505859375,0.0043740234375,-0.0048837890625,0.0018134765625,-0.001,-0.001,-0.001,-0.001,-0.001,-0.001,-0.001,0.03911138786159451,-0.0036699750779496084,-0.005952206895717972,0.03635855862146989,0.0021719807446893427,-0.007068426928714701,-0.0003442657361576167,0.052,-44.376,-4.672,-13.856,2.328,-0.716,-0.064
129,0.0020185546875,-0.0014072265625,-0.0037236328125,-0.000505859375,0.0043740234375,-0.0048837890625,0.0018134765625,-0.001,-0.001,-0.001,-0.001,-0.001,-0.001,-0.001,0.040702908517408425,-0.002664361022448794,-0.004964300500250552,0.03873046968000707,0.0031732837093831493,-0.006071450325982909,0.0006452708394295854,0.052,-44.376,-4.672,-13.856,2.328,-0.716,-0.064
130,0.0020185546875,-0.0014072265625,-0.0037236328125,-0.000505859375,0.0043740234375,-0.0048837890625,0.0018134765625,-0.001,-0.001,-0.001,-0.001,-0.001,-0.001,-0.001,0.043149987753184675,-0.0016251374590325583,-0.003919491601273152,0.03951052855209006,0.004220856918339692,-0.005016195163502403,0.0017016926045636822,0.052,-44.376,-4.672,-13.856,2.328,-0.716,-0.064
131,0.0020185546875,-0.0014072265625,-0.0037236328125,-0.000505859375,0.0043740234375,-0.0048837890625,0.0018134765625,-0.001,-0.001,-0.001,-0.001,-0.001,-0.001,-0.001,0.042222971587368534,-0.0006269591405685092,-0.0029278229639392423,0.03994847698735263,0.005197626833406147,-0.004045977147729275,0.0026649495946378396,0.052,-44.376,-4.672,-13.856,2.328,-0.716,-0.064
132,0.0020185546875,-0.0014072265625,-0.0037236328125,-0.000505859375,0.0043740234375,-0.0048837890625,0.0018134765625,-0.001,-0.001,-0.001,-0.001,-0.001,-0.001,-0.001,0.04470113506754724,0.00036415456309571675,-0.0019374004211146884,0.041573506237928576,0.006171767695247702,-0.003050068990737366,0.0036536204328996577,0.052,-44.376,-4.672,-13.856,2.328,-0.716,-0.064
133,0.0020185546875,-0.0014072265625,-0.0037236328125,-0.000505859375,0.0043740234375,-0.0048837890625,0.0018134765625,-0.001,-0.001,-0.001,-0.001,-0.001,-0.001,-0.001,0.046443701371453365,0.0013946814162950928,-0.0009198328824656771,0.04353447294471738,0.007199884794058157,-0.0020144138537563595,0.004717428641510175,0.052,-44.376,-4.672,-13.856,2.328,-0.716,-0.064
134,0.0020185546875,-0.0014072265625,-0.0037236328125,-0.000505859375,0.0043740234375,-0.0048837890625,0.0018134765625,-0.001,-0.001,-0.001,-0.001,-0.001,-0.001,-0.001,0.04857966248475964,0.0024855281064935257,0.0001785084708522005,0.045893163125271946,0.008293650909026964,-0.001016407876108595,0.005667681235102002,0.052,-44.376,-4.672,-13.856,2.328,-0.716,-0.064
135,0.0020185546875,-0.0014072265625,-0.0037236328125,-0.000505859375,0.0043740234375,-0.0048837890625,0.0018134765625,-0.001,-0.001,-0.001,-0.001,-0.001,-0.001,-0.001,0.04838426653556648,0.0033497066578556415,0.0010444759305744283,0.04575875476698246,0.009165252206423793,-8.458596077323254e-05,0.006623440065220116,0.052,-44.376,-4.672,-13.856,2.328,-0.716,-0.064
136,0.0020185546875,-0.0014072265625,-0.0037236328125,-0.000505859375,0.0043740234375,-0.0048837890625,0.0018134765625,-0.001,-0.001,-0.001,-0.001,-0.001,-0.001,-0.001,0.05115540798987261,0.004608206194689743,0.0023606915383559295,0.050017516197646855,0.010580054376072304,0.0014137652215266737,0.008166830010082143,0.052,-44.376,-4.672,-13.856,2.328,-0.716,-0.064
137,0.0020185546875,-0.0014072265625,-0.0037236328125,-0.000505859375,0.0043740234375,-0.0048837890625,0.0018134765625,-0.001,-0.001,-0.001,-0.001,-0.001,-0.001,-0.001,0.051438573004729975,0.005285369443549101,0.0029765008683845123,0.04794476566145536,0.011068649732641503,0.0017504232468319213,0.008417683946368576,0.052,-44.376,-4.672,-13.856,2.328,-0.716,-0.064
138,0.0020185546875,-0.0014072265625,-0.0037236328125,-0.000505859375,0.0043740234375,-0.0048837890625,0.0018134765625,-0.001,-0.001,-0.001,-0.001,-0.001,-0.001,-0.001,0.053625926255508986,0.006599875157997012,0.0043266124317479105,0.05190129634948451,0.01254133037956047,0.003367676802445295,0.010165076947036084,0.052,-44.376,-4.672,-13.856,2.328,-0.716,-0.064
139,0.0020185546875,-0.0014072265625,-0.0037236328125,-0.000505859375,0.0043740234375,-0.0048837890625,0.0018134765625,-0.001,-0.001,-0.001,-0.001,-0.001,-0.001,-0.001,0.05484112056733536,0.007449676922391099,0.005114039026668947,0.051431039966319175,0.01317899015834785,0.003902286999255743,0.010567841358763125,0.052,-44.376,-4.672,-13.856,2.328,-0.716,-0.064
140,0.0020185546875,-0.0014072265625,-0.0037236328125,-0.000505859375,0.0043740234375,-0.0048837890625,0.0018134765625,-0.001,-0.001,-0.001,-0.001,-0.001,-0.001,-0.001,0.05597461500834199,0.008448440273108012,0.0061518558611305275,0.05321174622499217,0.014283793553854188,0.005043262615680198,0.011755659325536377,0.052,-44.376,-4.672,-13.856,2.328,-0.716,-0.064
141,0.0020185546875,-0.0014072265625,-0.0037236328125,-0.000505859375,0.0043740234375,-0.0048837890625,0.0018134765625,-0.001,-0.001,-0.001,-0.001,-0.001,-0.001,-0.001,0.05791236254204168,0.009611442044478643,0.007358175081388573,0.0556101023273268,0.015523118085185764,0.006290531628825512,0.012991531039736187,0.052,-44.376,-4.672,-13.856,2.328,-0.716,-0.064
142,0.0020185546875,-0.0014072265625,-0.0037236328125,-0.000505859375,0.0043740234375,-0.0048837890625,0.0018134765625,-0.001,-0.001,-0.001,-0.001,-0.001,-0.001,-0.001,0.05895189394878652,0.010615032879252502,0.008320246815814435,0.05659803206358219,0.016503017870701256,0.00733627435416848,0.014146414466075924,0.052,-44.376,-4.672,-13.856,2.328,-0.716,-0.064
143,0.0020185546875,-0.0014072265625,-0.0037236328125,-0.000505859375,0.0043740234375,-0.0048837890625,0.0018134765625,-0.001,-0.001,-0.001,-0.001,-0.001,-0.001,-0.001,0.060209807943172315,0.011456396882310734,0.009140500621030433,0.056676358654004694,0.01708687327006571,0.007715077407405267,0.014350666392322992,0.052,-44.376,-4.672,-13.856,2.328,-0.716,-0.064
144,0.0020185546875,-0.0014072265625,-0.0037236328125,-0.000505859375,0.0043740234375,-0.0048837890625,0.0018134765625,-0.001,-0.001,-0.001,-0.001,-0.001,-0.001,-0.001,0.061353431923347294,0.012850472444285528,0.010567165775924635,0.060526882173085134,0.018902775275860775,0.00976159110663508,0.016525284439896232,0.052,-44.376,-4.672,-13.856,2.328,-0.716,-0.064
145,0.0020185546875,-0.0014072265625,-0.0037236328125,-0.000505859375,0.0043740234375,-0.0048837890625,0.0018134765625,-0.001,-0.001,-0.001,-0.001,-0.001,-0.001,-0.001,0.06225739913517358,0.012925027272326502,0.010572714305773544,0.05732531358472584,0.018759766616998255,0.009601320892019791,0.01634724084086428,0.052,-44.376,-4.672,-13.856,2.328,-0.716,-0.064
146,0.0020185546875,-0.0014072265625,-0.0037236328125,-0.000505859375,0.0043740234375,-0.0048837890625,0.0018134765625,-0.001,-0.001,-0.001,-0.001,-0.001,-0.001,-0.001,0.0639550039598289,0.01449445230518512,0.012186604303440084,0.06088054316586969,0.020138742216259956,0.010755563016355139,0.01738052756977118,0.052,-44.376,-4.672,-13.856,2.328,-0.716,-0.064
147,0.0020185546875,-0.0014072265625,-0.0037236328125,-0.000505859375,0.0043740234375,-0.0048837890625,0.0018134765625,-0.001,-0.001,-0.001,-0.001,-0.001,-0.001,-0.001,0.06558402588976975,0.015635374357535512,0.013256928327234895,0.062208793222379405,0.02112539993877212,0.011778854216561305,0.018418201785813465,0.052,-44.376,-4.672,-13.856,2.328,-0.716,-0.064
148,0.0020185546875,-0.0014072265625,-0.0037236328125,-0.000505859375,0.0043740234375,-0.0048837890625,0.0018134765625,-0.001,-0.001,-0.001,-0.001,-0.001,-0.001,-0.001,0.0675302779153979,0.01696601603784734,0.014877224406864996,0.06690031525186949,0.023310129924832793,0.014111945033615767,0.020993484785682553,0.052,-44.376,-4.672,-13.856,2.328,-0.716,-0.064
149,0.0020185546875,-0.0014072265625,-0.0037236328125,-0.000505859375,0.0043740234375,-0.0048837890625,0.0018134765625,-0.001,-0.001,-0.001,-0.001,-0.001,-0.001,-0.001,0.07246446616441027,0.018549343850884612,0.016078371516800794,0.06741432085169666,0.024032231636188242,0.01480302756493954,0.021397261662886385,0.052,-44.376,-4.672,-13.856,2.328,-0.716,-0.064
150,0.0020185546875,-0.0014072265625,-0.0037236328125,-0.000505859375,0.0043740234375,-0.0048837890625,0.0018134765625,-0.001,-0.001,-0.001,-0.001,-0.001,-0.001,-0.001,0.06339033819942141,0.016872020478503367,0.01456468965066292,0.060551863354854546,0.02270114937693775,0.013492339330207968,0.020213173502591913,0.052,-44.376,-4.672,-13.856,2.328,-0.716,-0.064
151,0.0020185546875,-0.0014072265625,-0.0037236328125,-0.000505859375,0.0043740234375,-0.0048837890625,0.0018134765625,-0.001,-0.001,-0.001,-0.001,-0.001,-0.001,-0.001,0.06980718037565214,0.01914821191486008,0.016926284439698337,0.06714077844391844,0.025510361196618717,0.016532657328811793,0.023501964379327084,0.052,-44.376,-4.672,-13.856,2.328,-0.716,-0.064
152,0.0020185546875,-0.0014072265625,-0.0037236328125,-0.000505859375,0.0043740234375,-0.0048837890625,0.0018134765625,-0.001,-0.001,-0.001,-0.001,-0.001,-0.001,-0.001,0.07124997205426986,0.020446884178396716,0.01808797858608734,0.06784065767900319,0.025739193171807798,0.01618125402785806,0.022582321952137746,0.052,-44.376,-4.672,-13.856,2.328,-0.716,-0.064
153,0.0020185546875,-0.0014072265625,-0.0037236328125,-0.000505859375,0.0043740234375,-0.0048837890625,0.0018134765625,-0.001,-0.001,-0.001,-0.001,-0.001,-0.001,-0.001,0.07242593162171751,0.021470021261792014,0.01924282132603238,0.07063964076185594,0.027553738712764633,0.018437088155135426,0.025377946364258747,0.052,-44.376,-4.672,-13.856,2.328,-0.716,-0.064
154,0.0020185546875,-0.0014072265625,-0.0037236328125,-0.000505859375,0.0043740234375,-0.0048837890625,0.0018134765625,-0.001,-0.001,-0.001,-0.001,-0.001,-0.001,-0.001,0.07448113191891181,0.022839915085696192,0.020392016947453507,0.0710518359471122,0.02828948019381601,0.018915880953938233,0.02559166671309579,0.052,-44.376,-4.672,-13.856,2.328,-0.716,-0.064
155,0.0020185546875,-0.0014072265625,-0.0037236328125,-0.000505859375,0.0043740234375,-0.0048837890625,0.0018134765625,-0.001,-0.001,-0.001,-0.001,-0.001,-0.001,-0.001,0.07445187959600208,0.022861548940347007,0.02072551011713585,0.07141162224184064,0.029247129832478527,0.020213716438055782,0.026908515030465124,0.052,-44.376,-4.672,-13.856,2.328,-0.716,-0.064
156,0.0020185546875,-0.0014072265625,-0.0037236328125,-0.000505859375,0.0043740234375,-0.0048837890625,0.0018134765625,-0.001,-0.001,-0.001,-0.001,-0.001,-0.001,-0.001,0.07595192868368006,0.024557216628864596,0.02252555505533681,0.0751759060307258,0.03110789289995415,0.022099711618427362,0.028833378739862275,0.052,-44.376,-4.672,-13.856,2.328,-0.716,-0.064
157,0.0020185546875,-0.0014072265625,-0.0037236328125,-0.000505859375,0.0043740234375,-0.0048837890625,0.0018134765625,-0.001,-0.001,-0.001,-0.001,-0.001,-0.001,-0.001,0.09364381614995487,0.030765162963935198,0.028111118584291817,0.08692080055740184,0.03527809083251983,0.025503837261319637,0.031935947296454464,0.052,-44.376,-4.672,-13.856,2.328,-0.716,-0.064
158,0.0020185546875,-0.0014072265625,-0.0037236328125,-0.000505859375,0.0043740234375,-0.0048837890625,0.0018134765625,-0.001,-0.001,-0.001,-0.001,-0.001,-0.001,-0.001,0.06077742995273105,0.019874481451250845,0.01743982339059179,0.05727562554830093,0.025544370235990946,0.016299806266579096,0.02300445808896437,0.052,-44.376,-4.672,-13.856,2.328,-0.716,-0.064
159,0.0020185546875,-0.0014072265625,-0.0037236328125,-0.000505859375,0.0043740234375,-0.0048837890625,0.0018134765625,-0.001,-0.001,-0.001,-0.001,-0.001,-0.001,-0.001,0.07997718148680732,0.027584121986349772,0.025484190812435793,0.07839733378358463,0.03401651252294942,0.024968740510136398,0.031870681362479863,0.052,-44.376,-4.672,-13.856,2.328,-0.716,-0.064
160,0.0020185546875,-0.0014072265625,-0.0037236328125,-0.000505859375,0.0043740234375,-0.0048837890625,0.0018134765625,-0.001,-0.001,-0.001,-0.001,-0.001,-0.001,-0.001,0.0797439326031375,0.027833261402320262,0.025491619313395043,0.07633239710509712,0.03357361908807173,0.024307382139384635,0.030993875605989124,0.052,-44.376,-4.672,-13.856,2.328,-0.716,-0.064
161,0.0020185546875,-0.0014072265625,-0.0037236328125,-0.000505859375,0.0043740234375,-0.0048837890625,0.0018134765625,-0.001,-0.001,-0.001,-0.001,-0.001,-0.001,-0.001,0.08100525427334215,0.028808059992129906,0.026516701417715106,0.07814907788724937,0.03484894631195763,0.025615922319759597,0.03234289888875977,0.052,-44.376,-4.672,-13.856,2.328,-0.716,-0.064
162,0.0020185546875,-0.0014072265625,-0.0037236328125,-0.000505859375,0.0043740234375,-0.0048837890625,0.0018134765625,-0.001,-0.001,-0.001,-0.001,-0.001,-0.001,-0.001,0.08360643894916553,0.03111149780248804,0.028824359265283584,0.08163684121496131,0.03672104302599229,0.02744112691963105,0.034106283853633484,0.052,-44.376,-4.672,-13.856,2.328,-0.716,-0.064
163,0.0020185546875,-0.0014072265625,-0.0037236328125,-0.000505859375,0.0043740234375,-0.0048837890625,0.0018134765625,-0.001,-0.001,-0.001,-0.001,-0.001,-0.001,-0.001,0.08280642547693162,0.030416558378724177,0.028076988046156538,0.07900847299584693,0.036295191718153055,0.027054541091391136,0.03378579437474641,0.052,-44.376,-4.672,-13.856,2.328,-0.716,-0.064
164,0.0020185546875,-0.0014072265625,-0.0037236328125,-0.000505859375,0.0043740234375,-0.0048837890625,0.0018134765625,-0.001,-0.001,-0.001,-0.001,-0.001,-0.001,-0.001,0.08324638233910964,0.030962913087033948,0.028640990059347716,0.07866610014366773,0.03663191251358251,0.02739111768037381,0.03409908641906603,0.052,-44.376,-4.672,-13.856,2.328,-0.716,-0.064
165,0.0020185546875,-0.0014072265625,-0.0037236328125,-0.000505859375,0.0043740234375,-0.0048837890625,0.0018134765625,-0.001,-0.001,-0.001,-0.001,-0.001,-0.001,-0.001,0.0852538362403612,0.03275619548607159,0.030692010394764425,0.08281829663598031,0.03892928383129375,0.03094212535902161,0.038491644442268075,0.052,-44.376,-4.672,-13.856,2.328,-0.716,-0.064
166,0.0020185546875,-0.0014072265625,-0.0037236328125,-0.000505859375,0.0043740234375,-0.0048837890625,0.0018134765625,-0.001,-0.001,-0.001,-0.001,-0.001,-0.001,-0.001,0.0865108548111273,0.034344303310174046,0.032127376313003095,0.08474097593182164,0.040593458675949726,0.03176401658306303,0.037730158854325097,0.052,-44.376,-4.672,-13.856,2.328,-0.716,-0.064
167,0.0020185546875,-0.0014072265625,-0.0037236328125,-0.000505859375,0.0043740234375,-0.0048837890625,0.0018134765625,-0.001,-0.001,-0.001,-0.001,-0.001,-0.001,-0.001,0.08622758339286296,0.03366790096742436,0.031070882634995124,0.08100380781771224,0.03875560794176698,0.027848147815317168,0.034448304642632294,0.052,-44.376,-4.672,-13.856,2.328,-0.716,-0.064
168,0.0020185546875,-0.0014072265625,-0.0037236328125,-0.000505859375,0.0043740234375,-0.0048837890625,0.0018134765625,-0.001,-0.001,-0.001,-0.001,-0.001,-0.001,-0.001,0.08805315016614124,0.03531007122420585,0.03298968502367049,0.08439732739596864,0.041122237023701394,0.03187585620976761,0.0386194268888467,0.052,-44.376,-4.672,-13.856,2.328,-0.716,-0.064
169,0.0020185546875,-0.0014072265625,-0.0037236328125,-0.000505859375,0.0043740234375,-0.0048837890625,0.0018134765625,-0.001,-0.001,-0.001,-0.001,-0.001,-0.001,-0.001,0.10584596151974113,0.04401825735379708,0.04185308683254184,0.10357583246743432,0.05027584782444601,0.041173054145781963,0.048013762543763355,0.052,-44.376,-4.672,-13.856,2.328,-0.716,-0.064
170,0.0020185546875,-0.0014072265625,-0.0037236328125,-0.000505859375,0.0043740234375,-0.0048837890625,0.0018134765625,-0.001,-0.001,-0.001,-0.001,-0.001,-0.001,-0.001,0.07211813143330748,0.029066880944978366,0.026525976884900538,0.0668956788606532,0.0341583562417946,0.024675443954414098,0.031143630682898077,0.052,-44.376,-4.672,-13.856,2.328,-0.716,-0.064
171,0.0020185546875,-0.0014072265625,-0.0037236328125,-0.000505859375,0.0043740234375,-0.0048837890625,0.0018134765625,-0.001,-0.001,-0.001,-0.001,-0.001,-0.001,-0.001,0.0909723706286778,0.03829118508290888,0.03602645914735901,0.08783711545654785,0.044244394606976115,0.03503349400322906,0.04179844330654883,0.052,-44.376,-4.672,-13.856,2.328,-0.716,-0.064
172,0.0020185546875,-0.0014072265625,-0.0037236328125,-0.000505859375,0.0043740234375,-0.0048837890625,0.0018134765625,-0.001,-0.001,-0.001,-0.001,-0.001,-0.001,-0.001,0.09117779099742762,0.03927651152100145,0.03715147864225986,0.08948635718684408,0.045637223345811065,0.03653886075938948,0.043355074049300085,0.052,-44.376,-4.672,-13.856,2.328,-0.716,-0.064
173,0.0020185546875,-0.0014072265625,-0.0037236328125,-0.000505859375,0.0043740234375,-0.0048837890625,0.0018134765625,-0.001,-0.001,-0.001,-0.001,-0.001,-0.001,-0.001,0.10603422224043602,0.04610665103108749,0.043739164748873724,0.1021406427657108,0.051810446483729414,0.04251238514094189,0.049213534583679525,0.052,-44.376,-4.672,-13.856,2.328,-0.716,-0.064
174,0.0020185546875,-0.0014072265625,-0.0037236328125,-0.000505859375,0.0043740234375,-0.0048837890625,0.0018134765625,-0.001,-0.001,-0.001,-0.001,-0.001,-0.001,-0.001,0.11750057831314509,0.05207008205024069,0.04984359968389916,0.11343951756490436,0.057921106059531005,0.04871468651859987,0.055469915069627646,0.052,-44.376,-4.672,-13.856,2.328,-0.716,-0.064
175,0.0020185546875,-0.0014072265625,-0.0037236328125,-0.000505859375,0.0043740234375,-0.0048837890625,0.0018134765625,-0.001,-0.001,-0.001,-0.001,-0.001,-0.001,-0.001,0.05408327585190075,0.02282272586538595,0.02040785953972001,0.050186049011638395,0.02840424175201113,0.019037725858768815,0.025678157461564793,0.052,-44.376,-4.672,-13.856,2.328,-0.716,-0.064
176,0.0020185546875,-0.0014072265625,-0.0037236328125,-0.000505859375,0.0043740234375,-0.0048837890625,0.0018134765625,-0.001,-0.001,-0.001,-0.001,-0.001,-0.001,-0.001,0.09474217464080681,0.04272604240924929,0.040467686303252134,0.09177894390925226,0.04861055789776332,0.03943565290913951,0.04614669466386093,0.052,-44.376,-4.672,-13.856,2.328,-0.716,-0.064
177,0.0020185546875,-0.0014072265625,-0.0037236328125,-0.000505859375,0.0043740234375,-0.0048837890625,0.0018134765625,-0.001,-0.001,-0.001,-0.001,-0.001,-0.001,-0.001,0.09488896108102463,0.04332250530743556,0.04111071348586491,0.09215458267326596,0.0495234471828236,0.04000958453074264,0.04643143122747076,0.052,-44.376,-4.672,-13.856,2.328,-0.716,-0.064
178,0.0020185546875,-0.0014072265625,-0.0037236328125,-0.000505859375,0.0043740234375,-0.0048837890625,0.0018134765625,-0.001,-0.001,-0.001,-0.001,-0.001,-0.001,-0.001,0.09536936774315263,0.04376414337172621,0.041729192614777685,0.09271910714929768,0.050140191919689506,0.041330585464679916,0.04846289208189794,0.052,-44.376,-4.672,-13.856,2.328,-0.716,-0.064
179,0.0020185546875,-0.0014072265625,-0.0037236328125,-0.000505859375,0.0043740234375,-0.0048837890625,0.0018134765625,-0.001,-0.001,-0.001,-0.001,-0.001,-0.001,-0.001,0.1077248625114442,0.050728449305845996,0.0483315467470745,0.10449741473470822,0.05659687568809231,0.0474699912656231,0.05395934513694292,0.052,-44.376,-4.672,-13.856,2.328,-0.716,-0.064
180,0.0020185546875,-0.0014072265625,-0.0037236328125,-0.000505859375,0.0043740234375,-0.0048837890625,0.0018134765625,-0.001,-0.001,-0.001,-0.001,-0.001,-0.001,-0.001,0.08589325074900334,0.039952656791816726,0.037491836265739584,0.08149895744810645,0.045180531819621186,0.03576261673452417,0.04275548545476762,0.052,-44.376,-4.672,-13.856,2.328,-0.716,-0.064
181,0.0020185546875,-0.0014072265625,-0.0037236328125,-0.000505859375,0.0043740234375,-0.0048837890625,0.0018134765625,-0.001,-0.001,-0.001,-0.001,-0.001,-0.001,-0.001,0.09847863666346734,0.04713877497188948,0.04504559542559959,0.09596850179862229,0.05364042198642478,0.04468263163363526,0.05156173402310052,0.052,-44.376,-4.672,-13.856,2.328,-0.716,-0.064
182,0.0020185546875,-0.0014072265625,-0.0037236328125,-0.000505859375,0.0043740234375,-0.0048837890625,0.0018134765625,-0.001,-0.001,-0.001,-0.001,-0.001,-0.001,-0.001,0.103810714651694,0.05005067602741756,0.047926618146553066,0.10068246056047017,0.056157651408229994,0.04648749533876837,0.05297817323806345,0.052,-44.376,-4.672,-13.856,2.328,-0.716,-0.064
183,0.0020185546875,-0.0014072265625,-0.0037236328125,-0.000505859375,0.0043740234375,-0.0048837890625,0.0018134765625,-0.001,-0.001,-0.001,-0.001,-0.001,-0.001,-0.001,0.09231095979186632,0.04447616484986819,0.04159580284945373,0.08623990231263881,0.048731229950407864,0.03952007088224294,0.04608085379647878,0.052,-44.376,-4.672,-13.856,2.328,-0.716,-0.064
184,0.0020185546875,-0.0014072265625,-0.0037236328125,-0.000505859375,0.0043740234375,-0.0048837890625,0.0018134765625,-0.001,-0.001,-0.001,-0.001,-0.001,-0.001,-0.001,0.09931823523791339,0.048972732910196354,0.046481306781175666,0.09601606776200947,0.054943226120321056,0.045711463518211405,0.052599160273715945,0.052,-44.376,-4.672,-13.856,2.328,-0.716,-0.064
185,0.0020185546875,-0.0014072265625,-0.0037236328125,-0.000505859375,0.0043740234375,-0.0048837890625,0.0018134765625,-0.001,-0.001,-0.001,-0.001,-0.001,-0.001,-0.001,0.10115758538150432,0.05063074352254551,0.04902806550797943,0.09954709094990347,0.057026198074543635,0.047637844927697716,0.05404116527576444,0.052,-44.376,-4.672,-13.856,2.328,-0.716,-0.064
186,0.0020185546875,-0.0014072265625,-0.0037236328125,-0.000505859375,0.0043740234375,-0.0048837890625,0.0018134765625,-0.001,-0.001,-0.001,-0.001,-0.001,-0.001,-0.001,0.09949582237427368,0.049393248082101576,0.046417523611378284,0.09304073602966015,0.054049821002878765,0.04471858716339592,0.051342328487931105,0.052,-44.376,-4.672,-13.856,2.328,-0.716,-0.064
187,0.0020185546875,-0.0014072265625,-0.0037236328125,-0.000505859375,0.0043740234375,-0.0048837890625,0.0018134765625,-0.001,-0.001,-0.001,-0.001,-0.001,-0.001,-0.001,0.10016807905117098,0.05078763721787086,0.04911735820167272,0.09898086344892712,0.05848903513457389,0.04984127828302685,0.057152620632756196,0.052,-44.376,-4.672,-13.856,2.328,-0.716,-0.064
188,0.0020185546875,-0.0014072265625,-0.0037236328125,-0.000505859375,0.0043740234375,-0.0048837890625,0.0018134765625,-0.001,-0.001,-0.001,-0.001,-0.001,-0.001,-0.001,0.10358935322980845,0.05309545000020746,0.05035708547432548,0.09822003620783851,0.05759925957774366,0.04795502139840233,0.05426561853999615,0.052,-44.376,-4.672,-13.856,2.328,-0.716,-0.064
189,0.0020185546875,-0.0014072265625,-0.0037236328125,-0.000505859375,0.0043740234375,-0.0048837890625,0.0018134765625,-0.001,-0.001,-0.001,-0.001,-0.001,-0.001,-0.001,0.0999556219747948,0.0516300608830125,0.049025541661535596,0.09524030437579614,0.056607048186613176,0.047070833206529474,0.0535077694345967,0.052,-44.376,-4.672,-13.856,2.328,-0.716,-0.064
190,0.0020185546875,-0.0014072265625,-0.0037236328125,-0.000505859375,0.0043740234375,-0.0048837890625,0.0018134765625,-0.001,-0.001,-0.001,-0.001,-0.001,-0.001,-0.001,0.10262299868694758,0.05390611209076626,0.051758410773094274,0.09999710857999847,0.06008709452263945,0.050954412323277,0.05775335864312939,0.052,-44.376,-4.672,-13.856,2.328,-0.716,-0.064
191,0.0020185546875,-0.0014072265625,-0.0037236328125,-0.000505859375,0.0043740234375,-0.0048837890625,0.0018134765625,-0.001,-0.001,-0.001,-0.001,-0.001,-0.001,-0.001,0.10335348134938971,0.054817227717958855,0.05293667037866277,0.10161531966522055,0.061709021690057056,0.053507820463474,0.06092680191010927,0.052,-44.376,-4.672,-13.856,2.328,-0.716,-0.064
192,0.0020185546875,-0.0014072265625,-0.0037236328125,-0.000505859375,0.0043740234375,-0.0048837890625,0.0018134765625,-0.001,-0.001,-0.001,-0.001,-0.001,-0.001,-0.001,0.10179709907264822,0.05377076204082412,0.0512032305478015,0.09657612301181742,0.058991971602080986,0.04887166936351337,0.055035817475137555,0.052,-44.376,-4.672,-13.856,2.328,-0.716,-0.064
193,0.0020185546875,-0.0014072265625,-0.0037236328125,-0.000505859375,0.0043740234375,-0.0048837890625,0.0018134765625,-0.001,-0.001,-0.001,-0.001,-0.001,-0.001,-0.001,0.10420627247204073,0.05617674786185026,0.0536766327978314,0.10009466966698824,0.06165455946145722,0.05237789153920434,0.0590575039668613,0.052,-44.376,-4.672,-13.856,2.328,-0.716,-0.064
194,0.0020185546875,-0.0014072265625,-0.0037236328125,-0.000505859375,0.0043740234375,-0.0048837890625,0.0018134765625,-0.001,-0.001,-0.001,-0.001,-0.001,-0.001,-0.001,0.10446427600613029,0.05699406982202662,0.05497253074480578,0.10209323119360961,0.06328229508408763,0.054082550823053334,0.06084885665946252,0.052,-44.376,-4.672,-13.856,2.328,-0.716,-0.064
195,0.0020185546875,-0.0014072265625,-0.0037236328125,-0.000505859375,0.0043740234375,-0.0048837890625,0.0018134765625,-0.001,-0.001,-0.001,-0.001,-0.001,-0.001,-0.001,0.10316874704521384,0.05657779550304623,0.05431318916408677,0.10018259258203546,0.06310514019772002,0.05427667776575105,0.0609318852348997,0.052,-44.376,-4.672,-13.856,2.328,-0.716,-0.064
196,0.0020185546875,-0.0014072265625,-0.0037236328125,-0.000505859375,0.0043740234375,-0.0048837890625,0.0018134765625,-0.001,-0.001,-0.001,-0.001,-0.001,-0.001,-0.001,0.10423993405908072,0.05778206286532386,0.05553961001091255,0.10077510571854689,0.06322604609221356,0.05361497378961764,0.06042330505252472,0.052,-44.376,-4.672,-13.856,2.328,-0.716,-0.064
197,0.0020185546875,-0.0014072265625,-0.0037236328125,-0.000505859375,0.0043740234375,-0.0048837890625,0.0018134765625,-0.001,-0.001,-0.001,-0.001,-0.001,-0.001,-0.001,0.10428366761766727,0.05811348014750964,0.05594247849029098,0.10098226777066335,0.06435470117319282,0.05522182144499708,0.06205259744979766,0.052,-44.376,-4.672,-13.856,2.328,-0.716,-0.064
198,0.0020185546875,-0.0014072265625,-0.0037236328125,-0.000505859375,0.0043740234375,-0.0048837890625,0.0018134765625,-0.001,-0.001,-0.001,-0.001,-0.001,-0.001,-0.001,0.1050392684878334,0.06007342402439589,0.057442653979813504,0.101839680171151,0.06584110871281164,0.057461527037492056,0.06477459175731418,0.052,-44.376,-4.672,-13.856,2.328,-0.716,-0.064
199,0.0020185546875,-0.0014072265625,-0.0037236328125,-0.000505859375,0.0043740234375,-0.0048837890625,0.0018134765625,-0.001,-0.001,-0.001,-0.001,-0.001,-0.001,-0.001,0.10570406917554309,0.059739690444952115,0.05742253439163224,0.10129663090794486,0.0652363399974731,0.055433663182650174,0.06180461918308569,0.052,-44.376,-4.672,-13.856,2.328,-0.716,-0.064
200,0.0020185546875,-0.0014072265625,-0.0037236328125,-0.000505859375,0.0043740234375,-0.0048837890625,0.0018134765625,-0.001,-0.001,-0.001,-0.001,-0.001,-0.001,-0.001,0.10411901064148588,0.05887352262423365,0.056419376575061006,0.0986691466344736,0.06397647724816631,0.05428586658791288,0.06056898948730985,0.052,-44.376,-4.672,-13.856,2.328,-0.716,-0.064
201,0.0020185546875,-0.0014072265625,-0.0037236328125,-0.000505859375,0.0043740234375,-0.0048837890625,0.0018134765625,-0.001,-0.001,-0.001,-0.001,-0.001,-0.001,-0.001,0.10551208265978607,0.06151871117734212,0.059042206385626725,0.10187648217930237,0.06651317492130167,0.056921485871272305,0.06342684101651222,0.052,-44.376,-4.672,-13.856,2.328,-0.716,-0.064
202,0.0020185546875,-0.0014072265625,-0.0037236328125,-0.000505859375,0.0043740234375,-0.0048837890625,0.0018134765625,-0.001,-0.001,-0.001,-0.001,-0.001,-0.001,-0.001,0.10584049577960175,0.06191526713384457,0.060061352251901665,0.10423298964596775,0.06918173842805837,0.060133951454587754,0.06691689836265627,0.052,-44.376,-4.672,-13.856,2.328,-0.716,-0.064
203,0.0020185546875,-0.0014072265625,-0.0037236328125,-0.000505859375,0.0043740234375,-0.0048837890625,0.0018134765625,-0.001,-0.001,-0.001,-0.001,-0.001,-0.001,-0.001,0.10656206938321455,0.06324794374355383,0.061679681993482935,0.10568669230625996,0.07056380975638073,0.06173877450491203,0.06874655935613297,0.052,-44.376,-4.672,-13.856,2.328,-0.716,-0.064
204,0.0020185546875,-0.0014072265625,-0.0037236328125,-0.000505859375,0.0043740234375,-0.0048837890625,0.0018134765625,-0.001,-0.001,-0.001,-0.001,-0.001,-0.001,-0.001,0.10531137462786122,0.062151828588014074,0.0588188019008654,0.09758373305468773,0.06571152610769877,0.05612808652966204,0.06263577425348113,0.052,-44.376,-4.672,-13.856,2.328,-0.716,-0.064
205,0.0020185546875,-0.0014072265625,-0.0037236328125,-0.000505859375,0.0043740234375,-0.0048837890625,0.0018134765625,-0.001,-0.001,-0.001,-0.001,-0.001,-0.001,-0.001,0.10559014272633621,0.06309531197056797,0.06073597367782223,0.1013903871822279,0.06856355304043733,0.059092475071007323,0.06558427263426217,0.052,-44.376,-4.672,-13.856,2.328,-0.716,-0.064
206,0.0020185546875,-0.0014072265625,-0.0037236328125,-0.000505859375,0.0043740234375,-0.0048837890625,0.0018134765625,-0.001,-0.001,-0.001,-0.001,-0.001,-0.001,-0.001,0.10722220438488217,0.06638906765753097,0.06478633864223769,0.10806799301719514,0.07435700273713204,0.06583341494446346,0.07323698140636561,0.052,-44.376,-4.672,-13.856,2.328,-0.716,-0.064
207,0.0020185546875,-0.0014072265625,-0.0037236328125,-0.000505859375,0.0043740234375,-0.0048837890625,0.0018134765625,-0.001,-0.001,-0.001,-0.001,-0.001,-0.001,-0.001,0.10406778753937737,0.06257605036000571,0.06025262882285275,0.09894444780464534,0.06827102833598504,0.058487226245267566,0.06472482129864957,0.052,-44.376,-4.672,-13.856,2.328,-0.716,-0.064
208,0.0020185546875,-0.0014072265625,-0.0037236328125,-0.000505859375,0.0043740234375,-0.0048837890625,0.0018134765625,-0.001,-0.001,-0.001,-0.001,-0.001,-0.001,-0.001,0.10690153383787854,0.06621062717349949,0.06363943524857439,0.10303394546619106,0.07128084018821808,0.06215978227958117,0.06913509381842078,0.052,-44.376,-4.672,-13.856,2.328,-0.716,-0.064
209,0.0020185546875,-0.0014072265625,-0.0037236328125,-0.000505859375,0.0043740234375,-0.0048837890625,0.0018134765625,-0.001,-0.001,-0.001,-0.001,-0.001,-0.001,-0.001,0.10596912197162622,0.06649420749926874,0.06398747420592175,0.10266843577197506,0.07162659304854176,0.06229781681522548,0.06960821491741956,0.052,-44.376,-4.672,-13.856,2.328,-0.716,-0.064
210,0.0020185546875,-0.0014072265625,-0.0037236328125,-0.000505859375,0.0043740234375,-0.0048837890625,0.0018134765625,-0.001,-0.001,-0.001,-0.001,-0.001,-0.001,-0.001,0.10476165682431024,0.06451212221151328,0.06221773412179764,0.09954894890551005,0.0704203313473541,0.06117115157575823,0.06699774407374995,0.052,-44.376,-4.672,-13.856,2.328,-0.716,-0.064
211,0.0020185546875,-0.0014072265625,-0.0037236328125,-0.000505859375,0.0043740234375,-0.0048837890625,0.0018134765625,-0.001,-0.001,-0.001,-0.001,-0.001,-0.001,-0.001,0.10681961911633242,0.06882695048922008,0.0666363686317789,0.10542804054588767,0.07492470354436316,0.06564800459415585,0.07230669783557889,0.052,-44.376,-4.672,-13.856,2.328,-0.716,-0.064
212,0.0020185546875,-0.0014072265625,-0.0037236328125,-0.000505859375,0.0043740234375,-0.0048837890625,0.0018134765625,-0.001,-0.001,-0.001,-0.001,-0.001,-0.001,-0.001,0.13312849138005822,0.08438221548822059,0.08138484517442422,0.12539776830606453,0.08897798968886468,0.07980154554574012,0.08659821506236834,0.052,-44.376,-4.672,-13.856,2.328,-0.716,-0.064
213,0.0020185546875,-0.0014072265625,-0.0037236328125,-0.000505859375,0.0043740234375,-0.0048837890625,0.0018134765625,-0.001,-0.001,-0.001,-0.001,-0.001,-0.001,-0.001,0.07806797372209284,0.049916268074143205,0.04817558072422133,0.07682775276844919,0.05664035563206023,0.04737410308417476,0.05405625413630413,0.052,-44.376,-4.672,-13.856,2.328,-0.716,-0.064
214,0.0020185546875,-0.0014072265625,-0.0037236328125,-0.000505859375,0.0043740234375,-0.0048837890625,0.0018134765625,-0.001,-0.001,-0.001,-0.001,-0.001,-0.001,-0.001,0.10580452757379494,0.07365995704425846,0.0715994001562704,0.11024399040926655,0.08086301513511769,0.07244344514740117,0.07946047660379654,0.052,-44.376,-4.672,-13.856,2.328,-0.716,-0.064
215,0.0020185546875,-0.0014072265625,-0.0037236328125,-0.000505859375,0.0043740234375,-0.0048837890625,0.0018134765625,-0.001,-0.001,-0.001,-0.001,-0.001,-0.001,-0.001,0.10823547657940513,0.06627037655572002,0.06373582259396847,0.0971113341147595,0.0707812276667494,0.060715695786029956,0.06712528180669433,0.052,-44.376,-4.672,-13.856,2.328,-0.716,-0.064
216,0.0020185546875,-0.0014072265625,-0.0037236328125,-0.000505859375,0.0043740234375,-0.0048837890625,0.0018134765625,-0.001,-0.001,-0.001,-0.001,-0.001,-0.001,-0.001,0.11138278764418152,0.07358190364661057,0.07123189491964209,0.10750223589262978,0.07939506099897616,0.07153144083387294,0.07833791550432292,0.052,-44.376,-4.672,-13.856,2.328,-0.716,-0.064
217,0.0020185546875,-0.0014072265625,-0.0037236328125,-0.000505859375,0.0043740234375,-0.0048837890625,0.0018134765625,-0.001,-0.001,-0.001,-0.001,-0.001,-0.001,-0.001,0.09631627625689632,0.06542251606867636,0.06278311988990525,0.09372598253947909,0.06987753611210552,0.05878257275600005,0.06493262934847002,0.052,-44.376,-4.672,-13.856,2.328,-0.716,-0.064
218,0.0020185546875,-0.0014072265625,-0.0037236328125,-0.000505859375,0.0043740234375,-0.0048837890625,0.0018134765625,-0.001,-0.001,-0.001,-0.001,-0.001,-0.001,-0.001,0.11056981413727418,0.07350570886424082,0.07153481164752994,0.10686390394814008,0.08068425123954999,0.07191617844857998,0.07899458821011732,0.052,-44.376,-4.672,-13.856,2.328,-0.716,-0.064
219,0.0020185546875,-0.0014072265625,-0.0037236328125,-0.000505859375,0.0043740234375,-0.0048837890625,0.0018134765625,-0.001,-0.001,-0.001,-0.001,-0.001,-0.001,-0.001,0.09873460191020356,0.06702970042958104,0.06475700149966378,0.10073559279210967,0.07664782969844604,0.06748462170685096,0.07433655663449559,0.052,-44.376,-4.672,-13.856,2.328,-0.716,-0.064
220,0.0020185546875,-0.0014072265625,-0.0037236328125,-0.000505859375,0.0043740234375,-0.0048837890625,0.0018134765625,-0.001,-0.001,-0.001,-0.001,-0.001,-0.001,-0.001,0.10419320652791719,0.07144666019309456,0.06932130036673244,0.09601847721560389,0.07406745941883415,0.06511085615768161,0.07191698764886392,0.052,-44.376,-4.672,-13.856,2.328,-0.716,-0.064
221,0.0020185546875,-0.0014072265625,-0.0037236328125,-0.000505859375,0.0043740234375,-0.0048837890625,0.0018134765625,-0.001,-0.001,-0.001,-0.001,-0.001,-0.001,-0.001,0.10512898904301982,0.07422445175721151,0.07174839710961899,0.10358459197592132,0.07958353935135305,0.0704166101690171,0.07755121740381735,0.052,-44.376,-4.672,-13.856,2.328,-0.716,-0.064
222,0.0020185546875,-0.0014072265625,-0.0037236328125,-0.000505859375,0.0043740234375,-0.0048837890625,0.0018134765625,-0.001,-0.001,-0.001,-0.001,-0.001,-0.001,-0.001,0.10363205087128424,0.07102505932667905,0.06876018556193585,0.0985286773166372,0.076792254257614,0.06694343639865094,0.07288047978634007,0.052,-44.376,-4.672,-13.856,2.328,-0.716,-0.064
223,0.0020185546875,-0.0014072265625,-0.0037236328125,-0.000505859375,0.0043740234375,-0.0048837890625,0.0018134765625,-0.001,-0.001,-0.001,-0.001,-0.001,-0.001,-0.001,0.1037354446812262,0.07345966339424395,0.07164845105582184,0.10238042686977747,0.08073194566123006,0.07214553812793564,0.07955485324873782,0.052,-44.376,-4.672,-13.856,2.328,-0.716,-0.064
224,0.0020185546875,-0.0014072265625,-0.0037236328125,-0.000505859375,0.0043740234375,-0.0048837890625,0.0018134765625,-0.001,-0.001,-0.001,-0.001,-0.001,-0.001,-0.001,0.10758915675536151,0.07581828280869798,0.07283146234311931,0.10148422360532086,0.07969134792750028,0.07016464428820487,0.07636217824013827,0.052,-44.376,-4.672,-13.856,2.328,-0.716,-0.064
225,0.0020185546875,-0.0014072265625,-0.0037236328125,-0.000505859375,0.0043740234375,-0.0048837890625,0.0018134765625,-0.001,-0.001,-0.001,-0.001,-0.001,-0.001,-0.001,0.09793714280307642,0.07001810128045818,0.06764115473922737,0.09435596552262518,0.07553723842879707,0.06590444611578469,0.07244278434645504,0.052,-44.376,-4.672,-13.856,2.328,-0.716,-0.064
226,0.0020185546875,-0.0014072265625,-0.0037236328125,-0.000505859375,0.0043740234375,-0.0048837890625,0.0018134765625,-0.001,-0.001,-0.001,-0.001,-0.001,-0.001,-0.001,0.1026520213215858,0.0743021042853054,0.07170974586078903,0.0986556955435283,0.07920660398568531,0.06982465451065797,0.07625487565771663,0.052,-44.376,-4.672,-13.856,2.328,-0.716,-0.064
227,0.0020185546875,-0.0014072265625,-0.0037236328125,-0.000505859375,0.0043740234375,-0.0048837890625,0.0018134765625,-0.001,-0.001,-0.001,-0.001,-0.001,-0.001,-0.001,0.10159249913774437,0.07450039833512204,0.07275255042940919,0.10024781835039812,0.08195461914599163,0.0728690592538059,0.0804166506889539,0.052,-44.376,-4.672,-13.856,2.328,-0.716,-0.064
228,0.0020185546875,-0.0014072265625,-0.0037236328125,-0.000505859375,0.0043740234375,-0.0048837890625,0.0018134765625,-0.001,-0.001,-0.001,-0.001,-0.001,-0.001,-0.001,0.10161155959326984,0.07443704162055356,0.07155292395437583,0.09637465434905004,0.07858380767895641,0.06894313824989304,0.0747527414017353,0.052,-44.376,-4.672,-13.856,2.328,-0.716,-0.064
229,0.0020185546875,-0.0014072265625,-0.0037236328125,-0.000505859375,0.0043740234375,-0.0048837890625,0.0018134765625,-0.001,-0.001,-0.001,-0.001,-0.001,-0.001,-0.001,0.10158189186757016,0.07657364480615961,0.07546695356975928,0.10282498724442604,0.08600290503746973,0.07792602002977642,0.08561918627126056,0.052,-44.376,-4.672,-13.856,2.328,-0.716,-0.064
230,0.0020185546875,-0.0014072265625,-0.0037236328125,-0.000505859375,0.0043740234375,-0.0048837890625,0.0018134765625,-0.001,-0.001,-0.001,-0.001,-0.001,-0.001,-0.001,0.10016884956233518,0.0745733160869684,0.07156287324580123,0.09402837703055947,0.07750986850146209,0.06708419039836697,0.07279484775823877,0.052,-44.376,-4.672,-13.856,2.328,-0.716,-0.064
231,0.0020185546875,-0.0014072265625,-0.0037236328125,-0.000505859375,0.0043740234375,-0.0048837890625,0.0018134765625,-0.001,-0.001,-0.001,-0.001,-0.001,-0.001,-0.001,0.10036108141083133,0.07686925102409806,0.07483243447408193,0.09902283448001417,0.08388356071733379,0.07522863460623627,0.08253989804460418,0.052,-44.376,-4.672,-13.856,2.328,-0.716,-0.064
232,0.0020185546875,-0.0014072265625,-0.0037236328125,-0.000505859375,0.0043740234375,-0.0048837890625,0.0018134765625,-0.001,-0.001,-0.001,-0.001,-0.001,-0.001,-0.001,0.09952112222018039,0.0757728353847307,0.073283128919707,0.09554937436433744,0.08118296815281552,0.0717583872615297,0.07834642298607933,0.052,-44.376,-4.672,-13.856,2.328,-0.716,-0.064
233,0.0020185546875,-0.0014072265625,-0.0037236328125,-0.000505859375,0.0043740234375,-0.0048837890625,0.0018134765625,-0.001,-0.001,-0.001,-0.001,-0.001,-0.001,-0.001,0.09922622100762224,0.07653028663639219,0.0740631596168254,0.09563114531919895,0.08211758616025717,0.07295809858473909,0.07960474209853399,0.052,-44.376,-4.672,-13.856,2.328,-0.716,-0.064
234,0.0020185546875,-0.0014072265625,-0.0037236328125,-0.000505859375,0.0043740234375,-0.0048837890625,0.0018134765625,-0.001,-0.001,-0.001,-0.001,-0.001,-0.001,-0.001,0.09853915997938323,0.07711558235937213,0.07478928311884046,0.0957269185619474,0.08279429743131202,0.07344070315008253,0.08009609648144347,0.052,-44.376,-4.672,-13.856,2.328,-0.716,-0.064
235,0.0020185546875,-0.0014072265625,-0.0037236328125,-0.000505859375,0.0043740234375,-0.0048837890625,0.0018134765625,-0.001,-0.001,-0.001,-0.001,-0.001,-0.001,-0.001,0.09791339563292434,0.07660908267899538,0.07387102438632019,0.09318363886566375,0.08108754776839318,0.07140222012065386,0.07769432946601287,0.052,-44.376,-4.672,-13.856,2.328,-0.716,-0.064
236,0.0020185546875,-0.0014072265625,-0.0037236328125,-0.000505859375,0.0043740234375,-0.0048837890625,0.0018134765625,-0.001,-0.001,-0.001,-0.001,-0.001,-0.001,-0.001,0.1024211262778767,0.0815203064533894,0.07919961888653947,0.09920271195995992,0.08732050258599129,0.07806394802634761,0.08479635412221989,0.052,-44.376,-4.672,-13.856,2.328,-0.716,-0.064
237,0.0020185546875,-0.0014072265625,-0.0037236328125,-0.000505859375,0.0043740234375,-0.0048837890625,0.0018134765625,-0.001,-0.001,-0.001,-0.001,-0.001,-0.001,-0.001,0.09205276557615782,0.0748612628984662,0.07302260218059341,0.09165250831876873,0.08264154244351136,0.07388804539444324,0.0810159219340201,0.052,-44.376,-4.672,-13.856,2.328,-0.716,-0.064
238,0.0020185546875,-0.0014072265625,-0.0037236328125,-0.000505859375,0.0043740234375,-0.0048837890625,0.0018134765625,-0.001,-0.001,-0.001,-0.001,-0.001,-0.001,-0.001,0.09561487176572392,0.07755294636457769,0.07594329364806739,0.09457962450580706,0.08463060366015358,0.0791692700292301,0.08646731501163044,0.052,-44.376,-4.672,-13.856,2.328,-0.716,-0.064
239,0.0020185546875,-0.0014072265625,-0.0037236328125,-0.000505859375,0.0043740234375,-0.0048837890625,0.0018134765625,-0.001,-0.001,-0.001,-0.001,-0.001,-0.001,-0.001,0.09513745012916042,0.0774871310530201,0.07417167415224056,0.08868271427470423,0.08050038251514464,0.06719747346032975,0.07293639680338163,0.052,-44.376,-4.672,-13.856,2.328,-0.716,-0.064
240,0.0020185546875,-0.0014072265625,-0.0037236328125,-0.000505859375,0.0043740234375,-0.0048837890625,0.0018134765625,-0.001,-0.001,-0.001,-0.001,-0.001,-0.001,-0.001,0.09551296550910626,0.0797719227761913,0.07781014056744039,0.09407480261472848,0.08656344078319451,0.07755159070714643,0.08449814449093343,0.052,-44.376,-4.672,-13.856,2.328,-0.716,-0.064
241,0.0020185546875,-0.0014072265625,-0.0037236328125,-0.000505859375,0.0043740234375,-0.0048837890625,0.0018134765625,-0.001,-0.001,-0.001,-0.001,-0.001,-0.001,-0.001,0.09380106555516576,0.07860048584178128,0.07624783666576739,0.09102526699038818,0.08443355852833064,0.07592477929402028,0.08274035772780455,0.052,-44.376,-4.672,-13.856,2.328,-0.716,-0.064
242,0.0020185546875,-0.0014072265625,-0.0037236328125,-0.000505859375,0.0043740234375,-0.0048837890625,0.0018134765625,-0.001,-0.001,-0.001,-0.001,-0.001,-0.001,-0.001,0.09345659809555462,0.07961258771241989,0.07741321880386619,0.0914009843138808,0.08560677618115249,0.07569382086745821,0.08251368107132787,0.052,-44.376,-4.672,-13.856,2.328,-0.716,-0.064
243,0.0020185546875,-0.0014072265625,-0.0037236328125,-0.000505859375,0.0043740234375,-0.0048837890625,0.0018134765625,-0.001,-0.001,-0.001,-0.001,-0.001,-0.001,-0.001,0.09190310016217973,0.07798550901285542,0.07570556865778398,0.08850492077683295,0.08387590718291489,0.07467754273019153,0.08153244195638501,0.052,-44.376,-4.672,-13.856,2.328,-0.716,-0.064
244,0.0020185546875,-0.0014072265625,-0.0037236328125,-0.000505859375,0.0043740234375,-0.0048837890625,0.0018134765625,-0.001,-0.001,-0.001,-0.001,-0.001,-0.001,-0.001,0.09378948039716972,0.08190609502522953,0.0826127239907176,0.0956476692724553,0.09250002805601794,0.08360333488865265,0.09044183201978886,0.052,-44.376,-4.672,-13.856,2.328,-0.716,-0.064
245,0.0020185546875,-0.0014072265625,-0.0037236328125,-0.000505859375,0.0043740234375,-0.0048837890625,0.0018134765625,-0.001,-0.001,-0.001,-0.001,-0.001,-0.001,-0.001,0.09029244992474261,0.07977057224740139,0.07521615007227843,0.08548194967169656,0.08210707061491758,0.07224564227487115,0.07862147420708834,0.052,-44.376,-4.672,-13.856,2.328,-0.716,-0.064
246,0.0020185546875,-0.0014072265625,-0.0037236328125,-0.000505859375,0.0043740234375,-0.0048837890625,0.0018134765625,-0.001,-0.001,-0.001,-0.001,-0.001,-0.001,-0.001,0.09223099663995526,0.08114609294347466,0.07781862802955085,0.08783762144473875,0.08514036546534261,0.07588517317330432,0.08259505811488624,0.052,-44.376,-4.672,-13.856,2.328,-0.716,-0.064
247,0.0020185546875,-0.0014072265625,-0.0037236328125,-0.000505859375,0.0043740234375,-0.0048837890625,0.0018134765625,-0.001,-0.001,-0.001,-0.001,-0.001,-0.001,-0.001,0.08652800311799425,0.07645232999300025,0.07432680638545551,0.0840329467928154,0.08331946573322076,0.07431467664551536,0.08132356751833283,0.052,-44.376,-4.672,-13.856,2.328,-0.716,-0.064
248,0.0020185546875,-0.0014072265625,-0.0037236328125,-0.000505859375,0.0043740234375,-0.0048837890625,0.0018134765625,-0.001,-0.001,-0.001,-0.001,-0.001,-0.001,-0.001,0.08879125700568125,0.0812583695607976,0.07904982908906698,0.0868433491720895,0.08667934069468082,0.07748270369218255,0.08404493799126092,0.052,-44.376,-4.672,-13.856,2.328,-0.716,-0.064
249,0.0020185546875,-0.0014072265625,-0.0037236328125,-0.000505859375,0.0043740234375,-0.0048837890625,0.0018134765625,-0.001,-0.001,-0.001,-0.001,-0.001,-0.001,-0.001,0.08760805345024236,0.07961565779992211,0.07748909202282715,0.0848931279101093,0.08591184518771296,0.07668202027554002,0.08487751104257904,0.052,-44.376,-4.672,-13.856,2.328,-0.716,-0.064
250,0.0020185546875,-0.0014072265625,-0.0037236328125,-0.000505859375,0.0043740234375,-0.0048837890625,0.0018134765625,-0.001,-0.001,-0.001,-0.001,-0.001,-0.001,-0.001,0.08678081701883,0.080106450310695,0.07734370649013687,0.08316699500984107,0.08461098396847362,0.07510954653450905,0.07998558191821162,0.052,-44.376,-4.672,-13.856,2.328,-0.716,-0.064
251,0.0020185546875,-0.0014072265625,-0.0037236328125,-0.000505859375,0.0043740234375,-0.0048837890625,0.0018134765625,-0.001,-0.001,-0.001,-0.001,-0.001,-0.001,-0.001,0.09031713254741991,0.08470778889254152,0.08245789783589917,0.08777958818421364,0.09055951009103032,0.08135258702621281,0.08820817128965922,0.052,-44.376,-4.672,-13.856,2.328,-0.716,-0.064
252,0.0020185546875,-0.0014072265625,-0.0037236328125,-0.000505859375,0.0043740234375,-0.0048837890625,0.0018134765625,-0.001,-0.001,-0.001,-0.001,-0.001,-0.001,-0.001,0.1203461705890847,0.11577279711023328,0.11345103790336707,0.11802033392502412,0.1216866313762179,0.11242345428944997,0.11911342228766433,0.052,-44.376,-4.672,-13.856,2.328,-0.716,-0.064
253,0.0020185546875,-0.0014072265625,-0.0037236328125,-0.000505859375,0.0043740234375,-0.0048837890625,0.0018134765625,-0.001,-0.001,-0.001,-0.001,-0.001,-0.001,-0.001,0.055098464382184346,0.05120604942926757,0.048249578622055464,0.050699792210844336,0.05500824635250641,0.045076982349856666,0.051092944802583556,0.052,-44.376,-4.672,-13.856,2.328,-0.716,-0.064
254,0.0020185546875,-0.0014072265625,-0.0037236328125,-0.000505859375,0.0043740234375,-0.0048837890625,0.0018134765625,-0.001,-0.001,-0.001,-0.001,-0.001,-0.001,-0.001,0.0724802733679466,0.07092303159557792,0.06925869915272119,0.0722958208261835,0.07862323007925305,0.06999984575207471,0.07733156064404481,0.052,-44.376,-4.672,-13.856,2.328,-0.716,-0.064
255,0.0020185546875,-0.0014072265625,-0.0037236328125,-0.000505859375,0.0043740234375,-0.0048837890625,0.0018134765625,-0.001,-0.001,-0.001,-0.001,-0.001,-0.001,-0.001,0.08266311379519387,0.08141176470098968,0.07915352940721075,0.08052982044863646,0.08734388788523402,0.07811277448132045,0.08508223379605653,0.052,-44.376,-4.672,-13.856,2.328,-0.716,-0.064
256,0.0020185546875,-0.0014072265625,-0.0037236328125,-0.000505859375,0.0043740234375,-0.0048837890625,0.0018134765625,-0.001,-0.001,-0.001,-0.001,-0.001,-0.001,-0.001,0.08151027760700913,0.08242543485291873,0.08038917334353528,0.08055600922594144,0.0882923737696651,0.07891961425572666,0.08480244857341693,0.052,-44.376,-4.672,-13.856,2.328,-0.716,-0.064
257,0.0020185546875,-0.0014072265625,-0.0037236328125,-0.000505859375,0.0043740234375,-0.0048837890625,0.0018134765625,-0.001,-0.001,-0.001,-0.001,-0.001,-0.001,-0.001,0.10550595296307463,0.10667399731133434,0.10420154057361412,0.10223835955459662,0.1126158008952063,0.10345724968768619,0.11079037911970366,0.052,-44.376,-4.672,-13.856,2.328,-0.716,-0.064
258,0.0020185546875,-0.0014072265625,-0.0037236328125,-0.000505859375,0.0043740234375,-0.0048837890625,0.0018134765625,-0.001,-0.001,-0.001,-0.001,-0.001,-0.001,-0.001,0.054414238224147475,0.054296015536001024,0.0516023486486734,0.051178373276708405,0.059163767075776544,0.04981583864858167,0.05628333037740932,0.052,-44.376,-4.672,-13.856,2.328,-0.716,-0.064
259,0.0020185546875,-0.0014072265625,-0.0037236328125,-0.000505859375,0.0043740234375,-0.0048837890625,0.0018134765625,-0.001,-0.001,-0.001,-0.001,-0.001,-0.001,-0.001,0.07790799158271522,0.0814994971999995,0.07929170305540527,0.07662126352316448,0.08757115320715562,0.07835505859998626,0.08508418508278251,0.052,-44.376,-4.672,-13.856,2.328,-0.716,-0.064
260,0.0020185546875,-0.0014072265625,-0.0037236328125,-0.000505859375,0.0043740234375,-0.0048837890625,0.0018134765625,-0.001,-0.001,-0.001,-0.001,-0.001,-0.001,-0.001,0.07650683812581338,0.07990192671969126,0.07744403457271624,0.07369485426198177,0.08523705106396694,0.0757983778457007,0.08237184882130975,0.052,-44.376,-4.672,-13.856,2.328,-0.716,-0.064
261,0.0020185546875,-0.0014072265625,-0.0037236328125,-0.000505859375,0.0043740234375,-0.0048837890625,0.0018134765625,-0.001,-0.001,-0.001,-0.001,-0.001,-0.001,-0.001,0.07822774360769547,0.08623476486326528,0.08407586544766668,0.07899033962580673,0.09271684776678517,0.08364015249730869,0.09051262788382178,0.052,-44.376,-4.672,-13.856,2.328,-0.716,-0.064
262,0.0020185546875,-0.0014072265625,-0.0037236328125,-0.000505859375,0.0043740234375,-0.0048837890625,0.0018134765625,-0.001,-0.001,-0.001,-0.001,-0.001,-0.001,-0.001,0.07331410460553478,0.07659747494118457,0.07413136259345408,0.06863139429752166,0.08171112556730223,0.07228785835925311,0.0788177002007919,0.052,-44.376,-4.672,-13.856,2.328,-0.716,-0.064
263,0.0020185546875,-0.0014072265625,-0.0037236328125,-0.000505859375,0.0043740234375,-0.0048837890625,0.0018134765625,-0.001,-0.001,-0.001,-0.001,-0.001,-0.001,-0.001,0.07366761713372583,0.08064640401596923,0.07806408854462184,0.07107832150377827,0.08556697502889611,0.07604522848826285,0.08244708040793244,0.052,-44.376,-4.672,-13.856,2.328,-0.716,-0.064
264,0.0020185546875,-0.0014072265625,-0.0037236328125,-0.000505859375,0.0043740234375,-0.0048837890625,0.0018134765625,-0.001,-0.001,-0.001,-0.001,-0.001,-0.001,-0.001,0.07271235686861743,0.08119793504013753,0.07935324374054098,0.07183731520224426,0.08845532737899162,0.07964955170553302,0.08682639940452479,0.052,-44.376,-4.672,-13.856,2.328,-0.716,-0.064
265,0.0020185546875,-0.0014072265625,-0.0037236328125,-0.000505859375,0.0043740234375,-0.0048837890625,0.0018134765625,-0.001,-0.001,-0.001,-0.001,-0.001,-0.001,-0.001,0.07199115711095505,0.0811280329810222,0.07866347562116767,0.06962311428665127,0.08674204475419418,0.07768405725081709,0.08460866940618683,0.052,-44.376,-4.672,-13.856,2.328,-0.716,-0.064
266,0.0020185546875,-0.0014072265625,-0.0037236328125,-0.000505859375,0.0043740234375,-0.0048837890625,0.0018134765625,-0.001,-0.001,-0.001,-0.001,-0.001,-0.001,-0.001,0.07035855337428032,0.08033957895267954,0.07757640530335307,0.06742609192519125,0.08462716464506993,0.07523478395440567,0.08114916523610957,0.052,-44.376,-4.672,-13.856,2.328,-0.716,-0.064
267,0.0020185546875,-0.0014072265625,-0.0037236328125,-0.000505859375,0.0043740234375,-0.0048837890625,0.0018134765625,-0.001,-0.001,-0.001,-0.001,-0.001,-0.001,-0.001,0.06926553708630312,0.08104725072485666,0.07935644798191331,0.06874256363325862,0.08860509839770471,0.07936382087719804,0.08671020974036395,0.052,-44.376,-4.672,-13.856,2.328,-0.716,-0.064
268,0.0020185546875,-0.0014072265625,-0.0037236328125,-0.000505859375,0.0043740234375,-0.0048837890625,0.0018134765625,-0.001,-0.001,-0.001,-0.001,-0.001,-0.001,-0.001,0.06827188242850113,0.08107496513067583,0.07880628013714629,0.0667266934743003,0.08692683244873885,0.07765004791546234,0.08434010737637773,0.052,-44.376,-4.672,-13.856,2.328,-0.716,-0.064
269,0.0020185546875,-0.0014072265625,-0.0037236328125,-0.000505859375,0.0043740234375,-0.0048837890625,0.0018134765625,-0.001,-0.001,-0.001,-0.001,-0.001,-0.001,-0.001,0.06748321553553005,0.0815945841503544,0.07946468777019798,0.06625787597521796,0.08796287266061305,0.07897388649793466,0.08587334764261381,0.052,-44.376,-4.672,-13.856,2.328,-0.716,-0.064
270,0.0020185546875,-0.0014072265625,-0.0037236328125,-0.000505859375,0.0043740234375,-0.0048837890625,0.0018134765625,-0.001,-0.001,-0.001,-0.001,-0.001,-0.001,-0.001,0.06541703523357167,0.07895407070028729,0.07598017819029233,0.06171616829786156,0.08270235994382676,0.07286146882054842,0.07904814058416945,0.052,-44.376,-4.672,-13.856,2.328,-0.716,-0.064
271,0.0020185546875,-0.0014072265625,-0.0037236328125,-0.000505859375,0.0043740234375,-0.0048837890625,0.0018134765625,-0.001,-0.001,-0.001,-0.001,-0.001,-0.001,-0.001,0.0652388410982665,0.0818310510379249,0.07955433628714957,0.06413965596262375,0.08778822852308073,0.07843904881244776,0.08529895775227672,0.052,-44.376,-4.672,-13.856,2.328,-0.716,-0.064
272,0.0020185546875,-0.0014072265625,-0.0037236328125,-0.000505859375,0.0043740234375,-0.0048837890625,0.0018134765625,-0.001,-0.001,-0.001,-0.001,-0.001,-0.001,-0.001,0.06343527971751861,0.08103332625355944,0.07951541863704047,0.06345828380432209,0.08907738682655948,0.0800209689050024,0.08660898314750601,0.052,-44.376,-4.672,-13.856,2.328,-0.716,-0.064
273,0.0020185546875,-0.0014072265625,-0.0037236328125,-0.000505859375,0.0043740234375,-0.0048837890625,0.0018134765625,-0.001,-0.001,-0.001,-0.001,-0.001,-0.001,-0.001,0.06264257672266105,0.0815013318709599,0.07947608369244773,0.061958756963913536,0.0883102120849177,0.0798529179220164,0.08739746192277578,0.052,-44.376,-4.672,-13.856,2.328,-0.716,-0.064
274,0.0020185546875,-0.0014072265625,-0.0037236328125,-0.000505859375,0.0043740234375,-0.0048837890625,0.0018134765625,-0.001,-0.001,-0.001,-0.001,-0.001,-0.001,-0.001,0.08563253049319819,0.11399708152643842,0.1112050704635169,0.08316940655405072,0.11859852844277126,0.10915501312345086,0.11566073938781854,0.052,-44.376,-4.672,-13.856,2.328,-0.716,-0.064
275,0.0020185546875,-0.0014072265625,-0.0037236328125,-0.000505859375,0.0043740234375,-0.0048837890625,0.0018134765625,-0.001,-0.001,-0.001,-0.001,-0.001,-0.001,-0.001,0.04147775435948108,0.053630757767745535,0.050400091516064824,0.03761140906661889,0.05645956212716881,0.046108917512242865,0.051705652472994884,0.052,-44.376,-4.672,-13.856,2.328,-0.716,-0.064
276,0.0020185546875,-0.0014072265625,-0.0037236328125,-0.000505859375,0.0043740234375,-0.0048837890625,0.0018134765625,-0.001,-0.001,-0.001,-0.001,-0.001,-0.001,-0.001,0.051982829472554386,0.07150145659844934,0.06974353453246294,0.05174791637890322,0.07897554857019724,0.07040012422199268,0.07772939684229921,0.052,-44.376,-4.672,-13.856,2.328,-0.716,-0.064
