EmanuelSamir/lab201_ws_projsamir/sawyer_dev/data/sawyer/temp/test_quiescent_joint4.csv
,j1,j2,j3,j4,j5,j6,j7,jd1,jd2,jd3,jd4,jd5,jd6,jd7,e1,e2,e3,e4,e5,e6,e7
0,0.0,0.0,0.0,0.0,0.0,0.0,0.0,0.0,0.0,0.0,0.0,0.0,0.0,0.0,0.0,0.0,0.0,0.0,0.0,0.0,0.0
1,0.0,0.0,0.0,-0.000216796875,0.0,0.0,0.0,0.0,0.0,0.0,-0.26363275775128037,0.0,0.0,0.0,0.0,0.0,0.0,-13.812,0.0,0.0,0.0
2,0.0,0.0,0.0,-0.000216796875,0.0,0.0,0.0,0.0,0.0,0.0,-0.26363275775128037,0.0,0.0,0.0,0.0,0.0,0.0,-13.812,0.0,0.0,0.0
3,0.0,0.0,0.0,-0.000216796875,0.0,0.0,0.0,0.0,0.0,0.0,-0.26363275775128037,0.0,0.0,0.0,0.0,0.0,0.0,-13.996,0.0,0.0,0.0
4,0.0,0.0,0.0,-0.000216796875,0.0,0.0,0.0,0.0,0.0,0.0,-0.26363275775128037,0.0,0.0,0.0,0.0,0.0,0.0,-13.972,0.0,0.0,0.0
5,0.0,0.0,0.0,-0.0010830078125,0.0,0.0,0.0,0.0,0.0,0.0,-0.26363275775128037,0.0,0.0,0.0,0.0,0.0,0.0,-16.26,0.0,0.0,0.0
6,0.0,0.0,0.0,-0.004701171875,0.0,0.0,0.0,0.0,0.0,0.0,-0.26363275775128037,0.0,0.0,0.0,0.0,0.0,0.0,-18.156,0.0,0.0,0.0
7,0.0,0.0,0.0,-0.0086171875,0.0,0.0,0.0,0.0,0.0,0.0,-0.26363275775128037,0.0,0.0,0.0,0.0,0.0,0.0,-18.568,0.0,0.0,0.0
8,0.0,0.0,0.0,-0.012822265625,0.0,0.0,0.0,0.0,0.0,0.0,-0.26363275775128037,0.0,0.0,0.0,0.0,0.0,0.0,-19.576,0.0,0.0,0.0
9,0.0,0.0,0.0,-0.0178935546875,0.0,0.0,0.0,0.0,0.0,0.0,-0.26363275775128037,0.0,0.0,0.0,0.0,0.0,0.0,-18.316,0.0,0.0,0.0
10,0.0,0.0,0.0,-0.02208984375,0.0,0.0,0.0,0.0,0.0,0.0,-0.26363275775128037,0.0,0.0,0.0,0.0,0.0,0.0,-19.552,0.0,0.0,0.0
11,0.0,0.0,0.0,-0.0268720703125,0.0,0.0,0.0,0.0,0.0,0.0,-0.26363275775128037,0.0,0.0,0.0,0.0,0.0,0.0,-21.22,0.0,0.0,0.0
12,0.0,0.0,0.0,-0.0329541015625,0.0,0.0,0.0,0.0,0.0,0.0,-0.26363275775128037,0.0,0.0,0.0,0.0,0.0,0.0,-20.168,0.0,0.0,0.0
13,0.0,0.0,0.0,-0.0399111328125,0.0,0.0,0.0,0.0,0.0,0.0,-0.26363275775128037,0.0,0.0,0.0,0.0,0.0,0.0,-20.1,0.0,0.0,0.0
14,0.0,0.0,0.0,-0.0470029296875,0.0,0.0,0.0,0.0,0.0,0.0,-0.26363275775128037,0.0,0.0,0.0,0.0,0.0,0.0,-17.404,0.0,0.0,0.0
15,0.0,0.0,0.0,-0.05323828125,0.0,0.0,0.0,0.0,0.0,0.0,-0.26363275775128037,0.0,0.0,0.0,0.0,0.0,0.0,-17.356,0.0,0.0,0.0
16,0.0,0.0,0.0,-0.0597529296875,0.0,0.0,0.0,0.0,0.0,0.0,-0.26363275775128037,0.0,0.0,0.0,0.0,0.0,0.0,-17.012,0.0,0.0,0.0
17,0.0,0.0,0.0,-0.0661240234375,0.0,0.0,0.0,0.0,0.0,0.0,-0.26363275775128037,0.0,0.0,0.0,0.0,0.0,0.0,-18.132,0.0,0.0,0.0
18,0.0,0.0,0.0,-0.073802734375,0.0,0.0,0.0,0.0,0.0,0.0,-0.26363275775128037,0.0,0.0,0.0,0.0,0.0,0.0,-18.98,0.0,0.0,0.0
19,0.0,0.0,0.0,-0.0813369140625,0.0,0.0,0.0,0.0,0.0,0.0,-0.26363275775128037,0.0,0.0,0.0,0.0,0.0,0.0,-15.78,0.0,0.0,0.0
20,0.0,0.0,0.0,-0.088140625,0.0,0.0,0.0,0.0,0.0,0.0,-0.26363275775128037,0.0,0.0,0.0,0.0,0.0,0.0,-15.228,0.0,0.0,0.0
21,0.0,0.0,0.0,-0.0952421875,0.0,0.0,0.0,0.0,0.0,0.0,-0.26363275775128037,0.0,0.0,0.0,0.0,0.0,0.0,-13.604,0.0,0.0,0.0
22,0.0,0.0,0.0,-0.1013330078125,0.0,0.0,0.0,0.0,0.0,0.0,-0.26363275775128037,0.0,0.0,0.0,0.0,0.0,0.0,-15.136,0.0,0.0,0.0
23,0.0,0.0,0.0,-0.1085703125,0.0,0.0,0.0,0.0,0.0,0.0,-0.26363275775128037,0.0,0.0,0.0,0.0,0.0,0.0,-15.572,0.0,0.0,0.0
24,0.0,0.0,0.0,-0.115517578125,0.0,0.0,0.0,0.0,0.0,0.0,-0.26363275775128037,0.0,0.0,0.0,0.0,0.0,0.0,-13.516,0.0,0.0,0.0
25,0.0,0.0,0.0,-0.122474609375,0.0,0.0,0.0,0.0,0.0,0.0,-0.26363275775128037,0.0,0.0,0.0,0.0,0.0,0.0,-13.24,0.0,0.0,0.0
26,0.0,0.0,0.0,-0.129865234375,0.0,0.0,0.0,0.0,0.0,0.0,-0.26363275775128037,0.0,0.0,0.0,0.0,0.0,0.0,-11.892,0.0,0.0,0.0
27,0.0,0.0,0.0,-0.136091796875,0.0,0.0,0.0,0.0,0.0,0.0,-0.26363275775128037,0.0,0.0,0.0,0.0,0.0,0.0,-13.676,0.0,0.0,0.0
28,0.0,0.0,0.0,-0.142759765625,0.0,0.0,0.0,0.0,0.0,0.0,-0.26363275775128037,0.0,0.0,0.0,0.0,0.0,0.0,-14.156,0.0,0.0,0.0
29,0.0,0.0,0.0,-0.1492744140625,0.0,0.0,0.0,0.0,0.0,0.0,-0.26363275775128037,0.0,0.0,0.0,0.0,0.0,0.0,-13.4,0.0,0.0,0.0
30,0.0,0.0,0.0,-0.1557890625,0.0,0.0,0.0,0.0,0.0,0.0,-0.26363275775128037,0.0,0.0,0.0,0.0,0.0,0.0,-13.104,0.0,0.0,0.0
31,0.0,0.0,0.0,-0.16244921875,0.0,0.0,0.0,0.0,0.0,0.0,-0.26363275775128037,0.0,0.0,0.0,0.0,0.0,0.0,-12.096,0.0,0.0,0.0
32,0.0,0.0,0.0,-0.16897265625,0.0,0.0,0.0,0.0,0.0,0.0,-0.26363275775128037,0.0,0.0,0.0,0.0,0.0,0.0,-12.6,0.0,0.0,0.0
33,0.0,0.0,0.0,-0.17491015625,0.0,0.0,0.0,0.0,0.0,0.0,-0.26363275775128037,0.0,0.0,0.0,0.0,0.0,0.0,-12.372,0.0,0.0,0.0
34,0.0,0.0,0.0,-0.1809921875,0.0,0.0,0.0,0.0,0.0,0.0,-0.26363275775128037,0.0,0.0,0.0,0.0,0.0,0.0,-12.872,0.0,0.0,0.0
35,0.0,0.0,0.0,-0.1875068359375,0.0,0.0,0.0,0.0,0.0,0.0,-0.26363275775128037,0.0,0.0,0.0,0.0,0.0,0.0,-12.44,0.0,0.0,0.0
36,0.0,0.0,0.0,-0.19359765625,0.0,0.0,0.0,0.0,0.0,0.0,-0.26363275775128037,0.0,0.0,0.0,0.0,0.0,0.0,-12.552,0.0,0.0,0.0
37,0.0,0.0,0.0,-0.1999677734375,0.0,0.0,0.0,0.0,0.0,0.0,-0.26363275775128037,0.0,0.0,0.0,0.0,0.0,0.0,-13.264,0.0,0.0,0.0
38,0.0,0.0,0.0,-0.20547265625,0.0,0.0,0.0,0.0,0.0,0.0,-0.26363275775128037,0.0,0.0,0.0,0.0,0.0,0.0,-12.76,0.0,0.0,0.0
39,0.0,0.0,0.0,-0.2109677734375,0.0,0.0,0.0,0.0,0.0,0.0,-0.26363275775128037,0.0,0.0,0.0,0.0,0.0,0.0,-13.924,0.0,0.0,0.0
40,0.0,0.0,0.0,-0.216625,0.0,0.0,0.0,0.0,0.0,0.0,-0.26363275775128037,0.0,0.0,0.0,0.0,0.0,0.0,-13.856,0.0,0.0,0.0
41,0.0,0.0,0.0,-0.2219853515625,0.0,0.0,0.0,0.0,0.0,0.0,0.724646363007497,0.0,0.0,0.0,0.0,0.0,0.0,-13.676,0.0,0.0,0.0
42,0.0,0.0,0.0,-0.2277783203125,0.0,0.0,0.0,0.0,0.0,0.0,0.724646363007497,0.0,0.0,0.0,0.0,0.0,0.0,-14.316,0.0,0.0,0.0
43,0.0,0.0,0.0,-0.23341796875,0.0,0.0,0.0,0.0,0.0,0.0,0.724646363007497,0.0,0.0,0.0,0.0,0.0,0.0,-13.104,0.0,0.0,0.0
44,0.0,0.0,0.0,-0.2380654296875,0.0,0.0,0.0,0.0,0.0,0.0,0.724646363007497,0.0,0.0,0.0,0.0,0.0,0.0,-12.212,0.0,0.0,0.0
45,0.0,0.0,0.0,-0.2396533203125,0.0,0.0,0.0,0.0,0.0,0.0,0.724646363007497,0.0,0.0,0.0,0.0,0.0,0.0,-7.956,0.0,0.0,0.0
46,0.0,0.0,0.0,-0.238353515625,0.0,0.0,0.0,0.0,0.0,0.0,0.724646363007497,0.0,0.0,0.0,0.0,0.0,0.0,-7.524,0.0,0.0,0.0
47,0.0,0.0,0.0,-0.2368916015625,0.0,0.0,0.0,0.0,0.0,0.0,0.724646363007497,0.0,0.0,0.0,0.0,0.0,0.0,-6.972,0.0,0.0,0.0
48,0.0,0.0,0.0,-0.23312890625,0.0,0.0,0.0,0.0,0.0,0.0,0.724646363007497,0.0,0.0,0.0,0.0,0.0,0.0,-7.04,0.0,0.0,0.0
49,0.0,0.0,0.0,-0.2292216796875,0.0,0.0,0.0,0.0,0.0,0.0,0.724646363007497,0.0,0.0,0.0,0.0,0.0,0.0,-7.684,0.0,0.0,0.0
50,0.0,0.0,0.0,-0.2250263671875,0.0,0.0,0.0,0.0,0.0,0.0,0.724646363007497,0.0,0.0,0.0,0.0,0.0,0.0,-4.388,0.0,0.0,0.0
51,0.0,0.0,0.0,-0.2189443359375,0.0,0.0,0.0,0.0,0.0,0.0,0.724646363007497,0.0,0.0,0.0,0.0,0.0,0.0,-4.756,0.0,0.0,0.0
52,0.0,0.0,0.0,-0.2122763671875,0.0,0.0,0.0,0.0,0.0,0.0,0.724646363007497,0.0,0.0,0.0,0.0,0.0,0.0,-5.44,0.0,0.0,0.0
53,0.0,0.0,0.0,-0.203875,0.0,0.0,0.0,0.0,0.0,0.0,0.724646363007497,0.0,0.0,0.0,0.0,0.0,0.0,-5.44,0.0,0.0,0.0
54,0.0,0.0,0.0,-0.1954833984375,0.0,0.0,0.0,0.0,0.0,0.0,0.724646363007497,0.0,0.0,0.0,0.0,0.0,0.0,-7.636,0.0,0.0,0.0
55,0.0,0.0,0.0,-0.188373046875,0.0,0.0,0.0,0.0,0.0,0.0,0.724646363007497,0.0,0.0,0.0,0.0,0.0,0.0,-8.392,0.0,0.0,0.0
56,0.0,0.0,0.0,-0.1812802734375,0.0,0.0,0.0,0.0,0.0,0.0,0.724646363007497,0.0,0.0,0.0,0.0,0.0,0.0,-7.932,0.0,0.0,0.0
57,0.0,0.0,0.0,-0.1724462890625,0.0,0.0,0.0,0.0,0.0,0.0,0.724646363007497,0.0,0.0,0.0,0.0,0.0,0.0,-6.952,0.0,0.0,0.0
58,0.0,0.0,0.0,-0.163603515625,0.0,0.0,0.0,0.0,0.0,0.0,0.724646363007497,0.0,0.0,0.0,0.0,0.0,0.0,-9.26,0.0,0.0,0.0
59,0.0,0.0,0.0,-0.156078125,0.0,0.0,0.0,0.0,0.0,0.0,0.724646363007497,0.0,0.0,0.0,0.0,0.0,0.0,-11.912,0.0,0.0,0.0
60,0.0,0.0,0.0,-0.147677734375,0.0,0.0,0.0,0.0,0.0,0.0,0.724646363007497,0.0,0.0,0.0,0.0,0.0,0.0,-14.084,0.0,0.0,0.0
61,0.0,0.0,0.0,-0.13898828125,0.0,0.0,0.0,0.0,0.0,0.0,0.724646363007497,0.0,0.0,0.0,0.0,0.0,0.0,-13.652,0.0,0.0,0.0
62,0.0,0.0,0.0,-0.13188671875,0.0,0.0,0.0,0.0,0.0,0.0,0.724646363007497,0.0,0.0,0.0,0.0,0.0,0.0,-13.104,0.0,0.0,0.0
63,0.0,0.0,0.0,-0.1247939453125,0.0,0.0,0.0,0.0,0.0,0.0,0.724646363007497,0.0,0.0,0.0,0.0,0.0,0.0,-13.376,0.0,0.0,0.0
64,0.0,0.0,0.0,-0.116240234375,0.0,0.0,0.0,0.0,0.0,0.0,0.724646363007497,0.0,0.0,0.0,0.0,0.0,0.0,-15.412,0.0,0.0,0.0
65,0.0,0.0,0.0,-0.10813671875,0.0,0.0,0.0,0.0,0.0,0.0,0.724646363007497,0.0,0.0,0.0,0.0,0.0,0.0,-15.824,0.0,0.0,0.0
66,0.0,0.0,0.0,-0.1011884765625,0.0,0.0,0.0,0.0,0.0,0.0,0.724646363007497,0.0,0.0,0.0,0.0,0.0,0.0,-17.012,0.0,0.0,0.0
67,0.0,0.0,0.0,-0.09465625,0.0,0.0,0.0,0.0,0.0,0.0,0.724646363007497,0.0,0.0,0.0,0.0,0.0,0.0,-17.404,0.0,0.0,0.0
68,0.0,0.0,0.0,-0.0874189453125,0.0,0.0,0.0,0.0,0.0,0.0,0.724646363007497,0.0,0.0,0.0,0.0,0.0,0.0,-17.792,0.0,0.0,0.0
69,0.0,0.0,0.0,-0.0798935546875,0.0,0.0,0.0,0.0,0.0,0.0,0.724646363007497,0.0,0.0,0.0,0.0,0.0,0.0,-17.792,0.0,0.0,0.0
70,0.0,0.0,0.0,-0.072638671875,0.0,0.0,0.0,0.0,0.0,0.0,0.724646363007497,0.0,0.0,0.0,0.0,0.0,0.0,-18.296,0.0,0.0,0.0
71,0.0,0.0,0.0,-0.0662685546875,0.0,0.0,0.0,0.0,0.0,0.0,0.724646363007497,0.0,0.0,0.0,0.0,0.0,0.0,-19.116,0.0,0.0,0.0
72,0.0,0.0,0.0,-0.0593203125,0.0,0.0,0.0,0.0,0.0,0.0,0.724646363007497,0.0,0.0,0.0,0.0,0.0,0.0,-17.724,0.0,0.0,0.0
73,0.0,0.0,0.0,-0.0525166015625,0.0,0.0,0.0,0.0,0.0,0.0,0.724646363007497,0.0,0.0,0.0,0.0,0.0,0.0,-17.996,0.0,0.0,0.0
74,0.0,0.0,0.0,-0.04671484375,0.0,0.0,0.0,0.0,0.0,0.0,0.724646363007497,0.0,0.0,0.0,0.0,0.0,0.0,-16.672,0.0,0.0,0.0
75,0.0,0.0,0.0,-0.04034375,0.0,0.0,0.0,0.0,0.0,0.0,0.724646363007497,0.0,0.0,0.0,0.0,0.0,0.0,-18.296,0.0,0.0,0.0
76,0.0,0.0,0.0,-0.03455078125,0.0,0.0,0.0,0.0,0.0,0.0,0.724646363007497,0.0,0.0,0.0,0.0,0.0,0.0,-18.064,0.0,0.0,0.0
77,0.0,0.0,0.0,-0.0283154296875,0.0,0.0,0.0,0.0,0.0,0.0,0.724646363007497,0.0,0.0,0.0,0.0,0.0,0.0,-16.464,0.0,0.0,0.0
78,0.0,0.0,0.0,-0.0226669921875,0.0,0.0,0.0,0.0,0.0,0.0,0.724646363007497,0.0,0.0,0.0,0.0,0.0,0.0,-17.492,0.0,0.0,0.0
79,0.0,0.0,0.0,-0.017595703125,0.0,0.0,0.0,0.0,0.0,0.0,0.724646363007497,0.0,0.0,0.0,0.0,0.0,0.0,-16.372,0.0,0.0,0.0
80,0.0,0.0,0.0,-0.0119560546875,0.0,0.0,0.0,0.0,0.0,0.0,0.724646363007497,0.0,0.0,0.0,0.0,0.0,0.0,-17.104,0.0,0.0,0.0
81,0.0,0.0,0.0,-0.0070205078125,0.0,0.0,0.0,0.0,0.0,0.0,0.724646363007497,0.0,0.0,0.0,0.0,0.0,0.0,-15.48,0.0,0.0,0.0
82,0.0,0.0,0.0,-0.001515625,0.0,0.0,0.0,0.0,0.0,0.0,0.724646363007497,0.0,0.0,0.0,0.0,0.0,0.0,-13.332,0.0,0.0,0.0
83,0.0,0.0,0.0,0.0039873046875,0.0,0.0,0.0,0.0,0.0,0.0,0.724646363007497,0.0,0.0,0.0,0.0,0.0,0.0,-14.336,0.0,0.0,0.0
84,0.0,0.0,0.0,0.0083271484375,0.0,0.0,0.0,0.0,0.0,0.0,0.724646363007497,0.0,0.0,0.0,0.0,0.0,0.0,-13.788,0.0,0.0,0.0
85,0.0,0.0,0.0,0.0135517578125,0.0,0.0,0.0,0.0,0.0,0.0,0.724646363007497,0.0,0.0,0.0,0.0,0.0,0.0,-14.428,0.0,0.0,0.0
86,0.0,0.0,0.0,0.017748046875,0.0,0.0,0.0,0.0,0.0,0.0,0.724646363007497,0.0,0.0,0.0,0.0,0.0,0.0,-13.604,0.0,0.0,0.0
87,0.0,0.0,0.0,0.0223857421875,0.0,0.0,0.0,0.0,0.0,0.0,0.724646363007497,0.0,0.0,0.0,0.0,0.0,0.0,-12.052,0.0,0.0,0.0
88,0.0,0.0,0.0,0.028025390625,0.0,0.0,0.0,0.0,0.0,0.0,0.724646363007497,0.0,0.0,0.0,0.0,0.0,0.0,-13.216,0.0,0.0,0.0
89,0.0,0.0,0.0,0.0329521484375,0.0,0.0,0.0,0.0,0.0,0.0,0.724646363007497,0.0,0.0,0.0,0.0,0.0,0.0,-13.72,0.0,0.0,0.0
90,0.0,0.0,0.0,0.0381767578125,0.0,0.0,0.0,0.0,0.0,0.0,0.724646363007497,0.0,0.0,0.0,0.0,0.0,0.0,-14.176,0.0,0.0,0.0
91,0.0,0.0,0.0,0.0433837890625,0.0,0.0,0.0,0.0,0.0,0.0,0.724646363007497,0.0,0.0,0.0,0.0,0.0,0.0,-14.748,0.0,0.0,0.0
92,0.0,0.0,0.0,0.048021484375,0.0,0.0,0.0,0.0,0.0,0.0,0.724646363007497,0.0,0.0,0.0,0.0,0.0,0.0,-12.004,0.0,0.0,0.0
93,0.0,0.0,0.0,0.053669921875,0.0,0.0,0.0,0.0,0.0,0.0,0.724646363007497,0.0,0.0,0.0,0.0,0.0,0.0,-11.8,0.0,0.0,0.0
94,0.0,0.0,0.0,0.059328125,0.0,0.0,0.0,0.0,0.0,0.0,0.724646363007497,0.0,0.0,0.0,0.0,0.0,0.0,-12.232,0.0,0.0,0.0
95,0.0,0.0,0.0,0.0649677734375,0.0,0.0,0.0,0.0,0.0,0.0,0.724646363007497,0.0,0.0,0.0,0.0,0.0,0.0,-12.532,0.0,0.0,0.0
96,0.0,0.0,0.0,0.0704716796875,0.0,0.0,0.0,0.0,0.0,0.0,0.724646363007497,0.0,0.0,0.0,0.0,0.0,0.0,-13.192,0.0,0.0,0.0
97,0.0,0.0,0.0,0.0756962890625,0.0,0.0,0.0,0.0,0.0,0.0,0.724646363007497,0.0,0.0,0.0,0.0,0.0,0.0,-12.28,0.0,0.0,0.0
98,0.0,0.0,0.0,0.0814892578125,0.0,0.0,0.0,0.0,0.0,0.0,0.724646363007497,0.0,0.0,0.0,0.0,0.0,0.0,-11.868,0.0,0.0,0.0
99,0.0,0.0,0.0,0.0871376953125,0.0,0.0,0.0,0.0,0.0,0.0,0.724646363007497,0.0,0.0,0.0,0.0,0.0,0.0,-12.372,0.0,0.0,0.0
100,0.0,0.0,0.0,0.0933642578125,0.0,0.0,0.0,0.0,0.0,0.0,0.724646363007497,0.0,0.0,0.0,0.0,0.0,0.0,-13.124,0.0,0.0,0.0
101,0.0,0.0,0.0,0.099455078125,0.0,0.0,0.0,0.0,0.0,0.0,0.724646363007497,0.0,0.0,0.0,0.0,0.0,0.0,-14.476,0.0,0.0,0.0
102,0.0,0.0,0.0,0.1052392578125,0.0,0.0,0.0,0.0,0.0,0.0,0.724646363007497,0.0,0.0,0.0,0.0,0.0,0.0,-14.292,0.0,0.0,0.0
103,0.0,0.0,0.0,0.111609375,0.0,0.0,0.0,0.0,0.0,0.0,0.724646363007497,0.0,0.0,0.0,0.0,0.0,0.0,-13.012,0.0,0.0,0.0
104,0.0,0.0,0.0,0.1175556640625,0.0,0.0,0.0,0.0,0.0,0.0,0.724646363007497,0.0,0.0,0.0,0.0,0.0,0.0,-12.988,0.0,0.0,0.0
105,0.0,0.0,0.0,0.1237822265625,0.0,0.0,0.0,0.0,0.0,0.0,0.724646363007497,0.0,0.0,0.0,0.0,0.0,0.0,-12.944,0.0,0.0,0.0
106,0.0,0.0,0.0,0.13044140625,0.0,0.0,0.0,0.0,0.0,0.0,0.724646363007497,0.0,0.0,0.0,0.0,0.0,0.0,-13.88,0.0,0.0,0.0
107,0.0,0.0,0.0,0.1363876953125,0.0,0.0,0.0,0.0,0.0,0.0,0.724646363007497,0.0,0.0,0.0,0.0,0.0,0.0,-13.904,0.0,0.0,0.0
108,0.0,0.0,0.0,0.1426142578125,0.0,0.0,0.0,0.0,0.0,0.0,0.724646363007497,0.0,0.0,0.0,0.0,0.0,0.0,-13.24,0.0,0.0,0.0
109,0.0,0.0,0.0,0.1485517578125,0.0,0.0,0.0,0.0,0.0,0.0,0.724646363007497,0.0,0.0,0.0,0.0,0.0,0.0,-13.628,0.0,0.0,0.0
110,0.0,0.0,0.0,0.1544892578125,0.0,0.0,0.0,0.0,0.0,0.0,0.724646363007497,0.0,0.0,0.0,0.0,0.0,0.0,-13.904,0.0,0.0,0.0
111,0.0,0.0,0.0,0.1610126953125,0.0,0.0,0.0,0.0,0.0,0.0,0.724646363007497,0.0,0.0,0.0,0.0,0.0,0.0,-14.816,0.0,0.0,0.0
112,0.0,0.0,0.0,0.1672392578125,0.0,0.0,0.0,0.0,0.0,0.0,0.724646363007497,0.0,0.0,0.0,0.0,0.0,0.0,-15.46,0.0,0.0,0.0
113,0.0,0.0,0.0,0.17346484375,0.0,0.0,0.0,0.0,0.0,0.0,0.724646363007497,0.0,0.0,0.0,0.0,0.0,0.0,-14.316,0.0,0.0,0.0
114,0.0,0.0,0.0,0.1795556640625,0.0,0.0,0.0,0.0,0.0,0.0,0.724646363007497,0.0,0.0,0.0,0.0,0.0,0.0,-14.04,0.0,0.0,0.0
115,0.0,0.0,0.0,0.1854931640625,0.0,0.0,0.0,0.0,0.0,0.0,0.724646363007497,0.0,0.0,0.0,0.0,0.0,0.0,-13.788,0.0,0.0,0.0
116,0.0,0.0,0.0,0.1915751953125,0.0,0.0,0.0,0.0,0.0,0.0,0.724646363007497,0.0,0.0,0.0,0.0,0.0,0.0,-13.88,0.0,0.0,0.0
117,0.0,0.0,0.0,0.197666015625,0.0,0.0,0.0,0.0,0.0,0.0,0.724646363007497,0.0,0.0,0.0,0.0,0.0,0.0,-14.176,0.0,0.0,0.0
118,0.0,0.0,0.0,0.203603515625,0.0,0.0,0.0,0.0,0.0,0.0,0.724646363007497,0.0,0.0,0.0,0.0,0.0,0.0,-13.856,0.0,0.0,0.0
119,0.0,0.0,0.0,0.209396484375,0.0,0.0,0.0,0.0,0.0,0.0,0.724646363007497,0.0,0.0,0.0,0.0,0.0,0.0,-14.156,0.0,0.0,0.0
120,0.0,0.0,0.0,0.2151982421875,0.0,0.0,0.0,0.0,0.0,0.0,0.724646363007497,0.0,0.0,0.0,0.0,0.0,0.0,-14.224,0.0,0.0,0.0
121,0.0,0.0,0.0,0.2209912109375,0.0,0.0,0.0,0.0,0.0,0.0,0.724646363007497,0.0,0.0,0.0,0.0,0.0,0.0,-14.452,0.0,0.0,0.0
122,0.0,0.0,0.0,0.226919921875,0.0,0.0,0.0,0.0,0.0,0.0,0.724646363007497,0.0,0.0,0.0,0.0,0.0,0.0,-15.024,0.0,0.0,0.0
123,0.0,0.0,0.0,0.232857421875,0.0,0.0,0.0,0.0,0.0,0.0,0.724646363007497,0.0,0.0,0.0,0.0,0.0,0.0,-14.336,0.0,0.0,0.0
124,0.0,0.0,0.0,0.2389482421875,0.0,0.0,0.0,0.0,0.0,0.0,0.724646363007497,0.0,0.0,0.0,0.0,0.0,0.0,-13.696,0.0,0.0,0.0
125,0.0,0.0,0.0,0.2444521484375,0.0,0.0,0.0,0.0,0.0,0.0,0.724646363007497,0.0,0.0,0.0,0.0,0.0,0.0,-13.444,0.0,0.0,0.0
126,0.0,0.0,0.0,0.2557587890625,0.0,0.0,0.0,0.0,0.0,0.0,0.724646363007497,0.0,0.0,0.0,0.0,0.0,0.0,-12.988,0.0,0.0,0.0
127,0.0,0.0,0.0,0.2557587890625,0.0,0.0,0.0,0.0,0.0,0.0,0.724646363007497,0.0,0.0,0.0,0.0,0.0,0.0,-12.988,0.0,0.0,0.0
128,0.0,0.0,0.0,0.2615517578125,0.0,0.0,0.0,0.0,0.0,0.0,0.724646363007497,0.0,0.0,0.0,0.0,0.0,0.0,-12.852,0.0,0.0,0.0
129,0.0,0.0,0.0,0.2672001953125,0.0,0.0,0.0,0.0,0.0,0.0,0.724646363007497,0.0,0.0,0.0,0.0,0.0,0.0,-12.828,0.0,0.0,0.0
130,0.0,0.0,0.0,0.27283984375,0.0,0.0,0.0,0.0,0.0,0.0,0.724646363007497,0.0,0.0,0.0,0.0,0.0,0.0,-13.216,0.0,0.0,0.0
131,0.0,0.0,0.0,0.278498046875,0.0,0.0,0.0,0.0,0.0,0.0,0.724646363007497,0.0,0.0,0.0,0.0,0.0,0.0,-13.536,0.0,0.0,0.0
132,0.0,0.0,0.0,0.284146484375,0.0,0.0,0.0,0.0,0.0,0.0,0.724646363007497,0.0,0.0,0.0,0.0,0.0,0.0,-13.812,0.0,0.0,0.0
133,0.0,0.0,0.0,0.290083984375,0.0,0.0,0.0,0.0,0.0,0.0,0.724646363007497,0.0,0.0,0.0,0.0,0.0,0.0,-14.292,0.0,0.0,0.0
134,0.0,0.0,0.0,0.2960302734375,0.0,0.0,0.0,0.0,0.0,0.0,0.724646363007497,0.0,0.0,0.0,0.0,0.0,0.0,-13.468,0.0,0.0,0.0
135,0.0,0.0,0.0,0.3019677734375,0.0,0.0,0.0,0.0,0.0,0.0,0.724646363007497,0.0,0.0,0.0,0.0,0.0,0.0,-13.216,0.0,0.0,0.0
136,0.0,0.0,0.0,0.3077607421875,0.0,0.0,0.0,0.0,0.0,0.0,0.724646363007497,0.0,0.0,0.0,0.0,0.0,0.0,-12.872,0.0,0.0,0.0
137,0.0,0.0,0.0,0.3135537109375,0.0,0.0,0.0,0.0,0.0,0.0,0.724646363007497,0.0,0.0,0.0,0.0,0.0,0.0,-12.804,0.0,0.0,0.0
138,0.0,0.0,0.0,0.3193466796875,0.0,0.0,0.0,0.0,0.0,0.0,0.724646363007497,0.0,0.0,0.0,0.0,0.0,0.0,-12.852,0.0,0.0,0.0
139,0.0,0.0,0.0,0.3251396484375,0.0,0.0,0.0,0.0,0.0,0.0,0.724646363007497,0.0,0.0,0.0,0.0,0.0,0.0,-12.692,0.0,0.0,0.0
140,0.0,0.0,0.0,0.3310771484375,0.0,0.0,0.0,0.0,0.0,0.0,0.724646363007497,0.0,0.0,0.0,0.0,0.0,0.0,-12.644,0.0,0.0,0.0
141,0.0,0.0,0.0,0.33687890625,0.0,0.0,0.0,0.0,0.0,0.0,0.724646363007497,0.0,0.0,0.0,0.0,0.0,0.0,-13.192,0.0,0.0,0.0
142,0.0,0.0,0.0,0.342671875,0.0,0.0,0.0,0.0,0.0,0.0,0.724646363007497,0.0,0.0,0.0,0.0,0.0,0.0,-13.856,0.0,0.0,0.0
143,0.0,0.0,0.0,0.348609375,0.0,0.0,0.0,0.0,0.0,0.0,0.724646363007497,0.0,0.0,0.0,0.0,0.0,0.0,-13.924,0.0,0.0,0.0
144,0.0,0.0,0.0,0.3545556640625,0.0,0.0,0.0,0.0,0.0,0.0,0.724646363007497,0.0,0.0,0.0,0.0,0.0,0.0,-13.904,0.0,0.0,0.0
145,0.0,0.0,0.0,0.36062890625,0.0,0.0,0.0,0.0,0.0,0.0,0.724646363007497,0.0,0.0,0.0,0.0,0.0,0.0,-12.988,0.0,0.0,0.0
146,0.0,0.0,0.0,0.3667109375,0.0,0.0,0.0,0.0,0.0,0.0,0.724646363007497,0.0,0.0,0.0,0.0,0.0,0.0,-12.76,0.0,0.0,0.0
147,0.0,0.0,0.0,0.3726572265625,0.0,0.0,0.0,0.0,0.0,0.0,0.724646363007497,0.0,0.0,0.0,0.0,0.0,0.0,-12.964,0.0,0.0,0.0
148,0.0,0.0,0.0,0.3784501953125,0.0,0.0,0.0,0.0,0.0,0.0,0.724646363007497,0.0,0.0,0.0,0.0,0.0,0.0,-12.624,0.0,0.0,0.0
149,0.0,0.0,0.0,0.3843876953125,0.0,0.0,0.0,0.0,0.0,0.0,0.724646363007497,0.0,0.0,0.0,0.0,0.0,0.0,-12.784,0.0,0.0,0.0
150,0.0,0.0,0.0,0.390189453125,0.0,0.0,0.0,0.0,0.0,0.0,0.724646363007497,0.0,0.0,0.0,0.0,0.0,0.0,-12.44,0.0,0.0,0.0
151,0.0,0.0,0.0,0.401919921875,0.0,0.0,0.0,0.0,0.0,0.0,0.724646363007497,0.0,0.0,0.0,0.0,0.0,0.0,-13.056,0.0,0.0,0.0
152,0.0,0.0,0.0,0.401919921875,0.0,0.0,0.0,0.0,0.0,0.0,0.724646363007497,0.0,0.0,0.0,0.0,0.0,0.0,-13.056,0.0,0.0,0.0
153,0.0,0.0,0.0,0.4078486328125,0.0,0.0,0.0,0.0,0.0,0.0,0.724646363007497,0.0,0.0,0.0,0.0,0.0,0.0,-13.628,0.0,0.0,0.0
154,0.0,0.0,0.0,0.413794921875,0.0,0.0,0.0,0.0,0.0,0.0,0.724646363007497,0.0,0.0,0.0,0.0,0.0,0.0,-13.856,0.0,0.0,0.0
155,0.0,0.0,0.0,0.419732421875,0.0,0.0,0.0,0.0,0.0,0.0,0.724646363007497,0.0,0.0,0.0,0.0,0.0,0.0,-13.192,0.0,0.0,0.0
156,0.0,0.0,0.0,0.425814453125,0.0,0.0,0.0,0.0,0.0,0.0,0.724646363007497,0.0,0.0,0.0,0.0,0.0,0.0,-12.552,0.0,0.0,0.0
157,0.0,0.0,0.0,0.4316162109375,0.0,0.0,0.0,0.0,0.0,0.0,0.724646363007497,0.0,0.0,0.0,0.0,0.0,0.0,-12.44,0.0,0.0,0.0
158,0.0,0.0,0.0,0.4375537109375,0.0,0.0,0.0,0.0,0.0,0.0,0.724646363007497,0.0,0.0,0.0,0.0,0.0,0.0,-12.508,0.0,0.0,0.0
159,0.0,0.0,0.0,0.443337890625,0.0,0.0,0.0,0.0,0.0,0.0,0.724646363007497,0.0,0.0,0.0,0.0,0.0,0.0,-12.348,0.0,0.0,0.0
160,0.0,0.0,0.0,0.449130859375,0.0,0.0,0.0,0.0,0.0,0.0,0.724646363007497,0.0,0.0,0.0,0.0,0.0,0.0,-12.212,0.0,0.0,0.0
161,0.0,0.0,0.0,0.454923828125,0.0,0.0,0.0,0.0,0.0,0.0,0.724646363007497,0.0,0.0,0.0,0.0,0.0,0.0,-12.188,0.0,0.0,0.0
162,0.0,0.0,0.0,0.460861328125,0.0,0.0,0.0,0.0,0.0,0.0,0.724646363007497,0.0,0.0,0.0,0.0,0.0,0.0,-12.304,0.0,0.0,0.0
163,0.0,0.0,0.0,0.4666630859375,0.0,0.0,0.0,0.0,0.0,0.0,0.724646363007497,0.0,0.0,0.0,0.0,0.0,0.0,-13.012,0.0,0.0,0.0
164,0.0,0.0,0.0,0.472447265625,0.0,0.0,0.0,0.0,0.0,0.0,0.724646363007497,0.0,0.0,0.0,0.0,0.0,0.0,-13.308,0.0,0.0,0.0
165,0.0,0.0,0.0,0.478384765625,0.0,0.0,0.0,0.0,0.0,0.0,0.724646363007497,0.0,0.0,0.0,0.0,0.0,0.0,-13.356,0.0,0.0,0.0
166,0.0,0.0,0.0,0.4844658203125,0.0,0.0,0.0,0.0,0.0,0.0,0.724646363007497,0.0,0.0,0.0,0.0,0.0,0.0,-12.372,0.0,0.0,0.0
167,0.0,0.0,0.0,0.4902685546875,0.0,0.0,0.0,0.0,0.0,0.0,0.724646363007497,0.0,0.0,0.0,0.0,0.0,0.0,-11.912,0.0,0.0,0.0
168,0.0,0.0,0.0,0.4962060546875,0.0,0.0,0.0,0.0,0.0,0.0,0.724646363007497,0.0,0.0,0.0,0.0,0.0,0.0,-11.936,0.0,0.0,0.0
169,0.0,0.0,0.0,0.5019892578125,0.0,0.0,0.0,0.0,0.0,0.0,0.724646363007497,0.0,0.0,0.0,0.0,0.0,0.0,-11.868,0.0,0.0,0.0
170,0.0,0.0,0.0,0.5077919921875,0.0,0.0,0.0,0.0,0.0,0.0,0.724646363007497,0.0,0.0,0.0,0.0,0.0,0.0,-12.028,0.0,0.0,0.0
171,0.0,0.0,0.0,0.5195224609375,0.0,0.0,0.0,0.0,0.0,0.0,0.724646363007497,0.0,0.0,0.0,0.0,0.0,0.0,-11.936,0.0,0.0,0.0
172,0.0,0.0,0.0,0.5195224609375,0.0,0.0,0.0,0.0,0.0,0.0,0.724646363007497,0.0,0.0,0.0,0.0,0.0,0.0,-11.936,0.0,0.0,0.0
173,0.0,0.0,0.0,0.5312529296875,0.0,0.0,0.0,0.0,0.0,0.0,0.724646363007497,0.0,0.0,0.0,0.0,0.0,0.0,-12.76,0.0,0.0,0.0
174,0.0,0.0,0.0,0.5312529296875,0.0,0.0,0.0,0.0,0.0,0.0,0.724646363007497,0.0,0.0,0.0,0.0,0.0,0.0,-12.76,0.0,0.0,0.0
175,0.0,0.0,0.0,0.5371904296875,0.0,0.0,0.0,0.0,0.0,0.0,0.724646363007497,0.0,0.0,0.0,0.0,0.0,0.0,-12.988,0.0,0.0,0.0
176,0.0,0.0,0.0,0.54313671875,0.0,0.0,0.0,0.0,0.0,0.0,0.724646363007497,0.0,0.0,0.0,0.0,0.0,0.0,-12.692,0.0,0.0,0.0
177,0.0,0.0,0.0,0.549208984375,0.0,0.0,0.0,0.0,0.0,0.0,0.724646363007497,0.0,0.0,0.0,0.0,0.0,0.0,-11.732,0.0,0.0,0.0
178,0.0,0.0,0.0,0.555146484375,0.0,0.0,0.0,0.0,0.0,0.0,0.724646363007497,0.0,0.0,0.0,0.0,0.0,0.0,-11.64,0.0,0.0,0.0
179,0.0,0.0,0.0,0.560939453125,0.0,0.0,0.0,0.0,0.0,0.0,0.724646363007497,0.0,0.0,0.0,0.0,0.0,0.0,-11.868,0.0,0.0,0.0
180,0.0,0.0,0.0,0.5668857421875,0.0,0.0,0.0,0.0,0.0,0.0,0.724646363007497,0.0,0.0,0.0,0.0,0.0,0.0,-11.432,0.0,0.0,0.0
181,0.0,0.0,0.0,0.572814453125,0.0,0.0,0.0,0.0,0.0,0.0,0.724646363007497,0.0,0.0,0.0,0.0,0.0,0.0,-11.572,0.0,0.0,0.0
182,0.0,0.0,0.0,0.578607421875,0.0,0.0,0.0,0.0,0.0,0.0,0.724646363007497,0.0,0.0,0.0,0.0,0.0,0.0,-11.456,0.0,0.0,0.0
183,0.0,0.0,0.0,0.5845537109375,0.0,0.0,0.0,0.0,0.0,0.0,0.724646363007497,0.0,0.0,0.0,0.0,0.0,0.0,-11.572,0.0,0.0,0.0
184,0.0,0.0,0.0,0.590337890625,0.0,0.0,0.0,0.0,0.0,0.0,0.724646363007497,0.0,0.0,0.0,0.0,0.0,0.0,-12.14,0.0,0.0,0.0
185,0.0,0.0,0.0,0.596130859375,0.0,0.0,0.0,0.0,0.0,0.0,0.724646363007497,0.0,0.0,0.0,0.0,0.0,0.0,-12.464,0.0,0.0,0.0
186,0.0,0.0,0.0,0.6020771484375,0.0,0.0,0.0,0.0,0.0,0.0,0.724646363007497,0.0,0.0,0.0,0.0,0.0,0.0,-12.508,0.0,0.0,0.0
187,0.0,0.0,0.0,0.6081591796875,0.0,0.0,0.0,0.0,0.0,0.0,0.724646363007497,0.0,0.0,0.0,0.0,0.0,0.0,-11.388,0.0,0.0,0.0
188,0.0,0.0,0.0,0.614087890625,0.0,0.0,0.0,0.0,0.0,0.0,0.724646363007497,0.0,0.0,0.0,0.0,0.0,0.0,-10.976,0.0,0.0,0.0
189,0.0,0.0,0.0,0.619880859375,0.0,0.0,0.0,0.0,0.0,0.0,0.724646363007497,0.0,0.0,0.0,0.0,0.0,0.0,-11.16,0.0,0.0,0.0
190,0.0,0.0,0.0,0.6256826171875,0.0,0.0,0.0,0.0,0.0,0.0,0.724646363007497,0.0,0.0,0.0,0.0,0.0,0.0,-11.088,0.0,0.0,0.0
191,0.0,0.0,0.0,0.637404296875,0.0,0.0,0.0,0.0,0.0,0.0,0.724646363007497,0.0,0.0,0.0,0.0,0.0,0.0,-10.928,0.0,0.0,0.0
192,0.0,0.0,0.0,0.637404296875,0.0,0.0,0.0,0.0,0.0,0.0,0.724646363007497,0.0,0.0,0.0,0.0,0.0,0.0,-10.928,0.0,0.0,0.0
193,0.0,0.0,0.0,0.6432060546875,0.0,0.0,0.0,0.0,0.0,0.0,0.724646363007497,0.0,0.0,0.0,0.0,0.0,0.0,-11.044,0.0,0.0,0.0
194,0.0,0.0,0.0,0.649134765625,0.0,0.0,0.0,0.0,0.0,0.0,0.724646363007497,0.0,0.0,0.0,0.0,0.0,0.0,-11.34,0.0,0.0,0.0
195,0.0,0.0,0.0,0.655072265625,0.0,0.0,0.0,0.0,0.0,0.0,0.724646363007497,0.0,0.0,0.0,0.0,0.0,0.0,-11.868,0.0,0.0,0.0
196,0.0,0.0,0.0,0.6608740234375,0.0,0.0,0.0,0.0,0.0,0.0,0.724646363007497,0.0,0.0,0.0,0.0,0.0,0.0,-12.072,0.0,0.0,0.0
197,0.0,0.0,0.0,0.666947265625,0.0,0.0,0.0,0.0,0.0,0.0,0.724646363007497,0.0,0.0,0.0,0.0,0.0,0.0,-11.548,0.0,0.0,0.0
198,0.0,0.0,0.0,0.6728837890625,0.0,0.0,0.0,0.0,0.0,0.0,0.724646363007497,0.0,0.0,0.0,0.0,0.0,0.0,-10.768,0.0,0.0,0.0
199,0.0,0.0,0.0,0.6788310546875,0.0,0.0,0.0,0.0,0.0,0.0,0.724646363007497,0.0,0.0,0.0,0.0,0.0,0.0,-10.448,0.0,0.0,0.0
200,0.0,0.0,0.0,0.6846142578125,0.0,0.0,0.0,0.0,0.0,0.0,-0.9424978401588286,0.0,0.0,0.0,0.0,0.0,0.0,-10.816,0.0,0.0,0.0
201,0.0,0.0,0.0,0.6905517578125,0.0,0.0,0.0,0.0,0.0,0.0,-0.9424978401588286,0.0,0.0,0.0,0.0,0.0,0.0,-10.588,0.0,0.0,0.0
202,0.0,0.0,0.0,0.6963359375,0.0,0.0,0.0,0.0,0.0,0.0,-0.9424978401588286,0.0,0.0,0.0,0.0,0.0,0.0,-10.404,0.0,0.0,0.0
203,0.0,0.0,0.0,0.701849609375,0.0,0.0,0.0,0.0,0.0,0.0,-0.9424978401588286,0.0,0.0,0.0,0.0,0.0,0.0,-11.82,0.0,0.0,0.0
204,0.0,0.0,0.0,0.7041591796875,0.0,0.0,0.0,0.0,0.0,0.0,-0.9424978401588286,0.0,0.0,0.0,0.0,0.0,0.0,-17.676,0.0,0.0,0.0
205,0.0,0.0,0.0,0.7034375,0.0,0.0,0.0,0.0,0.0,0.0,-0.9424978401588286,0.0,0.0,0.0,0.0,0.0,0.0,-19.596,0.0,0.0,0.0
206,0.0,0.0,0.0,0.702138671875,0.0,0.0,0.0,0.0,0.0,0.0,-0.9424978401588286,0.0,0.0,0.0,0.0,0.0,0.0,-20.444,0.0,0.0,0.0
207,0.0,0.0,0.0,0.69851953125,0.0,0.0,0.0,0.0,0.0,0.0,-0.9424978401588286,0.0,0.0,0.0,0.0,0.0,0.0,-19.508,0.0,0.0,0.0
208,0.0,0.0,0.0,0.694603515625,0.0,0.0,0.0,0.0,0.0,0.0,-0.9424978401588286,0.0,0.0,0.0,0.0,0.0,0.0,-18.684,0.0,0.0,0.0
209,0.0,0.0,0.0,0.690119140625,0.0,0.0,0.0,0.0,0.0,0.0,-0.9424978401588286,0.0,0.0,0.0,0.0,0.0,0.0,-19.46,0.0,0.0,0.0
210,0.0,0.0,0.0,0.6847587890625,0.0,0.0,0.0,0.0,0.0,0.0,-0.9424978401588286,0.0,0.0,0.0,0.0,0.0,0.0,-19.072,0.0,0.0,0.0
211,0.0,0.0,0.0,0.678677734375,0.0,0.0,0.0,0.0,0.0,0.0,-0.9424978401588286,0.0,0.0,0.0,0.0,0.0,0.0,-21.04,0.0,0.0,0.0
212,0.0,0.0,0.0,0.670998046875,0.0,0.0,0.0,0.0,0.0,0.0,-0.9424978401588286,0.0,0.0,0.0,0.0,0.0,0.0,-21.884,0.0,0.0,0.0
213,0.0,0.0,0.0,0.6627509765625,0.0,0.0,0.0,0.0,0.0,0.0,-0.9424978401588286,0.0,0.0,0.0,0.0,0.0,0.0,-19.436,0.0,0.0,0.0
214,0.0,0.0,0.0,0.6555048828125,0.0,0.0,0.0,0.0,0.0,0.0,-0.9424978401588286,0.0,0.0,0.0,0.0,0.0,0.0,-15.3,0.0,0.0,0.0
215,0.0,0.0,0.0,0.648845703125,0.0,0.0,0.0,0.0,0.0,0.0,-0.9424978401588286,0.0,0.0,0.0,0.0,0.0,0.0,-15.732,0.0,0.0,0.0
216,0.0,0.0,0.0,0.6403095703125,0.0,0.0,0.0,0.0,0.0,0.0,-0.9424978401588286,0.0,0.0,0.0,0.0,0.0,0.0,-17.812,0.0,0.0,0.0
217,0.0,0.0,0.0,0.631755859375,0.0,0.0,0.0,0.0,0.0,0.0,-0.9424978401588286,0.0,0.0,0.0,0.0,0.0,0.0,-16.6,0.0,0.0,0.0
218,0.0,0.0,0.0,0.6235078125,0.0,0.0,0.0,0.0,0.0,0.0,-0.9424978401588286,0.0,0.0,0.0,0.0,0.0,0.0,-12.964,0.0,0.0,0.0
219,0.0,0.0,0.0,0.615396484375,0.0,0.0,0.0,0.0,0.0,0.0,-0.9424978401588286,0.0,0.0,0.0,0.0,0.0,0.0,-11.044,0.0,0.0,0.0
220,0.0,0.0,0.0,0.6067060546875,0.0,0.0,0.0,0.0,0.0,0.0,-0.9424978401588286,0.0,0.0,0.0,0.0,0.0,0.0,-13.264,0.0,0.0,0.0
221,0.0,0.0,0.0,0.5984501953125,0.0,0.0,0.0,0.0,0.0,0.0,-0.9424978401588286,0.0,0.0,0.0,0.0,0.0,0.0,-12.416,0.0,0.0,0.0
222,0.0,0.0,0.0,0.591935546875,0.0,0.0,0.0,0.0,0.0,0.0,-0.9424978401588286,0.0,0.0,0.0,0.0,0.0,0.0,-11.96,0.0,0.0,0.0
223,0.0,0.0,0.0,0.57556640625,0.0,0.0,0.0,0.0,0.0,0.0,-0.9424978401588286,0.0,0.0,0.0,0.0,0.0,0.0,-11.592,0.0,0.0,0.0
224,0.0,0.0,0.0,0.57556640625,0.0,0.0,0.0,0.0,0.0,0.0,-0.9424978401588286,0.0,0.0,0.0,0.0,0.0,0.0,-11.592,0.0,0.0,0.0
225,0.0,0.0,0.0,0.5676083984375,0.0,0.0,0.0,0.0,0.0,0.0,-0.9424978401588286,0.0,0.0,0.0,0.0,0.0,0.0,-9.032,0.0,0.0,0.0
226,0.0,0.0,0.0,0.5606513671875,0.0,0.0,0.0,0.0,0.0,0.0,-0.9424978401588286,0.0,0.0,0.0,0.0,0.0,0.0,-7.728,0.0,0.0,0.0
227,0.0,0.0,0.0,0.553703125,0.0,0.0,0.0,0.0,0.0,0.0,-0.9424978401588286,0.0,0.0,0.0,0.0,0.0,0.0,-9.1,0.0,0.0,0.0
228,0.0,0.0,0.0,0.546322265625,0.0,0.0,0.0,0.0,0.0,0.0,-0.9424978401588286,0.0,0.0,0.0,0.0,0.0,0.0,-11.112,0.0,0.0,0.0
229,0.0,0.0,0.0,0.5395087890625,0.0,0.0,0.0,0.0,0.0,0.0,-0.9424978401588286,0.0,0.0,0.0,0.0,0.0,0.0,-10.428,0.0,0.0,0.0
230,0.0,0.0,0.0,0.533427734375,0.0,0.0,0.0,0.0,0.0,0.0,-0.9424978401588286,0.0,0.0,0.0,0.0,0.0,0.0,-10.312,0.0,0.0,0.0
231,0.0,0.0,0.0,0.5264794921875,0.0,0.0,0.0,0.0,0.0,0.0,-0.9424978401588286,0.0,0.0,0.0,0.0,0.0,0.0,-10.152,0.0,0.0,0.0
232,0.0,0.0,0.0,0.5195224609375,0.0,0.0,0.0,0.0,0.0,0.0,-0.9424978401588286,0.0,0.0,0.0,0.0,0.0,0.0,-9.168,0.0,0.0,0.0
233,0.0,0.0,0.0,0.5134404296875,0.0,0.0,0.0,0.0,0.0,0.0,-0.9424978401588286,0.0,0.0,0.0,0.0,0.0,0.0,-9.556,0.0,0.0,0.0
234,0.0,0.0,0.0,0.5077919921875,0.0,0.0,0.0,0.0,0.0,0.0,-0.9424978401588286,0.0,0.0,0.0,0.0,0.0,0.0,-9.788,0.0,0.0,0.0
235,0.0,0.0,0.0,0.495619140625,0.0,0.0,0.0,0.0,0.0,0.0,-0.9424978401588286,0.0,0.0,0.0,0.0,0.0,0.0,-10.268,0.0,0.0,0.0
236,0.0,0.0,0.0,0.495619140625,0.0,0.0,0.0,0.0,0.0,0.0,-0.9424978401588286,0.0,0.0,0.0,0.0,0.0,0.0,-10.268,0.0,0.0,0.0
237,0.0,0.0,0.0,0.489546875,0.0,0.0,0.0,0.0,0.0,0.0,-0.9424978401588286,0.0,0.0,0.0,0.0,0.0,0.0,-10.768,0.0,0.0,0.0
238,0.0,0.0,0.0,0.483888671875,0.0,0.0,0.0,0.0,0.0,0.0,-0.9424978401588286,0.0,0.0,0.0,0.0,0.0,0.0,-11.296,0.0,0.0,0.0
239,0.0,0.0,0.0,0.478529296875,0.0,0.0,0.0,0.0,0.0,0.0,-0.9424978401588286,0.0,0.0,0.0,0.0,0.0,0.0,-11.18,0.0,0.0,0.0
240,0.0,0.0,0.0,0.473322265625,0.0,0.0,0.0,0.0,0.0,0.0,-0.9424978401588286,0.0,0.0,0.0,0.0,0.0,0.0,-11.82,0.0,0.0,0.0
241,0.0,0.0,0.0,0.4683955078125,0.0,0.0,0.0,0.0,0.0,0.0,-0.9424978401588286,0.0,0.0,0.0,0.0,0.0,0.0,-13.056,0.0,0.0,0.0
242,0.0,0.0,0.0,0.4630263671875,0.0,0.0,0.0,0.0,0.0,0.0,-0.9424978401588286,0.0,0.0,0.0,0.0,0.0,0.0,-12.872,0.0,0.0,0.0
243,0.0,0.0,0.0,0.4578203125,0.0,0.0,0.0,0.0,0.0,0.0,-0.9424978401588286,0.0,0.0,0.0,0.0,0.0,0.0,-12.644,0.0,0.0,0.0
244,0.0,0.0,0.0,0.4527490234375,0.0,0.0,0.0,0.0,0.0,0.0,-0.9424978401588286,0.0,0.0,0.0,0.0,0.0,0.0,-12.988,0.0,0.0,0.0
245,0.0,0.0,0.0,0.4475419921875,0.0,0.0,0.0,0.0,0.0,0.0,-0.9424978401588286,0.0,0.0,0.0,0.0,0.0,0.0,-12.736,0.0,0.0,0.0
246,0.0,0.0,0.0,0.4424716796875,0.0,0.0,0.0,0.0,0.0,0.0,-0.9424978401588286,0.0,0.0,0.0,0.0,0.0,0.0,-13.104,0.0,0.0,0.0
247,0.0,0.0,0.0,0.4374091796875,0.0,0.0,0.0,0.0,0.0,0.0,-0.9424978401588286,0.0,0.0,0.0,0.0,0.0,0.0,-13.764,0.0,0.0,0.0
248,0.0,0.0,0.0,0.432048828125,0.0,0.0,0.0,0.0,0.0,0.0,-0.9424978401588286,0.0,0.0,0.0,0.0,0.0,0.0,-13.948,0.0,0.0,0.0
249,0.0,0.0,0.0,0.4263916015625,0.0,0.0,0.0,0.0,0.0,0.0,-0.9424978401588286,0.0,0.0,0.0,0.0,0.0,0.0,-13.924,0.0,0.0,0.0
250,0.0,0.0,0.0,0.42103125,0.0,0.0,0.0,0.0,0.0,0.0,-0.9424978401588286,0.0,0.0,0.0,0.0,0.0,0.0,-13.744,0.0,0.0,0.0
251,0.0,0.0,0.0,0.41104296875,0.0,0.0,0.0,0.0,0.0,0.0,-0.9424978401588286,0.0,0.0,0.0,0.0,0.0,0.0,-15.184,0.0,0.0,0.0
252,0.0,0.0,0.0,0.41104296875,0.0,0.0,0.0,0.0,0.0,0.0,-0.9424978401588286,0.0,0.0,0.0,0.0,0.0,0.0,-15.184,0.0,0.0,0.0
253,0.0,0.0,0.0,0.4056826171875,0.0,0.0,0.0,0.0,0.0,0.0,-0.9424978401588286,0.0,0.0,0.0,0.0,0.0,0.0,-15.0,0.0,0.0,0.0
254,0.0,0.0,0.0,0.4001787109375,0.0,0.0,0.0,0.0,0.0,0.0,-0.9424978401588286,0.0,0.0,0.0,0.0,0.0,0.0,-14.496,0.0,0.0,0.0
255,0.0,0.0,0.0,0.3945302734375,0.0,0.0,0.0,0.0,0.0,0.0,-0.9424978401588286,0.0,0.0,0.0,0.0,0.0,0.0,-14.292,0.0,0.0,0.0
256,0.0,0.0,0.0,0.3885830078125,0.0,0.0,0.0,0.0,0.0,0.0,-0.9424978401588286,0.0,0.0,0.0,0.0,0.0,0.0,-13.788,0.0,0.0,0.0
257,0.0,0.0,0.0,0.382943359375,0.0,0.0,0.0,0.0,0.0,0.0,-0.9424978401588286,0.0,0.0,0.0,0.0,0.0,0.0,-13.652,0.0,0.0,0.0
258,0.0,0.0,0.0,0.377439453125,0.0,0.0,0.0,0.0,0.0,0.0,-0.9424978401588286,0.0,0.0,0.0,0.0,0.0,0.0,-14.268,0.0,0.0,0.0
259,0.0,0.0,0.0,0.371501953125,0.0,0.0,0.0,0.0,0.0,0.0,-0.9424978401588286,0.0,0.0,0.0,0.0,0.0,0.0,-14.336,0.0,0.0,0.0
260,0.0,0.0,0.0,0.3652666015625,0.0,0.0,0.0,0.0,0.0,0.0,-0.9424978401588286,0.0,0.0,0.0,0.0,0.0,0.0,-14.268,0.0,0.0,0.0
261,0.0,0.0,0.0,0.359041015625,0.0,0.0,0.0,0.0,0.0,0.0,-0.9424978401588286,0.0,0.0,0.0,0.0,0.0,0.0,-14.452,0.0,0.0,0.0
262,0.0,0.0,0.0,0.3470126953125,0.0,0.0,0.0,0.0,0.0,0.0,-0.9424978401588286,0.0,0.0,0.0,0.0,0.0,0.0,-13.88,0.0,0.0,0.0
263,0.0,0.0,0.0,0.3470126953125,0.0,0.0,0.0,0.0,0.0,0.0,-0.9424978401588286,0.0,0.0,0.0,0.0,0.0,0.0,-13.88,0.0,0.0,0.0
264,0.0,0.0,0.0,0.3410751953125,0.0,0.0,0.0,0.0,0.0,0.0,-0.9424978401588286,0.0,0.0,0.0,0.0,0.0,0.0,-13.812,0.0,0.0,0.0
265,0.0,0.0,0.0,0.3351376953125,0.0,0.0,0.0,0.0,0.0,0.0,-0.9424978401588286,0.0,0.0,0.0,0.0,0.0,0.0,-13.88,0.0,0.0,0.0
266,0.0,0.0,0.0,0.3287578125,0.0,0.0,0.0,0.0,0.0,0.0,-0.9424978401588286,0.0,0.0,0.0,0.0,0.0,0.0,-13.924,0.0,0.0,0.0
267,0.0,0.0,0.0,0.3225322265625,0.0,0.0,0.0,0.0,0.0,0.0,-0.9424978401588286,0.0,0.0,0.0,0.0,0.0,0.0,-13.444,0.0,0.0,0.0
268,0.0,0.0,0.0,0.3164501953125,0.0,0.0,0.0,0.0,0.0,0.0,-0.9424978401588286,0.0,0.0,0.0,0.0,0.0,0.0,-13.376,0.0,0.0,0.0
269,0.0,0.0,0.0,0.310359375,0.0,0.0,0.0,0.0,0.0,0.0,-0.9424978401588286,0.0,0.0,0.0,0.0,0.0,0.0,-13.08,0.0,0.0,0.0
270,0.0,0.0,0.0,0.30427734375,0.0,0.0,0.0,0.0,0.0,0.0,-0.9424978401588286,0.0,0.0,0.0,0.0,0.0,0.0,-13.444,0.0,0.0,0.0
271,0.0,0.0,0.0,0.2980517578125,0.0,0.0,0.0,0.0,0.0,0.0,-0.9424978401588286,0.0,0.0,0.0,0.0,0.0,0.0,-14.108,0.0,0.0,0.0
272,0.0,0.0,0.0,0.2919697265625,0.0,0.0,0.0,0.0,0.0,0.0,-0.9424978401588286,0.0,0.0,0.0,0.0,0.0,0.0,-13.972,0.0,0.0,0.0
273,0.0,0.0,0.0,0.2858876953125,0.0,0.0,0.0,0.0,0.0,0.0,-0.9424978401588286,0.0,0.0,0.0,0.0,0.0,0.0,-13.836,0.0,0.0,0.0
274,0.0,0.0,0.0,0.2800947265625,0.0,0.0,0.0,0.0,0.0,0.0,-0.9424978401588286,0.0,0.0,0.0,0.0,0.0,0.0,-13.516,0.0,0.0,0.0
275,0.0,0.0,0.0,0.2743017578125,0.0,0.0,0.0,0.0,0.0,0.0,-0.9424978401588286,0.0,0.0,0.0,0.0,0.0,0.0,-13.652,0.0,0.0,0.0
276,0.0,0.0,0.0,0.26835546875,0.0,0.0,0.0,0.0,0.0,0.0,-0.9424978401588286,0.0,0.0,0.0,0.0,0.0,0.0,-14.016,0.0,0.0,0.0
277,0.0,0.0,0.0,0.26241796875,0.0,0.0,0.0,0.0,0.0,0.0,-0.9424978401588286,0.0,0.0,0.0,0.0,0.0,0.0,-13.696,0.0,0.0,0.0
278,0.0,0.0,0.0,0.2563359375,0.0,0.0,0.0,0.0,0.0,0.0,-0.9424978401588286,0.0,0.0,0.0,0.0,0.0,0.0,-13.584,0.0,0.0,0.0
279,0.0,0.0,0.0,0.2503896484375,0.0,0.0,0.0,0.0,0.0,0.0,-0.9424978401588286,0.0,0.0,0.0,0.0,0.0,0.0,-13.172,0.0,0.0,0.0
280,0.0,0.0,0.0,0.2445966796875,0.0,0.0,0.0,0.0,0.0,0.0,-0.9424978401588286,0.0,0.0,0.0,0.0,0.0,0.0,-13.516,0.0,0.0,0.0
281,0.0,0.0,0.0,0.2386591796875,0.0,0.0,0.0,0.0,0.0,0.0,-0.9424978401588286,0.0,0.0,0.0,0.0,0.0,0.0,-14.156,0.0,0.0,0.0
282,0.0,0.0,0.0,0.2272177734375,0.0,0.0,0.0,0.0,0.0,0.0,-0.9424978401588286,0.0,0.0,0.0,0.0,0.0,0.0,-14.588,0.0,0.0,0.0
283,0.0,0.0,0.0,0.2272177734375,0.0,0.0,0.0,0.0,0.0,0.0,-0.9424978401588286,0.0,0.0,0.0,0.0,0.0,0.0,-14.588,0.0,0.0,0.0
284,0.0,0.0,0.0,0.2212802734375,0.0,0.0,0.0,0.0,0.0,0.0,-0.9424978401588286,0.0,0.0,0.0,0.0,0.0,0.0,-14.156,0.0,0.0,0.0
285,0.0,0.0,0.0,0.2157763671875,0.0,0.0,0.0,0.0,0.0,0.0,-0.9424978401588286,0.0,0.0,0.0,0.0,0.0,0.0,-13.812,0.0,0.0,0.0
286,0.0,0.0,0.0,0.2098291015625,0.0,0.0,0.0,0.0,0.0,0.0,-0.9424978401588286,0.0,0.0,0.0,0.0,0.0,0.0,-14.132,0.0,0.0,0.0
287,0.0,0.0,0.0,0.2040361328125,0.0,0.0,0.0,0.0,0.0,0.0,-0.9424978401588286,0.0,0.0,0.0,0.0,0.0,0.0,-14.336,0.0,0.0,0.0
288,0.0,0.0,0.0,0.1982431640625,0.0,0.0,0.0,0.0,0.0,0.0,-0.9424978401588286,0.0,0.0,0.0,0.0,0.0,0.0,-13.88,0.0,0.0,0.0
289,0.0,0.0,0.0,0.192296875,0.0,0.0,0.0,0.0,0.0,0.0,-0.9424978401588286,0.0,0.0,0.0,0.0,0.0,0.0,-13.904,0.0,0.0,0.0
290,0.0,0.0,0.0,0.1866484375,0.0,0.0,0.0,0.0,0.0,0.0,-0.9424978401588286,0.0,0.0,0.0,0.0,0.0,0.0,-13.744,0.0,0.0,0.0
291,0.0,0.0,0.0,0.1747646484375,0.0,0.0,0.0,0.0,0.0,0.0,-0.9424978401588286,0.0,0.0,0.0,0.0,0.0,0.0,-14.932,0.0,0.0,0.0
292,0.0,0.0,0.0,0.1747646484375,0.0,0.0,0.0,0.0,0.0,0.0,-0.9424978401588286,0.0,0.0,0.0,0.0,0.0,0.0,-14.932,0.0,0.0,0.0
293,0.0,0.0,0.0,0.169125,0.0,0.0,0.0,0.0,0.0,0.0,-0.9424978401588286,0.0,0.0,0.0,0.0,0.0,0.0,-14.568,0.0,0.0,0.0
294,0.0,0.0,0.0,0.16333203125,0.0,0.0,0.0,0.0,0.0,0.0,-0.9424978401588286,0.0,0.0,0.0,0.0,0.0,0.0,-14.656,0.0,0.0,0.0
295,0.0,0.0,0.0,0.1575390625,0.0,0.0,0.0,0.0,0.0,0.0,-0.9424978401588286,0.0,0.0,0.0,0.0,0.0,0.0,-14.336,0.0,0.0,0.0
296,0.0,0.0,0.0,0.152025390625,0.0,0.0,0.0,0.0,0.0,0.0,-0.9424978401588286,0.0,0.0,0.0,0.0,0.0,0.0,-14.408,0.0,0.0,0.0
297,0.0,0.0,0.0,0.145943359375,0.0,0.0,0.0,0.0,0.0,0.0,-0.9424978401588286,0.0,0.0,0.0,0.0,0.0,0.0,-14.636,0.0,0.0,0.0
298,0.0,0.0,0.0,0.140005859375,0.0,0.0,0.0,0.0,0.0,0.0,-0.9424978401588286,0.0,0.0,0.0,0.0,0.0,0.0,-14.108,0.0,0.0,0.0
299,0.0,0.0,0.0,0.1342041015625,0.0,0.0,0.0,0.0,0.0,0.0,-0.9424978401588286,0.0,0.0,0.0,0.0,0.0,0.0,-14.084,0.0,0.0,0.0
300,0.0,0.0,0.0,0.1282666015625,0.0,0.0,0.0,0.0,0.0,0.0,-0.9424978401588286,0.0,0.0,0.0,0.0,0.0,0.0,-13.696,0.0,0.0,0.0
301,0.0,0.0,0.0,0.1224736328125,0.0,0.0,0.0,0.0,0.0,0.0,-0.9424978401588286,0.0,0.0,0.0,0.0,0.0,0.0,-13.904,0.0,0.0,0.0
302,0.0,0.0,0.0,0.1165361328125,0.0,0.0,0.0,0.0,0.0,0.0,-0.9424978401588286,0.0,0.0,0.0,0.0,0.0,0.0,-15.024,0.0,0.0,0.0
303,0.0,0.0,0.0,0.1104453125,0.0,0.0,0.0,0.0,0.0,0.0,-0.9424978401588286,0.0,0.0,0.0,0.0,0.0,0.0,-14.772,0.0,0.0,0.0
304,0.0,0.0,0.0,0.10465234375,0.0,0.0,0.0,0.0,0.0,0.0,-0.9424978401588286,0.0,0.0,0.0,0.0,0.0,0.0,-14.888,0.0,0.0,0.0
305,0.0,0.0,0.0,0.0988779296875,0.0,0.0,0.0,0.0,0.0,0.0,-0.9424978401588286,0.0,0.0,0.0,0.0,0.0,0.0,-14.612,0.0,0.0,0.0
306,0.0,0.0,0.0,0.0932197265625,0.0,0.0,0.0,0.0,0.0,0.0,-0.9424978401588286,0.0,0.0,0.0,0.0,0.0,0.0,-14.292,0.0,0.0,0.0
307,0.0,0.0,0.0,0.0874267578125,0.0,0.0,0.0,0.0,0.0,0.0,-0.9424978401588286,0.0,0.0,0.0,0.0,0.0,0.0,-14.772,0.0,0.0,0.0
308,0.0,0.0,0.0,0.0813447265625,0.0,0.0,0.0,0.0,0.0,0.0,-0.9424978401588286,0.0,0.0,0.0,0.0,0.0,0.0,-14.656,0.0,0.0,0.0
309,0.0,0.0,0.0,0.0754072265625,0.0,0.0,0.0,0.0,0.0,0.0,-0.9424978401588286,0.0,0.0,0.0,0.0,0.0,0.0,-13.996,0.0,0.0,0.0
310,0.0,0.0,0.0,0.06931640625,0.0,0.0,0.0,0.0,0.0,0.0,-0.9424978401588286,0.0,0.0,0.0,0.0,0.0,0.0,-14.064,0.0,0.0,0.0
311,0.0,0.0,0.0,0.06337890625,0.0,0.0,0.0,0.0,0.0,0.0,-0.9424978401588286,0.0,0.0,0.0,0.0,0.0,0.0,-13.584,0.0,0.0,0.0
312,0.0,0.0,0.0,0.05773046875,0.0,0.0,0.0,0.0,0.0,0.0,-0.9424978401588286,0.0,0.0,0.0,0.0,0.0,0.0,-14.544,0.0,0.0,0.0
313,0.0,0.0,0.0,0.0514951171875,0.0,0.0,0.0,0.0,0.0,0.0,-0.9424978401588286,0.0,0.0,0.0,0.0,0.0,0.0,-15.3,0.0,0.0,0.0
314,0.0,0.0,0.0,0.0457021484375,0.0,0.0,0.0,0.0,0.0,0.0,-0.9424978401588286,0.0,0.0,0.0,0.0,0.0,0.0,-14.636,0.0,0.0,0.0
315,0.0,0.0,0.0,0.0400537109375,0.0,0.0,0.0,0.0,0.0,0.0,-0.9424978401588286,0.0,0.0,0.0,0.0,0.0,0.0,-15.0,0.0,0.0,0.0
316,0.0,0.0,0.0,0.0339716796875,0.0,0.0,0.0,0.0,0.0,0.0,-0.9424978401588286,0.0,0.0,0.0,0.0,0.0,0.0,-14.084,0.0,0.0,0.0
317,0.0,0.0,0.0,0.0286123046875,0.0,0.0,0.0,0.0,0.0,0.0,-0.9424978401588286,0.0,0.0,0.0,0.0,0.0,0.0,-14.52,0.0,0.0,0.0
318,0.0,0.0,0.0,0.0225302734375,0.0,0.0,0.0,0.0,0.0,0.0,-0.9424978401588286,0.0,0.0,0.0,0.0,0.0,0.0,-15.048,0.0,0.0,0.0
319,0.0,0.0,0.0,0.0164482421875,0.0,0.0,0.0,0.0,0.0,0.0,-0.9424978401588286,0.0,0.0,0.0,0.0,0.0,0.0,-13.972,0.0,0.0,0.0
320,0.0,0.0,0.0,0.010935546875,0.0,0.0,0.0,0.0,0.0,0.0,-0.9424978401588286,0.0,0.0,0.0,0.0,0.0,0.0,-14.428,0.0,0.0,0.0
321,0.0,0.0,0.0,0.004564453125,0.0,0.0,0.0,0.0,0.0,0.0,-0.9424978401588286,0.0,0.0,0.0,0.0,0.0,0.0,-13.856,0.0,0.0,0.0
322,0.0,0.0,0.0,-0.0010830078125,0.0,0.0,0.0,0.0,0.0,0.0,-0.9424978401588286,0.0,0.0,0.0,0.0,0.0,0.0,-13.836,0.0,0.0,0.0
323,0.0,0.0,0.0,-0.0070205078125,0.0,0.0,0.0,0.0,0.0,0.0,-0.9424978401588286,0.0,0.0,0.0,0.0,0.0,0.0,-14.932,0.0,0.0,0.0
324,0.0,0.0,0.0,-0.013255859375,0.0,0.0,0.0,0.0,0.0,0.0,-0.9424978401588286,0.0,0.0,0.0,0.0,0.0,0.0,-14.656,0.0,0.0,0.0
325,0.0,0.0,0.0,-0.018615234375,0.0,0.0,0.0,0.0,0.0,0.0,-0.9424978401588286,0.0,0.0,0.0,0.0,0.0,0.0,-15.024,0.0,0.0,0.0
326,0.0,0.0,0.0,-0.024697265625,0.0,0.0,0.0,0.0,0.0,0.0,-0.9424978401588286,0.0,0.0,0.0,0.0,0.0,0.0,-14.932,0.0,0.0,0.0
327,0.0,0.0,0.0,-0.030345703125,0.0,0.0,0.0,0.0,0.0,0.0,-0.9424978401588286,0.0,0.0,0.0,0.0,0.0,0.0,-14.084,0.0,0.0,0.0
328,0.0,0.0,0.0,-0.0357060546875,0.0,0.0,0.0,0.0,0.0,0.0,-0.9424978401588286,0.0,0.0,0.0,0.0,0.0,0.0,-15.048,0.0,0.0,0.0
329,0.0,0.0,0.0,-0.042076171875,0.0,0.0,0.0,0.0,0.0,0.0,-0.9424978401588286,0.0,0.0,0.0,0.0,0.0,0.0,-14.612,0.0,0.0,0.0
330,0.0,0.0,0.0,-0.047724609375,0.0,0.0,0.0,0.0,0.0,0.0,-0.9424978401588286,0.0,0.0,0.0,0.0,0.0,0.0,-14.04,0.0,0.0,0.0
331,0.0,0.0,0.0,-0.053671875,0.0,0.0,0.0,0.0,0.0,0.0,-0.9424978401588286,0.0,0.0,0.0,0.0,0.0,0.0,-14.452,0.0,0.0,0.0
332,0.0,0.0,0.0,-0.0598974609375,0.0,0.0,0.0,0.0,0.0,0.0,-0.9424978401588286,0.0,0.0,0.0,0.0,0.0,0.0,-13.468,0.0,0.0,0.0
333,0.0,0.0,0.0,-0.06540234375,0.0,0.0,0.0,0.0,0.0,0.0,-0.9424978401588286,0.0,0.0,0.0,0.0,0.0,0.0,-14.476,0.0,0.0,0.0
334,0.0,0.0,0.0,-0.0716279296875,0.0,0.0,0.0,0.0,0.0,0.0,-0.9424978401588286,0.0,0.0,0.0,0.0,0.0,0.0,-15.068,0.0,0.0,0.0
335,0.0,0.0,0.0,-0.07757421875,0.0,0.0,0.0,0.0,0.0,0.0,-0.9424978401588286,0.0,0.0,0.0,0.0,0.0,0.0,-14.452,0.0,0.0,0.0
336,0.0,0.0,0.0,-0.0830791015625,0.0,0.0,0.0,0.0,0.0,0.0,-0.9424978401588286,0.0,0.0,0.0,0.0,0.0,0.0,-15.136,0.0,0.0,0.0
337,0.0,0.0,0.0,-0.0893046875,0.0,0.0,0.0,0.0,0.0,0.0,-0.9424978401588286,0.0,0.0,0.0,0.0,0.0,0.0,-14.292,0.0,0.0,0.0
338,0.0,0.0,0.0,-0.09451171875,0.0,0.0,0.0,0.0,0.0,0.0,-0.9424978401588286,0.0,0.0,0.0,0.0,0.0,0.0,-14.428,0.0,0.0,0.0
339,0.0,0.0,0.0,-0.1004580078125,0.0,0.0,0.0,0.0,0.0,0.0,-0.9424978401588286,0.0,0.0,0.0,0.0,0.0,0.0,-15.184,0.0,0.0,0.0
340,0.0,0.0,0.0,-0.10668359375,0.0,0.0,0.0,0.0,0.0,0.0,-0.9424978401588286,0.0,0.0,0.0,0.0,0.0,0.0,-14.084,0.0,0.0,0.0
341,0.0,0.0,0.0,-0.1121884765625,0.0,0.0,0.0,0.0,0.0,0.0,-0.9424978401588286,0.0,0.0,0.0,0.0,0.0,0.0,-14.176,0.0,0.0,0.0
342,0.0,0.0,0.0,-0.11855859375,0.0,0.0,0.0,0.0,0.0,0.0,-0.9424978401588286,0.0,0.0,0.0,0.0,0.0,0.0,-13.948,0.0,0.0,0.0
343,0.0,0.0,0.0,-0.124361328125,0.0,0.0,0.0,0.0,0.0,0.0,-0.9424978401588286,0.0,0.0,0.0,0.0,0.0,0.0,-13.516,0.0,0.0,0.0
344,0.0,0.0,0.0,-0.130009765625,0.0,0.0,0.0,0.0,0.0,0.0,-0.9424978401588286,0.0,0.0,0.0,0.0,0.0,0.0,-14.704,0.0,0.0,0.0
345,0.0,0.0,0.0,-0.1363798828125,0.0,0.0,0.0,0.0,0.0,0.0,-0.9424978401588286,0.0,0.0,0.0,0.0,0.0,0.0,-14.888,0.0,0.0,0.0
346,0.0,0.0,0.0,-0.1418935546875,0.0,0.0,0.0,0.0,0.0,0.0,-0.9424978401588286,0.0,0.0,0.0,0.0,0.0,0.0,-14.52,0.0,0.0,0.0
347,0.0,0.0,0.0,-0.147822265625,0.0,0.0,0.0,0.0,0.0,0.0,-0.9424978401588286,0.0,0.0,0.0,0.0,0.0,0.0,-15.024,0.0,0.0,0.0
348,0.0,0.0,0.0,-0.1537587890625,0.0,0.0,0.0,0.0,0.0,0.0,-0.9424978401588286,0.0,0.0,0.0,0.0,0.0,0.0,-13.972,0.0,0.0,0.0
349,0.0,0.0,0.0,-0.159119140625,0.0,0.0,0.0,0.0,0.0,0.0,-0.9424978401588286,0.0,0.0,0.0,0.0,0.0,0.0,-14.408,0.0,0.0,0.0
350,0.0,0.0,0.0,-0.1652099609375,0.0,0.0,0.0,0.0,0.0,0.0,-0.9424978401588286,0.0,0.0,0.0,0.0,0.0,0.0,-15.068,0.0,0.0,0.0
351,0.0,0.0,0.0,-0.1711474609375,0.0,0.0,0.0,0.0,0.0,0.0,-0.9424978401588286,0.0,0.0,0.0,0.0,0.0,0.0,-13.744,0.0,0.0,0.0
352,0.0,0.0,0.0,-0.1767958984375,0.0,0.0,0.0,0.0,0.0,0.0,-0.9424978401588286,0.0,0.0,0.0,0.0,0.0,0.0,-14.224,0.0,0.0,0.0
353,0.0,0.0,0.0,-0.1830224609375,0.0,0.0,0.0,0.0,0.0,0.0,-0.9424978401588286,0.0,0.0,0.0,0.0,0.0,0.0,-13.676,0.0,0.0,0.0
354,0.0,0.0,0.0,-0.1886708984375,0.0,0.0,0.0,0.0,0.0,0.0,-0.9424978401588286,0.0,0.0,0.0,0.0,0.0,0.0,-13.604,0.0,0.0,0.0
355,0.0,0.0,0.0,-0.1944638671875,0.0,0.0,0.0,0.0,0.0,0.0,-0.9424978401588286,0.0,0.0,0.0,0.0,0.0,0.0,-14.932,0.0,0.0,0.0
356,0.0,0.0,0.0,-0.200833984375,0.0,0.0,0.0,0.0,0.0,0.0,-0.9424978401588286,0.0,0.0,0.0,0.0,0.0,0.0,-14.428,0.0,0.0,0.0
357,0.0,0.0,0.0,-0.2063388671875,0.0,0.0,0.0,0.0,0.0,0.0,-0.9424978401588286,0.0,0.0,0.0,0.0,0.0,0.0,-14.408,0.0,0.0,0.0
358,0.0,0.0,0.0,-0.2122763671875,0.0,0.0,0.0,0.0,0.0,0.0,-0.9424978401588286,0.0,0.0,0.0,0.0,0.0,0.0,-14.728,0.0,0.0,0.0
359,0.0,0.0,0.0,-0.218078125,0.0,0.0,0.0,0.0,0.0,0.0,-0.9424978401588286,0.0,0.0,0.0,0.0,0.0,0.0,-13.836,0.0,0.0,0.0
360,0.0,0.0,0.0,-0.2235732421875,0.0,0.0,0.0,0.0,0.0,0.0,-0.9424978401588286,0.0,0.0,0.0,0.0,0.0,0.0,-14.452,0.0,0.0,0.0
361,0.0,0.0,0.0,-0.2296552734375,0.0,0.0,0.0,0.0,0.0,0.0,-0.9424978401588286,0.0,0.0,0.0,0.0,0.0,0.0,-14.656,0.0,0.0,0.0
362,0.0,0.0,0.0,-0.2355927734375,0.0,0.0,0.0,0.0,0.0,0.0,-0.9424978401588286,0.0,0.0,0.0,0.0,0.0,0.0,-13.424,0.0,0.0,0.0
363,0.0,0.0,0.0,-0.24139453125,0.0,0.0,0.0,0.0,0.0,0.0,-0.9424978401588286,0.0,0.0,0.0,0.0,0.0,0.0,-14.064,0.0,0.0,0.0
364,0.0,0.0,0.0,-0.24762109375,0.0,0.0,0.0,0.0,0.0,0.0,-0.9424978401588286,0.0,0.0,0.0,0.0,0.0,0.0,-13.516,0.0,0.0,0.0
365,0.0,0.0,0.0,-0.2534140625,0.0,0.0,0.0,0.0,0.0,0.0,-0.9424978401588286,0.0,0.0,0.0,0.0,0.0,0.0,-13.604,0.0,0.0,0.0
366,0.0,0.0,0.0,-0.259341796875,0.0,0.0,0.0,0.0,0.0,0.0,-0.9424978401588286,0.0,0.0,0.0,0.0,0.0,0.0,-14.748,0.0,0.0,0.0
367,0.0,0.0,0.0,-0.2654326171875,0.0,0.0,0.0,0.0,0.0,0.0,-0.9424978401588286,0.0,0.0,0.0,0.0,0.0,0.0,-14.224,0.0,0.0,0.0
368,0.0,0.0,0.0,-0.2709375,0.0,0.0,0.0,0.0,0.0,0.0,-0.9424978401588286,0.0,0.0,0.0,0.0,0.0,0.0,-14.336,0.0,0.0,0.0
369,0.0,0.0,0.0,-0.276875,0.0,0.0,0.0,0.0,0.0,0.0,-0.9424978401588286,0.0,0.0,0.0,0.0,0.0,0.0,-14.496,0.0,0.0,0.0
370,0.0,0.0,0.0,-0.2826591796875,0.0,0.0,0.0,0.0,0.0,0.0,-0.9424978401588286,0.0,0.0,0.0,0.0,0.0,0.0,-13.788,0.0,0.0,0.0
371,0.0,0.0,0.0,-0.28831640625,0.0,0.0,0.0,0.0,0.0,0.0,-0.9424978401588286,0.0,0.0,0.0,0.0,0.0,0.0,-14.248,0.0,0.0,0.0
372,0.0,0.0,0.0,-0.29425390625,0.0,0.0,0.0,0.0,0.0,0.0,-0.9424978401588286,0.0,0.0,0.0,0.0,0.0,0.0,-14.156,0.0,0.0,0.0
373,0.0,0.0,0.0,-0.30019140625,0.0,0.0,0.0,0.0,0.0,0.0,-0.9424978401588286,0.0,0.0,0.0,0.0,0.0,0.0,-13.264,0.0,0.0,0.0
374,0.0,0.0,0.0,-0.30612890625,0.0,0.0,0.0,0.0,0.0,0.0,-0.9424978401588286,0.0,0.0,0.0,0.0,0.0,0.0,-13.652,0.0,0.0,0.0
375,0.0,0.0,0.0,-0.312056640625,0.0,0.0,0.0,0.0,0.0,0.0,-0.9424978401588286,0.0,0.0,0.0,0.0,0.0,0.0,-13.444,0.0,0.0,0.0
376,0.0,0.0,0.0,-0.31800390625,0.0,0.0,0.0,0.0,0.0,0.0,-0.9424978401588286,0.0,0.0,0.0,0.0,0.0,0.0,-13.788,0.0,0.0,0.0
377,0.0,0.0,0.0,-0.32394140625,0.0,0.0,0.0,0.0,0.0,0.0,-0.9424978401588286,0.0,0.0,0.0,0.0,0.0,0.0,-14.316,0.0,0.0,0.0
378,0.0,0.0,0.0,-0.329734375,0.0,0.0,0.0,0.0,0.0,0.0,-0.9424978401588286,0.0,0.0,0.0,0.0,0.0,0.0,-14.176,0.0,0.0,0.0
379,0.0,0.0,0.0,-0.335517578125,0.0,0.0,0.0,0.0,0.0,0.0,-0.9424978401588286,0.0,0.0,0.0,0.0,0.0,0.0,-14.176,0.0,0.0,0.0
380,0.0,0.0,0.0,-0.3413203125,0.0,0.0,0.0,0.0,0.0,0.0,-0.9424978401588286,0.0,0.0,0.0,0.0,0.0,0.0,-13.88,0.0,0.0,0.0
381,0.0,0.0,0.0,-0.34696875,0.0,0.0,0.0,0.0,0.0,0.0,-0.9424978401588286,0.0,0.0,0.0,0.0,0.0,0.0,-13.744,0.0,0.0,0.0
382,0.0,0.0,0.0,-0.35290625,0.0,0.0,0.0,0.0,0.0,0.0,-0.9424978401588286,0.0,0.0,0.0,0.0,0.0,0.0,-13.88,0.0,0.0,0.0
383,0.0,0.0,0.0,-0.3588349609375,0.0,0.0,0.0,0.0,0.0,0.0,-0.9424978401588286,0.0,0.0,0.0,0.0,0.0,0.0,-13.308,0.0,0.0,0.0
384,0.0,0.0,0.0,-0.3646279296875,0.0,0.0,0.0,0.0,0.0,0.0,-0.9424978401588286,0.0,0.0,0.0,0.0,0.0,0.0,-13.172,0.0,0.0,0.0
385,0.0,0.0,0.0,-0.37071875,0.0,0.0,0.0,0.0,0.0,0.0,-0.9424978401588286,0.0,0.0,0.0,0.0,0.0,0.0,-13.172,0.0,0.0,0.0
386,0.0,0.0,0.0,-0.376501953125,0.0,0.0,0.0,0.0,0.0,0.0,-0.9424978401588286,0.0,0.0,0.0,0.0,0.0,0.0,-13.284,0.0,0.0,0.0
387,0.0,0.0,0.0,-0.382439453125,0.0,0.0,0.0,0.0,0.0,0.0,-0.9424978401588286,0.0,0.0,0.0,0.0,0.0,0.0,-14.084,0.0,0.0,0.0
388,0.0,0.0,0.0,-0.388521484375,0.0,0.0,0.0,0.0,0.0,0.0,-0.9424978401588286,0.0,0.0,0.0,0.0,0.0,0.0,-13.924,0.0,0.0,0.0
389,0.0,0.0,0.0,-0.394169921875,0.0,0.0,0.0,0.0,0.0,0.0,-0.9424978401588286,0.0,0.0,0.0,0.0,0.0,0.0,-13.652,0.0,0.0,0.0
390,0.0,0.0,0.0,-0.399962890625,0.0,0.0,0.0,0.0,0.0,0.0,-0.9424978401588286,0.0,0.0,0.0,0.0,0.0,0.0,-13.744,0.0,0.0,0.0
391,0.0,0.0,0.0,-0.405755859375,0.0,0.0,0.0,0.0,0.0,0.0,-0.9424978401588286,0.0,0.0,0.0,0.0,0.0,0.0,-13.492,0.0,0.0,0.0
392,0.0,0.0,0.0,-0.4114052734375,0.0,0.0,0.0,0.0,0.0,0.0,-0.9424978401588286,0.0,0.0,0.0,0.0,0.0,0.0,-13.424,0.0,0.0,0.0
393,0.0,0.0,0.0,-0.4173330078125,0.0,0.0,0.0,0.0,0.0,0.0,-0.9424978401588286,0.0,0.0,0.0,0.0,0.0,0.0,-13.696,0.0,0.0,0.0
394,0.0,0.0,0.0,-0.4232705078125,0.0,0.0,0.0,0.0,0.0,0.0,-0.9424978401588286,0.0,0.0,0.0,0.0,0.0,0.0,-12.852,0.0,0.0,0.0
395,0.0,0.0,0.0,-0.429216796875,0.0,0.0,0.0,0.0,0.0,0.0,-0.9424978401588286,0.0,0.0,0.0,0.0,0.0,0.0,-12.896,0.0,0.0,0.0
396,0.0,0.0,0.0,-0.4351455078125,0.0,0.0,0.0,0.0,0.0,0.0,-0.9424978401588286,0.0,0.0,0.0,0.0,0.0,0.0,-12.852,0.0,0.0,0.0
397,0.0,0.0,0.0,-0.4409384765625,0.0,0.0,0.0,0.0,0.0,0.0,-0.9424978401588286,0.0,0.0,0.0,0.0,0.0,0.0,-13.192,0.0,0.0,0.0
398,0.0,0.0,0.0,-0.4468759765625,0.0,0.0,0.0,0.0,0.0,0.0,-0.9424978401588286,0.0,0.0,0.0,0.0,0.0,0.0,-13.764,0.0,0.0,0.0
399,0.0,0.0,0.0,-0.4528046875,0.0,0.0,0.0,0.0,0.0,0.0,-0.9424978401588286,0.0,0.0,0.0,0.0,0.0,0.0,-13.516,0.0,0.0,0.0
400,0.0,0.0,0.0,-0.4584619140625,0.0,0.0,0.0,0.0,0.0,0.0,-0.9424978401588286,0.0,0.0,0.0,0.0,0.0,0.0,-13.468,0.0,0.0,0.0
401,0.0,0.0,0.0,-0.464390625,0.0,0.0,0.0,0.0,0.0,0.0,-0.9424978401588286,0.0,0.0,0.0,0.0,0.0,0.0,-13.332,0.0,0.0,0.0
402,0.0,0.0,0.0,-0.4700390625,0.0,0.0,0.0,0.0,0.0,0.0,-0.9424978401588286,0.0,0.0,0.0,0.0,0.0,0.0,-13.192,0.0,0.0,0.0
403,0.0,0.0,0.0,-0.47583203125,0.0,0.0,0.0,0.0,0.0,0.0,-0.9424978401588286,0.0,0.0,0.0,0.0,0.0,0.0,-13.216,0.0,0.0,0.0
404,0.0,0.0,0.0,-0.4817607421875,0.0,0.0,0.0,0.0,0.0,0.0,-0.9424978401588286,0.0,0.0,0.0,0.0,0.0,0.0,-13.012,0.0,0.0,0.0
405,0.0,0.0,0.0,-0.4875625,0.0,0.0,0.0,0.0,0.0,0.0,-0.9424978401588286,0.0,0.0,0.0,0.0,0.0,0.0,-12.644,0.0,0.0,0.0
406,0.0,0.0,0.0,-0.4934912109375,0.0,0.0,0.0,0.0,0.0,0.0,-0.9424978401588286,0.0,0.0,0.0,0.0,0.0,0.0,-12.712,0.0,0.0,0.0
407,0.0,0.0,0.0,-0.4994287109375,0.0,0.0,0.0,0.0,0.0,0.0,-0.9424978401588286,0.0,0.0,0.0,0.0,0.0,0.0,-12.576,0.0,0.0,0.0
408,0.0,0.0,0.0,-0.5053662109375,0.0,0.0,0.0,0.0,0.0,0.0,-0.9424978401588286,0.0,0.0,0.0,0.0,0.0,0.0,-12.988,0.0,0.0,0.0
409,0.0,0.0,0.0,-0.5112939453125,0.0,0.0,0.0,0.0,0.0,0.0,-0.9424978401588286,0.0,0.0,0.0,0.0,0.0,0.0,-13.332,0.0,0.0,0.0
410,0.0,0.0,0.0,-0.5170869140625,0.0,0.0,0.0,0.0,0.0,0.0,-0.9424978401588286,0.0,0.0,0.0,0.0,0.0,0.0,-13.032,0.0,0.0,0.0
411,0.0,0.0,0.0,-0.5228798828125,0.0,0.0,0.0,0.0,0.0,0.0,-0.9424978401588286,0.0,0.0,0.0,0.0,0.0,0.0,-13.08,0.0,0.0,0.0
412,0.0,0.0,0.0,-0.528529296875,0.0,0.0,0.0,0.0,0.0,0.0,-0.9424978401588286,0.0,0.0,0.0,0.0,0.0,0.0,-13.012,0.0,0.0,0.0
413,0.0,0.0,0.0,-0.5343125,0.0,0.0,0.0,0.0,0.0,0.0,-0.9424978401588286,0.0,0.0,0.0,0.0,0.0,0.0,-12.692,0.0,0.0,0.0
414,0.0,0.0,0.0,-0.54025,0.0,0.0,0.0,0.0,0.0,0.0,-0.9424978401588286,0.0,0.0,0.0,0.0,0.0,0.0,-13.056,0.0,0.0,0.0
415,0.0,0.0,0.0,-0.5460341796875,0.0,0.0,0.0,0.0,0.0,0.0,-0.9424978401588286,0.0,0.0,0.0,0.0,0.0,0.0,-12.372,0.0,0.0,0.0
416,0.0,0.0,0.0,-0.5519716796875,0.0,0.0,0.0,0.0,0.0,0.0,-0.9424978401588286,0.0,0.0,0.0,0.0,0.0,0.0,-12.12,0.0,0.0,0.0
417,0.0,0.0,0.0,-0.55791796875,0.0,0.0,0.0,0.0,0.0,0.0,-0.9424978401588286,0.0,0.0,0.0,0.0,0.0,0.0,-12.304,0.0,0.0,0.0
418,0.0,0.0,0.0,-0.5637021484375,0.0,0.0,0.0,0.0,0.0,0.0,-0.9424978401588286,0.0,0.0,0.0,0.0,0.0,0.0,-12.324,0.0,0.0,0.0
419,0.0,0.0,0.0,-0.5697841796875,0.0,0.0,0.0,0.0,0.0,0.0,-0.9424978401588286,0.0,0.0,0.0,0.0,0.0,0.0,-12.692,0.0,0.0,0.0
420,0.0,0.0,0.0,-0.5757119140625,0.0,0.0,0.0,0.0,0.0,0.0,-0.9424978401588286,0.0,0.0,0.0,0.0,0.0,0.0,-12.944,0.0,0.0,0.0
421,0.0,0.0,0.0,-0.581361328125,0.0,0.0,0.0,0.0,0.0,0.0,-0.9424978401588286,0.0,0.0,0.0,0.0,0.0,0.0,-12.784,0.0,0.0,0.0
422,0.0,0.0,0.0,-0.5871455078125,0.0,0.0,0.0,0.0,0.0,0.0,-0.9424978401588286,0.0,0.0,0.0,0.0,0.0,0.0,-12.692,0.0,0.0,0.0
423,0.0,0.0,0.0,-0.592947265625,0.0,0.0,0.0,0.0,0.0,0.0,-0.9424978401588286,0.0,0.0,0.0,0.0,0.0,0.0,-12.392,0.0,0.0,0.0
424,0.0,0.0,0.0,-0.5987314453125,0.0,0.0,0.0,0.0,0.0,0.0,-0.9424978401588286,0.0,0.0,0.0,0.0,0.0,0.0,-12.188,0.0,0.0,0.0
425,0.0,0.0,0.0,-0.6046591796875,0.0,0.0,0.0,0.0,0.0,0.0,-0.9424978401588286,0.0,0.0,0.0,0.0,0.0,0.0,-12.232,0.0,0.0,0.0
426,0.0,0.0,0.0,-0.6104521484375,0.0,0.0,0.0,0.0,0.0,0.0,-0.9424978401588286,0.0,0.0,0.0,0.0,0.0,0.0,-11.708,0.0,0.0,0.0
427,0.0,0.0,0.0,-0.616380859375,0.0,0.0,0.0,0.0,0.0,0.0,-0.9424978401588286,0.0,0.0,0.0,0.0,0.0,0.0,-11.844,0.0,0.0,0.0
428,0.0,0.0,0.0,-0.622318359375,0.0,0.0,0.0,0.0,0.0,0.0,-0.9424978401588286,0.0,0.0,0.0,0.0,0.0,0.0,-11.912,0.0,0.0,0.0
429,0.0,0.0,0.0,-0.6281025390625,0.0,0.0,0.0,0.0,0.0,0.0,-0.9424978401588286,0.0,0.0,0.0,0.0,0.0,0.0,-12.004,0.0,0.0,0.0
430,0.0,0.0,0.0,-0.6399775390625,0.0,0.0,0.0,0.0,0.0,0.0,-0.9424978401588286,0.0,0.0,0.0,0.0,0.0,0.0,-12.304,0.0,0.0,0.0
431,0.0,0.0,0.0,-0.6399775390625,0.0,0.0,0.0,0.0,0.0,0.0,-0.9424978401588286,0.0,0.0,0.0,0.0,0.0,0.0,-12.304,0.0,0.0,0.0
432,0.0,0.0,0.0,-0.6457705078125,0.0,0.0,0.0,0.0,0.0,0.0,-0.9424978401588286,0.0,0.0,0.0,0.0,0.0,0.0,-12.232,0.0,0.0,0.0
433,0.0,0.0,0.0,-0.6515546875,0.0,0.0,0.0,0.0,0.0,0.0,-0.9424978401588286,0.0,0.0,0.0,0.0,0.0,0.0,-12.188,0.0,0.0,0.0
434,0.0,0.0,0.0,-0.6571943359375,0.0,0.0,0.0,0.0,0.0,0.0,-0.9424978401588286,0.0,0.0,0.0,0.0,0.0,0.0,-11.82,0.0,0.0,0.0
435,0.0,0.0,0.0,-0.6629873046875,0.0,0.0,0.0,0.0,0.0,0.0,-0.9424978401588286,0.0,0.0,0.0,0.0,0.0,0.0,-11.82,0.0,0.0,0.0
436,0.0,0.0,0.0,-0.6689150390625,0.0,0.0,0.0,0.0,0.0,0.0,-0.9424978401588286,0.0,0.0,0.0,0.0,0.0,0.0,-11.684,0.0,0.0,0.0
437,0.0,0.0,0.0,-0.6747080078125,0.0,0.0,0.0,0.0,0.0,0.0,-0.9424978401588286,0.0,0.0,0.0,0.0,0.0,0.0,-11.112,0.0,0.0,0.0
438,0.0,0.0,0.0,-0.6806455078125,0.0,0.0,0.0,0.0,0.0,0.0,-0.9424978401588286,0.0,0.0,0.0,0.0,0.0,0.0,-11.432,0.0,0.0,0.0
439,0.0,0.0,0.0,-0.68657421875,0.0,0.0,0.0,0.0,0.0,0.0,-0.9424978401588286,0.0,0.0,0.0,0.0,0.0,0.0,-11.388,0.0,0.0,0.0
440,0.0,0.0,0.0,-0.69251171875,0.0,0.0,0.0,0.0,0.0,0.0,-0.9424978401588286,0.0,0.0,0.0,0.0,0.0,0.0,-11.48,0.0,0.0,0.0
441,0.0,0.0,0.0,-0.698439453125,0.0,0.0,0.0,0.0,0.0,0.0,-0.9424978401588286,0.0,0.0,0.0,0.0,0.0,0.0,-12.052,0.0,0.0,0.0
442,0.0,0.0,0.0,-0.7042236328125,0.0,0.0,0.0,0.0,0.0,0.0,-0.9424978401588286,0.0,0.0,0.0,0.0,0.0,0.0,-11.732,0.0,0.0,0.0
443,0.0,0.0,0.0,-0.7100166015625,0.0,0.0,0.0,0.0,0.0,0.0,-0.9424978401588286,0.0,0.0,0.0,0.0,0.0,0.0,-11.708,0.0,0.0,0.0
444,0.0,0.0,0.0,-0.71580078125,0.0,0.0,0.0,0.0,0.0,0.0,-0.9424978401588286,0.0,0.0,0.0,0.0,0.0,0.0,-11.572,0.0,0.0,0.0
445,0.0,0.0,0.0,-0.72144921875,0.0,0.0,0.0,0.0,0.0,0.0,-0.9424978401588286,0.0,0.0,0.0,0.0,0.0,0.0,-11.412,0.0,0.0,0.0
446,0.0,0.0,0.0,-0.72738671875,0.0,0.0,0.0,0.0,0.0,0.0,-0.9424978401588286,0.0,0.0,0.0,0.0,0.0,0.0,-11.48,0.0,0.0,0.0
447,0.0,0.0,0.0,-0.7331708984375,0.0,0.0,0.0,0.0,0.0,0.0,-0.9424978401588286,0.0,0.0,0.0,0.0,0.0,0.0,-10.952,0.0,0.0,0.0
448,0.0,0.0,0.0,-0.738955078125,0.0,0.0,0.0,0.0,0.0,0.0,-0.9424978401588286,0.0,0.0,0.0,0.0,0.0,0.0,-10.632,0.0,0.0,0.0
449,0.0,0.0,0.0,-0.7450283203125,0.0,0.0,0.0,0.0,0.0,0.0,-0.9424978401588286,0.0,0.0,0.0,0.0,0.0,0.0,-10.884,0.0,0.0,0.0
450,0.0,0.0,0.0,-0.7508212890625,0.0,0.0,0.0,0.0,0.0,0.0,-0.9424978401588286,0.0,0.0,0.0,0.0,0.0,0.0,-10.84,0.0,0.0,0.0
451,0.0,0.0,0.0,-0.7568935546875,0.0,0.0,0.0,0.0,0.0,0.0,-0.9424978401588286,0.0,0.0,0.0,0.0,0.0,0.0,-11.112,0.0,0.0,0.0
452,0.0,0.0,0.0,-0.762677734375,0.0,0.0,0.0,0.0,0.0,0.0,-0.9424978401588286,0.0,0.0,0.0,0.0,0.0,0.0,-11.34,0.0,0.0,0.0
453,0.0,0.0,0.0,-0.7686064453125,0.0,0.0,0.0,0.0,0.0,0.0,-0.9424978401588286,0.0,0.0,0.0,0.0,0.0,0.0,-11.02,0.0,0.0,0.0
454,0.0,0.0,0.0,-0.774408203125,0.0,0.0,0.0,0.0,0.0,0.0,-0.9424978401588286,0.0,0.0,0.0,0.0,0.0,0.0,-10.952,0.0,0.0,0.0
455,0.0,0.0,0.0,-0.7801923828125,0.0,0.0,0.0,0.0,0.0,0.0,-0.9424978401588286,0.0,0.0,0.0,0.0,0.0,0.0,-10.84,0.0,0.0,0.0
456,0.0,0.0,0.0,-0.7859765625,0.0,0.0,0.0,0.0,0.0,0.0,-0.9424978401588286,0.0,0.0,0.0,0.0,0.0,0.0,-10.68,0.0,0.0,0.0
457,0.0,0.0,0.0,-0.791759765625,0.0,0.0,0.0,0.0,0.0,0.0,-0.9424978401588286,0.0,0.0,0.0,0.0,0.0,0.0,-10.748,0.0,0.0,0.0
458,0.0,0.0,0.0,-0.797552734375,0.0,0.0,0.0,0.0,0.0,0.0,-0.9424978401588286,0.0,0.0,0.0,0.0,0.0,0.0,-10.084,0.0,0.0,0.0
459,0.0,0.0,0.0,-0.8034814453125,0.0,0.0,0.0,0.0,0.0,0.0,-0.9424978401588286,0.0,0.0,0.0,0.0,0.0,0.0,-10.336,0.0,0.0,0.0
460,0.0,0.0,0.0,-0.80941015625,0.0,0.0,0.0,0.0,0.0,0.0,-0.9424978401588286,0.0,0.0,0.0,0.0,0.0,0.0,-10.448,0.0,0.0,0.0
461,0.0,0.0,0.0,-0.815337890625,0.0,0.0,0.0,0.0,0.0,0.0,-0.9424978401588286,0.0,0.0,0.0,0.0,0.0,0.0,-10.404,0.0,0.0,0.0
462,0.0,0.0,0.0,-0.8212666015625,0.0,0.0,0.0,0.0,0.0,0.0,-0.9424978401588286,0.0,0.0,0.0,0.0,0.0,0.0,-10.588,0.0,0.0,0.0
463,0.0,0.0,0.0,-0.82705078125,0.0,0.0,0.0,0.0,0.0,0.0,-0.9424978401588286,0.0,0.0,0.0,0.0,0.0,0.0,-10.656,0.0,0.0,0.0
464,0.0,0.0,0.0,-0.8328525390625,0.0,0.0,0.0,0.0,0.0,0.0,-0.9424978401588286,0.0,0.0,0.0,0.0,0.0,0.0,-10.564,0.0,0.0,0.0
465,0.0,0.0,0.0,-0.83863671875,0.0,0.0,0.0,0.0,0.0,0.0,-0.9424978401588286,0.0,0.0,0.0,0.0,0.0,0.0,-10.448,0.0,0.0,0.0
466,0.0,0.0,0.0,-0.850205078125,0.0,0.0,0.0,0.0,0.0,0.0,-0.9424978401588286,0.0,0.0,0.0,0.0,0.0,0.0,-10.036,0.0,0.0,0.0
467,0.0,0.0,0.0,-0.850205078125,0.0,0.0,0.0,0.0,0.0,0.0,-0.9424978401588286,0.0,0.0,0.0,0.0,0.0,0.0,-10.036,0.0,0.0,0.0
468,0.0,0.0,0.0,-0.8559892578125,0.0,0.0,0.0,0.0,0.0,0.0,-0.9424978401588286,0.0,0.0,0.0,0.0,0.0,0.0,-10.036,0.0,0.0,0.0
469,0.0,0.0,0.0,-0.8617724609375,0.0,0.0,0.0,0.0,0.0,0.0,-0.9424978401588286,0.0,0.0,0.0,0.0,0.0,0.0,-9.396,0.0,0.0,0.0
470,0.0,0.0,0.0,-0.867556640625,0.0,0.0,0.0,0.0,0.0,0.0,-0.9424978401588286,0.0,0.0,0.0,0.0,0.0,0.0,-9.716,0.0,0.0,0.0
471,0.0,0.0,0.0,-0.8734853515625,0.0,0.0,0.0,0.0,0.0,0.0,-0.9424978401588286,0.0,0.0,0.0,0.0,0.0,0.0,-9.924,0.0,0.0,0.0
472,0.0,0.0,0.0,-0.8794140625,0.0,0.0,0.0,0.0,0.0,0.0,-0.9424978401588286,0.0,0.0,0.0,0.0,0.0,0.0,-9.808,0.0,0.0,0.0
473,0.0,0.0,0.0,-0.885341796875,0.0,0.0,0.0,0.0,0.0,0.0,-0.9424978401588286,0.0,0.0,0.0,0.0,0.0,0.0,-10.016,0.0,0.0,0.0
474,0.0,0.0,0.0,-0.891279296875,0.0,0.0,0.0,0.0,0.0,0.0,-0.9424978401588286,0.0,0.0,0.0,0.0,0.0,0.0,-9.948,0.0,0.0,0.0
475,0.0,0.0,0.0,-0.8970634765625,0.0,0.0,0.0,0.0,0.0,0.0,-0.9424978401588286,0.0,0.0,0.0,0.0,0.0,0.0,-9.924,0.0,0.0,0.0
476,0.0,0.0,0.0,-0.90284765625,0.0,0.0,0.0,0.0,0.0,0.0,0.598971925419753,0.0,0.0,0.0,0.0,0.0,0.0,-9.716,0.0,0.0,0.0
477,0.0,0.0,0.0,-0.90849609375,0.0,0.0,0.0,0.0,0.0,0.0,0.598971925419753,0.0,0.0,0.0,0.0,0.0,0.0,-9.536,0.0,0.0,0.0
478,0.0,0.0,0.0,-0.9144248046875,0.0,0.0,0.0,0.0,0.0,0.0,0.598971925419753,0.0,0.0,0.0,0.0,0.0,0.0,-9.536,0.0,0.0,0.0
479,0.0,0.0,0.0,-0.919775390625,0.0,0.0,0.0,0.0,0.0,0.0,0.598971925419753,0.0,0.0,0.0,0.0,0.0,0.0,-7.82,0.0,0.0,0.0
480,0.0,0.0,0.0,-0.9223740234375,0.0,0.0,0.0,0.0,0.0,0.0,0.598971925419753,0.0,0.0,0.0,0.0,0.0,0.0,-2.172,0.0,0.0,0.0
481,0.0,0.0,0.0,-0.9222294921875,0.0,0.0,0.0,0.0,0.0,0.0,0.598971925419753,0.0,0.0,0.0,0.0,0.0,0.0,0.16,0.0,0.0,0.0
482,0.0,0.0,0.0,-0.9210751953125,0.0,0.0,0.0,0.0,0.0,0.0,0.598971925419753,0.0,0.0,0.0,0.0,0.0,0.0,0.548,0.0,0.0,0.0
483,0.0,0.0,0.0,-0.9177451171875,0.0,0.0,0.0,0.0,0.0,0.0,0.598971925419753,0.0,0.0,0.0,0.0,0.0,0.0,-0.592,0.0,0.0,0.0
484,0.0,0.0,0.0,-0.91355859375,0.0,0.0,0.0,0.0,0.0,0.0,0.598971925419753,0.0,0.0,0.0,0.0,0.0,0.0,-1.644,0.0,0.0,0.0
485,0.0,0.0,0.0,-0.9092177734375,0.0,0.0,0.0,0.0,0.0,0.0,0.598971925419753,0.0,0.0,0.0,0.0,0.0,0.0,-0.432,0.0,0.0,0.0
486,0.0,0.0,0.0,-0.9034248046875,0.0,0.0,0.0,0.0,0.0,0.0,0.598971925419753,0.0,0.0,0.0,0.0,0.0,0.0,-0.708,0.0,0.0,0.0
487,0.0,0.0,0.0,-0.8970634765625,0.0,0.0,0.0,0.0,0.0,0.0,0.598971925419753,0.0,0.0,0.0,0.0,0.0,0.0,-0.66,0.0,0.0,0.0
488,0.0,0.0,0.0,-0.8896826171875,0.0,0.0,0.0,0.0,0.0,0.0,0.598971925419753,0.0,0.0,0.0,0.0,0.0,0.0,0.228,0.0,0.0,0.0
489,0.0,0.0,0.0,-0.8810107421875,0.0,0.0,0.0,0.0,0.0,0.0,0.598971925419753,0.0,0.0,0.0,0.0,0.0,0.0,-0.592,0.0,0.0,0.0
490,0.0,0.0,0.0,-0.8730517578125,0.0,0.0,0.0,0.0,0.0,0.0,0.598971925419753,0.0,0.0,0.0,0.0,0.0,0.0,-4.024,0.0,0.0,0.0
491,0.0,0.0,0.0,-0.8653916015625,0.0,0.0,0.0,0.0,0.0,0.0,0.598971925419753,0.0,0.0,0.0,0.0,0.0,0.0,-5.716,0.0,0.0,0.0
492,0.0,0.0,0.0,-0.85656640625,0.0,0.0,0.0,0.0,0.0,0.0,0.598971925419753,0.0,0.0,0.0,0.0,0.0,0.0,-4.96,0.0,0.0,0.0
493,0.0,0.0,0.0,-0.8478857421875,0.0,0.0,0.0,0.0,0.0,0.0,0.598971925419753,0.0,0.0,0.0,0.0,0.0,0.0,-5.464,0.0,0.0,0.0
494,0.0,0.0,0.0,-0.840080078125,0.0,0.0,0.0,0.0,0.0,0.0,0.598971925419753,0.0,0.0,0.0,0.0,0.0,0.0,-7.684,0.0,0.0,0.0
495,0.0,0.0,0.0,-0.831400390625,0.0,0.0,0.0,0.0,0.0,0.0,0.598971925419753,0.0,0.0,0.0,0.0,0.0,0.0,-9.9,0.0,0.0,0.0
496,0.0,0.0,0.0,-0.8221328125,0.0,0.0,0.0,0.0,0.0,0.0,0.598971925419753,0.0,0.0,0.0,0.0,0.0,0.0,-9.376,0.0,0.0,0.0
497,0.0,0.0,0.0,-0.81375,0.0,0.0,0.0,0.0,0.0,0.0,0.598971925419753,0.0,0.0,0.0,0.0,0.0,0.0,-10.564,0.0,0.0,0.0
498,0.0,0.0,0.0,-0.806513671875,0.0,0.0,0.0,0.0,0.0,0.0,0.598971925419753,0.0,0.0,0.0,0.0,0.0,0.0,-12.576,0.0,0.0,0.0
499,0.0,0.0,0.0,-0.7987080078125,0.0,0.0,0.0,0.0,0.0,0.0,0.598971925419753,0.0,0.0,0.0,0.0,0.0,0.0,-11.34,0.0,0.0,0.0
500,0.0,0.0,0.0,-0.79060546875,0.0,0.0,0.0,0.0,0.0,0.0,0.598971925419753,0.0,0.0,0.0,0.0,0.0,0.0,-10.952,0.0,0.0,0.0
501,0.0,0.0,0.0,-0.783666015625,0.0,0.0,0.0,0.0,0.0,0.0,0.598971925419753,0.0,0.0,0.0,0.0,0.0,0.0,-13.124,0.0,0.0,0.0
502,0.0,0.0,0.0,-0.7768623046875,0.0,0.0,0.0,0.0,0.0,0.0,0.598971925419753,0.0,0.0,0.0,0.0,0.0,0.0,-14.452,0.0,0.0,0.0
503,0.0,0.0,0.0,-0.769490234375,0.0,0.0,0.0,0.0,0.0,0.0,0.598971925419753,0.0,0.0,0.0,0.0,0.0,0.0,-14.496,0.0,0.0,0.0
504,0.0,0.0,0.0,-0.762533203125,0.0,0.0,0.0,0.0,0.0,0.0,0.598971925419753,0.0,0.0,0.0,0.0,0.0,0.0,-13.192,0.0,0.0,0.0
505,0.0,0.0,0.0,-0.7558828125,0.0,0.0,0.0,0.0,0.0,0.0,0.598971925419753,0.0,0.0,0.0,0.0,0.0,0.0,-14.612,0.0,0.0,0.0
506,0.0,0.0,0.0,-0.74980078125,0.0,0.0,0.0,0.0,0.0,0.0,0.598971925419753,0.0,0.0,0.0,0.0,0.0,0.0,-14.84,0.0,0.0,0.0
507,0.0,0.0,0.0,-0.743439453125,0.0,0.0,0.0,0.0,0.0,0.0,0.598971925419753,0.0,0.0,0.0,0.0,0.0,0.0,-13.468,0.0,0.0,0.0
508,0.0,0.0,0.0,-0.7366455078125,0.0,0.0,0.0,0.0,0.0,0.0,0.598971925419753,0.0,0.0,0.0,0.0,0.0,0.0,-13.032,0.0,0.0,0.0
509,0.0,0.0,0.0,-0.7305634765625,0.0,0.0,0.0,0.0,0.0,0.0,0.598971925419753,0.0,0.0,0.0,0.0,0.0,0.0,-14.568,0.0,0.0,0.0
510,0.0,0.0,0.0,-0.7255009765625,0.0,0.0,0.0,0.0,0.0,0.0,0.598971925419753,0.0,0.0,0.0,0.0,0.0,0.0,-15.092,0.0,0.0,0.0
511,0.0,0.0,0.0,-0.720294921875,0.0,0.0,0.0,0.0,0.0,0.0,0.598971925419753,0.0,0.0,0.0,0.0,0.0,0.0,-12.964,0.0,0.0,0.0
512,0.0,0.0,0.0,-0.714357421875,0.0,0.0,0.0,0.0,0.0,0.0,0.598971925419753,0.0,0.0,0.0,0.0,0.0,0.0,-12.552,0.0,0.0,0.0
513,0.0,0.0,0.0,-0.708708984375,0.0,0.0,0.0,0.0,0.0,0.0,0.598971925419753,0.0,0.0,0.0,0.0,0.0,0.0,-12.644,0.0,0.0,0.0
514,0.0,0.0,0.0,-0.703501953125,0.0,0.0,0.0,0.0,0.0,0.0,0.598971925419753,0.0,0.0,0.0,0.0,0.0,0.0,-12.988,0.0,0.0,0.0
515,0.0,0.0,0.0,-0.698583984375,0.0,0.0,0.0,0.0,0.0,0.0,0.598971925419753,0.0,0.0,0.0,0.0,0.0,0.0,-12.712,0.0,0.0,0.0
516,0.0,0.0,0.0,-0.6878828125,0.0,0.0,0.0,0.0,0.0,0.0,0.598971925419753,0.0,0.0,0.0,0.0,0.0,0.0,-11.296,0.0,0.0,0.0
517,0.0,0.0,0.0,-0.6878828125,0.0,0.0,0.0,0.0,0.0,0.0,0.598971925419753,0.0,0.0,0.0,0.0,0.0,0.0,-11.296,0.0,0.0,0.0
518,0.0,0.0,0.0,-0.6829560546875,0.0,0.0,0.0,0.0,0.0,0.0,0.598971925419753,0.0,0.0,0.0,0.0,0.0,0.0,-10.748,0.0,0.0,0.0
519,0.0,0.0,0.0,-0.6780380859375,0.0,0.0,0.0,0.0,0.0,0.0,0.598971925419753,0.0,0.0,0.0,0.0,0.0,0.0,-10.608,0.0,0.0,0.0
520,0.0,0.0,0.0,-0.6731201171875,0.0,0.0,0.0,0.0,0.0,0.0,0.598971925419753,0.0,0.0,0.0,0.0,0.0,0.0,-10.792,0.0,0.0,0.0
521,0.0,0.0,0.0,-0.668048828125,0.0,0.0,0.0,0.0,0.0,0.0,0.598971925419753,0.0,0.0,0.0,0.0,0.0,0.0,-11.272,0.0,0.0,0.0
522,0.0,0.0,0.0,-0.663130859375,0.0,0.0,0.0,0.0,0.0,0.0,0.598971925419753,0.0,0.0,0.0,0.0,0.0,0.0,-11.432,0.0,0.0,0.0
523,0.0,0.0,0.0,-0.6580693359375,0.0,0.0,0.0,0.0,0.0,0.0,0.598971925419753,0.0,0.0,0.0,0.0,0.0,0.0,-10.52,0.0,0.0,0.0
524,0.0,0.0,0.0,-0.652998046875,0.0,0.0,0.0,0.0,0.0,0.0,0.598971925419753,0.0,0.0,0.0,0.0,0.0,0.0,-10.176,0.0,0.0,0.0
525,0.0,0.0,0.0,-0.6476474609375,0.0,0.0,0.0,0.0,0.0,0.0,0.598971925419753,0.0,0.0,0.0,0.0,0.0,0.0,-10.952,0.0,0.0,0.0
526,0.0,0.0,0.0,-0.6421513671875,0.0,0.0,0.0,0.0,0.0,0.0,0.598971925419753,0.0,0.0,0.0,0.0,0.0,0.0,-11.388,0.0,0.0,0.0
527,0.0,0.0,0.0,-0.6369365234375,0.0,0.0,0.0,0.0,0.0,0.0,0.598971925419753,0.0,0.0,0.0,0.0,0.0,0.0,-11.112,0.0,0.0,0.0
528,0.0,0.0,0.0,-0.6315849609375,0.0,0.0,0.0,0.0,0.0,0.0,0.598971925419753,0.0,0.0,0.0,0.0,0.0,0.0,-10.128,0.0,0.0,0.0
529,0.0,0.0,0.0,-0.6257919921875,0.0,0.0,0.0,0.0,0.0,0.0,0.598971925419753,0.0,0.0,0.0,0.0,0.0,0.0,-9.58,0.0,0.0,0.0
530,0.0,0.0,0.0,-0.6198544921875,0.0,0.0,0.0,0.0,0.0,0.0,0.598971925419753,0.0,0.0,0.0,0.0,0.0,0.0,-10.268,0.0,0.0,0.0
531,0.0,0.0,0.0,-0.61421484375,0.0,0.0,0.0,0.0,0.0,0.0,0.598971925419753,0.0,0.0,0.0,0.0,0.0,0.0,-11.044,0.0,0.0,0.0
532,0.0,0.0,0.0,-0.6087109375,0.0,0.0,0.0,0.0,0.0,0.0,0.598971925419753,0.0,0.0,0.0,0.0,0.0,0.0,-10.86,0.0,0.0,0.0
533,0.0,0.0,0.0,-0.6029267578125,0.0,0.0,0.0,0.0,0.0,0.0,0.598971925419753,0.0,0.0,0.0,0.0,0.0,0.0,-10.768,0.0,0.0,0.0
534,0.0,0.0,0.0,-0.597142578125,0.0,0.0,0.0,0.0,0.0,0.0,0.598971925419753,0.0,0.0,0.0,0.0,0.0,0.0,-10.608,0.0,0.0,0.0
535,0.0,0.0,0.0,-0.5912060546875,0.0,0.0,0.0,0.0,0.0,0.0,0.598971925419753,0.0,0.0,0.0,0.0,0.0,0.0,-11.044,0.0,0.0,0.0
536,0.0,0.0,0.0,-0.5851240234375,0.0,0.0,0.0,0.0,0.0,0.0,0.598971925419753,0.0,0.0,0.0,0.0,0.0,0.0,-11.752,0.0,0.0,0.0
537,0.0,0.0,0.0,-0.5790419921875,0.0,0.0,0.0,0.0,0.0,0.0,0.598971925419753,0.0,0.0,0.0,0.0,0.0,0.0,-12.324,0.0,0.0,0.0
538,0.0,0.0,0.0,-0.5728154296875,0.0,0.0,0.0,0.0,0.0,0.0,0.598971925419753,0.0,0.0,0.0,0.0,0.0,0.0,-12.028,0.0,0.0,0.0
539,0.0,0.0,0.0,-0.5665986328125,0.0,0.0,0.0,0.0,0.0,0.0,0.598971925419753,0.0,0.0,0.0,0.0,0.0,0.0,-11.48,0.0,0.0,0.0
540,0.0,0.0,0.0,-0.5605166015625,0.0,0.0,0.0,0.0,0.0,0.0,0.598971925419753,0.0,0.0,0.0,0.0,0.0,0.0,-11.364,0.0,0.0,0.0
541,0.0,0.0,0.0,-0.5545888671875,0.0,0.0,0.0,0.0,0.0,0.0,0.598971925419753,0.0,0.0,0.0,0.0,0.0,0.0,-11.82,0.0,0.0,0.0
542,0.0,0.0,0.0,-0.548353515625,0.0,0.0,0.0,0.0,0.0,0.0,0.598971925419753,0.0,0.0,0.0,0.0,0.0,0.0,-12.212,0.0,0.0,0.0
543,0.0,0.0,0.0,-0.542126953125,0.0,0.0,0.0,0.0,0.0,0.0,0.598971925419753,0.0,0.0,0.0,0.0,0.0,0.0,-12.096,0.0,0.0,0.0
544,0.0,0.0,0.0,-0.53619921875,0.0,0.0,0.0,0.0,0.0,0.0,0.598971925419753,0.0,0.0,0.0,0.0,0.0,0.0,-12.508,0.0,0.0,0.0
545,0.0,0.0,0.0,-0.5301171875,0.0,0.0,0.0,0.0,0.0,0.0,0.598971925419753,0.0,0.0,0.0,0.0,0.0,0.0,-12.736,0.0,0.0,0.0
546,0.0,0.0,0.0,-0.5240439453125,0.0,0.0,0.0,0.0,0.0,0.0,0.598971925419753,0.0,0.0,0.0,0.0,0.0,0.0,-13.444,0.0,0.0,0.0
547,0.0,0.0,0.0,-0.517953125,0.0,0.0,0.0,0.0,0.0,0.0,0.598971925419753,0.0,0.0,0.0,0.0,0.0,0.0,-13.584,0.0,0.0,0.0
548,0.0,0.0,0.0,-0.5117275390625,0.0,0.0,0.0,0.0,0.0,0.0,0.598971925419753,0.0,0.0,0.0,0.0,0.0,0.0,-12.668,0.0,0.0,0.0
549,0.0,0.0,0.0,-0.505654296875,0.0,0.0,0.0,0.0,0.0,0.0,0.598971925419753,0.0,0.0,0.0,0.0,0.0,0.0,-12.484,0.0,0.0,0.0
550,0.0,0.0,0.0,-0.4994287109375,0.0,0.0,0.0,0.0,0.0,0.0,0.598971925419753,0.0,0.0,0.0,0.0,0.0,0.0,-12.736,0.0,0.0,0.0
551,0.0,0.0,0.0,-0.4936357421875,0.0,0.0,0.0,0.0,0.0,0.0,0.598971925419753,0.0,0.0,0.0,0.0,0.0,0.0,-12.944,0.0,0.0,0.0
552,0.0,0.0,0.0,-0.48799609375,0.0,0.0,0.0,0.0,0.0,0.0,0.598971925419753,0.0,0.0,0.0,0.0,0.0,0.0,-13.124,0.0,0.0,0.0
553,0.0,0.0,0.0,-0.482048828125,0.0,0.0,0.0,0.0,0.0,0.0,0.598971925419753,0.0,0.0,0.0,0.0,0.0,0.0,-12.372,0.0,0.0,0.0
554,0.0,0.0,0.0,-0.4706162109375,0.0,0.0,0.0,0.0,0.0,0.0,0.598971925419753,0.0,0.0,0.0,0.0,0.0,0.0,-12.712,0.0,0.0,0.0
555,0.0,0.0,0.0,-0.4706162109375,0.0,0.0,0.0,0.0,0.0,0.0,0.598971925419753,0.0,0.0,0.0,0.0,0.0,0.0,-12.712,0.0,0.0,0.0
556,0.0,0.0,0.0,-0.4648330078125,0.0,0.0,0.0,0.0,0.0,0.0,0.598971925419753,0.0,0.0,0.0,0.0,0.0,0.0,-13.536,0.0,0.0,0.0
557,0.0,0.0,0.0,-0.4588955078125,0.0,0.0,0.0,0.0,0.0,0.0,0.598971925419753,0.0,0.0,0.0,0.0,0.0,0.0,-14.132,0.0,0.0,0.0
558,0.0,0.0,0.0,-0.45294921875,0.0,0.0,0.0,0.0,0.0,0.0,0.598971925419753,0.0,0.0,0.0,0.0,0.0,0.0,-13.356,0.0,0.0,0.0
559,0.0,0.0,0.0,-0.4473095703125,0.0,0.0,0.0,0.0,0.0,0.0,0.598971925419753,0.0,0.0,0.0,0.0,0.0,0.0,-12.348,0.0,0.0,0.0
560,0.0,0.0,0.0,-0.44166015625,0.0,0.0,0.0,0.0,0.0,0.0,0.598971925419753,0.0,0.0,0.0,0.0,0.0,0.0,-12.212,0.0,0.0,0.0
561,0.0,0.0,0.0,-0.43572265625,0.0,0.0,0.0,0.0,0.0,0.0,0.598971925419753,0.0,0.0,0.0,0.0,0.0,0.0,-12.416,0.0,0.0,0.0
562,0.0,0.0,0.0,-0.4302275390625,0.0,0.0,0.0,0.0,0.0,0.0,0.598971925419753,0.0,0.0,0.0,0.0,0.0,0.0,-12.532,0.0,0.0,0.0
563,0.0,0.0,0.0,-0.42442578125,0.0,0.0,0.0,0.0,0.0,0.0,0.598971925419753,0.0,0.0,0.0,0.0,0.0,0.0,-12.576,0.0,0.0,0.0
564,0.0,0.0,0.0,-0.4189306640625,0.0,0.0,0.0,0.0,0.0,0.0,0.598971925419753,0.0,0.0,0.0,0.0,0.0,0.0,-11.98,0.0,0.0,0.0
565,0.0,0.0,0.0,-0.41342578125,0.0,0.0,0.0,0.0,0.0,0.0,0.598971925419753,0.0,0.0,0.0,0.0,0.0,0.0,-12.692,0.0,0.0,0.0
566,0.0,0.0,0.0,-0.4076328125,0.0,0.0,0.0,0.0,0.0,0.0,0.598971925419753,0.0,0.0,0.0,0.0,0.0,0.0,-12.736,0.0,0.0,0.0
567,0.0,0.0,0.0,-0.4019931640625,0.0,0.0,0.0,0.0,0.0,0.0,0.598971925419753,0.0,0.0,0.0,0.0,0.0,0.0,-13.584,0.0,0.0,0.0
568,0.0,0.0,0.0,-0.3960556640625,0.0,0.0,0.0,0.0,0.0,0.0,0.598971925419753,0.0,0.0,0.0,0.0,0.0,0.0,-13.924,0.0,0.0,0.0
569,0.0,0.0,0.0,-0.390109375,0.0,0.0,0.0,0.0,0.0,0.0,0.598971925419753,0.0,0.0,0.0,0.0,0.0,0.0,-13.24,0.0,0.0,0.0
570,0.0,0.0,0.0,-0.3843251953125,0.0,0.0,0.0,0.0,0.0,0.0,0.598971925419753,0.0,0.0,0.0,0.0,0.0,0.0,-12.736,0.0,0.0,0.0
571,0.0,0.0,0.0,-0.378388671875,0.0,0.0,0.0,0.0,0.0,0.0,0.598971925419753,0.0,0.0,0.0,0.0,0.0,0.0,-12.712,0.0,0.0,0.0
572,0.0,0.0,0.0,-0.372595703125,0.0,0.0,0.0,0.0,0.0,0.0,0.598971925419753,0.0,0.0,0.0,0.0,0.0,0.0,-12.872,0.0,0.0,0.0
573,0.0,0.0,0.0,-0.3668017578125,0.0,0.0,0.0,0.0,0.0,0.0,0.598971925419753,0.0,0.0,0.0,0.0,0.0,0.0,-12.828,0.0,0.0,0.0
574,0.0,0.0,0.0,-0.3610087890625,0.0,0.0,0.0,0.0,0.0,0.0,0.598971925419753,0.0,0.0,0.0,0.0,0.0,0.0,-12.668,0.0,0.0,0.0
575,0.0,0.0,0.0,-0.3552158203125,0.0,0.0,0.0,0.0,0.0,0.0,0.598971925419753,0.0,0.0,0.0,0.0,0.0,0.0,-12.532,0.0,0.0,0.0
576,0.0,0.0,0.0,-0.3494228515625,0.0,0.0,0.0,0.0,0.0,0.0,0.598971925419753,0.0,0.0,0.0,0.0,0.0,0.0,-13.148,0.0,0.0,0.0
577,0.0,0.0,0.0,-0.3376923828125,0.0,0.0,0.0,0.0,0.0,0.0,0.598971925419753,0.0,0.0,0.0,0.0,0.0,0.0,-14.268,0.0,0.0,0.0
578,0.0,0.0,0.0,-0.3376923828125,0.0,0.0,0.0,0.0,0.0,0.0,0.598971925419753,0.0,0.0,0.0,0.0,0.0,0.0,-14.268,0.0,0.0,0.0
579,0.0,0.0,0.0,-0.3317548828125,0.0,0.0,0.0,0.0,0.0,0.0,0.598971925419753,0.0,0.0,0.0,0.0,0.0,0.0,-14.384,0.0,0.0,0.0
580,0.0,0.0,0.0,-0.325673828125,0.0,0.0,0.0,0.0,0.0,0.0,0.598971925419753,0.0,0.0,0.0,0.0,0.0,0.0,-13.216,0.0,0.0,0.0
581,0.0,0.0,0.0,-0.3197451171875,0.0,0.0,0.0,0.0,0.0,0.0,0.598971925419753,0.0,0.0,0.0,0.0,0.0,0.0,-13.284,0.0,0.0,0.0
582,0.0,0.0,0.0,-0.3138076171875,0.0,0.0,0.0,0.0,0.0,0.0,0.598971925419753,0.0,0.0,0.0,0.0,0.0,0.0,-13.08,0.0,0.0,0.0
583,0.0,0.0,0.0,-0.307861328125,0.0,0.0,0.0,0.0,0.0,0.0,0.598971925419753,0.0,0.0,0.0,0.0,0.0,0.0,-13.264,0.0,0.0,0.0
584,0.0,0.0,0.0,-0.302212890625,0.0,0.0,0.0,0.0,0.0,0.0,0.598971925419753,0.0,0.0,0.0,0.0,0.0,0.0,-13.284,0.0,0.0,0.0
585,0.0,0.0,0.0,-0.2964287109375,0.0,0.0,0.0,0.0,0.0,0.0,0.598971925419753,0.0,0.0,0.0,0.0,0.0,0.0,-12.508,0.0,0.0,0.0
586,0.0,0.0,0.0,-0.2906357421875,0.0,0.0,0.0,0.0,0.0,0.0,0.598971925419753,0.0,0.0,0.0,0.0,0.0,0.0,-12.988,0.0,0.0,0.0
587,0.0,0.0,0.0,-0.2848330078125,0.0,0.0,0.0,0.0,0.0,0.0,0.598971925419753,0.0,0.0,0.0,0.0,0.0,0.0,-13.492,0.0,0.0,0.0
588,0.0,0.0,0.0,-0.278896484375,0.0,0.0,0.0,0.0,0.0,0.0,0.598971925419753,0.0,0.0,0.0,0.0,0.0,0.0,-13.996,0.0,0.0,0.0
589,0.0,0.0,0.0,-0.2732568359375,0.0,0.0,0.0,0.0,0.0,0.0,0.598971925419753,0.0,0.0,0.0,0.0,0.0,0.0,-14.588,0.0,0.0,0.0
590,0.0,0.0,0.0,-0.2671748046875,0.0,0.0,0.0,0.0,0.0,0.0,0.598971925419753,0.0,0.0,0.0,0.0,0.0,0.0,-14.064,0.0,0.0,0.0
591,0.0,0.0,0.0,-0.261083984375,0.0,0.0,0.0,0.0,0.0,0.0,0.598971925419753,0.0,0.0,0.0,0.0,0.0,0.0,-13.444,0.0,0.0,0.0
592,0.0,0.0,0.0,-0.255291015625,0.0,0.0,0.0,0.0,0.0,0.0,0.598971925419753,0.0,0.0,0.0,0.0,0.0,0.0,-13.4,0.0,0.0,0.0
593,0.0,0.0,0.0,-0.249353515625,0.0,0.0,0.0,0.0,0.0,0.0,0.598971925419753,0.0,0.0,0.0,0.0,0.0,0.0,-13.424,0.0,0.0,0.0
594,0.0,0.0,0.0,-0.243560546875,0.0,0.0,0.0,0.0,0.0,0.0,0.598971925419753,0.0,0.0,0.0,0.0,0.0,0.0,-13.4,0.0,0.0,0.0
595,0.0,0.0,0.0,-0.2377763671875,0.0,0.0,0.0,0.0,0.0,0.0,0.598971925419753,0.0,0.0,0.0,0.0,0.0,0.0,-13.356,0.0,0.0,0.0
596,0.0,0.0,0.0,-0.231974609375,0.0,0.0,0.0,0.0,0.0,0.0,0.598971925419753,0.0,0.0,0.0,0.0,0.0,0.0,-12.944,0.0,0.0,0.0
597,0.0,0.0,0.0,-0.2263251953125,0.0,0.0,0.0,0.0,0.0,0.0,0.598971925419753,0.0,0.0,0.0,0.0,0.0,0.0,-13.696,0.0,0.0,0.0
598,0.0,0.0,0.0,-0.2203876953125,0.0,0.0,0.0,0.0,0.0,0.0,0.598971925419753,0.0,0.0,0.0,0.0,0.0,0.0,-13.948,0.0,0.0,0.0
599,0.0,0.0,0.0,-0.2145947265625,0.0,0.0,0.0,0.0,0.0,0.0,0.598971925419753,0.0,0.0,0.0,0.0,0.0,0.0,-14.588,0.0,0.0,0.0
600,0.0,0.0,0.0,-0.2088017578125,0.0,0.0,0.0,0.0,0.0,0.0,0.598971925419753,0.0,0.0,0.0,0.0,0.0,0.0,-14.728,0.0,0.0,0.0
601,0.0,0.0,0.0,-0.202720703125,0.0,0.0,0.0,0.0,0.0,0.0,0.598971925419753,0.0,0.0,0.0,0.0,0.0,0.0,-13.88,0.0,0.0,0.0
602,0.0,0.0,0.0,-0.196638671875,0.0,0.0,0.0,0.0,0.0,0.0,0.598971925419753,0.0,0.0,0.0,0.0,0.0,0.0,-13.836,0.0,0.0,0.0
603,0.0,0.0,0.0,-0.190990234375,0.0,0.0,0.0,0.0,0.0,0.0,0.598971925419753,0.0,0.0,0.0,0.0,0.0,0.0,-13.56,0.0,0.0,0.0
604,0.0,0.0,0.0,-0.1848994140625,0.0,0.0,0.0,0.0,0.0,0.0,0.598971925419753,0.0,0.0,0.0,0.0,0.0,0.0,-13.56,0.0,0.0,0.0
605,0.0,0.0,0.0,-0.1791064453125,0.0,0.0,0.0,0.0,0.0,0.0,0.598971925419753,0.0,0.0,0.0,0.0,0.0,0.0,-13.492,0.0,0.0,0.0
606,0.0,0.0,0.0,-0.173466796875,0.0,0.0,0.0,0.0,0.0,0.0,0.598971925419753,0.0,0.0,0.0,0.0,0.0,0.0,-13.032,0.0,0.0,0.0
607,0.0,0.0,0.0,-0.167529296875,0.0,0.0,0.0,0.0,0.0,0.0,0.598971925419753,0.0,0.0,0.0,0.0,0.0,0.0,-13.284,0.0,0.0,0.0
608,0.0,0.0,0.0,-0.16187109375,0.0,0.0,0.0,0.0,0.0,0.0,0.598971925419753,0.0,0.0,0.0,0.0,0.0,0.0,-13.788,0.0,0.0,0.0
609,0.0,0.0,0.0,-0.156078125,0.0,0.0,0.0,0.0,0.0,0.0,0.598971925419753,0.0,0.0,0.0,0.0,0.0,0.0,-14.064,0.0,0.0,0.0
610,0.0,0.0,0.0,-0.15028515625,0.0,0.0,0.0,0.0,0.0,0.0,0.598971925419753,0.0,0.0,0.0,0.0,0.0,0.0,-14.864,0.0,0.0,0.0
611,0.0,0.0,0.0,-0.1444921875,0.0,0.0,0.0,0.0,0.0,0.0,0.598971925419753,0.0,0.0,0.0,0.0,0.0,0.0,-14.408,0.0,0.0,0.0
612,0.0,0.0,0.0,-0.1382568359375,0.0,0.0,0.0,0.0,0.0,0.0,0.598971925419753,0.0,0.0,0.0,0.0,0.0,0.0,-13.836,0.0,0.0,0.0
613,0.0,0.0,0.0,-0.1266796875,0.0,0.0,0.0,0.0,0.0,0.0,0.598971925419753,0.0,0.0,0.0,0.0,0.0,0.0,-13.652,0.0,0.0,0.0
614,0.0,0.0,0.0,-0.1266796875,0.0,0.0,0.0,0.0,0.0,0.0,0.598971925419753,0.0,0.0,0.0,0.0,0.0,0.0,-13.652,0.0,0.0,0.0
615,0.0,0.0,0.0,-0.1205986328125,0.0,0.0,0.0,0.0,0.0,0.0,0.598971925419753,0.0,0.0,0.0,0.0,0.0,0.0,-13.904,0.0,0.0,0.0
616,0.0,0.0,0.0,-0.1150849609375,0.0,0.0,0.0,0.0,0.0,0.0,0.598971925419753,0.0,0.0,0.0,0.0,0.0,0.0,-13.424,0.0,0.0,0.0
617,0.0,0.0,0.0,-0.1090029296875,0.0,0.0,0.0,0.0,0.0,0.0,0.598971925419753,0.0,0.0,0.0,0.0,0.0,0.0,-13.124,0.0,0.0,0.0
618,0.0,0.0,0.0,-0.1032099609375,0.0,0.0,0.0,0.0,0.0,0.0,0.598971925419753,0.0,0.0,0.0,0.0,0.0,0.0,-13.764,0.0,0.0,0.0
619,0.0,0.0,0.0,-0.0975615234375,0.0,0.0,0.0,0.0,0.0,0.0,0.598971925419753,0.0,0.0,0.0,0.0,0.0,0.0,-13.764,0.0,0.0,0.0
620,0.0,0.0,0.0,-0.091470703125,0.0,0.0,0.0,0.0,0.0,0.0,0.598971925419753,0.0,0.0,0.0,0.0,0.0,0.0,-14.656,0.0,0.0,0.0
621,0.0,0.0,0.0,-0.0859755859375,0.0,0.0,0.0,0.0,0.0,0.0,0.598971925419753,0.0,0.0,0.0,0.0,0.0,0.0,-14.816,0.0,0.0,0.0
622,0.0,0.0,0.0,-0.0798935546875,0.0,0.0,0.0,0.0,0.0,0.0,0.598971925419753,0.0,0.0,0.0,0.0,0.0,0.0,-14.176,0.0,0.0,0.0
623,0.0,0.0,0.0,-0.073658203125,0.0,0.0,0.0,0.0,0.0,0.0,0.598971925419753,0.0,0.0,0.0,0.0,0.0,0.0,-14.132,0.0,0.0,0.0
624,0.0,0.0,0.0,-0.068154296875,0.0,0.0,0.0,0.0,0.0,0.0,0.598971925419753,0.0,0.0,0.0,0.0,0.0,0.0,-13.56,0.0,0.0,0.0
625,0.0,0.0,0.0,-0.061927734375,0.0,0.0,0.0,0.0,0.0,0.0,0.598971925419753,0.0,0.0,0.0,0.0,0.0,0.0,-13.72,0.0,0.0,0.0
626,0.0,0.0,0.0,-0.056134765625,0.0,0.0,0.0,0.0,0.0,0.0,0.598971925419753,0.0,0.0,0.0,0.0,0.0,0.0,-13.88,0.0,0.0,0.0
627,0.0,0.0,0.0,-0.0504775390625,0.0,0.0,0.0,0.0,0.0,0.0,0.598971925419753,0.0,0.0,0.0,0.0,0.0,0.0,-13.264,0.0,0.0,0.0
628,0.0,0.0,0.0,-0.0443955078125,0.0,0.0,0.0,0.0,0.0,0.0,0.598971925419753,0.0,0.0,0.0,0.0,0.0,0.0,-13.536,0.0,0.0,0.0
629,0.0,0.0,0.0,-0.0388916015625,0.0,0.0,0.0,0.0,0.0,0.0,0.598971925419753,0.0,0.0,0.0,0.0,0.0,0.0,-13.924,0.0,0.0,0.0
630,0.0,0.0,0.0,-0.0328095703125,0.0,0.0,0.0,0.0,0.0,0.0,0.598971925419753,0.0,0.0,0.0,0.0,0.0,0.0,-14.132,0.0,0.0,0.0
631,0.0,0.0,0.0,-0.0270166015625,0.0,0.0,0.0,0.0,0.0,0.0,0.598971925419753,0.0,0.0,0.0,0.0,0.0,0.0,-15.276,0.0,0.0,0.0
632,0.0,0.0,0.0,-0.0213671875,0.0,0.0,0.0,0.0,0.0,0.0,0.598971925419753,0.0,0.0,0.0,0.0,0.0,0.0,-14.656,0.0,0.0,0.0
633,0.0,0.0,0.0,-0.0149970703125,0.0,0.0,0.0,0.0,0.0,0.0,0.598971925419753,0.0,0.0,0.0,0.0,0.0,0.0,-14.316,0.0,0.0,0.0
634,0.0,0.0,0.0,-0.0093486328125,0.0,0.0,0.0,0.0,0.0,0.0,0.598971925419753,0.0,0.0,0.0,0.0,0.0,0.0,-14.084,0.0,0.0,0.0
635,0.0,0.0,0.0,-0.0032578125,0.0,0.0,0.0,0.0,0.0,0.0,0.598971925419753,0.0,0.0,0.0,0.0,0.0,0.0,-13.424,0.0,0.0,0.0
636,0.0,0.0,0.0,0.0028232421875,0.0,0.0,0.0,0.0,0.0,0.0,0.598971925419753,0.0,0.0,0.0,0.0,0.0,0.0,-14.176,0.0,0.0,0.0
637,0.0,0.0,0.0,0.0081826171875,0.0,0.0,0.0,0.0,0.0,0.0,0.598971925419753,0.0,0.0,0.0,0.0,0.0,0.0,-13.468,0.0,0.0,0.0
638,0.0,0.0,0.0,0.0142734375,0.0,0.0,0.0,0.0,0.0,0.0,0.598971925419753,0.0,0.0,0.0,0.0,0.0,0.0,-13.172,0.0,0.0,0.0
639,0.0,0.0,0.0,0.0199228515625,0.0,0.0,0.0,0.0,0.0,0.0,0.598971925419753,0.0,0.0,0.0,0.0,0.0,0.0,-13.924,0.0,0.0,0.0
640,0.0,0.0,0.0,0.0255712890625,0.0,0.0,0.0,0.0,0.0,0.0,0.598971925419753,0.0,0.0,0.0,0.0,0.0,0.0,-13.216,0.0,0.0,0.0
641,0.0,0.0,0.0,0.0317978515625,0.0,0.0,0.0,0.0,0.0,0.0,0.598971925419753,0.0,0.0,0.0,0.0,0.0,0.0,-14.568,0.0,0.0,0.0
642,0.0,0.0,0.0,0.0373017578125,0.0,0.0,0.0,0.0,0.0,0.0,0.598971925419753,0.0,0.0,0.0,0.0,0.0,0.0,-14.864,0.0,0.0,0.0
643,0.0,0.0,0.0,0.0433837890625,0.0,0.0,0.0,0.0,0.0,0.0,0.598971925419753,0.0,0.0,0.0,0.0,0.0,0.0,-14.36,0.0,0.0,0.0
644,0.0,0.0,0.0,0.049609375,0.0,0.0,0.0,0.0,0.0,0.0,0.598971925419753,0.0,0.0,0.0,0.0,0.0,0.0,-14.428,0.0,0.0,0.0
645,0.0,0.0,0.0,0.054978515625,0.0,0.0,0.0,0.0,0.0,0.0,0.598971925419753,0.0,0.0,0.0,0.0,0.0,0.0,-13.444,0.0,0.0,0.0
646,0.0,0.0,0.0,0.0613486328125,0.0,0.0,0.0,0.0,0.0,0.0,0.598971925419753,0.0,0.0,0.0,0.0,0.0,0.0,-13.72,0.0,0.0,0.0
647,0.0,0.0,0.0,0.066998046875,0.0,0.0,0.0,0.0,0.0,0.0,0.598971925419753,0.0,0.0,0.0,0.0,0.0,0.0,-13.972,0.0,0.0,0.0
648,0.0,0.0,0.0,0.072646484375,0.0,0.0,0.0,0.0,0.0,0.0,0.598971925419753,0.0,0.0,0.0,0.0,0.0,0.0,-13.284,0.0,0.0,0.0
649,0.0,0.0,0.0,0.0788818359375,0.0,0.0,0.0,0.0,0.0,0.0,0.598971925419753,0.0,0.0,0.0,0.0,0.0,0.0,-13.764,0.0,0.0,0.0
650,0.0,0.0,0.0,0.0843857421875,0.0,0.0,0.0,0.0,0.0,0.0,0.598971925419753,0.0,0.0,0.0,0.0,0.0,0.0,-13.744,0.0,0.0,0.0
651,0.0,0.0,0.0,0.0903232421875,0.0,0.0,0.0,0.0,0.0,0.0,0.598971925419753,0.0,0.0,0.0,0.0,0.0,0.0,-13.812,0.0,0.0,0.0
652,0.0,0.0,0.0,0.09626953125,0.0,0.0,0.0,0.0,0.0,0.0,0.598971925419753,0.0,0.0,0.0,0.0,0.0,0.0,-15.0,0.0,0.0,0.0
653,0.0,0.0,0.0,0.1017646484375,0.0,0.0,0.0,0.0,0.0,0.0,0.598971925419753,0.0,0.0,0.0,0.0,0.0,0.0,-14.612,0.0,0.0,0.0
654,0.0,0.0,0.0,0.1081357421875,0.0,0.0,0.0,0.0,0.0,0.0,0.598971925419753,0.0,0.0,0.0,0.0,0.0,0.0,-14.292,0.0,0.0,0.0
655,0.0,0.0,0.0,0.1140732421875,0.0,0.0,0.0,0.0,0.0,0.0,0.598971925419753,0.0,0.0,0.0,0.0,0.0,0.0,-13.904,0.0,0.0,0.0
656,0.0,0.0,0.0,0.1197216796875,0.0,0.0,0.0,0.0,0.0,0.0,0.598971925419753,0.0,0.0,0.0,0.0,0.0,0.0,-13.264,0.0,0.0,0.0
657,0.0,0.0,0.0,0.125947265625,0.0,0.0,0.0,0.0,0.0,0.0,0.598971925419753,0.0,0.0,0.0,0.0,0.0,0.0,-13.856,0.0,0.0,0.0
658,0.0,0.0,0.0,0.1373984375,0.0,0.0,0.0,0.0,0.0,0.0,0.598971925419753,0.0,0.0,0.0,0.0,0.0,0.0,-13.032,0.0,0.0,0.0
659,0.0,0.0,0.0,0.1373984375,0.0,0.0,0.0,0.0,0.0,0.0,0.598971925419753,0.0,0.0,0.0,0.0,0.0,0.0,-13.032,0.0,0.0,0.0
660,0.0,0.0,0.0,0.14348046875,0.0,0.0,0.0,0.0,0.0,0.0,0.598971925419753,0.0,0.0,0.0,0.0,0.0,0.0,-13.332,0.0,0.0,0.0
661,0.0,0.0,0.0,0.14883984375,0.0,0.0,0.0,0.0,0.0,0.0,0.598971925419753,0.0,0.0,0.0,0.0,0.0,0.0,-13.468,0.0,0.0,0.0
662,0.0,0.0,0.0,0.15506640625,0.0,0.0,0.0,0.0,0.0,0.0,0.598971925419753,0.0,0.0,0.0,0.0,0.0,0.0,-14.016,0.0,0.0,0.0
663,0.0,0.0,0.0,0.1608681640625,0.0,0.0,0.0,0.0,0.0,0.0,0.598971925419753,0.0,0.0,0.0,0.0,0.0,0.0,-14.748,0.0,0.0,0.0
664,0.0,0.0,0.0,0.1665166015625,0.0,0.0,0.0,0.0,0.0,0.0,0.598971925419753,0.0,0.0,0.0,0.0,0.0,0.0,-14.428,0.0,0.0,0.0
665,0.0,0.0,0.0,0.1728876953125,0.0,0.0,0.0,0.0,0.0,0.0,0.598971925419753,0.0,0.0,0.0,0.0,0.0,0.0,-13.972,0.0,0.0,0.0
666,0.0,0.0,0.0,0.178689453125,0.0,0.0,0.0,0.0,0.0,0.0,0.598971925419753,0.0,0.0,0.0,0.0,0.0,0.0,-13.696,0.0,0.0,0.0
667,0.0,0.0,0.0,0.184482421875,0.0,0.0,0.0,0.0,0.0,0.0,0.598971925419753,0.0,0.0,0.0,0.0,0.0,0.0,-13.332,0.0,0.0,0.0
668,0.0,0.0,0.0,0.196068359375,0.0,0.0,0.0,0.0,0.0,0.0,0.598971925419753,0.0,0.0,0.0,0.0,0.0,0.0,-13.444,0.0,0.0,0.0
669,0.0,0.0,0.0,0.196068359375,0.0,0.0,0.0,0.0,0.0,0.0,0.598971925419753,0.0,0.0,0.0,0.0,0.0,0.0,-13.444,0.0,0.0,0.0
670,0.0,0.0,0.0,0.202005859375,0.0,0.0,0.0,0.0,0.0,0.0,0.598971925419753,0.0,0.0,0.0,0.0,0.0,0.0,-13.124,0.0,0.0,0.0
671,0.0,0.0,0.0,0.207798828125,0.0,0.0,0.0,0.0,0.0,0.0,0.598971925419753,0.0,0.0,0.0,0.0,0.0,0.0,-13.4,0.0,0.0,0.0
672,0.0,0.0,0.0,0.213591796875,0.0,0.0,0.0,0.0,0.0,0.0,0.598971925419753,0.0,0.0,0.0,0.0,0.0,0.0,-13.492,0.0,0.0,0.0
673,0.0,0.0,0.0,0.2195390625,0.0,0.0,0.0,0.0,0.0,0.0,0.598971925419753,0.0,0.0,0.0,0.0,0.0,0.0,-14.336,0.0,0.0,0.0
674,0.0,0.0,0.0,0.2251875,0.0,0.0,0.0,0.0,0.0,0.0,0.598971925419753,0.0,0.0,0.0,0.0,0.0,0.0,-14.496,0.0,0.0,0.0
675,0.0,0.0,0.0,0.23126953125,0.0,0.0,0.0,0.0,0.0,0.0,0.598971925419753,0.0,0.0,0.0,0.0,0.0,0.0,-14.04,0.0,0.0,0.0
676,0.0,0.0,0.0,0.2373603515625,0.0,0.0,0.0,0.0,0.0,0.0,0.598971925419753,0.0,0.0,0.0,0.0,0.0,0.0,-13.356,0.0,0.0,0.0
677,0.0,0.0,0.0,0.2431533203125,0.0,0.0,0.0,0.0,0.0,0.0,0.598971925419753,0.0,0.0,0.0,0.0,0.0,0.0,-13.216,0.0,0.0,0.0
678,0.0,0.0,0.0,0.2490908203125,0.0,0.0,0.0,0.0,0.0,0.0,0.598971925419753,0.0,0.0,0.0,0.0,0.0,0.0,-13.284,0.0,0.0,0.0
679,0.0,0.0,0.0,0.254892578125,0.0,0.0,0.0,0.0,0.0,0.0,0.598971925419753,0.0,0.0,0.0,0.0,0.0,0.0,-13.332,0.0,0.0,0.0
680,0.0,0.0,0.0,0.2606767578125,0.0,0.0,0.0,0.0,0.0,0.0,0.598971925419753,0.0,0.0,0.0,0.0,0.0,0.0,-13.104,0.0,0.0,0.0
681,0.0,0.0,0.0,0.2666142578125,0.0,0.0,0.0,0.0,0.0,0.0,0.598971925419753,0.0,0.0,0.0,0.0,0.0,0.0,-12.692,0.0,0.0,0.0
682,0.0,0.0,0.0,0.2722626953125,0.0,0.0,0.0,0.0,0.0,0.0,0.598971925419753,0.0,0.0,0.0,0.0,0.0,0.0,-13.08,0.0,0.0,0.0
683,0.0,0.0,0.0,0.278208984375,0.0,0.0,0.0,0.0,0.0,0.0,0.598971925419753,0.0,0.0,0.0,0.0,0.0,0.0,-13.676,0.0,0.0,0.0
684,0.0,0.0,0.0,0.284001953125,0.0,0.0,0.0,0.0,0.0,0.0,0.598971925419753,0.0,0.0,0.0,0.0,0.0,0.0,-14.248,0.0,0.0,0.0
685,0.0,0.0,0.0,0.289939453125,0.0,0.0,0.0,0.0,0.0,0.0,0.598971925419753,0.0,0.0,0.0,0.0,0.0,0.0,-14.316,0.0,0.0,0.0
686,0.0,0.0,0.0,0.2960302734375,0.0,0.0,0.0,0.0,0.0,0.0,0.598971925419753,0.0,0.0,0.0,0.0,0.0,0.0,-13.696,0.0,0.0,0.0
687,0.0,0.0,0.0,0.3019677734375,0.0,0.0,0.0,0.0,0.0,0.0,0.598971925419753,0.0,0.0,0.0,0.0,0.0,0.0,-13.172,0.0,0.0,0.0
688,0.0,0.0,0.0,0.3079052734375,0.0,0.0,0.0,0.0,0.0,0.0,0.598971925419753,0.0,0.0,0.0,0.0,0.0,0.0,-13.032,0.0,0.0,0.0
689,0.0,0.0,0.0,0.3138515625,0.0,0.0,0.0,0.0,0.0,0.0,0.598971925419753,0.0,0.0,0.0,0.0,0.0,0.0,-13.148,0.0,0.0,0.0
690,0.0,0.0,0.0,0.3196357421875,0.0,0.0,0.0,0.0,0.0,0.0,0.598971925419753,0.0,0.0,0.0,0.0,0.0,0.0,-12.92,0.0,0.0,0.0
691,0.0,0.0,0.0,0.3254287109375,0.0,0.0,0.0,0.0,0.0,0.0,0.598971925419753,0.0,0.0,0.0,0.0,0.0,0.0,-12.668,0.0,0.0,0.0
692,0.0,0.0,0.0,0.3312216796875,0.0,0.0,0.0,0.0,0.0,0.0,0.598971925419753,0.0,0.0,0.0,0.0,0.0,0.0,-12.712,0.0,0.0,0.0
693,0.0,0.0,0.0,0.3370234375,0.0,0.0,0.0,0.0,0.0,0.0,0.598971925419753,0.0,0.0,0.0,0.0,0.0,0.0,-13.124,0.0,0.0,0.0
694,0.0,0.0,0.0,0.3429609375,0.0,0.0,0.0,0.0,0.0,0.0,0.598971925419753,0.0,0.0,0.0,0.0,0.0,0.0,-13.744,0.0,0.0,0.0
695,0.0,0.0,0.0,0.3488984375,0.0,0.0,0.0,0.0,0.0,0.0,0.598971925419753,0.0,0.0,0.0,0.0,0.0,0.0,-13.948,0.0,0.0,0.0
696,0.0,0.0,0.0,0.3548447265625,0.0,0.0,0.0,0.0,0.0,0.0,0.598971925419753,0.0,0.0,0.0,0.0,0.0,0.0,-13.856,0.0,0.0,0.0
697,0.0,0.0,0.0,0.3609267578125,0.0,0.0,0.0,0.0,0.0,0.0,0.598971925419753,0.0,0.0,0.0,0.0,0.0,0.0,-12.896,0.0,0.0,0.0
698,0.0,0.0,0.0,0.36685546875,0.0,0.0,0.0,0.0,0.0,0.0,0.598971925419753,0.0,0.0,0.0,0.0,0.0,0.0,-12.712,0.0,0.0,0.0
699,0.0,0.0,0.0,0.3726572265625,0.0,0.0,0.0,0.0,0.0,0.0,0.598971925419753,0.0,0.0,0.0,0.0,0.0,0.0,-12.828,0.0,0.0,0.0
700,0.0,0.0,0.0,0.3784501953125,0.0,0.0,0.0,0.0,0.0,0.0,0.598971925419753,0.0,0.0,0.0,0.0,0.0,0.0,-12.668,0.0,0.0,0.0
701,0.0,0.0,0.0,0.3843876953125,0.0,0.0,0.0,0.0,0.0,0.0,0.598971925419753,0.0,0.0,0.0,0.0,0.0,0.0,-12.624,0.0,0.0,0.0
702,0.0,0.0,0.0,0.390189453125,0.0,0.0,0.0,0.0,0.0,0.0,0.598971925419753,0.0,0.0,0.0,0.0,0.0,0.0,-12.348,0.0,0.0,0.0
703,0.0,0.0,0.0,0.395982421875,0.0,0.0,0.0,0.0,0.0,0.0,0.598971925419753,0.0,0.0,0.0,0.0,0.0,0.0,-12.624,0.0,0.0,0.0
704,0.0,0.0,0.0,0.4017666015625,0.0,0.0,0.0,0.0,0.0,0.0,0.598971925419753,0.0,0.0,0.0,0.0,0.0,0.0,-12.988,0.0,0.0,0.0
705,0.0,0.0,0.0,0.4075595703125,0.0,0.0,0.0,0.0,0.0,0.0,0.598971925419753,0.0,0.0,0.0,0.0,0.0,0.0,-13.516,0.0,0.0,0.0
706,0.0,0.0,0.0,0.413505859375,0.0,0.0,0.0,0.0,0.0,0.0,0.598971925419753,0.0,0.0,0.0,0.0,0.0,0.0,-13.72,0.0,0.0,0.0
707,0.0,0.0,0.0,0.419443359375,0.0,0.0,0.0,0.0,0.0,0.0,0.598971925419753,0.0,0.0,0.0,0.0,0.0,0.0,-13.104,0.0,0.0,0.0
708,0.0,0.0,0.0,0.425525390625,0.0,0.0,0.0,0.0,0.0,0.0,0.598971925419753,0.0,0.0,0.0,0.0,0.0,0.0,-12.232,0.0,0.0,0.0
709,0.0,0.0,0.0,0.4313271484375,0.0,0.0,0.0,0.0,0.0,0.0,0.598971925419753,0.0,0.0,0.0,0.0,0.0,0.0,-12.372,0.0,0.0,0.0
710,0.0,0.0,0.0,0.437111328125,0.0,0.0,0.0,0.0,0.0,0.0,0.598971925419753,0.0,0.0,0.0,0.0,0.0,0.0,-12.464,0.0,0.0,0.0
711,0.0,0.0,0.0,0.442904296875,0.0,0.0,0.0,0.0,0.0,0.0,0.598971925419753,0.0,0.0,0.0,0.0,0.0,0.0,-12.164,0.0,0.0,0.0
712,0.0,0.0,0.0,0.448841796875,0.0,0.0,0.0,0.0,0.0,0.0,0.598971925419753,0.0,0.0,0.0,0.0,0.0,0.0,-12.072,0.0,0.0,0.0
713,0.0,0.0,0.0,0.460572265625,0.0,0.0,0.0,0.0,0.0,0.0,0.598971925419753,0.0,0.0,0.0,0.0,0.0,0.0,-12.304,0.0,0.0,0.0
714,0.0,0.0,0.0,0.460572265625,0.0,0.0,0.0,0.0,0.0,0.0,0.598971925419753,0.0,0.0,0.0,0.0,0.0,0.0,-12.304,0.0,0.0,0.0
715,0.0,0.0,0.0,0.466365234375,0.0,0.0,0.0,0.0,0.0,0.0,0.598971925419753,0.0,0.0,0.0,0.0,0.0,0.0,-13.012,0.0,0.0,0.0
716,0.0,0.0,0.0,0.472302734375,0.0,0.0,0.0,0.0,0.0,0.0,0.598971925419753,0.0,0.0,0.0,0.0,0.0,0.0,-13.424,0.0,0.0,0.0
717,0.0,0.0,0.0,0.478240234375,0.0,0.0,0.0,0.0,0.0,0.0,0.598971925419753,0.0,0.0,0.0,0.0,0.0,0.0,-13.332,0.0,0.0,0.0
718,0.0,0.0,0.0,0.484322265625,0.0,0.0,0.0,0.0,0.0,0.0,0.598971925419753,0.0,0.0,0.0,0.0,0.0,0.0,-12.324,0.0,0.0,0.0
719,0.0,0.0,0.0,0.4902685546875,0.0,0.0,0.0,0.0,0.0,0.0,0.598971925419753,0.0,0.0,0.0,0.0,0.0,0.0,-11.96,0.0,0.0,0.0
720,0.0,0.0,0.0,0.4962060546875,0.0,0.0,0.0,0.0,0.0,0.0,0.598971925419753,0.0,0.0,0.0,0.0,0.0,0.0,-12.072,0.0,0.0,0.0
721,0.0,0.0,0.0,0.5019892578125,0.0,0.0,0.0,0.0,0.0,0.0,0.598971925419753,0.0,0.0,0.0,0.0,0.0,0.0,-11.96,0.0,0.0,0.0
722,0.0,0.0,0.0,0.5079365234375,0.0,0.0,0.0,0.0,0.0,0.0,0.598971925419753,0.0,0.0,0.0,0.0,0.0,0.0,-11.892,0.0,0.0,0.0
723,0.0,0.0,0.0,0.5196669921875,0.0,0.0,0.0,0.0,0.0,0.0,0.598971925419753,0.0,0.0,0.0,0.0,0.0,0.0,-11.82,0.0,0.0,0.0
724,0.0,0.0,0.0,0.5196669921875,0.0,0.0,0.0,0.0,0.0,0.0,0.598971925419753,0.0,0.0,0.0,0.0,0.0,0.0,-11.82,0.0,0.0,0.0
725,0.0,0.0,0.0,0.5254599609375,0.0,0.0,0.0,0.0,0.0,0.0,0.598971925419753,0.0,0.0,0.0,0.0,0.0,0.0,-12.28,0.0,0.0,0.0
726,0.0,0.0,0.0,0.5313974609375,0.0,0.0,0.0,0.0,0.0,0.0,0.598971925419753,0.0,0.0,0.0,0.0,0.0,0.0,-12.852,0.0,0.0,0.0
727,0.0,0.0,0.0,0.5371904296875,0.0,0.0,0.0,0.0,0.0,0.0,0.598971925419753,0.0,0.0,0.0,0.0,0.0,0.0,-12.944,0.0,0.0,0.0
728,0.0,0.0,0.0,0.54328125,0.0,0.0,0.0,0.0,0.0,0.0,0.598971925419753,0.0,0.0,0.0,0.0,0.0,0.0,-11.64,0.0,0.0,0.0
729,0.0,0.0,0.0,0.549208984375,0.0,0.0,0.0,0.0,0.0,0.0,0.598971925419753,0.0,0.0,0.0,0.0,0.0,0.0,-11.64,0.0,0.0,0.0
730,0.0,0.0,0.0,0.560939453125,0.0,0.0,0.0,0.0,0.0,0.0,-0.399180441028394,0.0,0.0,0.0,0.0,0.0,0.0,-11.66,0.0,0.0,0.0
731,0.0,0.0,0.0,0.560939453125,0.0,0.0,0.0,0.0,0.0,0.0,-0.399180441028394,0.0,0.0,0.0,0.0,0.0,0.0,-11.66,0.0,0.0,0.0
732,0.0,0.0,0.0,0.5667421875,0.0,0.0,0.0,0.0,0.0,0.0,-0.399180441028394,0.0,0.0,0.0,0.0,0.0,0.0,-11.34,0.0,0.0,0.0
733,0.0,0.0,0.0,0.5723818359375,0.0,0.0,0.0,0.0,0.0,0.0,-0.399180441028394,0.0,0.0,0.0,0.0,0.0,0.0,-12.416,0.0,0.0,0.0
734,0.0,0.0,0.0,0.5751337890625,0.0,0.0,0.0,0.0,0.0,0.0,-0.399180441028394,0.0,0.0,0.0,0.0,0.0,0.0,-18.132,0.0,0.0,0.0
735,0.0,0.0,0.0,0.574267578125,0.0,0.0,0.0,0.0,0.0,0.0,-0.399180441028394,0.0,0.0,0.0,0.0,0.0,0.0,-20.42,0.0,0.0,0.0
736,0.0,0.0,0.0,0.573103515625,0.0,0.0,0.0,0.0,0.0,0.0,-0.399180441028394,0.0,0.0,0.0,0.0,0.0,0.0,-21.36,0.0,0.0,0.0
737,0.0,0.0,0.0,0.5697822265625,0.0,0.0,0.0,0.0,0.0,0.0,-0.399180441028394,0.0,0.0,0.0,0.0,0.0,0.0,-20.488,0.0,0.0,0.0
738,0.0,0.0,0.0,0.5657216796875,0.0,0.0,0.0,0.0,0.0,0.0,-0.399180441028394,0.0,0.0,0.0,0.0,0.0,0.0,-19.596,0.0,0.0,0.0
739,0.0,0.0,0.0,0.561373046875,0.0,0.0,0.0,0.0,0.0,0.0,-0.399180441028394,0.0,0.0,0.0,0.0,0.0,0.0,-20.26,0.0,0.0,0.0
740,0.0,0.0,0.0,0.556166015625,0.0,0.0,0.0,0.0,0.0,0.0,-0.399180441028394,0.0,0.0,0.0,0.0,0.0,0.0,-21.244,0.0,0.0,0.0
741,0.0,0.0,0.0,0.5500849609375,0.0,0.0,0.0,0.0,0.0,0.0,-0.399180441028394,0.0,0.0,0.0,0.0,0.0,0.0,-23.416,0.0,0.0,0.0
742,0.0,0.0,0.0,0.54284765625,0.0,0.0,0.0,0.0,0.0,0.0,-0.399180441028394,0.0,0.0,0.0,0.0,0.0,0.0,-23.004,0.0,0.0,0.0
743,0.0,0.0,0.0,0.5347265625,0.0,0.0,0.0,0.0,0.0,0.0,-0.399180441028394,0.0,0.0,0.0,0.0,0.0,0.0,-19.848,0.0,0.0,0.0
744,0.0,0.0,0.0,0.527490234375,0.0,0.0,0.0,0.0,0.0,0.0,-0.399180441028394,0.0,0.0,0.0,0.0,0.0,0.0,-16.784,0.0,0.0,0.0
745,0.0,0.0,0.0,0.5208212890625,0.0,0.0,0.0,0.0,0.0,0.0,-0.399180441028394,0.0,0.0,0.0,0.0,0.0,0.0,-18.02,0.0,0.0,0.0
746,0.0,0.0,0.0,0.5124208984375,0.0,0.0,0.0,0.0,0.0,0.0,-0.399180441028394,0.0,0.0,0.0,0.0,0.0,0.0,-17.86,0.0,0.0,0.0
747,0.0,0.0,0.0,0.50401953125,0.0,0.0,0.0,0.0,0.0,0.0,-0.399180441028394,0.0,0.0,0.0,0.0,0.0,0.0,-17.676,0.0,0.0,0.0
748,0.0,0.0,0.0,0.495474609375,0.0,0.0,0.0,0.0,0.0,0.0,-0.399180441028394,0.0,0.0,0.0,0.0,0.0,0.0,-14.816,0.0,0.0,0.0
749,0.0,0.0,0.0,0.4875166015625,0.0,0.0,0.0,0.0,0.0,0.0,-0.399180441028394,0.0,0.0,0.0,0.0,0.0,0.0,-12.736,0.0,0.0,0.0
750,0.0,0.0,0.0,0.4791064453125,0.0,0.0,0.0,0.0,0.0,0.0,-0.399180441028394,0.0,0.0,0.0,0.0,0.0,0.0,-14.04,0.0,0.0,0.0
751,0.0,0.0,0.0,0.47071484375,0.0,0.0,0.0,0.0,0.0,0.0,-0.399180441028394,0.0,0.0,0.0,0.0,0.0,0.0,-13.676,0.0,0.0,0.0
752,0.0,0.0,0.0,0.4641904296875,0.0,0.0,0.0,0.0,0.0,0.0,-0.399180441028394,0.0,0.0,0.0,0.0,0.0,0.0,-13.124,0.0,0.0,0.0
753,0.0,0.0,0.0,0.45651171875,0.0,0.0,0.0,0.0,0.0,0.0,-0.399180441028394,0.0,0.0,0.0,0.0,0.0,0.0,-12.988,0.0,0.0,0.0
754,0.0,0.0,0.0,0.4475419921875,0.0,0.0,0.0,0.0,0.0,0.0,-0.399180441028394,0.0,0.0,0.0,0.0,0.0,0.0,-11.432,0.0,0.0,0.0
755,0.0,0.0,0.0,0.43971875,0.0,0.0,0.0,0.0,0.0,0.0,-0.399180441028394,0.0,0.0,0.0,0.0,0.0,0.0,-10.108,0.0,0.0,0.0
756,0.0,0.0,0.0,0.432626953125,0.0,0.0,0.0,0.0,0.0,0.0,-0.399180441028394,0.0,0.0,0.0,0.0,0.0,0.0,-9.168,0.0,0.0,0.0
757,0.0,0.0,0.0,0.425814453125,0.0,0.0,0.0,0.0,0.0,0.0,-0.399180441028394,0.0,0.0,0.0,0.0,0.0,0.0,-10.06,0.0,0.0,0.0
758,0.0,0.0,0.0,0.4184326171875,0.0,0.0,0.0,0.0,0.0,0.0,-0.399180441028394,0.0,0.0,0.0,0.0,0.0,0.0,-11.892,0.0,0.0,0.0
759,0.0,0.0,0.0,0.4113310546875,0.0,0.0,0.0,0.0,0.0,0.0,-0.399180441028394,0.0,0.0,0.0,0.0,0.0,0.0,-11.616,0.0,0.0,0.0
760,0.0,0.0,0.0,0.4050966796875,0.0,0.0,0.0,0.0,0.0,0.0,-0.399180441028394,0.0,0.0,0.0,0.0,0.0,0.0,-10.768,0.0,0.0,0.0
761,0.0,0.0,0.0,0.39829296875,0.0,0.0,0.0,0.0,0.0,0.0,-0.399180441028394,0.0,0.0,0.0,0.0,0.0,0.0,-9.9,0.0,0.0,0.0
762,0.0,0.0,0.0,0.3912001953125,0.0,0.0,0.0,0.0,0.0,0.0,-0.399180441028394,0.0,0.0,0.0,0.0,0.0,0.0,-9.832,0.0,0.0,0.0
763,0.0,0.0,0.0,0.37902734375,0.0,0.0,0.0,0.0,0.0,0.0,-0.399180441028394,0.0,0.0,0.0,0.0,0.0,0.0,-10.816,0.0,0.0,0.0
764,0.0,0.0,0.0,0.37902734375,0.0,0.0,0.0,0.0,0.0,0.0,-0.399180441028394,0.0,0.0,0.0,0.0,0.0,0.0,-10.816,0.0,0.0,0.0
765,0.0,0.0,0.0,0.3729453125,0.0,0.0,0.0,0.0,0.0,0.0,-0.399180441028394,0.0,0.0,0.0,0.0,0.0,0.0,-9.9,0.0,0.0,0.0
766,0.0,0.0,0.0,0.3670087890625,0.0,0.0,0.0,0.0,0.0,0.0,-0.399180441028394,0.0,0.0,0.0,0.0,0.0,0.0,-10.884,0.0,0.0,0.0
767,0.0,0.0,0.0,0.360484375,0.0,0.0,0.0,0.0,0.0,0.0,-0.399180441028394,0.0,0.0,0.0,0.0,0.0,0.0,-11.752,0.0,0.0,0.0
768,0.0,0.0,0.0,0.3548447265625,0.0,0.0,0.0,0.0,0.0,0.0,-0.399180441028394,0.0,0.0,0.0,0.0,0.0,0.0,-11.684,0.0,0.0,0.0
769,0.0,0.0,0.0,0.3496201171875,0.0,0.0,0.0,0.0,0.0,0.0,-0.399180441028394,0.0,0.0,0.0,0.0,0.0,0.0,-12.004,0.0,0.0,0.0
770,0.0,0.0,0.0,0.344548828125,0.0,0.0,0.0,0.0,0.0,0.0,-0.399180441028394,0.0,0.0,0.0,0.0,0.0,0.0,-12.028,0.0,0.0,0.0
771,0.0,0.0,0.0,0.3394873046875,0.0,0.0,0.0,0.0,0.0,0.0,-0.399180441028394,0.0,0.0,0.0,0.0,0.0,0.0,-12.76,0.0,0.0,0.0
772,0.0,0.0,0.0,0.333982421875,0.0,0.0,0.0,0.0,0.0,0.0,-0.399180441028394,0.0,0.0,0.0,0.0,0.0,0.0,-13.4,0.0,0.0,0.0
773,0.0,0.0,0.0,0.32890234375,0.0,0.0,0.0,0.0,0.0,0.0,-0.399180441028394,0.0,0.0,0.0,0.0,0.0,0.0,-13.764,0.0,0.0,0.0
774,0.0,0.0,0.0,0.3236962890625,0.0,0.0,0.0,0.0,0.0,0.0,-0.399180441028394,0.0,0.0,0.0,0.0,0.0,0.0,-13.424,0.0,0.0,0.0
775,0.0,0.0,0.0,0.31848046875,0.0,0.0,0.0,0.0,0.0,0.0,-0.399180441028394,0.0,0.0,0.0,0.0,0.0,0.0,-12.804,0.0,0.0,0.0
776,0.0,0.0,0.0,0.31370703125,0.0,0.0,0.0,0.0,0.0,0.0,-0.399180441028394,0.0,0.0,0.0,0.0,0.0,0.0,-13.56,0.0,0.0,0.0
777,0.0,0.0,0.0,0.308626953125,0.0,0.0,0.0,0.0,0.0,0.0,-0.399180441028394,0.0,0.0,0.0,0.0,0.0,0.0,-14.336,0.0,0.0,0.0
778,0.0,0.0,0.0,0.303123046875,0.0,0.0,0.0,0.0,0.0,0.0,-0.399180441028394,0.0,0.0,0.0,0.0,0.0,0.0,-14.636,0.0,0.0,0.0
779,0.0,0.0,0.0,0.2976181640625,0.0,0.0,0.0,0.0,0.0,0.0,-0.399180441028394,0.0,0.0,0.0,0.0,0.0,0.0,-14.656,0.0,0.0,0.0
780,0.0,0.0,0.0,0.292546875,0.0,0.0,0.0,0.0,0.0,0.0,-0.399180441028394,0.0,0.0,0.0,0.0,0.0,0.0,-14.476,0.0,0.0,0.0
781,0.0,0.0,0.0,0.2876201171875,0.0,0.0,0.0,0.0,0.0,0.0,-0.399180441028394,0.0,0.0,0.0,0.0,0.0,0.0,-15.024,0.0,0.0,0.0
782,0.0,0.0,0.0,0.2776318359375,0.0,0.0,0.0,0.0,0.0,0.0,-0.399180441028394,0.0,0.0,0.0,0.0,0.0,0.0,-15.78,0.0,0.0,0.0
783,0.0,0.0,0.0,0.2776318359375,0.0,0.0,0.0,0.0,0.0,0.0,-0.399180441028394,0.0,0.0,0.0,0.0,0.0,0.0,-15.78,0.0,0.0,0.0
784,0.0,0.0,0.0,0.2718291015625,0.0,0.0,0.0,0.0,0.0,0.0,-0.399180441028394,0.0,0.0,0.0,0.0,0.0,0.0,-15.48,0.0,0.0,0.0
785,0.0,0.0,0.0,0.2658916015625,0.0,0.0,0.0,0.0,0.0,0.0,-0.399180441028394,0.0,0.0,0.0,0.0,0.0,0.0,-14.612,0.0,0.0,0.0
786,0.0,0.0,0.0,0.2603876953125,0.0,0.0,0.0,0.0,0.0,0.0,-0.399180441028394,0.0,0.0,0.0,0.0,0.0,0.0,-14.292,0.0,0.0,0.0
787,0.0,0.0,0.0,0.24937890625,0.0,0.0,0.0,0.0,0.0,0.0,-0.399180441028394,0.0,0.0,0.0,0.0,0.0,0.0,-15.252,0.0,0.0,0.0
788,0.0,0.0,0.0,0.2435859375,0.0,0.0,0.0,0.0,0.0,0.0,-0.399180441028394,0.0,0.0,0.0,0.0,0.0,0.0,-15.48,0.0,0.0,0.0
789,0.0,0.0,0.0,0.2435859375,0.0,0.0,0.0,0.0,0.0,0.0,-0.399180441028394,0.0,0.0,0.0,0.0,0.0,0.0,-15.48,0.0,0.0,0.0
790,0.0,0.0,0.0,0.231125,0.0,0.0,0.0,0.0,0.0,0.0,-0.399180441028394,0.0,0.0,0.0,0.0,0.0,0.0,-14.52,0.0,0.0,0.0
791,0.0,0.0,0.0,0.2251875,0.0,0.0,0.0,0.0,0.0,0.0,-0.399180441028394,0.0,0.0,0.0,0.0,0.0,0.0,-14.544,0.0,0.0,0.0
792,0.0,0.0,0.0,0.21939453125,0.0,0.0,0.0,0.0,0.0,0.0,-0.399180441028394,0.0,0.0,0.0,0.0,0.0,0.0,-14.568,0.0,0.0,0.0
793,0.0,0.0,0.0,0.213736328125,0.0,0.0,0.0,0.0,0.0,0.0,-0.399180441028394,0.0,0.0,0.0,0.0,0.0,0.0,-14.84,0.0,0.0,0.0
794,0.0,0.0,0.0,0.2073662109375,0.0,0.0,0.0,0.0,0.0,0.0,-0.399180441028394,0.0,0.0,0.0,0.0,0.0,0.0,-14.748,0.0,0.0,0.0
795,0.0,0.0,0.0,0.2009951171875,0.0,0.0,0.0,0.0,0.0,0.0,-0.399180441028394,0.0,0.0,0.0,0.0,0.0,0.0,-13.836,0.0,0.0,0.0
796,0.0,0.0,0.0,0.1946162109375,0.0,0.0,0.0,0.0,0.0,0.0,-0.399180441028394,0.0,0.0,0.0,0.0,0.0,0.0,-13.764,0.0,0.0,0.0
797,0.0,0.0,0.0,0.1946162109375,0.0,0.0,0.0,0.0,0.0,0.0,-0.399180441028394,0.0,0.0,0.0,0.0,0.0,0.0,-13.764,0.0,0.0,0.0
798,0.0,0.0,0.0,0.1825966796875,0.0,0.0,0.0,0.0,0.0,0.0,-0.399180441028394,0.0,0.0,0.0,0.0,0.0,0.0,-13.744,0.0,0.0,0.0
799,0.0,0.0,0.0,0.17637109375,0.0,0.0,0.0,0.0,0.0,0.0,-0.399180441028394,0.0,0.0,0.0,0.0,0.0,0.0,-14.84,0.0,0.0,0.0
800,0.0,0.0,0.0,0.1701357421875,0.0,0.0,0.0,0.0,0.0,0.0,-0.399180441028394,0.0,0.0,0.0,0.0,0.0,0.0,-14.496,0.0,0.0,0.0
801,0.0,0.0,0.0,0.1701357421875,0.0,0.0,0.0,0.0,0.0,0.0,-0.399180441028394,0.0,0.0,0.0,0.0,0.0,0.0,-14.496,0.0,0.0,0.0
802,0.0,0.0,0.0,0.1578271484375,0.0,0.0,0.0,0.0,0.0,0.0,-0.399180441028394,0.0,0.0,0.0,0.0,0.0,0.0,-13.604,0.0,0.0,0.0
803,0.0,0.0,0.0,0.152169921875,0.0,0.0,0.0,0.0,0.0,0.0,-0.399180441028394,0.0,0.0,0.0,0.0,0.0,0.0,-13.516,0.0,0.0,0.0
804,0.0,0.0,0.0,0.146232421875,0.0,0.0,0.0,0.0,0.0,0.0,-0.399180441028394,0.0,0.0,0.0,0.0,0.0,0.0,-14.292,0.0,0.0,0.0
805,0.0,0.0,0.0,0.146232421875,0.0,0.0,0.0,0.0,0.0,0.0,-0.399180441028394,0.0,0.0,0.0,0.0,0.0,0.0,-14.292,0.0,0.0,0.0
806,0.0,0.0,0.0,0.1342041015625,0.0,0.0,0.0,0.0,0.0,0.0,-0.399180441028394,0.0,0.0,0.0,0.0,0.0,0.0,-13.996,0.0,0.0,0.0
807,0.0,0.0,0.0,0.1342041015625,0.0,0.0,0.0,0.0,0.0,0.0,-0.399180441028394,0.0,0.0,0.0,0.0,0.0,0.0,-13.996,0.0,0.0,0.0
808,0.0,0.0,0.0,0.1279775390625,0.0,0.0,0.0,0.0,0.0,0.0,-0.399180441028394,0.0,0.0,0.0,0.0,0.0,0.0,-13.516,0.0,0.0,0.0
809,0.0,0.0,0.0,0.122041015625,0.0,0.0,0.0,0.0,0.0,0.0,-0.399180441028394,0.0,0.0,0.0,0.0,0.0,0.0,-13.264,0.0,0.0,0.0
810,0.0,0.0,0.0,0.116103515625,0.0,0.0,0.0,0.0,0.0,0.0,-0.399180441028394,0.0,0.0,0.0,0.0,0.0,0.0,-14.408,0.0,0.0,0.0
811,0.0,0.0,0.0,0.11030078125,0.0,0.0,0.0,0.0,0.0,0.0,-0.399180441028394,0.0,0.0,0.0,0.0,0.0,0.0,-14.612,0.0,0.0,0.0
812,0.0,0.0,0.0,0.1045078125,0.0,0.0,0.0,0.0,0.0,0.0,-0.399180441028394,0.0,0.0,0.0,0.0,0.0,0.0,-14.748,0.0,0.0,0.0
813,0.0,0.0,0.0,0.0987333984375,0.0,0.0,0.0,0.0,0.0,0.0,-0.399180441028394,0.0,0.0,0.0,0.0,0.0,0.0,-14.588,0.0,0.0,0.0
814,0.0,0.0,0.0,0.0930751953125,0.0,0.0,0.0,0.0,0.0,0.0,-0.399180441028394,0.0,0.0,0.0,0.0,0.0,0.0,-14.04,0.0,0.0,0.0
815,0.0,0.0,0.0,0.0874267578125,0.0,0.0,0.0,0.0,0.0,0.0,-0.399180441028394,0.0,0.0,0.0,0.0,0.0,0.0,-14.292,0.0,0.0,0.0
816,0.0,0.0,0.0,0.0814892578125,0.0,0.0,0.0,0.0,0.0,0.0,-0.399180441028394,0.0,0.0,0.0,0.0,0.0,0.0,-14.452,0.0,0.0,0.0
817,0.0,0.0,0.0,0.0756962890625,0.0,0.0,0.0,0.0,0.0,0.0,-0.399180441028394,0.0,0.0,0.0,0.0,0.0,0.0,-13.972,0.0,0.0,0.0
818,0.0,0.0,0.0,0.06989453125,0.0,0.0,0.0,0.0,0.0,0.0,-0.399180441028394,0.0,0.0,0.0,0.0,0.0,0.0,-14.336,0.0,0.0,0.0
819,0.0,0.0,0.0,0.06395703125,0.0,0.0,0.0,0.0,0.0,0.0,-0.399180441028394,0.0,0.0,0.0,0.0,0.0,0.0,-13.924,0.0,0.0,0.0
820,0.0,0.0,0.0,0.05830859375,0.0,0.0,0.0,0.0,0.0,0.0,-0.399180441028394,0.0,0.0,0.0,0.0,0.0,0.0,-14.36,0.0,0.0,0.0
821,0.0,0.0,0.0,0.0522177734375,0.0,0.0,0.0,0.0,0.0,0.0,-0.399180441028394,0.0,0.0,0.0,0.0,0.0,0.0,-14.864,0.0,0.0,0.0
822,0.0,0.0,0.0,0.046568359375,0.0,0.0,0.0,0.0,0.0,0.0,-0.399180441028394,0.0,0.0,0.0,0.0,0.0,0.0,-14.612,0.0,0.0,0.0
823,0.0,0.0,0.0,0.0409287109375,0.0,0.0,0.0,0.0,0.0,0.0,-0.399180441028394,0.0,0.0,0.0,0.0,0.0,0.0,-15.16,0.0,0.0,0.0
824,0.0,0.0,0.0,0.0349912109375,0.0,0.0,0.0,0.0,0.0,0.0,-0.399180441028394,0.0,0.0,0.0,0.0,0.0,0.0,-14.728,0.0,0.0,0.0
825,0.0,0.0,0.0,0.029623046875,0.0,0.0,0.0,0.0,0.0,0.0,-0.399180441028394,0.0,0.0,0.0,0.0,0.0,0.0,-14.772,0.0,0.0,0.0
826,0.0,0.0,0.0,0.023685546875,0.0,0.0,0.0,0.0,0.0,0.0,-0.399180441028394,0.0,0.0,0.0,0.0,0.0,0.0,-14.976,0.0,0.0,0.0
827,0.0,0.0,0.0,0.017603515625,0.0,0.0,0.0,0.0,0.0,0.0,-0.399180441028394,0.0,0.0,0.0,0.0,0.0,0.0,-14.316,0.0,0.0,0.0
828,0.0,0.0,0.0,0.01208984375,0.0,0.0,0.0,0.0,0.0,0.0,-0.399180441028394,0.0,0.0,0.0,0.0,0.0,0.0,-14.336,0.0,0.0,0.0
829,0.0,0.0,0.0,0.0058642578125,0.0,0.0,0.0,0.0,0.0,0.0,-0.399180441028394,0.0,0.0,0.0,0.0,0.0,0.0,-14.156,0.0,0.0,0.0
830,0.0,0.0,0.0,0.0002158203125,0.0,0.0,0.0,0.0,0.0,0.0,-0.399180441028394,0.0,0.0,0.0,0.0,0.0,0.0,-14.016,0.0,0.0,0.0
831,0.0,0.0,0.0,-0.0119560546875,0.0,0.0,0.0,0.0,0.0,0.0,-0.399180441028394,0.0,0.0,0.0,0.0,0.0,0.0,-14.796,0.0,0.0,0.0
832,0.0,0.0,0.0,-0.0119560546875,0.0,0.0,0.0,0.0,0.0,0.0,-0.399180441028394,0.0,0.0,0.0,0.0,0.0,0.0,-14.796,0.0,0.0,0.0
833,0.0,0.0,0.0,-0.017595703125,0.0,0.0,0.0,0.0,0.0,0.0,-0.399180441028394,0.0,0.0,0.0,0.0,0.0,0.0,-14.728,0.0,0.0,0.0
834,0.0,0.0,0.0,-0.023533203125,0.0,0.0,0.0,0.0,0.0,0.0,-0.399180441028394,0.0,0.0,0.0,0.0,0.0,0.0,-14.816,0.0,0.0,0.0
835,0.0,0.0,0.0,-0.029181640625,0.0,0.0,0.0,0.0,0.0,0.0,-0.399180441028394,0.0,0.0,0.0,0.0,0.0,0.0,-14.292,0.0,0.0,0.0
836,0.0,0.0,0.0,-0.0409208984375,0.0,0.0,0.0,0.0,0.0,0.0,-0.399180441028394,0.0,0.0,0.0,0.0,0.0,0.0,-14.612,0.0,0.0,0.0
837,0.0,0.0,0.0,-0.0409208984375,0.0,0.0,0.0,0.0,0.0,0.0,-0.399180441028394,0.0,0.0,0.0,0.0,0.0,0.0,-14.612,0.0,0.0,0.0
838,0.0,0.0,0.0,-0.0468583984375,0.0,0.0,0.0,0.0,0.0,0.0,-0.399180441028394,0.0,0.0,0.0,0.0,0.0,0.0,-14.084,0.0,0.0,0.0
839,0.0,0.0,0.0,-0.0528056640625,0.0,0.0,0.0,0.0,0.0,0.0,-0.399180441028394,0.0,0.0,0.0,0.0,0.0,0.0,-14.268,0.0,0.0,0.0
840,0.0,0.0,0.0,-0.05888671875,0.0,0.0,0.0,0.0,0.0,0.0,-0.399180441028394,0.0,0.0,0.0,0.0,0.0,0.0,-13.536,0.0,0.0,0.0
841,0.0,0.0,0.0,-0.0645361328125,0.0,0.0,0.0,0.0,0.0,0.0,-0.399180441028394,0.0,0.0,0.0,0.0,0.0,0.0,-14.2,0.0,0.0,0.0
842,0.0,0.0,0.0,-0.0706171875,0.0,0.0,0.0,0.0,0.0,0.0,-0.399180441028394,0.0,0.0,0.0,0.0,0.0,0.0,-15.024,0.0,0.0,0.0
843,0.0,0.0,0.0,-0.08234765625,0.0,0.0,0.0,0.0,0.0,0.0,-0.399180441028394,0.0,0.0,0.0,0.0,0.0,0.0,-14.976,0.0,0.0,0.0
844,0.0,0.0,0.0,-0.08234765625,0.0,0.0,0.0,0.0,0.0,0.0,-0.399180441028394,0.0,0.0,0.0,0.0,0.0,0.0,-14.976,0.0,0.0,0.0
845,0.0,0.0,0.0,-0.0884296875,0.0,0.0,0.0,0.0,0.0,0.0,-0.399180441028394,0.0,0.0,0.0,0.0,0.0,0.0,-14.428,0.0,0.0,0.0
