EmanuelSamir/lab201_ws_projsamir/sawyer_dev/data/sawyer/temp/test_incrementalsin_joint4.csv
,j1,j2,j3,j4,j5,j6,j7,v1,v2,v3,v4,v5,v6,v7,jd1,jd2,jd3,jd4,jd5,jd6,jd7,e1,e2,e3,e4,e5,e6,e7
0,0.0,0.0,0.0,0.0,0.0,0.0,0.0,0.0,0.0,0.0,0.0,0.0,0.0,0.0,0.0,0.0,0.0,0.0,0.0,0.0,0.0,0.0,0.0,0.0,0.0,0.0,0.0,0.0
1,0.0,0.0,0.0,-0.0018046875,0.0,0.0,0.0,0.0,0.0,0.0,-0.001,0.0,0.0,0.0,0.0,0.0,-1.61,0.12013446517939545,0.0,0.0,0.0,0.0,0.0,0.0,0.432,0.0,0.0,0.0
2,0.0,0.0,0.0,-0.0018046875,0.0,0.0,0.0,0.0,0.0,0.0,-0.001,0.0,0.0,0.0,0.0,0.0,-1.61,0.12119847077659103,0.0,0.0,0.0,0.0,0.0,0.0,0.432,0.0,0.0,0.0
3,0.0,0.0,0.0,-0.0018046875,0.0,0.0,0.0,0.0,0.0,0.0,-0.001,0.0,0.0,0.0,0.0,0.0,-1.61,0.12254651120370866,0.0,0.0,0.0,0.0,0.0,0.0,0.388,0.0,0.0,0.0
4,0.0,0.0,0.0,-0.0018046875,0.0,0.0,0.0,0.0,0.0,0.0,-0.001,0.0,0.0,0.0,0.0,0.0,-1.61,0.12378166818399271,0.0,0.0,0.0,0.0,0.0,0.0,0.34,0.0,0.0,0.0
5,0.0,0.0,0.0,-0.0012275390625,0.0,0.0,0.0,0.0,0.0,0.0,0.015,0.0,0.0,0.0,0.0,0.0,-1.61,0.12498668671076346,0.0,0.0,0.0,0.0,0.0,0.0,1.94,0.0,0.0,0.0
6,0.0,0.0,0.0,0.0009462890625,0.0,0.0,0.0,0.0,0.0,0.0,0.122,0.0,0.0,0.0,0.0,0.0,-1.61,0.1261397840663226,0.0,0.0,0.0,0.0,0.0,0.0,4.136,0.0,0.0,0.0
7,0.0,0.0,0.0,0.004419921875,0.0,0.0,0.0,0.0,0.0,0.0,0.277,0.0,0.0,0.0,0.0,0.0,-1.61,0.12724797042693914,0.0,0.0,0.0,0.0,0.0,0.0,4.776,0.0,0.0,0.0
8,0.0,0.0,0.0,0.0083271484375,0.0,0.0,0.0,0.0,0.0,0.0,0.36,0.0,0.0,0.0,0.0,0.0,-1.61,0.12829178711482303,0.0,0.0,0.0,0.0,0.0,0.0,4.984,0.0,0.0,0.0
9,0.0,0.0,0.0,0.0134072265625,0.0,0.0,0.0,0.0,0.0,0.0,0.44,0.0,0.0,0.0,0.0,0.0,-1.61,0.1292717676010325,0.0,0.0,0.0,0.0,0.0,0.0,3.796,0.0,0.0,0.0
10,0.0,0.0,0.0,0.0189033203125,0.0,0.0,0.0,0.0,0.0,0.0,0.538,0.0,0.0,0.0,0.0,0.0,-1.61,0.1302046629324423,0.0,0.0,0.0,0.0,0.0,0.0,2.192,0.0,0.0,0.0
11,0.0,0.0,0.0,0.02483984375,0.0,0.0,0.0,0.0,0.0,0.0,0.566,0.0,0.0,0.0,0.0,0.0,-1.61,0.13109199790685602,0.0,0.0,0.0,0.0,0.0,0.0,3.108,0.0,0.0,0.0
12,0.0,0.0,0.0,0.0315087890625,0.0,0.0,0.0,0.0,0.0,0.0,0.623,0.0,0.0,0.0,0.0,0.0,-1.61,0.131901716387637,0.0,0.0,0.0,0.0,0.0,0.0,3.428,0.0,0.0,0.0
13,0.0,0.0,0.0,0.0383212890625,0.0,0.0,0.0,0.0,0.0,0.0,0.684,0.0,0.0,0.0,0.0,0.0,-1.61,0.13266677929533427,0.0,0.0,0.0,0.0,0.0,0.0,3.656,0.0,0.0,0.0
14,0.0,0.0,0.0,0.04498046875,0.0,0.0,0.0,0.0,0.0,0.0,0.678,0.0,0.0,0.0,0.0,0.0,-1.61,0.1333757184993282,0.0,0.0,0.0,0.0,0.0,0.0,4.024,0.0,0.0,0.0
15,0.0,0.0,0.0,0.0516396484375,0.0,0.0,0.0,0.0,0.0,0.0,0.664,0.0,0.0,0.0,0.0,0.0,-1.61,0.13401948163503863,0.0,0.0,0.0,0.0,0.0,0.0,3.268,0.0,0.0,0.0
16,0.0,0.0,0.0,0.0584521484375,0.0,0.0,0.0,0.0,0.0,0.0,0.676,0.0,0.0,0.0,0.0,0.0,-1.61,0.13460922591964455,0.0,0.0,0.0,0.0,0.0,0.0,3.908,0.0,0.0,0.0
17,0.0,0.0,0.0,0.0656982421875,0.0,0.0,0.0,0.0,0.0,0.0,0.706,0.0,0.0,0.0,0.0,0.0,-1.61,0.13514080775062431,0.0,0.0,0.0,0.0,0.0,0.0,4.184,0.0,0.0,0.0
18,0.0,0.0,0.0,0.072791015625,0.0,0.0,0.0,0.0,0.0,0.0,0.728,0.0,0.0,0.0,0.0,0.0,-1.61,0.13561155045247375,0.0,0.0,0.0,0.0,0.0,0.0,3.384,0.0,0.0,0.0
19,0.0,0.0,0.0,0.079458984375,0.0,0.0,0.0,0.0,0.0,0.0,0.695,0.0,0.0,0.0,0.0,0.0,-1.61,0.13602432936148198,0.0,0.0,0.0,0.0,0.0,0.0,1.256,0.0,0.0,0.0
20,0.0,0.0,0.0,0.0859736328125,0.0,0.0,0.0,0.0,0.0,0.0,0.659,0.0,0.0,0.0,0.0,0.0,-1.61,0.13637501715740724,0.0,0.0,0.0,0.0,0.0,0.0,0.912,0.0,0.0,0.0
21,0.0,0.0,0.0,0.0930751953125,0.0,0.0,0.0,0.0,0.0,0.0,0.68,0.0,0.0,0.0,0.0,0.0,-1.61,0.13667009348041023,0.0,0.0,0.0,0.0,0.0,0.0,1.828,0.0,0.0,0.0
22,0.0,0.0,0.0,0.099599609375,0.0,0.0,0.0,0.0,0.0,0.0,0.693,0.0,0.0,0.0,0.0,0.0,-1.61,0.1369005670895815,0.0,0.0,0.0,0.0,0.0,0.0,2.264,0.0,0.0,0.0
23,0.0,0.0,0.0,0.1059609375,0.0,0.0,0.0,0.0,0.0,0.0,0.653,0.0,0.0,0.0,0.0,0.0,-1.61,0.137075047879566,0.0,0.0,0.0,0.0,0.0,0.0,1.92,0.0,0.0,0.0
24,0.0,0.0,0.0,0.1126201171875,0.0,0.0,0.0,0.0,0.0,0.0,0.649,0.0,0.0,0.0,0.0,0.0,-1.61,0.13718723219778192,0.0,0.0,0.0,0.0,0.0,0.0,0.936,0.0,0.0,0.0
25,0.0,0.0,0.0,0.1192880859375,0.0,0.0,0.0,0.0,0.0,0.0,0.665,0.0,0.0,0.0,0.0,0.0,-1.61,0.1372384886703766,0.0,0.0,0.0,0.0,0.0,0.0,0.752,0.0,0.0,0.0
26,0.0,0.0,0.0,0.125947265625,0.0,0.0,0.0,0.0,0.0,0.0,0.673,0.0,0.0,0.0,0.0,0.0,-1.61,0.13722952671823332,0.0,0.0,0.0,0.0,0.0,0.0,0.728,0.0,0.0,0.0
27,0.0,0.0,0.0,0.1321826171875,0.0,0.0,0.0,0.0,0.0,0.0,0.648,0.0,0.0,0.0,0.0,0.0,-1.61,0.1371575133628319,0.0,0.0,0.0,0.0,0.0,0.0,0.888,0.0,0.0,0.0
28,0.0,0.0,0.0,0.1379755859375,0.0,0.0,0.0,0.0,0.0,0.0,0.611,0.0,0.0,0.0,0.0,0.0,-1.61,0.13702957694793794,0.0,0.0,0.0,0.0,0.0,0.0,-0.616,0.0,0.0,0.0
29,0.0,0.0,0.0,0.1427587890625,0.0,0.0,0.0,0.0,0.0,0.0,0.549,0.0,0.0,0.0,0.0,0.0,-1.61,0.13683784217017106,0.0,0.0,0.0,0.0,0.0,0.0,-3.156,0.0,0.0,0.0
30,0.0,0.0,0.0,0.1456552734375,0.0,0.0,0.0,0.0,0.0,0.0,0.403,0.0,0.0,0.0,0.0,0.0,-1.61,0.1365851705852786,0.0,0.0,0.0,0.0,0.0,0.0,-5.328,0.0,0.0,0.0
31,0.0,0.0,0.0,0.146521484375,0.0,0.0,0.0,0.0,0.0,0.0,0.211,0.0,0.0,0.0,0.0,0.0,-1.61,0.1362708479496413,0.0,0.0,0.0,0.0,0.0,0.0,-7.544,0.0,0.0,0.0
32,0.0,0.0,0.0,0.145798828125,0.0,0.0,0.0,0.0,0.0,0.0,0.014,0.0,0.0,0.0,0.0,0.0,-1.61,0.13590053416086484,0.0,0.0,0.0,0.0,0.0,0.0,-7.684,0.0,0.0,0.0
33,0.0,0.0,0.0,0.1442021484375,0.0,0.0,0.0,0.0,0.0,0.0,-0.104,0.0,0.0,0.0,0.0,0.0,-1.61,0.1354632046172393,0.0,0.0,0.0,0.0,0.0,0.0,-6.104,0.0,0.0,0.0
34,0.0,0.0,0.0,0.1423251953125,0.0,0.0,0.0,0.0,0.0,0.0,-0.171,0.0,0.0,0.0,0.0,0.0,-1.61,0.13496959981646073,0.0,0.0,0.0,0.0,0.0,0.0,-4.504,0.0,0.0,0.0
35,0.0,0.0,0.0,0.140439453125,0.0,0.0,0.0,0.0,0.0,0.0,-0.2,0.0,0.0,0.0,0.0,0.0,-1.61,0.13441534104277905,0.0,0.0,0.0,0.0,0.0,0.0,-2.788,0.0,0.0,0.0
36,0.0,0.0,0.0,0.1391396484375,0.0,0.0,0.0,0.0,0.0,0.0,-0.17,0.0,0.0,0.0,0.0,0.0,-1.61,0.1337942779843122,0.0,0.0,0.0,0.0,0.0,0.0,-2.124,0.0,0.0,0.0
37,0.0,0.0,0.0,0.1385625,0.0,0.0,0.0,0.0,0.0,0.0,-0.099,0.0,0.0,0.0,0.0,0.0,-1.61,0.13311799234468824,0.0,0.0,0.0,0.0,0.0,0.0,-2.672,0.0,0.0,0.0
38,0.0,0.0,0.0,0.1381201171875,0.0,0.0,0.0,0.0,0.0,0.0,-0.025,0.0,0.0,0.0,0.0,0.0,-1.61,0.13227975653119353,0.0,0.0,0.0,0.0,0.0,0.0,-2.904,0.0,0.0,0.0
39,0.0,0.0,0.0,0.1381201171875,0.0,0.0,0.0,0.0,0.0,0.0,-0.025,0.0,0.0,0.0,0.0,0.0,-1.61,0.1315955467594386,0.0,0.0,0.0,0.0,0.0,0.0,-2.904,0.0,0.0,0.0
40,0.0,0.0,0.0,0.1382734375,0.0,0.0,0.0,0.0,0.0,0.0,0.003,0.0,0.0,0.0,0.0,0.0,-1.61,0.13073684182497408,0.0,0.0,0.0,0.0,0.0,0.0,-3.428,0.0,0.0,0.0
41,0.0,0.0,0.0,0.13841796875,0.0,0.0,0.0,0.0,0.0,0.0,0.016,0.0,0.0,0.0,0.0,0.0,-1.61,0.129811881214055,0.0,0.0,0.0,0.0,0.0,0.0,-3.588,0.0,0.0,0.0
42,0.0,0.0,0.0,0.1382734375,0.0,0.0,0.0,0.0,0.0,0.0,0.004,0.0,0.0,0.0,0.0,0.0,-1.61,0.12885822539874894,0.0,0.0,0.0,0.0,0.0,0.0,-3.52,0.0,0.0,0.0
43,0.0,0.0,0.0,0.13783203125,0.0,0.0,0.0,0.0,0.0,0.0,-0.027,0.0,0.0,0.0,0.0,0.0,-1.61,0.12782324274789833,0.0,0.0,0.0,0.0,0.0,0.0,-3.176,0.0,0.0,0.0
44,0.0,0.0,0.0,0.1369658203125,0.0,0.0,0.0,0.0,0.0,0.0,-0.062,0.0,0.0,0.0,0.0,0.0,-1.61,0.12673112603515413,0.0,0.0,0.0,0.0,0.0,0.0,-2.492,0.0,0.0,0.0
45,0.0,0.0,0.0,0.135666015625,0.0,0.0,0.0,0.0,0.0,0.0,-0.108,0.0,0.0,0.0,0.0,0.0,-1.61,0.1255729469202902,0.0,0.0,0.0,0.0,0.0,0.0,-1.372,0.0,0.0,0.0
46,0.0,0.0,0.0,0.1344931640625,0.0,0.0,0.0,0.0,0.0,0.0,-0.124,0.0,0.0,0.0,0.0,0.0,-1.61,0.1243814452661269,0.0,0.0,0.0,0.0,0.0,0.0,-0.752,0.0,0.0,0.0
47,0.0,0.0,0.0,0.133048828125,0.0,0.0,0.0,0.0,0.0,0.0,-0.133,0.0,0.0,0.0,0.0,0.0,-1.61,0.12312497094181343,0.0,0.0,0.0,0.0,0.0,0.0,-0.844,0.0,0.0,0.0
48,0.0,0.0,0.0,0.1315966796875,0.0,0.0,0.0,0.0,0.0,0.0,-0.146,0.0,0.0,0.0,0.0,0.0,-1.61,0.12179667086568072,0.0,0.0,0.0,0.0,0.0,0.0,-1.212,0.0,0.0,0.0
49,0.0,0.0,0.0,0.13015234375,0.0,0.0,0.0,0.0,0.0,0.0,-0.146,0.0,0.0,0.0,0.0,0.0,-1.61,0.12043305138358319,0.0,0.0,0.0,0.0,0.0,0.0,-1.096,0.0,0.0,0.0
50,0.0,0.0,0.0,0.1285556640625,0.0,0.0,0.0,0.0,0.0,0.0,-0.152,0.0,0.0,0.0,0.0,0.0,-1.61,0.11900590912970248,0.0,0.0,0.0,0.0,0.0,0.0,-0.8,0.0,0.0,0.0
51,0.0,0.0,0.0,0.1265341796875,0.0,0.0,0.0,0.0,0.0,0.0,-0.175,0.0,0.0,0.0,0.0,0.0,-1.61,0.11749499276066916,0.0,0.0,0.0,0.0,0.0,0.0,-0.296,0.0,0.0,0.0
52,0.0,0.0,0.0,0.12450390625,0.0,0.0,0.0,0.0,0.0,0.0,-0.208,0.0,0.0,0.0,0.0,0.0,-1.61,0.11599652401366392,0.0,0.0,0.0,0.0,0.0,0.0,0.296,0.0,0.0,0.0
53,0.0,0.0,0.0,0.1226181640625,0.0,0.0,0.0,0.0,0.0,0.0,-0.203,0.0,0.0,0.0,0.0,0.0,-1.61,0.1144055664270872,0.0,0.0,0.0,0.0,0.0,0.0,0.96,0.0,0.0,0.0
54,0.0,0.0,0.0,0.1205966796875,0.0,0.0,0.0,0.0,0.0,0.0,-0.19,0.0,0.0,0.0,0.0,0.0,-1.61,0.11275105418333621,0.0,0.0,0.0,0.0,0.0,0.0,1.052,0.0,0.0,0.0
55,0.0,0.0,0.0,0.11856640625,0.0,0.0,0.0,0.0,0.0,0.0,-0.201,0.0,0.0,0.0,0.0,0.0,-1.61,0.11105186683985012,0.0,0.0,0.0,0.0,0.0,0.0,1.096,0.0,0.0,0.0
56,0.0,0.0,0.0,0.1168251953125,0.0,0.0,0.0,0.0,0.0,0.0,-0.192,0.0,0.0,0.0,0.0,0.0,-1.61,0.10932214385419979,0.0,0.0,0.0,0.0,0.0,0.0,1.072,0.0,0.0,0.0
57,0.0,0.0,0.0,0.114939453125,0.0,0.0,0.0,0.0,0.0,0.0,-0.182,0.0,0.0,0.0,0.0,0.0,-1.61,0.10749062855093232,0.0,0.0,0.0,0.0,0.0,0.0,0.912,0.0,0.0,0.0
58,0.0,0.0,0.0,0.1129091796875,0.0,0.0,0.0,0.0,0.0,0.0,-0.206,0.0,0.0,0.0,0.0,0.0,-1.61,0.10568085692684462,0.0,0.0,0.0,0.0,0.0,0.0,1.44,0.0,0.0,0.0
59,0.0,0.0,0.0,0.1110322265625,0.0,0.0,0.0,0.0,0.0,0.0,-0.197,0.0,0.0,0.0,0.0,0.0,-1.61,0.10377575969933724,0.0,0.0,0.0,0.0,0.0,0.0,1.712,0.0,0.0,0.0
60,0.0,0.0,0.0,0.108712890625,0.0,0.0,0.0,0.0,0.0,0.0,-0.203,0.0,0.0,0.0,0.0,0.0,-1.61,0.10179714762023799,0.0,0.0,0.0,0.0,0.0,0.0,1.46,0.0,0.0,0.0
61,0.0,0.0,0.0,0.1063935546875,0.0,0.0,0.0,0.0,0.0,0.0,-0.237,0.0,0.0,0.0,0.0,0.0,-1.61,0.09979634163638719,0.0,0.0,0.0,0.0,0.0,0.0,2.012,0.0,0.0,0.0
62,0.0,0.0,0.0,0.1045078125,0.0,0.0,0.0,0.0,0.0,0.0,-0.217,0.0,0.0,0.0,0.0,0.0,-1.61,0.09780526068373592,0.0,0.0,0.0,0.0,0.0,0.0,2.124,0.0,0.0,0.0
63,0.0,0.0,0.0,0.102630859375,0.0,0.0,0.0,0.0,0.0,0.0,-0.191,0.0,0.0,0.0,0.0,0.0,-1.61,0.09569975463977284,0.0,0.0,0.0,0.0,0.0,0.0,2.24,0.0,0.0,0.0
64,0.0,0.0,0.0,0.1006103515625,0.0,0.0,0.0,0.0,0.0,0.0,-0.194,0.0,0.0,0.0,0.0,0.0,-1.61,0.0935755189919473,0.0,0.0,0.0,0.0,0.0,0.0,1.92,0.0,0.0,0.0
65,0.0,0.0,0.0,0.098435546875,0.0,0.0,0.0,0.0,0.0,0.0,-0.205,0.0,0.0,0.0,0.0,0.0,-1.61,0.09140059383939221,0.0,0.0,0.0,0.0,0.0,0.0,1.096,0.0,0.0,0.0
66,0.0,0.0,0.0,0.0964140625,0.0,0.0,0.0,0.0,0.0,0.0,-0.213,0.0,0.0,0.0,0.0,0.0,-1.61,0.08918442889412233,0.0,0.0,0.0,0.0,0.0,0.0,0.96,0.0,0.0,0.0
67,0.0,0.0,0.0,0.09451953125,0.0,0.0,0.0,0.0,0.0,0.0,-0.205,0.0,0.0,0.0,0.0,0.0,-1.61,0.08692167355404433,0.0,0.0,0.0,0.0,0.0,0.0,1.552,0.0,0.0,0.0
68,0.0,0.0,0.0,0.0929306640625,0.0,0.0,0.0,0.0,0.0,0.0,-0.178,0.0,0.0,0.0,0.0,0.0,-1.61,0.08462147188027559,0.0,0.0,0.0,0.0,0.0,0.0,1.964,0.0,0.0,0.0
69,0.0,0.0,0.0,0.090900390625,0.0,0.0,0.0,0.0,0.0,0.0,-0.175,0.0,0.0,0.0,0.0,0.0,-1.61,0.08227855198368042,0.0,0.0,0.0,0.0,0.0,0.0,0.82,0.0,0.0,0.0
70,0.0,0.0,0.0,0.08858203125,0.0,0.0,0.0,0.0,0.0,0.0,-0.218,0.0,0.0,0.0,0.0,0.0,-1.61,0.07985464031523698,0.0,0.0,0.0,0.0,0.0,0.0,0.296,0.0,0.0,0.0
71,0.0,0.0,0.0,0.086705078125,0.0,0.0,0.0,0.0,0.0,0.0,-0.211,0.0,0.0,0.0,0.0,0.0,-1.61,0.07742565084711,0.0,0.0,0.0,0.0,0.0,0.0,0.16,0.0,0.0,0.0
72,0.0,0.0,0.0,0.0848193359375,0.0,0.0,0.0,0.0,0.0,0.0,-0.185,0.0,0.0,0.0,0.0,0.0,-1.61,0.07501789096286524,0.0,0.0,0.0,0.0,0.0,0.0,-0.112,0.0,0.0,0.0
73,0.0,0.0,0.0,0.08264453125,0.0,0.0,0.0,0.0,0.0,0.0,-0.206,0.0,0.0,0.0,0.0,0.0,-1.61,0.07249204207907223,0.0,0.0,0.0,0.0,0.0,0.0,-0.02,0.0,0.0,0.0
74,0.0,0.0,0.0,0.080767578125,0.0,0.0,0.0,0.0,0.0,0.0,-0.212,0.0,0.0,0.0,0.0,0.0,-1.61,0.06996419898757825,0.0,0.0,0.0,0.0,0.0,0.0,0.02,0.0,0.0,0.0
75,0.0,0.0,0.0,0.0787373046875,0.0,0.0,0.0,0.0,0.0,0.0,-0.197,0.0,0.0,0.0,0.0,0.0,-1.61,0.06742419788817382,0.0,0.0,0.0,0.0,0.0,0.0,-0.248,0.0,0.0,0.0
76,0.0,0.0,0.0,0.07641796875,0.0,0.0,0.0,0.0,0.0,0.0,-0.22,0.0,0.0,0.0,0.0,0.0,-1.61,0.06472220711537754,0.0,0.0,0.0,0.0,0.0,0.0,0.18,0.0,0.0,0.0
77,0.0,0.0,0.0,0.0743876953125,0.0,0.0,0.0,0.0,0.0,0.0,-0.216,0.0,0.0,0.0,0.0,0.0,-1.61,0.06218327216736526,0.0,0.0,0.0,0.0,0.0,0.0,0.272,0.0,0.0,0.0
78,0.0,0.0,0.0,0.072212890625,0.0,0.0,0.0,0.0,0.0,0.0,-0.208,0.0,0.0,0.0,0.0,0.0,-1.61,0.059492181639006256,0.0,0.0,0.0,0.0,0.0,0.0,0.204,0.0,0.0,0.0
79,0.0,0.0,0.0,0.06989453125,0.0,0.0,0.0,0.0,0.0,0.0,-0.222,0.0,0.0,0.0,0.0,0.0,-1.61,0.056793934913791706,0.0,0.0,0.0,0.0,0.0,0.0,-0.248,0.0,0.0,0.0
80,0.0,0.0,0.0,0.0674306640625,0.0,0.0,0.0,0.0,0.0,0.0,-0.24,0.0,0.0,0.0,0.0,0.0,-1.61,0.054086645612996066,0.0,0.0,0.0,0.0,0.0,0.0,-0.888,0.0,0.0,0.0
81,0.0,0.0,0.0,0.0648232421875,0.0,0.0,0.0,0.0,0.0,0.0,-0.253,0.0,0.0,0.0,0.0,0.0,-1.61,0.05133328248559762,0.0,0.0,0.0,0.0,0.0,0.0,-0.64,0.0,0.0,0.0
82,0.0,0.0,0.0,0.062224609375,0.0,0.0,0.0,0.0,0.0,0.0,-0.266,0.0,0.0,0.0,0.0,0.0,-1.61,0.048544366893500585,0.0,0.0,0.0,0.0,0.0,0.0,-0.228,0.0,0.0,0.0
83,0.0,0.0,0.0,0.0596162109375,0.0,0.0,0.0,0.0,0.0,0.0,-0.269,0.0,0.0,0.0,0.0,0.0,-1.61,0.04577005313185125,0.0,0.0,0.0,0.0,0.0,0.0,-0.228,0.0,0.0,0.0
84,0.0,0.0,0.0,0.0568642578125,0.0,0.0,0.0,0.0,0.0,0.0,-0.265,0.0,0.0,0.0,0.0,0.0,-1.61,0.04292644043478216,0.0,0.0,0.0,0.0,0.0,0.0,-0.248,0.0,0.0,0.0
85,0.0,0.0,0.0,0.0541123046875,0.0,0.0,0.0,0.0,0.0,0.0,-0.275,0.0,0.0,0.0,0.0,0.0,-1.61,0.0400681533692991,0.0,0.0,0.0,0.0,0.0,0.0,-0.5,0.0,0.0,0.0
86,0.0,0.0,0.0,0.0514951171875,0.0,0.0,0.0,0.0,0.0,0.0,-0.27,0.0,0.0,0.0,0.0,0.0,-1.61,0.037155184385245454,0.0,0.0,0.0,0.0,0.0,0.0,-0.5,0.0,0.0,0.0
87,0.0,0.0,0.0,0.0488876953125,0.0,0.0,0.0,0.0,0.0,0.0,-0.262,0.0,0.0,0.0,0.0,0.0,-1.61,0.034336205342211566,0.0,0.0,0.0,0.0,0.0,0.0,-0.64,0.0,0.0,0.0
88,0.0,0.0,0.0,0.0459912109375,0.0,0.0,0.0,0.0,0.0,0.0,-0.279,0.0,0.0,0.0,0.0,0.0,-1.61,0.031391373194262204,0.0,0.0,0.0,0.0,0.0,0.0,-0.844,0.0,0.0,0.0
89,0.0,0.0,0.0,0.0432392578125,0.0,0.0,0.0,0.0,0.0,0.0,-0.284,0.0,0.0,0.0,0.0,0.0,-1.61,0.028470574583489318,0.0,0.0,0.0,0.0,0.0,0.0,-0.616,0.0,0.0,0.0
90,0.0,0.0,0.0,0.0404873046875,0.0,0.0,0.0,0.0,0.0,0.0,-0.273,0.0,0.0,0.0,0.0,0.0,-1.61,0.025544399586123145,0.0,0.0,0.0,0.0,0.0,0.0,-0.684,0.0,0.0,0.0
91,0.0,0.0,0.0,0.037599609375,0.0,0.0,0.0,0.0,0.0,0.0,-0.287,0.0,0.0,0.0,0.0,0.0,-1.61,0.022575706547255478,0.0,0.0,0.0,0.0,0.0,0.0,-0.548,0.0,0.0,0.0
92,0.0,0.0,0.0,0.034703125,0.0,0.0,0.0,0.0,0.0,0.0,-0.292,0.0,0.0,0.0,0.0,0.0,-1.61,0.019614031854332595,0.0,0.0,0.0,0.0,0.0,0.0,-0.592,0.0,0.0,0.0
93,0.0,0.0,0.0,0.0316533203125,0.0,0.0,0.0,0.0,0.0,0.0,-0.292,0.0,0.0,0.0,0.0,0.0,-1.61,0.01660696803500994,0.0,0.0,0.0,0.0,0.0,0.0,-1.028,0.0,0.0,0.0
94,0.0,0.0,0.0,0.028900390625,0.0,0.0,0.0,0.0,0.0,0.0,-0.3,0.0,0.0,0.0,0.0,0.0,-1.61,0.013619284580576648,0.0,0.0,0.0,0.0,0.0,0.0,-0.64,0.0,0.0,0.0
95,0.0,0.0,0.0,0.0261484375,0.0,0.0,0.0,0.0,0.0,0.0,-0.276,0.0,0.0,0.0,0.0,0.0,-1.61,0.010615174905774216,0.0,0.0,0.0,0.0,0.0,0.0,-0.912,0.0,0.0,0.0
96,0.0,0.0,0.0,0.0228193359375,0.0,0.0,0.0,0.0,0.0,0.0,-0.298,0.0,0.0,0.0,0.0,0.0,-1.61,0.0075855794532545965,0.0,0.0,0.0,0.0,0.0,0.0,-0.728,0.0,0.0,0.0
97,0.0,0.0,0.0,0.0196337890625,0.0,0.0,0.0,0.0,0.0,0.0,-0.33,0.0,0.0,0.0,0.0,0.0,-1.61,0.004561971071772916,0.0,0.0,0.0,0.0,0.0,0.0,-0.248,0.0,0.0,0.0
98,0.0,0.0,0.0,0.0165927734375,0.0,0.0,0.0,0.0,0.0,0.0,-0.312,0.0,0.0,0.0,0.0,0.0,-1.61,0.0014964165199600177,0.0,0.0,0.0,0.0,0.0,0.0,-0.044,0.0,0.0,0.0
99,0.0,0.0,0.0,0.0134072265625,0.0,0.0,0.0,0.0,0.0,0.0,-0.312,0.0,0.0,0.0,0.0,0.0,-1.61,-0.0014905527052876714,0.0,0.0,0.0,0.0,0.0,0.0,0.408,0.0,0.0,0.0
100,0.0,0.0,0.0,0.010212890625,0.0,0.0,0.0,0.0,0.0,0.0,-0.33,0.0,0.0,0.0,0.0,0.0,-1.61,-0.004574005191258433,0.0,0.0,0.0,0.0,0.0,0.0,0.868,0.0,0.0,0.0
101,0.0,0.0,0.0,0.0070283203125,0.0,0.0,0.0,0.0,0.0,0.0,-0.32,0.0,0.0,0.0,0.0,0.0,-1.61,-0.0075924293427253155,0.0,0.0,0.0,0.0,0.0,0.0,0.592,0.0,0.0,0.0
102,0.0,0.0,0.0,0.003544921875,0.0,0.0,0.0,0.0,0.0,0.0,-0.332,0.0,0.0,0.0,0.0,0.0,-1.61,-0.010628449560800864,0.0,0.0,0.0,0.0,0.0,0.0,0.296,0.0,0.0,0.0
103,0.0,0.0,0.0,0.0002158203125,0.0,0.0,0.0,0.0,0.0,0.0,-0.349,0.0,0.0,0.0,0.0,0.0,-1.61,-0.013684939351752669,0.0,0.0,0.0,0.0,0.0,0.0,0.432,0.0,0.0,0.0
104,0.0,0.0,0.0,-0.00311328125,0.0,0.0,0.0,0.0,0.0,0.0,-0.329,0.0,0.0,0.0,0.0,0.0,-1.61,-0.016742959837848737,0.0,0.0,0.0,0.0,0.0,0.0,0.388,0.0,0.0,0.0
105,0.0,0.0,0.0,-0.0065869140625,0.0,0.0,0.0,0.0,0.0,0.0,-0.342,0.0,0.0,0.0,0.0,0.0,-1.61,-0.019777959848900305,0.0,0.0,0.0,0.0,0.0,0.0,0.728,0.0,0.0,0.0
106,0.0,0.0,0.0,-0.00992578125,0.0,0.0,0.0,0.0,0.0,0.0,-0.345,0.0,0.0,0.0,0.0,0.0,-1.61,-0.022793848528213326,0.0,0.0,0.0,0.0,0.0,0.0,0.98,0.0,0.0,0.0
107,0.0,0.0,0.0,-0.013111328125,0.0,0.0,0.0,0.0,0.0,0.0,-0.323,0.0,0.0,0.0,0.0,0.0,-1.61,-0.025838137390697305,0.0,0.0,0.0,0.0,0.0,0.0,0.548,0.0,0.0,0.0
108,0.0,0.0,0.0,-0.0164404296875,0.0,0.0,0.0,0.0,0.0,0.0,-0.335,0.0,0.0,0.0,0.0,0.0,-1.61,-0.028869901619988102,0.0,0.0,0.0,0.0,0.0,0.0,0.936,0.0,0.0,0.0
109,0.0,0.0,0.0,-0.019193359375,0.0,0.0,0.0,0.0,0.0,0.0,-0.313,0.0,0.0,0.0,0.0,0.0,-1.61,-0.031852413946363074,0.0,0.0,0.0,0.0,0.0,0.0,1.324,0.0,0.0,0.0
110,0.0,0.0,0.0,-0.02180078125,0.0,0.0,0.0,0.0,0.0,0.0,-0.267,0.0,0.0,0.0,0.0,0.0,-1.61,-0.03487525170130764,0.0,0.0,0.0,0.0,0.0,0.0,0.752,0.0,0.0,0.0
111,0.0,0.0,0.0,-0.024986328125,0.0,0.0,0.0,0.0,0.0,0.0,-0.291,0.0,0.0,0.0,0.0,0.0,-1.61,-0.037848627449225195,0.0,0.0,0.0,0.0,0.0,0.0,0.408,0.0,0.0,0.0
112,0.0,0.0,0.0,-0.0278828125,0.0,0.0,0.0,0.0,0.0,0.0,-0.306,0.0,0.0,0.0,0.0,0.0,-1.61,-0.04082000741808881,0.0,0.0,0.0,0.0,0.0,0.0,-0.364,0.0,0.0,0.0
113,0.0,0.0,0.0,-0.0310771484375,0.0,0.0,0.0,0.0,0.0,0.0,-0.305,0.0,0.0,0.0,0.0,0.0,-1.61,-0.043832462004751195,0.0,0.0,0.0,0.0,0.0,0.0,-0.34,0.0,0.0,0.0
114,0.0,0.0,0.0,-0.0341181640625,0.0,0.0,0.0,0.0,0.0,0.0,-0.317,0.0,0.0,0.0,0.0,0.0,-1.61,-0.046752608026784444,0.0,0.0,0.0,0.0,0.0,0.0,0.272,0.0,0.0,0.0
115,0.0,0.0,0.0,-0.0370146484375,0.0,0.0,0.0,0.0,0.0,0.0,-0.298,0.0,0.0,0.0,0.0,0.0,-1.61,-0.04967895174318557,0.0,0.0,0.0,0.0,0.0,0.0,0.248,0.0,0.0,0.0
116,0.0,0.0,0.0,-0.0399111328125,0.0,0.0,0.0,0.0,0.0,0.0,-0.292,0.0,0.0,0.0,0.0,0.0,-1.61,-0.052588026695157955,0.0,0.0,0.0,0.0,0.0,0.0,0.248,0.0,0.0,0.0
117,0.0,0.0,0.0,-0.0428076171875,0.0,0.0,0.0,0.0,0.0,0.0,-0.292,0.0,0.0,0.0,0.0,0.0,-1.61,-0.055489114266123886,0.0,0.0,0.0,0.0,0.0,0.0,0.136,0.0,0.0,0.0
118,0.0,0.0,0.0,-0.0454150390625,0.0,0.0,0.0,0.0,0.0,0.0,-0.274,0.0,0.0,0.0,0.0,0.0,-1.61,-0.05836495793580036,0.0,0.0,0.0,0.0,0.0,0.0,0.044,0.0,0.0,0.0
119,0.0,0.0,0.0,-0.048302734375,0.0,0.0,0.0,0.0,0.0,0.0,-0.28,0.0,0.0,0.0,0.0,0.0,-1.61,-0.06122255300337443,0.0,0.0,0.0,0.0,0.0,0.0,0.228,0.0,0.0,0.0
120,0.0,0.0,0.0,-0.05091015625,0.0,0.0,0.0,0.0,0.0,0.0,-0.282,0.0,0.0,0.0,0.0,0.0,-1.61,-0.06406090732141602,0.0,0.0,0.0,0.0,0.0,0.0,0.388,0.0,0.0,0.0
121,0.0,0.0,0.0,-0.053671875,0.0,0.0,0.0,0.0,0.0,0.0,-0.272,0.0,0.0,0.0,0.0,0.0,-1.61,-0.06686731531850537,0.0,0.0,0.0,0.0,0.0,0.0,0.456,0.0,0.0,0.0
122,0.0,0.0,0.0,-0.056568359375,0.0,0.0,0.0,0.0,0.0,0.0,-0.28,0.0,0.0,0.0,0.0,0.0,-1.61,-0.06964543437660402,0.0,0.0,0.0,0.0,0.0,0.0,0.456,0.0,0.0,0.0
123,0.0,0.0,0.0,-0.0597529296875,0.0,0.0,0.0,0.0,0.0,0.0,-0.302,0.0,0.0,0.0,0.0,0.0,-1.61,-0.07238266471521604,0.0,0.0,0.0,0.0,0.0,0.0,0.48,0.0,0.0,0.0
124,0.0,0.0,0.0,-0.0626494140625,0.0,0.0,0.0,0.0,0.0,0.0,-0.308,0.0,0.0,0.0,0.0,0.0,-1.61,-0.07510762327435896,0.0,0.0,0.0,0.0,0.0,0.0,0.684,0.0,0.0,0.0
125,0.0,0.0,0.0,-0.0655458984375,0.0,0.0,0.0,0.0,0.0,0.0,-0.294,0.0,0.0,0.0,0.0,0.0,-1.61,-0.07783113091790798,0.0,0.0,0.0,0.0,0.0,0.0,0.248,0.0,0.0,0.0
126,0.0,0.0,0.0,-0.068298828125,0.0,0.0,0.0,0.0,0.0,0.0,-0.289,0.0,0.0,0.0,0.0,0.0,-1.61,-0.08046076070275052,0.0,0.0,0.0,0.0,0.0,0.0,0.548,0.0,0.0,0.0
127,0.0,0.0,0.0,-0.07090625,0.0,0.0,0.0,0.0,0.0,0.0,-0.267,0.0,0.0,0.0,0.0,0.0,-1.61,-0.083157277298229,0.0,0.0,0.0,0.0,0.0,0.0,0.02,0.0,0.0,0.0
128,0.0,0.0,0.0,-0.073947265625,0.0,0.0,0.0,0.0,0.0,0.0,-0.283,0.0,0.0,0.0,0.0,0.0,-1.61,-0.08571601050004549,0.0,0.0,0.0,0.0,0.0,0.0,-0.204,0.0,0.0,0.0
129,0.0,0.0,0.0,-0.0768525390625,0.0,0.0,0.0,0.0,0.0,0.0,-0.31,0.0,0.0,0.0,0.0,0.0,-1.61,-0.08824061688704368,0.0,0.0,0.0,0.0,0.0,0.0,0.296,0.0,0.0,0.0
130,0.0,0.0,0.0,-0.0794599609375,0.0,0.0,0.0,0.0,0.0,0.0,-0.274,0.0,0.0,0.0,0.0,0.0,-1.61,-0.09079124751849398,0.0,0.0,0.0,0.0,0.0,0.0,0.044,0.0,0.0,0.0
131,0.0,0.0,0.0,-0.0825009765625,0.0,0.0,0.0,0.0,0.0,0.0,-0.275,0.0,0.0,0.0,0.0,0.0,-1.61,-0.09329640135216155,0.0,0.0,0.0,0.0,0.0,0.0,0.568,0.0,0.0,0.0
132,0.0,0.0,0.0,-0.0849560546875,0.0,0.0,0.0,0.0,0.0,0.0,-0.284,0.0,0.0,0.0,0.0,0.0,-1.61,-0.09572327738603428,0.0,0.0,0.0,0.0,0.0,0.0,0.776,0.0,0.0,0.0
133,0.0,0.0,0.0,-0.0872744140625,0.0,0.0,0.0,0.0,0.0,0.0,-0.245,0.0,0.0,0.0,0.0,0.0,-1.61,-0.09813933506756874,0.0,0.0,0.0,0.0,0.0,0.0,0.18,0.0,0.0,0.0
134,0.0,0.0,0.0,-0.0900263671875,0.0,0.0,0.0,0.0,0.0,0.0,-0.256,0.0,0.0,0.0,0.0,0.0,-1.61,-0.10053356769782068,0.0,0.0,0.0,0.0,0.0,0.0,0.204,0.0,0.0,0.0
135,0.0,0.0,0.0,-0.092201171875,0.0,0.0,0.0,0.0,0.0,0.0,-0.253,0.0,0.0,0.0,0.0,0.0,-1.61,-0.10292775295520976,0.0,0.0,0.0,0.0,0.0,0.0,0.228,0.0,0.0,0.0
136,0.0,0.0,0.0,-0.09451171875,0.0,0.0,0.0,0.0,0.0,0.0,-0.218,0.0,0.0,0.0,0.0,0.0,-1.61,-0.10514184350419492,0.0,0.0,0.0,0.0,0.0,0.0,-0.272,0.0,0.0,0.0
137,0.0,0.0,0.0,-0.096984375,0.0,0.0,0.0,0.0,0.0,0.0,-0.241,0.0,0.0,0.0,0.0,0.0,-1.61,-0.10739715201170406,0.0,0.0,0.0,0.0,0.0,0.0,0.16,0.0,0.0,0.0
138,0.0,0.0,0.0,-0.099158203125,0.0,0.0,0.0,0.0,0.0,0.0,-0.242,0.0,0.0,0.0,0.0,0.0,-1.61,-0.10961550004795254,0.0,0.0,0.0,0.0,0.0,0.0,0.34,0.0,0.0,0.0
139,0.0,0.0,0.0,-0.1014775390625,0.0,0.0,0.0,0.0,0.0,0.0,-0.226,0.0,0.0,0.0,0.0,0.0,-1.61,-0.1117552884833473,0.0,0.0,0.0,0.0,0.0,0.0,0.044,0.0,0.0,0.0
140,0.0,0.0,0.0,-0.104076171875,0.0,0.0,0.0,0.0,0.0,0.0,-0.248,0.0,0.0,0.0,0.0,0.0,-1.61,-0.11386248674502804,0.0,0.0,0.0,0.0,0.0,0.0,0.34,0.0,0.0,0.0
141,0.0,0.0,0.0,-0.1061064453125,0.0,0.0,0.0,0.0,0.0,0.0,-0.232,0.0,0.0,0.0,0.0,0.0,-1.61,-0.11594295334489547,0.0,0.0,0.0,0.0,0.0,0.0,0.044,0.0,0.0,0.0
142,0.0,0.0,0.0,-0.10813671875,0.0,0.0,0.0,0.0,0.0,0.0,-0.2,0.0,0.0,0.0,0.0,0.0,-1.61,-0.11792821495484587,0.0,0.0,0.0,0.0,0.0,0.0,0.248,0.0,0.0,0.0
143,0.0,0.0,0.0,-0.110158203125,0.0,0.0,0.0,0.0,0.0,0.0,-0.21,0.0,0.0,0.0,0.0,0.0,-1.61,-0.11990333983468782,0.0,0.0,0.0,0.0,0.0,0.0,0.388,0.0,0.0,0.0
144,0.0,0.0,0.0,-0.1121884765625,0.0,0.0,0.0,0.0,0.0,0.0,-0.209,0.0,0.0,0.0,0.0,0.0,-1.61,-0.12183872857094266,0.0,0.0,0.0,0.0,0.0,0.0,0.408,0.0,0.0,0.0
145,0.0,0.0,0.0,-0.11436328125,0.0,0.0,0.0,0.0,0.0,0.0,-0.204,0.0,0.0,0.0,0.0,0.0,-1.61,-0.1236880174414149,0.0,0.0,0.0,0.0,0.0,0.0,0.432,0.0,0.0,0.0
146,0.0,0.0,0.0,-0.1165283203125,0.0,0.0,0.0,0.0,0.0,0.0,-0.221,0.0,0.0,0.0,0.0,0.0,-1.61,-0.12549621190447344,0.0,0.0,0.0,0.0,0.0,0.0,0.868,0.0,0.0,0.0
147,0.0,0.0,0.0,-0.11855859375,0.0,0.0,0.0,0.0,0.0,0.0,-0.216,0.0,0.0,0.0,0.0,0.0,-1.61,-0.12725027631918065,0.0,0.0,0.0,0.0,0.0,0.0,1.052,0.0,0.0,0.0
148,0.0,0.0,0.0,-0.1207421875,0.0,0.0,0.0,0.0,0.0,0.0,-0.205,0.0,0.0,0.0,0.0,0.0,-1.61,-0.12896645194850886,0.0,0.0,0.0,0.0,0.0,0.0,0.5,0.0,0.0,0.0
149,0.0,0.0,0.0,-0.122763671875,0.0,0.0,0.0,0.0,0.0,0.0,-0.218,0.0,0.0,0.0,0.0,0.0,-1.61,-0.13063171015313038,0.0,0.0,0.0,0.0,0.0,0.0,0.888,0.0,0.0,0.0
150,0.0,0.0,0.0,-0.1245048828125,0.0,0.0,0.0,0.0,0.0,0.0,-0.197,0.0,0.0,0.0,0.0,0.0,-1.61,-0.13221369870177338,0.0,0.0,0.0,0.0,0.0,0.0,0.776,0.0,0.0,0.0
151,0.0,0.0,0.0,-0.12653515625,0.0,0.0,0.0,0.0,0.0,0.0,-0.182,0.0,0.0,0.0,0.0,0.0,-1.61,-0.13377321025069353,0.0,0.0,0.0,0.0,0.0,0.0,0.432,0.0,0.0,0.0
152,0.0,0.0,0.0,-0.1282685546875,0.0,0.0,0.0,0.0,0.0,0.0,-0.191,0.0,0.0,0.0,0.0,0.0,-1.61,-0.1352174564062411,0.0,0.0,0.0,0.0,0.0,0.0,0.684,0.0,0.0,0.0
153,0.0,0.0,0.0,-0.129576171875,0.0,0.0,0.0,0.0,0.0,0.0,-0.163,0.0,0.0,0.0,0.0,0.0,-1.61,-0.1366582159442942,0.0,0.0,0.0,0.0,0.0,0.0,0.684,0.0,0.0,0.0
154,0.0,0.0,0.0,-0.1311650390625,0.0,0.0,0.0,0.0,0.0,0.0,-0.141,0.0,0.0,0.0,0.0,0.0,-1.61,-0.13802594121632117,0.0,0.0,0.0,0.0,0.0,0.0,0.616,0.0,0.0,0.0
155,0.0,0.0,0.0,-0.13276171875,0.0,0.0,0.0,0.0,0.0,0.0,-0.164,0.0,0.0,0.0,0.0,0.0,-1.61,-0.13932680411524936,0.0,0.0,0.0,0.0,0.0,0.0,0.388,0.0,0.0,0.0
156,0.0,0.0,0.0,-0.134349609375,0.0,0.0,0.0,0.0,0.0,0.0,-0.165,0.0,0.0,0.0,0.0,0.0,-1.61,-0.14059100510171518,0.0,0.0,0.0,0.0,0.0,0.0,0.296,0.0,0.0,0.0
157,0.0,0.0,0.0,-0.135947265625,0.0,0.0,0.0,0.0,0.0,0.0,-0.16,0.0,0.0,0.0,0.0,0.0,-1.61,-0.14174715679690678,0.0,0.0,0.0,0.0,0.0,0.0,0.548,0.0,0.0,0.0
158,0.0,0.0,0.0,-0.137390625,0.0,0.0,0.0,0.0,0.0,0.0,-0.15,0.0,0.0,0.0,0.0,0.0,-1.61,-0.14288124830864646,0.0,0.0,0.0,0.0,0.0,0.0,0.844,0.0,0.0,0.0
159,0.0,0.0,0.0,-0.1385546875,0.0,0.0,0.0,0.0,0.0,0.0,-0.137,0.0,0.0,0.0,0.0,0.0,-1.61,-0.14395545925988495,0.0,0.0,0.0,0.0,0.0,0.0,0.844,0.0,0.0,0.0
160,0.0,0.0,0.0,-0.1398544921875,0.0,0.0,0.0,0.0,0.0,0.0,-0.122,0.0,0.0,0.0,0.0,0.0,-1.61,-0.1449376627897982,0.0,0.0,0.0,0.0,0.0,0.0,0.8,0.0,0.0,0.0
161,0.0,0.0,0.0,-0.140865234375,0.0,0.0,0.0,0.0,0.0,0.0,-0.116,0.0,0.0,0.0,0.0,0.0,-1.61,-0.14589212841789048,0.0,0.0,0.0,0.0,0.0,0.0,1.052,0.0,0.0,0.0
162,0.0,0.0,0.0,-0.1417490234375,0.0,0.0,0.0,0.0,0.0,0.0,-0.096,0.0,0.0,0.0,0.0,0.0,-1.61,-0.1467651024419071,0.0,0.0,0.0,0.0,0.0,0.0,0.616,0.0,0.0,0.0
163,0.0,0.0,0.0,-0.142759765625,0.0,0.0,0.0,0.0,0.0,0.0,-0.099,0.0,0.0,0.0,0.0,0.0,-1.61,-0.14757180712962334,0.0,0.0,0.0,0.0,0.0,0.0,0.5,0.0,0.0,0.0
164,0.0,0.0,0.0,-0.1436259765625,0.0,0.0,0.0,0.0,0.0,0.0,-0.103,0.0,0.0,0.0,0.0,0.0,-1.61,-0.14831759272424938,0.0,0.0,0.0,0.0,0.0,0.0,0.728,0.0,0.0,0.0
165,0.0,0.0,0.0,-0.14434765625,0.0,0.0,0.0,0.0,0.0,0.0,-0.075,0.0,0.0,0.0,0.0,0.0,-1.61,-0.14900246981509063,0.0,0.0,0.0,0.0,0.0,0.0,0.96,0.0,0.0,0.0
166,0.0,0.0,0.0,-0.1453671875,0.0,0.0,0.0,0.0,0.0,0.0,-0.08,0.0,0.0,0.0,0.0,0.0,-1.61,-0.14961400565762842,0.0,0.0,0.0,0.0,0.0,0.0,0.708,0.0,0.0,0.0
167,0.0,0.0,0.0,-0.1462333984375,0.0,0.0,0.0,0.0,0.0,0.0,-0.104,0.0,0.0,0.0,0.0,0.0,-1.61,-0.1501677284434239,0.0,0.0,0.0,0.0,0.0,0.0,0.96,0.0,0.0,0.0
168,0.0,0.0,0.0,-0.1468115234375,0.0,0.0,0.0,0.0,0.0,0.0,-0.076,0.0,0.0,0.0,0.0,0.0,-1.61,-0.15065303569026453,0.0,0.0,0.0,0.0,0.0,0.0,0.776,0.0,0.0,0.0
169,0.0,0.0,0.0,-0.147533203125,0.0,0.0,0.0,0.0,0.0,0.0,-0.065,0.0,0.0,0.0,0.0,0.0,-1.61,-0.1510693532846348,0.0,0.0,0.0,0.0,0.0,0.0,0.708,0.0,0.0,0.0
170,0.0,0.0,0.0,-0.148119140625,0.0,0.0,0.0,0.0,0.0,0.0,-0.065,0.0,0.0,0.0,0.0,0.0,-1.61,-0.15142641915401506,0.0,0.0,0.0,0.0,0.0,0.0,1.004,0.0,0.0,0.0
171,0.0,0.0,0.0,-0.148263671875,0.0,0.0,0.0,0.0,0.0,0.0,-0.034,0.0,0.0,0.0,0.0,0.0,-1.61,-0.15171515253020118,0.0,0.0,0.0,0.0,0.0,0.0,0.66,0.0,0.0,0.0
172,0.0,0.0,0.0,-0.148552734375,0.0,0.0,0.0,0.0,0.0,0.0,-0.023,0.0,0.0,0.0,0.0,0.0,-1.61,-0.15193116354881928,0.0,0.0,0.0,0.0,0.0,0.0,0.776,0.0,0.0,0.0
173,0.0,0.0,0.0,-0.148697265625,0.0,0.0,0.0,0.0,0.0,0.0,-0.026,0.0,0.0,0.0,0.0,0.0,-1.61,-0.1520862138631137,0.0,0.0,0.0,0.0,0.0,0.0,0.548,0.0,0.0,0.0
174,0.0,0.0,0.0,-0.148841796875,0.0,0.0,0.0,0.0,0.0,0.0,-0.014,0.0,0.0,0.0,0.0,0.0,-1.61,-0.15217315031115228,0.0,0.0,0.0,0.0,0.0,0.0,0.088,0.0,0.0,0.0
175,0.0,0.0,0.0,-0.148986328125,0.0,0.0,0.0,0.0,0.0,0.0,-0.019,0.0,0.0,0.0,0.0,0.0,-1.61,-0.15219274594204227,0.0,0.0,0.0,0.0,0.0,0.0,0.432,0.0,0.0,0.0
176,0.0,0.0,0.0,-0.1491298828125,0.0,0.0,0.0,0.0,0.0,0.0,-0.018,0.0,0.0,0.0,0.0,0.0,-1.61,-0.15214511355951968,0.0,0.0,0.0,0.0,0.0,0.0,0.48,0.0,0.0,0.0
177,0.0,0.0,0.0,-0.1492744140625,0.0,0.0,0.0,0.0,0.0,0.0,-0.009,0.0,0.0,0.0,0.0,0.0,-1.61,-0.1520302923504339,0.0,0.0,0.0,0.0,0.0,0.0,0.272,0.0,0.0,0.0
178,0.0,0.0,0.0,-0.1492744140625,0.0,0.0,0.0,0.0,0.0,0.0,-0.011,0.0,0.0,0.0,0.0,0.0,-1.61,-0.1518483300364625,0.0,0.0,0.0,0.0,0.0,0.0,0.388,0.0,0.0,0.0
179,0.0,0.0,0.0,-0.1492744140625,0.0,0.0,0.0,0.0,0.0,0.0,-0.001,0.0,0.0,0.0,0.0,0.0,-1.61,-0.151600187567676,0.0,0.0,0.0,0.0,0.0,0.0,0.364,0.0,0.0,0.0
180,0.0,0.0,0.0,-0.1492744140625,0.0,0.0,0.0,0.0,0.0,0.0,-0.001,0.0,0.0,0.0,0.0,0.0,-1.61,-0.15127774774463576,0.0,0.0,0.0,0.0,0.0,0.0,0.272,0.0,0.0,0.0
181,0.0,0.0,0.0,-0.1491298828125,0.0,0.0,0.0,0.0,0.0,0.0,0.004,0.0,0.0,0.0,0.0,0.0,-1.61,-0.1508869105657703,0.0,0.0,0.0,0.0,0.0,0.0,0.228,0.0,0.0,0.0
182,0.0,0.0,0.0,-0.1491298828125,0.0,0.0,0.0,0.0,0.0,0.0,0.01,0.0,0.0,0.0,0.0,0.0,-1.61,-0.15044812416325895,0.0,0.0,0.0,0.0,0.0,0.0,0.112,0.0,0.0,0.0
183,0.0,0.0,0.0,-0.1491298828125,0.0,0.0,0.0,0.0,0.0,0.0,-0.001,0.0,0.0,0.0,0.0,0.0,-1.61,-0.1499241625050843,0.0,0.0,0.0,0.0,0.0,0.0,0.112,0.0,0.0,0.0
184,0.0,0.0,0.0,-0.1491298828125,0.0,0.0,0.0,0.0,0.0,0.0,-0.001,0.0,0.0,0.0,0.0,0.0,-1.61,-0.14934029871931714,0.0,0.0,0.0,0.0,0.0,0.0,-0.02,0.0,0.0,0.0
185,0.0,0.0,0.0,-0.1491298828125,0.0,0.0,0.0,0.0,0.0,0.0,-0.001,0.0,0.0,0.0,0.0,0.0,-1.61,-0.14868152058237413,0.0,0.0,0.0,0.0,0.0,0.0,0.02,0.0,0.0,0.0
186,0.0,0.0,0.0,-0.1491298828125,0.0,0.0,0.0,0.0,0.0,0.0,-0.001,0.0,0.0,0.0,0.0,0.0,-1.61,-0.14796135038938377,0.0,0.0,0.0,0.0,0.0,0.0,0.204,0.0,0.0,0.0
187,0.0,0.0,0.0,-0.1491298828125,0.0,0.0,0.0,0.0,0.0,0.0,-0.001,0.0,0.0,0.0,0.0,0.0,-1.61,-0.14718775328359895,0.0,0.0,0.0,0.0,0.0,0.0,0.112,0.0,0.0,0.0
188,0.0,0.0,0.0,-0.1491298828125,0.0,0.0,0.0,0.0,0.0,0.0,-0.001,0.0,0.0,0.0,0.0,0.0,-1.61,-0.1463199281048204,0.0,0.0,0.0,0.0,0.0,0.0,0.02,0.0,0.0,0.0
189,0.0,0.0,0.0,-0.1491298828125,0.0,0.0,0.0,0.0,0.0,0.0,-0.001,0.0,0.0,0.0,0.0,0.0,-1.61,-0.14541236795764145,0.0,0.0,0.0,0.0,0.0,0.0,0.044,0.0,0.0,0.0
190,0.0,0.0,0.0,-0.148841796875,0.0,0.0,0.0,0.0,0.0,0.0,0.007,0.0,0.0,0.0,0.0,0.0,-1.61,-0.1444368233976249,0.0,0.0,0.0,0.0,0.0,0.0,0.48,0.0,0.0,0.0
191,0.0,0.0,0.0,-0.148408203125,0.0,0.0,0.0,0.0,0.0,0.0,0.036,0.0,0.0,0.0,0.0,0.0,-1.61,-0.14335416417573252,0.0,0.0,0.0,0.0,0.0,0.0,0.48,0.0,0.0,0.0
192,0.0,0.0,0.0,-0.1479658203125,0.0,0.0,0.0,0.0,0.0,0.0,0.049,0.0,0.0,0.0,0.0,0.0,-1.61,-0.1422734948168791,0.0,0.0,0.0,0.0,0.0,0.0,0.888,0.0,0.0,0.0
193,0.0,0.0,0.0,-0.147099609375,0.0,0.0,0.0,0.0,0.0,0.0,0.061,0.0,0.0,0.0,0.0,0.0,-1.61,-0.14107748656039557,0.0,0.0,0.0,0.0,0.0,0.0,1.12,0.0,0.0,0.0
194,0.0,0.0,0.0,-0.1462333984375,0.0,0.0,0.0,0.0,0.0,0.0,0.089,0.0,0.0,0.0,0.0,0.0,-1.61,-0.1398481176697611,0.0,0.0,0.0,0.0,0.0,0.0,0.912,0.0,0.0,0.0
195,0.0,0.0,0.0,-0.1453671875,0.0,0.0,0.0,0.0,0.0,0.0,0.09,0.0,0.0,0.0,0.0,0.0,-1.61,-0.1385525708616124,0.0,0.0,0.0,0.0,0.0,0.0,1.096,0.0,0.0,0.0
196,0.0,0.0,0.0,-0.144203125,0.0,0.0,0.0,0.0,0.0,0.0,0.096,0.0,0.0,0.0,0.0,0.0,-1.61,-0.1371689025330974,0.0,0.0,0.0,0.0,0.0,0.0,0.912,0.0,0.0,0.0
197,0.0,0.0,0.0,-0.1431923828125,0.0,0.0,0.0,0.0,0.0,0.0,0.106,0.0,0.0,0.0,0.0,0.0,-1.61,-0.13574719104940694,0.0,0.0,0.0,0.0,0.0,0.0,1.3,0.0,0.0,0.0
198,0.0,0.0,0.0,-0.1420380859375,0.0,0.0,0.0,0.0,0.0,0.0,0.11,0.0,0.0,0.0,0.0,0.0,-1.61,-0.13425341547225808,0.0,0.0,0.0,0.0,0.0,0.0,1.576,0.0,0.0,0.0
199,0.0,0.0,0.0,-0.140576171875,0.0,0.0,0.0,0.0,0.0,0.0,0.129,0.0,0.0,0.0,0.0,0.0,-1.61,-0.13270004239983046,0.0,0.0,0.0,0.0,0.0,0.0,1.692,0.0,0.0,0.0
200,0.0,0.0,0.0,-0.1391318359375,0.0,0.0,0.0,0.0,0.0,0.0,0.146,0.0,0.0,0.0,0.0,0.0,-1.61,-0.13106974204665742,0.0,0.0,0.0,0.0,0.0,0.0,1.324,0.0,0.0,0.0
201,0.0,0.0,0.0,-0.1376796875,0.0,0.0,0.0,0.0,0.0,0.0,0.138,0.0,0.0,0.0,0.0,0.0,-1.61,-0.1294058108909388,0.0,0.0,0.0,0.0,0.0,0.0,1.484,0.0,0.0,0.0
202,0.0,0.0,0.0,-0.135947265625,0.0,0.0,0.0,0.0,0.0,0.0,0.158,0.0,0.0,0.0,0.0,0.0,-1.61,-0.1276964774478977,0.0,0.0,0.0,0.0,0.0,0.0,1.324,0.0,0.0,0.0
203,0.0,0.0,0.0,-0.134205078125,0.0,0.0,0.0,0.0,0.0,0.0,0.176,0.0,0.0,0.0,0.0,0.0,-1.61,-0.12589248999167849,0.0,0.0,0.0,0.0,0.0,0.0,1.212,0.0,0.0,0.0
204,0.0,0.0,0.0,-0.1326171875,0.0,0.0,0.0,0.0,0.0,0.0,0.164,0.0,0.0,0.0,0.0,0.0,-1.61,-0.1240376273095022,0.0,0.0,0.0,0.0,0.0,0.0,1.164,0.0,0.0,0.0
205,0.0,0.0,0.0,-0.1310205078125,0.0,0.0,0.0,0.0,0.0,0.0,0.159,0.0,0.0,0.0,0.0,0.0,-1.61,-0.12209450217581616,0.0,0.0,0.0,0.0,0.0,0.0,1.164,0.0,0.0,0.0
206,0.0,0.0,0.0,-0.1292880859375,0.0,0.0,0.0,0.0,0.0,0.0,0.17,0.0,0.0,0.0,0.0,0.0,-1.61,-0.12016452346638057,0.0,0.0,0.0,0.0,0.0,0.0,1.348,0.0,0.0,0.0
207,0.0,0.0,0.0,-0.1275458984375,0.0,0.0,0.0,0.0,0.0,0.0,0.177,0.0,0.0,0.0,0.0,0.0,-1.61,-0.11815155537788623,0.0,0.0,0.0,0.0,0.0,0.0,1.576,0.0,0.0,0.0
208,0.0,0.0,0.0,-0.12566015625,0.0,0.0,0.0,0.0,0.0,0.0,0.178,0.0,0.0,0.0,0.0,0.0,-1.61,-0.11598595253833752,0.0,0.0,0.0,0.0,0.0,0.0,1.348,0.0,0.0,0.0
209,0.0,0.0,0.0,-0.123638671875,0.0,0.0,0.0,0.0,0.0,0.0,0.196,0.0,0.0,0.0,0.0,0.0,-1.61,-0.11395716751676703,0.0,0.0,0.0,0.0,0.0,0.0,0.96,0.0,0.0,0.0
210,0.0,0.0,0.0,-0.1217529296875,0.0,0.0,0.0,0.0,0.0,0.0,0.201,0.0,0.0,0.0,0.0,0.0,-1.61,-0.11177075673397081,0.0,0.0,0.0,0.0,0.0,0.0,0.272,0.0,0.0,0.0
211,0.0,0.0,0.0,-0.1200205078125,0.0,0.0,0.0,0.0,0.0,0.0,0.176,0.0,0.0,0.0,0.0,0.0,-1.61,-0.10948802780871607,0.0,0.0,0.0,0.0,0.0,0.0,0.5,0.0,0.0,0.0
212,0.0,0.0,0.0,-0.1176923828125,0.0,0.0,0.0,0.0,0.0,0.0,0.194,0.0,0.0,0.0,0.0,0.0,-1.61,-0.10727333354847245,0.0,0.0,0.0,0.0,0.0,0.0,1.256,0.0,0.0,0.0
213,0.0,0.0,0.0,-0.115517578125,0.0,0.0,0.0,0.0,0.0,0.0,0.232,0.0,0.0,0.0,0.0,0.0,-1.61,-0.10491412985913978,0.0,0.0,0.0,0.0,0.0,0.0,1.14,0.0,0.0,0.0
214,0.0,0.0,0.0,-0.1134873046875,0.0,0.0,0.0,0.0,0.0,0.0,0.214,0.0,0.0,0.0,0.0,0.0,-1.61,-0.1025401432560752,0.0,0.0,0.0,0.0,0.0,0.0,1.28,0.0,0.0,0.0
215,0.0,0.0,0.0,-0.110888671875,0.0,0.0,0.0,0.0,0.0,0.0,0.226,0.0,0.0,0.0,0.0,0.0,-1.61,-0.10009071247879293,0.0,0.0,0.0,0.0,0.0,0.0,0.888,0.0,0.0,0.0
216,0.0,0.0,0.0,-0.1085703125,0.0,0.0,0.0,0.0,0.0,0.0,0.254,0.0,0.0,0.0,0.0,0.0,-1.61,-0.09762376150618218,0.0,0.0,0.0,0.0,0.0,0.0,-0.044,0.0,0.0,0.0
217,0.0,0.0,0.0,-0.1062509765625,0.0,0.0,0.0,0.0,0.0,0.0,0.224,0.0,0.0,0.0,0.0,0.0,-1.61,-0.09510283228113847,0.0,0.0,0.0,0.0,0.0,0.0,0.296,0.0,0.0,0.0
218,0.0,0.0,0.0,-0.1033544921875,0.0,0.0,0.0,0.0,0.0,0.0,0.255,0.0,0.0,0.0,0.0,0.0,-1.61,-0.09252696924973879,0.0,0.0,0.0,0.0,0.0,0.0,0.32,0.0,0.0,0.0
219,0.0,0.0,0.0,-0.1004580078125,0.0,0.0,0.0,0.0,0.0,0.0,0.3,0.0,0.0,0.0,0.0,0.0,-1.61,-0.08992257797681853,0.0,0.0,0.0,0.0,0.0,0.0,0.136,0.0,0.0,0.0
220,0.0,0.0,0.0,-0.0977060546875,0.0,0.0,0.0,0.0,0.0,0.0,0.278,0.0,0.0,0.0,0.0,0.0,-1.61,-0.08722665770858941,0.0,0.0,0.0,0.0,0.0,0.0,0.568,0.0,0.0,0.0
221,0.0,0.0,0.0,-0.0947998046875,0.0,0.0,0.0,0.0,0.0,0.0,0.286,0.0,0.0,0.0,0.0,0.0,-1.61,-0.08449634430498253,0.0,0.0,0.0,0.0,0.0,0.0,-0.432,0.0,0.0,0.0
222,0.0,0.0,0.0,-0.092345703125,0.0,0.0,0.0,0.0,0.0,0.0,0.274,0.0,0.0,0.0,0.0,0.0,-1.61,-0.08182440676714524,0.0,0.0,0.0,0.0,0.0,0.0,-0.524,0.0,0.0,0.0
223,0.0,0.0,0.0,-0.08973828125,0.0,0.0,0.0,0.0,0.0,0.0,0.246,0.0,0.0,0.0,0.0,0.0,-1.61,-0.07901668402210521,0.0,0.0,0.0,0.0,0.0,0.0,0.248,0.0,0.0,0.0
224,0.0,0.0,0.0,-0.086841796875,0.0,0.0,0.0,0.0,0.0,0.0,0.278,0.0,0.0,0.0,0.0,0.0,-1.61,-0.0762007622149753,0.0,0.0,0.0,0.0,0.0,0.0,0.16,0.0,0.0,0.0
225,0.0,0.0,0.0,-0.0842333984375,0.0,0.0,0.0,0.0,0.0,0.0,0.28,0.0,0.0,0.0,0.0,0.0,-1.61,-0.07335372057735852,0.0,0.0,0.0,0.0,0.0,0.0,0.524,0.0,0.0,0.0
226,0.0,0.0,0.0,-0.0813369140625,0.0,0.0,0.0,0.0,0.0,0.0,0.267,0.0,0.0,0.0,0.0,0.0,-1.61,-0.0703930361308004,0.0,0.0,0.0,0.0,0.0,0.0,1.072,0.0,0.0,0.0
227,0.0,0.0,0.0,-0.0758330078125,0.0,0.0,0.0,0.0,0.0,0.0,0.277,0.0,0.0,0.0,0.0,0.0,-1.61,-0.06721478328431037,0.0,0.0,0.0,0.0,0.0,0.0,0.616,0.0,0.0,0.0
228,0.0,0.0,0.0,-0.0758330078125,0.0,0.0,0.0,0.0,0.0,0.0,0.277,0.0,0.0,0.0,0.0,0.0,-1.61,-0.06456496316837809,0.0,0.0,0.0,0.0,0.0,0.0,0.616,0.0,0.0,0.0
229,0.0,0.0,0.0,-0.072927734375,0.0,0.0,0.0,0.0,0.0,0.0,0.264,0.0,0.0,0.0,0.0,0.0,-1.61,-0.06159128608064623,0.0,0.0,0.0,0.0,0.0,0.0,0.888,0.0,0.0,0.0
230,0.0,0.0,0.0,-0.06988671875,0.0,0.0,0.0,0.0,0.0,0.0,0.302,0.0,0.0,0.0,0.0,0.0,-1.61,-0.058569093304707984,0.0,0.0,0.0,0.0,0.0,0.0,0.64,0.0,0.0,0.0
231,0.0,0.0,0.0,-0.0671435546875,0.0,0.0,0.0,0.0,0.0,0.0,0.294,0.0,0.0,0.0,0.0,0.0,-1.61,-0.055458236285315606,0.0,0.0,0.0,0.0,0.0,0.0,1.004,0.0,0.0,0.0
232,0.0,0.0,0.0,-0.0642470703125,0.0,0.0,0.0,0.0,0.0,0.0,0.285,0.0,0.0,0.0,0.0,0.0,-1.61,-0.05240869886116371,0.0,0.0,0.0,0.0,0.0,0.0,0.524,0.0,0.0,0.0
233,0.0,0.0,0.0,-0.061638671875,0.0,0.0,0.0,0.0,0.0,0.0,0.276,0.0,0.0,0.0,0.0,0.0,-1.61,-0.04931361361372328,0.0,0.0,0.0,0.0,0.0,0.0,0.248,0.0,0.0,0.0
234,0.0,0.0,0.0,-0.05888671875,0.0,0.0,0.0,0.0,0.0,0.0,0.267,0.0,0.0,0.0,0.0,0.0,-1.61,-0.04615407173988929,0.0,0.0,0.0,0.0,0.0,0.0,0.752,0.0,0.0,0.0
235,0.0,0.0,0.0,-0.055990234375,0.0,0.0,0.0,0.0,0.0,0.0,0.285,0.0,0.0,0.0,0.0,0.0,-1.61,-0.04299226756278445,0.0,0.0,0.0,0.0,0.0,0.0,0.844,0.0,0.0,0.0
236,0.0,0.0,0.0,-0.05294921875,0.0,0.0,0.0,0.0,0.0,0.0,0.291,0.0,0.0,0.0,0.0,0.0,-1.61,-0.03980483826586007,0.0,0.0,0.0,0.0,0.0,0.0,1.46,0.0,0.0,0.0
237,0.0,0.0,0.0,-0.0498994140625,0.0,0.0,0.0,0.0,0.0,0.0,0.31,0.0,0.0,0.0,0.0,0.0,-1.61,-0.03663951199719091,0.0,0.0,0.0,0.0,0.0,0.0,1.028,0.0,0.0,0.0
238,0.0,0.0,0.0,-0.0470029296875,0.0,0.0,0.0,0.0,0.0,0.0,0.303,0.0,0.0,0.0,0.0,0.0,-1.61,-0.033351857524723645,0.0,0.0,0.0,0.0,0.0,0.0,0.228,0.0,0.0,0.0
239,0.0,0.0,0.0,-0.0439619140625,0.0,0.0,0.0,0.0,0.0,0.0,0.292,0.0,0.0,0.0,0.0,0.0,-1.61,-0.030144559571171566,0.0,0.0,0.0,0.0,0.0,0.0,0.364,0.0,0.0,0.0
240,0.0,0.0,0.0,-0.04019921875,0.0,0.0,0.0,0.0,0.0,0.0,0.334,0.0,0.0,0.0,0.0,0.0,-1.61,-0.026882969650495872,0.0,0.0,0.0,0.0,0.0,0.0,0.82,0.0,0.0,0.0
241,0.0,0.0,0.0,-0.0368701171875,0.0,0.0,0.0,0.0,0.0,0.0,0.369,0.0,0.0,0.0,0.0,0.0,-1.61,-0.023586983327773873,0.0,0.0,0.0,0.0,0.0,0.0,0.248,0.0,0.0,0.0
242,0.0,0.0,0.0,-0.0336845703125,0.0,0.0,0.0,0.0,0.0,0.0,0.322,0.0,0.0,0.0,0.0,0.0,-1.61,-0.020299317134100204,0.0,0.0,0.0,0.0,0.0,0.0,0.388,0.0,0.0,0.0
243,0.0,0.0,0.0,-0.0300576171875,0.0,0.0,0.0,0.0,0.0,0.0,0.338,0.0,0.0,0.0,0.0,0.0,-1.61,-0.01702580712275141,0.0,0.0,0.0,0.0,0.0,0.0,0.16,0.0,0.0,0.0
244,0.0,0.0,0.0,-0.0268720703125,0.0,0.0,0.0,0.0,0.0,0.0,0.357,0.0,0.0,0.0,0.0,0.0,-1.61,-0.01369029800428801,0.0,0.0,0.0,0.0,0.0,0.0,-0.728,0.0,0.0,0.0
245,0.0,0.0,0.0,-0.0239755859375,0.0,0.0,0.0,0.0,0.0,0.0,0.292,0.0,0.0,0.0,0.0,0.0,-1.61,-0.010319115022281658,0.0,0.0,0.0,0.0,0.0,0.0,0.616,0.0,0.0,0.0
246,0.0,0.0,0.0,-0.020203125,0.0,0.0,0.0,0.0,0.0,0.0,0.332,0.0,0.0,0.0,0.0,0.0,-1.61,-0.007033151096430366,0.0,0.0,0.0,0.0,0.0,0.0,1.072,0.0,0.0,0.0
247,0.0,0.0,0.0,-0.0168740234375,0.0,0.0,0.0,0.0,0.0,0.0,0.369,0.0,0.0,0.0,0.0,0.0,-1.61,-0.00368857084975834,0.0,0.0,0.0,0.0,0.0,0.0,0.66,0.0,0.0,0.0
248,0.0,0.0,0.0,-0.0136884765625,0.0,0.0,0.0,0.0,0.0,0.0,0.315,0.0,0.0,0.0,0.0,0.0,-1.61,-0.00029253654106620516,0.0,0.0,0.0,0.0,0.0,0.0,1.552,0.0,0.0,0.0
249,0.0,0.0,0.0,-0.00992578125,0.0,0.0,0.0,0.0,0.0,0.0,0.348,0.0,0.0,0.0,0.0,0.0,-1.61,0.0029850931040235765,0.0,0.0,0.0,0.0,0.0,0.0,0.684,0.0,0.0,0.0
250,0.0,0.0,0.0,-0.0067314453125,0.0,0.0,0.0,0.0,0.0,0.0,0.361,0.0,0.0,0.0,0.0,0.0,-1.61,0.006373922546842848,0.0,0.0,0.0,0.0,0.0,0.0,0.204,0.0,0.0,0.0
251,0.0,0.0,0.0,-0.0036904296875,0.0,0.0,0.0,0.0,0.0,0.0,0.307,0.0,0.0,0.0,0.0,0.0,-1.61,0.009768568558308452,0.0,0.0,0.0,0.0,0.0,0.0,0.524,0.0,0.0,0.0
252,0.0,0.0,0.0,-7.32421875e-05,0.0,0.0,0.0,0.0,0.0,0.0,0.325,0.0,0.0,0.0,0.0,0.0,-1.61,0.013071781822245358,0.0,0.0,0.0,0.0,0.0,0.0,0.432,0.0,0.0,0.0
253,0.0,0.0,0.0,0.003255859375,0.0,0.0,0.0,0.0,0.0,0.0,0.362,0.0,0.0,0.0,0.0,0.0,-1.61,0.016486151121164225,0.0,0.0,0.0,0.0,0.0,0.0,0.408,0.0,0.0,0.0
254,0.0,0.0,0.0,0.00644140625,0.0,0.0,0.0,0.0,0.0,0.0,0.326,0.0,0.0,0.0,0.0,0.0,-1.61,0.01979610826621007,0.0,0.0,0.0,0.0,0.0,0.0,1.212,0.0,0.0,0.0
255,0.0,0.0,0.0,0.0100693359375,0.0,0.0,0.0,0.0,0.0,0.0,0.342,0.0,0.0,0.0,0.0,0.0,-1.61,0.023145805559566083,0.0,0.0,0.0,0.0,0.0,0.0,0.98,0.0,0.0,0.0
256,0.0,0.0,0.0,0.0135517578125,0.0,0.0,0.0,0.0,0.0,0.0,0.36,0.0,0.0,0.0,0.0,0.0,-1.61,0.026487136126806685,0.0,0.0,0.0,0.0,0.0,0.0,-0.044,0.0,0.0,0.0
257,0.0,0.0,0.0,0.0165927734375,0.0,0.0,0.0,0.0,0.0,0.0,0.324,0.0,0.0,0.0,0.0,0.0,-1.61,0.02983815679465444,0.0,0.0,0.0,0.0,0.0,0.0,0.272,0.0,0.0,0.0
258,0.0,0.0,0.0,0.02035546875,0.0,0.0,0.0,0.0,0.0,0.0,0.338,0.0,0.0,0.0,0.0,0.0,-1.61,0.033138022833191935,0.0,0.0,0.0,0.0,0.0,0.0,-0.296,0.0,0.0,0.0
259,0.0,0.0,0.0,0.023685546875,0.0,0.0,0.0,0.0,0.0,0.0,0.364,0.0,0.0,0.0,0.0,0.0,-1.61,0.0364621838298785,0.0,0.0,0.0,0.0,0.0,0.0,-0.728,0.0,0.0,0.0
260,0.0,0.0,0.0,0.0271591796875,0.0,0.0,0.0,0.0,0.0,0.0,0.333,0.0,0.0,0.0,0.0,0.0,-1.61,0.0398000173557995,0.0,0.0,0.0,0.0,0.0,0.0,0.18,0.0,0.0,0.0
261,0.0,0.0,0.0,0.03106640625,0.0,0.0,0.0,0.0,0.0,0.0,0.367,0.0,0.0,0.0,0.0,0.0,-1.61,0.043066975624537276,0.0,0.0,0.0,0.0,0.0,0.0,0.228,0.0,0.0,0.0
262,0.0,0.0,0.0,0.03455859375,0.0,0.0,0.0,0.0,0.0,0.0,0.386,0.0,0.0,0.0,0.0,0.0,-1.61,0.046301622278786064,0.0,0.0,0.0,0.0,0.0,0.0,-0.34,0.0,0.0,0.0
263,0.0,0.0,0.0,0.037744140625,0.0,0.0,0.0,0.0,0.0,0.0,0.337,0.0,0.0,0.0,0.0,0.0,-1.61,0.049620275331158946,0.0,0.0,0.0,0.0,0.0,0.0,-0.204,0.0,0.0,0.0
264,0.0,0.0,0.0,0.0409287109375,0.0,0.0,0.0,0.0,0.0,0.0,0.314,0.0,0.0,0.0,0.0,0.0,-1.61,0.05287386263477191,0.0,0.0,0.0,0.0,0.0,0.0,-0.82,0.0,0.0,0.0
265,0.0,0.0,0.0,0.0439697265625,0.0,0.0,0.0,0.0,0.0,0.0,0.308,0.0,0.0,0.0,0.0,0.0,-1.61,0.05603860116903125,0.0,0.0,0.0,0.0,0.0,0.0,0.432,0.0,0.0,0.0
266,0.0,0.0,0.0,0.0472998046875,0.0,0.0,0.0,0.0,0.0,0.0,0.324,0.0,0.0,0.0,0.0,0.0,-1.61,0.05926592197546891,0.0,0.0,0.0,0.0,0.0,0.0,0.868,0.0,0.0,0.0
267,0.0,0.0,0.0,0.0503408203125,0.0,0.0,0.0,0.0,0.0,0.0,0.318,0.0,0.0,0.0,0.0,0.0,-1.61,0.062400968987666026,0.0,0.0,0.0,0.0,0.0,0.0,0.568,0.0,0.0,0.0
268,0.0,0.0,0.0,0.053525390625,0.0,0.0,0.0,0.0,0.0,0.0,0.308,0.0,0.0,0.0,0.0,0.0,-1.61,0.06559808964750445,0.0,0.0,0.0,0.0,0.0,0.0,0.98,0.0,0.0,0.0
269,0.0,0.0,0.0,0.0567197265625,0.0,0.0,0.0,0.0,0.0,0.0,0.324,0.0,0.0,0.0,0.0,0.0,-1.61,0.06870467423120448,0.0,0.0,0.0,0.0,0.0,0.0,0.408,0.0,0.0,0.0
270,0.0,0.0,0.0,0.0597607421875,0.0,0.0,0.0,0.0,0.0,0.0,0.311,0.0,0.0,0.0,0.0,0.0,-1.61,0.07178734709723876,0.0,0.0,0.0,0.0,0.0,0.0,0.868,0.0,0.0,0.0
271,0.0,0.0,0.0,0.0630908203125,0.0,0.0,0.0,0.0,0.0,0.0,0.315,0.0,0.0,0.0,0.0,0.0,-1.61,0.07489165183509766,0.0,0.0,0.0,0.0,0.0,0.0,0.936,0.0,0.0,0.0
272,0.0,0.0,0.0,0.066275390625,0.0,0.0,0.0,0.0,0.0,0.0,0.337,0.0,0.0,0.0,0.0,0.0,-1.61,0.07793591319055318,0.0,0.0,0.0,0.0,0.0,0.0,0.18,0.0,0.0,0.0
273,0.0,0.0,0.0,0.06931640625,0.0,0.0,0.0,0.0,0.0,0.0,0.319,0.0,0.0,0.0,0.0,0.0,-1.61,0.08098031263878883,0.0,0.0,0.0,0.0,0.0,0.0,0.044,0.0,0.0,0.0
274,0.0,0.0,0.0,0.072646484375,0.0,0.0,0.0,0.0,0.0,0.0,0.312,0.0,0.0,0.0,0.0,0.0,-1.61,0.08395318177478263,0.0,0.0,0.0,0.0,0.0,0.0,0.592,0.0,0.0,0.0
275,0.0,0.0,0.0,0.0756962890625,0.0,0.0,0.0,0.0,0.0,0.0,0.327,0.0,0.0,0.0,0.0,0.0,-1.61,0.08687348641103705,0.0,0.0,0.0,0.0,0.0,0.0,0.32,0.0,0.0,0.0
276,0.0,0.0,0.0,0.0783037109375,0.0,0.0,0.0,0.0,0.0,0.0,0.28,0.0,0.0,0.0,0.0,0.0,-1.61,0.08984566069634028,0.0,0.0,0.0,0.0,0.0,0.0,0.728,0.0,0.0,0.0
277,0.0,0.0,0.0,0.0813447265625,0.0,0.0,0.0,0.0,0.0,0.0,0.287,0.0,0.0,0.0,0.0,0.0,-1.61,0.09268260931944106,0.0,0.0,0.0,0.0,0.0,0.0,0.34,0.0,0.0,0.0
278,0.0,0.0,0.0,0.0843857421875,0.0,0.0,0.0,0.0,0.0,0.0,0.31,0.0,0.0,0.0,0.0,0.0,-1.61,0.09552038292662823,0.0,0.0,0.0,0.0,0.0,0.0,-0.388,0.0,0.0,0.0
279,0.0,0.0,0.0,0.0877158203125,0.0,0.0,0.0,0.0,0.0,0.0,0.311,0.0,0.0,0.0,0.0,0.0,-1.61,0.09831640600985553,0.0,0.0,0.0,0.0,0.0,0.0,0.136,0.0,0.0,0.0
280,0.0,0.0,0.0,0.090900390625,0.0,0.0,0.0,0.0,0.0,0.0,0.329,0.0,0.0,0.0,0.0,0.0,-1.61,0.10108690379507462,0.0,0.0,0.0,0.0,0.0,0.0,-0.32,0.0,0.0,0.0
281,0.0,0.0,0.0,0.093796875,0.0,0.0,0.0,0.0,0.0,0.0,0.309,0.0,0.0,0.0,0.0,0.0,-1.61,0.10382179613678703,0.0,0.0,0.0,0.0,0.0,0.0,-0.888,0.0,0.0,0.0
282,0.0,0.0,0.0,0.09684765625,0.0,0.0,0.0,0.0,0.0,0.0,0.293,0.0,0.0,0.0,0.0,0.0,-1.61,0.1064871545289198,0.0,0.0,0.0,0.0,0.0,0.0,0.136,0.0,0.0,0.0
283,0.0,0.0,0.0,0.0998876953125,0.0,0.0,0.0,0.0,0.0,0.0,0.311,0.0,0.0,0.0,0.0,0.0,-1.61,0.10911202949583353,0.0,0.0,0.0,0.0,0.0,0.0,-0.136,0.0,0.0,0.0
284,0.0,0.0,0.0,0.1024873046875,0.0,0.0,0.0,0.0,0.0,0.0,0.293,0.0,0.0,0.0,0.0,0.0,-1.61,0.11169811016434752,0.0,0.0,0.0,0.0,0.0,0.0,0.16,0.0,0.0,0.0
285,0.0,0.0,0.0,0.1052392578125,0.0,0.0,0.0,0.0,0.0,0.0,0.263,0.0,0.0,0.0,0.0,0.0,-1.61,0.11425279202668806,0.0,0.0,0.0,0.0,0.0,0.0,0.616,0.0,0.0,0.0
286,0.0,0.0,0.0,0.1079912109375,0.0,0.0,0.0,0.0,0.0,0.0,0.28,0.0,0.0,0.0,0.0,0.0,-1.61,0.11673592139229523,0.0,0.0,0.0,0.0,0.0,0.0,0.0,0.0,0.0,0.0
287,0.0,0.0,0.0,0.1104453125,0.0,0.0,0.0,0.0,0.0,0.0,0.269,0.0,0.0,0.0,0.0,0.0,-1.61,0.11919451259593393,0.0,0.0,0.0,0.0,0.0,0.0,0.088,0.0,0.0,0.0
288,0.0,0.0,0.0,0.1129091796875,0.0,0.0,0.0,0.0,0.0,0.0,0.238,0.0,0.0,0.0,0.0,0.0,-1.61,0.1216342258509797,0.0,0.0,0.0,0.0,0.0,0.0,0.432,0.0,0.0,0.0
289,0.0,0.0,0.0,0.115525390625,0.0,0.0,0.0,0.0,0.0,0.0,0.249,0.0,0.0,0.0,0.0,0.0,-1.61,0.12391069724986081,0.0,0.0,0.0,0.0,0.0,0.0,0.708,0.0,0.0,0.0
290,0.0,0.0,0.0,0.1179892578125,0.0,0.0,0.0,0.0,0.0,0.0,0.265,0.0,0.0,0.0,0.0,0.0,-1.61,0.1262269903560479,0.0,0.0,0.0,0.0,0.0,0.0,0.524,0.0,0.0,0.0
291,0.0,0.0,0.0,0.1204521484375,0.0,0.0,0.0,0.0,0.0,0.0,0.244,0.0,0.0,0.0,0.0,0.0,-1.61,0.12849915360668052,0.0,0.0,0.0,0.0,0.0,0.0,0.548,0.0,0.0,0.0
292,0.0,0.0,0.0,0.123060546875,0.0,0.0,0.0,0.0,0.0,0.0,0.251,0.0,0.0,0.0,0.0,0.0,-1.61,0.13064252898527695,0.0,0.0,0.0,0.0,0.0,0.0,0.18,0.0,0.0,0.0
293,0.0,0.0,0.0,0.1250810546875,0.0,0.0,0.0,0.0,0.0,0.0,0.241,0.0,0.0,0.0,0.0,0.0,-1.61,0.13278864911829572,0.0,0.0,0.0,0.0,0.0,0.0,-0.228,0.0,0.0,0.0
294,0.0,0.0,0.0,0.1269677734375,0.0,0.0,0.0,0.0,0.0,0.0,0.201,0.0,0.0,0.0,0.0,0.0,-1.61,0.1349140269386032,0.0,0.0,0.0,0.0,0.0,0.0,-0.18,0.0,0.0,0.0
295,0.0,0.0,0.0,0.1288447265625,0.0,0.0,0.0,0.0,0.0,0.0,0.185,0.0,0.0,0.0,0.0,0.0,-1.61,0.1368695646156248,0.0,0.0,0.0,0.0,0.0,0.0,0.112,0.0,0.0,0.0
296,0.0,0.0,0.0,0.1311630859375,0.0,0.0,0.0,0.0,0.0,0.0,0.206,0.0,0.0,0.0,0.0,0.0,-1.61,0.13884050577989857,0.0,0.0,0.0,0.0,0.0,0.0,0.844,0.0,0.0,0.0
297,0.0,0.0,0.0,0.133193359375,0.0,0.0,0.0,0.0,0.0,0.0,0.221,0.0,0.0,0.0,0.0,0.0,-1.61,0.14075359402657472,0.0,0.0,0.0,0.0,0.0,0.0,0.82,0.0,0.0,0.0
298,0.0,0.0,0.0,0.1352236328125,0.0,0.0,0.0,0.0,0.0,0.0,0.204,0.0,0.0,0.0,0.0,0.0,-1.61,0.14262452098857956,0.0,0.0,0.0,0.0,0.0,0.0,0.8,0.0,0.0,0.0
299,0.0,0.0,0.0,0.13725390625,0.0,0.0,0.0,0.0,0.0,0.0,0.206,0.0,0.0,0.0,0.0,0.0,-1.61,0.14437788250985745,0.0,0.0,0.0,0.0,0.0,0.0,-0.136,0.0,0.0,0.0
300,0.0,0.0,0.0,0.1389951171875,0.0,0.0,0.0,0.0,0.0,0.0,0.19,0.0,0.0,0.0,0.0,0.0,-1.61,0.14610096890957508,0.0,0.0,0.0,0.0,0.0,0.0,-0.228,0.0,0.0,0.0
301,0.0,0.0,0.0,0.1411611328125,0.0,0.0,0.0,0.0,0.0,0.0,0.188,0.0,0.0,0.0,0.0,0.0,-1.61,0.14777183024879742,0.0,0.0,0.0,0.0,0.0,0.0,0.204,0.0,0.0,0.0
302,0.0,0.0,0.0,0.14319140625,0.0,0.0,0.0,0.0,0.0,0.0,0.211,0.0,0.0,0.0,0.0,0.0,-1.61,0.14934275023279728,0.0,0.0,0.0,0.0,0.0,0.0,-0.18,0.0,0.0,0.0
303,0.0,0.0,0.0,0.1449326171875,0.0,0.0,0.0,0.0,0.0,0.0,0.197,0.0,0.0,0.0,0.0,0.0,-1.61,0.15089625956699468,0.0,0.0,0.0,0.0,0.0,0.0,-0.48,0.0,0.0,0.0
304,0.0,0.0,0.0,0.1468095703125,0.0,0.0,0.0,0.0,0.0,0.0,0.178,0.0,0.0,0.0,0.0,0.0,-1.61,0.15234763303851173,0.0,0.0,0.0,0.0,0.0,0.0,-0.204,0.0,0.0,0.0
305,0.0,0.0,0.0,0.1486953125,0.0,0.0,0.0,0.0,0.0,0.0,0.187,0.0,0.0,0.0,0.0,0.0,-1.61,0.15373689214739045,0.0,0.0,0.0,0.0,0.0,0.0,-0.204,0.0,0.0,0.0
306,0.0,0.0,0.0,0.1502841796875,0.0,0.0,0.0,0.0,0.0,0.0,0.175,0.0,0.0,0.0,0.0,0.0,-1.61,0.15507451461445404,0.0,0.0,0.0,0.0,0.0,0.0,-0.112,0.0,0.0,0.0
307,0.0,0.0,0.0,0.1515927734375,0.0,0.0,0.0,0.0,0.0,0.0,0.147,0.0,0.0,0.0,0.0,0.0,-1.61,0.1563431595937637,0.0,0.0,0.0,0.0,0.0,0.0,-0.296,0.0,0.0,0.0
308,0.0,0.0,0.0,0.1533251953125,0.0,0.0,0.0,0.0,0.0,0.0,0.158,0.0,0.0,0.0,0.0,0.0,-1.61,0.1575471272065033,0.0,0.0,0.0,0.0,0.0,0.0,-0.66,0.0,0.0,0.0
309,0.0,0.0,0.0,0.15477734375,0.0,0.0,0.0,0.0,0.0,0.0,0.169,0.0,0.0,0.0,0.0,0.0,-1.61,0.15867676726890909,0.0,0.0,0.0,0.0,0.0,0.0,-1.096,0.0,0.0,0.0
310,0.0,0.0,0.0,0.15594140625,0.0,0.0,0.0,0.0,0.0,0.0,0.126,0.0,0.0,0.0,0.0,0.0,-1.61,0.15973538937999454,0.0,0.0,0.0,0.0,0.0,0.0,-0.82,0.0,0.0,0.0
311,0.0,0.0,0.0,0.15710546875,0.0,0.0,0.0,0.0,0.0,0.0,0.113,0.0,0.0,0.0,0.0,0.0,-1.61,0.1607405698537073,0.0,0.0,0.0,0.0,0.0,0.0,-0.728,0.0,0.0,0.0
312,0.0,0.0,0.0,0.1579716796875,0.0,0.0,0.0,0.0,0.0,0.0,0.108,0.0,0.0,0.0,0.0,0.0,-1.61,0.16166460119332016,0.0,0.0,0.0,0.0,0.0,0.0,-0.48,0.0,0.0,0.0
313,0.0,0.0,0.0,0.159126953125,0.0,0.0,0.0,0.0,0.0,0.0,0.097,0.0,0.0,0.0,0.0,0.0,-1.61,0.1625104719980019,0.0,0.0,0.0,0.0,0.0,0.0,-0.02,0.0,0.0,0.0
314,0.0,0.0,0.0,0.160146484375,0.0,0.0,0.0,0.0,0.0,0.0,0.108,0.0,0.0,0.0,0.0,0.0,-1.61,0.1633102197253208,0.0,0.0,0.0,0.0,0.0,0.0,-0.82,0.0,0.0,0.0
315,0.0,0.0,0.0,0.1610126953125,0.0,0.0,0.0,0.0,0.0,0.0,0.095,0.0,0.0,0.0,0.0,0.0,-1.61,0.1639999725776621,0.0,0.0,0.0,0.0,0.0,0.0,-1.188,0.0,0.0,0.0
316,0.0,0.0,0.0,0.16187890625,0.0,0.0,0.0,0.0,0.0,0.0,0.083,0.0,0.0,0.0,0.0,0.0,-1.61,0.1646496723943285,0.0,0.0,0.0,0.0,0.0,0.0,-0.868,0.0,0.0,0.0
317,0.0,0.0,0.0,0.16275390625,0.0,0.0,0.0,0.0,0.0,0.0,0.09,0.0,0.0,0.0,0.0,0.0,-1.61,0.16521605408700965,0.0,0.0,0.0,0.0,0.0,0.0,-0.752,0.0,0.0,0.0
318,0.0,0.0,0.0,0.1640537109375,0.0,0.0,0.0,0.0,0.0,0.0,0.059,0.0,0.0,0.0,0.0,0.0,-1.61,0.16580224538325786,0.0,0.0,0.0,0.0,0.0,0.0,-0.044,0.0,0.0,0.0
319,0.0,0.0,0.0,0.1640537109375,0.0,0.0,0.0,0.0,0.0,0.0,0.059,0.0,0.0,0.0,0.0,0.0,-1.61,0.16612796557821125,0.0,0.0,0.0,0.0,0.0,0.0,-0.044,0.0,0.0,0.0
320,0.0,0.0,0.0,0.164486328125,0.0,0.0,0.0,0.0,0.0,0.0,0.056,0.0,0.0,0.0,0.0,0.0,-1.61,0.1664796357575414,0.0,0.0,0.0,0.0,0.0,0.0,-0.752,0.0,0.0,0.0
321,0.0,0.0,0.0,0.164486328125,0.0,0.0,0.0,0.0,0.0,0.0,0.025,0.0,0.0,0.0,0.0,0.0,-1.61,0.16675938342244143,0.0,0.0,0.0,0.0,0.0,0.0,-0.912,0.0,0.0,0.0
322,0.0,0.0,0.0,0.164775390625,0.0,0.0,0.0,0.0,0.0,0.0,0.01,0.0,0.0,0.0,0.0,0.0,-1.61,0.16695992470684265,0.0,0.0,0.0,0.0,0.0,0.0,-0.088,0.0,0.0,0.0
323,0.0,0.0,0.0,0.165064453125,0.0,0.0,0.0,0.0,0.0,0.0,0.034,0.0,0.0,0.0,0.0,0.0,-1.61,0.16708948078645586,0.0,0.0,0.0,0.0,0.0,0.0,-0.044,0.0,0.0,0.0
324,0.0,0.0,0.0,0.165208984375,0.0,0.0,0.0,0.0,0.0,0.0,0.024,0.0,0.0,0.0,0.0,0.0,-1.61,0.16714512969418022,0.0,0.0,0.0,0.0,0.0,0.0,0.0,0.0,0.0,0.0
325,0.0,0.0,0.0,0.1654970703125,0.0,0.0,0.0,0.0,0.0,0.0,0.017,0.0,0.0,0.0,0.0,0.0,-1.61,0.167115293921343,0.0,0.0,0.0,0.0,0.0,0.0,-0.388,0.0,0.0,0.0
326,0.0,0.0,0.0,0.1654970703125,0.0,0.0,0.0,0.0,0.0,0.0,0.017,0.0,0.0,0.0,0.0,0.0,-1.61,0.16703528732447676,0.0,0.0,0.0,0.0,0.0,0.0,-0.388,0.0,0.0,0.0
327,0.0,0.0,0.0,0.1654970703125,0.0,0.0,0.0,0.0,0.0,0.0,0.004,0.0,0.0,0.0,0.0,0.0,-1.61,0.16686799437752073,0.0,0.0,0.0,0.0,0.0,0.0,-0.136,0.0,0.0,0.0
328,0.0,0.0,0.0,0.1654970703125,0.0,0.0,0.0,0.0,0.0,0.0,-0.001,0.0,0.0,0.0,0.0,0.0,-1.61,0.16662678701782327,0.0,0.0,0.0,0.0,0.0,0.0,0.136,0.0,0.0,0.0
329,0.0,0.0,0.0,0.1654970703125,0.0,0.0,0.0,0.0,0.0,0.0,-0.001,0.0,0.0,0.0,0.0,0.0,-1.61,0.16631648631957235,0.0,0.0,0.0,0.0,0.0,0.0,-0.136,0.0,0.0,0.0
330,0.0,0.0,0.0,0.1654970703125,0.0,0.0,0.0,0.0,0.0,0.0,-0.001,0.0,0.0,0.0,0.0,0.0,-1.61,0.1659319971215742,0.0,0.0,0.0,0.0,0.0,0.0,-0.02,0.0,0.0,0.0
331,0.0,0.0,0.0,0.1653525390625,0.0,0.0,0.0,0.0,0.0,0.0,-0.01,0.0,0.0,0.0,0.0,0.0,-1.61,0.1654611311027845,0.0,0.0,0.0,0.0,0.0,0.0,0.296,0.0,0.0,0.0
332,0.0,0.0,0.0,0.1653525390625,0.0,0.0,0.0,0.0,0.0,0.0,-0.007,0.0,0.0,0.0,0.0,0.0,-1.61,0.1649362552309472,0.0,0.0,0.0,0.0,0.0,0.0,0.408,0.0,0.0,0.0
333,0.0,0.0,0.0,0.165208984375,0.0,0.0,0.0,0.0,0.0,0.0,-0.008,0.0,0.0,0.0,0.0,0.0,-1.61,0.16432029924626929,0.0,0.0,0.0,0.0,0.0,0.0,0.592,0.0,0.0,0.0
334,0.0,0.0,0.0,0.165208984375,0.0,0.0,0.0,0.0,0.0,0.0,-0.009,0.0,0.0,0.0,0.0,0.0,-1.61,0.16363572375596602,0.0,0.0,0.0,0.0,0.0,0.0,0.548,0.0,0.0,0.0
335,0.0,0.0,0.0,0.1653525390625,0.0,0.0,0.0,0.0,0.0,0.0,0.01,0.0,0.0,0.0,0.0,0.0,-1.61,0.1628904974051193,0.0,0.0,0.0,0.0,0.0,0.0,0.364,0.0,0.0,0.0
336,0.0,0.0,0.0,0.1653525390625,0.0,0.0,0.0,0.0,0.0,0.0,0.003,0.0,0.0,0.0,0.0,0.0,-1.61,0.16205001115520168,0.0,0.0,0.0,0.0,0.0,0.0,0.248,0.0,0.0,0.0
337,0.0,0.0,0.0,0.1653525390625,0.0,0.0,0.0,0.0,0.0,0.0,-0.001,0.0,0.0,0.0,0.0,0.0,-1.61,0.16114644125820116,0.0,0.0,0.0,0.0,0.0,0.0,0.364,0.0,0.0,0.0
338,0.0,0.0,0.0,0.1653525390625,0.0,0.0,0.0,0.0,0.0,0.0,-0.001,0.0,0.0,0.0,0.0,0.0,-1.61,0.1601845607696061,0.0,0.0,0.0,0.0,0.0,0.0,0.16,0.0,0.0,0.0
339,0.0,0.0,0.0,0.165064453125,0.0,0.0,0.0,0.0,0.0,0.0,-0.011,0.0,0.0,0.0,0.0,0.0,-1.61,0.1591507776826433,0.0,0.0,0.0,0.0,0.0,0.0,0.16,0.0,0.0,0.0
340,0.0,0.0,0.0,0.164775390625,0.0,0.0,0.0,0.0,0.0,0.0,-0.029,0.0,0.0,0.0,0.0,0.0,-1.61,0.15800142296545808,0.0,0.0,0.0,0.0,0.0,0.0,-0.088,0.0,0.0,0.0
341,0.0,0.0,0.0,0.1641982421875,0.0,0.0,0.0,0.0,0.0,0.0,-0.043,0.0,0.0,0.0,0.0,0.0,-1.61,0.15682845397148118,0.0,0.0,0.0,0.0,0.0,0.0,-0.524,0.0,0.0,0.0
342,0.0,0.0,0.0,0.1631875,0.0,0.0,0.0,0.0,0.0,0.0,-0.079,0.0,0.0,0.0,0.0,0.0,-1.61,0.15558556033487536,0.0,0.0,0.0,0.0,0.0,0.0,-0.728,0.0,0.0,0.0
343,0.0,0.0,0.0,0.1624560546875,0.0,0.0,0.0,0.0,0.0,0.0,-0.09,0.0,0.0,0.0,0.0,0.0,-1.61,0.15424777132217538,0.0,0.0,0.0,0.0,0.0,0.0,-0.18,0.0,0.0,0.0
344,0.0,0.0,0.0,0.16158984375,0.0,0.0,0.0,0.0,0.0,0.0,-0.075,0.0,0.0,0.0,0.0,0.0,-1.61,0.15285417264734746,0.0,0.0,0.0,0.0,0.0,0.0,-0.568,0.0,0.0,0.0
345,0.0,0.0,0.0,0.160435546875,0.0,0.0,0.0,0.0,0.0,0.0,-0.099,0.0,0.0,0.0,0.0,0.0,-1.61,0.1513795344525534,0.0,0.0,0.0,0.0,0.0,0.0,-1.052,0.0,0.0,0.0
346,0.0,0.0,0.0,0.159271484375,0.0,0.0,0.0,0.0,0.0,0.0,-0.119,0.0,0.0,0.0,0.0,0.0,-1.61,0.1498059989799741,0.0,0.0,0.0,0.0,0.0,0.0,-0.82,0.0,0.0,0.0
347,0.0,0.0,0.0,0.1582607421875,0.0,0.0,0.0,0.0,0.0,0.0,-0.109,0.0,0.0,0.0,0.0,0.0,-1.61,0.14825648492580598,0.0,0.0,0.0,0.0,0.0,0.0,-1.12,0.0,0.0,0.0
348,0.0,0.0,0.0,0.1569609375,0.0,0.0,0.0,0.0,0.0,0.0,-0.116,0.0,0.0,0.0,0.0,0.0,-1.61,0.14656684177644425,0.0,0.0,0.0,0.0,0.0,0.0,-1.004,0.0,0.0,0.0
349,0.0,0.0,0.0,0.1556533203125,0.0,0.0,0.0,0.0,0.0,0.0,-0.135,0.0,0.0,0.0,0.0,0.0,-1.61,0.14483015762606505,0.0,0.0,0.0,0.0,0.0,0.0,-1.14,0.0,0.0,0.0
350,0.0,0.0,0.0,0.1543447265625,0.0,0.0,0.0,0.0,0.0,0.0,-0.129,0.0,0.0,0.0,0.0,0.0,-1.61,0.14296082331017435,0.0,0.0,0.0,0.0,0.0,0.0,-1.552,0.0,0.0,0.0
351,0.0,0.0,0.0,0.1527470703125,0.0,0.0,0.0,0.0,0.0,0.0,-0.145,0.0,0.0,0.0,0.0,0.0,-1.61,0.14115684241414128,0.0,0.0,0.0,0.0,0.0,0.0,-1.804,0.0,0.0,0.0
352,0.0,0.0,0.0,0.1510146484375,0.0,0.0,0.0,0.0,0.0,0.0,-0.173,0.0,0.0,0.0,0.0,0.0,-1.61,0.1392277941532271,0.0,0.0,0.0,0.0,0.0,0.0,-1.256,0.0,0.0,0.0
353,0.0,0.0,0.0,0.14912890625,0.0,0.0,0.0,0.0,0.0,0.0,-0.175,0.0,0.0,0.0,0.0,0.0,-1.61,0.13722453212010033,0.0,0.0,0.0,0.0,0.0,0.0,-0.96,0.0,0.0,0.0
354,0.0,0.0,0.0,0.1472431640625,0.0,0.0,0.0,0.0,0.0,0.0,-0.185,0.0,0.0,0.0,0.0,0.0,-1.61,0.13516461694242826,0.0,0.0,0.0,0.0,0.0,0.0,-0.708,0.0,0.0,0.0
355,0.0,0.0,0.0,0.1455107421875,0.0,0.0,0.0,0.0,0.0,0.0,-0.186,0.0,0.0,0.0,0.0,0.0,-1.61,0.13304223057169615,0.0,0.0,0.0,0.0,0.0,0.0,-0.98,0.0,0.0,0.0
356,0.0,0.0,0.0,0.14348046875,0.0,0.0,0.0,0.0,0.0,0.0,-0.191,0.0,0.0,0.0,0.0,0.0,-1.61,0.13086610101518192,0.0,0.0,0.0,0.0,0.0,0.0,-1.28,0.0,0.0,0.0
357,0.0,0.0,0.0,0.141314453125,0.0,0.0,0.0,0.0,0.0,0.0,-0.209,0.0,0.0,0.0,0.0,0.0,-1.61,0.12860664942801475,0.0,0.0,0.0,0.0,0.0,0.0,-0.66,0.0,0.0,0.0
358,0.0,0.0,0.0,0.1391396484375,0.0,0.0,0.0,0.0,0.0,0.0,-0.216,0.0,0.0,0.0,0.0,0.0,-1.61,0.12630646898640935,0.0,0.0,0.0,0.0,0.0,0.0,-0.684,0.0,0.0,0.0
359,0.0,0.0,0.0,0.1366767578125,0.0,0.0,0.0,0.0,0.0,0.0,-0.239,0.0,0.0,0.0,0.0,0.0,-1.61,0.12395907922054031,0.0,0.0,0.0,0.0,0.0,0.0,-0.32,0.0,0.0,0.0
360,0.0,0.0,0.0,0.1342041015625,0.0,0.0,0.0,0.0,0.0,0.0,-0.246,0.0,0.0,0.0,0.0,0.0,-1.61,0.12149582210909401,0.0,0.0,0.0,0.0,0.0,0.0,0.18,0.0,0.0,0.0
361,0.0,0.0,0.0,0.1317412109375,0.0,0.0,0.0,0.0,0.0,0.0,-0.247,0.0,0.0,0.0,0.0,0.0,-1.61,0.11903118073231565,0.0,0.0,0.0,0.0,0.0,0.0,-0.136,0.0,0.0,0.0
362,0.0,0.0,0.0,0.12898828125,0.0,0.0,0.0,0.0,0.0,0.0,-0.261,0.0,0.0,0.0,0.0,0.0,-1.61,0.11652002624092642,0.0,0.0,0.0,0.0,0.0,0.0,0.068,0.0,0.0,0.0
363,0.0,0.0,0.0,0.1263896484375,0.0,0.0,0.0,0.0,0.0,0.0,-0.27,0.0,0.0,0.0,0.0,0.0,-1.61,0.11393788335583051,0.0,0.0,0.0,0.0,0.0,0.0,0.18,0.0,0.0,0.0
364,0.0,0.0,0.0,0.1237822265625,0.0,0.0,0.0,0.0,0.0,0.0,-0.265,0.0,0.0,0.0,0.0,0.0,-1.61,0.11125237324815676,0.0,0.0,0.0,0.0,0.0,0.0,0.364,0.0,0.0,0.0
365,0.0,0.0,0.0,0.1210302734375,0.0,0.0,0.0,0.0,0.0,0.0,-0.266,0.0,0.0,0.0,0.0,0.0,-1.61,0.10859899727771317,0.0,0.0,0.0,0.0,0.0,0.0,0.248,0.0,0.0,0.0
366,0.0,0.0,0.0,0.118421875,0.0,0.0,0.0,0.0,0.0,0.0,-0.269,0.0,0.0,0.0,0.0,0.0,-1.61,0.10586693223691047,0.0,0.0,0.0,0.0,0.0,0.0,0.388,0.0,0.0,0.0
367,0.0,0.0,0.0,0.115958984375,0.0,0.0,0.0,0.0,0.0,0.0,-0.252,0.0,0.0,0.0,0.0,0.0,-1.61,0.1030658816372547,0.0,0.0,0.0,0.0,0.0,0.0,0.432,0.0,0.0,0.0
368,0.0,0.0,0.0,0.113341796875,0.0,0.0,0.0,0.0,0.0,0.0,-0.259,0.0,0.0,0.0,0.0,0.0,-1.61,0.10020281236458471,0.0,0.0,0.0,0.0,0.0,0.0,0.592,0.0,0.0,0.0
369,0.0,0.0,0.0,0.110734375,0.0,0.0,0.0,0.0,0.0,0.0,-0.263,0.0,0.0,0.0,0.0,0.0,-1.61,0.09734568293697207,0.0,0.0,0.0,0.0,0.0,0.0,0.364,0.0,0.0,0.0
370,0.0,0.0,0.0,0.107548828125,0.0,0.0,0.0,0.0,0.0,0.0,-0.29,0.0,0.0,0.0,0.0,0.0,-1.61,0.09436833786993785,0.0,0.0,0.0,0.0,0.0,0.0,-0.456,0.0,0.0,0.0
371,0.0,0.0,0.0,0.1045078125,0.0,0.0,0.0,0.0,0.0,0.0,-0.317,0.0,0.0,0.0,0.0,0.0,-1.61,0.09140858423658334,0.0,0.0,0.0,0.0,0.0,0.0,0.204,0.0,0.0,0.0
372,0.0,0.0,0.0,0.1017646484375,0.0,0.0,0.0,0.0,0.0,0.0,-0.292,0.0,0.0,0.0,0.0,0.0,-1.61,0.08841265587627478,0.0,0.0,0.0,0.0,0.0,0.0,0.5,0.0,0.0,0.0
373,0.0,0.0,0.0,0.099021484375,0.0,0.0,0.0,0.0,0.0,0.0,-0.275,0.0,0.0,0.0,0.0,0.0,-1.61,0.08526683528801567,0.0,0.0,0.0,0.0,0.0,0.0,0.524,0.0,0.0,0.0
374,0.0,0.0,0.0,0.0959814453125,0.0,0.0,0.0,0.0,0.0,0.0,-0.292,0.0,0.0,0.0,0.0,0.0,-1.61,0.08219253539056953,0.0,0.0,0.0,0.0,0.0,0.0,0.272,0.0,0.0,0.0
375,0.0,0.0,0.0,0.0930751953125,0.0,0.0,0.0,0.0,0.0,0.0,-0.299,0.0,0.0,0.0,0.0,0.0,-1.61,0.07904882155959957,0.0,0.0,0.0,0.0,0.0,0.0,-0.592,0.0,0.0,0.0
376,0.0,0.0,0.0,0.0901787109375,0.0,0.0,0.0,0.0,0.0,0.0,-0.3,0.0,0.0,0.0,0.0,0.0,-1.61,0.07586848978724867,0.0,0.0,0.0,0.0,0.0,0.0,-0.272,0.0,0.0,0.0
377,0.0,0.0,0.0,0.0872822265625,0.0,0.0,0.0,0.0,0.0,0.0,-0.285,0.0,0.0,0.0,0.0,0.0,-1.61,0.07263951823742874,0.0,0.0,0.0,0.0,0.0,0.0,-0.388,0.0,0.0,0.0
378,0.0,0.0,0.0,0.0840966796875,0.0,0.0,0.0,0.0,0.0,0.0,-0.301,0.0,0.0,0.0,0.0,0.0,-1.61,0.06933028448772943,0.0,0.0,0.0,0.0,0.0,0.0,-0.456,0.0,0.0,0.0
379,0.0,0.0,0.0,0.0812001953125,0.0,0.0,0.0,0.0,0.0,0.0,-0.311,0.0,0.0,0.0,0.0,0.0,-1.61,0.06608072281197944,0.0,0.0,0.0,0.0,0.0,0.0,0.044,0.0,0.0,0.0
380,0.0,0.0,0.0,0.0784482421875,0.0,0.0,0.0,0.0,0.0,0.0,-0.282,0.0,0.0,0.0,0.0,0.0,-1.61,0.06275798841663924,0.0,0.0,0.0,0.0,0.0,0.0,0.136,0.0,0.0,0.0
381,0.0,0.0,0.0,0.074974609375,0.0,0.0,0.0,0.0,0.0,0.0,-0.304,0.0,0.0,0.0,0.0,0.0,-1.61,0.05938814702166722,0.0,0.0,0.0,0.0,0.0,0.0,-0.388,0.0,0.0,0.0
382,0.0,0.0,0.0,0.0714912109375,0.0,0.0,0.0,0.0,0.0,0.0,-0.361,0.0,0.0,0.0,0.0,0.0,-1.61,0.0560200794884079,0.0,0.0,0.0,0.0,0.0,0.0,0.568,0.0,0.0,0.0
383,0.0,0.0,0.0,0.0685947265625,0.0,0.0,0.0,0.0,0.0,0.0,-0.325,0.0,0.0,0.0,0.0,0.0,-1.61,0.05252236972813739,0.0,0.0,0.0,0.0,0.0,0.0,0.32,0.0,0.0,0.0
384,0.0,0.0,0.0,0.0649677734375,0.0,0.0,0.0,0.0,0.0,0.0,-0.319,0.0,0.0,0.0,0.0,0.0,-1.61,0.049141910467296296,0.0,0.0,0.0,0.0,0.0,0.0,-0.02,0.0,0.0,0.0
385,0.0,0.0,0.0,0.0614931640625,0.0,0.0,0.0,0.0,0.0,0.0,-0.361,0.0,0.0,0.0,0.0,0.0,-1.61,0.045643686561923344,0.0,0.0,0.0,0.0,0.0,0.0,0.272,0.0,0.0,0.0
386,0.0,0.0,0.0,0.05830859375,0.0,0.0,0.0,0.0,0.0,0.0,-0.335,0.0,0.0,0.0,0.0,0.0,-1.61,0.04216056262823267,0.0,0.0,0.0,0.0,0.0,0.0,-0.112,0.0,0.0,0.0
387,0.0,0.0,0.0,0.054978515625,0.0,0.0,0.0,0.0,0.0,0.0,-0.323,0.0,0.0,0.0,0.0,0.0,-1.61,0.03869062217896449,0.0,0.0,0.0,0.0,0.0,0.0,0.248,0.0,0.0,0.0
388,0.0,0.0,0.0,0.0514951171875,0.0,0.0,0.0,0.0,0.0,0.0,-0.347,0.0,0.0,0.0,0.0,0.0,-1.61,0.03509142975947478,0.0,0.0,0.0,0.0,0.0,0.0,0.364,0.0,0.0,0.0
389,0.0,0.0,0.0,0.048310546875,0.0,0.0,0.0,0.0,0.0,0.0,-0.339,0.0,0.0,0.0,0.0,0.0,-1.61,0.03156158882142195,0.0,0.0,0.0,0.0,0.0,0.0,0.296,0.0,0.0,0.0
390,0.0,0.0,0.0,0.0448359375,0.0,0.0,0.0,0.0,0.0,0.0,-0.328,0.0,0.0,0.0,0.0,0.0,-1.61,0.027963126501835682,0.0,0.0,0.0,0.0,0.0,0.0,-0.524,0.0,0.0,0.0
391,0.0,0.0,0.0,0.0409287109375,0.0,0.0,0.0,0.0,0.0,0.0,-0.373,0.0,0.0,0.0,0.0,0.0,-1.61,0.024343956080963434,0.0,0.0,0.0,0.0,0.0,0.0,-0.616,0.0,0.0,0.0
392,0.0,0.0,0.0,0.0373017578125,0.0,0.0,0.0,0.0,0.0,0.0,-0.384,0.0,0.0,0.0,0.0,0.0,-1.61,0.020783914661015368,0.0,0.0,0.0,0.0,0.0,0.0,-0.64,0.0,0.0,0.0
393,0.0,0.0,0.0,0.03368359375,0.0,0.0,0.0,0.0,0.0,0.0,-0.357,0.0,0.0,0.0,0.0,0.0,-1.61,0.017160027872696545,0.0,0.0,0.0,0.0,0.0,0.0,-0.408,0.0,0.0,0.0
394,0.0,0.0,0.0,0.0299111328125,0.0,0.0,0.0,0.0,0.0,0.0,-0.377,0.0,0.0,0.0,0.0,0.0,-1.61,0.013483603746516604,0.0,0.0,0.0,0.0,0.0,0.0,0.136,0.0,0.0,0.0
395,0.0,0.0,0.0,0.0267265625,0.0,0.0,0.0,0.0,0.0,0.0,-0.364,0.0,0.0,0.0,0.0,0.0,-1.61,0.009850482625678295,0.0,0.0,0.0,0.0,0.0,0.0,0.708,0.0,0.0,0.0
396,0.0,0.0,0.0,0.023396484375,0.0,0.0,0.0,0.0,0.0,0.0,-0.317,0.0,0.0,0.0,0.0,0.0,-1.61,0.006241737857292185,0.0,0.0,0.0,0.0,0.0,0.0,-0.432,0.0,0.0,0.0
397,0.0,0.0,0.0,0.0193447265625,0.0,0.0,0.0,0.0,0.0,0.0,-0.369,0.0,0.0,0.0,0.0,0.0,-1.61,0.002557752442019326,0.0,0.0,0.0,0.0,0.0,0.0,-0.64,0.0,0.0,0.0
398,0.0,0.0,0.0,0.01616015625,0.0,0.0,0.0,0.0,0.0,0.0,-0.373,0.0,0.0,0.0,0.0,0.0,-1.61,-0.0011404614320260503,0.0,0.0,0.0,0.0,0.0,0.0,-0.02,0.0,0.0,0.0
399,0.0,0.0,0.0,0.0125322265625,0.0,0.0,0.0,0.0,0.0,0.0,-0.333,0.0,0.0,0.0,0.0,0.0,-1.61,-0.004745494227725566,0.0,0.0,0.0,0.0,0.0,0.0,-0.568,0.0,0.0,0.0
400,0.0,0.0,0.0,0.0083271484375,0.0,0.0,0.0,0.0,0.0,0.0,-0.396,0.0,0.0,0.0,0.0,0.0,-1.61,-0.008426781875997899,0.0,0.0,0.0,0.0,0.0,0.0,0.616,0.0,0.0,0.0
401,0.0,0.0,0.0,0.004564453125,0.0,0.0,0.0,0.0,0.0,0.0,-0.407,0.0,0.0,0.0,0.0,0.0,-1.61,-0.012151872266555144,0.0,0.0,0.0,0.0,0.0,0.0,0.776,0.0,0.0,0.0
402,0.0,0.0,0.0,0.0006484375,0.0,0.0,0.0,0.0,0.0,0.0,-0.379,0.0,0.0,0.0,0.0,0.0,-1.61,-0.01574140636776803,0.0,0.0,0.0,0.0,0.0,0.0,0.48,0.0,0.0,0.0
403,0.0,0.0,0.0,-0.0035458984375,0.0,0.0,0.0,0.0,0.0,0.0,-0.412,0.0,0.0,0.0,0.0,0.0,-1.61,-0.019461736242663907,0.0,0.0,0.0,0.0,0.0,0.0,0.592,0.0,0.0,0.0
404,0.0,0.0,0.0,-0.007453125,0.0,0.0,0.0,0.0,0.0,0.0,-0.416,0.0,0.0,0.0,0.0,0.0,-1.61,-0.023094111861568727,0.0,0.0,0.0,0.0,0.0,0.0,0.844,0.0,0.0,0.0
405,0.0,0.0,0.0,-0.0112255859375,0.0,0.0,0.0,0.0,0.0,0.0,-0.385,0.0,0.0,0.0,0.0,0.0,-1.61,-0.026747218715746313,0.0,0.0,0.0,0.0,0.0,0.0,-0.112,0.0,0.0,0.0
406,0.0,0.0,0.0,-0.0152861328125,0.0,0.0,0.0,0.0,0.0,0.0,-0.395,0.0,0.0,0.0,0.0,0.0,-1.61,-0.030400776148663263,0.0,0.0,0.0,0.0,0.0,0.0,0.388,0.0,0.0,0.0
407,0.0,0.0,0.0,-0.018615234375,0.0,0.0,0.0,0.0,0.0,0.0,-0.377,0.0,0.0,0.0,0.0,0.0,-1.61,-0.03405913899418738,0.0,0.0,0.0,0.0,0.0,0.0,0.684,0.0,0.0,0.0
408,0.0,0.0,0.0,-0.0222333984375,0.0,0.0,0.0,0.0,0.0,0.0,-0.341,0.0,0.0,0.0,0.0,0.0,-1.61,-0.03771120541486585,0.0,0.0,0.0,0.0,0.0,0.0,0.136,0.0,0.0,0.0
409,0.0,0.0,0.0,-0.02628515625,0.0,0.0,0.0,0.0,0.0,0.0,-0.386,0.0,0.0,0.0,0.0,0.0,-1.61,-0.04127156486992858,0.0,0.0,0.0,0.0,0.0,0.0,0.16,0.0,0.0,0.0
410,0.0,0.0,0.0,-0.029615234375,0.0,0.0,0.0,0.0,0.0,0.0,-0.382,0.0,0.0,0.0,0.0,0.0,-1.61,-0.044915247144968404,0.0,0.0,0.0,0.0,0.0,0.0,0.616,0.0,0.0,0.0
411,0.0,0.0,0.0,-0.033107421875,0.0,0.0,0.0,0.0,0.0,0.0,-0.334,0.0,0.0,0.0,0.0,0.0,-1.61,-0.04850102276873325,0.0,0.0,0.0,0.0,0.0,0.0,-0.66,0.0,0.0,0.0
412,0.0,0.0,0.0,-0.037302734375,0.0,0.0,0.0,0.0,0.0,0.0,-0.391,0.0,0.0,0.0,0.0,0.0,-1.61,-0.05202100064055407,0.0,0.0,0.0,0.0,0.0,0.0,-0.068,0.0,0.0,0.0
413,0.0,0.0,0.0,-0.0406328125,0.0,0.0,0.0,0.0,0.0,0.0,-0.385,0.0,0.0,0.0,0.0,0.0,-1.61,-0.055614643340767496,0.0,0.0,0.0,0.0,0.0,0.0,0.32,0.0,0.0,0.0
414,0.0,0.0,0.0,-0.0439619140625,0.0,0.0,0.0,0.0,0.0,0.0,-0.324,0.0,0.0,0.0,0.0,0.0,-1.61,-0.05919640060419306,0.0,0.0,0.0,0.0,0.0,0.0,-0.296,0.0,0.0,0.0
415,0.0,0.0,0.0,-0.048013671875,0.0,0.0,0.0,0.0,0.0,0.0,-0.371,0.0,0.0,0.0,0.0,0.0,-1.61,-0.06263224874755406,0.0,0.0,0.0,0.0,0.0,0.0,0.248,0.0,0.0,0.0
416,0.0,0.0,0.0,-0.05134375,0.0,0.0,0.0,0.0,0.0,0.0,-0.386,0.0,0.0,0.0,0.0,0.0,-1.61,-0.06613772331429313,0.0,0.0,0.0,0.0,0.0,0.0,0.8,0.0,0.0,0.0
417,0.0,0.0,0.0,-0.05469140625,0.0,0.0,0.0,0.0,0.0,0.0,-0.332,0.0,0.0,0.0,0.0,0.0,-1.61,-0.06958977618837187,0.0,0.0,0.0,0.0,0.0,0.0,1.052,0.0,0.0,0.0
418,0.0,0.0,0.0,-0.0581650390625,0.0,0.0,0.0,0.0,0.0,0.0,-0.342,0.0,0.0,0.0,0.0,0.0,-1.61,-0.0730389734821707,0.0,0.0,0.0,0.0,0.0,0.0,1.256,0.0,0.0,0.0
419,0.0,0.0,0.0,-0.061638671875,0.0,0.0,0.0,0.0,0.0,0.0,-0.356,0.0,0.0,0.0,0.0,0.0,-1.61,-0.07641708152544928,0.0,0.0,0.0,0.0,0.0,0.0,0.456,0.0,0.0,0.0
420,0.0,0.0,0.0,-0.06511328125,0.0,0.0,0.0,0.0,0.0,0.0,-0.351,0.0,0.0,0.0,0.0,0.0,-1.61,-0.07978661891260845,0.0,0.0,0.0,0.0,0.0,0.0,0.0,0.0,0.0,0.0
421,0.0,0.0,0.0,-0.0688759765625,0.0,0.0,0.0,0.0,0.0,0.0,-0.359,0.0,0.0,0.0,0.0,0.0,-1.61,-0.08315538949546337,0.0,0.0,0.0,0.0,0.0,0.0,-0.136,0.0,0.0,0.0
422,0.0,0.0,0.0,-0.072349609375,0.0,0.0,0.0,0.0,0.0,0.0,-0.371,0.0,0.0,0.0,0.0,0.0,-1.61,-0.0864484608500411,0.0,0.0,0.0,0.0,0.0,0.0,0.776,0.0,0.0,0.0
423,0.0,0.0,0.0,-0.0755439453125,0.0,0.0,0.0,0.0,0.0,0.0,-0.337,0.0,0.0,0.0,0.0,0.0,-1.61,-0.08972182808180874,0.0,0.0,0.0,0.0,0.0,0.0,0.752,0.0,0.0,0.0
424,0.0,0.0,0.0,-0.0791630859375,0.0,0.0,0.0,0.0,0.0,0.0,-0.341,0.0,0.0,0.0,0.0,0.0,-1.61,-0.092949235283448,0.0,0.0,0.0,0.0,0.0,0.0,0.48,0.0,0.0,0.0
425,0.0,0.0,0.0,-0.0825009765625,0.0,0.0,0.0,0.0,0.0,0.0,-0.355,0.0,0.0,0.0,0.0,0.0,-1.61,-0.09618530918853803,0.0,0.0,0.0,0.0,0.0,0.0,0.548,0.0,0.0,0.0
426,0.0,0.0,0.0,-0.0856865234375,0.0,0.0,0.0,0.0,0.0,0.0,-0.32,0.0,0.0,0.0,0.0,0.0,-1.61,-0.09931879098162773,0.0,0.0,0.0,0.0,0.0,0.0,-0.8,0.0,0.0,0.0
427,0.0,0.0,0.0,-0.08944921875,0.0,0.0,0.0,0.0,0.0,0.0,-0.349,0.0,0.0,0.0,0.0,0.0,-1.61,-0.10247137770231222,0.0,0.0,0.0,0.0,0.0,0.0,-0.388,0.0,0.0,0.0
428,0.0,0.0,0.0,-0.092490234375,0.0,0.0,0.0,0.0,0.0,0.0,-0.35,0.0,0.0,0.0,0.0,0.0,-1.61,-0.10552592533586522,0.0,0.0,0.0,0.0,0.0,0.0,0.272,0.0,0.0,0.0
429,0.0,0.0,0.0,-0.09553125,0.0,0.0,0.0,0.0,0.0,0.0,-0.3,0.0,0.0,0.0,0.0,0.0,-1.61,-0.10855921231385807,0.0,0.0,0.0,0.0,0.0,0.0,-0.068,0.0,0.0,0.0
430,0.0,0.0,0.0,-0.0987255859375,0.0,0.0,0.0,0.0,0.0,0.0,-0.313,0.0,0.0,0.0,0.0,0.0,-1.61,-0.11155870178487208,0.0,0.0,0.0,0.0,0.0,0.0,0.34,0.0,0.0,0.0
431,0.0,0.0,0.0,-0.1014775390625,0.0,0.0,0.0,0.0,0.0,0.0,-0.31,0.0,0.0,0.0,0.0,0.0,-1.61,-0.11452409071107598,0.0,0.0,0.0,0.0,0.0,0.0,0.204,0.0,0.0,0.0
432,0.0,0.0,0.0,-0.1046630859375,0.0,0.0,0.0,0.0,0.0,0.0,-0.29,0.0,0.0,0.0,0.0,0.0,-1.61,-0.11738088050687273,0.0,0.0,0.0,0.0,0.0,0.0,-0.5,0.0,0.0,0.0
433,0.0,0.0,0.0,-0.1077041015625,0.0,0.0,0.0,0.0,0.0,0.0,-0.32,0.0,0.0,0.0,0.0,0.0,-1.61,-0.12024733528028836,0.0,0.0,0.0,0.0,0.0,0.0,0.044,0.0,0.0,0.0
434,0.0,0.0,0.0,-0.110302734375,0.0,0.0,0.0,0.0,0.0,0.0,-0.291,0.0,0.0,0.0,0.0,0.0,-1.61,-0.12304195952318783,0.0,0.0,0.0,0.0,0.0,0.0,0.16,0.0,0.0,0.0
435,0.0,0.0,0.0,-0.11334375,0.0,0.0,0.0,0.0,0.0,0.0,-0.279,0.0,0.0,0.0,0.0,0.0,-1.61,-0.12582797846125007,0.0,0.0,0.0,0.0,0.0,0.0,0.204,0.0,0.0,0.0
436,0.0,0.0,0.0,-0.116240234375,0.0,0.0,0.0,0.0,0.0,0.0,-0.31,0.0,0.0,0.0,0.0,0.0,-1.61,-0.12850650469597827,0.0,0.0,0.0,0.0,0.0,0.0,1.3,0.0,0.0,0.0
437,0.0,0.0,0.0,-0.1190009765625,0.0,0.0,0.0,0.0,0.0,0.0,-0.277,0.0,0.0,0.0,0.0,0.0,-1.61,-0.13113225419062013,0.0,0.0,0.0,0.0,0.0,0.0,0.5,0.0,0.0,0.0
438,0.0,0.0,0.0,-0.122474609375,0.0,0.0,0.0,0.0,0.0,0.0,-0.307,0.0,0.0,0.0,0.0,0.0,-1.61,-0.13376185209746816,0.0,0.0,0.0,0.0,0.0,0.0,0.456,0.0,0.0,0.0
439,0.0,0.0,0.0,-0.12537109375,0.0,0.0,0.0,0.0,0.0,0.0,-0.333,0.0,0.0,0.0,0.0,0.0,-1.61,-0.13627068768188705,0.0,0.0,0.0,0.0,0.0,0.0,1.28,0.0,0.0,0.0
440,0.0,0.0,0.0,-0.1276904296875,0.0,0.0,0.0,0.0,0.0,0.0,-0.259,0.0,0.0,0.0,0.0,0.0,-1.61,-0.13874318152417536,0.0,0.0,0.0,0.0,0.0,0.0,0.708,0.0,0.0,0.0
441,0.0,0.0,0.0,-0.1305869140625,0.0,0.0,0.0,0.0,0.0,0.0,-0.261,0.0,0.0,0.0,0.0,0.0,-1.61,-0.14117177143895238,0.0,0.0,0.0,0.0,0.0,0.0,1.096,0.0,0.0,0.0
442,0.0,0.0,0.0,-0.1331953125,0.0,0.0,0.0,0.0,0.0,0.0,-0.283,0.0,0.0,0.0,0.0,0.0,-1.61,-0.14348964764457317,0.0,0.0,0.0,0.0,0.0,0.0,0.728,0.0,0.0,0.0
443,0.0,0.0,0.0,-0.135658203125,0.0,0.0,0.0,0.0,0.0,0.0,-0.253,0.0,0.0,0.0,0.0,0.0,-1.61,-0.14580310813177114,0.0,0.0,0.0,0.0,0.0,0.0,-0.112,0.0,0.0,0.0
444,0.0,0.0,0.0,-0.1384013671875,0.0,0.0,0.0,0.0,0.0,0.0,-0.261,0.0,0.0,0.0,0.0,0.0,-1.61,-0.14803284909995598,0.0,0.0,0.0,0.0,0.0,0.0,0.524,0.0,0.0,0.0
445,0.0,0.0,0.0,-0.1410087890625,0.0,0.0,0.0,0.0,0.0,0.0,-0.268,0.0,0.0,0.0,0.0,0.0,-1.61,-0.15020594792691758,0.0,0.0,0.0,0.0,0.0,0.0,0.5,0.0,0.0,0.0
446,0.0,0.0,0.0,-0.1434814453125,0.0,0.0,0.0,0.0,0.0,0.0,-0.263,0.0,0.0,0.0,0.0,0.0,-1.61,-0.15231306252002497,0.0,0.0,0.0,0.0,0.0,0.0,0.8,0.0,0.0,0.0
447,0.0,0.0,0.0,-0.14580078125,0.0,0.0,0.0,0.0,0.0,0.0,-0.246,0.0,0.0,0.0,0.0,0.0,-1.61,-0.15436916448791752,0.0,0.0,0.0,0.0,0.0,0.0,1.028,0.0,0.0,0.0
448,0.0,0.0,0.0,-0.1479658203125,0.0,0.0,0.0,0.0,0.0,0.0,-0.225,0.0,0.0,0.0,0.0,0.0,-1.61,-0.15634248913534657,0.0,0.0,0.0,0.0,0.0,0.0,0.844,0.0,0.0,0.0
449,0.0,0.0,0.0,-0.150140625,0.0,0.0,0.0,0.0,0.0,0.0,-0.214,0.0,0.0,0.0,0.0,0.0,-1.61,-0.1582451743419646,0.0,0.0,0.0,0.0,0.0,0.0,0.524,0.0,0.0,0.0
450,0.0,0.0,0.0,-0.1520263671875,0.0,0.0,0.0,0.0,0.0,0.0,-0.207,0.0,0.0,0.0,0.0,0.0,-1.61,-0.16011680434774087,0.0,0.0,0.0,0.0,0.0,0.0,0.388,0.0,0.0,0.0
451,0.0,0.0,0.0,-0.1539033203125,0.0,0.0,0.0,0.0,0.0,0.0,-0.192,0.0,0.0,0.0,0.0,0.0,-1.61,-0.16186025041708757,0.0,0.0,0.0,0.0,0.0,0.0,0.296,0.0,0.0,0.0
452,0.0,0.0,0.0,-0.1557890625,0.0,0.0,0.0,0.0,0.0,0.0,-0.191,0.0,0.0,0.0,0.0,0.0,-1.61,-0.16355902201503325,0.0,0.0,0.0,0.0,0.0,0.0,0.228,0.0,0.0,0.0
453,0.0,0.0,0.0,-0.1573779296875,0.0,0.0,0.0,0.0,0.0,0.0,-0.18,0.0,0.0,0.0,0.0,0.0,-1.61,-0.16520537393366877,0.0,0.0,0.0,0.0,0.0,0.0,0.548,0.0,0.0,0.0
454,0.0,0.0,0.0,-0.158974609375,0.0,0.0,0.0,0.0,0.0,0.0,-0.159,0.0,0.0,0.0,0.0,0.0,-1.61,-0.16675884051853945,0.0,0.0,0.0,0.0,0.0,0.0,0.044,0.0,0.0,0.0
455,0.0,0.0,0.0,-0.1607158203125,0.0,0.0,0.0,0.0,0.0,0.0,-0.166,0.0,0.0,0.0,0.0,0.0,-1.61,-0.16825430162603194,0.0,0.0,0.0,0.0,0.0,0.0,0.18,0.0,0.0,0.0
456,0.0,0.0,0.0,-0.162015625,0.0,0.0,0.0,0.0,0.0,0.0,-0.163,0.0,0.0,0.0,0.0,0.0,-1.61,-0.16966562606491803,0.0,0.0,0.0,0.0,0.0,0.0,0.18,0.0,0.0,0.0
457,0.0,0.0,0.0,-0.163603515625,0.0,0.0,0.0,0.0,0.0,0.0,-0.143,0.0,0.0,0.0,0.0,0.0,-1.61,-0.1710108359421981,0.0,0.0,0.0,0.0,0.0,0.0,-0.112,0.0,0.0,0.0
458,0.0,0.0,0.0,-0.1653544921875,0.0,0.0,0.0,0.0,0.0,0.0,-0.17,0.0,0.0,0.0,0.0,0.0,-1.61,-0.17228180045599484,0.0,0.0,0.0,0.0,0.0,0.0,0.248,0.0,0.0,0.0
459,0.0,0.0,0.0,-0.1666533203125,0.0,0.0,0.0,0.0,0.0,0.0,-0.158,0.0,0.0,0.0,0.0,0.0,-1.61,-0.1734784985805075,0.0,0.0,0.0,0.0,0.0,0.0,0.228,0.0,0.0,0.0
460,0.0,0.0,0.0,-0.1679619140625,0.0,0.0,0.0,0.0,0.0,0.0,-0.127,0.0,0.0,0.0,0.0,0.0,-1.61,-0.1745980283993632,0.0,0.0,0.0,0.0,0.0,0.0,-0.112,0.0,0.0,0.0
461,0.0,0.0,0.0,-0.16926171875,0.0,0.0,0.0,0.0,0.0,0.0,-0.134,0.0,0.0,0.0,0.0,0.0,-1.61,-0.1757379890389452,0.0,0.0,0.0,0.0,0.0,0.0,0.248,0.0,0.0,0.0
462,0.0,0.0,0.0,-0.17042578125,0.0,0.0,0.0,0.0,0.0,0.0,-0.12,0.0,0.0,0.0,0.0,0.0,-1.61,-0.1765993565793844,0.0,0.0,0.0,0.0,0.0,0.0,0.112,0.0,0.0,0.0
463,0.0,0.0,0.0,-0.171580078125,0.0,0.0,0.0,0.0,0.0,0.0,-0.12,0.0,0.0,0.0,0.0,0.0,-1.61,-0.17750104937888153,0.0,0.0,0.0,0.0,0.0,0.0,0.272,0.0,0.0,0.0
464,0.0,0.0,0.0,-0.1727353515625,0.0,0.0,0.0,0.0,0.0,0.0,-0.119,0.0,0.0,0.0,0.0,0.0,-1.61,-0.17830900019138762,0.0,0.0,0.0,0.0,0.0,0.0,0.844,0.0,0.0,0.0
465,0.0,0.0,0.0,-0.1736103515625,0.0,0.0,0.0,0.0,0.0,0.0,-0.097,0.0,0.0,0.0,0.0,0.0,-1.61,-0.17904788317583303,0.0,0.0,0.0,0.0,0.0,0.0,0.272,0.0,0.0,0.0
466,0.0,0.0,0.0,-0.17462109375,0.0,0.0,0.0,0.0,0.0,0.0,-0.097,0.0,0.0,0.0,0.0,0.0,-1.61,-0.17971203189997376,0.0,0.0,0.0,0.0,0.0,0.0,0.388,0.0,0.0,0.0
467,0.0,0.0,0.0,-0.1754873046875,0.0,0.0,0.0,0.0,0.0,0.0,-0.095,0.0,0.0,0.0,0.0,0.0,-1.61,-0.1802831514329328,0.0,0.0,0.0,0.0,0.0,0.0,0.364,0.0,0.0,0.0
468,0.0,0.0,0.0,-0.1765068359375,0.0,0.0,0.0,0.0,0.0,0.0,-0.091,0.0,0.0,0.0,0.0,0.0,-1.61,-0.1807836332000417,0.0,0.0,0.0,0.0,0.0,0.0,0.432,0.0,0.0,0.0
469,0.0,0.0,0.0,-0.177373046875,0.0,0.0,0.0,0.0,0.0,0.0,-0.104,0.0,0.0,0.0,0.0,0.0,-1.61,-0.18119686759455725,0.0,0.0,0.0,0.0,0.0,0.0,1.12,0.0,0.0,0.0
470,0.0,0.0,0.0,-0.178095703125,0.0,0.0,0.0,0.0,0.0,0.0,-0.085,0.0,0.0,0.0,0.0,0.0,-1.61,-0.18153999686839412,0.0,0.0,0.0,0.0,0.0,0.0,1.052,0.0,0.0,0.0
471,0.0,0.0,0.0,-0.1786728515625,0.0,0.0,0.0,0.0,0.0,0.0,-0.066,0.0,0.0,0.0,0.0,0.0,-1.61,-0.181799110816583,0.0,0.0,0.0,0.0,0.0,0.0,1.028,0.0,0.0,0.0
472,0.0,0.0,0.0,-0.1789619140625,0.0,0.0,0.0,0.0,0.0,0.0,-0.05,0.0,0.0,0.0,0.0,0.0,-1.61,-0.18197886249961595,0.0,0.0,0.0,0.0,0.0,0.0,1.052,0.0,0.0,0.0
473,0.0,0.0,0.0,-0.17925,0.0,0.0,0.0,0.0,0.0,0.0,-0.029,0.0,0.0,0.0,0.0,0.0,-1.61,-0.18207938314611943,0.0,0.0,0.0,0.0,0.0,0.0,0.66,0.0,0.0,0.0
474,0.0,0.0,0.0,-0.1798369140625,0.0,0.0,0.0,0.0,0.0,0.0,-0.038,0.0,0.0,0.0,0.0,0.0,-1.61,-0.1820993163847523,0.0,0.0,0.0,0.0,0.0,0.0,0.82,0.0,0.0,0.0
475,0.0,0.0,0.0,-0.1799814453125,0.0,0.0,0.0,0.0,0.0,0.0,-0.041,0.0,0.0,0.0,0.0,0.0,-1.61,-0.1820375412939776,0.0,0.0,0.0,0.0,0.0,0.0,1.232,0.0,0.0,0.0
476,0.0,0.0,0.0,-0.1801259765625,0.0,0.0,0.0,0.0,0.0,0.0,-0.02,0.0,0.0,0.0,0.0,0.0,-1.61,-0.18189768189075467,0.0,0.0,0.0,0.0,0.0,0.0,1.348,0.0,0.0,0.0
477,0.0,0.0,0.0,-0.1801259765625,0.0,0.0,0.0,0.0,0.0,0.0,-0.005,0.0,0.0,0.0,0.0,0.0,-1.61,-0.181676108317765,0.0,0.0,0.0,0.0,0.0,0.0,1.508,0.0,0.0,0.0
478,0.0,0.0,0.0,-0.1801259765625,0.0,0.0,0.0,0.0,0.0,0.0,-0.001,0.0,0.0,0.0,0.0,0.0,-1.61,-0.18137077578975236,0.0,0.0,0.0,0.0,0.0,0.0,1.372,0.0,0.0,0.0
479,0.0,0.0,0.0,-0.1799814453125,0.0,0.0,0.0,0.0,0.0,0.0,0.009,0.0,0.0,0.0,0.0,0.0,-1.61,-0.18099070534190118,0.0,0.0,0.0,0.0,0.0,0.0,1.164,0.0,0.0,0.0
480,0.0,0.0,0.0,-0.1799814453125,0.0,0.0,0.0,0.0,0.0,0.0,0.006,0.0,0.0,0.0,0.0,0.0,-1.61,-0.18052762145634443,0.0,0.0,0.0,0.0,0.0,0.0,1.072,0.0,0.0,0.0
481,0.0,0.0,0.0,-0.1799814453125,0.0,0.0,0.0,0.0,0.0,0.0,-0.001,0.0,0.0,0.0,0.0,0.0,-1.61,-0.17998182303823354,0.0,0.0,0.0,0.0,0.0,0.0,1.004,0.0,0.0,0.0
482,0.0,0.0,0.0,-0.1799814453125,0.0,0.0,0.0,0.0,0.0,0.0,-0.001,0.0,0.0,0.0,0.0,0.0,-1.61,-0.17936561422294783,0.0,0.0,0.0,0.0,0.0,0.0,0.936,0.0,0.0,0.0
483,0.0,0.0,0.0,-0.1799814453125,0.0,0.0,0.0,0.0,0.0,0.0,-0.001,0.0,0.0,0.0,0.0,0.0,-1.61,-0.17865520182567482,0.0,0.0,0.0,0.0,0.0,0.0,0.96,0.0,0.0,0.0
484,0.0,0.0,0.0,-0.1799814453125,0.0,0.0,0.0,0.0,0.0,0.0,-0.001,0.0,0.0,0.0,0.0,0.0,-1.61,-0.1778679862595921,0.0,0.0,0.0,0.0,0.0,0.0,0.96,0.0,0.0,0.0
485,0.0,0.0,0.0,-0.1799814453125,0.0,0.0,0.0,0.0,0.0,0.0,-0.001,0.0,0.0,0.0,0.0,0.0,-1.61,-0.17701306788327956,0.0,0.0,0.0,0.0,0.0,0.0,0.912,0.0,0.0,0.0
486,0.0,0.0,0.0,-0.1798369140625,0.0,0.0,0.0,0.0,0.0,0.0,0.008,0.0,0.0,0.0,0.0,0.0,-1.61,-0.17606383545225532,0.0,0.0,0.0,0.0,0.0,0.0,0.868,0.0,0.0,0.0
487,0.0,0.0,0.0,-0.1798369140625,0.0,0.0,0.0,0.0,0.0,0.0,0.007,0.0,0.0,0.0,0.0,0.0,-1.61,-0.17503027353013104,0.0,0.0,0.0,0.0,0.0,0.0,0.66,0.0,0.0,0.0
488,0.0,0.0,0.0,-0.1795390625,0.0,0.0,0.0,0.0,0.0,0.0,0.009,0.0,0.0,0.0,0.0,0.0,-1.61,-0.17394441875248126,0.0,0.0,0.0,0.0,0.0,0.0,0.684,0.0,0.0,0.0
489,0.0,0.0,0.0,-0.1789619140625,0.0,0.0,0.0,0.0,0.0,0.0,0.038,0.0,0.0,0.0,0.0,0.0,-1.61,-0.1727713631006832,0.0,0.0,0.0,0.0,0.0,0.0,1.14,0.0,0.0,0.0
490,0.0,0.0,0.0,-0.178095703125,0.0,0.0,0.0,0.0,0.0,0.0,0.075,0.0,0.0,0.0,0.0,0.0,-1.61,-0.17149390929049038,0.0,0.0,0.0,0.0,0.0,0.0,1.232,0.0,0.0,0.0
491,0.0,0.0,0.0,-0.177373046875,0.0,0.0,0.0,0.0,0.0,0.0,0.082,0.0,0.0,0.0,0.0,0.0,-1.61,-0.17013747005686364,0.0,0.0,0.0,0.0,0.0,0.0,1.096,0.0,0.0,0.0
492,0.0,0.0,0.0,-0.176353515625,0.0,0.0,0.0,0.0,0.0,0.0,0.085,0.0,0.0,0.0,0.0,0.0,-1.61,-0.16878536821079207,0.0,0.0,0.0,0.0,0.0,0.0,1.096,0.0,0.0,0.0
493,0.0,0.0,0.0,-0.17519921875,0.0,0.0,0.0,0.0,0.0,0.0,0.106,0.0,0.0,0.0,0.0,0.0,-1.61,-0.16728016195747636,0.0,0.0,0.0,0.0,0.0,0.0,1.14,0.0,0.0,0.0
494,0.0,0.0,0.0,-0.1738994140625,0.0,0.0,0.0,0.0,0.0,0.0,0.122,0.0,0.0,0.0,0.0,0.0,-1.61,-0.16573719804176598,0.0,0.0,0.0,0.0,0.0,0.0,1.164,0.0,0.0,0.0
495,0.0,0.0,0.0,-0.1725908203125,0.0,0.0,0.0,0.0,0.0,0.0,0.124,0.0,0.0,0.0,0.0,0.0,-1.61,-0.16409767149412519,0.0,0.0,0.0,0.0,0.0,0.0,1.232,0.0,0.0,0.0
496,0.0,0.0,0.0,-0.1710029296875,0.0,0.0,0.0,0.0,0.0,0.0,0.142,0.0,0.0,0.0,0.0,0.0,-1.61,-0.16238714182005312,0.0,0.0,0.0,0.0,0.0,0.0,0.98,0.0,0.0,0.0
497,0.0,0.0,0.0,-0.1695498046875,0.0,0.0,0.0,0.0,0.0,0.0,0.157,0.0,0.0,0.0,0.0,0.0,-1.61,-0.1606080302721625,0.0,0.0,0.0,0.0,0.0,0.0,0.684,0.0,0.0,0.0
498,0.0,0.0,0.0,-0.1679619140625,0.0,0.0,0.0,0.0,0.0,0.0,0.149,0.0,0.0,0.0,0.0,0.0,-1.61,-0.15873187177030362,0.0,0.0,0.0,0.0,0.0,0.0,0.888,0.0,0.0,0.0
499,0.0,0.0,0.0,-0.165931640625,0.0,0.0,0.0,0.0,0.0,0.0,0.176,0.0,0.0,0.0,0.0,0.0,-1.61,-0.15683229923163886,0.0,0.0,0.0,0.0,0.0,0.0,0.728,0.0,0.0,0.0
500,0.0,0.0,0.0,-0.1640458984375,0.0,0.0,0.0,0.0,0.0,0.0,0.199,0.0,0.0,0.0,0.0,0.0,-1.61,-0.15481228754000434,0.0,0.0,0.0,0.0,0.0,0.0,0.844,0.0,0.0,0.0
501,0.0,0.0,0.0,-0.16187109375,0.0,0.0,0.0,0.0,0.0,0.0,0.203,0.0,0.0,0.0,0.0,0.0,-1.61,-0.15273351546271657,0.0,0.0,0.0,0.0,0.0,0.0,0.912,0.0,0.0,0.0
502,0.0,0.0,0.0,-0.159552734375,0.0,0.0,0.0,0.0,0.0,0.0,0.224,0.0,0.0,0.0,0.0,0.0,-1.61,-0.15063353596090726,0.0,0.0,0.0,0.0,0.0,0.0,0.408,0.0,0.0,0.0
503,0.0,0.0,0.0,-0.15767578125,0.0,0.0,0.0,0.0,0.0,0.0,0.215,0.0,0.0,0.0,0.0,0.0,-1.61,-0.14841293157388555,0.0,0.0,0.0,0.0,0.0,0.0,-0.296,0.0,0.0,0.0
504,0.0,0.0,0.0,-0.1557890625,0.0,0.0,0.0,0.0,0.0,0.0,0.182,0.0,0.0,0.0,0.0,0.0,-1.61,-0.14615014541235544,0.0,0.0,0.0,0.0,0.0,0.0,0.524,0.0,0.0,0.0
505,0.0,0.0,0.0,-0.153470703125,0.0,0.0,0.0,0.0,0.0,0.0,0.209,0.0,0.0,0.0,0.0,0.0,-1.61,-0.14379073331847184,0.0,0.0,0.0,0.0,0.0,0.0,0.592,0.0,0.0,0.0
506,0.0,0.0,0.0,-0.1513046875,0.0,0.0,0.0,0.0,0.0,0.0,0.227,0.0,0.0,0.0,0.0,0.0,-1.61,-0.14136185515293814,0.0,0.0,0.0,0.0,0.0,0.0,0.844,0.0,0.0,0.0
507,0.0,0.0,0.0,-0.148986328125,0.0,0.0,0.0,0.0,0.0,0.0,0.227,0.0,0.0,0.0,0.0,0.0,-1.61,-0.13891676208451503,0.0,0.0,0.0,0.0,0.0,0.0,1.164,0.0,0.0,0.0
508,0.0,0.0,0.0,-0.1465224609375,0.0,0.0,0.0,0.0,0.0,0.0,0.247,0.0,0.0,0.0,0.0,0.0,-1.61,-0.1363500789999132,0.0,0.0,0.0,0.0,0.0,0.0,0.296,0.0,0.0,0.0
509,0.0,0.0,0.0,-0.144203125,0.0,0.0,0.0,0.0,0.0,0.0,0.237,0.0,0.0,0.0,0.0,0.0,-1.61,-0.13375901820479028,0.0,0.0,0.0,0.0,0.0,0.0,0.66,0.0,0.0,0.0
510,0.0,0.0,0.0,-0.1415869140625,0.0,0.0,0.0,0.0,0.0,0.0,0.24,0.0,0.0,0.0,0.0,0.0,-1.61,-0.1311021826865229,0.0,0.0,0.0,0.0,0.0,0.0,0.844,0.0,0.0,0.0
511,0.0,0.0,0.0,-0.13898828125,0.0,0.0,0.0,0.0,0.0,0.0,0.268,0.0,0.0,0.0,0.0,0.0,-1.61,-0.1283290367069099,0.0,0.0,0.0,0.0,0.0,0.0,0.568,0.0,0.0,0.0
512,0.0,0.0,0.0,-0.1366689453125,0.0,0.0,0.0,0.0,0.0,0.0,0.244,0.0,0.0,0.0,0.0,0.0,-1.61,-0.1255894819534156,0.0,0.0,0.0,0.0,0.0,0.0,1.052,0.0,0.0,0.0
513,0.0,0.0,0.0,-0.1339169921875,0.0,0.0,0.0,0.0,0.0,0.0,0.25,0.0,0.0,0.0,0.0,0.0,-1.61,-0.12275286533527496,0.0,0.0,0.0,0.0,0.0,0.0,0.98,0.0,0.0,0.0
514,0.0,0.0,0.0,-0.13130859375,0.0,0.0,0.0,0.0,0.0,0.0,0.28,0.0,0.0,0.0,0.0,0.0,-1.61,-0.11985415427725205,0.0,0.0,0.0,0.0,0.0,0.0,0.548,0.0,0.0,0.0
515,0.0,0.0,0.0,-0.128990234375,0.0,0.0,0.0,0.0,0.0,0.0,0.244,0.0,0.0,0.0,0.0,0.0,-1.61,-0.11687230244929085,0.0,0.0,0.0,0.0,0.0,0.0,1.096,0.0,0.0,0.0
516,0.0,0.0,0.0,-0.1262470703125,0.0,0.0,0.0,0.0,0.0,0.0,0.249,0.0,0.0,0.0,0.0,0.0,-1.61,-0.11388023778908894,0.0,0.0,0.0,0.0,0.0,0.0,0.708,0.0,0.0,0.0
517,0.0,0.0,0.0,-0.1234951171875,0.0,0.0,0.0,0.0,0.0,0.0,0.281,0.0,0.0,0.0,0.0,0.0,-1.61,-0.1108158399178842,0.0,0.0,0.0,0.0,0.0,0.0,0.776,0.0,0.0,0.0
518,0.0,0.0,0.0,-0.1207421875,0.0,0.0,0.0,0.0,0.0,0.0,0.274,0.0,0.0,0.0,0.0,0.0,-1.61,-0.10766050580625303,0.0,0.0,0.0,0.0,0.0,0.0,0.8,0.0,0.0,0.0
519,0.0,0.0,0.0,-0.1178369140625,0.0,0.0,0.0,0.0,0.0,0.0,0.278,0.0,0.0,0.0,0.0,0.0,-1.61,-0.10455649875679565,0.0,0.0,0.0,0.0,0.0,0.0,0.776,0.0,0.0,0.0
520,0.0,0.0,0.0,-0.1149404296875,0.0,0.0,0.0,0.0,0.0,0.0,0.294,0.0,0.0,0.0,0.0,0.0,-1.61,-0.10132926986519047,0.0,0.0,0.0,0.0,0.0,0.0,0.752,0.0,0.0,0.0
521,0.0,0.0,0.0,-0.1120439453125,0.0,0.0,0.0,0.0,0.0,0.0,0.291,0.0,0.0,0.0,0.0,0.0,-1.61,-0.09799138780536981,0.0,0.0,0.0,0.0,0.0,0.0,0.96,0.0,0.0,0.0
522,0.0,0.0,0.0,-0.1085703125,0.0,0.0,0.0,0.0,0.0,0.0,0.312,0.0,0.0,0.0,0.0,0.0,-1.61,-0.09475043289243176,0.0,0.0,0.0,0.0,0.0,0.0,0.888,0.0,0.0,0.0
523,0.0,0.0,0.0,-0.105240234375,0.0,0.0,0.0,0.0,0.0,0.0,0.343,0.0,0.0,0.0,0.0,0.0,-1.61,-0.09138517734838403,0.0,0.0,0.0,0.0,0.0,0.0,0.02,0.0,0.0,0.0
524,0.0,0.0,0.0,-0.10219921875,0.0,0.0,0.0,0.0,0.0,0.0,0.322,0.0,0.0,0.0,0.0,0.0,-1.61,-0.08796587751367024,0.0,0.0,0.0,0.0,0.0,0.0,-0.296,0.0,0.0,0.0
525,0.0,0.0,0.0,-0.0985810546875,0.0,0.0,0.0,0.0,0.0,0.0,0.325,0.0,0.0,0.0,0.0,0.0,-1.61,-0.08452783164717936,0.0,0.0,0.0,0.0,0.0,0.0,0.388,0.0,0.0,0.0
526,0.0,0.0,0.0,-0.0949541015625,0.0,0.0,0.0,0.0,0.0,0.0,0.376,0.0,0.0,0.0,0.0,0.0,-1.61,-0.08102717076321574,0.0,0.0,0.0,0.0,0.0,0.0,-0.18,0.0,0.0,0.0
527,0.0,0.0,0.0,-0.0917685546875,0.0,0.0,0.0,0.0,0.0,0.0,0.344,0.0,0.0,0.0,0.0,0.0,-1.61,-0.07748528299345096,0.0,0.0,0.0,0.0,0.0,0.0,0.66,0.0,0.0,0.0
528,0.0,0.0,0.0,-0.08799609375,0.0,0.0,0.0,0.0,0.0,0.0,0.341,0.0,0.0,0.0,0.0,0.0,-1.61,-0.07397155501848972,0.0,0.0,0.0,0.0,0.0,0.0,1.072,0.0,0.0,0.0
529,0.0,0.0,0.0,-0.08408984375,0.0,0.0,0.0,0.0,0.0,0.0,0.394,0.0,0.0,0.0,0.0,0.0,-1.61,-0.07036378516243358,0.0,0.0,0.0,0.0,0.0,0.0,0.568,0.0,0.0,0.0
530,0.0,0.0,0.0,-0.080904296875,0.0,0.0,0.0,0.0,0.0,0.0,0.358,0.0,0.0,0.0,0.0,0.0,-1.61,-0.06674616288862302,0.0,0.0,0.0,0.0,0.0,0.0,1.232,0.0,0.0,0.0
531,0.0,0.0,0.0,-0.074091796875,0.0,0.0,0.0,0.0,0.0,0.0,0.342,0.0,0.0,0.0,0.0,0.0,-1.61,-0.06247138627942733,0.0,0.0,0.0,0.0,0.0,0.0,0.068,0.0,0.0,0.0
532,0.0,0.0,0.0,-0.074091796875,0.0,0.0,0.0,0.0,0.0,0.0,0.342,0.0,0.0,0.0,0.0,0.0,-1.61,-0.05940539730226498,0.0,0.0,0.0,0.0,0.0,0.0,0.068,0.0,0.0,0.0
533,0.0,0.0,0.0,-0.07047265625,0.0,0.0,0.0,0.0,0.0,0.0,0.33,0.0,0.0,0.0,0.0,0.0,-1.61,-0.05563324528339495,0.0,0.0,0.0,0.0,0.0,0.0,2.424,0.0,0.0,0.0
534,0.0,0.0,0.0,-0.0662685546875,0.0,0.0,0.0,0.0,0.0,0.0,0.402,0.0,0.0,0.0,0.0,0.0,-1.61,-0.051846267373537785,0.0,0.0,0.0,0.0,0.0,0.0,1.576,0.0,0.0,0.0
535,0.0,0.0,0.0,-0.0629384765625,0.0,0.0,0.0,0.0,0.0,0.0,0.386,0.0,0.0,0.0,0.0,0.0,-1.61,-0.04810567901464923,0.0,0.0,0.0,0.0,0.0,0.0,1.256,0.0,0.0,0.0
536,0.0,0.0,0.0,-0.05903125,0.0,0.0,0.0,0.0,0.0,0.0,0.354,0.0,0.0,0.0,0.0,0.0,-1.61,-0.04426312438399894,0.0,0.0,0.0,0.0,0.0,0.0,1.072,0.0,0.0,0.0
537,0.0,0.0,0.0,-0.0549794921875,0.0,0.0,0.0,0.0,0.0,0.0,0.403,0.0,0.0,0.0,0.0,0.0,-1.61,-0.04045733767225704,0.0,0.0,0.0,0.0,0.0,0.0,-0.248,0.0,0.0,0.0
538,0.0,0.0,0.0,-0.05178515625,0.0,0.0,0.0,0.0,0.0,0.0,0.373,0.0,0.0,0.0,0.0,0.0,-1.61,-0.036590845650524555,0.0,0.0,0.0,0.0,0.0,0.0,0.02,0.0,0.0,0.0
539,0.0,0.0,0.0,-0.048302734375,0.0,0.0,0.0,0.0,0.0,0.0,0.331,0.0,0.0,0.0,0.0,0.0,-1.61,-0.03271407642701108,0.0,0.0,0.0,0.0,0.0,0.0,0.272,0.0,0.0,0.0
540,0.0,0.0,0.0,-0.0445400390625,0.0,0.0,0.0,0.0,0.0,0.0,0.365,0.0,0.0,0.0,0.0,0.0,-1.61,-0.02883753089825763,0.0,0.0,0.0,0.0,0.0,0.0,0.136,0.0,0.0,0.0
541,0.0,0.0,0.0,-0.0406328125,0.0,0.0,0.0,0.0,0.0,0.0,0.38,0.0,0.0,0.0,0.0,0.0,-1.61,-0.024886244181938775,0.0,0.0,0.0,0.0,0.0,0.0,0.5,0.0,0.0,0.0
542,0.0,0.0,0.0,-0.0364365234375,0.0,0.0,0.0,0.0,0.0,0.0,0.399,0.0,0.0,0.0,0.0,0.0,-1.61,-0.021001283665970025,0.0,0.0,0.0,0.0,0.0,0.0,1.14,0.0,0.0,0.0
543,0.0,0.0,0.0,-0.032087890625,0.0,0.0,0.0,0.0,0.0,0.0,0.442,0.0,0.0,0.0,0.0,0.0,-1.61,-0.017058294782074615,0.0,0.0,0.0,0.0,0.0,0.0,-0.16,0.0,0.0,0.0
544,0.0,0.0,0.0,-0.02802734375,0.0,0.0,0.0,0.0,0.0,0.0,0.416,0.0,0.0,0.0,0.0,0.0,-1.61,-0.013023111648106754,0.0,0.0,0.0,0.0,0.0,0.0,-0.228,0.0,0.0,0.0
545,0.0,0.0,0.0,-0.0238310546875,0.0,0.0,0.0,0.0,0.0,0.0,0.414,0.0,0.0,0.0,0.0,0.0,-1.61,-0.009121292583218229,0.0,0.0,0.0,0.0,0.0,0.0,-0.8,0.0,0.0,0.0
546,0.0,0.0,0.0,-0.0199150390625,0.0,0.0,0.0,0.0,0.0,0.0,0.415,0.0,0.0,0.0,0.0,0.0,-1.61,-0.005098969331096955,0.0,0.0,0.0,0.0,0.0,0.0,-0.568,0.0,0.0,0.0
547,0.0,0.0,0.0,-0.01586328125,0.0,0.0,0.0,0.0,0.0,0.0,0.393,0.0,0.0,0.0,0.0,0.0,-1.61,-0.0012183839762697993,0.0,0.0,0.0,0.0,0.0,0.0,1.14,0.0,0.0,0.0
548,0.0,0.0,0.0,-0.0118115234375,0.0,0.0,0.0,0.0,0.0,0.0,0.414,0.0,0.0,0.0,0.0,0.0,-1.61,0.0028267003547530925,0.0,0.0,0.0,0.0,0.0,0.0,0.64,0.0,0.0,0.0
549,0.0,0.0,0.0,-0.0086171875,0.0,0.0,0.0,0.0,0.0,0.0,0.369,0.0,0.0,0.0,0.0,0.0,-1.61,0.006799594705416528,0.0,0.0,0.0,0.0,0.0,0.0,0.408,0.0,0.0,0.0
550,0.0,0.0,0.0,-0.004556640625,0.0,0.0,0.0,0.0,0.0,0.0,0.344,0.0,0.0,0.0,0.0,0.0,-1.61,0.010754585959358028,0.0,0.0,0.0,0.0,0.0,0.0,2.308,0.0,0.0,0.0
551,0.0,0.0,0.0,0.0002158203125,0.0,0.0,0.0,0.0,0.0,0.0,0.454,0.0,0.0,0.0,0.0,0.0,-1.61,0.014785011051120856,0.0,0.0,0.0,0.0,0.0,0.0,0.752,0.0,0.0,0.0
552,0.0,0.0,0.0,0.003544921875,0.0,0.0,0.0,0.0,0.0,0.0,0.414,0.0,0.0,0.0,0.0,0.0,-1.61,0.018721951939177632,0.0,0.0,0.0,0.0,0.0,0.0,0.272,0.0,0.0,0.0
553,0.0,0.0,0.0,0.00775,0.0,0.0,0.0,0.0,0.0,0.0,0.358,0.0,0.0,0.0,0.0,0.0,-1.61,0.02267557007520609,0.0,0.0,0.0,0.0,0.0,0.0,0.888,0.0,0.0,0.0
554,0.0,0.0,0.0,0.0123876953125,0.0,0.0,0.0,0.0,0.0,0.0,0.454,0.0,0.0,0.0,0.0,0.0,-1.61,0.0266683715632095,0.0,0.0,0.0,0.0,0.0,0.0,-0.98,0.0,0.0,0.0
555,0.0,0.0,0.0,0.0152841796875,0.0,0.0,0.0,0.0,0.0,0.0,0.397,0.0,0.0,0.0,0.0,0.0,-1.61,0.030668028254873574,0.0,0.0,0.0,0.0,0.0,0.0,-0.888,0.0,0.0,0.0
556,0.0,0.0,0.0,0.019046875,0.0,0.0,0.0,0.0,0.0,0.0,0.315,0.0,0.0,0.0,0.0,0.0,-1.61,0.03473158846843508,0.0,0.0,0.0,0.0,0.0,0.0,0.776,0.0,0.0,0.0
557,0.0,0.0,0.0,0.023396484375,0.0,0.0,0.0,0.0,0.0,0.0,0.416,0.0,0.0,0.0,0.0,0.0,-1.61,0.03857043342761664,0.0,0.0,0.0,0.0,0.0,0.0,-0.16,0.0,0.0,0.0
558,0.0,0.0,0.0,0.0270146484375,0.0,0.0,0.0,0.0,0.0,0.0,0.408,0.0,0.0,0.0,0.0,0.0,-1.61,0.04248996445775019,0.0,0.0,0.0,0.0,0.0,0.0,0.912,0.0,0.0,0.0
559,0.0,0.0,0.0,0.0315087890625,0.0,0.0,0.0,0.0,0.0,0.0,0.386,0.0,0.0,0.0,0.0,0.0,-1.61,0.04635514880380996,0.0,0.0,0.0,0.0,0.0,0.0,0.888,0.0,0.0,0.0
560,0.0,0.0,0.0,0.036001953125,0.0,0.0,0.0,0.0,0.0,0.0,0.462,0.0,0.0,0.0,0.0,0.0,-1.61,0.05025411225834899,0.0,0.0,0.0,0.0,0.0,0.0,-1.392,0.0,0.0,0.0
561,0.0,0.0,0.0,0.03962109375,0.0,0.0,0.0,0.0,0.0,0.0,0.409,0.0,0.0,0.0,0.0,0.0,-1.61,0.054262834018986426,0.0,0.0,0.0,0.0,0.0,0.0,-0.432,0.0,0.0,0.0
562,0.0,0.0,0.0,0.0441142578125,0.0,0.0,0.0,0.0,0.0,0.0,0.389,0.0,0.0,0.0,0.0,0.0,-1.61,0.05802540690734848,0.0,0.0,0.0,0.0,0.0,0.0,1.072,0.0,0.0,0.0
563,0.0,0.0,0.0,0.048455078125,0.0,0.0,0.0,0.0,0.0,0.0,0.464,0.0,0.0,0.0,0.0,0.0,-1.61,0.06186471572154188,0.0,0.0,0.0,0.0,0.0,0.0,0.204,0.0,0.0,0.0
564,0.0,0.0,0.0,0.0519287109375,0.0,0.0,0.0,0.0,0.0,0.0,0.4,0.0,0.0,0.0,0.0,0.0,-1.61,0.06573251770023474,0.0,0.0,0.0,0.0,0.0,0.0,1.004,0.0,0.0,0.0
565,0.0,0.0,0.0,0.0558447265625,0.0,0.0,0.0,0.0,0.0,0.0,0.358,0.0,0.0,0.0,0.0,0.0,-1.61,0.06946767605450895,0.0,0.0,0.0,0.0,0.0,0.0,1.416,0.0,0.0,0.0
566,0.0,0.0,0.0,0.0599052734375,0.0,0.0,0.0,0.0,0.0,0.0,0.405,0.0,0.0,0.0,0.0,0.0,-1.61,0.0732260144895836,0.0,0.0,0.0,0.0,0.0,0.0,0.5,0.0,0.0,0.0
567,0.0,0.0,0.0,0.06337890625,0.0,0.0,0.0,0.0,0.0,0.0,0.381,0.0,0.0,0.0,0.0,0.0,-1.61,0.0769996144126468,0.0,0.0,0.0,0.0,0.0,0.0,0.66,0.0,0.0,0.0
568,0.0,0.0,0.0,0.066998046875,0.0,0.0,0.0,0.0,0.0,0.0,0.351,0.0,0.0,0.0,0.0,0.0,-1.61,0.08068532311488498,0.0,0.0,0.0,0.0,0.0,0.0,0.684,0.0,0.0,0.0
569,0.0,0.0,0.0,0.071048828125,0.0,0.0,0.0,0.0,0.0,0.0,0.384,0.0,0.0,0.0,0.0,0.0,-1.61,0.08434258543608757,0.0,0.0,0.0,0.0,0.0,0.0,0.296,0.0,0.0,0.0
570,0.0,0.0,0.0,0.0745322265625,0.0,0.0,0.0,0.0,0.0,0.0,0.389,0.0,0.0,0.0,0.0,0.0,-1.61,0.08803845403004837,0.0,0.0,0.0,0.0,0.0,0.0,0.044,0.0,0.0,0.0
571,0.0,0.0,0.0,0.07787109375,0.0,0.0,0.0,0.0,0.0,0.0,0.344,0.0,0.0,0.0,0.0,0.0,-1.61,0.09172830993220722,0.0,0.0,0.0,0.0,0.0,0.0,-0.32,0.0,0.0,0.0
572,0.0,0.0,0.0,0.0817783203125,0.0,0.0,0.0,0.0,0.0,0.0,0.354,0.0,0.0,0.0,0.0,0.0,-1.61,0.09516706036793283,0.0,0.0,0.0,0.0,0.0,0.0,-0.248,0.0,0.0,0.0
573,0.0,0.0,0.0,0.085107421875,0.0,0.0,0.0,0.0,0.0,0.0,0.369,0.0,0.0,0.0,0.0,0.0,-1.61,0.09873570529260145,0.0,0.0,0.0,0.0,0.0,0.0,-0.64,0.0,0.0,0.0
574,0.0,0.0,0.0,0.08829296875,0.0,0.0,0.0,0.0,0.0,0.0,0.325,0.0,0.0,0.0,0.0,0.0,-1.61,0.10223056237129434,0.0,0.0,0.0,0.0,0.0,0.0,0.0,0.0,0.0,0.0
575,0.0,0.0,0.0,0.092498046875,0.0,0.0,0.0,0.0,0.0,0.0,0.364,0.0,0.0,0.0,0.0,0.0,-1.61,0.10562071453394009,0.0,0.0,0.0,0.0,0.0,0.0,-0.02,0.0,0.0,0.0
576,0.0,0.0,0.0,0.09626953125,0.0,0.0,0.0,0.0,0.0,0.0,0.409,0.0,0.0,0.0,0.0,0.0,-1.61,0.10904981326058377,0.0,0.0,0.0,0.0,0.0,0.0,-0.66,0.0,0.0,0.0
577,0.0,0.0,0.0,0.099455078125,0.0,0.0,0.0,0.0,0.0,0.0,0.355,0.0,0.0,0.0,0.0,0.0,-1.61,0.1124307859973597,0.0,0.0,0.0,0.0,0.0,0.0,-0.728,0.0,0.0,0.0
578,0.0,0.0,0.0,0.103208984375,0.0,0.0,0.0,0.0,0.0,0.0,0.341,0.0,0.0,0.0,0.0,0.0,-1.61,0.11574631117709873,0.0,0.0,0.0,0.0,0.0,0.0,0.548,0.0,0.0,0.0
579,0.0,0.0,0.0,0.107404296875,0.0,0.0,0.0,0.0,0.0,0.0,0.403,0.0,0.0,0.0,0.0,0.0,-1.61,0.11904069129455848,0.0,0.0,0.0,0.0,0.0,0.0,0.5,0.0,0.0,0.0
580,0.0,0.0,0.0,0.110734375,0.0,0.0,0.0,0.0,0.0,0.0,0.381,0.0,0.0,0.0,0.0,0.0,-1.61,0.12220720639228513,0.0,0.0,0.0,0.0,0.0,0.0,0.844,0.0,0.0,0.0
581,0.0,0.0,0.0,0.1142177734375,0.0,0.0,0.0,0.0,0.0,0.0,0.337,0.0,0.0,0.0,0.0,0.0,-1.61,0.1254193518915943,0.0,0.0,0.0,0.0,0.0,0.0,0.776,0.0,0.0,0.0
582,0.0,0.0,0.0,0.1175556640625,0.0,0.0,0.0,0.0,0.0,0.0,0.346,0.0,0.0,0.0,0.0,0.0,-1.61,0.1285127719923216,0.0,0.0,0.0,0.0,0.0,0.0,-0.18,0.0,0.0,0.0
583,0.0,0.0,0.0,0.1204521484375,0.0,0.0,0.0,0.0,0.0,0.0,0.315,0.0,0.0,0.0,0.0,0.0,-1.61,0.13158254041380757,0.0,0.0,0.0,0.0,0.0,0.0,0.48,0.0,0.0,0.0
584,0.0,0.0,0.0,0.1236376953125,0.0,0.0,0.0,0.0,0.0,0.0,0.301,0.0,0.0,0.0,0.0,0.0,-1.61,0.1346451169369962,0.0,0.0,0.0,0.0,0.0,0.0,0.8,0.0,0.0,0.0
585,0.0,0.0,0.0,0.1265341796875,0.0,0.0,0.0,0.0,0.0,0.0,0.31,0.0,0.0,0.0,0.0,0.0,-1.61,0.13752824984614906,0.0,0.0,0.0,0.0,0.0,0.0,-0.088,0.0,0.0,0.0
586,0.0,0.0,0.0,0.1292861328125,0.0,0.0,0.0,0.0,0.0,0.0,0.281,0.0,0.0,0.0,0.0,0.0,-1.61,0.14041589495665524,0.0,0.0,0.0,0.0,0.0,0.0,0.752,0.0,0.0,0.0
587,0.0,0.0,0.0,0.1326162109375,0.0,0.0,0.0,0.0,0.0,0.0,0.303,0.0,0.0,0.0,0.0,0.0,-1.61,0.1432610890564017,0.0,0.0,0.0,0.0,0.0,0.0,0.868,0.0,0.0,0.0
588,0.0,0.0,0.0,0.135666015625,0.0,0.0,0.0,0.0,0.0,0.0,0.324,0.0,0.0,0.0,0.0,0.0,-1.61,0.14604466650634912,0.0,0.0,0.0,0.0,0.0,0.0,0.64,0.0,0.0,0.0
589,0.0,0.0,0.0,0.1385625,0.0,0.0,0.0,0.0,0.0,0.0,0.298,0.0,0.0,0.0,0.0,0.0,-1.61,0.14876467229449952,0.0,0.0,0.0,0.0,0.0,0.0,-0.18,0.0,0.0,0.0
590,0.0,0.0,0.0,0.141603515625,0.0,0.0,0.0,0.0,0.0,0.0,0.291,0.0,0.0,0.0,0.0,0.0,-1.61,0.1514071975405386,0.0,0.0,0.0,0.0,0.0,0.0,-0.16,0.0,0.0,0.0
591,0.0,0.0,0.0,0.1447890625,0.0,0.0,0.0,0.0,0.0,0.0,0.316,0.0,0.0,0.0,0.0,0.0,-1.61,0.15400309651809171,0.0,0.0,0.0,0.0,0.0,0.0,-0.684,0.0,0.0,0.0
592,0.0,0.0,0.0,0.147396484375,0.0,0.0,0.0,0.0,0.0,0.0,0.3,0.0,0.0,0.0,0.0,0.0,-1.61,0.15650129863322537,0.0,0.0,0.0,0.0,0.0,0.0,-0.96,0.0,0.0,0.0
593,0.0,0.0,0.0,0.1501396484375,0.0,0.0,0.0,0.0,0.0,0.0,0.262,0.0,0.0,0.0,0.0,0.0,-1.61,0.15894786325613636,0.0,0.0,0.0,0.0,0.0,0.0,-0.272,0.0,0.0,0.0
594,0.0,0.0,0.0,0.1530361328125,0.0,0.0,0.0,0.0,0.0,0.0,0.286,0.0,0.0,0.0,0.0,0.0,-1.61,0.1613498436375096,0.0,0.0,0.0,0.0,0.0,0.0,-0.48,0.0,0.0,0.0
595,0.0,0.0,0.0,0.1556533203125,0.0,0.0,0.0,0.0,0.0,0.0,0.278,0.0,0.0,0.0,0.0,0.0,-1.61,0.16367434276099035,0.0,0.0,0.0,0.0,0.0,0.0,-0.364,0.0,0.0,0.0
596,0.0,0.0,0.0,0.1584052734375,0.0,0.0,0.0,0.0,0.0,0.0,0.266,0.0,0.0,0.0,0.0,0.0,-1.61,0.16590435026985673,0.0,0.0,0.0,0.0,0.0,0.0,0.16,0.0,0.0,0.0
597,0.0,0.0,0.0,0.1613017578125,0.0,0.0,0.0,0.0,0.0,0.0,0.29,0.0,0.0,0.0,0.0,0.0,-1.61,0.16809860307222574,0.0,0.0,0.0,0.0,0.0,0.0,-0.48,0.0,0.0,0.0
598,0.0,0.0,0.0,0.1636201171875,0.0,0.0,0.0,0.0,0.0,0.0,0.259,0.0,0.0,0.0,0.0,0.0,-1.61,0.17020310101300257,0.0,0.0,0.0,0.0,0.0,0.0,-0.524,0.0,0.0,0.0
599,0.0,0.0,0.0,0.165939453125,0.0,0.0,0.0,0.0,0.0,0.0,0.234,0.0,0.0,0.0,0.0,0.0,-1.61,0.1722244437892008,0.0,0.0,0.0,0.0,0.0,0.0,-0.16,0.0,0.0,0.0
600,0.0,0.0,0.0,0.16825,0.0,0.0,0.0,0.0,0.0,0.0,0.239,0.0,0.0,0.0,0.0,0.0,-1.61,0.17418176278775654,0.0,0.0,0.0,0.0,0.0,0.0,-0.364,0.0,0.0,0.0
601,0.0,0.0,0.0,0.1699912109375,0.0,0.0,0.0,0.0,0.0,0.0,0.209,0.0,0.0,0.0,0.0,0.0,-1.61,0.17609950700590252,0.0,0.0,0.0,0.0,0.0,0.0,-0.456,0.0,0.0,0.0
602,0.0,0.0,0.0,0.1717236328125,0.0,0.0,0.0,0.0,0.0,0.0,0.165,0.0,0.0,0.0,0.0,0.0,-1.61,0.1778767943799224,0.0,0.0,0.0,0.0,0.0,0.0,0.708,0.0,0.0,0.0
603,0.0,0.0,0.0,0.1738984375,0.0,0.0,0.0,0.0,0.0,0.0,0.193,0.0,0.0,0.0,0.0,0.0,-1.61,0.17960700072415212,0.0,0.0,0.0,0.0,0.0,0.0,0.82,0.0,0.0,0.0
604,0.0,0.0,0.0,0.17550390625,0.0,0.0,0.0,0.0,0.0,0.0,0.197,0.0,0.0,0.0,0.0,0.0,-1.61,0.18125607277381475,0.0,0.0,0.0,0.0,0.0,0.0,0.272,0.0,0.0,0.0
605,0.0,0.0,0.0,0.1769482421875,0.0,0.0,0.0,0.0,0.0,0.0,0.153,0.0,0.0,0.0,0.0,0.0,-1.61,0.18283176464285153,0.0,0.0,0.0,0.0,0.0,0.0,0.388,0.0,0.0,0.0
606,0.0,0.0,0.0,0.178978515625,0.0,0.0,0.0,0.0,0.0,0.0,0.175,0.0,0.0,0.0,0.0,0.0,-1.61,0.18433176001207496,0.0,0.0,0.0,0.0,0.0,0.0,0.068,0.0,0.0,0.0
607,0.0,0.0,0.0,0.1807109375,0.0,0.0,0.0,0.0,0.0,0.0,0.192,0.0,0.0,0.0,0.0,0.0,-1.61,0.1857446329374962,0.0,0.0,0.0,0.0,0.0,0.0,-0.02,0.0,0.0,0.0
608,0.0,0.0,0.0,0.18201953125,0.0,0.0,0.0,0.0,0.0,0.0,0.153,0.0,0.0,0.0,0.0,0.0,-1.61,0.1870781533381811,0.0,0.0,0.0,0.0,0.0,0.0,-0.02,0.0,0.0,0.0
609,0.0,0.0,0.0,0.183318359375,0.0,0.0,0.0,0.0,0.0,0.0,0.129,0.0,0.0,0.0,0.0,0.0,-1.61,0.18832623195275824,0.0,0.0,0.0,0.0,0.0,0.0,0.02,0.0,0.0,0.0
610,0.0,0.0,0.0,0.184771484375,0.0,0.0,0.0,0.0,0.0,0.0,0.137,0.0,0.0,0.0,0.0,0.0,-1.61,0.189495135726276,0.0,0.0,0.0,0.0,0.0,0.0,0.388,0.0,0.0,0.0
611,0.0,0.0,0.0,0.1859267578125,0.0,0.0,0.0,0.0,0.0,0.0,0.13,0.0,0.0,0.0,0.0,0.0,-1.61,0.19070805352687586,0.0,0.0,0.0,0.0,0.0,0.0,0.5,0.0,0.0,0.0
612,0.0,0.0,0.0,0.1870810546875,0.0,0.0,0.0,0.0,0.0,0.0,0.115,0.0,0.0,0.0,0.0,0.0,-1.61,0.19159749317689706,0.0,0.0,0.0,0.0,0.0,0.0,0.272,0.0,0.0,0.0
613,0.0,0.0,0.0,0.1881005859375,0.0,0.0,0.0,0.0,0.0,0.0,0.113,0.0,0.0,0.0,0.0,0.0,-1.61,0.1925145100133685,0.0,0.0,0.0,0.0,0.0,0.0,-0.136,0.0,0.0,0.0
614,0.0,0.0,0.0,0.1889677734375,0.0,0.0,0.0,0.0,0.0,0.0,0.097,0.0,0.0,0.0,0.0,0.0,-1.61,0.19336370431991645,0.0,0.0,0.0,0.0,0.0,0.0,0.068,0.0,0.0,0.0
615,0.0,0.0,0.0,0.1899775390625,0.0,0.0,0.0,0.0,0.0,0.0,0.098,0.0,0.0,0.0,0.0,0.0,-1.61,0.1941122959404019,0.0,0.0,0.0,0.0,0.0,0.0,0.0,0.0,0.0,0.0
616,0.0,0.0,0.0,0.190853515625,0.0,0.0,0.0,0.0,0.0,0.0,0.097,0.0,0.0,0.0,0.0,0.0,-1.61,0.19477980922386387,0.0,0.0,0.0,0.0,0.0,0.0,0.088,0.0,0.0,0.0
617,0.0,0.0,0.0,0.1917197265625,0.0,0.0,0.0,0.0,0.0,0.0,0.085,0.0,0.0,0.0,0.0,0.0,-1.61,0.19535975556362864,0.0,0.0,0.0,0.0,0.0,0.0,0.432,0.0,0.0,0.0
618,0.0,0.0,0.0,0.1925859375,0.0,0.0,0.0,0.0,0.0,0.0,0.089,0.0,0.0,0.0,0.0,0.0,-1.61,0.19586263839596507,0.0,0.0,0.0,0.0,0.0,0.0,0.32,0.0,0.0,0.0
619,0.0,0.0,0.0,0.19331640625,0.0,0.0,0.0,0.0,0.0,0.0,0.077,0.0,0.0,0.0,0.0,0.0,-1.61,0.1962745950932219,0.0,0.0,0.0,0.0,0.0,0.0,0.272,0.0,0.0,0.0
620,0.0,0.0,0.0,0.19375,0.0,0.0,0.0,0.0,0.0,0.0,0.06,0.0,0.0,0.0,0.0,0.0,-1.61,0.1965983047095161,0.0,0.0,0.0,0.0,0.0,0.0,0.32,0.0,0.0,0.0
621,0.0,0.0,0.0,0.1941826171875,0.0,0.0,0.0,0.0,0.0,0.0,0.047,0.0,0.0,0.0,0.0,0.0,-1.61,0.1968402524524048,0.0,0.0,0.0,0.0,0.0,0.0,0.204,0.0,0.0,0.0
622,0.0,0.0,0.0,0.1946162109375,0.0,0.0,0.0,0.0,0.0,0.0,0.04,0.0,0.0,0.0,0.0,0.0,-1.61,0.1969888992120629,0.0,0.0,0.0,0.0,0.0,0.0,0.088,0.0,0.0,0.0
623,0.0,0.0,0.0,0.194904296875,0.0,0.0,0.0,0.0,0.0,0.0,0.032,0.0,0.0,0.0,0.0,0.0,-1.61,0.1970542634147526,0.0,0.0,0.0,0.0,0.0,0.0,0.296,0.0,0.0,0.0
624,0.0,0.0,0.0,0.195048828125,0.0,0.0,0.0,0.0,0.0,0.0,0.024,0.0,0.0,0.0,0.0,0.0,-1.61,0.19703275265166456,0.0,0.0,0.0,0.0,0.0,0.0,-0.068,0.0,0.0,0.0
625,0.0,0.0,0.0,0.194904296875,0.0,0.0,0.0,0.0,0.0,0.0,0.003,0.0,0.0,0.0,0.0,0.0,-1.61,0.19692391429278644,0.0,0.0,0.0,0.0,0.0,0.0,0.18,0.0,0.0,0.0
626,0.0,0.0,0.0,0.194904296875,0.0,0.0,0.0,0.0,0.0,0.0,-0.01,0.0,0.0,0.0,0.0,0.0,-1.61,0.19672253768097026,0.0,0.0,0.0,0.0,0.0,0.0,0.364,0.0,0.0,0.0
627,0.0,0.0,0.0,0.194904296875,0.0,0.0,0.0,0.0,0.0,0.0,-0.001,0.0,0.0,0.0,0.0,0.0,-1.61,0.1964447839078412,0.0,0.0,0.0,0.0,0.0,0.0,0.432,0.0,0.0,0.0
628,0.0,0.0,0.0,0.194904296875,0.0,0.0,0.0,0.0,0.0,0.0,-0.001,0.0,0.0,0.0,0.0,0.0,-1.61,0.19607521061177766,0.0,0.0,0.0,0.0,0.0,0.0,0.456,0.0,0.0,0.0
629,0.0,0.0,0.0,0.195048828125,0.0,0.0,0.0,0.0,0.0,0.0,-0.001,0.0,0.0,0.0,0.0,0.0,-1.61,0.19561806958057537,0.0,0.0,0.0,0.0,0.0,0.0,0.228,0.0,0.0,0.0
630,0.0,0.0,0.0,0.195048828125,0.0,0.0,0.0,0.0,0.0,0.0,0.01,0.0,0.0,0.0,0.0,0.0,-1.61,0.19507580478468695,0.0,0.0,0.0,0.0,0.0,0.0,0.248,0.0,0.0,0.0
631,0.0,0.0,0.0,0.195048828125,0.0,0.0,0.0,0.0,0.0,0.0,0.001,0.0,0.0,0.0,0.0,0.0,-1.61,0.1944416532472231,0.0,0.0,0.0,0.0,0.0,0.0,0.088,0.0,0.0,0.0
632,0.0,0.0,0.0,0.194904296875,0.0,0.0,0.0,0.0,0.0,0.0,-0.011,0.0,0.0,0.0,0.0,0.0,-1.61,0.19372492292345717,0.0,0.0,0.0,0.0,0.0,0.0,0.432,0.0,0.0,0.0
633,0.0,0.0,0.0,0.1947607421875,0.0,0.0,0.0,0.0,0.0,0.0,-0.006,0.0,0.0,0.0,0.0,0.0,-1.61,0.1929277652077923,0.0,0.0,0.0,0.0,0.0,0.0,0.568,0.0,0.0,0.0
634,0.0,0.0,0.0,0.1947607421875,0.0,0.0,0.0,0.0,0.0,0.0,-0.011,0.0,0.0,0.0,0.0,0.0,-1.61,0.19203032371216844,0.0,0.0,0.0,0.0,0.0,0.0,0.752,0.0,0.0,0.0
635,0.0,0.0,0.0,0.1947607421875,0.0,0.0,0.0,0.0,0.0,0.0,-0.001,0.0,0.0,0.0,0.0,0.0,-1.61,0.19105802745228012,0.0,0.0,0.0,0.0,0.0,0.0,0.844,0.0,0.0,0.0
636,0.0,0.0,0.0,0.1947607421875,0.0,0.0,0.0,0.0,0.0,0.0,-0.001,0.0,0.0,0.0,0.0,0.0,-1.61,0.19000362013747457,0.0,0.0,0.0,0.0,0.0,0.0,0.728,0.0,0.0,0.0
637,0.0,0.0,0.0,0.1947607421875,0.0,0.0,0.0,0.0,0.0,0.0,-0.001,0.0,0.0,0.0,0.0,0.0,-1.61,0.18885282749372218,0.0,0.0,0.0,0.0,0.0,0.0,0.64,0.0,0.0,0.0
638,0.0,0.0,0.0,0.1943271484375,0.0,0.0,0.0,0.0,0.0,0.0,-0.017,0.0,0.0,0.0,0.0,0.0,-1.61,0.18761648366773975,0.0,0.0,0.0,0.0,0.0,0.0,-0.112,0.0,0.0,0.0
639,0.0,0.0,0.0,0.19360546875,0.0,0.0,0.0,0.0,0.0,0.0,-0.055,0.0,0.0,0.0,0.0,0.0,-1.61,0.18630625208225982,0.0,0.0,0.0,0.0,0.0,0.0,-0.616,0.0,0.0,0.0
640,0.0,0.0,0.0,0.19273046875,0.0,0.0,0.0,0.0,0.0,0.0,-0.079,0.0,0.0,0.0,0.0,0.0,-1.61,0.18491288279545692,0.0,0.0,0.0,0.0,0.0,0.0,-0.432,0.0,0.0,0.0
641,0.0,0.0,0.0,0.1917197265625,0.0,0.0,0.0,0.0,0.0,0.0,-0.086,0.0,0.0,0.0,0.0,0.0,-1.61,0.18340683574101585,0.0,0.0,0.0,0.0,0.0,0.0,-0.228,0.0,0.0,0.0
642,0.0,0.0,0.0,0.190564453125,0.0,0.0,0.0,0.0,0.0,0.0,-0.113,0.0,0.0,0.0,0.0,0.0,-1.61,0.18187381229495778,0.0,0.0,0.0,0.0,0.0,0.0,0.068,0.0,0.0,0.0
643,0.0,0.0,0.0,0.189255859375,0.0,0.0,0.0,0.0,0.0,0.0,-0.123,0.0,0.0,0.0,0.0,0.0,-1.61,0.18022317203994362,0.0,0.0,0.0,0.0,0.0,0.0,-0.204,0.0,0.0,0.0
644,0.0,0.0,0.0,0.18795703125,0.0,0.0,0.0,0.0,0.0,0.0,-0.13,0.0,0.0,0.0,0.0,0.0,-1.61,0.1784998581278756,0.0,0.0,0.0,0.0,0.0,0.0,-0.16,0.0,0.0,0.0
645,0.0,0.0,0.0,0.1866484375,0.0,0.0,0.0,0.0,0.0,0.0,-0.132,0.0,0.0,0.0,0.0,0.0,-1.61,0.17668647054028216,0.0,0.0,0.0,0.0,0.0,0.0,-0.64,0.0,0.0,0.0
646,0.0,0.0,0.0,0.185060546875,0.0,0.0,0.0,0.0,0.0,0.0,-0.152,0.0,0.0,0.0,0.0,0.0,-1.61,0.1747994088644624,0.0,0.0,0.0,0.0,0.0,0.0,-0.66,0.0,0.0,0.0
647,0.0,0.0,0.0,0.183462890625,0.0,0.0,0.0,0.0,0.0,0.0,-0.158,0.0,0.0,0.0,0.0,0.0,-1.61,0.17283446371440422,0.0,0.0,0.0,0.0,0.0,0.0,-1.052,0.0,0.0,0.0
648,0.0,0.0,0.0,0.18173046875,0.0,0.0,0.0,0.0,0.0,0.0,-0.171,0.0,0.0,0.0,0.0,0.0,-1.61,0.17078945963605877,0.0,0.0,0.0,0.0,0.0,0.0,-0.752,0.0,0.0,0.0
649,0.0,0.0,0.0,0.1799892578125,0.0,0.0,0.0,0.0,0.0,0.0,-0.177,0.0,0.0,0.0,0.0,0.0,-1.61,0.16867531984827602,0.0,0.0,0.0,0.0,0.0,0.0,-0.568,0.0,0.0,0.0
650,0.0,0.0,0.0,0.1779677734375,0.0,0.0,0.0,0.0,0.0,0.0,-0.19,0.0,0.0,0.0,0.0,0.0,-1.61,0.16647121946980079,0.0,0.0,0.0,0.0,0.0,0.0,-0.408,0.0,0.0,0.0
651,0.0,0.0,0.0,0.1756484375,0.0,0.0,0.0,0.0,0.0,0.0,-0.216,0.0,0.0,0.0,0.0,0.0,-1.61,0.1641435698736263,0.0,0.0,0.0,0.0,0.0,0.0,-0.112,0.0,0.0,0.0
652,0.0,0.0,0.0,0.17346484375,0.0,0.0,0.0,0.0,0.0,0.0,-0.227,0.0,0.0,0.0,0.0,0.0,-1.61,0.161843351374263,0.0,0.0,0.0,0.0,0.0,0.0,0.0,0.0,0.0,0.0
653,0.0,0.0,0.0,0.171146484375,0.0,0.0,0.0,0.0,0.0,0.0,-0.223,0.0,0.0,0.0,0.0,0.0,-1.61,0.15941898989342104,0.0,0.0,0.0,0.0,0.0,0.0,-0.32,0.0,0.0,0.0
654,0.0,0.0,0.0,0.16898046875,0.0,0.0,0.0,0.0,0.0,0.0,-0.225,0.0,0.0,0.0,0.0,0.0,-1.61,0.15693192452082777,0.0,0.0,0.0,0.0,0.0,0.0,0.02,0.0,0.0,0.0
655,0.0,0.0,0.0,0.1668056640625,0.0,0.0,0.0,0.0,0.0,0.0,-0.218,0.0,0.0,0.0,0.0,0.0,-1.61,0.15436791043971163,0.0,0.0,0.0,0.0,0.0,0.0,-0.248,0.0,0.0,0.0
656,0.0,0.0,0.0,0.164486328125,0.0,0.0,0.0,0.0,0.0,0.0,-0.225,0.0,0.0,0.0,0.0,0.0,-1.61,0.1517065367163682,0.0,0.0,0.0,0.0,0.0,0.0,-0.408,0.0,0.0,0.0
657,0.0,0.0,0.0,0.1620234375,0.0,0.0,0.0,0.0,0.0,0.0,-0.241,0.0,0.0,0.0,0.0,0.0,-1.61,0.1490340988027311,0.0,0.0,0.0,0.0,0.0,0.0,-0.388,0.0,0.0,0.0
658,0.0,0.0,0.0,0.1595595703125,0.0,0.0,0.0,0.0,0.0,0.0,-0.253,0.0,0.0,0.0,0.0,0.0,-1.61,0.14618776583519769,0.0,0.0,0.0,0.0,0.0,0.0,-0.548,0.0,0.0,0.0
659,0.0,0.0,0.0,0.1569609375,0.0,0.0,0.0,0.0,0.0,0.0,-0.256,0.0,0.0,0.0,0.0,0.0,-1.61,0.14335149495350064,0.0,0.0,0.0,0.0,0.0,0.0,-0.388,0.0,0.0,0.0
660,0.0,0.0,0.0,0.1543447265625,0.0,0.0,0.0,0.0,0.0,0.0,-0.259,0.0,0.0,0.0,0.0,0.0,-1.61,0.14049142689296518,0.0,0.0,0.0,0.0,0.0,0.0,-0.364,0.0,0.0,0.0
661,0.0,0.0,0.0,0.151880859375,0.0,0.0,0.0,0.0,0.0,0.0,-0.262,0.0,0.0,0.0,0.0,0.0,-1.61,0.13747095973184245,0.0,0.0,0.0,0.0,0.0,0.0,-0.248,0.0,0.0,0.0
662,0.0,0.0,0.0,0.14912890625,0.0,0.0,0.0,0.0,0.0,0.0,-0.256,0.0,0.0,0.0,0.0,0.0,-1.61,0.13446035961157052,0.0,0.0,0.0,0.0,0.0,0.0,-0.388,0.0,0.0,0.0
663,0.0,0.0,0.0,0.146232421875,0.0,0.0,0.0,0.0,0.0,0.0,-0.284,0.0,0.0,0.0,0.0,0.0,-1.61,0.13136752136795082,0.0,0.0,0.0,0.0,0.0,0.0,-0.728,0.0,0.0,0.0
664,0.0,0.0,0.0,0.1433359375,0.0,0.0,0.0,0.0,0.0,0.0,-0.292,0.0,0.0,0.0,0.0,0.0,-1.61,0.12821139301155832,0.0,0.0,0.0,0.0,0.0,0.0,-0.456,0.0,0.0,0.0
