EmanuelSamir/lab201_ws_projsamir/sawyer_dev/data/sawyer/temp/test_quiescent_joint7.csv
,j1,j2,j3,j4,j5,j6,j7,jd1,jd2,jd3,jd4,jd5,jd6,jd7,e1,e2,e3,e4,e5,e6,e7
0,0.0,0.0,0.0,0.0,0.0,0.0,0.0,0.0,0.0,0.0,0.0,0.0,0.0,0.0,0.0,0.0,0.0,0.0,0.0,0.0,0.0
1,0.0,0.0,0.0,0.0,0.0,0.0,-3.22265625e-05,0.0,0.0,0.0,0.0,0.0,0.0,-1.055207046855896,0.0,0.0,0.0,0.0,0.0,0.0,-0.116
2,0.0,0.0,0.0,0.0,0.0,0.0,-3.22265625e-05,0.0,0.0,0.0,0.0,0.0,0.0,-1.055207046855896,0.0,0.0,0.0,0.0,0.0,0.0,-0.12
3,0.0,0.0,0.0,0.0,0.0,0.0,-0.0006396484375,0.0,0.0,0.0,0.0,0.0,0.0,-1.055207046855896,0.0,0.0,0.0,0.0,0.0,0.0,-0.22
4,0.0,0.0,0.0,0.0,0.0,0.0,-0.0070048828125,0.0,0.0,0.0,0.0,0.0,0.0,-1.055207046855896,0.0,0.0,0.0,0.0,0.0,0.0,-0.224
5,0.0,0.0,0.0,0.0,0.0,0.0,-0.0184951171875,0.0,0.0,0.0,0.0,0.0,0.0,-1.055207046855896,0.0,0.0,0.0,0.0,0.0,0.0,-0.344
6,0.0,0.0,0.0,0.0,0.0,0.0,-0.0322451171875,0.0,0.0,0.0,0.0,0.0,0.0,-1.055207046855896,0.0,0.0,0.0,0.0,0.0,0.0,-0.208
7,0.0,0.0,0.0,0.0,0.0,0.0,-0.0482548828125,0.0,0.0,0.0,0.0,0.0,0.0,-1.055207046855896,0.0,0.0,0.0,0.0,0.0,0.0,-0.168
8,0.0,0.0,0.0,0.0,0.0,0.0,-0.068783203125,0.0,0.0,0.0,0.0,0.0,0.0,-1.055207046855896,0.0,0.0,0.0,0.0,0.0,0.0,-0.24
9,0.0,0.0,0.0,0.0,0.0,0.0,-0.0886923828125,0.0,0.0,0.0,0.0,0.0,0.0,-1.055207046855896,0.0,0.0,0.0,0.0,0.0,0.0,-0.084
10,0.0,0.0,0.0,0.0,0.0,0.0,-0.1116865234375,0.0,0.0,0.0,0.0,0.0,0.0,-1.055207046855896,0.0,0.0,0.0,0.0,0.0,0.0,-0.252
11,0.0,0.0,0.0,0.0,0.0,0.0,-0.1316083984375,0.0,0.0,0.0,0.0,0.0,0.0,-1.055207046855896,0.0,0.0,0.0,0.0,0.0,0.0,-0.2
12,0.0,0.0,0.0,0.0,0.0,0.0,-0.151310546875,0.0,0.0,0.0,0.0,0.0,0.0,-1.055207046855896,0.0,0.0,0.0,0.0,0.0,0.0,-0.128
13,0.0,0.0,0.0,0.0,0.0,0.0,-0.167939453125,0.0,0.0,0.0,0.0,0.0,0.0,-1.055207046855896,0.0,0.0,0.0,0.0,0.0,0.0,-0.084
14,0.0,0.0,0.0,0.0,0.0,0.0,-0.181689453125,0.0,0.0,0.0,0.0,0.0,0.0,-1.055207046855896,0.0,0.0,0.0,0.0,0.0,0.0,-0.192
15,0.0,0.0,0.0,0.0,0.0,0.0,-0.194625,0.0,0.0,0.0,0.0,0.0,0.0,-1.055207046855896,0.0,0.0,0.0,0.0,0.0,0.0,-0.16
16,0.0,0.0,0.0,0.0,0.0,0.0,-0.2052900390625,0.0,0.0,0.0,0.0,0.0,0.0,-1.055207046855896,0.0,0.0,0.0,0.0,0.0,0.0,-0.108
17,0.0,0.0,0.0,0.0,0.0,0.0,-0.2139140625,0.0,0.0,0.0,0.0,0.0,0.0,-1.055207046855896,0.0,0.0,0.0,0.0,0.0,0.0,-0.108
18,0.0,0.0,0.0,0.0,0.0,0.0,-0.2225390625,0.0,0.0,0.0,0.0,0.0,0.0,-1.055207046855896,0.0,0.0,0.0,0.0,0.0,0.0,-0.16
19,0.0,0.0,0.0,0.0,0.0,0.0,-0.2323896484375,0.0,0.0,0.0,0.0,0.0,0.0,-1.055207046855896,0.0,0.0,0.0,0.0,0.0,0.0,-0.18
20,0.0,0.0,0.0,0.0,0.0,0.0,-0.2432607421875,0.0,0.0,0.0,0.0,0.0,0.0,-1.055207046855896,0.0,0.0,0.0,0.0,0.0,0.0,-0.064
21,0.0,0.0,0.0,0.0,0.0,0.0,-0.2537314453125,0.0,0.0,0.0,0.0,0.0,0.0,-1.055207046855896,0.0,0.0,0.0,0.0,0.0,0.0,-0.076
22,0.0,0.0,0.0,0.0,0.0,0.0,-0.2654287109375,0.0,0.0,0.0,0.0,0.0,0.0,-1.055207046855896,0.0,0.0,0.0,0.0,0.0,0.0,-0.232
23,0.0,0.0,0.0,0.0,0.0,0.0,-0.279591796875,0.0,0.0,0.0,0.0,0.0,0.0,-1.055207046855896,0.0,0.0,0.0,0.0,0.0,0.0,-0.208
24,0.0,0.0,0.0,0.0,0.0,0.0,-0.294181640625,0.0,0.0,0.0,0.0,0.0,0.0,-1.055207046855896,0.0,0.0,0.0,0.0,0.0,0.0,-0.168
25,0.0,0.0,0.0,0.0,0.0,0.0,-0.3085517578125,0.0,0.0,0.0,0.0,0.0,0.0,-1.055207046855896,0.0,0.0,0.0,0.0,0.0,0.0,-0.168
26,0.0,0.0,0.0,0.0,0.0,0.0,-0.3253740234375,0.0,0.0,0.0,0.0,0.0,0.0,-1.055207046855896,0.0,0.0,0.0,0.0,0.0,0.0,-0.208
27,0.0,0.0,0.0,0.0,0.0,0.0,-0.3405703125,0.0,0.0,0.0,0.0,0.0,0.0,-1.055207046855896,0.0,0.0,0.0,0.0,0.0,0.0,-0.044
28,0.0,0.0,0.0,0.0,0.0,0.0,-0.355353515625,0.0,0.0,0.0,0.0,0.0,0.0,-1.055207046855896,0.0,0.0,0.0,0.0,0.0,0.0,-0.26
29,0.0,0.0,0.0,0.0,0.0,0.0,-0.3717763671875,0.0,0.0,0.0,0.0,0.0,0.0,-1.055207046855896,0.0,0.0,0.0,0.0,0.0,0.0,-0.224
30,0.0,0.0,0.0,0.0,0.0,0.0,-0.385939453125,0.0,0.0,0.0,0.0,0.0,0.0,-1.055207046855896,0.0,0.0,0.0,0.0,0.0,0.0,-0.14
31,0.0,0.0,0.0,0.0,0.0,0.0,-0.399689453125,0.0,0.0,0.0,0.0,0.0,0.0,-1.055207046855896,0.0,0.0,0.0,0.0,0.0,0.0,-0.22
32,0.0,0.0,0.0,0.0,0.0,0.0,-0.4146796875,0.0,0.0,0.0,0.0,0.0,0.0,-1.055207046855896,0.0,0.0,0.0,0.0,0.0,0.0,-0.076
33,0.0,0.0,0.0,0.0,0.0,0.0,-0.427203125,0.0,0.0,0.0,0.0,0.0,0.0,-1.055207046855896,0.0,0.0,0.0,0.0,0.0,0.0,-0.036
34,0.0,0.0,0.0,0.0,0.0,0.0,-0.4393134765625,0.0,0.0,0.0,0.0,0.0,0.0,-1.055207046855896,0.0,0.0,0.0,0.0,0.0,0.0,-0.272
35,0.0,0.0,0.0,0.0,0.0,0.0,-0.4526630859375,0.0,0.0,0.0,0.0,0.0,0.0,-1.055207046855896,0.0,0.0,0.0,0.0,0.0,0.0,-0.224
36,0.0,0.0,0.0,0.0,0.0,0.0,-0.4656005859375,0.0,0.0,0.0,0.0,0.0,0.0,-1.055207046855896,0.0,0.0,0.0,0.0,0.0,0.0,-0.12
37,0.0,0.0,0.0,0.0,0.0,0.0,-0.4772978515625,0.0,0.0,0.0,0.0,0.0,0.0,-1.055207046855896,0.0,0.0,0.0,0.0,0.0,0.0,-0.16
38,0.0,0.0,0.0,0.0,0.0,0.0,-0.49002734375,0.0,0.0,0.0,0.0,0.0,0.0,-1.055207046855896,0.0,0.0,0.0,0.0,0.0,0.0,-0.232
39,0.0,0.0,0.0,0.0,0.0,0.0,-0.503791015625,0.0,0.0,0.0,0.0,0.0,0.0,-1.055207046855896,0.0,0.0,0.0,0.0,0.0,0.0,-0.024
40,0.0,0.0,0.0,0.0,0.0,0.0,-0.516107421875,0.0,0.0,0.0,0.0,0.0,0.0,-1.055207046855896,0.0,0.0,0.0,0.0,0.0,0.0,-0.136
41,0.0,0.0,0.0,0.0,0.0,0.0,-0.5286318359375,0.0,0.0,0.0,0.0,0.0,0.0,-1.055207046855896,0.0,0.0,0.0,0.0,0.0,0.0,-0.252
42,0.0,0.0,0.0,0.0,0.0,0.0,-0.543427734375,0.0,0.0,0.0,0.0,0.0,0.0,-1.055207046855896,0.0,0.0,0.0,0.0,0.0,0.0,-0.208
43,0.0,0.0,0.0,0.0,0.0,0.0,-0.556970703125,0.0,0.0,0.0,0.0,0.0,0.0,-1.055207046855896,0.0,0.0,0.0,0.0,0.0,0.0,-0.18
44,0.0,0.0,0.0,0.0,0.0,0.0,-0.5699208984375,0.0,0.0,0.0,0.0,0.0,0.0,-1.055207046855896,0.0,0.0,0.0,0.0,0.0,0.0,-0.208
45,0.0,0.0,0.0,0.0,0.0,0.0,-0.5851171875,0.0,0.0,0.0,0.0,0.0,0.0,-1.055207046855896,0.0,0.0,0.0,0.0,0.0,0.0,-0.172
46,0.0,0.0,0.0,0.0,0.0,0.0,-0.5988798828125,0.0,0.0,0.0,0.0,0.0,0.0,-1.055207046855896,0.0,0.0,0.0,0.0,0.0,0.0,-0.044
47,0.0,0.0,0.0,0.0,0.0,0.0,-0.61181640625,0.0,0.0,0.0,0.0,0.0,0.0,-1.055207046855896,0.0,0.0,0.0,0.0,0.0,0.0,-0.22
48,0.0,0.0,0.0,0.0,0.0,0.0,-0.6266123046875,0.0,0.0,0.0,0.0,0.0,0.0,-1.055207046855896,0.0,0.0,0.0,0.0,0.0,0.0,-0.188
49,0.0,0.0,0.0,0.0,0.0,0.0,-0.6409951171875,0.0,0.0,0.0,0.0,0.0,0.0,-1.055207046855896,0.0,0.0,0.0,0.0,0.0,0.0,-0.136
50,0.0,0.0,0.0,0.0,0.0,0.0,-0.65373828125,0.0,0.0,0.0,0.0,0.0,0.0,-1.055207046855896,0.0,0.0,0.0,0.0,0.0,0.0,-0.16
51,0.0,0.0,0.0,0.0,0.0,0.0,-0.6679150390625,0.0,0.0,0.0,0.0,0.0,0.0,-1.055207046855896,0.0,0.0,0.0,0.0,0.0,0.0,-0.136
52,0.0,0.0,0.0,0.0,0.0,0.0,-0.6820908203125,0.0,0.0,0.0,0.0,0.0,0.0,-1.055207046855896,0.0,0.0,0.0,0.0,0.0,0.0,-0.068
53,0.0,0.0,0.0,0.0,0.0,0.0,-0.6946142578125,0.0,0.0,0.0,0.0,0.0,0.0,-1.055207046855896,0.0,0.0,0.0,0.0,0.0,0.0,-0.22
54,0.0,0.0,0.0,0.0,0.0,0.0,-0.7079775390625,0.0,0.0,0.0,0.0,0.0,0.0,-1.055207046855896,0.0,0.0,0.0,0.0,0.0,0.0,-0.252
55,0.0,0.0,0.0,0.0,0.0,0.0,-0.7223603515625,0.0,0.0,0.0,0.0,0.0,0.0,-1.055207046855896,0.0,0.0,0.0,0.0,0.0,0.0,-0.12
56,0.0,0.0,0.0,0.0,0.0,0.0,-0.735103515625,0.0,0.0,0.0,0.0,0.0,0.0,-1.055207046855896,0.0,0.0,0.0,0.0,0.0,0.0,-0.208
57,0.0,0.0,0.0,0.0,0.0,0.0,-0.748052734375,0.0,0.0,0.0,0.0,0.0,0.0,-1.055207046855896,0.0,0.0,0.0,0.0,0.0,0.0,-0.304
58,0.0,0.0,0.0,0.0,0.0,0.0,-0.762435546875,0.0,0.0,0.0,0.0,0.0,0.0,-1.055207046855896,0.0,0.0,0.0,0.0,0.0,0.0,-0.064
59,0.0,0.0,0.0,0.0,0.0,0.0,-0.7751787109375,0.0,0.0,0.0,0.0,0.0,0.0,-1.055207046855896,0.0,0.0,0.0,0.0,0.0,0.0,-0.108
60,0.0,0.0,0.0,0.0,0.0,0.0,-0.78771484375,0.0,0.0,0.0,0.0,0.0,0.0,-1.055207046855896,0.0,0.0,0.0,0.0,0.0,0.0,-0.356
61,0.0,0.0,0.0,0.0,0.0,0.0,-0.802111328125,0.0,0.0,0.0,0.0,0.0,0.0,-1.055207046855896,0.0,0.0,0.0,0.0,0.0,0.0,-0.128
62,0.0,0.0,0.0,0.0,0.0,0.0,-0.8156806640625,0.0,0.0,0.0,0.0,0.0,0.0,-1.055207046855896,0.0,0.0,0.0,0.0,0.0,0.0,-0.14
63,0.0,0.0,0.0,0.0,0.0,0.0,-0.828216796875,0.0,0.0,0.0,0.0,0.0,0.0,-1.055207046855896,0.0,0.0,0.0,0.0,0.0,0.0,-0.2
64,0.0,0.0,0.0,0.0,0.0,0.0,-0.8428193359375,0.0,0.0,0.0,0.0,0.0,0.0,-1.055207046855896,0.0,0.0,0.0,0.0,0.0,0.0,-0.14
65,0.0,0.0,0.0,0.0,0.0,0.0,-0.8570087890625,0.0,0.0,0.0,0.0,0.0,0.0,-1.055207046855896,0.0,0.0,0.0,0.0,0.0,0.0,-0.076
66,0.0,0.0,0.0,0.0,0.0,0.0,-0.869337890625,0.0,0.0,0.0,0.0,0.0,0.0,-1.055207046855896,0.0,0.0,0.0,0.0,0.0,0.0,-0.26
67,0.0,0.0,0.0,0.0,0.0,0.0,-0.8831142578125,0.0,0.0,0.0,0.0,0.0,0.0,-1.055207046855896,0.0,0.0,0.0,0.0,0.0,0.0,-0.232
68,0.0,0.0,0.0,0.0,0.0,0.0,-0.897716796875,0.0,0.0,0.0,0.0,0.0,0.0,-1.055207046855896,0.0,0.0,0.0,0.0,0.0,0.0,-0.084
69,0.0,0.0,0.0,0.0,0.0,0.0,-0.9106787109375,0.0,0.0,0.0,0.0,0.0,0.0,-1.055207046855896,0.0,0.0,0.0,0.0,0.0,0.0,-0.224
70,0.0,0.0,0.0,0.0,0.0,0.0,-0.9240419921875,0.0,0.0,0.0,0.0,0.0,0.0,-1.055207046855896,0.0,0.0,0.0,0.0,0.0,0.0,-0.224
71,0.0,0.0,0.0,0.0,0.0,0.0,-0.93864453125,0.0,0.0,0.0,0.0,0.0,0.0,-1.055207046855896,0.0,0.0,0.0,0.0,0.0,0.0,-0.004
72,0.0,0.0,0.0,0.0,0.0,0.0,-0.9516064453125,0.0,0.0,0.0,0.0,0.0,0.0,-1.055207046855896,0.0,0.0,0.0,0.0,0.0,0.0,-0.188
73,0.0,0.0,0.0,0.0,0.0,0.0,-0.964556640625,0.0,0.0,0.0,0.0,0.0,0.0,-1.055207046855896,0.0,0.0,0.0,0.0,0.0,0.0,-0.396
74,0.0,0.0,0.0,0.0,0.0,0.0,-0.9791845703125,0.0,0.0,0.0,0.0,0.0,0.0,-1.055207046855896,0.0,0.0,0.0,0.0,0.0,0.0,-0.168
75,0.0,0.0,0.0,0.0,0.0,0.0,-0.9921474609375,0.0,0.0,0.0,0.0,0.0,0.0,-1.055207046855896,0.0,0.0,0.0,0.0,0.0,0.0,-0.088
76,0.0,0.0,0.0,0.0,0.0,0.0,-1.005109375,0.0,0.0,0.0,0.0,0.0,0.0,-1.055207046855896,0.0,0.0,0.0,0.0,0.0,0.0,-0.276
77,0.0,0.0,0.0,0.0,0.0,0.0,-1.0199189453125,0.0,0.0,0.0,0.0,0.0,0.0,-1.055207046855896,0.0,0.0,0.0,0.0,0.0,0.0,-0.14
78,0.0,0.0,0.0,0.0,0.0,0.0,-1.033087890625,0.0,0.0,0.0,0.0,0.0,0.0,0.6168148052362041,0.0,0.0,0.0,0.0,0.0,0.0,-0.088
79,0.0,0.0,0.0,0.0,0.0,0.0,-1.0454306640625,0.0,0.0,0.0,0.0,0.0,0.0,0.6168148052362041,0.0,0.0,0.0,0.0,0.0,0.0,-0.272
80,0.0,0.0,0.0,0.0,0.0,0.0,-1.0590126953125,0.0,0.0,0.0,0.0,0.0,0.0,0.6168148052362041,0.0,0.0,0.0,0.0,0.0,0.0,-0.18
81,0.0,0.0,0.0,0.0,0.0,0.0,-1.068076171875,0.0,0.0,0.0,0.0,0.0,0.0,0.6168148052362041,0.0,0.0,0.0,0.0,0.0,0.0,0.0
82,0.0,0.0,0.0,0.0,0.0,0.0,-1.0690966796875,0.0,0.0,0.0,0.0,0.0,0.0,0.6168148052362041,0.0,0.0,0.0,0.0,0.0,0.0,-0.032
83,0.0,0.0,0.0,0.0,0.0,0.0,-1.066423828125,0.0,0.0,0.0,0.0,0.0,0.0,0.6168148052362041,0.0,0.0,0.0,0.0,0.0,0.0,0.016
84,0.0,0.0,0.0,0.0,0.0,0.0,-1.0598388671875,0.0,0.0,0.0,0.0,0.0,0.0,0.6168148052362041,0.0,0.0,0.0,0.0,0.0,0.0,0.104
85,0.0,0.0,0.0,0.0,0.0,0.0,-1.0493427734375,0.0,0.0,0.0,0.0,0.0,0.0,0.6168148052362041,0.0,0.0,0.0,0.0,0.0,0.0,0.0
86,0.0,0.0,0.0,0.0,0.0,0.0,-1.0365869140625,0.0,0.0,0.0,0.0,0.0,0.0,0.6168148052362041,0.0,0.0,0.0,0.0,0.0,0.0,-0.084
87,0.0,0.0,0.0,0.0,0.0,0.0,-1.0205380859375,0.0,0.0,0.0,0.0,0.0,0.0,0.6168148052362041,0.0,0.0,0.0,0.0,0.0,0.0,0.148
88,0.0,0.0,0.0,0.0,0.0,0.0,-0.999751953125,0.0,0.0,0.0,0.0,0.0,0.0,0.6168148052362041,0.0,0.0,0.0,0.0,0.0,0.0,0.004
89,0.0,0.0,0.0,0.0,0.0,0.0,-0.9789775390625,0.0,0.0,0.0,0.0,0.0,0.0,0.6168148052362041,0.0,0.0,0.0,0.0,0.0,0.0,0.016
90,0.0,0.0,0.0,0.0,0.0,0.0,-0.953453125,0.0,0.0,0.0,0.0,0.0,0.0,0.6168148052362041,0.0,0.0,0.0,0.0,0.0,0.0,-0.12
91,0.0,0.0,0.0,0.0,0.0,0.0,-0.92816015625,0.0,0.0,0.0,0.0,0.0,0.0,0.6168148052362041,0.0,0.0,0.0,0.0,0.0,0.0,0.156
92,0.0,0.0,0.0,0.0,0.0,0.0,-0.9020419921875,0.0,0.0,0.0,0.0,0.0,0.0,0.6168148052362041,0.0,0.0,0.0,0.0,0.0,0.0,-0.108
93,0.0,0.0,0.0,0.0,0.0,0.0,-0.8748896484375,0.0,0.0,0.0,0.0,0.0,0.0,0.6168148052362041,0.0,0.0,0.0,0.0,0.0,0.0,0.14
94,0.0,0.0,0.0,0.0,0.0,0.0,-0.8518701171875,0.0,0.0,0.0,0.0,0.0,0.0,0.6168148052362041,0.0,0.0,0.0,0.0,0.0,0.0,0.096
95,0.0,0.0,0.0,0.0,0.0,0.0,-0.82781640625,0.0,0.0,0.0,0.0,0.0,0.0,0.6168148052362041,0.0,0.0,0.0,0.0,0.0,0.0,-0.044
96,0.0,0.0,0.0,0.0,0.0,0.0,-0.808076171875,0.0,0.0,0.0,0.0,0.0,0.0,0.6168148052362041,0.0,0.0,0.0,0.0,0.0,0.0,0.052
97,0.0,0.0,0.0,0.0,0.0,0.0,-0.78812890625,0.0,0.0,0.0,0.0,0.0,0.0,0.6168148052362041,0.0,0.0,0.0,0.0,0.0,0.0,-0.044
98,0.0,0.0,0.0,0.0,0.0,0.0,-0.772712890625,0.0,0.0,0.0,0.0,0.0,0.0,0.6168148052362041,0.0,0.0,0.0,0.0,0.0,0.0,0.016
99,0.0,0.0,0.0,0.0,0.0,0.0,-0.75873046875,0.0,0.0,0.0,0.0,0.0,0.0,0.6168148052362041,0.0,0.0,0.0,0.0,0.0,0.0,0.136
100,0.0,0.0,0.0,0.0,0.0,0.0,-0.7455869140625,0.0,0.0,0.0,0.0,0.0,0.0,0.6168148052362041,0.0,0.0,0.0,0.0,0.0,0.0,-0.016
101,0.0,0.0,0.0,0.0,0.0,0.0,-0.7355166015625,0.0,0.0,0.0,0.0,0.0,0.0,0.6168148052362041,0.0,0.0,0.0,0.0,0.0,0.0,-0.012
102,0.0,0.0,0.0,0.0,0.0,0.0,-0.7270859375,0.0,0.0,0.0,0.0,0.0,0.0,0.6168148052362041,0.0,0.0,0.0,0.0,0.0,0.0,-0.004
103,0.0,0.0,0.0,0.0,0.0,0.0,-0.718861328125,0.0,0.0,0.0,0.0,0.0,0.0,0.6168148052362041,0.0,0.0,0.0,0.0,0.0,0.0,0.024
104,0.0,0.0,0.0,0.0,0.0,0.0,-0.710443359375,0.0,0.0,0.0,0.0,0.0,0.0,0.6168148052362041,0.0,0.0,0.0,0.0,0.0,0.0,0.064
105,0.0,0.0,0.0,0.0,0.0,0.0,-0.70221875,0.0,0.0,0.0,0.0,0.0,0.0,0.6168148052362041,0.0,0.0,0.0,0.0,0.0,0.0,-0.056
106,0.0,0.0,0.0,0.0,0.0,0.0,-0.6946142578125,0.0,0.0,0.0,0.0,0.0,0.0,0.6168148052362041,0.0,0.0,0.0,0.0,0.0,0.0,-0.084
107,0.0,0.0,0.0,0.0,0.0,0.0,-0.6864033203125,0.0,0.0,0.0,0.0,0.0,0.0,0.6168148052362041,0.0,0.0,0.0,0.0,0.0,0.0,0.064
108,0.0,0.0,0.0,0.0,0.0,0.0,-0.677365234375,0.0,0.0,0.0,0.0,0.0,0.0,0.6168148052362041,0.0,0.0,0.0,0.0,0.0,0.0,0.104
109,0.0,0.0,0.0,0.0,0.0,0.0,-0.66646875,0.0,0.0,0.0,0.0,0.0,0.0,0.6168148052362041,0.0,0.0,0.0,0.0,0.0,0.0,0.068
110,0.0,0.0,0.0,0.0,0.0,0.0,-0.6543583984375,0.0,0.0,0.0,0.0,0.0,0.0,0.6168148052362041,0.0,0.0,0.0,0.0,0.0,0.0,0.004
111,0.0,0.0,0.0,0.0,0.0,0.0,-0.642841796875,0.0,0.0,0.0,0.0,0.0,0.0,0.6168148052362041,0.0,0.0,0.0,0.0,0.0,0.0,0.032
112,0.0,0.0,0.0,0.0,0.0,0.0,-0.6299052734375,0.0,0.0,0.0,0.0,0.0,0.0,0.6168148052362041,0.0,0.0,0.0,0.0,0.0,0.0,0.084
113,0.0,0.0,0.0,0.0,0.0,0.0,-0.6146953125,0.0,0.0,0.0,0.0,0.0,0.0,0.6168148052362041,0.0,0.0,0.0,0.0,0.0,0.0,-0.044
114,0.0,0.0,0.0,0.0,0.0,0.0,-0.6007265625,0.0,0.0,0.0,0.0,0.0,0.0,0.6168148052362041,0.0,0.0,0.0,0.0,0.0,0.0,0.016
115,0.0,0.0,0.0,0.0,0.0,0.0,-0.5859306640625,0.0,0.0,0.0,0.0,0.0,0.0,0.6168148052362041,0.0,0.0,0.0,0.0,0.0,0.0,0.2
116,0.0,0.0,0.0,0.0,0.0,0.0,-0.5690947265625,0.0,0.0,0.0,0.0,0.0,0.0,0.6168148052362041,0.0,0.0,0.0,0.0,0.0,0.0,-0.056
117,0.0,0.0,0.0,0.0,0.0,0.0,-0.5543115234375,0.0,0.0,0.0,0.0,0.0,0.0,0.6168148052362041,0.0,0.0,0.0,0.0,0.0,0.0,0.064
118,0.0,0.0,0.0,0.0,0.0,0.0,-0.5382890625,0.0,0.0,0.0,0.0,0.0,0.0,0.6168148052362041,0.0,0.0,0.0,0.0,0.0,0.0,0.064
119,0.0,0.0,0.0,0.0,0.0,0.0,-0.5218662109375,0.0,0.0,0.0,0.0,0.0,0.0,0.6168148052362041,0.0,0.0,0.0,0.0,0.0,0.0,-0.116
120,0.0,0.0,0.0,0.0,0.0,0.0,-0.5072763671875,0.0,0.0,0.0,0.0,0.0,0.0,0.6168148052362041,0.0,0.0,0.0,0.0,0.0,0.0,0.096
121,0.0,0.0,0.0,0.0,0.0,0.0,-0.4916669921875,0.0,0.0,0.0,0.0,0.0,0.0,0.6168148052362041,0.0,0.0,0.0,0.0,0.0,0.0,0.096
122,0.0,0.0,0.0,0.0,0.0,0.0,-0.47627734375,0.0,0.0,0.0,0.0,0.0,0.0,0.6168148052362041,0.0,0.0,0.0,0.0,0.0,0.0,0.012
123,0.0,0.0,0.0,0.0,0.0,0.0,-0.462720703125,0.0,0.0,0.0,0.0,0.0,0.0,0.6168148052362041,0.0,0.0,0.0,0.0,0.0,0.0,0.0
124,0.0,0.0,0.0,0.0,0.0,0.0,-0.4477314453125,0.0,0.0,0.0,0.0,0.0,0.0,0.6168148052362041,0.0,0.0,0.0,0.0,0.0,0.0,0.004
125,0.0,0.0,0.0,0.0,0.0,0.0,-0.4337744140625,0.0,0.0,0.0,0.0,0.0,0.0,0.6168148052362041,0.0,0.0,0.0,0.0,0.0,0.0,-0.052
126,0.0,0.0,0.0,0.0,0.0,0.0,-0.4214580078125,0.0,0.0,0.0,0.0,0.0,0.0,0.6168148052362041,0.0,0.0,0.0,0.0,0.0,0.0,0.044
127,0.0,0.0,0.0,0.0,0.0,0.0,-0.4079013671875,0.0,0.0,0.0,0.0,0.0,0.0,0.6168148052362041,0.0,0.0,0.0,0.0,0.0,0.0,0.128
128,0.0,0.0,0.0,0.0,0.0,0.0,-0.394357421875,0.0,0.0,0.0,0.0,0.0,0.0,0.6168148052362041,0.0,0.0,0.0,0.0,0.0,0.0,-0.012
129,0.0,0.0,0.0,0.0,0.0,0.0,-0.3822470703125,0.0,0.0,0.0,0.0,0.0,0.0,0.6168148052362041,0.0,0.0,0.0,0.0,0.0,0.0,0.052
130,0.0,0.0,0.0,0.0,0.0,0.0,-0.37013671875,0.0,0.0,0.0,0.0,0.0,0.0,0.6168148052362041,0.0,0.0,0.0,0.0,0.0,0.0,0.104
131,0.0,0.0,0.0,0.0,0.0,0.0,-0.3563740234375,0.0,0.0,0.0,0.0,0.0,0.0,0.6168148052362041,0.0,0.0,0.0,0.0,0.0,0.0,0.004
132,0.0,0.0,0.0,0.0,0.0,0.0,-0.3444697265625,0.0,0.0,0.0,0.0,0.0,0.0,0.6168148052362041,0.0,0.0,0.0,0.0,0.0,0.0,-0.012
133,0.0,0.0,0.0,0.0,0.0,0.0,-0.3325654296875,0.0,0.0,0.0,0.0,0.0,0.0,0.6168148052362041,0.0,0.0,0.0,0.0,0.0,0.0,0.14
134,0.0,0.0,0.0,0.0,0.0,0.0,-0.3194228515625,0.0,0.0,0.0,0.0,0.0,0.0,0.6168148052362041,0.0,0.0,0.0,0.0,0.0,0.0,0.104
135,0.0,0.0,0.0,0.0,0.0,0.0,-0.3060859375,0.0,0.0,0.0,0.0,0.0,0.0,0.6168148052362041,0.0,0.0,0.0,0.0,0.0,0.0,0.024
136,0.0,0.0,0.0,0.0,0.0,0.0,-0.2937685546875,0.0,0.0,0.0,0.0,0.0,0.0,0.6168148052362041,0.0,0.0,0.0,0.0,0.0,0.0,0.064
137,0.0,0.0,0.0,0.0,0.0,0.0,-0.281025390625,0.0,0.0,0.0,0.0,0.0,0.0,0.6168148052362041,0.0,0.0,0.0,0.0,0.0,0.0,0.108
138,0.0,0.0,0.0,0.0,0.0,0.0,-0.2668623046875,0.0,0.0,0.0,0.0,0.0,0.0,0.6168148052362041,0.0,0.0,0.0,0.0,0.0,0.0,-0.052
139,0.0,0.0,0.0,0.0,0.0,0.0,-0.25414453125,0.0,0.0,0.0,0.0,0.0,0.0,0.6168148052362041,0.0,0.0,0.0,0.0,0.0,0.0,0.044
140,0.0,0.0,0.0,0.0,0.0,0.0,-0.2412080078125,0.0,0.0,0.0,0.0,0.0,0.0,0.6168148052362041,0.0,0.0,0.0,0.0,0.0,0.0,0.18
141,0.0,0.0,0.0,0.0,0.0,0.0,-0.2264375,0.0,0.0,0.0,0.0,0.0,0.0,0.6168148052362041,0.0,0.0,0.0,0.0,0.0,0.0,0.088
142,0.0,0.0,0.0,0.0,0.0,0.0,-0.213087890625,0.0,0.0,0.0,0.0,0.0,0.0,0.6168148052362041,0.0,0.0,0.0,0.0,0.0,0.0,-0.012
143,0.0,0.0,0.0,0.0,0.0,0.0,-0.1997509765625,0.0,0.0,0.0,0.0,0.0,0.0,0.6168148052362041,0.0,0.0,0.0,0.0,0.0,0.0,0.076
144,0.0,0.0,0.0,0.0,0.0,0.0,-0.184775390625,0.0,0.0,0.0,0.0,0.0,0.0,0.6168148052362041,0.0,0.0,0.0,0.0,0.0,0.0,0.084
145,0.0,0.0,0.0,0.0,0.0,0.0,-0.1710126953125,0.0,0.0,0.0,0.0,0.0,0.0,0.6168148052362041,0.0,0.0,0.0,0.0,0.0,0.0,0.016
146,0.0,0.0,0.0,0.0,0.0,0.0,-0.1578818359375,0.0,0.0,0.0,0.0,0.0,0.0,0.6168148052362041,0.0,0.0,0.0,0.0,0.0,0.0,0.14
147,0.0,0.0,0.0,0.0,0.0,0.0,-0.1429052734375,0.0,0.0,0.0,0.0,0.0,0.0,0.6168148052362041,0.0,0.0,0.0,0.0,0.0,0.0,0.068
148,0.0,0.0,0.0,0.0,0.0,0.0,-0.1287421875,0.0,0.0,0.0,0.0,0.0,0.0,0.6168148052362041,0.0,0.0,0.0,0.0,0.0,0.0,0.104
149,0.0,0.0,0.0,0.0,0.0,0.0,-0.1157919921875,0.0,0.0,0.0,0.0,0.0,0.0,0.6168148052362041,0.0,0.0,0.0,0.0,0.0,0.0,0.044
150,0.0,0.0,0.0,0.0,0.0,0.0,-0.0995634765625,0.0,0.0,0.0,0.0,0.0,0.0,0.6168148052362041,0.0,0.0,0.0,0.0,0.0,0.0,0.056
151,0.0,0.0,0.0,0.0,0.0,0.0,-0.086845703125,0.0,0.0,0.0,0.0,0.0,0.0,0.6168148052362041,0.0,0.0,0.0,0.0,0.0,0.0,0.088
152,0.0,0.0,0.0,0.0,0.0,0.0,-0.074115234375,0.0,0.0,0.0,0.0,0.0,0.0,0.6168148052362041,0.0,0.0,0.0,0.0,0.0,0.0,0.16
153,0.0,0.0,0.0,0.0,0.0,0.0,-0.060365234375,0.0,0.0,0.0,0.0,0.0,0.0,0.6168148052362041,0.0,0.0,0.0,0.0,0.0,0.0,0.108
154,0.0,0.0,0.0,0.0,0.0,0.0,-0.0459951171875,0.0,0.0,0.0,0.0,0.0,0.0,0.6168148052362041,0.0,0.0,0.0,0.0,0.0,0.0,0.14
155,0.0,0.0,0.0,0.0,0.0,0.0,-0.0330712890625,0.0,0.0,0.0,0.0,0.0,0.0,0.6168148052362041,0.0,0.0,0.0,0.0,0.0,0.0,0.168
156,0.0,0.0,0.0,0.0,0.0,0.0,-0.019734375,0.0,0.0,0.0,0.0,0.0,0.0,0.6168148052362041,0.0,0.0,0.0,0.0,0.0,0.0,0.108
157,0.0,0.0,0.0,0.0,0.0,0.0,-0.0055712890625,0.0,0.0,0.0,0.0,0.0,0.0,0.6168148052362041,0.0,0.0,0.0,0.0,0.0,0.0,-0.036
158,0.0,0.0,0.0,0.0,0.0,0.0,0.008798828125,0.0,0.0,0.0,0.0,0.0,0.0,0.6168148052362041,0.0,0.0,0.0,0.0,0.0,0.0,0.14
159,0.0,0.0,0.0,0.0,0.0,0.0,0.0202890625,0.0,0.0,0.0,0.0,0.0,0.0,0.6168148052362041,0.0,0.0,0.0,0.0,0.0,0.0,0.208
160,0.0,0.0,0.0,0.0,0.0,0.0,0.034865234375,0.0,0.0,0.0,0.0,0.0,0.0,0.6168148052362041,0.0,0.0,0.0,0.0,0.0,0.0,0.044
161,0.0,0.0,0.0,0.0,0.0,0.0,0.04799609375,0.0,0.0,0.0,0.0,0.0,0.0,0.6168148052362041,0.0,0.0,0.0,0.0,0.0,0.0,-0.044
162,0.0,0.0,0.0,0.0,0.0,0.0,0.0607265625,0.0,0.0,0.0,0.0,0.0,0.0,0.6168148052362041,0.0,0.0,0.0,0.0,0.0,0.0,0.044
163,0.0,0.0,0.0,0.0,0.0,0.0,0.075109375,0.0,0.0,0.0,0.0,0.0,0.0,0.6168148052362041,0.0,0.0,0.0,0.0,0.0,0.0,0.032
164,0.0,0.0,0.0,0.0,0.0,0.0,0.08865234375,0.0,0.0,0.0,0.0,0.0,0.0,0.6168148052362041,0.0,0.0,0.0,0.0,0.0,0.0,0.056
165,0.0,0.0,0.0,0.0,0.0,0.0,0.1013828125,0.0,0.0,0.0,0.0,0.0,0.0,0.6168148052362041,0.0,0.0,0.0,0.0,0.0,0.0,0.148
166,0.0,0.0,0.0,0.0,0.0,0.0,0.11533984375,0.0,0.0,0.0,0.0,0.0,0.0,0.6168148052362041,0.0,0.0,0.0,0.0,0.0,0.0,0.104
167,0.0,0.0,0.0,0.0,0.0,0.0,0.1295029296875,0.0,0.0,0.0,0.0,0.0,0.0,0.6168148052362041,0.0,0.0,0.0,0.0,0.0,0.0,0.056
168,0.0,0.0,0.0,0.0,0.0,0.0,0.142439453125,0.0,0.0,0.0,0.0,0.0,0.0,0.6168148052362041,0.0,0.0,0.0,0.0,0.0,0.0,0.096
169,0.0,0.0,0.0,0.0,0.0,0.0,0.1559833984375,0.0,0.0,0.0,0.0,0.0,0.0,0.6168148052362041,0.0,0.0,0.0,0.0,0.0,0.0,0.004
170,0.0,0.0,0.0,0.0,0.0,0.0,0.170353515625,0.0,0.0,0.0,0.0,0.0,0.0,0.6168148052362041,0.0,0.0,0.0,0.0,0.0,0.0,-0.012
171,0.0,0.0,0.0,0.0,0.0,0.0,0.18349609375,0.0,0.0,0.0,0.0,0.0,0.0,0.6168148052362041,0.0,0.0,0.0,0.0,0.0,0.0,0.18
172,0.0,0.0,0.0,0.0,0.0,0.0,0.198279296875,0.0,0.0,0.0,0.0,0.0,0.0,0.6168148052362041,0.0,0.0,0.0,0.0,0.0,0.0,0.088
173,0.0,0.0,0.0,0.0,0.0,0.0,0.211203125,0.0,0.0,0.0,0.0,0.0,0.0,0.6168148052362041,0.0,0.0,0.0,0.0,0.0,0.0,0.004
174,0.0,0.0,0.0,0.0,0.0,0.0,0.225986328125,0.0,0.0,0.0,0.0,0.0,0.0,0.6168148052362041,0.0,0.0,0.0,0.0,0.0,0.0,0.068
175,0.0,0.0,0.0,0.0,0.0,0.0,0.2379033203125,0.0,0.0,0.0,0.0,0.0,0.0,0.6168148052362041,0.0,0.0,0.0,0.0,0.0,0.0,0.108
176,0.0,0.0,0.0,0.0,0.0,0.0,0.2524794921875,0.0,0.0,0.0,0.0,0.0,0.0,0.6168148052362041,0.0,0.0,0.0,0.0,0.0,0.0,-0.036
177,0.0,0.0,0.0,0.0,0.0,0.0,0.2658291015625,0.0,0.0,0.0,0.0,0.0,0.0,0.6168148052362041,0.0,0.0,0.0,0.0,0.0,0.0,0.032
178,0.0,0.0,0.0,0.0,0.0,0.0,0.2802119140625,0.0,0.0,0.0,0.0,0.0,0.0,0.6168148052362041,0.0,0.0,0.0,0.0,0.0,0.0,0.244
179,0.0,0.0,0.0,0.0,0.0,0.0,0.2933427734375,0.0,0.0,0.0,0.0,0.0,0.0,0.6168148052362041,0.0,0.0,0.0,0.0,0.0,0.0,0.024
180,0.0,0.0,0.0,0.0,0.0,0.0,0.30710546875,0.0,0.0,0.0,0.0,0.0,0.0,0.6168148052362041,0.0,0.0,0.0,0.0,0.0,0.0,0.064
181,0.0,0.0,0.0,0.0,0.0,0.0,0.3198359375,0.0,0.0,0.0,0.0,0.0,0.0,0.6168148052362041,0.0,0.0,0.0,0.0,0.0,0.0,0.068
182,0.0,0.0,0.0,0.0,0.0,0.0,0.3354453125,0.0,0.0,0.0,0.0,0.0,0.0,0.6168148052362041,0.0,0.0,0.0,0.0,0.0,0.0,0.016
183,0.0,0.0,0.0,0.0,0.0,0.0,0.34796875,0.0,0.0,0.0,0.0,0.0,0.0,0.6168148052362041,0.0,0.0,0.0,0.0,0.0,0.0,0.056
184,0.0,0.0,0.0,0.0,0.0,0.0,0.3621455078125,0.0,0.0,0.0,0.0,0.0,0.0,0.6168148052362041,0.0,0.0,0.0,0.0,0.0,0.0,0.22
185,0.0,0.0,0.0,0.0,0.0,0.0,0.3744619140625,0.0,0.0,0.0,0.0,0.0,0.0,0.6168148052362041,0.0,0.0,0.0,0.0,0.0,0.0,0.14
186,0.0,0.0,0.0,0.0,0.0,0.0,0.388638671875,0.0,0.0,0.0,0.0,0.0,0.0,0.6168148052362041,0.0,0.0,0.0,0.0,0.0,0.0,0.052
187,0.0,0.0,0.0,0.0,0.0,0.0,0.40178125,0.0,0.0,0.0,0.0,0.0,0.0,0.6168148052362041,0.0,0.0,0.0,0.0,0.0,0.0,0.12
188,0.0,0.0,0.0,0.0,0.0,0.0,0.4167841796875,0.0,0.0,0.0,0.0,0.0,0.0,0.6168148052362041,0.0,0.0,0.0,0.0,0.0,0.0,0.076
189,0.0,0.0,0.0,0.0,0.0,0.0,0.4295146484375,0.0,0.0,0.0,0.0,0.0,0.0,0.6168148052362041,0.0,0.0,0.0,0.0,0.0,0.0,0.024
190,0.0,0.0,0.0,0.0,0.0,0.0,0.4426708984375,0.0,0.0,0.0,0.0,0.0,0.0,0.6168148052362041,0.0,0.0,0.0,0.0,0.0,0.0,0.108
191,0.0,0.0,0.0,0.0,0.0,0.0,0.4572470703125,0.0,0.0,0.0,0.0,0.0,0.0,0.6168148052362041,0.0,0.0,0.0,0.0,0.0,0.0,0.18
192,0.0,0.0,0.0,0.0,0.0,0.0,0.469990234375,0.0,0.0,0.0,0.0,0.0,0.0,0.6168148052362041,0.0,0.0,0.0,0.0,0.0,0.0,0.088
193,0.0,0.0,0.0,0.0,0.0,0.0,0.4847861328125,0.0,0.0,0.0,0.0,0.0,0.0,0.6168148052362041,0.0,0.0,0.0,0.0,0.0,0.0,0.052
194,0.0,0.0,0.0,0.0,0.0,0.0,0.49772265625,0.0,0.0,0.0,0.0,0.0,0.0,0.6168148052362041,0.0,0.0,0.0,0.0,0.0,0.0,0.076
195,0.0,0.0,0.0,0.0,0.0,0.0,0.5106728515625,0.0,0.0,0.0,0.0,0.0,0.0,0.6168148052362041,0.0,0.0,0.0,0.0,0.0,0.0,0.024
196,0.0,0.0,0.0,0.0,0.0,0.0,0.52589453125,0.0,0.0,0.0,0.0,0.0,0.0,0.6168148052362041,0.0,0.0,0.0,0.0,0.0,0.0,0.136
197,0.0,0.0,0.0,0.0,0.0,0.0,0.5376044921875,0.0,0.0,0.0,0.0,0.0,0.0,0.6168148052362041,0.0,0.0,0.0,0.0,0.0,0.0,0.264
198,0.0,0.0,0.0,0.0,0.0,0.0,0.5513681640625,0.0,0.0,0.0,0.0,0.0,0.0,0.6168148052362041,0.0,0.0,0.0,0.0,0.0,0.0,0.052
199,0.0,0.0,0.0,0.0,0.0,0.0,0.5653505859375,0.0,0.0,0.0,0.0,0.0,0.0,0.6168148052362041,0.0,0.0,0.0,0.0,0.0,0.0,0.076
200,0.0,0.0,0.0,0.0,0.0,0.0,0.579939453125,0.0,0.0,0.0,0.0,0.0,0.0,0.6168148052362041,0.0,0.0,0.0,0.0,0.0,0.0,0.168
201,0.0,0.0,0.0,0.0,0.0,0.0,0.5935087890625,0.0,0.0,0.0,0.0,0.0,0.0,-0.11098719595486298,0.0,0.0,0.0,0.0,0.0,0.0,-0.012
202,0.0,0.0,0.0,0.0,0.0,0.0,0.606251953125,0.0,0.0,0.0,0.0,0.0,0.0,-0.11098719595486298,0.0,0.0,0.0,0.0,0.0,0.0,0.052
203,0.0,0.0,0.0,0.0,0.0,0.0,0.6187890625,0.0,0.0,0.0,0.0,0.0,0.0,-0.11098719595486298,0.0,0.0,0.0,0.0,0.0,0.0,0.244
204,0.0,0.0,0.0,0.0,0.0,0.0,0.62783984375,0.0,0.0,0.0,0.0,0.0,0.0,-0.11098719595486298,0.0,0.0,0.0,0.0,0.0,0.0,0.192
205,0.0,0.0,0.0,0.0,0.0,0.0,0.631337890625,0.0,0.0,0.0,0.0,0.0,0.0,-0.11098719595486298,0.0,0.0,0.0,0.0,0.0,0.0,0.068
206,0.0,0.0,0.0,0.0,0.0,0.0,0.629685546875,0.0,0.0,0.0,0.0,0.0,0.0,-0.11098719595486298,0.0,0.0,0.0,0.0,0.0,0.0,-0.032
207,0.0,0.0,0.0,0.0,0.0,0.0,0.62475390625,0.0,0.0,0.0,0.0,0.0,0.0,-0.11098719595486298,0.0,0.0,0.0,0.0,0.0,0.0,-0.012
208,0.0,0.0,0.0,0.0,0.0,0.0,0.615302734375,0.0,0.0,0.0,0.0,0.0,0.0,-0.11098719595486298,0.0,0.0,0.0,0.0,0.0,0.0,0.044
209,0.0,0.0,0.0,0.0,0.0,0.0,0.602546875,0.0,0.0,0.0,0.0,0.0,0.0,-0.11098719595486298,0.0,0.0,0.0,0.0,0.0,0.0,-0.084
210,0.0,0.0,0.0,0.0,0.0,0.0,0.5856982421875,0.0,0.0,0.0,0.0,0.0,0.0,-0.11098719595486298,0.0,0.0,0.0,0.0,0.0,0.0,-0.168
211,0.0,0.0,0.0,0.0,0.0,0.0,0.56904296875,0.0,0.0,0.0,0.0,0.0,0.0,-0.11098719595486298,0.0,0.0,0.0,0.0,0.0,0.0,-0.088
212,0.0,0.0,0.0,0.0,0.0,0.0,0.5447958984375,0.0,0.0,0.0,0.0,0.0,0.0,-0.11098719595486298,0.0,0.0,0.0,0.0,0.0,0.0,-0.128
213,0.0,0.0,0.0,0.0,0.0,0.0,0.522189453125,0.0,0.0,0.0,0.0,0.0,0.0,-0.11098719595486298,0.0,0.0,0.0,0.0,0.0,0.0,-0.012
214,0.0,0.0,0.0,0.0,0.0,0.0,0.4969091796875,0.0,0.0,0.0,0.0,0.0,0.0,-0.11098719595486298,0.0,0.0,0.0,0.0,0.0,0.0,-0.172
215,0.0,0.0,0.0,0.0,0.0,0.0,0.472869140625,0.0,0.0,0.0,0.0,0.0,0.0,-0.11098719595486298,0.0,0.0,0.0,0.0,0.0,0.0,-0.12
216,0.0,0.0,0.0,0.0,0.0,0.0,0.44758984375,0.0,0.0,0.0,0.0,0.0,0.0,-0.11098719595486298,0.0,0.0,0.0,0.0,0.0,0.0,-0.096
217,0.0,0.0,0.0,0.0,0.0,0.0,0.4241826171875,0.0,0.0,0.0,0.0,0.0,0.0,-0.11098719595486298,0.0,0.0,0.0,0.0,0.0,0.0,-0.156
218,0.0,0.0,0.0,0.0,0.0,0.0,0.40096875,0.0,0.0,0.0,0.0,0.0,0.0,-0.11098719595486298,0.0,0.0,0.0,0.0,0.0,0.0,-0.088
219,0.0,0.0,0.0,0.0,0.0,0.0,0.37939453125,0.0,0.0,0.0,0.0,0.0,0.0,-0.11098719595486298,0.0,0.0,0.0,0.0,0.0,0.0,-0.2
220,0.0,0.0,0.0,0.0,0.0,0.0,0.359265625,0.0,0.0,0.0,0.0,0.0,0.0,-0.11098719595486298,0.0,0.0,0.0,0.0,0.0,0.0,0.032
221,0.0,0.0,0.0,0.0,0.0,0.0,0.341603515625,0.0,0.0,0.0,0.0,0.0,0.0,-0.11098719595486298,0.0,0.0,0.0,0.0,0.0,0.0,-0.104
222,0.0,0.0,0.0,0.0,0.0,0.0,0.32580078125,0.0,0.0,0.0,0.0,0.0,0.0,-0.11098719595486298,0.0,0.0,0.0,0.0,0.0,0.0,-0.312
223,0.0,0.0,0.0,0.0,0.0,0.0,0.31019140625,0.0,0.0,0.0,0.0,0.0,0.0,-0.11098719595486298,0.0,0.0,0.0,0.0,0.0,0.0,-0.064
224,0.0,0.0,0.0,0.0,0.0,0.0,0.2972548828125,0.0,0.0,0.0,0.0,0.0,0.0,-0.11098719595486298,0.0,0.0,0.0,0.0,0.0,0.0,-0.148
225,0.0,0.0,0.0,0.0,0.0,0.0,0.2849248046875,0.0,0.0,0.0,0.0,0.0,0.0,-0.11098719595486298,0.0,0.0,0.0,0.0,0.0,0.0,-0.14
226,0.0,0.0,0.0,0.0,0.0,0.0,0.2748671875,0.0,0.0,0.0,0.0,0.0,0.0,-0.11098719595486298,0.0,0.0,0.0,0.0,0.0,0.0,0.004
227,0.0,0.0,0.0,0.0,0.0,0.0,0.2658291015625,0.0,0.0,0.0,0.0,0.0,0.0,-0.11098719595486298,0.0,0.0,0.0,0.0,0.0,0.0,-0.044
228,0.0,0.0,0.0,0.0,0.0,0.0,0.2573984375,0.0,0.0,0.0,0.0,0.0,0.0,-0.11098719595486298,0.0,0.0,0.0,0.0,0.0,0.0,-0.108
229,0.0,0.0,0.0,0.0,0.0,0.0,0.24898046875,0.0,0.0,0.0,0.0,0.0,0.0,-0.11098719595486298,0.0,0.0,0.0,0.0,0.0,0.0,-0.22
230,0.0,0.0,0.0,0.0,0.0,0.0,0.24076953125,0.0,0.0,0.0,0.0,0.0,0.0,-0.11098719595486298,0.0,0.0,0.0,0.0,0.0,0.0,-0.224
231,0.0,0.0,0.0,0.0,0.0,0.0,0.2323515625,0.0,0.0,0.0,0.0,0.0,0.0,-0.11098719595486298,0.0,0.0,0.0,0.0,0.0,0.0,-0.136
232,0.0,0.0,0.0,0.0,0.0,0.0,0.2237265625,0.0,0.0,0.0,0.0,0.0,0.0,-0.11098719595486298,0.0,0.0,0.0,0.0,0.0,0.0,-0.172
233,0.0,0.0,0.0,0.0,0.0,0.0,0.2144951171875,0.0,0.0,0.0,0.0,0.0,0.0,-0.11098719595486298,0.0,0.0,0.0,0.0,0.0,0.0,-0.12
234,0.0,0.0,0.0,0.0,0.0,0.0,0.20278515625,0.0,0.0,0.0,0.0,0.0,0.0,-0.11098719595486298,0.0,0.0,0.0,0.0,0.0,0.0,-0.188
235,0.0,0.0,0.0,0.0,0.0,0.0,0.1921083984375,0.0,0.0,0.0,0.0,0.0,0.0,-0.11098719595486298,0.0,0.0,0.0,0.0,0.0,0.0,-0.12
236,0.0,0.0,0.0,0.0,0.0,0.0,0.18082421875,0.0,0.0,0.0,0.0,0.0,0.0,-0.11098719595486298,0.0,0.0,0.0,0.0,0.0,0.0,-0.012
237,0.0,0.0,0.0,0.0,0.0,0.0,0.1685068359375,0.0,0.0,0.0,0.0,0.0,0.0,-0.11098719595486298,0.0,0.0,0.0,0.0,0.0,0.0,-0.208
238,0.0,0.0,0.0,0.0,0.0,0.0,0.15434375,0.0,0.0,0.0,0.0,0.0,0.0,-0.11098719595486298,0.0,0.0,0.0,0.0,0.0,0.0,-0.324
239,0.0,0.0,0.0,0.0,0.0,0.0,0.14038671875,0.0,0.0,0.0,0.0,0.0,0.0,-0.11098719595486298,0.0,0.0,0.0,0.0,0.0,0.0,-0.148
240,0.0,0.0,0.0,0.0,0.0,0.0,0.1264169921875,0.0,0.0,0.0,0.0,0.0,0.0,-0.11098719595486298,0.0,0.0,0.0,0.0,0.0,0.0,-0.116
241,0.0,0.0,0.0,0.0,0.0,0.0,0.1085615234375,0.0,0.0,0.0,0.0,0.0,0.0,-0.11098719595486298,0.0,0.0,0.0,0.0,0.0,0.0,-0.252
242,0.0,0.0,0.0,0.0,0.0,0.0,0.095224609375,0.0,0.0,0.0,0.0,0.0,0.0,-0.11098719595486298,0.0,0.0,0.0,0.0,0.0,0.0,-0.052
243,0.0,0.0,0.0,0.0,0.0,0.0,0.078388671875,0.0,0.0,0.0,0.0,0.0,0.0,-0.11098719595486298,0.0,0.0,0.0,0.0,0.0,0.0,-0.2
244,0.0,0.0,0.0,0.0,0.0,0.0,0.063412109375,0.0,0.0,0.0,0.0,0.0,0.0,-0.11098719595486298,0.0,0.0,0.0,0.0,0.0,0.0,-0.276
245,0.0,0.0,0.0,0.0,0.0,0.0,0.0471826171875,0.0,0.0,0.0,0.0,0.0,0.0,-0.11098719595486298,0.0,0.0,0.0,0.0,0.0,0.0,-0.064
246,0.0,0.0,0.0,0.0,0.0,0.0,0.03301953125,0.0,0.0,0.0,0.0,0.0,0.0,-0.11098719595486298,0.0,0.0,0.0,0.0,0.0,0.0,-0.212
247,0.0,0.0,0.0,0.0,0.0,0.0,0.017009765625,0.0,0.0,0.0,0.0,0.0,0.0,-0.11098719595486298,0.0,0.0,0.0,0.0,0.0,0.0,-0.052
248,0.0,0.0,0.0,0.0,0.0,0.0,0.0016201171875,0.0,0.0,0.0,0.0,0.0,0.0,-0.11098719595486298,0.0,0.0,0.0,0.0,0.0,0.0,-0.084
249,0.0,0.0,0.0,0.0,0.0,0.0,-0.0115234375,0.0,0.0,0.0,0.0,0.0,0.0,-0.11098719595486298,0.0,0.0,0.0,0.0,0.0,0.0,-0.24
250,0.0,0.0,0.0,0.0,0.0,0.0,-0.02670703125,0.0,0.0,0.0,0.0,0.0,0.0,-0.11098719595486298,0.0,0.0,0.0,0.0,0.0,0.0,-0.12
251,0.0,0.0,0.0,0.0,0.0,0.0,-0.0414892578125,0.0,0.0,0.0,0.0,0.0,0.0,-0.11098719595486298,0.0,0.0,0.0,0.0,0.0,0.0,-0.14
252,0.0,0.0,0.0,0.0,0.0,0.0,-0.053806640625,0.0,0.0,0.0,0.0,0.0,0.0,-0.11098719595486298,0.0,0.0,0.0,0.0,0.0,0.0,-0.12
253,0.0,0.0,0.0,0.0,0.0,0.0,-0.06795703125,0.0,0.0,0.0,0.0,0.0,0.0,-0.11098719595486298,0.0,0.0,0.0,0.0,0.0,0.0,-0.032
254,0.0,0.0,0.0,0.0,0.0,0.0,-0.0806875,0.0,0.0,0.0,0.0,0.0,0.0,0.7900898308368353,0.0,0.0,0.0,0.0,0.0,0.0,-0.052
255,0.0,0.0,0.0,0.0,0.0,0.0,-0.0932109375,0.0,0.0,0.0,0.0,0.0,0.0,0.7900898308368353,0.0,0.0,0.0,0.0,0.0,0.0,-0.2
256,0.0,0.0,0.0,0.0,0.0,0.0,-0.107787109375,0.0,0.0,0.0,0.0,0.0,0.0,0.7900898308368353,0.0,0.0,0.0,0.0,0.0,0.0,-0.156
257,0.0,0.0,0.0,0.0,0.0,0.0,-0.116205078125,0.0,0.0,0.0,0.0,0.0,0.0,0.7900898308368353,0.0,0.0,0.0,0.0,0.0,0.0,-0.068
258,0.0,0.0,0.0,0.0,0.0,0.0,-0.118890625,0.0,0.0,0.0,0.0,0.0,0.0,0.7900898308368353,0.0,0.0,0.0,0.0,0.0,0.0,-0.064
259,0.0,0.0,0.0,0.0,0.0,0.0,-0.11723828125,0.0,0.0,0.0,0.0,0.0,0.0,0.7900898308368353,0.0,0.0,0.0,0.0,0.0,0.0,0.032
260,0.0,0.0,0.0,0.0,0.0,0.0,-0.1127197265625,0.0,0.0,0.0,0.0,0.0,0.0,0.7900898308368353,0.0,0.0,0.0,0.0,0.0,0.0,0.096
261,0.0,0.0,0.0,0.0,0.0,0.0,-0.1024423828125,0.0,0.0,0.0,0.0,0.0,0.0,0.7900898308368353,0.0,0.0,0.0,0.0,0.0,0.0,0.088
262,0.0,0.0,0.0,0.0,0.0,0.0,-0.0893115234375,0.0,0.0,0.0,0.0,0.0,0.0,0.7900898308368353,0.0,0.0,0.0,0.0,0.0,0.0,0.0
263,0.0,0.0,0.0,0.0,0.0,0.0,-0.074322265625,0.0,0.0,0.0,0.0,0.0,0.0,0.7900898308368353,0.0,0.0,0.0,0.0,0.0,0.0,0.14
264,0.0,0.0,0.0,0.0,0.0,0.0,-0.0570859375,0.0,0.0,0.0,0.0,0.0,0.0,0.7900898308368353,0.0,0.0,0.0,0.0,0.0,0.0,0.2
265,0.0,0.0,0.0,0.0,0.0,0.0,-0.034091796875,0.0,0.0,0.0,0.0,0.0,0.0,0.7900898308368353,0.0,0.0,0.0,0.0,0.0,0.0,0.104
266,0.0,0.0,0.0,0.0,0.0,0.0,-0.0102841796875,0.0,0.0,0.0,0.0,0.0,0.0,0.7900898308368353,0.0,0.0,0.0,0.0,0.0,0.0,0.088
267,0.0,0.0,0.0,0.0,0.0,0.0,0.0133173828125,0.0,0.0,0.0,0.0,0.0,0.0,0.7900898308368353,0.0,0.0,0.0,0.0,0.0,0.0,0.12
268,0.0,0.0,0.0,0.0,0.0,0.0,0.0389716796875,0.0,0.0,0.0,0.0,0.0,0.0,0.7900898308368353,0.0,0.0,0.0,0.0,0.0,0.0,0.004
269,0.0,0.0,0.0,0.0,0.0,0.0,0.062779296875,0.0,0.0,0.0,0.0,0.0,0.0,0.7900898308368353,0.0,0.0,0.0,0.0,0.0,0.0,0.156
270,0.0,0.0,0.0,0.0,0.0,0.0,0.0876328125,0.0,0.0,0.0,0.0,0.0,0.0,0.7900898308368353,0.0,0.0,0.0,0.0,0.0,0.0,-0.108
271,0.0,0.0,0.0,0.0,0.0,0.0,0.110201171875,0.0,0.0,0.0,0.0,0.0,0.0,0.7900898308368353,0.0,0.0,0.0,0.0,0.0,0.0,0.212
272,0.0,0.0,0.0,0.0,0.0,0.0,0.1329892578125,0.0,0.0,0.0,0.0,0.0,0.0,0.7900898308368353,0.0,0.0,0.0,0.0,0.0,0.0,0.032
273,0.0,0.0,0.0,0.0,0.0,0.0,0.1527041015625,0.0,0.0,0.0,0.0,0.0,0.0,0.7900898308368353,0.0,0.0,0.0,0.0,0.0,0.0,0.108
274,0.0,0.0,0.0,0.0,0.0,0.0,0.1717861328125,0.0,0.0,0.0,0.0,0.0,0.0,0.7900898308368353,0.0,0.0,0.0,0.0,0.0,0.0,-0.14
275,0.0,0.0,0.0,0.0,0.0,0.0,0.1884150390625,0.0,0.0,0.0,0.0,0.0,0.0,0.7900898308368353,0.0,0.0,0.0,0.0,0.0,0.0,0.312
276,0.0,0.0,0.0,0.0,0.0,0.0,0.2040244140625,0.0,0.0,0.0,0.0,0.0,0.0,0.7900898308368353,0.0,0.0,0.0,0.0,0.0,0.0,0.044
277,0.0,0.0,0.0,0.0,0.0,0.0,0.217568359375,0.0,0.0,0.0,0.0,0.0,0.0,0.7900898308368353,0.0,0.0,0.0,0.0,0.0,0.0,-0.032
278,0.0,0.0,0.0,0.0,0.0,0.0,0.229072265625,0.0,0.0,0.0,0.0,0.0,0.0,0.7900898308368353,0.0,0.0,0.0,0.0,0.0,0.0,0.156
279,0.0,0.0,0.0,0.0,0.0,0.0,0.2393359375,0.0,0.0,0.0,0.0,0.0,0.0,0.7900898308368353,0.0,0.0,0.0,0.0,0.0,0.0,0.016
280,0.0,0.0,0.0,0.0,0.0,0.0,0.2496005859375,0.0,0.0,0.0,0.0,0.0,0.0,0.7900898308368353,0.0,0.0,0.0,0.0,0.0,0.0,-0.024
281,0.0,0.0,0.0,0.0,0.0,0.0,0.2586376953125,0.0,0.0,0.0,0.0,0.0,0.0,0.7900898308368353,0.0,0.0,0.0,0.0,0.0,0.0,0.044
282,0.0,0.0,0.0,0.0,0.0,0.0,0.2668623046875,0.0,0.0,0.0,0.0,0.0,0.0,0.7900898308368353,0.0,0.0,0.0,0.0,0.0,0.0,0.12
283,0.0,0.0,0.0,0.0,0.0,0.0,0.27466015625,0.0,0.0,0.0,0.0,0.0,0.0,0.7900898308368353,0.0,0.0,0.0,0.0,0.0,0.0,0.188
284,0.0,0.0,0.0,0.0,0.0,0.0,0.283078125,0.0,0.0,0.0,0.0,0.0,0.0,0.7900898308368353,0.0,0.0,0.0,0.0,0.0,0.0,0.136
285,0.0,0.0,0.0,0.0,0.0,0.0,0.292736328125,0.0,0.0,0.0,0.0,0.0,0.0,0.7900898308368353,0.0,0.0,0.0,0.0,0.0,0.0,0.056
286,0.0,0.0,0.0,0.0,0.0,0.0,0.302173828125,0.0,0.0,0.0,0.0,0.0,0.0,0.7900898308368353,0.0,0.0,0.0,0.0,0.0,0.0,0.0
287,0.0,0.0,0.0,0.0,0.0,0.0,0.3120380859375,0.0,0.0,0.0,0.0,0.0,0.0,0.7900898308368353,0.0,0.0,0.0,0.0,0.0,0.0,0.156
288,0.0,0.0,0.0,0.0,0.0,0.0,0.3225087890625,0.0,0.0,0.0,0.0,0.0,0.0,0.7900898308368353,0.0,0.0,0.0,0.0,0.0,0.0,0.116
289,0.0,0.0,0.0,0.0,0.0,0.0,0.3350322265625,0.0,0.0,0.0,0.0,0.0,0.0,0.7900898308368353,0.0,0.0,0.0,0.0,0.0,0.0,-0.012
290,0.0,0.0,0.0,0.0,0.0,0.0,0.34796875,0.0,0.0,0.0,0.0,0.0,0.0,0.7900898308368353,0.0,0.0,0.0,0.0,0.0,0.0,0.116
291,0.0,0.0,0.0,0.0,0.0,0.0,0.3607119140625,0.0,0.0,0.0,0.0,0.0,0.0,0.7900898308368353,0.0,0.0,0.0,0.0,0.0,0.0,0.212
292,0.0,0.0,0.0,0.0,0.0,0.0,0.3746689453125,0.0,0.0,0.0,0.0,0.0,0.0,0.7900898308368353,0.0,0.0,0.0,0.0,0.0,0.0,0.116
293,0.0,0.0,0.0,0.0,0.0,0.0,0.3898779296875,0.0,0.0,0.0,0.0,0.0,0.0,0.7900898308368353,0.0,0.0,0.0,0.0,0.0,0.0,0.032
294,0.0,0.0,0.0,0.0,0.0,0.0,0.4044541015625,0.0,0.0,0.0,0.0,0.0,0.0,0.7900898308368353,0.0,0.0,0.0,0.0,0.0,0.0,0.156
295,0.0,0.0,0.0,0.0,0.0,0.0,0.4202705078125,0.0,0.0,0.0,0.0,0.0,0.0,0.7900898308368353,0.0,0.0,0.0,0.0,0.0,0.0,-0.016
296,0.0,0.0,0.0,0.0,0.0,0.0,0.4360859375,0.0,0.0,0.0,0.0,0.0,0.0,0.7900898308368353,0.0,0.0,0.0,0.0,0.0,0.0,0.016
297,0.0,0.0,0.0,0.0,0.0,0.0,0.4510888671875,0.0,0.0,0.0,0.0,0.0,0.0,0.7900898308368353,0.0,0.0,0.0,0.0,0.0,0.0,0.296
298,0.0,0.0,0.0,0.0,0.0,0.0,0.467111328125,0.0,0.0,0.0,0.0,0.0,0.0,0.7900898308368353,0.0,0.0,0.0,0.0,0.0,0.0,0.044
299,0.0,0.0,0.0,0.0,0.0,0.0,0.4827333984375,0.0,0.0,0.0,0.0,0.0,0.0,0.7900898308368353,0.0,0.0,0.0,0.0,0.0,0.0,0.084
300,0.0,0.0,0.0,0.0,0.0,0.0,0.4975166015625,0.0,0.0,0.0,0.0,0.0,0.0,0.7900898308368353,0.0,0.0,0.0,0.0,0.0,0.0,0.12
301,0.0,0.0,0.0,0.0,0.0,0.0,0.513138671875,0.0,0.0,0.0,0.0,0.0,0.0,0.7900898308368353,0.0,0.0,0.0,0.0,0.0,0.0,-0.024
302,0.0,0.0,0.0,0.0,0.0,0.0,0.527947265625,0.0,0.0,0.0,0.0,0.0,0.0,0.7900898308368353,0.0,0.0,0.0,0.0,0.0,0.0,0.16
303,0.0,0.0,0.0,0.0,0.0,0.0,0.5417109375,0.0,0.0,0.0,0.0,0.0,0.0,0.7900898308368353,0.0,0.0,0.0,0.0,0.0,0.0,0.172
304,0.0,0.0,0.0,0.0,0.0,0.0,0.5565068359375,0.0,0.0,0.0,0.0,0.0,0.0,0.7900898308368353,0.0,0.0,0.0,0.0,0.0,0.0,0.084
305,0.0,0.0,0.0,0.0,0.0,0.0,0.5702822265625,0.0,0.0,0.0,0.0,0.0,0.0,0.7900898308368353,0.0,0.0,0.0,0.0,0.0,0.0,0.156
306,0.0,0.0,0.0,0.0,0.0,0.0,0.583025390625,0.0,0.0,0.0,0.0,0.0,0.0,0.7900898308368353,0.0,0.0,0.0,0.0,0.0,0.0,0.104
307,0.0,0.0,0.0,0.0,0.0,0.0,0.5965947265625,0.0,0.0,0.0,0.0,0.0,0.0,0.7900898308368353,0.0,0.0,0.0,0.0,0.0,0.0,0.036
308,0.0,0.0,0.0,0.0,0.0,0.0,0.6101640625,0.0,0.0,0.0,0.0,0.0,0.0,0.7900898308368353,0.0,0.0,0.0,0.0,0.0,0.0,0.172
309,0.0,0.0,0.0,0.0,0.0,0.0,0.6222880859375,0.0,0.0,0.0,0.0,0.0,0.0,0.7900898308368353,0.0,0.0,0.0,0.0,0.0,0.0,0.292
310,0.0,0.0,0.0,0.0,0.0,0.0,0.63482421875,0.0,0.0,0.0,0.0,0.0,0.0,0.7900898308368353,0.0,0.0,0.0,0.0,0.0,0.0,0.116
311,0.0,0.0,0.0,0.0,0.0,0.0,0.64798046875,0.0,0.0,0.0,0.0,0.0,0.0,0.7900898308368353,0.0,0.0,0.0,0.0,0.0,0.0,0.104
312,0.0,0.0,0.0,0.0,0.0,0.0,0.6603232421875,0.0,0.0,0.0,0.0,0.0,0.0,0.7900898308368353,0.0,0.0,0.0,0.0,0.0,0.0,0.148
313,0.0,0.0,0.0,0.0,0.0,0.0,0.6726533203125,0.0,0.0,0.0,0.0,0.0,0.0,0.7900898308368353,0.0,0.0,0.0,0.0,0.0,0.0,0.12
314,0.0,0.0,0.0,0.0,0.0,0.0,0.685822265625,0.0,0.0,0.0,0.0,0.0,0.0,0.7900898308368353,0.0,0.0,0.0,0.0,0.0,0.0,0.12
315,0.0,0.0,0.0,0.0,0.0,0.0,0.698978515625,0.0,0.0,0.0,0.0,0.0,0.0,0.7900898308368353,0.0,0.0,0.0,0.0,0.0,0.0,0.208
316,0.0,0.0,0.0,0.0,0.0,0.0,0.7113212890625,0.0,0.0,0.0,0.0,0.0,0.0,0.7900898308368353,0.0,0.0,0.0,0.0,0.0,0.0,0.276
317,0.0,0.0,0.0,0.0,0.0,0.0,0.7244775390625,0.0,0.0,0.0,0.0,0.0,0.0,0.7900898308368353,0.0,0.0,0.0,0.0,0.0,0.0,0.12
318,0.0,0.0,0.0,0.0,0.0,0.0,0.7382666015625,0.0,0.0,0.0,0.0,0.0,0.0,0.7900898308368353,0.0,0.0,0.0,0.0,0.0,0.0,0.14
319,0.0,0.0,0.0,0.0,0.0,0.0,0.7516298828125,0.0,0.0,0.0,0.0,0.0,0.0,0.7900898308368353,0.0,0.0,0.0,0.0,0.0,0.0,0.212
320,0.0,0.0,0.0,0.0,0.0,0.0,0.7650048828125,0.0,0.0,0.0,0.0,0.0,0.0,-0.8146421956809033,0.0,0.0,0.0,0.0,0.0,0.0,0.116
321,0.0,0.0,0.0,0.0,0.0,0.0,0.7791943359375,0.0,0.0,0.0,0.0,0.0,0.0,-0.8146421956809033,0.0,0.0,0.0,0.0,0.0,0.0,0.076
322,0.0,0.0,0.0,0.0,0.0,0.0,0.7915498046875,0.0,0.0,0.0,0.0,0.0,0.0,-0.8146421956809033,0.0,0.0,0.0,0.0,0.0,0.0,0.232
323,0.0,0.0,0.0,0.0,0.0,0.0,0.7997744140625,0.0,0.0,0.0,0.0,0.0,0.0,-0.8146421956809033,0.0,0.0,0.0,0.0,0.0,0.0,0.244
324,0.0,0.0,0.0,0.0,0.0,0.0,0.8020341796875,0.0,0.0,0.0,0.0,0.0,0.0,-0.8146421956809033,0.0,0.0,0.0,0.0,0.0,0.0,0.156
325,0.0,0.0,0.0,0.0,0.0,0.0,0.8001875,0.0,0.0,0.0,0.0,0.0,0.0,-0.8146421956809033,0.0,0.0,0.0,0.0,0.0,0.0,0.024
326,0.0,0.0,0.0,0.0,0.0,0.0,0.7946357421875,0.0,0.0,0.0,0.0,0.0,0.0,-0.8146421956809033,0.0,0.0,0.0,0.0,0.0,0.0,0.068
327,0.0,0.0,0.0,0.0,0.0,0.0,0.785779296875,0.0,0.0,0.0,0.0,0.0,0.0,-0.8146421956809033,0.0,0.0,0.0,0.0,0.0,0.0,0.096
328,0.0,0.0,0.0,0.0,0.0,0.0,0.772416015625,0.0,0.0,0.0,0.0,0.0,0.0,-0.8146421956809033,0.0,0.0,0.0,0.0,0.0,0.0,-0.052
329,0.0,0.0,0.0,0.0,0.0,0.0,0.755748046875,0.0,0.0,0.0,0.0,0.0,0.0,-0.8146421956809033,0.0,0.0,0.0,0.0,0.0,0.0,-0.128
330,0.0,0.0,0.0,0.0,0.0,0.0,0.7368203125,0.0,0.0,0.0,0.0,0.0,0.0,-0.8146421956809033,0.0,0.0,0.0,0.0,0.0,0.0,-0.084
331,0.0,0.0,0.0,0.0,0.0,0.0,0.7146142578125,0.0,0.0,0.0,0.0,0.0,0.0,-0.8146421956809033,0.0,0.0,0.0,0.0,0.0,0.0,-0.016
332,0.0,0.0,0.0,0.0,0.0,0.0,0.691994140625,0.0,0.0,0.0,0.0,0.0,0.0,-0.8146421956809033,0.0,0.0,0.0,0.0,0.0,0.0,-0.036
333,0.0,0.0,0.0,0.0,0.0,0.0,0.666908203125,0.0,0.0,0.0,0.0,0.0,0.0,-0.8146421956809033,0.0,0.0,0.0,0.0,0.0,0.0,-0.168
334,0.0,0.0,0.0,0.0,0.0,0.0,0.6422353515625,0.0,0.0,0.0,0.0,0.0,0.0,-0.8146421956809033,0.0,0.0,0.0,0.0,0.0,0.0,-0.084
335,0.0,0.0,0.0,0.0,0.0,0.0,0.6177685546875,0.0,0.0,0.0,0.0,0.0,0.0,-0.8146421956809033,0.0,0.0,0.0,0.0,0.0,0.0,0.044
336,0.0,0.0,0.0,0.0,0.0,0.0,0.593302734375,0.0,0.0,0.0,0.0,0.0,0.0,-0.8146421956809033,0.0,0.0,0.0,0.0,0.0,0.0,-0.172
337,0.0,0.0,0.0,0.0,0.0,0.0,0.57090234375,0.0,0.0,0.0,0.0,0.0,0.0,-0.8146421956809033,0.0,0.0,0.0,0.0,0.0,0.0,0.0
338,0.0,0.0,0.0,0.0,0.0,0.0,0.5487080078125,0.0,0.0,0.0,0.0,0.0,0.0,-0.8146421956809033,0.0,0.0,0.0,0.0,0.0,0.0,-0.088
339,0.0,0.0,0.0,0.0,0.0,0.0,0.529173828125,0.0,0.0,0.0,0.0,0.0,0.0,-0.8146421956809033,0.0,0.0,0.0,0.0,0.0,0.0,0.068
340,0.0,0.0,0.0,0.0,0.0,0.0,0.5106728515625,0.0,0.0,0.0,0.0,0.0,0.0,-0.8146421956809033,0.0,0.0,0.0,0.0,0.0,0.0,-0.148
341,0.0,0.0,0.0,0.0,0.0,0.0,0.4940302734375,0.0,0.0,0.0,0.0,0.0,0.0,-0.8146421956809033,0.0,0.0,0.0,0.0,0.0,0.0,-0.104
342,0.0,0.0,0.0,0.0,0.0,0.0,0.480060546875,0.0,0.0,0.0,0.0,0.0,0.0,-0.8146421956809033,0.0,0.0,0.0,0.0,0.0,0.0,-0.032
343,0.0,0.0,0.0,0.0,0.0,0.0,0.4666982421875,0.0,0.0,0.0,0.0,0.0,0.0,-0.8146421956809033,0.0,0.0,0.0,0.0,0.0,0.0,-0.104
344,0.0,0.0,0.0,0.0,0.0,0.0,0.45478125,0.0,0.0,0.0,0.0,0.0,0.0,-0.8146421956809033,0.0,0.0,0.0,0.0,0.0,0.0,-0.108
345,0.0,0.0,0.0,0.0,0.0,0.0,0.4449296875,0.0,0.0,0.0,0.0,0.0,0.0,-0.8146421956809033,0.0,0.0,0.0,0.0,0.0,0.0,0.032
346,0.0,0.0,0.0,0.0,0.0,0.0,0.4360859375,0.0,0.0,0.0,0.0,0.0,0.0,-0.8146421956809033,0.0,0.0,0.0,0.0,0.0,0.0,-0.064
347,0.0,0.0,0.0,0.0,0.0,0.0,0.4272548828125,0.0,0.0,0.0,0.0,0.0,0.0,-0.8146421956809033,0.0,0.0,0.0,0.0,0.0,0.0,-0.108
348,0.0,0.0,0.0,0.0,0.0,0.0,0.418630859375,0.0,0.0,0.0,0.0,0.0,0.0,-0.8146421956809033,0.0,0.0,0.0,0.0,0.0,0.0,-0.148
349,0.0,0.0,0.0,0.0,0.0,0.0,0.4097998046875,0.0,0.0,0.0,0.0,0.0,0.0,-0.8146421956809033,0.0,0.0,0.0,0.0,0.0,0.0,-0.172
350,0.0,0.0,0.0,0.0,0.0,0.0,0.4015751953125,0.0,0.0,0.0,0.0,0.0,0.0,-0.8146421956809033,0.0,0.0,0.0,0.0,0.0,0.0,-0.172
351,0.0,0.0,0.0,0.0,0.0,0.0,0.3929501953125,0.0,0.0,0.0,0.0,0.0,0.0,-0.8146421956809033,0.0,0.0,0.0,0.0,0.0,0.0,-0.084
352,0.0,0.0,0.0,0.0,0.0,0.0,0.383099609375,0.0,0.0,0.0,0.0,0.0,0.0,-0.8146421956809033,0.0,0.0,0.0,0.0,0.0,0.0,-0.148
353,0.0,0.0,0.0,0.0,0.0,0.0,0.372203125,0.0,0.0,0.0,0.0,0.0,0.0,-0.8146421956809033,0.0,0.0,0.0,0.0,0.0,0.0,-0.16
354,0.0,0.0,0.0,0.0,0.0,0.0,0.3609189453125,0.0,0.0,0.0,0.0,0.0,0.0,-0.8146421956809033,0.0,0.0,0.0,0.0,0.0,0.0,0.012
355,0.0,0.0,0.0,0.0,0.0,0.0,0.34962109375,0.0,0.0,0.0,0.0,0.0,0.0,-0.8146421956809033,0.0,0.0,0.0,0.0,0.0,0.0,-0.016
356,0.0,0.0,0.0,0.0,0.0,0.0,0.3366845703125,0.0,0.0,0.0,0.0,0.0,0.0,-0.8146421956809033,0.0,0.0,0.0,0.0,0.0,0.0,-0.22
357,0.0,0.0,0.0,0.0,0.0,0.0,0.3223017578125,0.0,0.0,0.0,0.0,0.0,0.0,-0.8146421956809033,0.0,0.0,0.0,0.0,0.0,0.0,-0.188
358,0.0,0.0,0.0,0.0,0.0,0.0,0.3087451171875,0.0,0.0,0.0,0.0,0.0,0.0,-0.8146421956809033,0.0,0.0,0.0,0.0,0.0,0.0,-0.136
359,0.0,0.0,0.0,0.0,0.0,0.0,0.293962890625,0.0,0.0,0.0,0.0,0.0,0.0,-0.8146421956809033,0.0,0.0,0.0,0.0,0.0,0.0,-0.18
360,0.0,0.0,0.0,0.0,0.0,0.0,0.278353515625,0.0,0.0,0.0,0.0,0.0,0.0,-0.8146421956809033,0.0,0.0,0.0,0.0,0.0,0.0,-0.068
361,0.0,0.0,0.0,0.0,0.0,0.0,0.2635576171875,0.0,0.0,0.0,0.0,0.0,0.0,-0.8146421956809033,0.0,0.0,0.0,0.0,0.0,0.0,-0.044
362,0.0,0.0,0.0,0.0,0.0,0.0,0.2479609375,0.0,0.0,0.0,0.0,0.0,0.0,-0.8146421956809033,0.0,0.0,0.0,0.0,0.0,0.0,-0.2
363,0.0,0.0,0.0,0.0,0.0,0.0,0.2317314453125,0.0,0.0,0.0,0.0,0.0,0.0,-0.8146421956809033,0.0,0.0,0.0,0.0,0.0,0.0,-0.076
364,0.0,0.0,0.0,0.0,0.0,0.0,0.2167548828125,0.0,0.0,0.0,0.0,0.0,0.0,-0.8146421956809033,0.0,0.0,0.0,0.0,0.0,0.0,-0.14
365,0.0,0.0,0.0,0.0,0.0,0.0,0.200939453125,0.0,0.0,0.0,0.0,0.0,0.0,-0.8146421956809033,0.0,0.0,0.0,0.0,0.0,0.0,-0.128
366,0.0,0.0,0.0,0.0,0.0,0.0,0.185548828125,0.0,0.0,0.0,0.0,0.0,0.0,-0.8146421956809033,0.0,0.0,0.0,0.0,0.0,0.0,-0.024
367,0.0,0.0,0.0,0.0,0.0,0.0,0.1711796875,0.0,0.0,0.0,0.0,0.0,0.0,-0.8146421956809033,0.0,0.0,0.0,0.0,0.0,0.0,-0.108
368,0.0,0.0,0.0,0.0,0.0,0.0,0.1559833984375,0.0,0.0,0.0,0.0,0.0,0.0,-0.8146421956809033,0.0,0.0,0.0,0.0,0.0,0.0,-0.26
369,0.0,0.0,0.0,0.0,0.0,0.0,0.1414072265625,0.0,0.0,0.0,0.0,0.0,0.0,-0.8146421956809033,0.0,0.0,0.0,0.0,0.0,0.0,-0.2
370,0.0,0.0,0.0,0.0,0.0,0.0,0.1284697265625,0.0,0.0,0.0,0.0,0.0,0.0,-0.8146421956809033,0.0,0.0,0.0,0.0,0.0,0.0,-0.088
371,0.0,0.0,0.0,0.0,0.0,0.0,0.11411328125,0.0,0.0,0.0,0.0,0.0,0.0,-0.8146421956809033,0.0,0.0,0.0,0.0,0.0,0.0,-0.22
372,0.0,0.0,0.0,0.0,0.0,0.0,0.100349609375,0.0,0.0,0.0,0.0,0.0,0.0,-0.8146421956809033,0.0,0.0,0.0,0.0,0.0,0.0,-0.064
373,0.0,0.0,0.0,0.0,0.0,0.0,0.088033203125,0.0,0.0,0.0,0.0,0.0,0.0,-0.8146421956809033,0.0,0.0,0.0,0.0,0.0,0.0,-0.044
374,0.0,0.0,0.0,0.0,0.0,0.0,0.075109375,0.0,0.0,0.0,0.0,0.0,0.0,-0.8146421956809033,0.0,0.0,0.0,0.0,0.0,0.0,-0.2
375,0.0,0.0,0.0,0.0,0.0,0.0,0.061345703125,0.0,0.0,0.0,0.0,0.0,0.0,-0.8146421956809033,0.0,0.0,0.0,0.0,0.0,0.0,-0.208
376,0.0,0.0,0.0,0.0,0.0,0.0,0.0492353515625,0.0,0.0,0.0,0.0,0.0,0.0,-0.8146421956809033,0.0,0.0,0.0,0.0,0.0,0.0,-0.108
377,0.0,0.0,0.0,0.0,0.0,0.0,0.0369189453125,0.0,0.0,0.0,0.0,0.0,0.0,-0.8146421956809033,0.0,0.0,0.0,0.0,0.0,0.0,-0.212
378,0.0,0.0,0.0,0.0,0.0,0.0,0.0235810546875,0.0,0.0,0.0,0.0,0.0,0.0,-0.8146421956809033,0.0,0.0,0.0,0.0,0.0,0.0,-0.18
379,0.0,0.0,0.0,0.0,0.0,0.0,0.0110576171875,0.0,0.0,0.0,0.0,0.0,0.0,-0.8146421956809033,0.0,0.0,0.0,0.0,0.0,0.0,-0.064
380,0.0,0.0,0.0,0.0,0.0,0.0,-0.001052734375,0.0,0.0,0.0,0.0,0.0,0.0,-0.8146421956809033,0.0,0.0,0.0,0.0,0.0,0.0,-0.12
381,0.0,0.0,0.0,0.0,0.0,0.0,-0.0141962890625,0.0,0.0,0.0,0.0,0.0,0.0,-0.8146421956809033,0.0,0.0,0.0,0.0,0.0,0.0,-0.276
382,0.0,0.0,0.0,0.0,0.0,0.0,-0.0279462890625,0.0,0.0,0.0,0.0,0.0,0.0,-0.8146421956809033,0.0,0.0,0.0,0.0,0.0,0.0,-0.128
383,0.0,0.0,0.0,0.0,0.0,0.0,-0.04045703125,0.0,0.0,0.0,0.0,0.0,0.0,-0.8146421956809033,0.0,0.0,0.0,0.0,0.0,0.0,-0.188
384,0.0,0.0,0.0,0.0,0.0,0.0,-0.053806640625,0.0,0.0,0.0,0.0,0.0,0.0,-0.8146421956809033,0.0,0.0,0.0,0.0,0.0,0.0,-0.148
385,0.0,0.0,0.0,0.0,0.0,0.0,-0.0681640625,0.0,0.0,0.0,0.0,0.0,0.0,-0.8146421956809033,0.0,0.0,0.0,0.0,0.0,0.0,-0.084
386,0.0,0.0,0.0,0.0,0.0,0.0,-0.081306640625,0.0,0.0,0.0,0.0,0.0,0.0,-0.8146421956809033,0.0,0.0,0.0,0.0,0.0,0.0,-0.076
387,0.0,0.0,0.0,0.0,0.0,0.0,-0.0946435546875,0.0,0.0,0.0,0.0,0.0,0.0,-0.8146421956809033,0.0,0.0,0.0,0.0,0.0,0.0,-0.208
388,0.0,0.0,0.0,0.0,0.0,0.0,-0.1092333984375,0.0,0.0,0.0,0.0,0.0,0.0,-0.8146421956809033,0.0,0.0,0.0,0.0,0.0,0.0,-0.172
389,0.0,0.0,0.0,0.0,0.0,0.0,-0.1227900390625,0.0,0.0,0.0,0.0,0.0,0.0,-0.8146421956809033,0.0,0.0,0.0,0.0,0.0,0.0,-0.108
390,0.0,0.0,0.0,0.0,0.0,0.0,-0.1363330078125,0.0,0.0,0.0,0.0,0.0,0.0,-0.8146421956809033,0.0,0.0,0.0,0.0,0.0,0.0,-0.224
391,0.0,0.0,0.0,0.0,0.0,0.0,-0.151310546875,0.0,0.0,0.0,0.0,0.0,0.0,-0.8146421956809033,0.0,0.0,0.0,0.0,0.0,0.0,-0.156
392,0.0,0.0,0.0,0.0,0.0,0.0,-0.1648662109375,0.0,0.0,0.0,0.0,0.0,0.0,-0.8146421956809033,0.0,0.0,0.0,0.0,0.0,0.0,0.016
393,0.0,0.0,0.0,0.0,0.0,0.0,-0.1779970703125,0.0,0.0,0.0,0.0,0.0,0.0,-0.8146421956809033,0.0,0.0,0.0,0.0,0.0,0.0,-0.22
394,0.0,0.0,0.0,0.0,0.0,0.0,-0.1927666015625,0.0,0.0,0.0,0.0,0.0,0.0,-0.8146421956809033,0.0,0.0,0.0,0.0,0.0,0.0,-0.24
395,0.0,0.0,0.0,0.0,0.0,0.0,-0.206529296875,0.0,0.0,0.0,0.0,0.0,0.0,-0.8146421956809033,0.0,0.0,0.0,0.0,0.0,0.0,-0.116
396,0.0,0.0,0.0,0.0,0.0,0.0,-0.21966015625,0.0,0.0,0.0,0.0,0.0,0.0,-0.8146421956809033,0.0,0.0,0.0,0.0,0.0,0.0,-0.156
397,0.0,0.0,0.0,0.0,0.0,0.0,-0.234029296875,0.0,0.0,0.0,0.0,0.0,0.0,-0.8146421956809033,0.0,0.0,0.0,0.0,0.0,0.0,-0.24
398,0.0,0.0,0.0,0.0,0.0,0.0,-0.2481923828125,0.0,0.0,0.0,0.0,0.0,0.0,-0.8146421956809033,0.0,0.0,0.0,0.0,0.0,0.0,-0.036
399,0.0,0.0,0.0,0.0,0.0,0.0,-0.260703125,0.0,0.0,0.0,0.0,0.0,0.0,-0.8146421956809033,0.0,0.0,0.0,0.0,0.0,0.0,-0.096
400,0.0,0.0,0.0,0.0,0.0,0.0,-0.2748671875,0.0,0.0,0.0,0.0,0.0,0.0,-0.8146421956809033,0.0,0.0,0.0,0.0,0.0,0.0,-0.316
401,0.0,0.0,0.0,0.0,0.0,0.0,-0.28904296875,0.0,0.0,0.0,0.0,0.0,0.0,-0.8146421956809033,0.0,0.0,0.0,0.0,0.0,0.0,-0.148
402,0.0,0.0,0.0,0.0,0.0,0.0,-0.3017734375,0.0,0.0,0.0,0.0,0.0,0.0,-0.8146421956809033,0.0,0.0,0.0,0.0,0.0,0.0,-0.156
403,0.0,0.0,0.0,0.0,0.0,0.0,-0.3151103515625,0.0,0.0,0.0,0.0,0.0,0.0,-0.8146421956809033,0.0,0.0,0.0,0.0,0.0,0.0,-0.208
404,0.0,0.0,0.0,0.0,0.0,0.0,-0.3296865234375,0.0,0.0,0.0,0.0,0.0,0.0,-0.8146421956809033,0.0,0.0,0.0,0.0,0.0,0.0,-0.068
405,0.0,0.0,0.0,0.0,0.0,0.0,-0.3424169921875,0.0,0.0,0.0,0.0,0.0,0.0,-0.8146421956809033,0.0,0.0,0.0,0.0,0.0,0.0,-0.148
406,0.0,0.0,0.0,0.0,0.0,0.0,-0.3551474609375,0.0,0.0,0.0,0.0,0.0,0.0,-0.8146421956809033,0.0,0.0,0.0,0.0,0.0,0.0,-0.26
407,0.0,0.0,0.0,0.0,0.0,0.0,-0.3697236328125,0.0,0.0,0.0,0.0,0.0,0.0,-0.8146421956809033,0.0,0.0,0.0,0.0,0.0,0.0,-0.208
408,0.0,0.0,0.0,0.0,0.0,0.0,-0.382853515625,0.0,0.0,0.0,0.0,0.0,0.0,-0.8146421956809033,0.0,0.0,0.0,0.0,0.0,0.0,-0.168
409,0.0,0.0,0.0,0.0,0.0,0.0,-0.395583984375,0.0,0.0,0.0,0.0,0.0,0.0,-0.8146421956809033,0.0,0.0,0.0,0.0,0.0,0.0,-0.208
410,0.0,0.0,0.0,0.0,0.0,0.0,-0.41016015625,0.0,0.0,0.0,0.0,0.0,0.0,-0.8146421956809033,0.0,0.0,0.0,0.0,0.0,0.0,-0.18
411,0.0,0.0,0.0,0.0,0.0,0.0,-0.4235107421875,0.0,0.0,0.0,0.0,0.0,0.0,-0.8146421956809033,0.0,0.0,0.0,0.0,0.0,0.0,-0.052
412,0.0,0.0,0.0,0.0,0.0,0.0,-0.4360341796875,0.0,0.0,0.0,0.0,0.0,0.0,-0.8146421956809033,0.0,0.0,0.0,0.0,0.0,0.0,-0.192
413,0.0,0.0,0.0,0.0,0.0,0.0,-0.450197265625,0.0,0.0,0.0,0.0,0.0,0.0,-0.8146421956809033,0.0,0.0,0.0,0.0,0.0,0.0,-0.312
414,0.0,0.0,0.0,0.0,0.0,0.0,-0.4643603515625,0.0,0.0,0.0,0.0,0.0,0.0,-0.8146421956809033,0.0,0.0,0.0,0.0,0.0,0.0,-0.116
415,0.0,0.0,0.0,0.0,0.0,0.0,-0.4770908203125,0.0,0.0,0.0,0.0,0.0,0.0,-0.8146421956809033,0.0,0.0,0.0,0.0,0.0,0.0,-0.188
416,0.0,0.0,0.0,0.0,0.0,0.0,-0.4908544921875,0.0,0.0,0.0,0.0,0.0,0.0,-0.8146421956809033,0.0,0.0,0.0,0.0,0.0,0.0,-0.22
417,0.0,0.0,0.0,0.0,0.0,0.0,-0.5054306640625,0.0,0.0,0.0,0.0,0.0,0.0,-0.8146421956809033,0.0,0.0,0.0,0.0,0.0,0.0,-0.036
418,0.0,0.0,0.0,0.0,0.0,0.0,-0.5183671875,0.0,0.0,0.0,0.0,0.0,0.0,-0.8146421956809033,0.0,0.0,0.0,0.0,0.0,0.0,-0.172
419,0.0,0.0,0.0,0.0,0.0,0.0,-0.531716796875,0.0,0.0,0.0,0.0,0.0,0.0,-0.8146421956809033,0.0,0.0,0.0,0.0,0.0,0.0,-0.264
420,0.0,0.0,0.0,0.0,0.0,0.0,-0.5465,0.0,0.0,0.0,0.0,0.0,0.0,-0.8146421956809033,0.0,0.0,0.0,0.0,0.0,0.0,-0.18
421,0.0,0.0,0.0,0.0,0.0,0.0,-0.5596435546875,0.0,0.0,0.0,0.0,0.0,0.0,-0.8146421956809033,0.0,0.0,0.0,0.0,0.0,0.0,-0.168
422,0.0,0.0,0.0,0.0,0.0,0.0,-0.572787109375,0.0,0.0,0.0,0.0,0.0,0.0,-0.8146421956809033,0.0,0.0,0.0,0.0,0.0,0.0,-0.244
423,0.0,0.0,0.0,0.0,0.0,0.0,-0.5877890625,0.0,0.0,0.0,0.0,0.0,0.0,-0.8146421956809033,0.0,0.0,0.0,0.0,0.0,0.0,-0.148
424,0.0,0.0,0.0,0.0,0.0,0.0,-0.6007265625,0.0,0.0,0.0,0.0,0.0,0.0,-0.8146421956809033,0.0,0.0,0.0,0.0,0.0,0.0,-0.076
425,0.0,0.0,0.0,0.0,0.0,0.0,-0.6136630859375,0.0,0.0,0.0,0.0,0.0,0.0,-0.8146421956809033,0.0,0.0,0.0,0.0,0.0,0.0,-0.292
426,0.0,0.0,0.0,0.0,0.0,0.0,-0.628265625,0.0,0.0,0.0,0.0,0.0,0.0,-0.8146421956809033,0.0,0.0,0.0,0.0,0.0,0.0,-0.232
427,0.0,0.0,0.0,0.0,0.0,0.0,-0.6418212890625,0.0,0.0,0.0,0.0,0.0,0.0,-0.8146421956809033,0.0,0.0,0.0,0.0,0.0,0.0,-0.12
428,0.0,0.0,0.0,0.0,0.0,0.0,-0.6545517578125,0.0,0.0,0.0,0.0,0.0,0.0,-0.8146421956809033,0.0,0.0,0.0,0.0,0.0,0.0,-0.168
429,0.0,0.0,0.0,0.0,0.0,0.0,-0.6689345703125,0.0,0.0,0.0,0.0,0.0,0.0,-0.8146421956809033,0.0,0.0,0.0,0.0,0.0,0.0,-0.156
430,0.0,0.0,0.0,0.0,0.0,0.0,-0.682904296875,0.0,0.0,0.0,0.0,0.0,0.0,-0.8146421956809033,0.0,0.0,0.0,0.0,0.0,0.0,-0.084
431,0.0,0.0,0.0,0.0,0.0,0.0,-0.6954404296875,0.0,0.0,0.0,0.0,0.0,0.0,-0.8146421956809033,0.0,0.0,0.0,0.0,0.0,0.0,-0.26
432,0.0,0.0,0.0,0.0,0.0,0.0,-0.7092041015625,0.0,0.0,0.0,0.0,0.0,0.0,-0.8146421956809033,0.0,0.0,0.0,0.0,0.0,0.0,-0.292
433,0.0,0.0,0.0,0.0,0.0,0.0,-0.7235869140625,0.0,0.0,0.0,0.0,0.0,0.0,-0.8146421956809033,0.0,0.0,0.0,0.0,0.0,0.0,-0.128
434,0.0,0.0,0.0,0.0,0.0,0.0,-0.7365361328125,0.0,0.0,0.0,0.0,0.0,0.0,-0.8146421956809033,0.0,0.0,0.0,0.0,0.0,0.0,-0.208
435,0.0,0.0,0.0,0.0,0.0,0.0,-0.7498994140625,0.0,0.0,0.0,0.0,0.0,0.0,-0.8146421956809033,0.0,0.0,0.0,0.0,0.0,0.0,-0.292
436,0.0,0.0,0.0,0.0,0.0,0.0,-0.7642822265625,0.0,0.0,0.0,0.0,0.0,0.0,-0.8146421956809033,0.0,0.0,0.0,0.0,0.0,0.0,-0.052
437,0.0,0.0,0.0,0.0,0.0,0.0,-0.7772314453125,0.0,0.0,0.0,0.0,0.0,0.0,-0.8146421956809033,0.0,0.0,0.0,0.0,0.0,0.0,-0.16
438,0.0,0.0,0.0,0.0,0.0,0.0,-0.790400390625,0.0,0.0,0.0,0.0,0.0,0.0,0.76930039491386,0.0,0.0,0.0,0.0,0.0,0.0,-0.368
439,0.0,0.0,0.0,0.0,0.0,0.0,-0.804990234375,0.0,0.0,0.0,0.0,0.0,0.0,0.76930039491386,0.0,0.0,0.0,0.0,0.0,0.0,-0.16
440,0.0,0.0,0.0,0.0,0.0,0.0,-0.8171259765625,0.0,0.0,0.0,0.0,0.0,0.0,0.76930039491386,0.0,0.0,0.0,0.0,0.0,0.0,-0.12
441,0.0,0.0,0.0,0.0,0.0,0.0,-0.8247314453125,0.0,0.0,0.0,0.0,0.0,0.0,0.76930039491386,0.0,0.0,0.0,0.0,0.0,0.0,-0.156
442,0.0,0.0,0.0,0.0,0.0,0.0,-0.826990234375,0.0,0.0,0.0,0.0,0.0,0.0,0.76930039491386,0.0,0.0,0.0,0.0,0.0,0.0,-0.212
443,0.0,0.0,0.0,0.0,0.0,0.0,-0.8249375,0.0,0.0,0.0,0.0,0.0,0.0,0.76930039491386,0.0,0.0,0.0,0.0,0.0,0.0,-0.068
444,0.0,0.0,0.0,0.0,0.0,0.0,-0.819798828125,0.0,0.0,0.0,0.0,0.0,0.0,0.76930039491386,0.0,0.0,0.0,0.0,0.0,0.0,-0.012
445,0.0,0.0,0.0,0.0,0.0,0.0,-0.810748046875,0.0,0.0,0.0,0.0,0.0,0.0,0.76930039491386,0.0,0.0,0.0,0.0,0.0,0.0,0.108
446,0.0,0.0,0.0,0.0,0.0,0.0,-0.7971787109375,0.0,0.0,0.0,0.0,0.0,0.0,0.76930039491386,0.0,0.0,0.0,0.0,0.0,0.0,0.12
447,0.0,0.0,0.0,0.0,0.0,0.0,-0.7805234375,0.0,0.0,0.0,0.0,0.0,0.0,0.76930039491386,0.0,0.0,0.0,0.0,0.0,0.0,-0.088
448,0.0,0.0,0.0,0.0,0.0,0.0,-0.762642578125,0.0,0.0,0.0,0.0,0.0,0.0,0.76930039491386,0.0,0.0,0.0,0.0,0.0,0.0,0.044
449,0.0,0.0,0.0,0.0,0.0,0.0,-0.739208984375,0.0,0.0,0.0,0.0,0.0,0.0,0.76930039491386,0.0,0.0,0.0,0.0,0.0,0.0,0.044
450,0.0,0.0,0.0,0.0,0.0,0.0,-0.7172216796875,0.0,0.0,0.0,0.0,0.0,0.0,0.76930039491386,0.0,0.0,0.0,0.0,0.0,0.0,0.0
451,0.0,0.0,0.0,0.0,0.0,0.0,-0.6921484375,0.0,0.0,0.0,0.0,0.0,0.0,0.76930039491386,0.0,0.0,0.0,0.0,0.0,0.0,-0.14
452,0.0,0.0,0.0,0.0,0.0,0.0,-0.6677080078125,0.0,0.0,0.0,0.0,0.0,0.0,0.76930039491386,0.0,0.0,0.0,0.0,0.0,0.0,0.212
453,0.0,0.0,0.0,0.0,0.0,0.0,-0.6430478515625,0.0,0.0,0.0,0.0,0.0,0.0,0.76930039491386,0.0,0.0,0.0,0.0,0.0,0.0,-0.052
454,0.0,0.0,0.0,0.0,0.0,0.0,-0.618181640625,0.0,0.0,0.0,0.0,0.0,0.0,0.76930039491386,0.0,0.0,0.0,0.0,0.0,0.0,0.128
455,0.0,0.0,0.0,0.0,0.0,0.0,-0.59620703125,0.0,0.0,0.0,0.0,0.0,0.0,0.76930039491386,0.0,0.0,0.0,0.0,0.0,0.0,0.052
456,0.0,0.0,0.0,0.0,0.0,0.0,-0.57361328125,0.0,0.0,0.0,0.0,0.0,0.0,0.76930039491386,0.0,0.0,0.0,0.0,0.0,0.0,0.088
457,0.0,0.0,0.0,0.0,0.0,0.0,-0.5543115234375,0.0,0.0,0.0,0.0,0.0,0.0,0.76930039491386,0.0,0.0,0.0,0.0,0.0,0.0,0.064
458,0.0,0.0,0.0,0.0,0.0,0.0,-0.5356162109375,0.0,0.0,0.0,0.0,0.0,0.0,0.76930039491386,0.0,0.0,0.0,0.0,0.0,0.0,0.076
459,0.0,0.0,0.0,0.0,0.0,0.0,-0.519193359375,0.0,0.0,0.0,0.0,0.0,0.0,0.76930039491386,0.0,0.0,0.0,0.0,0.0,0.0,-0.108
460,0.0,0.0,0.0,0.0,0.0,0.0,-0.5054306640625,0.0,0.0,0.0,0.0,0.0,0.0,0.76930039491386,0.0,0.0,0.0,0.0,0.0,0.0,0.128
461,0.0,0.0,0.0,0.0,0.0,0.0,-0.4916669921875,0.0,0.0,0.0,0.0,0.0,0.0,0.76930039491386,0.0,0.0,0.0,0.0,0.0,0.0,0.068
462,0.0,0.0,0.0,0.0,0.0,0.0,-0.479556640625,0.0,0.0,0.0,0.0,0.0,0.0,0.76930039491386,0.0,0.0,0.0,0.0,0.0,0.0,-0.004
463,0.0,0.0,0.0,0.0,0.0,0.0,-0.469912109375,0.0,0.0,0.0,0.0,0.0,0.0,0.76930039491386,0.0,0.0,0.0,0.0,0.0,0.0,0.016
464,0.0,0.0,0.0,0.0,0.0,0.0,-0.4610810546875,0.0,0.0,0.0,0.0,0.0,0.0,0.76930039491386,0.0,0.0,0.0,0.0,0.0,0.0,0.076
465,0.0,0.0,0.0,0.0,0.0,0.0,-0.4520439453125,0.0,0.0,0.0,0.0,0.0,0.0,0.76930039491386,0.0,0.0,0.0,0.0,0.0,0.0,0.052
466,0.0,0.0,0.0,0.0,0.0,0.0,-0.443005859375,0.0,0.0,0.0,0.0,0.0,0.0,0.76930039491386,0.0,0.0,0.0,0.0,0.0,0.0,-0.076
467,0.0,0.0,0.0,0.0,0.0,0.0,-0.434794921875,0.0,0.0,0.0,0.0,0.0,0.0,0.76930039491386,0.0,0.0,0.0,0.0,0.0,0.0,0.024
468,0.0,0.0,0.0,0.0,0.0,0.0,-0.4267900390625,0.0,0.0,0.0,0.0,0.0,0.0,0.76930039491386,0.0,0.0,0.0,0.0,0.0,0.0,0.064
469,0.0,0.0,0.0,0.0,0.0,0.0,-0.4183720703125,0.0,0.0,0.0,0.0,0.0,0.0,0.76930039491386,0.0,0.0,0.0,0.0,0.0,0.0,0.14
470,0.0,0.0,0.0,0.0,0.0,0.0,-0.408107421875,0.0,0.0,0.0,0.0,0.0,0.0,0.76930039491386,0.0,0.0,0.0,0.0,0.0,0.0,0.108
471,0.0,0.0,0.0,0.0,0.0,0.0,-0.397017578125,0.0,0.0,0.0,0.0,0.0,0.0,0.76930039491386,0.0,0.0,0.0,0.0,0.0,0.0,-0.016
472,0.0,0.0,0.0,0.0,0.0,0.0,-0.386146484375,0.0,0.0,0.0,0.0,0.0,0.0,0.76930039491386,0.0,0.0,0.0,0.0,0.0,0.0,0.036
473,0.0,0.0,0.0,0.0,0.0,0.0,-0.374849609375,0.0,0.0,0.0,0.0,0.0,0.0,0.76930039491386,0.0,0.0,0.0,0.0,0.0,0.0,0.064
474,0.0,0.0,0.0,0.0,0.0,0.0,-0.3610986328125,0.0,0.0,0.0,0.0,0.0,0.0,0.76930039491386,0.0,0.0,0.0,0.0,0.0,0.0,0.012
475,0.0,0.0,0.0,0.0,0.0,0.0,-0.3473486328125,0.0,0.0,0.0,0.0,0.0,0.0,0.76930039491386,0.0,0.0,0.0,0.0,0.0,0.0,-0.004
476,0.0,0.0,0.0,0.0,0.0,0.0,-0.3339990234375,0.0,0.0,0.0,0.0,0.0,0.0,0.76930039491386,0.0,0.0,0.0,0.0,0.0,0.0,0.108
477,0.0,0.0,0.0,0.0,0.0,0.0,-0.3188154296875,0.0,0.0,0.0,0.0,0.0,0.0,0.76930039491386,0.0,0.0,0.0,0.0,0.0,0.0,0.104
478,0.0,0.0,0.0,0.0,0.0,0.0,-0.303,0.0,0.0,0.0,0.0,0.0,0.0,0.76930039491386,0.0,0.0,0.0,0.0,0.0,0.0,0.036
479,0.0,0.0,0.0,0.0,0.0,0.0,-0.288642578125,0.0,0.0,0.0,0.0,0.0,0.0,0.76930039491386,0.0,0.0,0.0,0.0,0.0,0.0,0.064
480,0.0,0.0,0.0,0.0,0.0,0.0,-0.2720009765625,0.0,0.0,0.0,0.0,0.0,0.0,0.76930039491386,0.0,0.0,0.0,0.0,0.0,0.0,-0.032
481,0.0,0.0,0.0,0.0,0.0,0.0,-0.256404296875,0.0,0.0,0.0,0.0,0.0,0.0,0.76930039491386,0.0,0.0,0.0,0.0,0.0,0.0,-0.004
482,0.0,0.0,0.0,0.0,0.0,0.0,-0.2420341796875,0.0,0.0,0.0,0.0,0.0,0.0,0.76930039491386,0.0,0.0,0.0,0.0,0.0,0.0,0.148
483,0.0,0.0,0.0,0.0,0.0,0.0,-0.2251982421875,0.0,0.0,0.0,0.0,0.0,0.0,0.76930039491386,0.0,0.0,0.0,0.0,0.0,0.0,0.052
484,0.0,0.0,0.0,0.0,0.0,0.0,-0.210634765625,0.0,0.0,0.0,0.0,0.0,0.0,0.76930039491386,0.0,0.0,0.0,0.0,0.0,0.0,0.004
485,0.0,0.0,0.0,0.0,0.0,0.0,-0.19605859375,0.0,0.0,0.0,0.0,0.0,0.0,0.76930039491386,0.0,0.0,0.0,0.0,0.0,0.0,0.104
486,0.0,0.0,0.0,0.0,0.0,0.0,-0.1802568359375,0.0,0.0,0.0,0.0,0.0,0.0,0.76930039491386,0.0,0.0,0.0,0.0,0.0,0.0,-0.032
487,0.0,0.0,0.0,0.0,0.0,0.0,-0.166919921875,0.0,0.0,0.0,0.0,0.0,0.0,0.76930039491386,0.0,0.0,0.0,0.0,0.0,0.0,-0.016
488,0.0,0.0,0.0,0.0,0.0,0.0,-0.15336328125,0.0,0.0,0.0,0.0,0.0,0.0,0.76930039491386,0.0,0.0,0.0,0.0,0.0,0.0,0.2
489,0.0,0.0,0.0,0.0,0.0,0.0,-0.13838671875,0.0,0.0,0.0,0.0,0.0,0.0,0.76930039491386,0.0,0.0,0.0,0.0,0.0,0.0,0.036
490,0.0,0.0,0.0,0.0,0.0,0.0,-0.12565625,0.0,0.0,0.0,0.0,0.0,0.0,0.76930039491386,0.0,0.0,0.0,0.0,0.0,0.0,-0.044
491,0.0,0.0,0.0,0.0,0.0,0.0,-0.1131328125,0.0,0.0,0.0,0.0,0.0,0.0,0.76930039491386,0.0,0.0,0.0,0.0,0.0,0.0,0.084
492,0.0,0.0,0.0,0.0,0.0,0.0,-0.0991630859375,0.0,0.0,0.0,0.0,0.0,0.0,0.76930039491386,0.0,0.0,0.0,0.0,0.0,0.0,0.052
493,0.0,0.0,0.0,0.0,0.0,0.0,-0.0862255859375,0.0,0.0,0.0,0.0,0.0,0.0,0.76930039491386,0.0,0.0,0.0,0.0,0.0,0.0,0.016
494,0.0,0.0,0.0,0.0,0.0,0.0,-0.0747353515625,0.0,0.0,0.0,0.0,0.0,0.0,0.76930039491386,0.0,0.0,0.0,0.0,0.0,0.0,0.128
495,0.0,0.0,0.0,0.0,0.0,0.0,-0.0620048828125,0.0,0.0,0.0,0.0,0.0,0.0,0.76930039491386,0.0,0.0,0.0,0.0,0.0,0.0,0.172
496,0.0,0.0,0.0,0.0,0.0,0.0,-0.048875,0.0,0.0,0.0,0.0,0.0,0.0,0.76930039491386,0.0,0.0,0.0,0.0,0.0,0.0,0.044
497,0.0,0.0,0.0,0.0,0.0,0.0,-0.0365576171875,0.0,0.0,0.0,0.0,0.0,0.0,0.76930039491386,0.0,0.0,0.0,0.0,0.0,0.0,0.104
498,0.0,0.0,0.0,0.0,0.0,0.0,-0.024240234375,0.0,0.0,0.0,0.0,0.0,0.0,0.76930039491386,0.0,0.0,0.0,0.0,0.0,0.0,0.116
499,0.0,0.0,0.0,0.0,0.0,0.0,-0.0102841796875,0.0,0.0,0.0,0.0,0.0,0.0,0.76930039491386,0.0,0.0,0.0,0.0,0.0,0.0,0.024
500,0.0,0.0,0.0,0.0,0.0,0.0,0.0026396484375,0.0,0.0,0.0,0.0,0.0,0.0,0.76930039491386,0.0,0.0,0.0,0.0,0.0,0.0,0.032
501,0.0,0.0,0.0,0.0,0.0,0.0,0.0151630859375,0.0,0.0,0.0,0.0,0.0,0.0,0.76930039491386,0.0,0.0,0.0,0.0,0.0,0.0,0.156
502,0.0,0.0,0.0,0.0,0.0,0.0,0.0289140625,0.0,0.0,0.0,0.0,0.0,0.0,0.76930039491386,0.0,0.0,0.0,0.0,0.0,0.0,0.016
503,0.0,0.0,0.0,0.0,0.0,0.0,0.0430771484375,0.0,0.0,0.0,0.0,0.0,0.0,0.76930039491386,0.0,0.0,0.0,0.0,0.0,0.0,0.016
504,0.0,0.0,0.0,0.0,0.0,0.0,0.0560009765625,0.0,0.0,0.0,0.0,0.0,0.0,0.76930039491386,0.0,0.0,0.0,0.0,0.0,0.0,0.12
505,0.0,0.0,0.0,0.0,0.0,0.0,0.069763671875,0.0,0.0,0.0,0.0,0.0,0.0,0.76930039491386,0.0,0.0,0.0,0.0,0.0,0.0,0.004
506,0.0,0.0,0.0,0.0,0.0,0.0,0.0841337890625,0.0,0.0,0.0,0.0,0.0,0.0,0.76930039491386,0.0,0.0,0.0,0.0,0.0,0.0,-0.044
507,0.0,0.0,0.0,0.0,0.0,0.0,0.097896484375,0.0,0.0,0.0,0.0,0.0,0.0,0.76930039491386,0.0,0.0,0.0,0.0,0.0,0.0,0.208
508,0.0,0.0,0.0,0.0,0.0,0.0,0.1116474609375,0.0,0.0,0.0,0.0,0.0,0.0,0.76930039491386,0.0,0.0,0.0,0.0,0.0,0.0,0.104
509,0.0,0.0,0.0,0.0,0.0,0.0,0.1262236328125,0.0,0.0,0.0,0.0,0.0,0.0,0.76930039491386,0.0,0.0,0.0,0.0,0.0,0.0,-0.004
510,0.0,0.0,0.0,0.0,0.0,0.0,0.1399736328125,0.0,0.0,0.0,0.0,0.0,0.0,0.76930039491386,0.0,0.0,0.0,0.0,0.0,0.0,0.076
511,0.0,0.0,0.0,0.0,0.0,0.0,0.1539306640625,0.0,0.0,0.0,0.0,0.0,0.0,0.76930039491386,0.0,0.0,0.0,0.0,0.0,0.0,0.088
512,0.0,0.0,0.0,0.0,0.0,0.0,0.1682998046875,0.0,0.0,0.0,0.0,0.0,0.0,0.76930039491386,0.0,0.0,0.0,0.0,0.0,0.0,-0.116
513,0.0,0.0,0.0,0.0,0.0,0.0,0.18184375,0.0,0.0,0.0,0.0,0.0,0.0,0.76930039491386,0.0,0.0,0.0,0.0,0.0,0.0,0.076
514,0.0,0.0,0.0,0.0,0.0,0.0,0.195400390625,0.0,0.0,0.0,0.0,0.0,0.0,0.76930039491386,0.0,0.0,0.0,0.0,0.0,0.0,0.2
515,0.0,0.0,0.0,0.0,0.0,0.0,0.2099765625,0.0,0.0,0.0,0.0,0.0,0.0,0.76930039491386,0.0,0.0,0.0,0.0,0.0,0.0,-0.004
516,0.0,0.0,0.0,0.0,0.0,0.0,0.2233134765625,0.0,0.0,0.0,0.0,0.0,0.0,0.76930039491386,0.0,0.0,0.0,0.0,0.0,0.0,-0.004
517,0.0,0.0,0.0,0.0,0.0,0.0,0.2366640625,0.0,0.0,0.0,0.0,0.0,0.0,0.76930039491386,0.0,0.0,0.0,0.0,0.0,0.0,0.108
518,0.0,0.0,0.0,0.0,0.0,0.0,0.251033203125,0.0,0.0,0.0,0.0,0.0,0.0,0.76930039491386,0.0,0.0,0.0,0.0,0.0,0.0,-0.024
519,0.0,0.0,0.0,0.0,0.0,0.0,0.26458984375,0.0,0.0,0.0,0.0,0.0,0.0,0.76930039491386,0.0,0.0,0.0,0.0,0.0,0.0,0.044
520,0.0,0.0,0.0,0.0,0.0,0.0,0.2773330078125,0.0,0.0,0.0,0.0,0.0,0.0,0.76930039491386,0.0,0.0,0.0,0.0,0.0,0.0,0.18
521,0.0,0.0,0.0,0.0,0.0,0.0,0.2912900390625,0.0,0.0,0.0,0.0,0.0,0.0,0.76930039491386,0.0,0.0,0.0,0.0,0.0,0.0,0.032
522,0.0,0.0,0.0,0.0,0.0,0.0,0.305052734375,0.0,0.0,0.0,0.0,0.0,0.0,0.76930039491386,0.0,0.0,0.0,0.0,0.0,0.0,0.024
523,0.0,0.0,0.0,0.0,0.0,0.0,0.317783203125,0.0,0.0,0.0,0.0,0.0,0.0,0.76930039491386,0.0,0.0,0.0,0.0,0.0,0.0,0.096
524,0.0,0.0,0.0,0.0,0.0,0.0,0.33133984375,0.0,0.0,0.0,0.0,0.0,0.0,0.76930039491386,0.0,0.0,0.0,0.0,0.0,0.0,0.024
525,0.0,0.0,0.0,0.0,0.0,0.0,0.3451025390625,0.0,0.0,0.0,0.0,0.0,0.0,0.76930039491386,0.0,0.0,0.0,0.0,0.0,0.0,0.044
526,0.0,0.0,0.0,0.0,0.0,0.0,0.3580390625,0.0,0.0,0.0,0.0,0.0,0.0,0.76930039491386,0.0,0.0,0.0,0.0,0.0,0.0,0.172
527,0.0,0.0,0.0,0.0,0.0,0.0,0.3713896484375,0.0,0.0,0.0,0.0,0.0,0.0,0.76930039491386,0.0,0.0,0.0,0.0,0.0,0.0,0.116
528,0.0,0.0,0.0,0.0,0.0,0.0,0.3855654296875,0.0,0.0,0.0,0.0,0.0,0.0,0.76930039491386,0.0,0.0,0.0,0.0,0.0,0.0,0.044
529,0.0,0.0,0.0,0.0,0.0,0.0,0.398708984375,0.0,0.0,0.0,0.0,0.0,0.0,0.76930039491386,0.0,0.0,0.0,0.0,0.0,0.0,0.056
530,0.0,0.0,0.0,0.0,0.0,0.0,0.4118525390625,0.0,0.0,0.0,0.0,0.0,0.0,0.76930039491386,0.0,0.0,0.0,0.0,0.0,0.0,0.064
531,0.0,0.0,0.0,0.0,0.0,0.0,0.4260283203125,0.0,0.0,0.0,0.0,0.0,0.0,0.76930039491386,0.0,0.0,0.0,0.0,0.0,0.0,0.012
532,0.0,0.0,0.0,0.0,0.0,0.0,0.4395849609375,0.0,0.0,0.0,0.0,0.0,0.0,0.76930039491386,0.0,0.0,0.0,0.0,0.0,0.0,0.044
533,0.0,0.0,0.0,0.0,0.0,0.0,0.452521484375,0.0,0.0,0.0,0.0,0.0,0.0,0.76930039491386,0.0,0.0,0.0,0.0,0.0,0.0,0.208
534,0.0,0.0,0.0,0.0,0.0,0.0,0.4666982421875,0.0,0.0,0.0,0.0,0.0,0.0,0.76930039491386,0.0,0.0,0.0,0.0,0.0,0.0,0.068
535,0.0,0.0,0.0,0.0,0.0,0.0,0.48066796875,0.0,0.0,0.0,0.0,0.0,0.0,0.76930039491386,0.0,0.0,0.0,0.0,0.0,0.0,0.128
536,0.0,0.0,0.0,0.0,0.0,0.0,0.49382421875,0.0,0.0,0.0,0.0,0.0,0.0,0.76930039491386,0.0,0.0,0.0,0.0,0.0,0.0,0.096
537,0.0,0.0,0.0,0.0,0.0,0.0,0.5075869140625,0.0,0.0,0.0,0.0,0.0,0.0,0.76930039491386,0.0,0.0,0.0,0.0,0.0,0.0,-0.016
538,0.0,0.0,0.0,0.0,0.0,0.0,0.5217763671875,0.0,0.0,0.0,0.0,0.0,0.0,0.76930039491386,0.0,0.0,0.0,0.0,0.0,0.0,0.104
539,0.0,0.0,0.0,0.0,0.0,0.0,0.5349326171875,0.0,0.0,0.0,0.0,0.0,0.0,0.76930039491386,0.0,0.0,0.0,0.0,0.0,0.0,0.264
540,0.0,0.0,0.0,0.0,0.0,0.0,0.548501953125,0.0,0.0,0.0,0.0,0.0,0.0,0.76930039491386,0.0,0.0,0.0,0.0,0.0,0.0,0.064
541,0.0,0.0,0.0,0.0,0.0,0.0,0.5624716796875,0.0,0.0,0.0,0.0,0.0,0.0,0.76930039491386,0.0,0.0,0.0,0.0,0.0,0.0,0.016
542,0.0,0.0,0.0,0.0,0.0,0.0,0.575833984375,0.0,0.0,0.0,0.0,0.0,0.0,0.76930039491386,0.0,0.0,0.0,0.0,0.0,0.0,0.148
543,0.0,0.0,0.0,0.0,0.0,0.0,0.5894033203125,0.0,0.0,0.0,0.0,0.0,0.0,0.76930039491386,0.0,0.0,0.0,0.0,0.0,0.0,0.14
544,0.0,0.0,0.0,0.0,0.0,0.0,0.603580078125,0.0,0.0,0.0,0.0,0.0,0.0,0.76930039491386,0.0,0.0,0.0,0.0,0.0,0.0,0.064
545,0.0,0.0,0.0,0.0,0.0,0.0,0.6169423828125,0.0,0.0,0.0,0.0,0.0,0.0,0.76930039491386,0.0,0.0,0.0,0.0,0.0,0.0,0.16
546,0.0,0.0,0.0,0.0,0.0,0.0,0.6300986328125,0.0,0.0,0.0,0.0,0.0,0.0,0.76930039491386,0.0,0.0,0.0,0.0,0.0,0.0,0.22
547,0.0,0.0,0.0,0.0,0.0,0.0,0.6442880859375,0.0,0.0,0.0,0.0,0.0,0.0,0.76930039491386,0.0,0.0,0.0,0.0,0.0,0.0,0.14
548,0.0,0.0,0.0,0.0,0.0,0.0,0.6580634765625,0.0,0.0,0.0,0.0,0.0,0.0,0.76930039491386,0.0,0.0,0.0,0.0,0.0,0.0,0.14
549,0.0,0.0,0.0,0.0,0.0,0.0,0.670806640625,0.0,0.0,0.0,0.0,0.0,0.0,0.76930039491386,0.0,0.0,0.0,0.0,0.0,0.0,0.104
550,0.0,0.0,0.0,0.0,0.0,0.0,0.68499609375,0.0,0.0,0.0,0.0,0.0,0.0,0.76930039491386,0.0,0.0,0.0,0.0,0.0,0.0,0.088
551,0.0,0.0,0.0,0.0,0.0,0.0,0.698978515625,0.0,0.0,0.0,0.0,0.0,0.0,0.76930039491386,0.0,0.0,0.0,0.0,0.0,0.0,0.188
552,0.0,0.0,0.0,0.0,0.0,0.0,0.71194140625,0.0,0.0,0.0,0.0,0.0,0.0,0.76930039491386,0.0,0.0,0.0,0.0,0.0,0.0,0.272
553,0.0,0.0,0.0,0.0,0.0,0.0,0.7255107421875,0.0,0.0,0.0,0.0,0.0,0.0,0.76930039491386,0.0,0.0,0.0,0.0,0.0,0.0,0.12
554,0.0,0.0,0.0,0.0,0.0,0.0,0.7394931640625,0.0,0.0,0.0,0.0,0.0,0.0,-0.8219104789848428,0.0,0.0,0.0,0.0,0.0,0.0,0.14
555,0.0,0.0,0.0,0.0,0.0,0.0,0.752869140625,0.0,0.0,0.0,0.0,0.0,0.0,-0.8219104789848428,0.0,0.0,0.0,0.0,0.0,0.0,0.224
556,0.0,0.0,0.0,0.0,0.0,0.0,0.7660380859375,0.0,0.0,0.0,0.0,0.0,0.0,-0.8219104789848428,0.0,0.0,0.0,0.0,0.0,0.0,0.032
557,0.0,0.0,0.0,0.0,0.0,0.0,0.7769345703125,0.0,0.0,0.0,0.0,0.0,0.0,-0.8219104789848428,0.0,0.0,0.0,0.0,0.0,0.0,0.052
558,0.0,0.0,0.0,0.0,0.0,0.0,0.7818798828125,0.0,0.0,0.0,0.0,0.0,0.0,-0.8219104789848428,0.0,0.0,0.0,0.0,0.0,0.0,0.14
559,0.0,0.0,0.0,0.0,0.0,0.0,0.7816728515625,0.0,0.0,0.0,0.0,0.0,0.0,-0.8219104789848428,0.0,0.0,0.0,0.0,0.0,0.0,0.104
560,0.0,0.0,0.0,0.0,0.0,0.0,0.7771416015625,0.0,0.0,0.0,0.0,0.0,0.0,-0.8219104789848428,0.0,0.0,0.0,0.0,0.0,0.0,0.0
561,0.0,0.0,0.0,0.0,0.0,0.0,0.76850390625,0.0,0.0,0.0,0.0,0.0,0.0,-0.8219104789848428,0.0,0.0,0.0,0.0,0.0,0.0,-0.104
562,0.0,0.0,0.0,0.0,0.0,0.0,0.75678125,0.0,0.0,0.0,0.0,0.0,0.0,-0.8219104789848428,0.0,0.0,0.0,0.0,0.0,0.0,-0.156
563,0.0,0.0,0.0,0.0,0.0,0.0,0.742166015625,0.0,0.0,0.0,0.0,0.0,0.0,-0.8219104789848428,0.0,0.0,0.0,0.0,0.0,0.0,-0.052
564,0.0,0.0,0.0,0.0,0.0,0.0,0.7232509765625,0.0,0.0,0.0,0.0,0.0,0.0,-0.8219104789848428,0.0,0.0,0.0,0.0,0.0,0.0,-0.056
565,0.0,0.0,0.0,0.0,0.0,0.0,0.7024775390625,0.0,0.0,0.0,0.0,0.0,0.0,-0.8219104789848428,0.0,0.0,0.0,0.0,0.0,0.0,0.036
566,0.0,0.0,0.0,0.0,0.0,0.0,0.67923828125,0.0,0.0,0.0,0.0,0.0,0.0,-0.8219104789848428,0.0,0.0,0.0,0.0,0.0,0.0,-0.12
567,0.0,0.0,0.0,0.0,0.0,0.0,0.65559765625,0.0,0.0,0.0,0.0,0.0,0.0,-0.8219104789848428,0.0,0.0,0.0,0.0,0.0,0.0,0.012
568,0.0,0.0,0.0,0.0,0.0,0.0,0.629892578125,0.0,0.0,0.0,0.0,0.0,0.0,-0.8219104789848428,0.0,0.0,0.0,0.0,0.0,0.0,-0.108
569,0.0,0.0,0.0,0.0,0.0,0.0,0.6058388671875,0.0,0.0,0.0,0.0,0.0,0.0,-0.8219104789848428,0.0,0.0,0.0,0.0,0.0,0.0,-0.012
570,0.0,0.0,0.0,0.0,0.0,0.0,0.5807666015625,0.0,0.0,0.0,0.0,0.0,0.0,-0.8219104789848428,0.0,0.0,0.0,0.0,0.0,0.0,-0.12
571,0.0,0.0,0.0,0.0,0.0,0.0,0.55774609375,0.0,0.0,0.0,0.0,0.0,0.0,-0.8219104789848428,0.0,0.0,0.0,0.0,0.0,0.0,-0.096
572,0.0,0.0,0.0,0.0,0.0,0.0,0.535138671875,0.0,0.0,0.0,0.0,0.0,0.0,-0.8219104789848428,0.0,0.0,0.0,0.0,0.0,0.0,-0.056
573,0.0,0.0,0.0,0.0,0.0,0.0,0.5152041015625,0.0,0.0,0.0,0.0,0.0,0.0,-0.8219104789848428,0.0,0.0,0.0,0.0,0.0,0.0,-0.052
574,0.0,0.0,0.0,0.0,0.0,0.0,0.4954638671875,0.0,0.0,0.0,0.0,0.0,0.0,-0.8219104789848428,0.0,0.0,0.0,0.0,0.0,0.0,-0.224
575,0.0,0.0,0.0,0.0,0.0,0.0,0.479234375,0.0,0.0,0.0,0.0,0.0,0.0,-0.8219104789848428,0.0,0.0,0.0,0.0,0.0,0.0,-0.084
576,0.0,0.0,0.0,0.0,0.0,0.0,0.463818359375,0.0,0.0,0.0,0.0,0.0,0.0,-0.8219104789848428,0.0,0.0,0.0,0.0,0.0,0.0,-0.044
577,0.0,0.0,0.0,0.0,0.0,0.0,0.4496552734375,0.0,0.0,0.0,0.0,0.0,0.0,-0.8219104789848428,0.0,0.0,0.0,0.0,0.0,0.0,-0.096
578,0.0,0.0,0.0,0.0,0.0,0.0,0.438345703125,0.0,0.0,0.0,0.0,0.0,0.0,-0.8219104789848428,0.0,0.0,0.0,0.0,0.0,0.0,0.056
579,0.0,0.0,0.0,0.0,0.0,0.0,0.42766796875,0.0,0.0,0.0,0.0,0.0,0.0,-0.8219104789848428,0.0,0.0,0.0,0.0,0.0,0.0,-0.088
580,0.0,0.0,0.0,0.0,0.0,0.0,0.4178046875,0.0,0.0,0.0,0.0,0.0,0.0,-0.8219104789848428,0.0,0.0,0.0,0.0,0.0,0.0,-0.168
581,0.0,0.0,0.0,0.0,0.0,0.0,0.4087666015625,0.0,0.0,0.0,0.0,0.0,0.0,-0.8219104789848428,0.0,0.0,0.0,0.0,0.0,0.0,-0.168
582,0.0,0.0,0.0,0.0,0.0,0.0,0.40076171875,0.0,0.0,0.0,0.0,0.0,0.0,-0.8219104789848428,0.0,0.0,0.0,0.0,0.0,0.0,-0.116
583,0.0,0.0,0.0,0.0,0.0,0.0,0.3929501953125,0.0,0.0,0.0,0.0,0.0,0.0,-0.8219104789848428,0.0,0.0,0.0,0.0,0.0,0.0,-0.084
584,0.0,0.0,0.0,0.0,0.0,0.0,0.384326171875,0.0,0.0,0.0,0.0,0.0,0.0,-0.8219104789848428,0.0,0.0,0.0,0.0,0.0,0.0,-0.148
585,0.0,0.0,0.0,0.0,0.0,0.0,0.37508203125,0.0,0.0,0.0,0.0,0.0,0.0,-0.8219104789848428,0.0,0.0,0.0,0.0,0.0,0.0,-0.104
586,0.0,0.0,0.0,0.0,0.0,0.0,0.36523046875,0.0,0.0,0.0,0.0,0.0,0.0,-0.8219104789848428,0.0,0.0,0.0,0.0,0.0,0.0,-0.084
587,0.0,0.0,0.0,0.0,0.0,0.0,0.3555732421875,0.0,0.0,0.0,0.0,0.0,0.0,-0.8219104789848428,0.0,0.0,0.0,0.0,0.0,0.0,-0.012
588,0.0,0.0,0.0,0.0,0.0,0.0,0.3453095703125,0.0,0.0,0.0,0.0,0.0,0.0,-0.8219104789848428,0.0,0.0,0.0,0.0,0.0,0.0,-0.068
589,0.0,0.0,0.0,0.0,0.0,0.0,0.333185546875,0.0,0.0,0.0,0.0,0.0,0.0,-0.8219104789848428,0.0,0.0,0.0,0.0,0.0,0.0,-0.24
590,0.0,0.0,0.0,0.0,0.0,0.0,0.32004296875,0.0,0.0,0.0,0.0,0.0,0.0,-0.8219104789848428,0.0,0.0,0.0,0.0,0.0,0.0,-0.18
591,0.0,0.0,0.0,0.0,0.0,0.0,0.3075185546875,0.0,0.0,0.0,0.0,0.0,0.0,-0.8219104789848428,0.0,0.0,0.0,0.0,0.0,0.0,-0.076
592,0.0,0.0,0.0,0.0,0.0,0.0,0.2933427734375,0.0,0.0,0.0,0.0,0.0,0.0,-0.8219104789848428,0.0,0.0,0.0,0.0,0.0,0.0,-0.14
593,0.0,0.0,0.0,0.0,0.0,0.0,0.2781591796875,0.0,0.0,0.0,0.0,0.0,0.0,-0.8219104789848428,0.0,0.0,0.0,0.0,0.0,0.0,-0.096
594,0.0,0.0,0.0,0.0,0.0,0.0,0.263763671875,0.0,0.0,0.0,0.0,0.0,0.0,-0.8219104789848428,0.0,0.0,0.0,0.0,0.0,0.0,-0.012
595,0.0,0.0,0.0,0.0,0.0,0.0,0.2485673828125,0.0,0.0,0.0,0.0,0.0,0.0,-0.8219104789848428,0.0,0.0,0.0,0.0,0.0,0.0,-0.168
596,0.0,0.0,0.0,0.0,0.0,0.0,0.2323515625,0.0,0.0,0.0,0.0,0.0,0.0,-0.8219104789848428,0.0,0.0,0.0,0.0,0.0,0.0,-0.116
597,0.0,0.0,0.0,0.0,0.0,0.0,0.2173623046875,0.0,0.0,0.0,0.0,0.0,0.0,-0.8219104789848428,0.0,0.0,0.0,0.0,0.0,0.0,-0.12
598,0.0,0.0,0.0,0.0,0.0,0.0,0.20155859375,0.0,0.0,0.0,0.0,0.0,0.0,-0.8219104789848428,0.0,0.0,0.0,0.0,0.0,0.0,-0.14
599,0.0,0.0,0.0,0.0,0.0,0.0,0.185755859375,0.0,0.0,0.0,0.0,0.0,0.0,-0.8219104789848428,0.0,0.0,0.0,0.0,0.0,0.0,-0.032
600,0.0,0.0,0.0,0.0,0.0,0.0,0.1711796875,0.0,0.0,0.0,0.0,0.0,0.0,-0.8219104789848428,0.0,0.0,0.0,0.0,0.0,0.0,-0.12
601,0.0,0.0,0.0,0.0,0.0,0.0,0.15536328125,0.0,0.0,0.0,0.0,0.0,0.0,-0.8219104789848428,0.0,0.0,0.0,0.0,0.0,0.0,-0.244
602,0.0,0.0,0.0,0.0,0.0,0.0,0.14059375,0.0,0.0,0.0,0.0,0.0,0.0,-0.8219104789848428,0.0,0.0,0.0,0.0,0.0,0.0,-0.172
603,0.0,0.0,0.0,0.0,0.0,0.0,0.126830078125,0.0,0.0,0.0,0.0,0.0,0.0,-0.8219104789848428,0.0,0.0,0.0,0.0,0.0,0.0,-0.068
604,0.0,0.0,0.0,0.0,0.0,0.0,0.111853515625,0.0,0.0,0.0,0.0,0.0,0.0,-0.8219104789848428,0.0,0.0,0.0,0.0,0.0,0.0,-0.224
605,0.0,0.0,0.0,0.0,0.0,0.0,0.0980908203125,0.0,0.0,0.0,0.0,0.0,0.0,-0.8219104789848428,0.0,0.0,0.0,0.0,0.0,0.0,-0.064
606,0.0,0.0,0.0,0.0,0.0,0.0,0.085580078125,0.0,0.0,0.0,0.0,0.0,0.0,-0.8219104789848428,0.0,0.0,0.0,0.0,0.0,0.0,-0.064
607,0.0,0.0,0.0,0.0,0.0,0.0,0.0720234375,0.0,0.0,0.0,0.0,0.0,0.0,-0.8219104789848428,0.0,0.0,0.0,0.0,0.0,0.0,-0.24
608,0.0,0.0,0.0,0.0,0.0,0.0,0.0582607421875,0.0,0.0,0.0,0.0,0.0,0.0,-0.8219104789848428,0.0,0.0,0.0,0.0,0.0,0.0,-0.168
609,0.0,0.0,0.0,0.0,0.0,0.0,0.0463564453125,0.0,0.0,0.0,0.0,0.0,0.0,-0.8219104789848428,0.0,0.0,0.0,0.0,0.0,0.0,-0.128
610,0.0,0.0,0.0,0.0,0.0,0.0,0.033638671875,0.0,0.0,0.0,0.0,0.0,0.0,-0.8219104789848428,0.0,0.0,0.0,0.0,0.0,0.0,-0.16
611,0.0,0.0,0.0,0.0,0.0,0.0,0.0200830078125,0.0,0.0,0.0,0.0,0.0,0.0,-0.8219104789848428,0.0,0.0,0.0,0.0,0.0,0.0,-0.12
612,0.0,0.0,0.0,0.0,0.0,0.0,0.00797265625,0.0,0.0,0.0,0.0,0.0,0.0,-0.8219104789848428,0.0,0.0,0.0,0.0,0.0,0.0,-0.044
613,0.0,0.0,0.0,0.0,0.0,0.0,-0.00433203125,0.0,0.0,0.0,0.0,0.0,0.0,-0.8219104789848428,0.0,0.0,0.0,0.0,0.0,0.0,-0.18
614,0.0,0.0,0.0,0.0,0.0,0.0,-0.017681640625,0.0,0.0,0.0,0.0,0.0,0.0,-0.8219104789848428,0.0,0.0,0.0,0.0,0.0,0.0,-0.284
615,0.0,0.0,0.0,0.0,0.0,0.0,-0.0308125,0.0,0.0,0.0,0.0,0.0,0.0,-0.8219104789848428,0.0,0.0,0.0,0.0,0.0,0.0,-0.128
616,0.0,0.0,0.0,0.0,0.0,0.0,-0.0429228515625,0.0,0.0,0.0,0.0,0.0,0.0,-0.8219104789848428,0.0,0.0,0.0,0.0,0.0,0.0,-0.076
617,0.0,0.0,0.0,0.0,0.0,0.0,-0.056259765625,0.0,0.0,0.0,0.0,0.0,0.0,-0.8219104789848428,0.0,0.0,0.0,0.0,0.0,0.0,-0.16
618,0.0,0.0,0.0,0.0,0.0,0.0,-0.0704228515625,0.0,0.0,0.0,0.0,0.0,0.0,-0.8219104789848428,0.0,0.0,0.0,0.0,0.0,0.0,-0.036
619,0.0,0.0,0.0,0.0,0.0,0.0,-0.0831533203125,0.0,0.0,0.0,0.0,0.0,0.0,-0.8219104789848428,0.0,0.0,0.0,0.0,0.0,0.0,-0.108
620,0.0,0.0,0.0,0.0,0.0,0.0,-0.096490234375,0.0,0.0,0.0,0.0,0.0,0.0,-0.8219104789848428,0.0,0.0,0.0,0.0,0.0,0.0,-0.16
621,0.0,0.0,0.0,0.0,0.0,0.0,-0.111080078125,0.0,0.0,0.0,0.0,0.0,0.0,-0.8219104789848428,0.0,0.0,0.0,0.0,0.0,0.0,-0.16
622,0.0,0.0,0.0,0.0,0.0,0.0,-0.1244296875,0.0,0.0,0.0,0.0,0.0,0.0,-0.8219104789848428,0.0,0.0,0.0,0.0,0.0,0.0,-0.12
623,0.0,0.0,0.0,0.0,0.0,0.0,-0.13797265625,0.0,0.0,0.0,0.0,0.0,0.0,-0.8219104789848428,0.0,0.0,0.0,0.0,0.0,0.0,-0.208
624,0.0,0.0,0.0,0.0,0.0,0.0,-0.152962890625,0.0,0.0,0.0,0.0,0.0,0.0,-0.8219104789848428,0.0,0.0,0.0,0.0,0.0,0.0,-0.12
625,0.0,0.0,0.0,0.0,0.0,0.0,-0.1662998046875,0.0,0.0,0.0,0.0,0.0,0.0,-0.8219104789848428,0.0,0.0,0.0,0.0,0.0,0.0,0.004
626,0.0,0.0,0.0,0.0,0.0,0.0,-0.17984375,0.0,0.0,0.0,0.0,0.0,0.0,-0.8219104789848428,0.0,0.0,0.0,0.0,0.0,0.0,-0.276
627,0.0,0.0,0.0,0.0,0.0,0.0,-0.194625,0.0,0.0,0.0,0.0,0.0,0.0,-0.8219104789848428,0.0,0.0,0.0,0.0,0.0,0.0,-0.172
628,0.0,0.0,0.0,0.0,0.0,0.0,-0.2081689453125,0.0,0.0,0.0,0.0,0.0,0.0,-0.8219104789848428,0.0,0.0,0.0,0.0,0.0,0.0,-0.088
629,0.0,0.0,0.0,0.0,0.0,0.0,-0.221505859375,0.0,0.0,0.0,0.0,0.0,0.0,-0.8219104789848428,0.0,0.0,0.0,0.0,0.0,0.0,-0.168
630,0.0,0.0,0.0,0.0,0.0,0.0,-0.2362890625,0.0,0.0,0.0,0.0,0.0,0.0,-0.8219104789848428,0.0,0.0,0.0,0.0,0.0,0.0,-0.192
631,0.0,0.0,0.0,0.0,0.0,0.0,-0.2500390625,0.0,0.0,0.0,0.0,0.0,0.0,-0.8219104789848428,0.0,0.0,0.0,0.0,0.0,0.0,-0.024
632,0.0,0.0,0.0,0.0,0.0,0.0,-0.2627568359375,0.0,0.0,0.0,0.0,0.0,0.0,-0.8219104789848428,0.0,0.0,0.0,0.0,0.0,0.0,-0.128
633,0.0,0.0,0.0,0.0,0.0,0.0,-0.2771259765625,0.0,0.0,0.0,0.0,0.0,0.0,-0.8219104789848428,0.0,0.0,0.0,0.0,0.0,0.0,-0.296
634,0.0,0.0,0.0,0.0,0.0,0.0,-0.291095703125,0.0,0.0,0.0,0.0,0.0,0.0,-0.8219104789848428,0.0,0.0,0.0,0.0,0.0,0.0,-0.136
635,0.0,0.0,0.0,0.0,0.0,0.0,-0.303826171875,0.0,0.0,0.0,0.0,0.0,0.0,-0.8219104789848428,0.0,0.0,0.0,0.0,0.0,0.0,-0.12
636,0.0,0.0,0.0,0.0,0.0,0.0,-0.317576171875,0.0,0.0,0.0,0.0,0.0,0.0,-0.8219104789848428,0.0,0.0,0.0,0.0,0.0,0.0,-0.188
637,0.0,0.0,0.0,0.0,0.0,0.0,-0.3319462890625,0.0,0.0,0.0,0.0,0.0,0.0,-0.8219104789848428,0.0,0.0,0.0,0.0,0.0,0.0,-0.064
638,0.0,0.0,0.0,0.0,0.0,0.0,-0.3446767578125,0.0,0.0,0.0,0.0,0.0,0.0,-0.8219104789848428,0.0,0.0,0.0,0.0,0.0,0.0,-0.12
639,0.0,0.0,0.0,0.0,0.0,0.0,-0.35740625,0.0,0.0,0.0,0.0,0.0,0.0,-0.8219104789848428,0.0,0.0,0.0,0.0,0.0,0.0,-0.232
640,0.0,0.0,0.0,0.0,0.0,0.0,-0.3719833984375,0.0,0.0,0.0,0.0,0.0,0.0,-0.8219104789848428,0.0,0.0,0.0,0.0,0.0,0.0,-0.168
641,0.0,0.0,0.0,0.0,0.0,0.0,-0.3849072265625,0.0,0.0,0.0,0.0,0.0,0.0,-0.8219104789848428,0.0,0.0,0.0,0.0,0.0,0.0,-0.156
642,0.0,0.0,0.0,0.0,0.0,0.0,-0.39763671875,0.0,0.0,0.0,0.0,0.0,0.0,-0.8219104789848428,0.0,0.0,0.0,0.0,0.0,0.0,-0.18
643,0.0,0.0,0.0,0.0,0.0,0.0,-0.412419921875,0.0,0.0,0.0,0.0,0.0,0.0,-0.8219104789848428,0.0,0.0,0.0,0.0,0.0,0.0,-0.18
644,0.0,0.0,0.0,0.0,0.0,0.0,-0.4253564453125,0.0,0.0,0.0,0.0,0.0,0.0,-0.8219104789848428,0.0,0.0,0.0,0.0,0.0,0.0,-0.036
645,0.0,0.0,0.0,0.0,0.0,0.0,-0.4380869140625,0.0,0.0,0.0,0.0,0.0,0.0,-0.8219104789848428,0.0,0.0,0.0,0.0,0.0,0.0,-0.24
646,0.0,0.0,0.0,0.0,0.0,0.0,-0.45225,0.0,0.0,0.0,0.0,0.0,0.0,-0.8219104789848428,0.0,0.0,0.0,0.0,0.0,0.0,-0.192
647,0.0,0.0,0.0,0.0,0.0,0.0,-0.466013671875,0.0,0.0,0.0,0.0,0.0,0.0,-0.8219104789848428,0.0,0.0,0.0,0.0,0.0,0.0,-0.12
648,0.0,0.0,0.0,0.0,0.0,0.0,-0.4789375,0.0,0.0,0.0,0.0,0.0,0.0,-0.8219104789848428,0.0,0.0,0.0,0.0,0.0,0.0,-0.16
649,0.0,0.0,0.0,0.0,0.0,0.0,-0.4929072265625,0.0,0.0,0.0,0.0,0.0,0.0,-0.8219104789848428,0.0,0.0,0.0,0.0,0.0,0.0,-0.168
650,0.0,0.0,0.0,0.0,0.0,0.0,-0.5072763671875,0.0,0.0,0.0,0.0,0.0,0.0,-0.8219104789848428,0.0,0.0,0.0,0.0,0.0,0.0,-0.052
651,0.0,0.0,0.0,0.0,0.0,0.0,-0.5200068359375,0.0,0.0,0.0,0.0,0.0,0.0,-0.8219104789848428,0.0,0.0,0.0,0.0,0.0,0.0,-0.18
652,0.0,0.0,0.0,0.0,0.0,0.0,-0.5335634765625,0.0,0.0,0.0,0.0,0.0,0.0,-0.8219104789848428,0.0,0.0,0.0,0.0,0.0,0.0,-0.284
653,0.0,0.0,0.0,0.0,0.0,0.0,-0.5483466796875,0.0,0.0,0.0,0.0,0.0,0.0,-0.8219104789848428,0.0,0.0,0.0,0.0,0.0,0.0,-0.14
654,0.0,0.0,0.0,0.0,0.0,0.0,-0.56108984375,0.0,0.0,0.0,0.0,0.0,0.0,-0.8219104789848428,0.0,0.0,0.0,0.0,0.0,0.0,-0.188
655,0.0,0.0,0.0,0.0,0.0,0.0,-0.5746328125,0.0,0.0,0.0,0.0,0.0,0.0,-0.8219104789848428,0.0,0.0,0.0,0.0,0.0,0.0,-0.252
656,0.0,0.0,0.0,0.0,0.0,0.0,-0.5894287109375,0.0,0.0,0.0,0.0,0.0,0.0,-0.8219104789848428,0.0,0.0,0.0,0.0,0.0,0.0,-0.064
657,0.0,0.0,0.0,0.0,0.0,0.0,-0.6023662109375,0.0,0.0,0.0,0.0,0.0,0.0,-0.8219104789848428,0.0,0.0,0.0,0.0,0.0,0.0,-0.116
658,0.0,0.0,0.0,0.0,0.0,0.0,-0.615302734375,0.0,0.0,0.0,0.0,0.0,0.0,-0.8219104789848428,0.0,0.0,0.0,0.0,0.0,0.0,-0.284
659,0.0,0.0,0.0,0.0,0.0,0.0,-0.630111328125,0.0,0.0,0.0,0.0,0.0,0.0,-0.8219104789848428,0.0,0.0,0.0,0.0,0.0,0.0,-0.192
660,0.0,0.0,0.0,0.0,0.0,0.0,-0.6434609375,0.0,0.0,0.0,0.0,0.0,0.0,-0.8219104789848428,0.0,0.0,0.0,0.0,0.0,0.0,-0.16
661,0.0,0.0,0.0,0.0,0.0,0.0,-0.6562041015625,0.0,0.0,0.0,0.0,0.0,0.0,-0.8219104789848428,0.0,0.0,0.0,0.0,0.0,0.0,-0.18
662,0.0,0.0,0.0,0.0,0.0,0.0,-0.6711943359375,0.0,0.0,0.0,0.0,0.0,0.0,-0.8219104789848428,0.0,0.0,0.0,0.0,0.0,0.0,-0.2
663,0.0,0.0,0.0,0.0,0.0,0.0,-0.684763671875,0.0,0.0,0.0,0.0,0.0,0.0,-0.8219104789848428,0.0,0.0,0.0,0.0,0.0,0.0,-0.056
664,0.0,0.0,0.0,0.0,0.0,0.0,-0.697080078125,0.0,0.0,0.0,0.0,0.0,0.0,-0.8219104789848428,0.0,0.0,0.0,0.0,0.0,0.0,-0.2
665,0.0,0.0,0.0,0.0,0.0,0.0,-0.71126953125,0.0,0.0,0.0,0.0,0.0,0.0,-0.8219104789848428,0.0,0.0,0.0,0.0,0.0,0.0,-0.22
666,0.0,0.0,0.0,0.0,0.0,0.0,-0.7254462890625,0.0,0.0,0.0,0.0,0.0,0.0,-0.8219104789848428,0.0,0.0,0.0,0.0,0.0,0.0,-0.068
667,0.0,0.0,0.0,0.0,0.0,0.0,-0.7383828125,0.0,0.0,0.0,0.0,0.0,0.0,-0.8219104789848428,0.0,0.0,0.0,0.0,0.0,0.0,-0.232
668,0.0,0.0,0.0,0.0,0.0,0.0,-0.7519521484375,0.0,0.0,0.0,0.0,0.0,0.0,-0.8219104789848428,0.0,0.0,0.0,0.0,0.0,0.0,-0.18
669,0.0,0.0,0.0,0.0,0.0,0.0,-0.7663349609375,0.0,0.0,0.0,0.0,0.0,0.0,-0.8219104789848428,0.0,0.0,0.0,0.0,0.0,0.0,-0.032
670,0.0,0.0,0.0,0.0,0.0,0.0,-0.7792841796875,0.0,0.0,0.0,0.0,0.0,0.0,-0.8219104789848428,0.0,0.0,0.0,0.0,0.0,0.0,-0.224
671,0.0,0.0,0.0,0.0,0.0,0.0,-0.7924541015625,0.0,0.0,0.0,0.0,0.0,0.0,0.38082015820160364,0.0,0.0,0.0,0.0,0.0,0.0,-0.356
672,0.0,0.0,0.0,0.0,0.0,0.0,-0.80704296875,0.0,0.0,0.0,0.0,0.0,0.0,0.38082015820160364,0.0,0.0,0.0,0.0,0.0,0.0,-0.168
673,0.0,0.0,0.0,0.0,0.0,0.0,-0.8195927734375,0.0,0.0,0.0,0.0,0.0,0.0,0.38082015820160364,0.0,0.0,0.0,0.0,0.0,0.0,-0.136
674,0.0,0.0,0.0,0.0,0.0,0.0,-0.8286298828125,0.0,0.0,0.0,0.0,0.0,0.0,0.38082015820160364,0.0,0.0,0.0,0.0,0.0,0.0,-0.24
675,0.0,0.0,0.0,0.0,0.0,0.0,-0.8323359375,0.0,0.0,0.0,0.0,0.0,0.0,0.38082015820160364,0.0,0.0,0.0,0.0,0.0,0.0,-0.156
676,0.0,0.0,0.0,0.0,0.0,0.0,-0.831302734375,0.0,0.0,0.0,0.0,0.0,0.0,0.38082015820160364,0.0,0.0,0.0,0.0,0.0,0.0,-0.064
677,0.0,0.0,0.0,0.0,0.0,0.0,-0.8265771484375,0.0,0.0,0.0,0.0,0.0,0.0,0.38082015820160364,0.0,0.0,0.0,0.0,0.0,0.0,-0.004
678,0.0,0.0,0.0,0.0,0.0,0.0,-0.8187666015625,0.0,0.0,0.0,0.0,0.0,0.0,0.38082015820160364,0.0,0.0,0.0,0.0,0.0,0.0,0.004
679,0.0,0.0,0.0,0.0,0.0,0.0,-0.80704296875,0.0,0.0,0.0,0.0,0.0,0.0,0.38082015820160364,0.0,0.0,0.0,0.0,0.0,0.0,0.136
680,0.0,0.0,0.0,0.0,0.0,0.0,-0.790400390625,0.0,0.0,0.0,0.0,0.0,0.0,0.38082015820160364,0.0,0.0,0.0,0.0,0.0,0.0,0.076
681,0.0,0.0,0.0,0.0,0.0,0.0,-0.7729189453125,0.0,0.0,0.0,0.0,0.0,0.0,0.38082015820160364,0.0,0.0,0.0,0.0,0.0,0.0,-0.056
682,0.0,0.0,0.0,0.0,0.0,0.0,-0.7509189453125,0.0,0.0,0.0,0.0,0.0,0.0,0.38082015820160364,0.0,0.0,0.0,0.0,0.0,0.0,0.276
683,0.0,0.0,0.0,0.0,0.0,0.0,-0.7287255859375,0.0,0.0,0.0,0.0,0.0,0.0,0.38082015820160364,0.0,0.0,0.0,0.0,0.0,0.0,-0.084
684,0.0,0.0,0.0,0.0,0.0,0.0,-0.703251953125,0.0,0.0,0.0,0.0,0.0,0.0,0.38082015820160364,0.0,0.0,0.0,0.0,0.0,0.0,0.188
685,0.0,0.0,0.0,0.0,0.0,0.0,-0.679625,0.0,0.0,0.0,0.0,0.0,0.0,0.38082015820160364,0.0,0.0,0.0,0.0,0.0,0.0,0.16
686,0.0,0.0,0.0,0.0,0.0,0.0,-0.6535322265625,0.0,0.0,0.0,0.0,0.0,0.0,0.38082015820160364,0.0,0.0,0.0,0.0,0.0,0.0,0.0
687,0.0,0.0,0.0,0.0,0.0,0.0,-0.6307314453125,0.0,0.0,0.0,0.0,0.0,0.0,0.38082015820160364,0.0,0.0,0.0,0.0,0.0,0.0,0.0
688,0.0,0.0,0.0,0.0,0.0,0.0,-0.6062646484375,0.0,0.0,0.0,0.0,0.0,0.0,0.38082015820160364,0.0,0.0,0.0,0.0,0.0,0.0,-0.116
689,0.0,0.0,0.0,0.0,0.0,0.0,-0.5851171875,0.0,0.0,0.0,0.0,0.0,0.0,0.38082015820160364,0.0,0.0,0.0,0.0,0.0,0.0,0.088
690,0.0,0.0,0.0,0.0,0.0,0.0,-0.56354296875,0.0,0.0,0.0,0.0,0.0,0.0,0.38082015820160364,0.0,0.0,0.0,0.0,0.0,0.0,-0.056
691,0.0,0.0,0.0,0.0,0.0,0.0,-0.545880859375,0.0,0.0,0.0,0.0,0.0,0.0,0.38082015820160364,0.0,0.0,0.0,0.0,0.0,0.0,-0.032
692,0.0,0.0,0.0,0.0,0.0,0.0,-0.5274052734375,0.0,0.0,0.0,0.0,0.0,0.0,0.38082015820160364,0.0,0.0,0.0,0.0,0.0,0.0,0.0
693,0.0,0.0,0.0,0.0,0.0,0.0,-0.51303515625,0.0,0.0,0.0,0.0,0.0,0.0,0.38082015820160364,0.0,0.0,0.0,0.0,0.0,0.0,0.024
694,0.0,0.0,0.0,0.0,0.0,0.0,-0.5000986328125,0.0,0.0,0.0,0.0,0.0,0.0,0.38082015820160364,0.0,0.0,0.0,0.0,0.0,0.0,0.14
695,0.0,0.0,0.0,0.0,0.0,0.0,-0.486955078125,0.0,0.0,0.0,0.0,0.0,0.0,0.38082015820160364,0.0,0.0,0.0,0.0,0.0,0.0,0.076
696,0.0,0.0,0.0,0.0,0.0,0.0,-0.4766904296875,0.0,0.0,0.0,0.0,0.0,0.0,0.38082015820160364,0.0,0.0,0.0,0.0,0.0,0.0,-0.032
697,0.0,0.0,0.0,0.0,0.0,0.0,-0.4676533203125,0.0,0.0,0.0,0.0,0.0,0.0,0.38082015820160364,0.0,0.0,0.0,0.0,0.0,0.0,0.012
698,0.0,0.0,0.0,0.0,0.0,0.0,-0.4592353515625,0.0,0.0,0.0,0.0,0.0,0.0,0.38082015820160364,0.0,0.0,0.0,0.0,0.0,0.0,0.056
699,0.0,0.0,0.0,0.0,0.0,0.0,-0.450404296875,0.0,0.0,0.0,0.0,0.0,0.0,0.38082015820160364,0.0,0.0,0.0,0.0,0.0,0.0,0.024
700,0.0,0.0,0.0,0.0,0.0,0.0,-0.4415732421875,0.0,0.0,0.0,0.0,0.0,0.0,0.38082015820160364,0.0,0.0,0.0,0.0,0.0,0.0,-0.036
701,0.0,0.0,0.0,0.0,0.0,0.0,-0.433361328125,0.0,0.0,0.0,0.0,0.0,0.0,0.38082015820160364,0.0,0.0,0.0,0.0,0.0,0.0,0.044
702,0.0,0.0,0.0,0.0,0.0,0.0,-0.425150390625,0.0,0.0,0.0,0.0,0.0,0.0,0.38082015820160364,0.0,0.0,0.0,0.0,0.0,0.0,0.032
703,0.0,0.0,0.0,0.0,0.0,0.0,-0.4161123046875,0.0,0.0,0.0,0.0,0.0,0.0,0.38082015820160364,0.0,0.0,0.0,0.0,0.0,0.0,0.148
704,0.0,0.0,0.0,0.0,0.0,0.0,-0.4052412109375,0.0,0.0,0.0,0.0,0.0,0.0,0.38082015820160364,0.0,0.0,0.0,0.0,0.0,0.0,0.052
705,0.0,0.0,0.0,0.0,0.0,0.0,-0.39373828125,0.0,0.0,0.0,0.0,0.0,0.0,0.38082015820160364,0.0,0.0,0.0,0.0,0.0,0.0,0.064
706,0.0,0.0,0.0,0.0,0.0,0.0,-0.3826474609375,0.0,0.0,0.0,0.0,0.0,0.0,0.38082015820160364,0.0,0.0,0.0,0.0,0.0,0.0,0.076
707,0.0,0.0,0.0,0.0,0.0,0.0,-0.370537109375,0.0,0.0,0.0,0.0,0.0,0.0,0.38082015820160364,0.0,0.0,0.0,0.0,0.0,0.0,0.108
708,0.0,0.0,0.0,0.0,0.0,0.0,-0.3557666015625,0.0,0.0,0.0,0.0,0.0,0.0,0.38082015820160364,0.0,0.0,0.0,0.0,0.0,0.0,-0.004
709,0.0,0.0,0.0,0.0,0.0,0.0,-0.3424169921875,0.0,0.0,0.0,0.0,0.0,0.0,0.38082015820160364,0.0,0.0,0.0,0.0,0.0,0.0,-0.024
710,0.0,0.0,0.0,0.0,0.0,0.0,-0.3286669921875,0.0,0.0,0.0,0.0,0.0,0.0,0.38082015820160364,0.0,0.0,0.0,0.0,0.0,0.0,0.192
711,0.0,0.0,0.0,0.0,0.0,0.0,-0.312037109375,0.0,0.0,0.0,0.0,0.0,0.0,0.38082015820160364,0.0,0.0,0.0,0.0,0.0,0.0,0.084
712,0.0,0.0,0.0,0.0,0.0,0.0,-0.2974609375,0.0,0.0,0.0,0.0,0.0,0.0,0.38082015820160364,0.0,0.0,0.0,0.0,0.0,0.0,-0.004
713,0.0,0.0,0.0,0.0,0.0,0.0,-0.28205859375,0.0,0.0,0.0,0.0,0.0,0.0,0.38082015820160364,0.0,0.0,0.0,0.0,0.0,0.0,0.14
714,0.0,0.0,0.0,0.0,0.0,0.0,-0.26522265625,0.0,0.0,0.0,0.0,0.0,0.0,0.38082015820160364,0.0,0.0,0.0,0.0,0.0,0.0,-0.084
715,0.0,0.0,0.0,0.0,0.0,0.0,-0.2506455078125,0.0,0.0,0.0,0.0,0.0,0.0,0.38082015820160364,0.0,0.0,0.0,0.0,0.0,0.0,0.068
716,0.0,0.0,0.0,0.0,0.0,0.0,-0.2348427734375,0.0,0.0,0.0,0.0,0.0,0.0,0.38082015820160364,0.0,0.0,0.0,0.0,0.0,0.0,0.168
717,0.0,0.0,0.0,0.0,0.0,0.0,-0.2188330078125,0.0,0.0,0.0,0.0,0.0,0.0,0.38082015820160364,0.0,0.0,0.0,0.0,0.0,0.0,-0.036
718,0.0,0.0,0.0,0.0,0.0,0.0,-0.2044765625,0.0,0.0,0.0,0.0,0.0,0.0,0.38082015820160364,0.0,0.0,0.0,0.0,0.0,0.0,0.116
719,0.0,0.0,0.0,0.0,0.0,0.0,-0.189486328125,0.0,0.0,0.0,0.0,0.0,0.0,0.38082015820160364,0.0,0.0,0.0,0.0,0.0,0.0,0.012
720,0.0,0.0,0.0,0.0,0.0,0.0,-0.1745107421875,0.0,0.0,0.0,0.0,0.0,0.0,0.38082015820160364,0.0,0.0,0.0,0.0,0.0,0.0,-0.004
721,0.0,0.0,0.0,0.0,0.0,0.0,-0.1613681640625,0.0,0.0,0.0,0.0,0.0,0.0,0.38082015820160364,0.0,0.0,0.0,0.0,0.0,0.0,0.172
722,0.0,0.0,0.0,0.0,0.0,0.0,-0.1476171875,0.0,0.0,0.0,0.0,0.0,0.0,0.38082015820160364,0.0,0.0,0.0,0.0,0.0,0.0,0.036
723,0.0,0.0,0.0,0.0,0.0,0.0,-0.1334541015625,0.0,0.0,0.0,0.0,0.0,0.0,0.38082015820160364,0.0,0.0,0.0,0.0,0.0,0.0,0.024
724,0.0,0.0,0.0,0.0,0.0,0.0,-0.1207373046875,0.0,0.0,0.0,0.0,0.0,0.0,0.38082015820160364,0.0,0.0,0.0,0.0,0.0,0.0,0.116
725,0.0,0.0,0.0,0.0,0.0,0.0,-0.1082001953125,0.0,0.0,0.0,0.0,0.0,0.0,0.38082015820160364,0.0,0.0,0.0,0.0,0.0,0.0,0.084
726,0.0,0.0,0.0,0.0,0.0,0.0,-0.0944375,0.0,0.0,0.0,0.0,0.0,0.0,0.38082015820160364,0.0,0.0,0.0,0.0,0.0,0.0,-0.076
727,0.0,0.0,0.0,0.0,0.0,0.0,-0.0821201171875,0.0,0.0,0.0,0.0,0.0,0.0,0.38082015820160364,0.0,0.0,0.0,0.0,0.0,0.0,0.024
728,0.0,0.0,0.0,0.0,0.0,0.0,-0.0704228515625,0.0,0.0,0.0,0.0,0.0,0.0,0.38082015820160364,0.0,0.0,0.0,0.0,0.0,0.0,0.22
729,0.0,0.0,0.0,0.0,0.0,0.0,-0.0568798828125,0.0,0.0,0.0,0.0,0.0,0.0,0.38082015820160364,0.0,0.0,0.0,0.0,0.0,0.0,0.16
730,0.0,0.0,0.0,0.0,0.0,0.0,-0.0439560546875,0.0,0.0,0.0,0.0,0.0,0.0,0.38082015820160364,0.0,0.0,0.0,0.0,0.0,0.0,0.128
731,0.0,0.0,0.0,0.0,0.0,0.0,-0.0320517578125,0.0,0.0,0.0,0.0,0.0,0.0,0.38082015820160364,0.0,0.0,0.0,0.0,0.0,0.0,0.136
732,0.0,0.0,0.0,0.0,0.0,0.0,-0.019115234375,0.0,0.0,0.0,0.0,0.0,0.0,0.38082015820160364,0.0,0.0,0.0,0.0,0.0,0.0,0.128
733,0.0,0.0,0.0,0.0,0.0,0.0,-0.0055712890625,0.0,0.0,0.0,0.0,0.0,0.0,0.38082015820160364,0.0,0.0,0.0,0.0,0.0,0.0,-0.036
734,0.0,0.0,0.0,0.0,0.0,0.0,0.0071591796875,0.0,0.0,0.0,0.0,0.0,0.0,0.38082015820160364,0.0,0.0,0.0,0.0,0.0,0.0,0.068
735,0.0,0.0,0.0,0.0,0.0,0.0,0.0198759765625,0.0,0.0,0.0,0.0,0.0,0.0,0.38082015820160364,0.0,0.0,0.0,0.0,0.0,0.0,0.136
736,0.0,0.0,0.0,0.0,0.0,0.0,0.0344521484375,0.0,0.0,0.0,0.0,0.0,0.0,0.38082015820160364,0.0,0.0,0.0,0.0,0.0,0.0,0.032
737,0.0,0.0,0.0,0.0,0.0,0.0,0.0477890625,0.0,0.0,0.0,0.0,0.0,0.0,0.38082015820160364,0.0,0.0,0.0,0.0,0.0,0.0,0.012
738,0.0,0.0,0.0,0.0,0.0,0.0,0.0607265625,0.0,0.0,0.0,0.0,0.0,0.0,0.38082015820160364,0.0,0.0,0.0,0.0,0.0,0.0,0.076
739,0.0,0.0,0.0,0.0,0.0,0.0,0.075728515625,0.0,0.0,0.0,0.0,0.0,0.0,0.38082015820160364,0.0,0.0,0.0,0.0,0.0,0.0,0.036
740,0.0,0.0,0.0,0.0,0.0,0.0,0.089685546875,0.0,0.0,0.0,0.0,0.0,0.0,0.38082015820160364,0.0,0.0,0.0,0.0,0.0,0.0,0.076
741,0.0,0.0,0.0,0.0,0.0,0.0,0.102609375,0.0,0.0,0.0,0.0,0.0,0.0,0.38082015820160364,0.0,0.0,0.0,0.0,0.0,0.0,0.148
742,0.0,0.0,0.0,0.0,0.0,0.0,0.117392578125,0.0,0.0,0.0,0.0,0.0,0.0,0.38082015820160364,0.0,0.0,0.0,0.0,0.0,0.0,0.088
743,0.0,0.0,0.0,0.0,0.0,0.0,0.1317626953125,0.0,0.0,0.0,0.0,0.0,0.0,0.38082015820160364,0.0,0.0,0.0,0.0,0.0,0.0,0.076
744,0.0,0.0,0.0,0.0,0.0,0.0,0.144892578125,0.0,0.0,0.0,0.0,0.0,0.0,0.38082015820160364,0.0,0.0,0.0,0.0,0.0,0.0,0.068
745,0.0,0.0,0.0,0.0,0.0,0.0,0.1592626953125,0.0,0.0,0.0,0.0,0.0,0.0,0.38082015820160364,0.0,0.0,0.0,0.0,0.0,0.0,0.004
746,0.0,0.0,0.0,0.0,0.0,0.0,0.1738388671875,0.0,0.0,0.0,0.0,0.0,0.0,0.38082015820160364,0.0,0.0,0.0,0.0,0.0,0.0,0.104
747,0.0,0.0,0.0,0.0,0.0,0.0,0.186775390625,0.0,0.0,0.0,0.0,0.0,0.0,0.38082015820160364,0.0,0.0,0.0,0.0,0.0,0.0,0.2
748,0.0,0.0,0.0,0.0,0.0,0.0,0.200732421875,0.0,0.0,0.0,0.0,0.0,0.0,0.38082015820160364,0.0,0.0,0.0,0.0,0.0,0.0,0.052
749,0.0,0.0,0.0,0.0,0.0,0.0,0.2149091796875,0.0,0.0,0.0,0.0,0.0,0.0,0.38082015820160364,0.0,0.0,0.0,0.0,0.0,0.0,0.052
750,0.0,0.0,0.0,0.0,0.0,0.0,0.22824609375,0.0,0.0,0.0,0.0,0.0,0.0,0.38082015820160364,0.0,0.0,0.0,0.0,0.0,0.0,0.108
751,0.0,0.0,0.0,0.0,0.0,0.0,0.241595703125,0.0,0.0,0.0,0.0,0.0,0.0,0.38082015820160364,0.0,0.0,0.0,0.0,0.0,0.0,0.052
752,0.0,0.0,0.0,0.0,0.0,0.0,0.2557587890625,0.0,0.0,0.0,0.0,0.0,0.0,0.38082015820160364,0.0,0.0,0.0,0.0,0.0,0.0,-0.032
753,0.0,0.0,0.0,0.0,0.0,0.0,0.2689150390625,0.0,0.0,0.0,0.0,0.0,0.0,0.38082015820160364,0.0,0.0,0.0,0.0,0.0,0.0,0.104
754,0.0,0.0,0.0,0.0,0.0,0.0,0.2818515625,0.0,0.0,0.0,0.0,0.0,0.0,0.38082015820160364,0.0,0.0,0.0,0.0,0.0,0.0,0.2
755,0.0,0.0,0.0,0.0,0.0,0.0,0.296015625,0.0,0.0,0.0,0.0,0.0,0.0,0.38082015820160364,0.0,0.0,0.0,0.0,0.0,0.0,0.004
756,0.0,0.0,0.0,0.0,0.0,0.0,0.309365234375,0.0,0.0,0.0,0.0,0.0,0.0,0.38082015820160364,0.0,0.0,0.0,0.0,0.0,0.0,0.024
757,0.0,0.0,0.0,0.0,0.0,0.0,0.322095703125,0.0,0.0,0.0,0.0,0.0,0.0,0.38082015820160364,0.0,0.0,0.0,0.0,0.0,0.0,0.052
758,0.0,0.0,0.0,0.0,0.0,0.0,0.336271484375,0.0,0.0,0.0,0.0,0.0,0.0,0.38082015820160364,0.0,0.0,0.0,0.0,0.0,0.0,0.012
759,0.0,0.0,0.0,0.0,0.0,0.0,0.349828125,0.0,0.0,0.0,0.0,0.0,0.0,-0.30837110549053326,0.0,0.0,0.0,0.0,0.0,0.0,0.104
760,0.0,0.0,0.0,0.0,0.0,0.0,0.36255859375,0.0,0.0,0.0,0.0,0.0,0.0,-0.30837110549053326,0.0,0.0,0.0,0.0,0.0,0.0,0.2
761,0.0,0.0,0.0,0.0,0.0,0.0,0.376115234375,0.0,0.0,0.0,0.0,0.0,0.0,-0.30837110549053326,0.0,0.0,0.0,0.0,0.0,0.0,0.056
762,0.0,0.0,0.0,0.0,0.0,0.0,0.387412109375,0.0,0.0,0.0,0.0,0.0,0.0,-0.30837110549053326,0.0,0.0,0.0,0.0,0.0,0.0,-0.024
763,0.0,0.0,0.0,0.0,0.0,0.0,0.392744140625,0.0,0.0,0.0,0.0,0.0,0.0,-0.30837110549053326,0.0,0.0,0.0,0.0,0.0,0.0,0.004
764,0.0,0.0,0.0,0.0,0.0,0.0,0.392744140625,0.0,0.0,0.0,0.0,0.0,0.0,-0.30837110549053326,0.0,0.0,0.0,0.0,0.0,0.0,0.004
765,0.0,0.0,0.0,0.0,0.0,0.0,0.3888447265625,0.0,0.0,0.0,0.0,0.0,0.0,-0.30837110549053326,0.0,0.0,0.0,0.0,0.0,0.0,-0.116
766,0.0,0.0,0.0,0.0,0.0,0.0,0.381240234375,0.0,0.0,0.0,0.0,0.0,0.0,-0.30837110549053326,0.0,0.0,0.0,0.0,0.0,0.0,-0.188
767,0.0,0.0,0.0,0.0,0.0,0.0,0.36954296875,0.0,0.0,0.0,0.0,0.0,0.0,-0.30837110549053326,0.0,0.0,0.0,0.0,0.0,0.0,-0.192
768,0.0,0.0,0.0,0.0,0.0,0.0,0.35516015625,0.0,0.0,0.0,0.0,0.0,0.0,-0.30837110549053326,0.0,0.0,0.0,0.0,0.0,0.0,-0.056
769,0.0,0.0,0.0,0.0,0.0,0.0,0.3372919921875,0.0,0.0,0.0,0.0,0.0,0.0,-0.30837110549053326,0.0,0.0,0.0,0.0,0.0,0.0,-0.264
770,0.0,0.0,0.0,0.0,0.0,0.0,0.316556640625,0.0,0.0,0.0,0.0,0.0,0.0,-0.30837110549053326,0.0,0.0,0.0,0.0,0.0,0.0,-0.056
771,0.0,0.0,0.0,0.0,0.0,0.0,0.2941689453125,0.0,0.0,0.0,0.0,0.0,0.0,-0.30837110549053326,0.0,0.0,0.0,0.0,0.0,0.0,-0.24
772,0.0,0.0,0.0,0.0,0.0,0.0,0.269935546875,0.0,0.0,0.0,0.0,0.0,0.0,-0.30837110549053326,0.0,0.0,0.0,0.0,0.0,0.0,-0.012
773,0.0,0.0,0.0,0.0,0.0,0.0,0.2454951171875,0.0,0.0,0.0,0.0,0.0,0.0,-0.30837110549053326,0.0,0.0,0.0,0.0,0.0,0.0,-0.244
774,0.0,0.0,0.0,0.0,0.0,0.0,0.2208603515625,0.0,0.0,0.0,0.0,0.0,0.0,-0.30837110549053326,0.0,0.0,0.0,0.0,0.0,0.0,-0.156
775,0.0,0.0,0.0,0.0,0.0,0.0,0.1956064453125,0.0,0.0,0.0,0.0,0.0,0.0,-0.30837110549053326,0.0,0.0,0.0,0.0,0.0,0.0,-0.192
776,0.0,0.0,0.0,0.0,0.0,0.0,0.1728193359375,0.0,0.0,0.0,0.0,0.0,0.0,-0.30837110549053326,0.0,0.0,0.0,0.0,0.0,0.0,-0.096
777,0.0,0.0,0.0,0.0,0.0,0.0,0.1496181640625,0.0,0.0,0.0,0.0,0.0,0.0,-0.30837110549053326,0.0,0.0,0.0,0.0,0.0,0.0,-0.292
778,0.0,0.0,0.0,0.0,0.0,0.0,0.1295029296875,0.0,0.0,0.0,0.0,0.0,0.0,-0.30837110549053326,0.0,0.0,0.0,0.0,0.0,0.0,-0.136
779,0.0,0.0,0.0,0.0,0.0,0.0,0.10980078125,0.0,0.0,0.0,0.0,0.0,0.0,-0.30837110549053326,0.0,0.0,0.0,0.0,0.0,0.0,-0.172
780,0.0,0.0,0.0,0.0,0.0,0.0,0.0923447265625,0.0,0.0,0.0,0.0,0.0,0.0,-0.30837110549053326,0.0,0.0,0.0,0.0,0.0,0.0,-0.12
781,0.0,0.0,0.0,0.0,0.0,0.0,0.077162109375,0.0,0.0,0.0,0.0,0.0,0.0,-0.30837110549053326,0.0,0.0,0.0,0.0,0.0,0.0,-0.136
782,0.0,0.0,0.0,0.0,0.0,0.0,0.062779296875,0.0,0.0,0.0,0.0,0.0,0.0,-0.30837110549053326,0.0,0.0,0.0,0.0,0.0,0.0,-0.096
783,0.0,0.0,0.0,0.0,0.0,0.0,0.0506689453125,0.0,0.0,0.0,0.0,0.0,0.0,-0.30837110549053326,0.0,0.0,0.0,0.0,0.0,0.0,-0.16
784,0.0,0.0,0.0,0.0,0.0,0.0,0.0399912109375,0.0,0.0,0.0,0.0,0.0,0.0,-0.30837110549053326,0.0,0.0,0.0,0.0,0.0,0.0,-0.18
785,0.0,0.0,0.0,0.0,0.0,0.0,0.0303466796875,0.0,0.0,0.0,0.0,0.0,0.0,-0.30837110549053326,0.0,0.0,0.0,0.0,0.0,0.0,-0.128
786,0.0,0.0,0.0,0.0,0.0,0.0,0.0207021484375,0.0,0.0,0.0,0.0,0.0,0.0,-0.30837110549053326,0.0,0.0,0.0,0.0,0.0,0.0,-0.156
787,0.0,0.0,0.0,0.0,0.0,0.0,0.0124912109375,0.0,0.0,0.0,0.0,0.0,0.0,-0.30837110549053326,0.0,0.0,0.0,0.0,0.0,0.0,-0.012
788,0.0,0.0,0.0,0.0,0.0,0.0,0.0048994140625,0.0,0.0,0.0,0.0,0.0,0.0,-0.30837110549053326,0.0,0.0,0.0,0.0,0.0,0.0,-0.032
789,0.0,0.0,0.0,0.0,0.0,0.0,-0.0033115234375,0.0,0.0,0.0,0.0,0.0,0.0,-0.30837110549053326,0.0,0.0,0.0,0.0,0.0,0.0,-0.188
790,0.0,0.0,0.0,0.0,0.0,0.0,-0.0121435546875,0.0,0.0,0.0,0.0,0.0,0.0,-0.30837110549053326,0.0,0.0,0.0,0.0,0.0,0.0,-0.212
791,0.0,0.0,0.0,0.0,0.0,0.0,-0.0221875,0.0,0.0,0.0,0.0,0.0,0.0,-0.30837110549053326,0.0,0.0,0.0,0.0,0.0,0.0,-0.24
792,0.0,0.0,0.0,0.0,0.0,0.0,-0.0320517578125,0.0,0.0,0.0,0.0,0.0,0.0,-0.30837110549053326,0.0,0.0,0.0,0.0,0.0,0.0,-0.104
793,0.0,0.0,0.0,0.0,0.0,0.0,-0.04190234375,0.0,0.0,0.0,0.0,0.0,0.0,-0.30837110549053326,0.0,0.0,0.0,0.0,0.0,0.0,-0.064
794,0.0,0.0,0.0,0.0,0.0,0.0,-0.053806640625,0.0,0.0,0.0,0.0,0.0,0.0,-0.30837110549053326,0.0,0.0,0.0,0.0,0.0,0.0,-0.22
795,0.0,0.0,0.0,0.0,0.0,0.0,-0.0673505859375,0.0,0.0,0.0,0.0,0.0,0.0,-0.30837110549053326,0.0,0.0,0.0,0.0,0.0,0.0,-0.104
796,0.0,0.0,0.0,0.0,0.0,0.0,-0.079861328125,0.0,0.0,0.0,0.0,0.0,0.0,-0.30837110549053326,0.0,0.0,0.0,0.0,0.0,0.0,0.016
797,0.0,0.0,0.0,0.0,0.0,0.0,-0.093611328125,0.0,0.0,0.0,0.0,0.0,0.0,-0.30837110549053326,0.0,0.0,0.0,0.0,0.0,0.0,-0.224
798,0.0,0.0,0.0,0.0,0.0,0.0,-0.1090263671875,0.0,0.0,0.0,0.0,0.0,0.0,-0.30837110549053326,0.0,0.0,0.0,0.0,0.0,0.0,-0.192
799,0.0,0.0,0.0,0.0,0.0,0.0,-0.123396484375,0.0,0.0,0.0,0.0,0.0,0.0,-0.30837110549053326,0.0,0.0,0.0,0.0,0.0,0.0,-0.068
800,0.0,0.0,0.0,0.0,0.0,0.0,-0.1385927734375,0.0,0.0,0.0,0.0,0.0,0.0,-0.30837110549053326,0.0,0.0,0.0,0.0,0.0,0.0,-0.22
801,0.0,0.0,0.0,0.0,0.0,0.0,-0.155208984375,0.0,0.0,0.0,0.0,0.0,0.0,-0.30837110549053326,0.0,0.0,0.0,0.0,0.0,0.0,-0.128
802,0.0,0.0,0.0,0.0,0.0,0.0,-0.1699921875,0.0,0.0,0.0,0.0,0.0,0.0,-0.30837110549053326,0.0,0.0,0.0,0.0,0.0,0.0,-0.024
803,0.0,0.0,0.0,0.0,0.0,0.0,-0.1855888671875,0.0,0.0,0.0,0.0,0.0,0.0,-0.30837110549053326,0.0,0.0,0.0,0.0,0.0,0.0,-0.252
804,0.0,0.0,0.0,0.0,0.0,0.0,-0.2020107421875,0.0,0.0,0.0,0.0,0.0,0.0,-0.30837110549053326,0.0,0.0,0.0,0.0,0.0,0.0,-0.068
805,0.0,0.0,0.0,0.0,0.0,0.0,-0.2165869140625,0.0,0.0,0.0,0.0,0.0,0.0,-0.30837110549053326,0.0,0.0,0.0,0.0,0.0,0.0,-0.136
806,0.0,0.0,0.0,0.0,0.0,0.0,-0.2317705078125,0.0,0.0,0.0,0.0,0.0,0.0,-0.30837110549053326,0.0,0.0,0.0,0.0,0.0,0.0,-0.148
807,0.0,0.0,0.0,0.0,0.0,0.0,-0.2473662109375,0.0,0.0,0.0,0.0,0.0,0.0,-0.30837110549053326,0.0,0.0,0.0,0.0,0.0,0.0,0.0
808,0.0,0.0,0.0,0.0,0.0,0.0,-0.26091015625,0.0,0.0,0.0,0.0,0.0,0.0,-0.30837110549053326,0.0,0.0,0.0,0.0,0.0,0.0,-0.136
809,0.0,0.0,0.0,0.0,0.0,0.0,-0.2750732421875,0.0,0.0,0.0,0.0,0.0,0.0,0.9923763678474242,0.0,0.0,0.0,0.0,0.0,0.0,-0.212
810,0.0,0.0,0.0,0.0,0.0,0.0,-0.2896630859375,0.0,0.0,0.0,0.0,0.0,0.0,0.9923763678474242,0.0,0.0,0.0,0.0,0.0,0.0,-0.108
811,0.0,0.0,0.0,0.0,0.0,0.0,-0.3021865234375,0.0,0.0,0.0,0.0,0.0,0.0,0.9923763678474242,0.0,0.0,0.0,0.0,0.0,0.0,-0.136
812,0.0,0.0,0.0,0.0,0.0,0.0,-0.3116240234375,0.0,0.0,0.0,0.0,0.0,0.0,0.9923763678474242,0.0,0.0,0.0,0.0,0.0,0.0,-0.108
813,0.0,0.0,0.0,0.0,0.0,0.0,-0.3155234375,0.0,0.0,0.0,0.0,0.0,0.0,0.9923763678474242,0.0,0.0,0.0,0.0,0.0,0.0,-0.088
814,0.0,0.0,0.0,0.0,0.0,0.0,-0.31408984375,0.0,0.0,0.0,0.0,0.0,0.0,0.9923763678474242,0.0,0.0,0.0,0.0,0.0,0.0,0.012
815,0.0,0.0,0.0,0.0,0.0,0.0,-0.309365234375,0.0,0.0,0.0,0.0,0.0,0.0,0.9923763678474242,0.0,0.0,0.0,0.0,0.0,0.0,0.036
816,0.0,0.0,0.0,0.0,0.0,0.0,-0.30156640625,0.0,0.0,0.0,0.0,0.0,0.0,0.9923763678474242,0.0,0.0,0.0,0.0,0.0,0.0,-0.012
817,0.0,0.0,0.0,0.0,0.0,0.0,-0.290076171875,0.0,0.0,0.0,0.0,0.0,0.0,0.9923763678474242,0.0,0.0,0.0,0.0,0.0,0.0,0.12
818,0.0,0.0,0.0,0.0,0.0,0.0,-0.274259765625,0.0,0.0,0.0,0.0,0.0,0.0,0.9923763678474242,0.0,0.0,0.0,0.0,0.0,0.0,0.036
819,0.0,0.0,0.0,0.0,0.0,0.0,-0.2559912109375,0.0,0.0,0.0,0.0,0.0,0.0,0.9923763678474242,0.0,0.0,0.0,0.0,0.0,0.0,0.032
820,0.0,0.0,0.0,0.0,0.0,0.0,-0.2358759765625,0.0,0.0,0.0,0.0,0.0,0.0,0.9923763678474242,0.0,0.0,0.0,0.0,0.0,0.0,0.208
821,0.0,0.0,0.0,0.0,0.0,0.0,-0.212068359375,0.0,0.0,0.0,0.0,0.0,0.0,0.9923763678474242,0.0,0.0,0.0,0.0,0.0,0.0,0.024
822,0.0,0.0,0.0,0.0,0.0,0.0,-0.187228515625,0.0,0.0,0.0,0.0,0.0,0.0,0.9923763678474242,0.0,0.0,0.0,0.0,0.0,0.0,0.18
823,0.0,0.0,0.0,0.0,0.0,0.0,-0.162400390625,0.0,0.0,0.0,0.0,0.0,0.0,0.9923763678474242,0.0,0.0,0.0,0.0,0.0,0.0,0.096
824,0.0,0.0,0.0,0.0,0.0,0.0,-0.1357138671875,0.0,0.0,0.0,0.0,0.0,0.0,0.9923763678474242,0.0,0.0,0.0,0.0,0.0,0.0,0.076
825,0.0,0.0,0.0,0.0,0.0,0.0,-0.111892578125,0.0,0.0,0.0,0.0,0.0,0.0,0.9923763678474242,0.0,0.0,0.0,0.0,0.0,0.0,0.052
826,0.0,0.0,0.0,0.0,0.0,0.0,-0.0866396484375,0.0,0.0,0.0,0.0,0.0,0.0,0.9923763678474242,0.0,0.0,0.0,0.0,0.0,0.0,-0.104
827,0.0,0.0,0.0,0.0,0.0,0.0,-0.064677734375,0.0,0.0,0.0,0.0,0.0,0.0,0.9923763678474242,0.0,0.0,0.0,0.0,0.0,0.0,0.356
828,0.0,0.0,0.0,0.0,0.0,0.0,-0.042509765625,0.0,0.0,0.0,0.0,0.0,0.0,0.9923763678474242,0.0,0.0,0.0,0.0,0.0,0.0,-0.004
829,0.0,0.0,0.0,0.0,0.0,0.0,-0.0236337890625,0.0,0.0,0.0,0.0,0.0,0.0,0.9923763678474242,0.0,0.0,0.0,0.0,0.0,0.0,0.14
830,0.0,0.0,0.0,0.0,0.0,0.0,-0.005158203125,0.0,0.0,0.0,0.0,0.0,0.0,0.9923763678474242,0.0,0.0,0.0,0.0,0.0,0.0,-0.064
831,0.0,0.0,0.0,0.0,0.0,0.0,0.009818359375,0.0,0.0,0.0,0.0,0.0,0.0,0.9923763678474242,0.0,0.0,0.0,0.0,0.0,0.0,0.068
832,0.0,0.0,0.0,0.0,0.0,0.0,0.023775390625,0.0,0.0,0.0,0.0,0.0,0.0,0.9923763678474242,0.0,0.0,0.0,0.0,0.0,0.0,0.224
833,0.0,0.0,0.0,0.0,0.0,0.0,0.0367119140625,0.0,0.0,0.0,0.0,0.0,0.0,0.9923763678474242,0.0,0.0,0.0,0.0,0.0,0.0,-0.032
834,0.0,0.0,0.0,0.0,0.0,0.0,0.0471826171875,0.0,0.0,0.0,0.0,0.0,0.0,0.9923763678474242,0.0,0.0,0.0,0.0,0.0,0.0,0.0
835,0.0,0.0,0.0,0.0,0.0,0.0,0.0564140625,0.0,0.0,0.0,0.0,0.0,0.0,0.9923763678474242,0.0,0.0,0.0,0.0,0.0,0.0,0.128
836,0.0,0.0,0.0,0.0,0.0,0.0,0.0648447265625,0.0,0.0,0.0,0.0,0.0,0.0,0.9923763678474242,0.0,0.0,0.0,0.0,0.0,0.0,0.0
837,0.0,0.0,0.0,0.0,0.0,0.0,0.07367578125,0.0,0.0,0.0,0.0,0.0,0.0,0.9923763678474242,0.0,0.0,0.0,0.0,0.0,0.0,-0.032
838,0.0,0.0,0.0,0.0,0.0,0.0,0.0818740234375,0.0,0.0,0.0,0.0,0.0,0.0,0.9923763678474242,0.0,0.0,0.0,0.0,0.0,0.0,0.044
839,0.0,0.0,0.0,0.0,0.0,0.0,0.089892578125,0.0,0.0,0.0,0.0,0.0,0.0,0.9923763678474242,0.0,0.0,0.0,0.0,0.0,0.0,0.064
840,0.0,0.0,0.0,0.0,0.0,0.0,0.097896484375,0.0,0.0,0.0,0.0,0.0,0.0,0.9923763678474242,0.0,0.0,0.0,0.0,0.0,0.0,0.128
841,0.0,0.0,0.0,0.0,0.0,0.0,0.10671484375,0.0,0.0,0.0,0.0,0.0,0.0,0.9923763678474242,0.0,0.0,0.0,0.0,0.0,0.0,0.18
842,0.0,0.0,0.0,0.0,0.0,0.0,0.1169794921875,0.0,0.0,0.0,0.0,0.0,0.0,0.9923763678474242,0.0,0.0,0.0,0.0,0.0,0.0,-0.012
843,0.0,0.0,0.0,0.0,0.0,0.0,0.12786328125,0.0,0.0,0.0,0.0,0.0,0.0,0.9923763678474242,0.0,0.0,0.0,0.0,0.0,0.0,0.016
844,0.0,0.0,0.0,0.0,0.0,0.0,0.1389404296875,0.0,0.0,0.0,0.0,0.0,0.0,0.9923763678474242,0.0,0.0,0.0,0.0,0.0,0.0,0.108
845,0.0,0.0,0.0,0.0,0.0,0.0,0.15105078125,0.0,0.0,0.0,0.0,0.0,0.0,0.9923763678474242,0.0,0.0,0.0,0.0,0.0,0.0,0.14
846,0.0,0.0,0.0,0.0,0.0,0.0,0.1650205078125,0.0,0.0,0.0,0.0,0.0,0.0,0.9923763678474242,0.0,0.0,0.0,0.0,0.0,0.0,-0.036
847,0.0,0.0,0.0,0.0,0.0,0.0,0.178771484375,0.0,0.0,0.0,0.0,0.0,0.0,0.9923763678474242,0.0,0.0,0.0,0.0,0.0,0.0,0.032
848,0.0,0.0,0.0,0.0,0.0,0.0,0.192521484375,0.0,0.0,0.0,0.0,0.0,0.0,0.9923763678474242,0.0,0.0,0.0,0.0,0.0,0.0,0.172
849,0.0,0.0,0.0,0.0,0.0,0.0,0.2085439453125,0.0,0.0,0.0,0.0,0.0,0.0,0.9923763678474242,0.0,0.0,0.0,0.0,0.0,0.0,0.024
850,0.0,0.0,0.0,0.0,0.0,0.0,0.2237265625,0.0,0.0,0.0,0.0,0.0,0.0,0.9923763678474242,0.0,0.0,0.0,0.0,0.0,0.0,0.016
851,0.0,0.0,0.0,0.0,0.0,0.0,0.2389228515625,0.0,0.0,0.0,0.0,0.0,0.0,0.9923763678474242,0.0,0.0,0.0,0.0,0.0,0.0,0.052
852,0.0,0.0,0.0,0.0,0.0,0.0,0.2557587890625,0.0,0.0,0.0,0.0,0.0,0.0,0.9923763678474242,0.0,0.0,0.0,0.0,0.0,0.0,-0.024
