EmanuelSamir/lab201_ws_projsamir/sawyer_dev/data/sawyer/temp/test_data_random.csv
,j1,j2,j3,j4,j5,j6,j7,v1,v2,v3,v4,v5,v6,v7,jd1,jd2,jd3,jd4,jd5,jd6,jd7,e1,e2,e3,e4,e5,e6,e7
0,0.0,0.0,0.0,0.0,0.0,0.0,0.0,0.0,0.0,0.0,0.0,0.0,0.0,0.0,0.0,0.0,0.0,0.0,0.0,0.0,0.0,0.0,0.0,0.0,0.0,0.0,0.0,0.0
1,0.0,0.0,0.0,-0.001515625,0.0,0.0,0.0,0.0,0.0,0.0,-0.001,0.0,0.0,0.0,0.0,0.0,-1.61,-0.1295618716209132,0.0,0.0,0.0,0.0,0.0,0.0,0.408,0.0,0.0,0.0
2,0.0,0.0,0.0,-0.001515625,0.0,0.0,0.0,0.0,0.0,0.0,-0.001,0.0,0.0,0.0,0.0,0.0,-1.61,-0.12951309972310668,0.0,0.0,0.0,0.0,0.0,0.0,0.48,0.0,0.0,0.0
3,0.0,0.0,0.0,-0.001515625,0.0,0.0,0.0,0.0,0.0,0.0,-0.001,0.0,0.0,0.0,0.0,0.0,-1.61,-0.12948026663039758,0.0,0.0,0.0,0.0,0.0,0.0,0.48,0.0,0.0,0.0
4,0.0,0.0,0.0,-0.001515625,0.0,0.0,0.0,0.0,0.0,0.0,-0.001,0.0,0.0,0.0,0.0,0.0,-1.61,-0.12944811525574598,0.0,0.0,0.0,0.0,0.0,0.0,0.136,0.0,0.0,0.0
5,0.0,0.0,0.0,-0.001515625,0.0,0.0,0.0,0.0,0.0,0.0,-0.001,0.0,0.0,0.0,0.0,0.0,-1.61,-0.12941599954271393,0.0,0.0,0.0,0.0,0.0,0.0,0.136,0.0,0.0,0.0
6,0.0,0.0,0.0,-0.0025361328125,0.0,0.0,0.0,0.0,0.0,0.0,-0.036,0.0,0.0,0.0,0.0,0.0,-1.61,-0.1293915077477991,0.0,0.0,0.0,0.0,0.0,0.0,-2.172,0.0,0.0,0.0
7,0.0,0.0,0.0,-0.0025361328125,0.0,0.0,0.0,0.0,0.0,0.0,-0.036,0.0,0.0,0.0,0.0,0.0,-1.61,-0.12936793463108126,0.0,0.0,0.0,0.0,0.0,0.0,-2.172,0.0,0.0,0.0
8,0.0,0.0,0.0,-0.0054326171875,0.0,0.0,0.0,0.0,0.0,0.0,-0.179,0.0,0.0,0.0,0.0,0.0,-1.61,-0.1293342638895799,0.0,0.0,0.0,0.0,0.0,0.0,-3.496,0.0,0.0,0.0
9,0.0,0.0,0.0,-0.0054326171875,0.0,0.0,0.0,0.0,0.0,0.0,-0.179,0.0,0.0,0.0,0.0,0.0,-1.61,-0.12930101433957641,0.0,0.0,0.0,0.0,0.0,0.0,-3.496,0.0,0.0,0.0
10,0.0,0.0,0.0,-0.00890625,0.0,0.0,0.0,0.0,0.0,0.0,-0.317,0.0,0.0,0.0,0.0,0.0,-1.61,-0.1292694488457406,0.0,0.0,0.0,0.0,0.0,0.0,-4.024,0.0,0.0,0.0
11,0.0,0.0,0.0,-0.00890625,0.0,0.0,0.0,0.0,0.0,0.0,-0.317,0.0,0.0,0.0,0.0,0.0,-1.61,-0.12923491541470847,0.0,0.0,0.0,0.0,0.0,0.0,-4.024,0.0,0.0,0.0
12,0.0,0.0,0.0,-0.013111328125,0.0,0.0,0.0,0.0,0.0,0.0,-0.37,0.0,0.0,0.0,0.0,0.0,-1.61,-0.12920880455553774,0.0,0.0,0.0,0.0,0.0,0.0,-4.368,0.0,0.0,0.0
13,0.0,0.0,0.0,-0.013111328125,0.0,0.0,0.0,0.0,0.0,0.0,-0.37,0.0,0.0,0.0,0.0,0.0,-1.61,-0.1291820214493947,0.0,0.0,0.0,0.0,0.0,0.0,-4.368,0.0,0.0,0.0
14,0.0,0.0,0.0,-0.013111328125,0.0,0.0,0.0,0.0,0.0,0.0,-0.37,0.0,0.0,0.0,0.0,0.0,-1.61,-0.1291583737601869,0.0,0.0,0.0,0.0,0.0,0.0,-4.368,0.0,0.0,0.0
15,0.0,0.0,0.0,-0.018615234375,0.0,0.0,0.0,0.0,0.0,0.0,-0.481,0.0,0.0,0.0,0.0,0.0,-1.61,-0.12911918520926327,0.0,0.0,0.0,0.0,0.0,0.0,-2.72,0.0,0.0,0.0
16,0.0,0.0,0.0,-0.018615234375,0.0,0.0,0.0,0.0,0.0,0.0,-0.481,0.0,0.0,0.0,0.0,0.0,-1.61,-0.1290840927699526,0.0,0.0,0.0,0.0,0.0,0.0,-2.72,0.0,0.0,0.0
17,0.0,0.0,0.0,-0.0239755859375,0.0,0.0,0.0,0.0,0.0,0.0,-0.557,0.0,0.0,0.0,0.0,0.0,-1.61,-0.12905396668013952,0.0,0.0,0.0,0.0,0.0,0.0,-2.172,0.0,0.0,0.0
18,0.0,0.0,0.0,-0.0239755859375,0.0,0.0,0.0,0.0,0.0,0.0,-0.557,0.0,0.0,0.0,0.0,0.0,-1.61,-0.1290277750103165,0.0,0.0,0.0,0.0,0.0,0.0,-2.172,0.0,0.0,0.0
19,0.0,0.0,0.0,-0.029759765625,0.0,0.0,0.0,0.0,0.0,0.0,-0.55,0.0,0.0,0.0,0.0,0.0,-1.61,-0.1289936146729152,0.0,0.0,0.0,0.0,0.0,0.0,-3.452,0.0,0.0,0.0
20,0.0,0.0,0.0,-0.029759765625,0.0,0.0,0.0,0.0,0.0,0.0,-0.55,0.0,0.0,0.0,0.0,0.0,-1.61,-0.12896111918237438,0.0,0.0,0.0,0.0,0.0,0.0,-3.452,0.0,0.0,0.0
21,0.0,0.0,0.0,-0.0361484375,0.0,0.0,0.0,0.0,0.0,0.0,-0.608,0.0,0.0,0.0,0.0,0.0,-1.61,-0.12892008334069735,0.0,0.0,0.0,0.0,0.0,0.0,-3.816,0.0,0.0,0.0
22,0.0,0.0,0.0,-0.0361484375,0.0,0.0,0.0,0.0,0.0,0.0,-0.608,0.0,0.0,0.0,0.0,0.0,-1.61,-0.12888365459754267,0.0,0.0,0.0,0.0,0.0,0.0,-3.816,0.0,0.0,0.0
23,0.0,0.0,0.0,-0.0425185546875,0.0,0.0,0.0,0.0,0.0,0.0,-0.651,0.0,0.0,0.0,0.0,0.0,-1.61,-0.12885490672012545,0.0,0.0,0.0,0.0,0.0,0.0,-3.864,0.0,0.0,0.0
24,0.0,0.0,0.0,-0.0425185546875,0.0,0.0,0.0,0.0,0.0,0.0,-0.651,0.0,0.0,0.0,0.0,0.0,-1.61,-0.12882535930313,0.0,0.0,0.0,0.0,0.0,0.0,-3.864,0.0,0.0,0.0
25,0.0,0.0,0.0,-0.0425185546875,0.0,0.0,0.0,0.0,0.0,0.0,-0.651,0.0,0.0,0.0,0.0,0.0,-1.61,-0.12879349286612982,0.0,0.0,0.0,0.0,0.0,0.0,-3.864,0.0,0.0,0.0
26,0.0,0.0,0.0,-0.048888671875,0.0,0.0,0.0,0.0,0.0,0.0,-0.633,0.0,0.0,0.0,0.0,0.0,-1.61,-0.12875450843537245,0.0,0.0,0.0,0.0,0.0,0.0,-3.452,0.0,0.0,0.0
27,0.0,0.0,0.0,-0.048888671875,0.0,0.0,0.0,0.0,0.0,0.0,-0.633,0.0,0.0,0.0,0.0,0.0,-1.61,-0.12871525238677564,0.0,0.0,0.0,0.0,0.0,0.0,-3.452,0.0,0.0,0.0
28,0.0,0.0,0.0,-0.0554130859375,0.0,0.0,0.0,0.0,0.0,0.0,-0.647,0.0,0.0,0.0,0.0,0.0,-1.61,-0.12867203372497418,0.0,0.0,0.0,0.0,0.0,0.0,-2.104,0.0,0.0,0.0
29,0.0,0.0,0.0,-0.0554130859375,0.0,0.0,0.0,0.0,0.0,0.0,-0.647,0.0,0.0,0.0,0.0,0.0,-1.61,-0.12863510631769087,0.0,0.0,0.0,0.0,0.0,0.0,-2.104,0.0,0.0,0.0
30,0.0,0.0,0.0,-0.062216796875,0.0,0.0,0.0,0.0,0.0,0.0,-0.667,0.0,0.0,0.0,0.0,0.0,-1.61,-0.1286002324269455,0.0,0.0,0.0,0.0,0.0,0.0,-3.108,0.0,0.0,0.0
31,0.0,0.0,0.0,-0.062216796875,0.0,0.0,0.0,0.0,0.0,0.0,-0.667,0.0,0.0,0.0,0.0,0.0,-1.61,-0.12856607008655097,0.0,0.0,0.0,0.0,0.0,0.0,-3.108,0.0,0.0,0.0
32,0.0,0.0,0.0,-0.062216796875,0.0,0.0,0.0,0.0,0.0,0.0,-0.667,0.0,0.0,0.0,0.0,0.0,-1.61,-0.1285317674966465,0.0,0.0,0.0,0.0,0.0,0.0,-3.108,0.0,0.0,0.0
33,0.0,0.0,0.0,-0.06959765625,0.0,0.0,0.0,0.0,0.0,0.0,-0.711,0.0,0.0,0.0,0.0,0.0,-1.61,-0.12849856689690517,0.0,0.0,0.0,0.0,0.0,0.0,-3.244,0.0,0.0,0.0
34,0.0,0.0,0.0,-0.06959765625,0.0,0.0,0.0,0.0,0.0,0.0,-0.711,0.0,0.0,0.0,0.0,0.0,-1.61,-0.12844798015380454,0.0,0.0,0.0,0.0,0.0,0.0,-3.244,0.0,0.0,0.0
35,0.0,0.0,0.0,-0.0769970703125,0.0,0.0,0.0,0.0,0.0,0.0,-0.754,0.0,0.0,0.0,0.0,0.0,-1.61,-0.1284014290346002,0.0,0.0,0.0,0.0,0.0,0.0,-2.056,0.0,0.0,0.0
36,0.0,0.0,0.0,-0.08365625,0.0,0.0,0.0,0.0,0.0,0.0,-0.71,0.0,0.0,0.0,0.0,0.0,-1.61,-0.12834303963043178,0.0,0.0,0.0,0.0,0.0,0.0,-0.912,0.0,0.0,0.0
37,0.0,0.0,0.0,-0.08365625,0.0,0.0,0.0,0.0,0.0,0.0,-0.71,0.0,0.0,0.0,0.0,0.0,-1.61,-0.12830174757676688,0.0,0.0,0.0,0.0,0.0,0.0,-0.912,0.0,0.0,0.0
38,0.0,0.0,0.0,-0.08365625,0.0,0.0,0.0,0.0,0.0,0.0,-0.71,0.0,0.0,0.0,0.0,0.0,-1.61,-0.12826452185978035,0.0,0.0,0.0,0.0,0.0,0.0,-0.912,0.0,0.0,0.0
39,0.0,0.0,0.0,-0.0901708984375,0.0,0.0,0.0,0.0,0.0,0.0,-0.657,0.0,0.0,0.0,0.0,0.0,-1.61,-0.12822196938206523,0.0,0.0,0.0,0.0,0.0,0.0,-1.576,0.0,0.0,0.0
40,0.0,0.0,0.0,-0.0901708984375,0.0,0.0,0.0,0.0,0.0,0.0,-0.657,0.0,0.0,0.0,0.0,0.0,-1.61,-0.12817665641438816,0.0,0.0,0.0,0.0,0.0,0.0,-1.576,0.0,0.0,0.0
41,0.0,0.0,0.0,-0.0971279296875,0.0,0.0,0.0,0.0,0.0,0.0,-0.682,0.0,0.0,0.0,0.0,0.0,-1.61,-0.1280958642802085,0.0,0.0,0.0,0.0,0.0,0.0,-2.012,0.0,0.0,0.0
42,0.0,0.0,0.0,-0.1034990234375,0.0,0.0,0.0,0.0,0.0,0.0,-0.673,0.0,0.0,0.0,0.0,0.0,-1.61,-0.12801061076134773,0.0,0.0,0.0,0.0,0.0,0.0,-2.284,0.0,0.0,0.0
43,0.0,0.0,0.0,-0.109724609375,0.0,0.0,0.0,0.0,0.0,0.0,-0.631,0.0,0.0,0.0,0.0,0.0,-1.61,-0.12791792648640285,0.0,0.0,0.0,0.0,0.0,0.0,-1.668,0.0,0.0,0.0
44,0.0,0.0,0.0,-0.109724609375,0.0,0.0,0.0,0.0,0.0,0.0,-0.631,0.0,0.0,0.0,0.0,0.0,-1.61,-0.12788251104894002,0.0,0.0,0.0,0.0,0.0,0.0,-1.668,0.0,0.0,0.0
45,0.0,0.0,0.0,-0.116240234375,0.0,0.0,0.0,0.0,0.0,0.0,-0.64,0.0,0.0,0.0,0.0,0.0,-1.61,-0.12783052882163862,0.0,0.0,0.0,0.0,0.0,0.0,0.364,0.0,0.0,0.0
46,0.0,0.0,0.0,-0.116240234375,0.0,0.0,0.0,0.0,0.0,0.0,-0.64,0.0,0.0,0.0,0.0,0.0,-1.61,-0.12777629208349756,0.0,0.0,0.0,0.0,0.0,0.0,0.364,0.0,0.0,0.0
47,0.0,0.0,0.0,-0.122763671875,0.0,0.0,0.0,0.0,0.0,0.0,-0.658,0.0,0.0,0.0,0.0,0.0,-1.61,-0.12773075491058947,0.0,0.0,0.0,0.0,0.0,0.0,0.432,0.0,0.0,0.0
48,0.0,0.0,0.0,-0.122763671875,0.0,0.0,0.0,0.0,0.0,0.0,-0.658,0.0,0.0,0.0,0.0,0.0,-1.61,-0.12765573038439781,0.0,0.0,0.0,0.0,0.0,0.0,0.432,0.0,0.0,0.0
49,0.0,0.0,0.0,-0.128845703125,0.0,0.0,0.0,0.0,0.0,0.0,-0.656,0.0,0.0,0.0,0.0,0.0,-1.61,-0.12761435615394207,0.0,0.0,0.0,0.0,0.0,0.0,2.08,0.0,0.0,0.0
50,0.0,0.0,0.0,-0.128845703125,0.0,0.0,0.0,0.0,0.0,0.0,-0.656,0.0,0.0,0.0,0.0,0.0,-1.61,-0.1275781820792087,0.0,0.0,0.0,0.0,0.0,0.0,2.08,0.0,0.0,0.0
51,0.0,0.0,0.0,-0.13290625,0.0,0.0,0.0,0.0,0.0,0.0,-0.533,0.0,0.0,0.0,0.0,0.0,-1.61,-0.1275284299191047,0.0,0.0,0.0,0.0,0.0,0.0,4.344,0.0,0.0,0.0
52,0.0,0.0,0.0,-0.13290625,0.0,0.0,0.0,0.0,0.0,0.0,-0.533,0.0,0.0,0.0,0.0,0.0,-1.61,-0.12747055756696382,0.0,0.0,0.0,0.0,0.0,0.0,4.344,0.0,0.0,0.0
53,0.0,0.0,0.0,-0.134927734375,0.0,0.0,0.0,0.0,0.0,0.0,-0.321,0.0,0.0,0.0,0.0,0.0,-1.61,-0.12737952833962884,0.0,0.0,0.0,0.0,0.0,0.0,6.492,0.0,0.0,0.0
54,0.0,0.0,0.0,-0.134927734375,0.0,0.0,0.0,0.0,0.0,0.0,-0.321,0.0,0.0,0.0,0.0,0.0,-1.61,-0.1273336082082011,0.0,0.0,0.0,0.0,0.0,0.0,6.492,0.0,0.0,0.0
55,0.0,0.0,0.0,-0.1352158203125,0.0,0.0,0.0,0.0,0.0,0.0,-0.138,0.0,0.0,0.0,0.0,0.0,-1.61,-0.12728836184767373,0.0,0.0,0.0,0.0,0.0,0.0,8.324,0.0,0.0,0.0
56,0.0,0.0,0.0,-0.1352158203125,0.0,0.0,0.0,0.0,0.0,0.0,-0.138,0.0,0.0,0.0,0.0,0.0,-1.61,-0.12724533589414777,0.0,0.0,0.0,0.0,0.0,0.0,8.324,0.0,0.0,0.0
57,0.0,0.0,0.0,-0.1336279296875,0.0,0.0,0.0,0.0,0.0,0.0,0.058,0.0,0.0,0.0,0.0,0.0,-1.61,-0.1271943069825564,0.0,0.0,0.0,0.0,0.0,0.0,6.012,0.0,0.0,0.0
58,0.0,0.0,0.0,-0.1336279296875,0.0,0.0,0.0,0.0,0.0,0.0,0.058,0.0,0.0,0.0,0.0,0.0,-1.61,-0.12708421581689877,0.0,0.0,0.0,0.0,0.0,0.0,6.012,0.0,0.0,0.0
59,0.0,0.0,0.0,-0.1321748046875,0.0,0.0,0.0,0.0,0.0,0.0,0.153,0.0,0.0,0.0,0.0,0.0,-1.61,-0.12703240196189522,0.0,0.0,0.0,0.0,0.0,0.0,3.68,0.0,0.0,0.0
60,0.0,0.0,0.0,-0.1321748046875,0.0,0.0,0.0,0.0,0.0,0.0,0.153,0.0,0.0,0.0,0.0,0.0,-1.61,-0.1269900670297786,0.0,0.0,0.0,0.0,0.0,0.0,3.68,0.0,0.0,0.0
61,0.0,0.0,0.0,-0.1305869140625,0.0,0.0,0.0,0.0,0.0,0.0,0.145,0.0,0.0,0.0,0.0,0.0,-1.61,-0.12694858547144883,0.0,0.0,0.0,0.0,0.0,0.0,3.176,0.0,0.0,0.0
62,0.0,0.0,0.0,-0.1305869140625,0.0,0.0,0.0,0.0,0.0,0.0,0.145,0.0,0.0,0.0,0.0,0.0,-1.61,-0.12689511466978462,0.0,0.0,0.0,0.0,0.0,0.0,3.176,0.0,0.0,0.0
63,0.0,0.0,0.0,-0.1305869140625,0.0,0.0,0.0,0.0,0.0,0.0,0.145,0.0,0.0,0.0,0.0,0.0,-1.61,-0.1268498127401986,0.0,0.0,0.0,0.0,0.0,0.0,3.176,0.0,0.0,0.0
64,0.0,0.0,0.0,-0.129576171875,0.0,0.0,0.0,0.0,0.0,0.0,0.148,0.0,0.0,0.0,0.0,0.0,-1.61,-0.12679859285319756,0.0,0.0,0.0,0.0,0.0,0.0,2.512,0.0,0.0,0.0
65,0.0,0.0,0.0,-0.129576171875,0.0,0.0,0.0,0.0,0.0,0.0,0.148,0.0,0.0,0.0,0.0,0.0,-1.61,-0.1267371954470556,0.0,0.0,0.0,0.0,0.0,0.0,2.512,0.0,0.0,0.0
66,0.0,0.0,0.0,-0.129576171875,0.0,0.0,0.0,0.0,0.0,0.0,0.063,0.0,0.0,0.0,0.0,0.0,-1.61,-0.12667541777995706,0.0,0.0,0.0,0.0,0.0,0.0,4.024,0.0,0.0,0.0
67,0.0,0.0,0.0,-0.129576171875,0.0,0.0,0.0,0.0,0.0,0.0,0.063,0.0,0.0,0.0,0.0,0.0,-1.61,-0.1266225952297586,0.0,0.0,0.0,0.0,0.0,0.0,4.024,0.0,0.0,0.0
68,0.0,0.0,0.0,-0.1292880859375,0.0,0.0,0.0,0.0,0.0,0.0,0.007,0.0,0.0,0.0,0.0,0.0,-1.61,-0.12657416494197887,0.0,0.0,0.0,0.0,0.0,0.0,4.916,0.0,0.0,0.0
69,0.0,0.0,0.0,-0.1292880859375,0.0,0.0,0.0,0.0,0.0,0.0,0.007,0.0,0.0,0.0,0.0,0.0,-1.61,-0.12652073808086495,0.0,0.0,0.0,0.0,0.0,0.0,4.916,0.0,0.0,0.0
70,0.0,0.0,0.0,-0.1292880859375,0.0,0.0,0.0,0.0,0.0,0.0,0.007,0.0,0.0,0.0,0.0,0.0,-1.61,-0.12645539946041665,0.0,0.0,0.0,0.0,0.0,0.0,4.916,0.0,0.0,0.0
71,0.0,0.0,0.0,-0.129134765625,0.0,0.0,0.0,0.0,0.0,0.0,0.033,0.0,0.0,0.0,0.0,0.0,-1.61,-0.12638837553998075,0.0,0.0,0.0,0.0,0.0,0.0,4.572,0.0,0.0,0.0
72,0.0,0.0,0.0,-0.129134765625,0.0,0.0,0.0,0.0,0.0,0.0,0.033,0.0,0.0,0.0,0.0,0.0,-1.61,-0.12632731849750642,0.0,0.0,0.0,0.0,0.0,0.0,4.572,0.0,0.0,0.0
73,0.0,0.0,0.0,-0.129431640625,0.0,0.0,0.0,0.0,0.0,0.0,-0.013,0.0,0.0,0.0,0.0,0.0,-1.61,-0.12627276260469067,0.0,0.0,0.0,0.0,0.0,0.0,5.144,0.0,0.0,0.0
74,0.0,0.0,0.0,-0.129431640625,0.0,0.0,0.0,0.0,0.0,0.0,-0.013,0.0,0.0,0.0,0.0,0.0,-1.61,-0.12619368179256624,0.0,0.0,0.0,0.0,0.0,0.0,5.144,0.0,0.0,0.0
75,0.0,0.0,0.0,-0.129134765625,0.0,0.0,0.0,0.0,0.0,0.0,-0.015,0.0,0.0,0.0,0.0,0.0,-1.61,-0.1261407296853207,0.0,0.0,0.0,0.0,0.0,0.0,5.26,0.0,0.0,0.0
76,0.0,0.0,0.0,-0.129134765625,0.0,0.0,0.0,0.0,0.0,0.0,-0.015,0.0,0.0,0.0,0.0,0.0,-1.61,-0.12609163978920465,0.0,0.0,0.0,0.0,0.0,0.0,5.26,0.0,0.0,0.0
77,0.0,0.0,0.0,-0.128701171875,0.0,0.0,0.0,0.0,0.0,0.0,0.042,0.0,0.0,0.0,0.0,0.0,-1.61,-0.12602700894029215,0.0,0.0,0.0,0.0,0.0,0.0,3.956,0.0,0.0,0.0
78,0.0,0.0,0.0,-0.128701171875,0.0,0.0,0.0,0.0,0.0,0.0,0.042,0.0,0.0,0.0,0.0,0.0,-1.61,-0.1259609449268078,0.0,0.0,0.0,0.0,0.0,0.0,3.956,0.0,0.0,0.0
79,0.0,0.0,0.0,-0.128412109375,0.0,0.0,0.0,0.0,0.0,0.0,0.034,0.0,0.0,0.0,0.0,0.0,-1.61,-0.12590103645123926,0.0,0.0,0.0,0.0,0.0,0.0,3.404,0.0,0.0,0.0
80,0.0,0.0,0.0,-0.128412109375,0.0,0.0,0.0,0.0,0.0,0.0,0.034,0.0,0.0,0.0,0.0,0.0,-1.61,-0.1258467520285493,0.0,0.0,0.0,0.0,0.0,0.0,3.404,0.0,0.0,0.0
81,0.0,0.0,0.0,-0.128412109375,0.0,0.0,0.0,0.0,0.0,0.0,0.034,0.0,0.0,0.0,0.0,0.0,-1.61,-0.12578009320891226,0.0,0.0,0.0,0.0,0.0,0.0,3.404,0.0,0.0,0.0
82,0.0,0.0,0.0,-0.1278349609375,0.0,0.0,0.0,0.0,0.0,0.0,0.039,0.0,0.0,0.0,0.0,0.0,-1.61,-0.12571273634724706,0.0,0.0,0.0,0.0,0.0,0.0,2.352,0.0,0.0,0.0
83,0.0,0.0,0.0,-0.1278349609375,0.0,0.0,0.0,0.0,0.0,0.0,0.039,0.0,0.0,0.0,0.0,0.0,-1.61,-0.1256656327280687,0.0,0.0,0.0,0.0,0.0,0.0,2.352,0.0,0.0,0.0
84,0.0,0.0,0.0,-0.1278349609375,0.0,0.0,0.0,0.0,0.0,0.0,0.037,0.0,0.0,0.0,0.0,0.0,-1.61,-0.12560564781780206,0.0,0.0,0.0,0.0,0.0,0.0,1.828,0.0,0.0,0.0
85,0.0,0.0,0.0,-0.1278349609375,0.0,0.0,0.0,0.0,0.0,0.0,0.037,0.0,0.0,0.0,0.0,0.0,-1.61,-0.12554512398341847,0.0,0.0,0.0,0.0,0.0,0.0,1.828,0.0,0.0,0.0
86,0.0,0.0,0.0,-0.1282685546875,0.0,0.0,0.0,0.0,0.0,0.0,-0.023,0.0,0.0,0.0,0.0,0.0,-1.61,-0.12547237289175997,0.0,0.0,0.0,0.0,0.0,0.0,2.88,0.0,0.0,0.0
87,0.0,0.0,0.0,-0.1282685546875,0.0,0.0,0.0,0.0,0.0,0.0,-0.023,0.0,0.0,0.0,0.0,0.0,-1.61,-0.12541971335180288,0.0,0.0,0.0,0.0,0.0,0.0,2.88,0.0,0.0,0.0
88,0.0,0.0,0.0,-0.1282685546875,0.0,0.0,0.0,0.0,0.0,0.0,-0.023,0.0,0.0,0.0,0.0,0.0,-1.61,-0.1253705859367944,0.0,0.0,0.0,0.0,0.0,0.0,2.88,0.0,0.0,0.0
89,0.0,0.0,0.0,-0.128412109375,0.0,0.0,0.0,0.0,0.0,0.0,-0.032,0.0,0.0,0.0,0.0,0.0,-1.61,-0.12529666407279078,0.0,0.0,0.0,0.0,0.0,0.0,3.244,0.0,0.0,0.0
90,0.0,0.0,0.0,-0.128412109375,0.0,0.0,0.0,0.0,0.0,0.0,-0.032,0.0,0.0,0.0,0.0,0.0,-1.61,-0.12522370626135296,0.0,0.0,0.0,0.0,0.0,0.0,3.244,0.0,0.0,0.0
91,0.0,0.0,0.0,-0.1282685546875,0.0,0.0,0.0,0.0,0.0,0.0,0.007,0.0,0.0,0.0,0.0,0.0,-1.61,-0.1251566131189863,0.0,0.0,0.0,0.0,0.0,0.0,2.88,0.0,0.0,0.0
92,0.0,0.0,0.0,-0.1282685546875,0.0,0.0,0.0,0.0,0.0,0.0,0.007,0.0,0.0,0.0,0.0,0.0,-1.61,-0.12510133918165414,0.0,0.0,0.0,0.0,0.0,0.0,2.88,0.0,0.0,0.0
93,0.0,0.0,0.0,-0.1278349609375,0.0,0.0,0.0,0.0,0.0,0.0,0.018,0.0,0.0,0.0,0.0,0.0,-1.61,-0.1250043756457908,0.0,0.0,0.0,0.0,0.0,0.0,2.468,0.0,0.0,0.0
94,0.0,0.0,0.0,-0.1278349609375,0.0,0.0,0.0,0.0,0.0,0.0,0.018,0.0,0.0,0.0,0.0,0.0,-1.61,-0.12495201808106099,0.0,0.0,0.0,0.0,0.0,0.0,2.468,0.0,0.0,0.0
95,0.0,0.0,0.0,-0.1278349609375,0.0,0.0,0.0,0.0,0.0,0.0,0.018,0.0,0.0,0.0,0.0,0.0,-1.61,-0.12487733162200271,0.0,0.0,0.0,0.0,0.0,0.0,2.468,0.0,0.0,0.0
96,0.0,0.0,0.0,-0.12711328125,0.0,0.0,0.0,0.0,0.0,0.0,0.056,0.0,0.0,0.0,0.0,0.0,-1.61,-0.12481237843072653,0.0,0.0,0.0,0.0,0.0,0.0,1.004,0.0,0.0,0.0
97,0.0,0.0,0.0,-0.12711328125,0.0,0.0,0.0,0.0,0.0,0.0,0.056,0.0,0.0,0.0,0.0,0.0,-1.61,-0.12472894735365686,0.0,0.0,0.0,0.0,0.0,0.0,1.004,0.0,0.0,0.0
98,0.0,0.0,0.0,-0.12682421875,0.0,0.0,0.0,0.0,0.0,0.0,0.06,0.0,0.0,0.0,0.0,0.0,-1.61,-0.12466458922327865,0.0,0.0,0.0,0.0,0.0,0.0,0.248,0.0,0.0,0.0
99,0.0,0.0,0.0,-0.12682421875,0.0,0.0,0.0,0.0,0.0,0.0,0.06,0.0,0.0,0.0,0.0,0.0,-1.61,-0.12461165791666205,0.0,0.0,0.0,0.0,0.0,0.0,0.248,0.0,0.0,0.0
100,0.0,0.0,0.0,-0.12653515625,0.0,0.0,0.0,0.0,0.0,0.0,0.026,0.0,0.0,0.0,0.0,0.0,-1.61,-0.12452459266694199,0.0,0.0,0.0,0.0,0.0,0.0,0.228,0.0,0.0,0.0
101,0.0,0.0,0.0,-0.12653515625,0.0,0.0,0.0,0.0,0.0,0.0,0.026,0.0,0.0,0.0,0.0,0.0,-1.61,-0.12446491187132767,0.0,0.0,0.0,0.0,0.0,0.0,0.228,0.0,0.0,0.0
102,0.0,0.0,0.0,-0.12653515625,0.0,0.0,0.0,0.0,0.0,0.0,0.026,0.0,0.0,0.0,0.0,0.0,-1.61,-0.12439746668873196,0.0,0.0,0.0,0.0,0.0,0.0,0.228,0.0,0.0,0.0
103,0.0,0.0,0.0,-0.1262470703125,0.0,0.0,0.0,0.0,0.0,0.0,0.032,0.0,0.0,0.0,0.0,0.0,-1.61,-0.12433341982689701,0.0,0.0,0.0,0.0,0.0,0.0,-0.248,0.0,0.0,0.0
104,0.0,0.0,0.0,-0.1262470703125,0.0,0.0,0.0,0.0,0.0,0.0,0.032,0.0,0.0,0.0,0.0,0.0,-1.61,-0.12425387899601326,0.0,0.0,0.0,0.0,0.0,0.0,-0.248,0.0,0.0,0.0
105,0.0,0.0,0.0,-0.1262470703125,0.0,0.0,0.0,0.0,0.0,0.0,0.014,0.0,0.0,0.0,0.0,0.0,-1.61,-0.12417764056756404,0.0,0.0,0.0,0.0,0.0,0.0,0.32,0.0,0.0,0.0
106,0.0,0.0,0.0,-0.1262470703125,0.0,0.0,0.0,0.0,0.0,0.0,0.014,0.0,0.0,0.0,0.0,0.0,-1.61,-0.12412015877692383,0.0,0.0,0.0,0.0,0.0,0.0,0.32,0.0,0.0,0.0
107,0.0,0.0,0.0,-0.1262470703125,0.0,0.0,0.0,0.0,0.0,0.0,0.014,0.0,0.0,0.0,0.0,0.0,-1.61,-0.1240564245324138,0.0,0.0,0.0,0.0,0.0,0.0,0.32,0.0,0.0,0.0
108,0.0,0.0,0.0,-0.1261025390625,0.0,0.0,0.0,0.0,0.0,0.0,0.004,0.0,0.0,0.0,0.0,0.0,-1.61,-0.1239750521040639,0.0,0.0,0.0,0.0,0.0,0.0,0.068,0.0,0.0,0.0
109,0.0,0.0,0.0,-0.1261025390625,0.0,0.0,0.0,0.0,0.0,0.0,0.004,0.0,0.0,0.0,0.0,0.0,-1.61,-0.12391155770314624,0.0,0.0,0.0,0.0,0.0,0.0,0.068,0.0,0.0,0.0
110,0.0,0.0,0.0,-0.1258046875,0.0,0.0,0.0,0.0,0.0,0.0,0.025,0.0,0.0,0.0,0.0,0.0,-1.61,-0.12384439792724027,0.0,0.0,0.0,0.0,0.0,0.0,-0.296,0.0,0.0,0.0
111,0.0,0.0,0.0,-0.1258046875,0.0,0.0,0.0,0.0,0.0,0.0,0.025,0.0,0.0,0.0,0.0,0.0,-1.61,-0.123773964103473,0.0,0.0,0.0,0.0,0.0,0.0,-0.296,0.0,0.0,0.0
112,0.0,0.0,0.0,-0.1258046875,0.0,0.0,0.0,0.0,0.0,0.0,0.025,0.0,0.0,0.0,0.0,0.0,-1.61,-0.12371678470011206,0.0,0.0,0.0,0.0,0.0,0.0,-0.296,0.0,0.0,0.0
113,0.0,0.0,0.0,-0.125515625,0.0,0.0,0.0,0.0,0.0,0.0,0.024,0.0,0.0,0.0,0.0,0.0,-1.61,-0.12362879665480464,0.0,0.0,0.0,0.0,0.0,0.0,-0.296,0.0,0.0,0.0
114,0.0,0.0,0.0,-0.1249384765625,0.0,0.0,0.0,0.0,0.0,0.0,0.039,0.0,0.0,0.0,0.0,0.0,-1.61,-0.12351166568133942,0.0,0.0,0.0,0.0,0.0,0.0,-1.028,0.0,0.0,0.0
115,0.0,0.0,0.0,-0.1249384765625,0.0,0.0,0.0,0.0,0.0,0.0,0.039,0.0,0.0,0.0,0.0,0.0,-1.61,-0.12342585346745741,0.0,0.0,0.0,0.0,0.0,0.0,-1.028,0.0,0.0,0.0
116,0.0,0.0,0.0,-0.1245048828125,0.0,0.0,0.0,0.0,0.0,0.0,0.051,0.0,0.0,0.0,0.0,0.0,-1.61,-0.12335312291867032,0.0,0.0,0.0,0.0,0.0,0.0,-1.532,0.0,0.0,0.0
117,0.0,0.0,0.0,-0.1245048828125,0.0,0.0,0.0,0.0,0.0,0.0,0.051,0.0,0.0,0.0,0.0,0.0,-1.61,-0.1232684435415393,0.0,0.0,0.0,0.0,0.0,0.0,-1.532,0.0,0.0,0.0
118,0.0,0.0,0.0,-0.1245048828125,0.0,0.0,0.0,0.0,0.0,0.0,0.051,0.0,0.0,0.0,0.0,0.0,-1.61,-0.12320051651424137,0.0,0.0,0.0,0.0,0.0,0.0,-1.532,0.0,0.0,0.0
119,0.0,0.0,0.0,-0.124216796875,0.0,0.0,0.0,0.0,0.0,0.0,0.041,0.0,0.0,0.0,0.0,0.0,-1.61,-0.12311036187326452,0.0,0.0,0.0,0.0,0.0,0.0,-1.44,0.0,0.0,0.0
120,0.0,0.0,0.0,-0.123927734375,0.0,0.0,0.0,0.0,0.0,0.0,0.037,0.0,0.0,0.0,0.0,0.0,-1.61,-0.12296584536817423,0.0,0.0,0.0,0.0,0.0,0.0,-1.552,0.0,0.0,0.0
121,0.0,0.0,0.0,-0.123927734375,0.0,0.0,0.0,0.0,0.0,0.0,0.037,0.0,0.0,0.0,0.0,0.0,-1.61,-0.12286400166549426,0.0,0.0,0.0,0.0,0.0,0.0,-1.552,0.0,0.0,0.0
122,0.0,0.0,0.0,-0.123638671875,0.0,0.0,0.0,0.0,0.0,0.0,0.022,0.0,0.0,0.0,0.0,0.0,-1.61,-0.12277771939394255,0.0,0.0,0.0,0.0,0.0,0.0,-1.484,0.0,0.0,0.0
123,0.0,0.0,0.0,-0.123638671875,0.0,0.0,0.0,0.0,0.0,0.0,0.022,0.0,0.0,0.0,0.0,0.0,-1.61,-0.12267163291608058,0.0,0.0,0.0,0.0,0.0,0.0,-1.484,0.0,0.0,0.0
124,0.0,0.0,0.0,-0.1233505859375,0.0,0.0,0.0,0.0,0.0,0.0,0.02,0.0,0.0,0.0,0.0,0.0,-1.61,-0.12259646033350388,0.0,0.0,0.0,0.0,0.0,0.0,-1.256,0.0,0.0,0.0
125,0.0,0.0,0.0,-0.1233505859375,0.0,0.0,0.0,0.0,0.0,0.0,0.02,0.0,0.0,0.0,0.0,0.0,-1.61,-0.12253197852505628,0.0,0.0,0.0,0.0,0.0,0.0,-1.256,0.0,0.0,0.0
126,0.0,0.0,0.0,-0.1233505859375,0.0,0.0,0.0,0.0,0.0,0.0,0.02,0.0,0.0,0.0,0.0,0.0,-1.61,-0.1224430042869613,0.0,0.0,0.0,0.0,0.0,0.0,-1.256,0.0,0.0,0.0
127,0.0,0.0,0.0,-0.1230615234375,0.0,0.0,0.0,0.0,0.0,0.0,0.031,0.0,0.0,0.0,0.0,0.0,-1.61,-0.12234492004025292,0.0,0.0,0.0,0.0,0.0,0.0,-1.44,0.0,0.0,0.0
128,0.0,0.0,0.0,-0.1230615234375,0.0,0.0,0.0,0.0,0.0,0.0,0.031,0.0,0.0,0.0,0.0,0.0,-1.61,-0.1222540983732969,0.0,0.0,0.0,0.0,0.0,0.0,-1.44,0.0,0.0,0.0
129,0.0,0.0,0.0,-0.1229169921875,0.0,0.0,0.0,0.0,0.0,0.0,0.024,0.0,0.0,0.0,0.0,0.0,-1.61,-0.12216065751402194,0.0,0.0,0.0,0.0,0.0,0.0,-1.484,0.0,0.0,0.0
130,0.0,0.0,0.0,-0.1229169921875,0.0,0.0,0.0,0.0,0.0,0.0,0.024,0.0,0.0,0.0,0.0,0.0,-1.61,-0.12208281121886097,0.0,0.0,0.0,0.0,0.0,0.0,-1.484,0.0,0.0,0.0
131,0.0,0.0,0.0,-0.122763671875,0.0,0.0,0.0,0.0,0.0,0.0,0.015,0.0,0.0,0.0,0.0,0.0,-1.61,-0.1220071975634578,0.0,0.0,0.0,0.0,0.0,0.0,-1.736,0.0,0.0,0.0
132,0.0,0.0,0.0,-0.122763671875,0.0,0.0,0.0,0.0,0.0,0.0,0.015,0.0,0.0,0.0,0.0,0.0,-1.61,-0.12193253452369134,0.0,0.0,0.0,0.0,0.0,0.0,-1.736,0.0,0.0,0.0
133,0.0,0.0,0.0,-0.122619140625,0.0,0.0,0.0,0.0,0.0,0.0,0.019,0.0,0.0,0.0,0.0,0.0,-1.61,-0.1218552025443681,0.0,0.0,0.0,0.0,0.0,0.0,-1.736,0.0,0.0,0.0
134,0.0,0.0,0.0,-0.122619140625,0.0,0.0,0.0,0.0,0.0,0.0,0.019,0.0,0.0,0.0,0.0,0.0,-1.61,-0.12173941336038495,0.0,0.0,0.0,0.0,0.0,0.0,-1.736,0.0,0.0,0.0
135,0.0,0.0,0.0,-0.122619140625,0.0,0.0,0.0,0.0,0.0,0.0,0.019,0.0,0.0,0.0,0.0,0.0,-1.61,-0.12166183116029237,0.0,0.0,0.0,0.0,0.0,0.0,-1.736,0.0,0.0,0.0
136,0.0,0.0,0.0,-0.122619140625,0.0,0.0,0.0,0.0,0.0,0.0,0.007,0.0,0.0,0.0,0.0,0.0,-1.61,-0.12157440959840372,0.0,0.0,0.0,0.0,0.0,0.0,-1.3,0.0,0.0,0.0
137,0.0,0.0,0.0,-0.122619140625,0.0,0.0,0.0,0.0,0.0,0.0,0.007,0.0,0.0,0.0,0.0,0.0,-1.61,-0.12150945770478018,0.0,0.0,0.0,0.0,0.0,0.0,-1.3,0.0,0.0,0.0
138,0.0,0.0,0.0,-0.122619140625,0.0,0.0,0.0,0.0,0.0,0.0,-0.005,0.0,0.0,0.0,0.0,0.0,-1.61,-0.12142184526174786,0.0,0.0,0.0,0.0,0.0,0.0,-0.912,0.0,0.0,0.0
139,0.0,0.0,0.0,-0.122619140625,0.0,0.0,0.0,0.0,0.0,0.0,-0.005,0.0,0.0,0.0,0.0,0.0,-1.61,-0.12133967013150805,0.0,0.0,0.0,0.0,0.0,0.0,-0.912,0.0,0.0,0.0
140,0.0,0.0,0.0,-0.122619140625,0.0,0.0,0.0,0.0,0.0,0.0,-0.005,0.0,0.0,0.0,0.0,0.0,-1.61,-0.12126050642350623,0.0,0.0,0.0,0.0,0.0,0.0,-0.912,0.0,0.0,0.0
141,0.0,0.0,0.0,-0.122474609375,0.0,0.0,0.0,0.0,0.0,0.0,0.013,0.0,0.0,0.0,0.0,0.0,-1.61,-0.12114658996791589,0.0,0.0,0.0,0.0,0.0,0.0,-0.684,0.0,0.0,0.0
142,0.0,0.0,0.0,-0.122474609375,0.0,0.0,0.0,0.0,0.0,0.0,0.008,0.0,0.0,0.0,0.0,0.0,-1.61,-0.1210149743211549,0.0,0.0,0.0,0.0,0.0,0.0,-0.16,0.0,0.0,0.0
143,0.0,0.0,0.0,-0.122474609375,0.0,0.0,0.0,0.0,0.0,0.0,0.008,0.0,0.0,0.0,0.0,0.0,-1.61,-0.1209347915271263,0.0,0.0,0.0,0.0,0.0,0.0,-0.16,0.0,0.0,0.0
144,0.0,0.0,0.0,-0.122474609375,0.0,0.0,0.0,0.0,0.0,0.0,0.008,0.0,0.0,0.0,0.0,0.0,-1.61,-0.12084789893395705,0.0,0.0,0.0,0.0,0.0,0.0,-0.16,0.0,0.0,0.0
145,0.0,0.0,0.0,-0.122474609375,0.0,0.0,0.0,0.0,0.0,0.0,-0.001,0.0,0.0,0.0,0.0,0.0,-1.61,-0.12074833615403587,0.0,0.0,0.0,0.0,0.0,0.0,-0.02,0.0,0.0,0.0
146,0.0,0.0,0.0,-0.122474609375,0.0,0.0,0.0,0.0,0.0,0.0,-0.001,0.0,0.0,0.0,0.0,0.0,-1.61,-0.12064977230541134,0.0,0.0,0.0,0.0,0.0,0.0,-0.02,0.0,0.0,0.0
147,0.0,0.0,0.0,-0.122474609375,0.0,0.0,0.0,0.0,0.0,0.0,-0.001,0.0,0.0,0.0,0.0,0.0,-1.61,-0.1205243220155755,0.0,0.0,0.0,0.0,0.0,0.0,-0.296,0.0,0.0,0.0
148,0.0,0.0,0.0,-0.122474609375,0.0,0.0,0.0,0.0,0.0,0.0,-0.001,0.0,0.0,0.0,0.0,0.0,-1.61,-0.12031960951441976,0.0,0.0,0.0,0.0,0.0,0.0,-0.02,0.0,0.0,0.0
149,0.0,0.0,0.0,-0.122474609375,0.0,0.0,0.0,0.0,0.0,0.0,-0.001,0.0,0.0,0.0,0.0,0.0,-1.61,-0.12022771161189116,0.0,0.0,0.0,0.0,0.0,0.0,-0.02,0.0,0.0,0.0
150,0.0,0.0,0.0,-0.122474609375,0.0,0.0,0.0,0.0,0.0,0.0,-0.001,0.0,0.0,0.0,0.0,0.0,-1.61,-0.12012630313313398,0.0,0.0,0.0,0.0,0.0,0.0,0.228,0.0,0.0,0.0
151,0.0,0.0,0.0,-0.122474609375,0.0,0.0,0.0,0.0,0.0,0.0,-0.001,0.0,0.0,0.0,0.0,0.0,-1.61,-0.12000837701818887,0.0,0.0,0.0,0.0,0.0,0.0,0.228,0.0,0.0,0.0
152,0.0,0.0,0.0,-0.122474609375,0.0,0.0,0.0,0.0,0.0,0.0,-0.001,0.0,0.0,0.0,0.0,0.0,-1.61,-0.11984717135932503,0.0,0.0,0.0,0.0,0.0,0.0,0.844,0.0,0.0,0.0
153,0.0,0.0,0.0,-0.1223310546875,0.0,0.0,0.0,0.0,0.0,0.0,0.01,0.0,0.0,0.0,0.0,0.0,-1.61,-0.11972276924692939,0.0,0.0,0.0,0.0,0.0,0.0,0.82,0.0,0.0,0.0
154,0.0,0.0,0.0,-0.1223310546875,0.0,0.0,0.0,0.0,0.0,0.0,0.01,0.0,0.0,0.0,0.0,0.0,-1.61,-0.11961372811448893,0.0,0.0,0.0,0.0,0.0,0.0,0.82,0.0,0.0,0.0
155,0.0,0.0,0.0,-0.1223310546875,0.0,0.0,0.0,0.0,0.0,0.0,0.003,0.0,0.0,0.0,0.0,0.0,-1.61,-0.11952508717516891,0.0,0.0,0.0,0.0,0.0,0.0,0.868,0.0,0.0,0.0
156,0.0,0.0,0.0,-0.1223310546875,0.0,0.0,0.0,0.0,0.0,0.0,0.003,0.0,0.0,0.0,0.0,0.0,-1.61,-0.11943845523522513,0.0,0.0,0.0,0.0,0.0,0.0,0.868,0.0,0.0,0.0
157,0.0,0.0,0.0,-0.1223310546875,0.0,0.0,0.0,0.0,0.0,0.0,0.003,0.0,0.0,0.0,0.0,0.0,-1.61,-0.11936019794162356,0.0,0.0,0.0,0.0,0.0,0.0,0.868,0.0,0.0,0.0
158,0.0,0.0,0.0,-0.1223310546875,0.0,0.0,0.0,0.0,0.0,0.0,-0.001,0.0,0.0,0.0,0.0,0.0,-1.61,-0.11924741760011606,0.0,0.0,0.0,0.0,0.0,0.0,0.844,0.0,0.0,0.0
159,0.0,0.0,0.0,-0.1223310546875,0.0,0.0,0.0,0.0,0.0,0.0,-0.001,0.0,0.0,0.0,0.0,0.0,-1.61,-0.11915525689231671,0.0,0.0,0.0,0.0,0.0,0.0,0.844,0.0,0.0,0.0
160,0.0,0.0,0.0,-0.1220419921875,0.0,0.0,0.0,0.0,0.0,0.0,0.015,0.0,0.0,0.0,0.0,0.0,-1.61,-0.11905809353027803,0.0,0.0,0.0,0.0,0.0,0.0,0.8,0.0,0.0,0.0
161,0.0,0.0,0.0,-0.1220419921875,0.0,0.0,0.0,0.0,0.0,0.0,0.015,0.0,0.0,0.0,0.0,0.0,-1.61,-0.1189669949903319,0.0,0.0,0.0,0.0,0.0,0.0,0.8,0.0,0.0,0.0
162,0.0,0.0,0.0,-0.1218974609375,0.0,0.0,0.0,0.0,0.0,0.0,0.015,0.0,0.0,0.0,0.0,0.0,-1.61,-0.11885611935908195,0.0,0.0,0.0,0.0,0.0,0.0,0.98,0.0,0.0,0.0
163,0.0,0.0,0.0,-0.1218974609375,0.0,0.0,0.0,0.0,0.0,0.0,0.015,0.0,0.0,0.0,0.0,0.0,-1.61,-0.11876537728040727,0.0,0.0,0.0,0.0,0.0,0.0,0.98,0.0,0.0,0.0
164,0.0,0.0,0.0,-0.1218974609375,0.0,0.0,0.0,0.0,0.0,0.0,0.015,0.0,0.0,0.0,0.0,0.0,-1.61,-0.11867725485774325,0.0,0.0,0.0,0.0,0.0,0.0,0.98,0.0,0.0,0.0
165,0.0,0.0,0.0,-0.1217529296875,0.0,0.0,0.0,0.0,0.0,0.0,0.015,0.0,0.0,0.0,0.0,0.0,-1.61,-0.11859364146106222,0.0,0.0,0.0,0.0,0.0,0.0,1.324,0.0,0.0,0.0
166,0.0,0.0,0.0,-0.1217529296875,0.0,0.0,0.0,0.0,0.0,0.0,0.015,0.0,0.0,0.0,0.0,0.0,-1.61,-0.11845381116816937,0.0,0.0,0.0,0.0,0.0,0.0,1.324,0.0,0.0,0.0
167,0.0,0.0,0.0,-0.12146484375,0.0,0.0,0.0,0.0,0.0,0.0,0.02,0.0,0.0,0.0,0.0,0.0,-1.61,-0.11834088773437297,0.0,0.0,0.0,0.0,0.0,0.0,1.212,0.0,0.0,0.0
168,0.0,0.0,0.0,-0.12146484375,0.0,0.0,0.0,0.0,0.0,0.0,0.02,0.0,0.0,0.0,0.0,0.0,-1.61,-0.11824570780647502,0.0,0.0,0.0,0.0,0.0,0.0,1.212,0.0,0.0,0.0
169,0.0,0.0,0.0,-0.12146484375,0.0,0.0,0.0,0.0,0.0,0.0,0.015,0.0,0.0,0.0,0.0,0.0,-1.61,-0.11808538509155028,0.0,0.0,0.0,0.0,0.0,0.0,1.44,0.0,0.0,0.0
170,0.0,0.0,0.0,-0.12146484375,0.0,0.0,0.0,0.0,0.0,0.0,0.015,0.0,0.0,0.0,0.0,0.0,-1.61,-0.11795090806351358,0.0,0.0,0.0,0.0,0.0,0.0,1.44,0.0,0.0,0.0
171,0.0,0.0,0.0,-0.1213203125,0.0,0.0,0.0,0.0,0.0,0.0,0.007,0.0,0.0,0.0,0.0,0.0,-1.61,-0.11779159857528358,0.0,0.0,0.0,0.0,0.0,0.0,1.44,0.0,0.0,0.0
172,0.0,0.0,0.0,-0.12103125,0.0,0.0,0.0,0.0,0.0,0.0,0.019,0.0,0.0,0.0,0.0,0.0,-1.61,-0.11760948055793932,0.0,0.0,0.0,0.0,0.0,0.0,1.348,0.0,0.0,0.0
173,0.0,0.0,0.0,-0.12103125,0.0,0.0,0.0,0.0,0.0,0.0,0.019,0.0,0.0,0.0,0.0,0.0,-1.61,-0.11752528038956142,0.0,0.0,0.0,0.0,0.0,0.0,1.348,0.0,0.0,0.0
174,0.0,0.0,0.0,-0.12088671875,0.0,0.0,0.0,0.0,0.0,0.0,0.017,0.0,0.0,0.0,0.0,0.0,-1.61,-0.11743891719312949,0.0,0.0,0.0,0.0,0.0,0.0,1.576,0.0,0.0,0.0
175,0.0,0.0,0.0,-0.12088671875,0.0,0.0,0.0,0.0,0.0,0.0,0.017,0.0,0.0,0.0,0.0,0.0,-1.61,-0.11732007233423937,0.0,0.0,0.0,0.0,0.0,0.0,1.576,0.0,0.0,0.0
176,0.0,0.0,0.0,-0.12088671875,0.0,0.0,0.0,0.0,0.0,0.0,0.017,0.0,0.0,0.0,0.0,0.0,-1.61,-0.11721821253015341,0.0,0.0,0.0,0.0,0.0,0.0,1.576,0.0,0.0,0.0
177,0.0,0.0,0.0,-0.1207421875,0.0,0.0,0.0,0.0,0.0,0.0,0.019,0.0,0.0,0.0,0.0,0.0,-1.61,-0.11711789270871635,0.0,0.0,0.0,0.0,0.0,0.0,1.392,0.0,0.0,0.0
178,0.0,0.0,0.0,-0.1207421875,0.0,0.0,0.0,0.0,0.0,0.0,0.019,0.0,0.0,0.0,0.0,0.0,-1.61,-0.11699103528721665,0.0,0.0,0.0,0.0,0.0,0.0,1.392,0.0,0.0,0.0
179,0.0,0.0,0.0,-0.1204541015625,0.0,0.0,0.0,0.0,0.0,0.0,0.023,0.0,0.0,0.0,0.0,0.0,-1.61,-0.11689097523776312,0.0,0.0,0.0,0.0,0.0,0.0,1.44,0.0,0.0,0.0
180,0.0,0.0,0.0,-0.1204541015625,0.0,0.0,0.0,0.0,0.0,0.0,0.023,0.0,0.0,0.0,0.0,0.0,-1.61,-0.11675101652725892,0.0,0.0,0.0,0.0,0.0,0.0,1.44,0.0,0.0,0.0
181,0.0,0.0,0.0,-0.1201650390625,0.0,0.0,0.0,0.0,0.0,0.0,0.026,0.0,0.0,0.0,0.0,0.0,-1.61,-0.11661540413762979,0.0,0.0,0.0,0.0,0.0,0.0,1.3,0.0,0.0,0.0
182,0.0,0.0,0.0,-0.1198759765625,0.0,0.0,0.0,0.0,0.0,0.0,0.029,0.0,0.0,0.0,0.0,0.0,-1.61,-0.11640944749160397,0.0,0.0,0.0,0.0,0.0,0.0,1.256,0.0,0.0,0.0
183,0.0,0.0,0.0,-0.1198759765625,0.0,0.0,0.0,0.0,0.0,0.0,0.029,0.0,0.0,0.0,0.0,0.0,-1.61,-0.11624829920030665,0.0,0.0,0.0,0.0,0.0,0.0,1.256,0.0,0.0,0.0
184,0.0,0.0,0.0,-0.119578125,0.0,0.0,0.0,0.0,0.0,0.0,0.032,0.0,0.0,0.0,0.0,0.0,-1.61,-0.11613771068108247,0.0,0.0,0.0,0.0,0.0,0.0,1.28,0.0,0.0,0.0
185,0.0,0.0,0.0,-0.119578125,0.0,0.0,0.0,0.0,0.0,0.0,0.032,0.0,0.0,0.0,0.0,0.0,-1.61,-0.1160336846089516,0.0,0.0,0.0,0.0,0.0,0.0,1.28,0.0,0.0,0.0
186,0.0,0.0,0.0,-0.1192900390625,0.0,0.0,0.0,0.0,0.0,0.0,0.031,0.0,0.0,0.0,0.0,0.0,-1.61,-0.11592449187183647,0.0,0.0,0.0,0.0,0.0,0.0,1.14,0.0,0.0,0.0
187,0.0,0.0,0.0,-0.1192900390625,0.0,0.0,0.0,0.0,0.0,0.0,0.031,0.0,0.0,0.0,0.0,0.0,-1.61,-0.11583111352121388,0.0,0.0,0.0,0.0,0.0,0.0,1.14,0.0,0.0,0.0
188,0.0,0.0,0.0,-0.1192900390625,0.0,0.0,0.0,0.0,0.0,0.0,0.031,0.0,0.0,0.0,0.0,0.0,-1.61,-0.11572476106329,0.0,0.0,0.0,0.0,0.0,0.0,1.14,0.0,0.0,0.0
189,0.0,0.0,0.0,-0.11884765625,0.0,0.0,0.0,0.0,0.0,0.0,0.029,0.0,0.0,0.0,0.0,0.0,-1.61,-0.11561071578887643,0.0,0.0,0.0,0.0,0.0,0.0,1.164,0.0,0.0,0.0
190,0.0,0.0,0.0,-0.11884765625,0.0,0.0,0.0,0.0,0.0,0.0,0.029,0.0,0.0,0.0,0.0,0.0,-1.61,-0.11548456518892225,0.0,0.0,0.0,0.0,0.0,0.0,1.164,0.0,0.0,0.0
191,0.0,0.0,0.0,-0.11855859375,0.0,0.0,0.0,0.0,0.0,0.0,0.033,0.0,0.0,0.0,0.0,0.0,-1.61,-0.11538016638344155,0.0,0.0,0.0,0.0,0.0,0.0,0.936,0.0,0.0,0.0
192,0.0,0.0,0.0,-0.11855859375,0.0,0.0,0.0,0.0,0.0,0.0,0.033,0.0,0.0,0.0,0.0,0.0,-1.61,-0.1152671846748057,0.0,0.0,0.0,0.0,0.0,0.0,0.936,0.0,0.0,0.0
193,0.0,0.0,0.0,-0.1182705078125,0.0,0.0,0.0,0.0,0.0,0.0,0.036,0.0,0.0,0.0,0.0,0.0,-1.61,-0.11514042285983521,0.0,0.0,0.0,0.0,0.0,0.0,0.888,0.0,0.0,0.0
194,0.0,0.0,0.0,-0.1182705078125,0.0,0.0,0.0,0.0,0.0,0.0,0.036,0.0,0.0,0.0,0.0,0.0,-1.61,-0.11497927372434295,0.0,0.0,0.0,0.0,0.0,0.0,0.888,0.0,0.0,0.0
195,0.0,0.0,0.0,-0.1182705078125,0.0,0.0,0.0,0.0,0.0,0.0,0.036,0.0,0.0,0.0,0.0,0.0,-1.61,-0.11486352836103057,0.0,0.0,0.0,0.0,0.0,0.0,0.888,0.0,0.0,0.0
196,0.0,0.0,0.0,-0.1179814453125,0.0,0.0,0.0,0.0,0.0,0.0,0.032,0.0,0.0,0.0,0.0,0.0,-1.61,-0.11472233226770878,0.0,0.0,0.0,0.0,0.0,0.0,0.708,0.0,0.0,0.0
197,0.0,0.0,0.0,-0.1175478515625,0.0,0.0,0.0,0.0,0.0,0.0,0.03,0.0,0.0,0.0,0.0,0.0,-1.61,-0.11459323890905387,0.0,0.0,0.0,0.0,0.0,0.0,0.708,0.0,0.0,0.0
198,0.0,0.0,0.0,-0.1175478515625,0.0,0.0,0.0,0.0,0.0,0.0,0.03,0.0,0.0,0.0,0.0,0.0,-1.61,-0.11449326614045158,0.0,0.0,0.0,0.0,0.0,0.0,0.708,0.0,0.0,0.0
199,0.0,0.0,0.0,-0.1175478515625,0.0,0.0,0.0,0.0,0.0,0.0,0.03,0.0,0.0,0.0,0.0,0.0,-1.61,-0.11440226971468427,0.0,0.0,0.0,0.0,0.0,0.0,0.708,0.0,0.0,0.0
200,0.0,0.0,0.0,-0.117259765625,0.0,0.0,0.0,0.0,0.0,0.0,0.031,0.0,0.0,0.0,0.0,0.0,-1.61,-0.11430181305962601,0.0,0.0,0.0,0.0,0.0,0.0,0.5,0.0,0.0,0.0
201,0.0,0.0,0.0,-0.117259765625,0.0,0.0,0.0,0.0,0.0,0.0,0.031,0.0,0.0,0.0,0.0,0.0,-1.61,-0.11419763653305903,0.0,0.0,0.0,0.0,0.0,0.0,0.5,0.0,0.0,0.0
202,0.0,0.0,0.0,-0.117259765625,0.0,0.0,0.0,0.0,0.0,0.0,0.031,0.0,0.0,0.0,0.0,0.0,-1.61,-0.11410004584843882,0.0,0.0,0.0,0.0,0.0,0.0,0.5,0.0,0.0,0.0
203,0.0,0.0,0.0,-0.117115234375,0.0,0.0,0.0,0.0,0.0,0.0,0.026,0.0,0.0,0.0,0.0,0.0,-1.61,-0.11398205006340985,0.0,0.0,0.0,0.0,0.0,0.0,0.66,0.0,0.0,0.0
204,0.0,0.0,0.0,-0.117115234375,0.0,0.0,0.0,0.0,0.0,0.0,0.026,0.0,0.0,0.0,0.0,0.0,-1.61,-0.11384163869565123,0.0,0.0,0.0,0.0,0.0,0.0,0.66,0.0,0.0,0.0
205,0.0,0.0,0.0,-0.116681640625,0.0,0.0,0.0,0.0,0.0,0.0,0.03,0.0,0.0,0.0,0.0,0.0,-1.61,-0.11370446746601723,0.0,0.0,0.0,0.0,0.0,0.0,0.616,0.0,0.0,0.0
206,0.0,0.0,0.0,-0.116681640625,0.0,0.0,0.0,0.0,0.0,0.0,0.03,0.0,0.0,0.0,0.0,0.0,-1.61,-0.11360494687479641,0.0,0.0,0.0,0.0,0.0,0.0,0.616,0.0,0.0,0.0
207,0.0,0.0,0.0,-0.116681640625,0.0,0.0,0.0,0.0,0.0,0.0,0.03,0.0,0.0,0.0,0.0,0.0,-1.61,-0.11351835466182118,0.0,0.0,0.0,0.0,0.0,0.0,0.616,0.0,0.0,0.0
208,0.0,0.0,0.0,-0.1163837890625,0.0,0.0,0.0,0.0,0.0,0.0,0.037,0.0,0.0,0.0,0.0,0.0,-1.61,-0.11341008069024378,0.0,0.0,0.0,0.0,0.0,0.0,0.568,0.0,0.0,0.0
209,0.0,0.0,0.0,-0.1163837890625,0.0,0.0,0.0,0.0,0.0,0.0,0.037,0.0,0.0,0.0,0.0,0.0,-1.61,-0.11330485150699474,0.0,0.0,0.0,0.0,0.0,0.0,0.568,0.0,0.0,0.0
210,0.0,0.0,0.0,-0.115951171875,0.0,0.0,0.0,0.0,0.0,0.0,0.031,0.0,0.0,0.0,0.0,0.0,-1.61,-0.11318761466964157,0.0,0.0,0.0,0.0,0.0,0.0,0.752,0.0,0.0,0.0
211,0.0,0.0,0.0,-0.115951171875,0.0,0.0,0.0,0.0,0.0,0.0,0.031,0.0,0.0,0.0,0.0,0.0,-1.61,-0.11307116258924729,0.0,0.0,0.0,0.0,0.0,0.0,0.752,0.0,0.0,0.0
212,0.0,0.0,0.0,-0.115517578125,0.0,0.0,0.0,0.0,0.0,0.0,0.038,0.0,0.0,0.0,0.0,0.0,-1.61,-0.11290448332093657,0.0,0.0,0.0,0.0,0.0,0.0,0.524,0.0,0.0,0.0
213,0.0,0.0,0.0,-0.115517578125,0.0,0.0,0.0,0.0,0.0,0.0,0.038,0.0,0.0,0.0,0.0,0.0,-1.61,-0.11279264237088803,0.0,0.0,0.0,0.0,0.0,0.0,0.524,0.0,0.0,0.0
214,0.0,0.0,0.0,-0.115517578125,0.0,0.0,0.0,0.0,0.0,0.0,0.038,0.0,0.0,0.0,0.0,0.0,-1.61,-0.11269684459232573,0.0,0.0,0.0,0.0,0.0,0.0,0.524,0.0,0.0,0.0
215,0.0,0.0,0.0,-0.1152294921875,0.0,0.0,0.0,0.0,0.0,0.0,0.041,0.0,0.0,0.0,0.0,0.0,-1.61,-0.11259700116358849,0.0,0.0,0.0,0.0,0.0,0.0,0.34,0.0,0.0,0.0
216,0.0,0.0,0.0,-0.1152294921875,0.0,0.0,0.0,0.0,0.0,0.0,0.041,0.0,0.0,0.0,0.0,0.0,-1.61,-0.11248439248471515,0.0,0.0,0.0,0.0,0.0,0.0,0.34,0.0,0.0,0.0
217,0.0,0.0,0.0,-0.1149404296875,0.0,0.0,0.0,0.0,0.0,0.0,0.032,0.0,0.0,0.0,0.0,0.0,-1.61,-0.1123583849661112,0.0,0.0,0.0,0.0,0.0,0.0,0.248,0.0,0.0,0.0
218,0.0,0.0,0.0,-0.1149404296875,0.0,0.0,0.0,0.0,0.0,0.0,0.032,0.0,0.0,0.0,0.0,0.0,-1.61,-0.11225764871450188,0.0,0.0,0.0,0.0,0.0,0.0,0.248,0.0,0.0,0.0
219,0.0,0.0,0.0,-0.1149404296875,0.0,0.0,0.0,0.0,0.0,0.0,0.032,0.0,0.0,0.0,0.0,0.0,-1.61,-0.11215011159866033,0.0,0.0,0.0,0.0,0.0,0.0,0.248,0.0,0.0,0.0
220,0.0,0.0,0.0,-0.1146513671875,0.0,0.0,0.0,0.0,0.0,0.0,0.029,0.0,0.0,0.0,0.0,0.0,-1.61,-0.11198806830481077,0.0,0.0,0.0,0.0,0.0,0.0,0.112,0.0,0.0,0.0
221,0.0,0.0,0.0,-0.1146513671875,0.0,0.0,0.0,0.0,0.0,0.0,0.029,0.0,0.0,0.0,0.0,0.0,-1.61,-0.11184782545681692,0.0,0.0,0.0,0.0,0.0,0.0,0.112,0.0,0.0,0.0
222,0.0,0.0,0.0,-0.11436328125,0.0,0.0,0.0,0.0,0.0,0.0,0.025,0.0,0.0,0.0,0.0,0.0,-1.61,-0.1117195344780564,0.0,0.0,0.0,0.0,0.0,0.0,0.34,0.0,0.0,0.0
223,0.0,0.0,0.0,-0.11436328125,0.0,0.0,0.0,0.0,0.0,0.0,0.025,0.0,0.0,0.0,0.0,0.0,-1.61,-0.11160991316652133,0.0,0.0,0.0,0.0,0.0,0.0,0.34,0.0,0.0,0.0
224,0.0,0.0,0.0,-0.11407421875,0.0,0.0,0.0,0.0,0.0,0.0,0.024,0.0,0.0,0.0,0.0,0.0,-1.61,-0.11146211553098719,0.0,0.0,0.0,0.0,0.0,0.0,0.5,0.0,0.0,0.0
225,0.0,0.0,0.0,-0.11407421875,0.0,0.0,0.0,0.0,0.0,0.0,0.024,0.0,0.0,0.0,0.0,0.0,-1.61,-0.11135077219836664,0.0,0.0,0.0,0.0,0.0,0.0,0.5,0.0,0.0,0.0
226,0.0,0.0,0.0,-0.11378515625,0.0,0.0,0.0,0.0,0.0,0.0,0.033,0.0,0.0,0.0,0.0,0.0,-1.61,-0.11120381779957837,0.0,0.0,0.0,0.0,0.0,0.0,0.432,0.0,0.0,0.0
227,0.0,0.0,0.0,-0.11378515625,0.0,0.0,0.0,0.0,0.0,0.0,0.033,0.0,0.0,0.0,0.0,0.0,-1.61,-0.11107993478379295,0.0,0.0,0.0,0.0,0.0,0.0,0.432,0.0,0.0,0.0
228,0.0,0.0,0.0,-0.11378515625,0.0,0.0,0.0,0.0,0.0,0.0,0.033,0.0,0.0,0.0,0.0,0.0,-1.61,-0.11093298723776959,0.0,0.0,0.0,0.0,0.0,0.0,0.432,0.0,0.0,0.0
229,0.0,0.0,0.0,-0.1134873046875,0.0,0.0,0.0,0.0,0.0,0.0,0.032,0.0,0.0,0.0,0.0,0.0,-1.61,-0.11081190558953159,0.0,0.0,0.0,0.0,0.0,0.0,0.408,0.0,0.0,0.0
230,0.0,0.0,0.0,-0.1134873046875,0.0,0.0,0.0,0.0,0.0,0.0,0.032,0.0,0.0,0.0,0.0,0.0,-1.61,-0.11070446383867882,0.0,0.0,0.0,0.0,0.0,0.0,0.408,0.0,0.0,0.0
231,0.0,0.0,0.0,-0.11319921875,0.0,0.0,0.0,0.0,0.0,0.0,0.03,0.0,0.0,0.0,0.0,0.0,-1.61,-0.11058714762928797,0.0,0.0,0.0,0.0,0.0,0.0,0.18,0.0,0.0,0.0
232,0.0,0.0,0.0,-0.11319921875,0.0,0.0,0.0,0.0,0.0,0.0,0.03,0.0,0.0,0.0,0.0,0.0,-1.61,-0.11044814966622843,0.0,0.0,0.0,0.0,0.0,0.0,0.18,0.0,0.0,0.0
233,0.0,0.0,0.0,-0.11291015625,0.0,0.0,0.0,0.0,0.0,0.0,0.029,0.0,0.0,0.0,0.0,0.0,-1.61,-0.11028935863622988,0.0,0.0,0.0,0.0,0.0,0.0,0.136,0.0,0.0,0.0
234,0.0,0.0,0.0,-0.11291015625,0.0,0.0,0.0,0.0,0.0,0.0,0.029,0.0,0.0,0.0,0.0,0.0,-1.61,-0.11012800832758307,0.0,0.0,0.0,0.0,0.0,0.0,0.136,0.0,0.0,0.0
235,0.0,0.0,0.0,-0.112765625,0.0,0.0,0.0,0.0,0.0,0.0,0.025,0.0,0.0,0.0,0.0,0.0,-1.61,-0.10993136837369864,0.0,0.0,0.0,0.0,0.0,0.0,0.388,0.0,0.0,0.0
236,0.0,0.0,0.0,-0.112765625,0.0,0.0,0.0,0.0,0.0,0.0,0.025,0.0,0.0,0.0,0.0,0.0,-1.61,-0.10980460497751565,0.0,0.0,0.0,0.0,0.0,0.0,0.388,0.0,0.0,0.0
237,0.0,0.0,0.0,-0.1124775390625,0.0,0.0,0.0,0.0,0.0,0.0,0.024,0.0,0.0,0.0,0.0,0.0,-1.61,-0.10966766629749186,0.0,0.0,0.0,0.0,0.0,0.0,0.48,0.0,0.0,0.0
238,0.0,0.0,0.0,-0.1124775390625,0.0,0.0,0.0,0.0,0.0,0.0,0.024,0.0,0.0,0.0,0.0,0.0,-1.61,-0.1095545733745864,0.0,0.0,0.0,0.0,0.0,0.0,0.48,0.0,0.0,0.0
239,0.0,0.0,0.0,-0.1124775390625,0.0,0.0,0.0,0.0,0.0,0.0,0.024,0.0,0.0,0.0,0.0,0.0,-1.61,-0.10942272452378446,0.0,0.0,0.0,0.0,0.0,0.0,0.48,0.0,0.0,0.0
240,0.0,0.0,0.0,-0.1121884765625,0.0,0.0,0.0,0.0,0.0,0.0,0.027,0.0,0.0,0.0,0.0,0.0,-1.61,-0.10926885418174176,0.0,0.0,0.0,0.0,0.0,0.0,0.48,0.0,0.0,0.0
241,0.0,0.0,0.0,-0.1121884765625,0.0,0.0,0.0,0.0,0.0,0.0,0.027,0.0,0.0,0.0,0.0,0.0,-1.61,-0.10910837159112499,0.0,0.0,0.0,0.0,0.0,0.0,0.48,0.0,0.0,0.0
242,0.0,0.0,0.0,-0.1118994140625,0.0,0.0,0.0,0.0,0.0,0.0,0.021,0.0,0.0,0.0,0.0,0.0,-1.61,-0.10891167200387598,0.0,0.0,0.0,0.0,0.0,0.0,0.66,0.0,0.0,0.0
243,0.0,0.0,0.0,-0.1118994140625,0.0,0.0,0.0,0.0,0.0,0.0,0.021,0.0,0.0,0.0,0.0,0.0,-1.61,-0.10878273678743627,0.0,0.0,0.0,0.0,0.0,0.0,0.66,0.0,0.0,0.0
244,0.0,0.0,0.0,-0.111611328125,0.0,0.0,0.0,0.0,0.0,0.0,0.029,0.0,0.0,0.0,0.0,0.0,-1.61,-0.10867175416988602,0.0,0.0,0.0,0.0,0.0,0.0,0.66,0.0,0.0,0.0
245,0.0,0.0,0.0,-0.111611328125,0.0,0.0,0.0,0.0,0.0,0.0,0.029,0.0,0.0,0.0,0.0,0.0,-1.61,-0.10853792111786086,0.0,0.0,0.0,0.0,0.0,0.0,0.66,0.0,0.0,0.0
246,0.0,0.0,0.0,-0.111322265625,0.0,0.0,0.0,0.0,0.0,0.0,0.034,0.0,0.0,0.0,0.0,0.0,-1.61,-0.10836838555788697,0.0,0.0,0.0,0.0,0.0,0.0,0.616,0.0,0.0,0.0
247,0.0,0.0,0.0,-0.111322265625,0.0,0.0,0.0,0.0,0.0,0.0,0.034,0.0,0.0,0.0,0.0,0.0,-1.61,-0.10823788239120309,0.0,0.0,0.0,0.0,0.0,0.0,0.616,0.0,0.0,0.0
248,0.0,0.0,0.0,-0.111322265625,0.0,0.0,0.0,0.0,0.0,0.0,0.034,0.0,0.0,0.0,0.0,0.0,-1.61,-0.10813229703384698,0.0,0.0,0.0,0.0,0.0,0.0,0.616,0.0,0.0,0.0
249,0.0,0.0,0.0,-0.110888671875,0.0,0.0,0.0,0.0,0.0,0.0,0.034,0.0,0.0,0.0,0.0,0.0,-1.61,-0.10803078337566878,0.0,0.0,0.0,0.0,0.0,0.0,0.548,0.0,0.0,0.0
250,0.0,0.0,0.0,-0.110888671875,0.0,0.0,0.0,0.0,0.0,0.0,0.034,0.0,0.0,0.0,0.0,0.0,-1.61,-0.10785779178566224,0.0,0.0,0.0,0.0,0.0,0.0,0.548,0.0,0.0,0.0
251,0.0,0.0,0.0,-0.1106005859375,0.0,0.0,0.0,0.0,0.0,0.0,0.034,0.0,0.0,0.0,0.0,0.0,-1.61,-0.1077238681609063,0.0,0.0,0.0,0.0,0.0,0.0,0.32,0.0,0.0,0.0
252,0.0,0.0,0.0,-0.1106005859375,0.0,0.0,0.0,0.0,0.0,0.0,0.034,0.0,0.0,0.0,0.0,0.0,-1.61,-0.10761099202184743,0.0,0.0,0.0,0.0,0.0,0.0,0.32,0.0,0.0,0.0
253,0.0,0.0,0.0,-0.1106005859375,0.0,0.0,0.0,0.0,0.0,0.0,0.034,0.0,0.0,0.0,0.0,0.0,-1.61,-0.10750127451447493,0.0,0.0,0.0,0.0,0.0,0.0,0.32,0.0,0.0,0.0
254,0.0,0.0,0.0,-0.110302734375,0.0,0.0,0.0,0.0,0.0,0.0,0.031,0.0,0.0,0.0,0.0,0.0,-1.61,-0.10734036363116767,0.0,0.0,0.0,0.0,0.0,0.0,0.32,0.0,0.0,0.0
255,0.0,0.0,0.0,-0.110302734375,0.0,0.0,0.0,0.0,0.0,0.0,0.031,0.0,0.0,0.0,0.0,0.0,-1.61,-0.10720372434598872,0.0,0.0,0.0,0.0,0.0,0.0,0.32,0.0,0.0,0.0
256,0.0,0.0,0.0,-0.110013671875,0.0,0.0,0.0,0.0,0.0,0.0,0.03,0.0,0.0,0.0,0.0,0.0,-1.61,-0.1070852585920757,0.0,0.0,0.0,0.0,0.0,0.0,0.524,0.0,0.0,0.0
257,0.0,0.0,0.0,-0.110013671875,0.0,0.0,0.0,0.0,0.0,0.0,0.03,0.0,0.0,0.0,0.0,0.0,-1.61,-0.10694610310994992,0.0,0.0,0.0,0.0,0.0,0.0,0.524,0.0,0.0,0.0
258,0.0,0.0,0.0,-0.1095810546875,0.0,0.0,0.0,0.0,0.0,0.0,0.038,0.0,0.0,0.0,0.0,0.0,-1.61,-0.10669490022112747,0.0,0.0,0.0,0.0,0.0,0.0,0.364,0.0,0.0,0.0
259,0.0,0.0,0.0,-0.1092919921875,0.0,0.0,0.0,0.0,0.0,0.0,0.035,0.0,0.0,0.0,0.0,0.0,-1.61,-0.10640711399854243,0.0,0.0,0.0,0.0,0.0,0.0,0.364,0.0,0.0,0.0
260,0.0,0.0,0.0,-0.1092919921875,0.0,0.0,0.0,0.0,0.0,0.0,0.035,0.0,0.0,0.0,0.0,0.0,-1.61,-0.10624558230635331,0.0,0.0,0.0,0.0,0.0,0.0,0.364,0.0,0.0,0.0
261,0.0,0.0,0.0,-0.1087138671875,0.0,0.0,0.0,0.0,0.0,0.0,0.04,0.0,0.0,0.0,0.0,0.0,-1.61,-0.10602025181894857,0.0,0.0,0.0,0.0,0.0,0.0,0.248,0.0,0.0,0.0
262,0.0,0.0,0.0,-0.1087138671875,0.0,0.0,0.0,0.0,0.0,0.0,0.04,0.0,0.0,0.0,0.0,0.0,-1.61,-0.10588242032455407,0.0,0.0,0.0,0.0,0.0,0.0,0.248,0.0,0.0,0.0
263,0.0,0.0,0.0,-0.10842578125,0.0,0.0,0.0,0.0,0.0,0.0,0.043,0.0,0.0,0.0,0.0,0.0,-1.61,-0.1057356564048679,0.0,0.0,0.0,0.0,0.0,0.0,-0.088,0.0,0.0,0.0
264,0.0,0.0,0.0,-0.10842578125,0.0,0.0,0.0,0.0,0.0,0.0,0.043,0.0,0.0,0.0,0.0,0.0,-1.61,-0.1055880960302188,0.0,0.0,0.0,0.0,0.0,0.0,-0.088,0.0,0.0,0.0
265,0.0,0.0,0.0,-0.10813671875,0.0,0.0,0.0,0.0,0.0,0.0,0.034,0.0,0.0,0.0,0.0,0.0,-1.61,-0.10543806696808469,0.0,0.0,0.0,0.0,0.0,0.0,0.044,0.0,0.0,0.0
266,0.0,0.0,0.0,-0.10813671875,0.0,0.0,0.0,0.0,0.0,0.0,0.034,0.0,0.0,0.0,0.0,0.0,-1.61,-0.10528085801038181,0.0,0.0,0.0,0.0,0.0,0.0,0.044,0.0,0.0,0.0
267,0.0,0.0,0.0,-0.1075595703125,0.0,0.0,0.0,0.0,0.0,0.0,0.038,0.0,0.0,0.0,0.0,0.0,-1.61,-0.10514916080138546,0.0,0.0,0.0,0.0,0.0,0.0,0.136,0.0,0.0,0.0
268,0.0,0.0,0.0,-0.1075595703125,0.0,0.0,0.0,0.0,0.0,0.0,0.038,0.0,0.0,0.0,0.0,0.0,-1.61,-0.10499077504795136,0.0,0.0,0.0,0.0,0.0,0.0,0.136,0.0,0.0,0.0
269,0.0,0.0,0.0,-0.1071171875,0.0,0.0,0.0,0.0,0.0,0.0,0.047,0.0,0.0,0.0,0.0,0.0,-1.61,-0.10478828237455798,0.0,0.0,0.0,0.0,0.0,0.0,0.044,0.0,0.0,0.0
270,0.0,0.0,0.0,-0.1071171875,0.0,0.0,0.0,0.0,0.0,0.0,0.047,0.0,0.0,0.0,0.0,0.0,-1.61,-0.10463682416251072,0.0,0.0,0.0,0.0,0.0,0.0,0.044,0.0,0.0,0.0
271,0.0,0.0,0.0,-0.1071171875,0.0,0.0,0.0,0.0,0.0,0.0,0.047,0.0,0.0,0.0,0.0,0.0,-1.61,-0.10449185303866977,0.0,0.0,0.0,0.0,0.0,0.0,0.044,0.0,0.0,0.0
272,0.0,0.0,0.0,-0.106828125,0.0,0.0,0.0,0.0,0.0,0.0,0.04,0.0,0.0,0.0,0.0,0.0,-1.61,-0.10431521504363417,0.0,0.0,0.0,0.0,0.0,0.0,-0.204,0.0,0.0,0.0
273,0.0,0.0,0.0,-0.106828125,0.0,0.0,0.0,0.0,0.0,0.0,0.04,0.0,0.0,0.0,0.0,0.0,-1.61,-0.10417624082476809,0.0,0.0,0.0,0.0,0.0,0.0,-0.204,0.0,0.0,0.0
274,0.0,0.0,0.0,-0.1063955078125,0.0,0.0,0.0,0.0,0.0,0.0,0.035,0.0,0.0,0.0,0.0,0.0,-1.61,-0.10403397865794713,0.0,0.0,0.0,0.0,0.0,0.0,-0.044,0.0,0.0,0.0
275,0.0,0.0,0.0,-0.1063955078125,0.0,0.0,0.0,0.0,0.0,0.0,0.035,0.0,0.0,0.0,0.0,0.0,-1.61,-0.10389716943120464,0.0,0.0,0.0,0.0,0.0,0.0,-0.044,0.0,0.0,0.0
276,0.0,0.0,0.0,-0.1059619140625,0.0,0.0,0.0,0.0,0.0,0.0,0.039,0.0,0.0,0.0,0.0,0.0,-1.61,-0.10372423574896732,0.0,0.0,0.0,0.0,0.0,0.0,-0.204,0.0,0.0,0.0
277,0.0,0.0,0.0,-0.1059619140625,0.0,0.0,0.0,0.0,0.0,0.0,0.039,0.0,0.0,0.0,0.0,0.0,-1.61,-0.10358914136500257,0.0,0.0,0.0,0.0,0.0,0.0,-0.204,0.0,0.0,0.0
278,0.0,0.0,0.0,-0.1059619140625,0.0,0.0,0.0,0.0,0.0,0.0,0.039,0.0,0.0,0.0,0.0,0.0,-1.61,-0.10343563399010587,0.0,0.0,0.0,0.0,0.0,0.0,-0.204,0.0,0.0,0.0
279,0.0,0.0,0.0,-0.105529296875,0.0,0.0,0.0,0.0,0.0,0.0,0.042,0.0,0.0,0.0,0.0,0.0,-1.61,-0.10324997230623234,0.0,0.0,0.0,0.0,0.0,0.0,-0.364,0.0,0.0,0.0
280,0.0,0.0,0.0,-0.105529296875,0.0,0.0,0.0,0.0,0.0,0.0,0.042,0.0,0.0,0.0,0.0,0.0,-1.61,-0.10307819290720144,0.0,0.0,0.0,0.0,0.0,0.0,-0.364,0.0,0.0,0.0
281,0.0,0.0,0.0,-0.105095703125,0.0,0.0,0.0,0.0,0.0,0.0,0.047,0.0,0.0,0.0,0.0,0.0,-1.61,-0.10287838324916143,0.0,0.0,0.0,0.0,0.0,0.0,-0.432,0.0,0.0,0.0
282,0.0,0.0,0.0,-0.1046630859375,0.0,0.0,0.0,0.0,0.0,0.0,0.047,0.0,0.0,0.0,0.0,0.0,-1.61,-0.10270414033064725,0.0,0.0,0.0,0.0,0.0,0.0,-0.5,0.0,0.0,0.0
283,0.0,0.0,0.0,-0.1046630859375,0.0,0.0,0.0,0.0,0.0,0.0,0.047,0.0,0.0,0.0,0.0,0.0,-1.61,-0.10250231637382004,0.0,0.0,0.0,0.0,0.0,0.0,-0.5,0.0,0.0,0.0
284,0.0,0.0,0.0,-0.1043740234375,0.0,0.0,0.0,0.0,0.0,0.0,0.038,0.0,0.0,0.0,0.0,0.0,-1.61,-0.10225564683516,0.0,0.0,0.0,0.0,0.0,0.0,-0.456,0.0,0.0,0.0
285,0.0,0.0,0.0,-0.1043740234375,0.0,0.0,0.0,0.0,0.0,0.0,0.038,0.0,0.0,0.0,0.0,0.0,-1.61,-0.10200523801545688,0.0,0.0,0.0,0.0,0.0,0.0,-0.456,0.0,0.0,0.0
286,0.0,0.0,0.0,-0.103931640625,0.0,0.0,0.0,0.0,0.0,0.0,0.039,0.0,0.0,0.0,0.0,0.0,-1.61,-0.1017943829509634,0.0,0.0,0.0,0.0,0.0,0.0,-0.408,0.0,0.0,0.0
287,0.0,0.0,0.0,-0.1034990234375,0.0,0.0,0.0,0.0,0.0,0.0,0.037,0.0,0.0,0.0,0.0,0.0,-1.61,-0.10160618596480256,0.0,0.0,0.0,0.0,0.0,0.0,-0.48,0.0,0.0,0.0
288,0.0,0.0,0.0,-0.1034990234375,0.0,0.0,0.0,0.0,0.0,0.0,0.037,0.0,0.0,0.0,0.0,0.0,-1.61,-0.10142261105773297,0.0,0.0,0.0,0.0,0.0,0.0,-0.48,0.0,0.0,0.0
289,0.0,0.0,0.0,-0.1034990234375,0.0,0.0,0.0,0.0,0.0,0.0,0.037,0.0,0.0,0.0,0.0,0.0,-1.61,-0.10128286970620062,0.0,0.0,0.0,0.0,0.0,0.0,-0.48,0.0,0.0,0.0
290,0.0,0.0,0.0,-0.1032099609375,0.0,0.0,0.0,0.0,0.0,0.0,0.032,0.0,0.0,0.0,0.0,0.0,-1.61,-0.10115466017517306,0.0,0.0,0.0,0.0,0.0,0.0,-0.568,0.0,0.0,0.0
291,0.0,0.0,0.0,-0.1032099609375,0.0,0.0,0.0,0.0,0.0,0.0,0.032,0.0,0.0,0.0,0.0,0.0,-1.61,-0.10092943367964034,0.0,0.0,0.0,0.0,0.0,0.0,-0.568,0.0,0.0,0.0
292,0.0,0.0,0.0,-0.1029208984375,0.0,0.0,0.0,0.0,0.0,0.0,0.034,0.0,0.0,0.0,0.0,0.0,-1.61,-0.10075580273957686,0.0,0.0,0.0,0.0,0.0,0.0,-0.48,0.0,0.0,0.0
293,0.0,0.0,0.0,-0.1029208984375,0.0,0.0,0.0,0.0,0.0,0.0,0.034,0.0,0.0,0.0,0.0,0.0,-1.61,-0.10062614764442412,0.0,0.0,0.0,0.0,0.0,0.0,-0.48,0.0,0.0,0.0
294,0.0,0.0,0.0,-0.10248828125,0.0,0.0,0.0,0.0,0.0,0.0,0.042,0.0,0.0,0.0,0.0,0.0,-1.61,-0.10049457784373933,0.0,0.0,0.0,0.0,0.0,0.0,-0.408,0.0,0.0,0.0
295,0.0,0.0,0.0,-0.10248828125,0.0,0.0,0.0,0.0,0.0,0.0,0.042,0.0,0.0,0.0,0.0,0.0,-1.61,-0.10036808558011343,0.0,0.0,0.0,0.0,0.0,0.0,-0.408,0.0,0.0,0.0
296,0.0,0.0,0.0,-0.10248828125,0.0,0.0,0.0,0.0,0.0,0.0,0.042,0.0,0.0,0.0,0.0,0.0,-1.61,-0.10024252070633244,0.0,0.0,0.0,0.0,0.0,0.0,-0.408,0.0,0.0,0.0
297,0.0,0.0,0.0,-0.10219921875,0.0,0.0,0.0,0.0,0.0,0.0,0.037,0.0,0.0,0.0,0.0,0.0,-1.61,-0.1001127457941842,0.0,0.0,0.0,0.0,0.0,0.0,-0.408,0.0,0.0,0.0
298,0.0,0.0,0.0,-0.10219921875,0.0,0.0,0.0,0.0,0.0,0.0,0.037,0.0,0.0,0.0,0.0,0.0,-1.61,-0.09994386527495483,0.0,0.0,0.0,0.0,0.0,0.0,-0.408,0.0,0.0,0.0
299,0.0,0.0,0.0,-0.1017666015625,0.0,0.0,0.0,0.0,0.0,0.0,0.028,0.0,0.0,0.0,0.0,0.0,-1.61,-0.09968733692698775,0.0,0.0,0.0,0.0,0.0,0.0,-0.296,0.0,0.0,0.0
300,0.0,0.0,0.0,-0.1017666015625,0.0,0.0,0.0,0.0,0.0,0.0,0.028,0.0,0.0,0.0,0.0,0.0,-1.61,-0.09955552368625865,0.0,0.0,0.0,0.0,0.0,0.0,-0.296,0.0,0.0,0.0
301,0.0,0.0,0.0,-0.1017666015625,0.0,0.0,0.0,0.0,0.0,0.0,0.028,0.0,0.0,0.0,0.0,0.0,-1.61,-0.09943097127412046,0.0,0.0,0.0,0.0,0.0,0.0,-0.296,0.0,0.0,0.0
302,0.0,0.0,0.0,-0.1014775390625,0.0,0.0,0.0,0.0,0.0,0.0,0.039,0.0,0.0,0.0,0.0,0.0,-1.61,-0.0992919346427635,0.0,0.0,0.0,0.0,0.0,0.0,-0.272,0.0,0.0,0.0
303,0.0,0.0,0.0,-0.1014775390625,0.0,0.0,0.0,0.0,0.0,0.0,0.039,0.0,0.0,0.0,0.0,0.0,-1.61,-0.0991022966767025,0.0,0.0,0.0,0.0,0.0,0.0,-0.272,0.0,0.0,0.0
304,0.0,0.0,0.0,-0.10103515625,0.0,0.0,0.0,0.0,0.0,0.0,0.035,0.0,0.0,0.0,0.0,0.0,-1.61,-0.09895342218973564,0.0,0.0,0.0,0.0,0.0,0.0,-0.388,0.0,0.0,0.0
305,0.0,0.0,0.0,-0.10103515625,0.0,0.0,0.0,0.0,0.0,0.0,0.035,0.0,0.0,0.0,0.0,0.0,-1.61,-0.09878259107531695,0.0,0.0,0.0,0.0,0.0,0.0,-0.388,0.0,0.0,0.0
306,0.0,0.0,0.0,-0.1007470703125,0.0,0.0,0.0,0.0,0.0,0.0,0.032,0.0,0.0,0.0,0.0,0.0,-1.61,-0.09858956231896567,0.0,0.0,0.0,0.0,0.0,0.0,-0.296,0.0,0.0,0.0
307,0.0,0.0,0.0,-0.1007470703125,0.0,0.0,0.0,0.0,0.0,0.0,0.032,0.0,0.0,0.0,0.0,0.0,-1.61,-0.098384629243743,0.0,0.0,0.0,0.0,0.0,0.0,-0.296,0.0,0.0,0.0
308,0.0,0.0,0.0,-0.1004580078125,0.0,0.0,0.0,0.0,0.0,0.0,0.035,0.0,0.0,0.0,0.0,0.0,-1.61,-0.09823628734725845,0.0,0.0,0.0,0.0,0.0,0.0,-0.272,0.0,0.0,0.0
309,0.0,0.0,0.0,-0.1004580078125,0.0,0.0,0.0,0.0,0.0,0.0,0.035,0.0,0.0,0.0,0.0,0.0,-1.61,-0.09810445286312261,0.0,0.0,0.0,0.0,0.0,0.0,-0.272,0.0,0.0,0.0
310,0.0,0.0,0.0,-0.1004580078125,0.0,0.0,0.0,0.0,0.0,0.0,0.035,0.0,0.0,0.0,0.0,0.0,-1.61,-0.09794038477800127,0.0,0.0,0.0,0.0,0.0,0.0,-0.272,0.0,0.0,0.0
311,0.0,0.0,0.0,-0.1000244140625,0.0,0.0,0.0,0.0,0.0,0.0,0.035,0.0,0.0,0.0,0.0,0.0,-1.61,-0.09777195762132093,0.0,0.0,0.0,0.0,0.0,0.0,-0.204,0.0,0.0,0.0
312,0.0,0.0,0.0,-0.1000244140625,0.0,0.0,0.0,0.0,0.0,0.0,0.035,0.0,0.0,0.0,0.0,0.0,-1.61,-0.09758479387948285,0.0,0.0,0.0,0.0,0.0,0.0,-0.204,0.0,0.0,0.0
313,0.0,0.0,0.0,-0.099736328125,0.0,0.0,0.0,0.0,0.0,0.0,0.034,0.0,0.0,0.0,0.0,0.0,-1.61,-0.09739364513412756,0.0,0.0,0.0,0.0,0.0,0.0,-0.228,0.0,0.0,0.0
314,0.0,0.0,0.0,-0.099736328125,0.0,0.0,0.0,0.0,0.0,0.0,0.034,0.0,0.0,0.0,0.0,0.0,-1.61,-0.09719181499207105,0.0,0.0,0.0,0.0,0.0,0.0,-0.228,0.0,0.0,0.0
315,0.0,0.0,0.0,-0.099302734375,0.0,0.0,0.0,0.0,0.0,0.0,0.035,0.0,0.0,0.0,0.0,0.0,-1.61,-0.09702566844718988,0.0,0.0,0.0,0.0,0.0,0.0,-0.136,0.0,0.0,0.0
316,0.0,0.0,0.0,-0.099302734375,0.0,0.0,0.0,0.0,0.0,0.0,0.035,0.0,0.0,0.0,0.0,0.0,-1.61,-0.09689096474382705,0.0,0.0,0.0,0.0,0.0,0.0,-0.136,0.0,0.0,0.0
317,0.0,0.0,0.0,-0.099302734375,0.0,0.0,0.0,0.0,0.0,0.0,0.035,0.0,0.0,0.0,0.0,0.0,-1.61,-0.09675759289604319,0.0,0.0,0.0,0.0,0.0,0.0,-0.136,0.0,0.0,0.0
318,0.0,0.0,0.0,-0.099013671875,0.0,0.0,0.0,0.0,0.0,0.0,0.037,0.0,0.0,0.0,0.0,0.0,-1.61,-0.09657730276740785,0.0,0.0,0.0,0.0,0.0,0.0,-0.296,0.0,0.0,0.0
319,0.0,0.0,0.0,-0.099013671875,0.0,0.0,0.0,0.0,0.0,0.0,0.037,0.0,0.0,0.0,0.0,0.0,-1.61,-0.09642623545881028,0.0,0.0,0.0,0.0,0.0,0.0,-0.296,0.0,0.0,0.0
320,0.0,0.0,0.0,-0.0987255859375,0.0,0.0,0.0,0.0,0.0,0.0,0.03,0.0,0.0,0.0,0.0,0.0,-1.61,-0.09621321595315954,0.0,0.0,0.0,0.0,0.0,0.0,-0.18,0.0,0.0,0.0
321,0.0,0.0,0.0,-0.0987255859375,0.0,0.0,0.0,0.0,0.0,0.0,0.03,0.0,0.0,0.0,0.0,0.0,-1.61,-0.09604089060323029,0.0,0.0,0.0,0.0,0.0,0.0,-0.18,0.0,0.0,0.0
322,0.0,0.0,0.0,-0.0982919921875,0.0,0.0,0.0,0.0,0.0,0.0,0.04,0.0,0.0,0.0,0.0,0.0,-1.61,-0.09581103701876174,0.0,0.0,0.0,0.0,0.0,0.0,-0.112,0.0,0.0,0.0
323,0.0,0.0,0.0,-0.0982919921875,0.0,0.0,0.0,0.0,0.0,0.0,0.04,0.0,0.0,0.0,0.0,0.0,-1.61,-0.09565250598323304,0.0,0.0,0.0,0.0,0.0,0.0,-0.112,0.0,0.0,0.0
324,0.0,0.0,0.0,-0.0978505859375,0.0,0.0,0.0,0.0,0.0,0.0,0.043,0.0,0.0,0.0,0.0,0.0,-1.61,-0.09548415886241339,0.0,0.0,0.0,0.0,0.0,0.0,-0.296,0.0,0.0,0.0
325,0.0,0.0,0.0,-0.0978505859375,0.0,0.0,0.0,0.0,0.0,0.0,0.043,0.0,0.0,0.0,0.0,0.0,-1.61,-0.09528838113834517,0.0,0.0,0.0,0.0,0.0,0.0,-0.296,0.0,0.0,0.0
326,0.0,0.0,0.0,-0.0974169921875,0.0,0.0,0.0,0.0,0.0,0.0,0.039,0.0,0.0,0.0,0.0,0.0,-1.61,-0.09506103198994087,0.0,0.0,0.0,0.0,0.0,0.0,-0.112,0.0,0.0,0.0
327,0.0,0.0,0.0,-0.0974169921875,0.0,0.0,0.0,0.0,0.0,0.0,0.039,0.0,0.0,0.0,0.0,0.0,-1.61,-0.0949046237083137,0.0,0.0,0.0,0.0,0.0,0.0,-0.112,0.0,0.0,0.0
328,0.0,0.0,0.0,-0.0974169921875,0.0,0.0,0.0,0.0,0.0,0.0,0.039,0.0,0.0,0.0,0.0,0.0,-1.61,-0.09476290542510836,0.0,0.0,0.0,0.0,0.0,0.0,-0.112,0.0,0.0,0.0
329,0.0,0.0,0.0,-0.096984375,0.0,0.0,0.0,0.0,0.0,0.0,0.042,0.0,0.0,0.0,0.0,0.0,-1.61,-0.09450775484141277,0.0,0.0,0.0,0.0,0.0,0.0,-0.204,0.0,0.0,0.0
330,0.0,0.0,0.0,-0.096984375,0.0,0.0,0.0,0.0,0.0,0.0,0.042,0.0,0.0,0.0,0.0,0.0,-1.61,-0.09436711897852958,0.0,0.0,0.0,0.0,0.0,0.0,-0.204,0.0,0.0,0.0
331,0.0,0.0,0.0,-0.0966953125,0.0,0.0,0.0,0.0,0.0,0.0,0.038,0.0,0.0,0.0,0.0,0.0,-1.61,-0.09421565895313488,0.0,0.0,0.0,0.0,0.0,0.0,-0.432,0.0,0.0,0.0
332,0.0,0.0,0.0,-0.0966953125,0.0,0.0,0.0,0.0,0.0,0.0,0.038,0.0,0.0,0.0,0.0,0.0,-1.61,-0.09406042081855427,0.0,0.0,0.0,0.0,0.0,0.0,-0.432,0.0,0.0,0.0
333,0.0,0.0,0.0,-0.0962529296875,0.0,0.0,0.0,0.0,0.0,0.0,0.03,0.0,0.0,0.0,0.0,0.0,-1.61,-0.09380613039721906,0.0,0.0,0.0,0.0,0.0,0.0,-0.364,0.0,0.0,0.0
334,0.0,0.0,0.0,-0.0962529296875,0.0,0.0,0.0,0.0,0.0,0.0,0.03,0.0,0.0,0.0,0.0,0.0,-1.61,-0.0936689882415037,0.0,0.0,0.0,0.0,0.0,0.0,-0.364,0.0,0.0,0.0
335,0.0,0.0,0.0,-0.0958203125,0.0,0.0,0.0,0.0,0.0,0.0,0.046,0.0,0.0,0.0,0.0,0.0,-1.61,-0.093515127345426,0.0,0.0,0.0,0.0,0.0,0.0,-0.524,0.0,0.0,0.0
336,0.0,0.0,0.0,-0.0958203125,0.0,0.0,0.0,0.0,0.0,0.0,0.046,0.0,0.0,0.0,0.0,0.0,-1.61,-0.09330615901704302,0.0,0.0,0.0,0.0,0.0,0.0,-0.524,0.0,0.0,0.0
337,0.0,0.0,0.0,-0.09538671875,0.0,0.0,0.0,0.0,0.0,0.0,0.047,0.0,0.0,0.0,0.0,0.0,-1.61,-0.09307168481638024,0.0,0.0,0.0,0.0,0.0,0.0,-0.456,0.0,0.0,0.0
338,0.0,0.0,0.0,-0.09538671875,0.0,0.0,0.0,0.0,0.0,0.0,0.047,0.0,0.0,0.0,0.0,0.0,-1.61,-0.09291930461060303,0.0,0.0,0.0,0.0,0.0,0.0,-0.456,0.0,0.0,0.0
339,0.0,0.0,0.0,-0.09538671875,0.0,0.0,0.0,0.0,0.0,0.0,0.047,0.0,0.0,0.0,0.0,0.0,-1.61,-0.09277479552761524,0.0,0.0,0.0,0.0,0.0,0.0,-0.456,0.0,0.0,0.0
340,0.0,0.0,0.0,-0.0949541015625,0.0,0.0,0.0,0.0,0.0,0.0,0.038,0.0,0.0,0.0,0.0,0.0,-1.61,-0.09256234627634778,0.0,0.0,0.0,0.0,0.0,0.0,-0.48,0.0,0.0,0.0
341,0.0,0.0,0.0,-0.0949541015625,0.0,0.0,0.0,0.0,0.0,0.0,0.038,0.0,0.0,0.0,0.0,0.0,-1.61,-0.09238249008758194,0.0,0.0,0.0,0.0,0.0,0.0,-0.48,0.0,0.0,0.0
342,0.0,0.0,0.0,-0.09451171875,0.0,0.0,0.0,0.0,0.0,0.0,0.044,0.0,0.0,0.0,0.0,0.0,-1.61,-0.09222045254319065,0.0,0.0,0.0,0.0,0.0,0.0,-0.388,0.0,0.0,0.0
343,0.0,0.0,0.0,-0.09451171875,0.0,0.0,0.0,0.0,0.0,0.0,0.044,0.0,0.0,0.0,0.0,0.0,-1.61,-0.09206392019392173,0.0,0.0,0.0,0.0,0.0,0.0,-0.388,0.0,0.0,0.0
344,0.0,0.0,0.0,-0.094078125,0.0,0.0,0.0,0.0,0.0,0.0,0.047,0.0,0.0,0.0,0.0,0.0,-1.61,-0.09180355065155678,0.0,0.0,0.0,0.0,0.0,0.0,-0.456,0.0,0.0,0.0
345,0.0,0.0,0.0,-0.094078125,0.0,0.0,0.0,0.0,0.0,0.0,0.047,0.0,0.0,0.0,0.0,0.0,-1.61,-0.09163952068752143,0.0,0.0,0.0,0.0,0.0,0.0,-0.456,0.0,0.0,0.0
346,0.0,0.0,0.0,-0.094078125,0.0,0.0,0.0,0.0,0.0,0.0,0.047,0.0,0.0,0.0,0.0,0.0,-1.61,-0.09148229472973175,0.0,0.0,0.0,0.0,0.0,0.0,-0.456,0.0,0.0,0.0
347,0.0,0.0,0.0,-0.0936455078125,0.0,0.0,0.0,0.0,0.0,0.0,0.042,0.0,0.0,0.0,0.0,0.0,-1.61,-0.09120213370564793,0.0,0.0,0.0,0.0,0.0,0.0,-0.388,0.0,0.0,0.0
348,0.0,0.0,0.0,-0.0930673828125,0.0,0.0,0.0,0.0,0.0,0.0,0.048,0.0,0.0,0.0,0.0,0.0,-1.61,-0.0909851374026927,0.0,0.0,0.0,0.0,0.0,0.0,-0.456,0.0,0.0,0.0
349,0.0,0.0,0.0,-0.0930673828125,0.0,0.0,0.0,0.0,0.0,0.0,0.048,0.0,0.0,0.0,0.0,0.0,-1.61,-0.0907956214296435,0.0,0.0,0.0,0.0,0.0,0.0,-0.456,0.0,0.0,0.0
350,0.0,0.0,0.0,-0.092779296875,0.0,0.0,0.0,0.0,0.0,0.0,0.047,0.0,0.0,0.0,0.0,0.0,-1.61,-0.09050003517767212,0.0,0.0,0.0,0.0,0.0,0.0,-0.48,0.0,0.0,0.0
351,0.0,0.0,0.0,-0.092345703125,0.0,0.0,0.0,0.0,0.0,0.0,0.037,0.0,0.0,0.0,0.0,0.0,-1.61,-0.09015071656336808,0.0,0.0,0.0,0.0,0.0,0.0,-0.5,0.0,0.0,0.0
352,0.0,0.0,0.0,-0.092345703125,0.0,0.0,0.0,0.0,0.0,0.0,0.037,0.0,0.0,0.0,0.0,0.0,-1.61,-0.08986081897200586,0.0,0.0,0.0,0.0,0.0,0.0,-0.5,0.0,0.0,0.0
353,0.0,0.0,0.0,-0.092056640625,0.0,0.0,0.0,0.0,0.0,0.0,0.032,0.0,0.0,0.0,0.0,0.0,-1.61,-0.08968215969906429,0.0,0.0,0.0,0.0,0.0,0.0,-0.48,0.0,0.0,0.0
354,0.0,0.0,0.0,-0.092056640625,0.0,0.0,0.0,0.0,0.0,0.0,0.032,0.0,0.0,0.0,0.0,0.0,-1.61,-0.08947823987771523,0.0,0.0,0.0,0.0,0.0,0.0,-0.48,0.0,0.0,0.0
355,0.0,0.0,0.0,-0.0917685546875,0.0,0.0,0.0,0.0,0.0,0.0,0.029,0.0,0.0,0.0,0.0,0.0,-1.61,-0.08931911192042301,0.0,0.0,0.0,0.0,0.0,0.0,-0.16,0.0,0.0,0.0
356,0.0,0.0,0.0,-0.0917685546875,0.0,0.0,0.0,0.0,0.0,0.0,0.029,0.0,0.0,0.0,0.0,0.0,-1.61,-0.08913607996709595,0.0,0.0,0.0,0.0,0.0,0.0,-0.16,0.0,0.0,0.0
357,0.0,0.0,0.0,-0.0917685546875,0.0,0.0,0.0,0.0,0.0,0.0,0.029,0.0,0.0,0.0,0.0,0.0,-1.61,-0.08893366352720422,0.0,0.0,0.0,0.0,0.0,0.0,-0.16,0.0,0.0,0.0
358,0.0,0.0,0.0,-0.091181640625,0.0,0.0,0.0,0.0,0.0,0.0,0.042,0.0,0.0,0.0,0.0,0.0,-1.61,-0.08871382908911132,0.0,0.0,0.0,0.0,0.0,0.0,-0.204,0.0,0.0,0.0
359,0.0,0.0,0.0,-0.091181640625,0.0,0.0,0.0,0.0,0.0,0.0,0.042,0.0,0.0,0.0,0.0,0.0,-1.61,-0.08853866455091701,0.0,0.0,0.0,0.0,0.0,0.0,-0.204,0.0,0.0,0.0
360,0.0,0.0,0.0,-0.0907490234375,0.0,0.0,0.0,0.0,0.0,0.0,0.049,0.0,0.0,0.0,0.0,0.0,-1.61,-0.08837503091837659,0.0,0.0,0.0,0.0,0.0,0.0,-0.204,0.0,0.0,0.0
361,0.0,0.0,0.0,-0.0907490234375,0.0,0.0,0.0,0.0,0.0,0.0,0.049,0.0,0.0,0.0,0.0,0.0,-1.61,-0.08821029704244057,0.0,0.0,0.0,0.0,0.0,0.0,-0.204,0.0,0.0,0.0
362,0.0,0.0,0.0,-0.0903154296875,0.0,0.0,0.0,0.0,0.0,0.0,0.048,0.0,0.0,0.0,0.0,0.0,-1.61,-0.08802770636088854,0.0,0.0,0.0,0.0,0.0,0.0,-0.32,0.0,0.0,0.0
363,0.0,0.0,0.0,-0.0903154296875,0.0,0.0,0.0,0.0,0.0,0.0,0.048,0.0,0.0,0.0,0.0,0.0,-1.61,-0.08785996202575316,0.0,0.0,0.0,0.0,0.0,0.0,-0.32,0.0,0.0,0.0
364,0.0,0.0,0.0,-0.0903154296875,0.0,0.0,0.0,0.0,0.0,0.0,0.048,0.0,0.0,0.0,0.0,0.0,-1.61,-0.08766538606786185,0.0,0.0,0.0,0.0,0.0,0.0,-0.32,0.0,0.0,0.0
365,0.0,0.0,0.0,-0.08973828125,0.0,0.0,0.0,0.0,0.0,0.0,0.047,0.0,0.0,0.0,0.0,0.0,-1.61,-0.0874302053961542,0.0,0.0,0.0,0.0,0.0,0.0,-0.456,0.0,0.0,0.0
366,0.0,0.0,0.0,-0.08973828125,0.0,0.0,0.0,0.0,0.0,0.0,0.047,0.0,0.0,0.0,0.0,0.0,-1.61,-0.08724617968530285,0.0,0.0,0.0,0.0,0.0,0.0,-0.456,0.0,0.0,0.0
367,0.0,0.0,0.0,-0.0893046875,0.0,0.0,0.0,0.0,0.0,0.0,0.045,0.0,0.0,0.0,0.0,0.0,-1.61,-0.08707718403799018,0.0,0.0,0.0,0.0,0.0,0.0,-0.32,0.0,0.0,0.0
368,0.0,0.0,0.0,-0.0893046875,0.0,0.0,0.0,0.0,0.0,0.0,0.045,0.0,0.0,0.0,0.0,0.0,-1.61,-0.0869282887154778,0.0,0.0,0.0,0.0,0.0,0.0,-0.32,0.0,0.0,0.0
369,0.0,0.0,0.0,-0.0893046875,0.0,0.0,0.0,0.0,0.0,0.0,0.045,0.0,0.0,0.0,0.0,0.0,-1.61,-0.0867543447837613,0.0,0.0,0.0,0.0,0.0,0.0,-0.32,0.0,0.0,0.0
370,0.0,0.0,0.0,-0.0888720703125,0.0,0.0,0.0,0.0,0.0,0.0,0.045,0.0,0.0,0.0,0.0,0.0,-1.61,-0.08656610160739868,0.0,0.0,0.0,0.0,0.0,0.0,-0.204,0.0,0.0,0.0
371,0.0,0.0,0.0,-0.0888720703125,0.0,0.0,0.0,0.0,0.0,0.0,0.045,0.0,0.0,0.0,0.0,0.0,-1.61,-0.08635516202327788,0.0,0.0,0.0,0.0,0.0,0.0,-0.204,0.0,0.0,0.0
372,0.0,0.0,0.0,-0.0884296875,0.0,0.0,0.0,0.0,0.0,0.0,0.047,0.0,0.0,0.0,0.0,0.0,-1.61,-0.08613737879808335,0.0,0.0,0.0,0.0,0.0,0.0,-0.16,0.0,0.0,0.0
373,0.0,0.0,0.0,-0.0884296875,0.0,0.0,0.0,0.0,0.0,0.0,0.047,0.0,0.0,0.0,0.0,0.0,-1.61,-0.0859187244326267,0.0,0.0,0.0,0.0,0.0,0.0,-0.16,0.0,0.0,0.0
374,0.0,0.0,0.0,-0.088140625,0.0,0.0,0.0,0.0,0.0,0.0,0.039,0.0,0.0,0.0,0.0,0.0,-1.61,-0.08575696241228432,0.0,0.0,0.0,0.0,0.0,0.0,-0.248,0.0,0.0,0.0
375,0.0,0.0,0.0,-0.088140625,0.0,0.0,0.0,0.0,0.0,0.0,0.039,0.0,0.0,0.0,0.0,0.0,-1.61,-0.08558711372266131,0.0,0.0,0.0,0.0,0.0,0.0,-0.248,0.0,0.0,0.0
376,0.0,0.0,0.0,-0.088140625,0.0,0.0,0.0,0.0,0.0,0.0,0.039,0.0,0.0,0.0,0.0,0.0,-1.61,-0.08544055341973843,0.0,0.0,0.0,0.0,0.0,0.0,-0.248,0.0,0.0,0.0
377,0.0,0.0,0.0,-0.0877080078125,0.0,0.0,0.0,0.0,0.0,0.0,0.034,0.0,0.0,0.0,0.0,0.0,-1.61,-0.08527683168412757,0.0,0.0,0.0,0.0,0.0,0.0,-0.16,0.0,0.0,0.0
378,0.0,0.0,0.0,-0.0877080078125,0.0,0.0,0.0,0.0,0.0,0.0,0.034,0.0,0.0,0.0,0.0,0.0,-1.61,-0.08506465594672054,0.0,0.0,0.0,0.0,0.0,0.0,-0.16,0.0,0.0,0.0
379,0.0,0.0,0.0,-0.0872744140625,0.0,0.0,0.0,0.0,0.0,0.0,0.038,0.0,0.0,0.0,0.0,0.0,-1.61,-0.08490180614273067,0.0,0.0,0.0,0.0,0.0,0.0,0.044,0.0,0.0,0.0
380,0.0,0.0,0.0,-0.0872744140625,0.0,0.0,0.0,0.0,0.0,0.0,0.038,0.0,0.0,0.0,0.0,0.0,-1.61,-0.0846732623605541,0.0,0.0,0.0,0.0,0.0,0.0,0.044,0.0,0.0,0.0
381,0.0,0.0,0.0,-0.086986328125,0.0,0.0,0.0,0.0,0.0,0.0,0.038,0.0,0.0,0.0,0.0,0.0,-1.61,-0.08435872963024214,0.0,0.0,0.0,0.0,0.0,0.0,0.044,0.0,0.0,0.0
382,0.0,0.0,0.0,-0.086986328125,0.0,0.0,0.0,0.0,0.0,0.0,0.038,0.0,0.0,0.0,0.0,0.0,-1.61,-0.08419160547128716,0.0,0.0,0.0,0.0,0.0,0.0,0.044,0.0,0.0,0.0
383,0.0,0.0,0.0,-0.086552734375,0.0,0.0,0.0,0.0,0.0,0.0,0.04,0.0,0.0,0.0,0.0,0.0,-1.61,-0.08403382726025671,0.0,0.0,0.0,0.0,0.0,0.0,0.088,0.0,0.0,0.0
384,0.0,0.0,0.0,-0.086552734375,0.0,0.0,0.0,0.0,0.0,0.0,0.04,0.0,0.0,0.0,0.0,0.0,-1.61,-0.08386689131201955,0.0,0.0,0.0,0.0,0.0,0.0,0.088,0.0,0.0,0.0
385,0.0,0.0,0.0,-0.086552734375,0.0,0.0,0.0,0.0,0.0,0.0,0.04,0.0,0.0,0.0,0.0,0.0,-1.61,-0.08369519418146633,0.0,0.0,0.0,0.0,0.0,0.0,0.088,0.0,0.0,0.0
386,0.0,0.0,0.0,-0.0861201171875,0.0,0.0,0.0,0.0,0.0,0.0,0.045,0.0,0.0,0.0,0.0,0.0,-1.61,-0.08352314098069089,0.0,0.0,0.0,0.0,0.0,0.0,-0.088,0.0,0.0,0.0
387,0.0,0.0,0.0,-0.0861201171875,0.0,0.0,0.0,0.0,0.0,0.0,0.045,0.0,0.0,0.0,0.0,0.0,-1.61,-0.08320776280824803,0.0,0.0,0.0,0.0,0.0,0.0,-0.088,0.0,0.0,0.0
388,0.0,0.0,0.0,-0.0856865234375,0.0,0.0,0.0,0.0,0.0,0.0,0.038,0.0,0.0,0.0,0.0,0.0,-1.61,-0.08301377310807287,0.0,0.0,0.0,0.0,0.0,0.0,0.044,0.0,0.0,0.0
389,0.0,0.0,0.0,-0.0856865234375,0.0,0.0,0.0,0.0,0.0,0.0,0.038,0.0,0.0,0.0,0.0,0.0,-1.61,-0.08284937700381599,0.0,0.0,0.0,0.0,0.0,0.0,0.044,0.0,0.0,0.0
390,0.0,0.0,0.0,-0.085388671875,0.0,0.0,0.0,0.0,0.0,0.0,0.038,0.0,0.0,0.0,0.0,0.0,-1.61,-0.08267068931246016,0.0,0.0,0.0,0.0,0.0,0.0,0.228,0.0,0.0,0.0
391,0.0,0.0,0.0,-0.085388671875,0.0,0.0,0.0,0.0,0.0,0.0,0.038,0.0,0.0,0.0,0.0,0.0,-1.61,-0.08243693185278594,0.0,0.0,0.0,0.0,0.0,0.0,0.228,0.0,0.0,0.0
392,0.0,0.0,0.0,-0.085388671875,0.0,0.0,0.0,0.0,0.0,0.0,0.038,0.0,0.0,0.0,0.0,0.0,-1.61,-0.082246059015076,0.0,0.0,0.0,0.0,0.0,0.0,0.228,0.0,0.0,0.0
393,0.0,0.0,0.0,-0.0849560546875,0.0,0.0,0.0,0.0,0.0,0.0,0.042,0.0,0.0,0.0,0.0,0.0,-1.61,-0.08206375942117146,0.0,0.0,0.0,0.0,0.0,0.0,0.16,0.0,0.0,0.0
394,0.0,0.0,0.0,-0.0849560546875,0.0,0.0,0.0,0.0,0.0,0.0,0.042,0.0,0.0,0.0,0.0,0.0,-1.61,-0.08183789104503161,0.0,0.0,0.0,0.0,0.0,0.0,0.16,0.0,0.0,0.0
395,0.0,0.0,0.0,-0.0845224609375,0.0,0.0,0.0,0.0,0.0,0.0,0.042,0.0,0.0,0.0,0.0,0.0,-1.61,-0.08157493491237047,0.0,0.0,0.0,0.0,0.0,0.0,0.296,0.0,0.0,0.0
396,0.0,0.0,0.0,-0.0845224609375,0.0,0.0,0.0,0.0,0.0,0.0,0.042,0.0,0.0,0.0,0.0,0.0,-1.61,-0.08139868392007064,0.0,0.0,0.0,0.0,0.0,0.0,0.296,0.0,0.0,0.0
397,0.0,0.0,0.0,-0.0839453125,0.0,0.0,0.0,0.0,0.0,0.0,0.049,0.0,0.0,0.0,0.0,0.0,-1.61,-0.08121916021635753,0.0,0.0,0.0,0.0,0.0,0.0,0.364,0.0,0.0,0.0
398,0.0,0.0,0.0,-0.0839453125,0.0,0.0,0.0,0.0,0.0,0.0,0.049,0.0,0.0,0.0,0.0,0.0,-1.61,-0.08105848618454319,0.0,0.0,0.0,0.0,0.0,0.0,0.364,0.0,0.0,0.0
399,0.0,0.0,0.0,-0.0839453125,0.0,0.0,0.0,0.0,0.0,0.0,0.049,0.0,0.0,0.0,0.0,0.0,-1.61,-0.0808520863733013,0.0,0.0,0.0,0.0,0.0,0.0,0.364,0.0,0.0,0.0
400,0.0,0.0,0.0,-0.08351171875,0.0,0.0,0.0,0.0,0.0,0.0,0.05,0.0,0.0,0.0,0.0,0.0,-1.61,-0.08066842553292647,0.0,0.0,0.0,0.0,0.0,0.0,0.136,0.0,0.0,0.0
401,0.0,0.0,0.0,-0.08351171875,0.0,0.0,0.0,0.0,0.0,0.0,0.05,0.0,0.0,0.0,0.0,0.0,-1.61,-0.08040474541395465,0.0,0.0,0.0,0.0,0.0,0.0,0.136,0.0,0.0,0.0
402,0.0,0.0,0.0,-0.0830791015625,0.0,0.0,0.0,0.0,0.0,0.0,0.041,0.0,0.0,0.0,0.0,0.0,-1.61,-0.08018249393739553,0.0,0.0,0.0,0.0,0.0,0.0,0.432,0.0,0.0,0.0
403,0.0,0.0,0.0,-0.0830791015625,0.0,0.0,0.0,0.0,0.0,0.0,0.041,0.0,0.0,0.0,0.0,0.0,-1.61,-0.07992308676507655,0.0,0.0,0.0,0.0,0.0,0.0,0.432,0.0,0.0,0.0
404,0.0,0.0,0.0,-0.0825009765625,0.0,0.0,0.0,0.0,0.0,0.0,0.049,0.0,0.0,0.0,0.0,0.0,-1.61,-0.07971815989158491,0.0,0.0,0.0,0.0,0.0,0.0,0.34,0.0,0.0,0.0
405,0.0,0.0,0.0,-0.0825009765625,0.0,0.0,0.0,0.0,0.0,0.0,0.049,0.0,0.0,0.0,0.0,0.0,-1.61,-0.07952938493942761,0.0,0.0,0.0,0.0,0.0,0.0,0.34,0.0,0.0,0.0
406,0.0,0.0,0.0,-0.082203125,0.0,0.0,0.0,0.0,0.0,0.0,0.045,0.0,0.0,0.0,0.0,0.0,-1.61,-0.07928773236646162,0.0,0.0,0.0,0.0,0.0,0.0,0.296,0.0,0.0,0.0
407,0.0,0.0,0.0,-0.082203125,0.0,0.0,0.0,0.0,0.0,0.0,0.045,0.0,0.0,0.0,0.0,0.0,-1.61,-0.07905007495187173,0.0,0.0,0.0,0.0,0.0,0.0,0.296,0.0,0.0,0.0
408,0.0,0.0,0.0,-0.0819150390625,0.0,0.0,0.0,0.0,0.0,0.0,0.034,0.0,0.0,0.0,0.0,0.0,-1.61,-0.07886624741591274,0.0,0.0,0.0,0.0,0.0,0.0,0.248,0.0,0.0,0.0
409,0.0,0.0,0.0,-0.0819150390625,0.0,0.0,0.0,0.0,0.0,0.0,0.034,0.0,0.0,0.0,0.0,0.0,-1.61,-0.07869714420184344,0.0,0.0,0.0,0.0,0.0,0.0,0.248,0.0,0.0,0.0
410,0.0,0.0,0.0,-0.0819150390625,0.0,0.0,0.0,0.0,0.0,0.0,0.034,0.0,0.0,0.0,0.0,0.0,-1.61,-0.0784585593922506,0.0,0.0,0.0,0.0,0.0,0.0,0.248,0.0,0.0,0.0
411,0.0,0.0,0.0,-0.0814814453125,0.0,0.0,0.0,0.0,0.0,0.0,0.037,0.0,0.0,0.0,0.0,0.0,-1.61,-0.07823351754024924,0.0,0.0,0.0,0.0,0.0,0.0,0.456,0.0,0.0,0.0
412,0.0,0.0,0.0,-0.0814814453125,0.0,0.0,0.0,0.0,0.0,0.0,0.037,0.0,0.0,0.0,0.0,0.0,-1.61,-0.07804480364995957,0.0,0.0,0.0,0.0,0.0,0.0,0.456,0.0,0.0,0.0
413,0.0,0.0,0.0,-0.081048828125,0.0,0.0,0.0,0.0,0.0,0.0,0.043,0.0,0.0,0.0,0.0,0.0,-1.61,-0.07784638460636972,0.0,0.0,0.0,0.0,0.0,0.0,0.776,0.0,0.0,0.0
414,0.0,0.0,0.0,-0.081048828125,0.0,0.0,0.0,0.0,0.0,0.0,0.043,0.0,0.0,0.0,0.0,0.0,-1.61,-0.07761921898590174,0.0,0.0,0.0,0.0,0.0,0.0,0.776,0.0,0.0,0.0
415,0.0,0.0,0.0,-0.080470703125,0.0,0.0,0.0,0.0,0.0,0.0,0.047,0.0,0.0,0.0,0.0,0.0,-1.61,-0.07742153959241158,0.0,0.0,0.0,0.0,0.0,0.0,0.592,0.0,0.0,0.0
416,0.0,0.0,0.0,-0.080470703125,0.0,0.0,0.0,0.0,0.0,0.0,0.047,0.0,0.0,0.0,0.0,0.0,-1.61,-0.07725560615969865,0.0,0.0,0.0,0.0,0.0,0.0,0.592,0.0,0.0,0.0
417,0.0,0.0,0.0,-0.080470703125,0.0,0.0,0.0,0.0,0.0,0.0,0.047,0.0,0.0,0.0,0.0,0.0,-1.61,-0.07708283337232068,0.0,0.0,0.0,0.0,0.0,0.0,0.592,0.0,0.0,0.0
418,0.0,0.0,0.0,-0.0794599609375,0.0,0.0,0.0,0.0,0.0,0.0,0.053,0.0,0.0,0.0,0.0,0.0,-1.61,-0.07644648780032487,0.0,0.0,0.0,0.0,0.0,0.0,0.364,0.0,0.0,0.0
419,0.0,0.0,0.0,-0.0794599609375,0.0,0.0,0.0,0.0,0.0,0.0,0.053,0.0,0.0,0.0,0.0,0.0,-1.61,-0.0761107181557702,0.0,0.0,0.0,0.0,0.0,0.0,0.364,0.0,0.0,0.0
420,0.0,0.0,0.0,-0.0788740234375,0.0,0.0,0.0,0.0,0.0,0.0,0.055,0.0,0.0,0.0,0.0,0.0,-1.61,-0.07582608430469658,0.0,0.0,0.0,0.0,0.0,0.0,0.388,0.0,0.0,0.0
421,0.0,0.0,0.0,-0.0788740234375,0.0,0.0,0.0,0.0,0.0,0.0,0.055,0.0,0.0,0.0,0.0,0.0,-1.61,-0.07562855846539311,0.0,0.0,0.0,0.0,0.0,0.0,0.388,0.0,0.0,0.0
422,0.0,0.0,0.0,-0.0785849609375,0.0,0.0,0.0,0.0,0.0,0.0,0.049,0.0,0.0,0.0,0.0,0.0,-1.61,-0.07542563126144752,0.0,0.0,0.0,0.0,0.0,0.0,0.228,0.0,0.0,0.0
423,0.0,0.0,0.0,-0.0785849609375,0.0,0.0,0.0,0.0,0.0,0.0,0.049,0.0,0.0,0.0,0.0,0.0,-1.61,-0.07514349577928951,0.0,0.0,0.0,0.0,0.0,0.0,0.228,0.0,0.0,0.0
424,0.0,0.0,0.0,-0.07815234375,0.0,0.0,0.0,0.0,0.0,0.0,0.038,0.0,0.0,0.0,0.0,0.0,-1.61,-0.07493889510008912,0.0,0.0,0.0,0.0,0.0,0.0,0.684,0.0,0.0,0.0
425,0.0,0.0,0.0,-0.07815234375,0.0,0.0,0.0,0.0,0.0,0.0,0.038,0.0,0.0,0.0,0.0,0.0,-1.61,-0.07476400348285223,0.0,0.0,0.0,0.0,0.0,0.0,0.684,0.0,0.0,0.0
426,0.0,0.0,0.0,-0.07757421875,0.0,0.0,0.0,0.0,0.0,0.0,0.049,0.0,0.0,0.0,0.0,0.0,-1.61,-0.07448399828529069,0.0,0.0,0.0,0.0,0.0,0.0,0.684,0.0,0.0,0.0
427,0.0,0.0,0.0,-0.07757421875,0.0,0.0,0.0,0.0,0.0,0.0,0.049,0.0,0.0,0.0,0.0,0.0,-1.61,-0.07423120466247786,0.0,0.0,0.0,0.0,0.0,0.0,0.684,0.0,0.0,0.0
428,0.0,0.0,0.0,-0.0771416015625,0.0,0.0,0.0,0.0,0.0,0.0,0.053,0.0,0.0,0.0,0.0,0.0,-1.61,-0.07403425296445885,0.0,0.0,0.0,0.0,0.0,0.0,0.616,0.0,0.0,0.0
429,0.0,0.0,0.0,-0.0771416015625,0.0,0.0,0.0,0.0,0.0,0.0,0.053,0.0,0.0,0.0,0.0,0.0,-1.61,-0.07384212183728636,0.0,0.0,0.0,0.0,0.0,0.0,0.616,0.0,0.0,0.0
430,0.0,0.0,0.0,-0.0767080078125,0.0,0.0,0.0,0.0,0.0,0.0,0.039,0.0,0.0,0.0,0.0,0.0,-1.61,-0.07347432524978482,0.0,0.0,0.0,0.0,0.0,0.0,0.912,0.0,0.0,0.0
431,0.0,0.0,0.0,-0.0767080078125,0.0,0.0,0.0,0.0,0.0,0.0,0.039,0.0,0.0,0.0,0.0,0.0,-1.61,-0.07327031110106368,0.0,0.0,0.0,0.0,0.0,0.0,0.912,0.0,0.0,0.0
432,0.0,0.0,0.0,-0.0759775390625,0.0,0.0,0.0,0.0,0.0,0.0,0.055,0.0,0.0,0.0,0.0,0.0,-1.61,-0.07298632447215408,0.0,0.0,0.0,0.0,0.0,0.0,0.616,0.0,0.0,0.0
433,0.0,0.0,0.0,-0.0759775390625,0.0,0.0,0.0,0.0,0.0,0.0,0.055,0.0,0.0,0.0,0.0,0.0,-1.61,-0.07271413244651481,0.0,0.0,0.0,0.0,0.0,0.0,0.616,0.0,0.0,0.0
434,0.0,0.0,0.0,-0.0755439453125,0.0,0.0,0.0,0.0,0.0,0.0,0.06,0.0,0.0,0.0,0.0,0.0,-1.61,-0.07244127942312946,0.0,0.0,0.0,0.0,0.0,0.0,0.432,0.0,0.0,0.0
435,0.0,0.0,0.0,-0.0755439453125,0.0,0.0,0.0,0.0,0.0,0.0,0.06,0.0,0.0,0.0,0.0,0.0,-1.61,-0.07220677216513836,0.0,0.0,0.0,0.0,0.0,0.0,0.432,0.0,0.0,0.0
436,0.0,0.0,0.0,-0.074966796875,0.0,0.0,0.0,0.0,0.0,0.0,0.049,0.0,0.0,0.0,0.0,0.0,-1.61,-0.07190145371582389,0.0,0.0,0.0,0.0,0.0,0.0,0.34,0.0,0.0,0.0
437,0.0,0.0,0.0,-0.074966796875,0.0,0.0,0.0,0.0,0.0,0.0,0.049,0.0,0.0,0.0,0.0,0.0,-1.61,-0.07170289708079726,0.0,0.0,0.0,0.0,0.0,0.0,0.34,0.0,0.0,0.0
438,0.0,0.0,0.0,-0.074533203125,0.0,0.0,0.0,0.0,0.0,0.0,0.051,0.0,0.0,0.0,0.0,0.0,-1.61,-0.07143752932796332,0.0,0.0,0.0,0.0,0.0,0.0,0.32,0.0,0.0,0.0
439,0.0,0.0,0.0,-0.074533203125,0.0,0.0,0.0,0.0,0.0,0.0,0.051,0.0,0.0,0.0,0.0,0.0,-1.61,-0.07118060003837472,0.0,0.0,0.0,0.0,0.0,0.0,0.32,0.0,0.0,0.0
440,0.0,0.0,0.0,-0.073947265625,0.0,0.0,0.0,0.0,0.0,0.0,0.051,0.0,0.0,0.0,0.0,0.0,-1.61,-0.07096549651283518,0.0,0.0,0.0,0.0,0.0,0.0,0.592,0.0,0.0,0.0
441,0.0,0.0,0.0,-0.073947265625,0.0,0.0,0.0,0.0,0.0,0.0,0.051,0.0,0.0,0.0,0.0,0.0,-1.61,-0.07076572912040244,0.0,0.0,0.0,0.0,0.0,0.0,0.592,0.0,0.0,0.0
442,0.0,0.0,0.0,-0.073369140625,0.0,0.0,0.0,0.0,0.0,0.0,0.052,0.0,0.0,0.0,0.0,0.0,-1.61,-0.07054636853465966,0.0,0.0,0.0,0.0,0.0,0.0,0.888,0.0,0.0,0.0
443,0.0,0.0,0.0,-0.073369140625,0.0,0.0,0.0,0.0,0.0,0.0,0.052,0.0,0.0,0.0,0.0,0.0,-1.61,-0.07030713044166655,0.0,0.0,0.0,0.0,0.0,0.0,0.888,0.0,0.0,0.0
444,0.0,0.0,0.0,-0.072927734375,0.0,0.0,0.0,0.0,0.0,0.0,0.056,0.0,0.0,0.0,0.0,0.0,-1.61,-0.06999422097029898,0.0,0.0,0.0,0.0,0.0,0.0,0.524,0.0,0.0,0.0
445,0.0,0.0,0.0,-0.072927734375,0.0,0.0,0.0,0.0,0.0,0.0,0.056,0.0,0.0,0.0,0.0,0.0,-1.61,-0.06978908758140485,0.0,0.0,0.0,0.0,0.0,0.0,0.524,0.0,0.0,0.0
446,0.0,0.0,0.0,-0.072927734375,0.0,0.0,0.0,0.0,0.0,0.0,0.056,0.0,0.0,0.0,0.0,0.0,-1.61,-0.0696013911915544,0.0,0.0,0.0,0.0,0.0,0.0,0.524,0.0,0.0,0.0
447,0.0,0.0,0.0,-0.072349609375,0.0,0.0,0.0,0.0,0.0,0.0,0.053,0.0,0.0,0.0,0.0,0.0,-1.61,-0.06927161281054825,0.0,0.0,0.0,0.0,0.0,0.0,0.5,0.0,0.0,0.0
448,0.0,0.0,0.0,-0.0717724609375,0.0,0.0,0.0,0.0,0.0,0.0,0.053,0.0,0.0,0.0,0.0,0.0,-1.61,-0.06897985451874353,0.0,0.0,0.0,0.0,0.0,0.0,0.364,0.0,0.0,0.0
449,0.0,0.0,0.0,-0.0717724609375,0.0,0.0,0.0,0.0,0.0,0.0,0.053,0.0,0.0,0.0,0.0,0.0,-1.61,-0.06873647960288694,0.0,0.0,0.0,0.0,0.0,0.0,0.364,0.0,0.0,0.0
450,0.0,0.0,0.0,-0.0714833984375,0.0,0.0,0.0,0.0,0.0,0.0,0.049,0.0,0.0,0.0,0.0,0.0,-1.61,-0.0683689742275891,0.0,0.0,0.0,0.0,0.0,0.0,0.204,0.0,0.0,0.0
451,0.0,0.0,0.0,-0.0714833984375,0.0,0.0,0.0,0.0,0.0,0.0,0.049,0.0,0.0,0.0,0.0,0.0,-1.61,-0.06809230506032846,0.0,0.0,0.0,0.0,0.0,0.0,0.204,0.0,0.0,0.0
452,0.0,0.0,0.0,-0.07105078125,0.0,0.0,0.0,0.0,0.0,0.0,0.036,0.0,0.0,0.0,0.0,0.0,-1.61,-0.06784901387442697,0.0,0.0,0.0,0.0,0.0,0.0,0.568,0.0,0.0,0.0
453,0.0,0.0,0.0,-0.07105078125,0.0,0.0,0.0,0.0,0.0,0.0,0.036,0.0,0.0,0.0,0.0,0.0,-1.61,-0.0675831644444948,0.0,0.0,0.0,0.0,0.0,0.0,0.568,0.0,0.0,0.0
454,0.0,0.0,0.0,-0.0706171875,0.0,0.0,0.0,0.0,0.0,0.0,0.038,0.0,0.0,0.0,0.0,0.0,-1.61,-0.06737206032890442,0.0,0.0,0.0,0.0,0.0,0.0,0.592,0.0,0.0,0.0
455,0.0,0.0,0.0,-0.0706171875,0.0,0.0,0.0,0.0,0.0,0.0,0.038,0.0,0.0,0.0,0.0,0.0,-1.61,-0.06713434681130297,0.0,0.0,0.0,0.0,0.0,0.0,0.592,0.0,0.0,0.0
456,0.0,0.0,0.0,-0.0703291015625,0.0,0.0,0.0,0.0,0.0,0.0,0.04,0.0,0.0,0.0,0.0,0.0,-1.61,-0.06689833526099587,0.0,0.0,0.0,0.0,0.0,0.0,0.708,0.0,0.0,0.0
457,0.0,0.0,0.0,-0.0703291015625,0.0,0.0,0.0,0.0,0.0,0.0,0.04,0.0,0.0,0.0,0.0,0.0,-1.61,-0.06660768659569424,0.0,0.0,0.0,0.0,0.0,0.0,0.708,0.0,0.0,0.0
458,0.0,0.0,0.0,-0.0697421875,0.0,0.0,0.0,0.0,0.0,0.0,0.039,0.0,0.0,0.0,0.0,0.0,-1.61,-0.06639255531265688,0.0,0.0,0.0,0.0,0.0,0.0,1.052,0.0,0.0,0.0
459,0.0,0.0,0.0,-0.0697421875,0.0,0.0,0.0,0.0,0.0,0.0,0.039,0.0,0.0,0.0,0.0,0.0,-1.61,-0.06615513087547799,0.0,0.0,0.0,0.0,0.0,0.0,1.052,0.0,0.0,0.0
460,0.0,0.0,0.0,-0.0691650390625,0.0,0.0,0.0,0.0,0.0,0.0,0.057,0.0,0.0,0.0,0.0,0.0,-1.61,-0.06587340429868213,0.0,0.0,0.0,0.0,0.0,0.0,0.936,0.0,0.0,0.0
461,0.0,0.0,0.0,-0.0691650390625,0.0,0.0,0.0,0.0,0.0,0.0,0.057,0.0,0.0,0.0,0.0,0.0,-1.61,-0.06568231671643364,0.0,0.0,0.0,0.0,0.0,0.0,0.936,0.0,0.0,0.0
462,0.0,0.0,0.0,-0.0691650390625,0.0,0.0,0.0,0.0,0.0,0.0,0.057,0.0,0.0,0.0,0.0,0.0,-1.61,-0.06541761142126336,0.0,0.0,0.0,0.0,0.0,0.0,0.936,0.0,0.0,0.0
463,0.0,0.0,0.0,-0.0685869140625,0.0,0.0,0.0,0.0,0.0,0.0,0.066,0.0,0.0,0.0,0.0,0.0,-1.61,-0.06499493050445636,0.0,0.0,0.0,0.0,0.0,0.0,0.728,0.0,0.0,0.0
464,0.0,0.0,0.0,-0.067865234375,0.0,0.0,0.0,0.0,0.0,0.0,0.06,0.0,0.0,0.0,0.0,0.0,-1.61,-0.06470000560446348,0.0,0.0,0.0,0.0,0.0,0.0,0.456,0.0,0.0,0.0
465,0.0,0.0,0.0,-0.067865234375,0.0,0.0,0.0,0.0,0.0,0.0,0.06,0.0,0.0,0.0,0.0,0.0,-1.61,-0.06445712425127186,0.0,0.0,0.0,0.0,0.0,0.0,0.456,0.0,0.0,0.0
466,0.0,0.0,0.0,-0.0672880859375,0.0,0.0,0.0,0.0,0.0,0.0,0.059,0.0,0.0,0.0,0.0,0.0,-1.61,-0.0641339463061711,0.0,0.0,0.0,0.0,0.0,0.0,0.432,0.0,0.0,0.0
467,0.0,0.0,0.0,-0.0672880859375,0.0,0.0,0.0,0.0,0.0,0.0,0.059,0.0,0.0,0.0,0.0,0.0,-1.61,-0.06394934274974898,0.0,0.0,0.0,0.0,0.0,0.0,0.432,0.0,0.0,0.0
468,0.0,0.0,0.0,-0.0669990234375,0.0,0.0,0.0,0.0,0.0,0.0,0.05,0.0,0.0,0.0,0.0,0.0,-1.61,-0.06368342528918933,0.0,0.0,0.0,0.0,0.0,0.0,0.592,0.0,0.0,0.0
469,0.0,0.0,0.0,-0.066701171875,0.0,0.0,0.0,0.0,0.0,0.0,0.034,0.0,0.0,0.0,0.0,0.0,-1.61,-0.06324718700247657,0.0,0.0,0.0,0.0,0.0,0.0,0.912,0.0,0.0,0.0
470,0.0,0.0,0.0,-0.066701171875,0.0,0.0,0.0,0.0,0.0,0.0,0.034,0.0,0.0,0.0,0.0,0.0,-1.61,-0.06302326825691155,0.0,0.0,0.0,0.0,0.0,0.0,0.912,0.0,0.0,0.0
471,0.0,0.0,0.0,-0.066701171875,0.0,0.0,0.0,0.0,0.0,0.0,0.034,0.0,0.0,0.0,0.0,0.0,-1.61,-0.0628287300434181,0.0,0.0,0.0,0.0,0.0,0.0,0.912,0.0,0.0,0.0
472,0.0,0.0,0.0,-0.0661240234375,0.0,0.0,0.0,0.0,0.0,0.0,0.038,0.0,0.0,0.0,0.0,0.0,-1.61,-0.06259346074452617,0.0,0.0,0.0,0.0,0.0,0.0,1.12,0.0,0.0,0.0
473,0.0,0.0,0.0,-0.0661240234375,0.0,0.0,0.0,0.0,0.0,0.0,0.038,0.0,0.0,0.0,0.0,0.0,-1.61,-0.062344778925692214,0.0,0.0,0.0,0.0,0.0,0.0,1.12,0.0,0.0,0.0
474,0.0,0.0,0.0,-0.0656904296875,0.0,0.0,0.0,0.0,0.0,0.0,0.048,0.0,0.0,0.0,0.0,0.0,-1.61,-0.0620508977613902,0.0,0.0,0.0,0.0,0.0,0.0,1.12,0.0,0.0,0.0
475,0.0,0.0,0.0,-0.0656904296875,0.0,0.0,0.0,0.0,0.0,0.0,0.048,0.0,0.0,0.0,0.0,0.0,-1.61,-0.061757830059876805,0.0,0.0,0.0,0.0,0.0,0.0,1.12,0.0,0.0,0.0
476,0.0,0.0,0.0,-0.06511328125,0.0,0.0,0.0,0.0,0.0,0.0,0.05,0.0,0.0,0.0,0.0,0.0,-1.61,-0.06146521966113576,0.0,0.0,0.0,0.0,0.0,0.0,0.888,0.0,0.0,0.0
477,0.0,0.0,0.0,-0.06511328125,0.0,0.0,0.0,0.0,0.0,0.0,0.05,0.0,0.0,0.0,0.0,0.0,-1.61,-0.06118674872632524,0.0,0.0,0.0,0.0,0.0,0.0,0.888,0.0,0.0,0.0
478,0.0,0.0,0.0,-0.0645361328125,0.0,0.0,0.0,0.0,0.0,0.0,0.055,0.0,0.0,0.0,0.0,0.0,-1.61,-0.060886504825887304,0.0,0.0,0.0,0.0,0.0,0.0,0.616,0.0,0.0,0.0
479,0.0,0.0,0.0,-0.0645361328125,0.0,0.0,0.0,0.0,0.0,0.0,0.055,0.0,0.0,0.0,0.0,0.0,-1.61,-0.060658886526330634,0.0,0.0,0.0,0.0,0.0,0.0,0.616,0.0,0.0,0.0
480,0.0,0.0,0.0,-0.0639580078125,0.0,0.0,0.0,0.0,0.0,0.0,0.059,0.0,0.0,0.0,0.0,0.0,-1.61,-0.060167735099081,0.0,0.0,0.0,0.0,0.0,0.0,0.432,0.0,0.0,0.0
481,0.0,0.0,0.0,-0.0633720703125,0.0,0.0,0.0,0.0,0.0,0.0,0.056,0.0,0.0,0.0,0.0,0.0,-1.61,-0.0598964351380507,0.0,0.0,0.0,0.0,0.0,0.0,0.408,0.0,0.0,0.0
482,0.0,0.0,0.0,-0.0629384765625,0.0,0.0,0.0,0.0,0.0,0.0,0.058,0.0,0.0,0.0,0.0,0.0,-1.61,-0.05922585949721569,0.0,0.0,0.0,0.0,0.0,0.0,0.548,0.0,0.0,0.0
483,0.0,0.0,0.0,-0.062505859375,0.0,0.0,0.0,0.0,0.0,0.0,0.049,0.0,0.0,0.0,0.0,0.0,-1.61,-0.05887620038892803,0.0,0.0,0.0,0.0,0.0,0.0,0.776,0.0,0.0,0.0
484,0.0,0.0,0.0,-0.062505859375,0.0,0.0,0.0,0.0,0.0,0.0,0.049,0.0,0.0,0.0,0.0,0.0,-1.61,-0.058447103851380265,0.0,0.0,0.0,0.0,0.0,0.0,0.776,0.0,0.0,0.0
485,0.0,0.0,0.0,-0.061927734375,0.0,0.0,0.0,0.0,0.0,0.0,0.046,0.0,0.0,0.0,0.0,0.0,-1.61,-0.05821771323446477,0.0,0.0,0.0,0.0,0.0,0.0,0.98,0.0,0.0,0.0
486,0.0,0.0,0.0,-0.061927734375,0.0,0.0,0.0,0.0,0.0,0.0,0.046,0.0,0.0,0.0,0.0,0.0,-1.61,-0.05802592166943727,0.0,0.0,0.0,0.0,0.0,0.0,0.98,0.0,0.0,0.0
487,0.0,0.0,0.0,-0.0613505859375,0.0,0.0,0.0,0.0,0.0,0.0,0.057,0.0,0.0,0.0,0.0,0.0,-1.61,-0.05771961287073051,0.0,0.0,0.0,0.0,0.0,0.0,0.684,0.0,0.0,0.0
488,0.0,0.0,0.0,-0.0613505859375,0.0,0.0,0.0,0.0,0.0,0.0,0.057,0.0,0.0,0.0,0.0,0.0,-1.61,-0.05736536394430249,0.0,0.0,0.0,0.0,0.0,0.0,0.684,0.0,0.0,0.0
489,0.0,0.0,0.0,-0.0607724609375,0.0,0.0,0.0,0.0,0.0,0.0,0.055,0.0,0.0,0.0,0.0,0.0,-1.61,-0.05715167084876354,0.0,0.0,0.0,0.0,0.0,0.0,0.752,0.0,0.0,0.0
490,0.0,0.0,0.0,-0.0607724609375,0.0,0.0,0.0,0.0,0.0,0.0,0.055,0.0,0.0,0.0,0.0,0.0,-1.61,-0.05687995991459324,0.0,0.0,0.0,0.0,0.0,0.0,0.752,0.0,0.0,0.0
491,0.0,0.0,0.0,-0.0600419921875,0.0,0.0,0.0,0.0,0.0,0.0,0.068,0.0,0.0,0.0,0.0,0.0,-1.61,-0.05666144936862775,0.0,0.0,0.0,0.0,0.0,0.0,0.616,0.0,0.0,0.0
492,0.0,0.0,0.0,-0.0600419921875,0.0,0.0,0.0,0.0,0.0,0.0,0.068,0.0,0.0,0.0,0.0,0.0,-1.61,-0.056455975858041296,0.0,0.0,0.0,0.0,0.0,0.0,0.616,0.0,0.0,0.0
493,0.0,0.0,0.0,-0.0600419921875,0.0,0.0,0.0,0.0,0.0,0.0,0.068,0.0,0.0,0.0,0.0,0.0,-1.61,-0.05626486619814033,0.0,0.0,0.0,0.0,0.0,0.0,0.616,0.0,0.0,0.0
494,0.0,0.0,0.0,-0.0593203125,0.0,0.0,0.0,0.0,0.0,0.0,0.074,0.0,0.0,0.0,0.0,0.0,-1.61,-0.05598263307063163,0.0,0.0,0.0,0.0,0.0,0.0,0.432,0.0,0.0,0.0
495,0.0,0.0,0.0,-0.0593203125,0.0,0.0,0.0,0.0,0.0,0.0,0.074,0.0,0.0,0.0,0.0,0.0,-1.61,-0.05575493770423834,0.0,0.0,0.0,0.0,0.0,0.0,0.432,0.0,0.0,0.0
496,0.0,0.0,0.0,-0.0587421875,0.0,0.0,0.0,0.0,0.0,0.0,0.067,0.0,0.0,0.0,0.0,0.0,-1.61,-0.05555793423616879,0.0,0.0,0.0,0.0,0.0,0.0,0.48,0.0,0.0,0.0
497,0.0,0.0,0.0,-0.0587421875,0.0,0.0,0.0,0.0,0.0,0.0,0.067,0.0,0.0,0.0,0.0,0.0,-1.61,-0.05531640157946355,0.0,0.0,0.0,0.0,0.0,0.0,0.48,0.0,0.0,0.0
498,0.0,0.0,0.0,-0.0581650390625,0.0,0.0,0.0,0.0,0.0,0.0,0.06,0.0,0.0,0.0,0.0,0.0,-1.61,-0.055032067911148064,0.0,0.0,0.0,0.0,0.0,0.0,0.408,0.0,0.0,0.0
499,0.0,0.0,0.0,-0.0581650390625,0.0,0.0,0.0,0.0,0.0,0.0,0.06,0.0,0.0,0.0,0.0,0.0,-1.61,-0.05480088339909106,0.0,0.0,0.0,0.0,0.0,0.0,0.408,0.0,0.0,0.0
500,0.0,0.0,0.0,-0.0581650390625,0.0,0.0,0.0,0.0,0.0,0.0,0.06,0.0,0.0,0.0,0.0,0.0,-1.61,-0.05456219935527583,0.0,0.0,0.0,0.0,0.0,0.0,0.408,0.0,0.0,0.0
501,0.0,0.0,0.0,-0.057732421875,0.0,0.0,0.0,0.0,0.0,0.0,0.051,0.0,0.0,0.0,0.0,0.0,-1.61,-0.054350293918829624,0.0,0.0,0.0,0.0,0.0,0.0,0.524,0.0,0.0,0.0
502,0.0,0.0,0.0,-0.057732421875,0.0,0.0,0.0,0.0,0.0,0.0,0.051,0.0,0.0,0.0,0.0,0.0,-1.61,-0.05403382463356727,0.0,0.0,0.0,0.0,0.0,0.0,0.524,0.0,0.0,0.0
503,0.0,0.0,0.0,-0.0571455078125,0.0,0.0,0.0,0.0,0.0,0.0,0.048,0.0,0.0,0.0,0.0,0.0,-1.61,-0.053786000218089304,0.0,0.0,0.0,0.0,0.0,0.0,0.82,0.0,0.0,0.0
504,0.0,0.0,0.0,-0.0571455078125,0.0,0.0,0.0,0.0,0.0,0.0,0.048,0.0,0.0,0.0,0.0,0.0,-1.61,-0.05352585751896254,0.0,0.0,0.0,0.0,0.0,0.0,0.82,0.0,0.0,0.0
505,0.0,0.0,0.0,-0.056568359375,0.0,0.0,0.0,0.0,0.0,0.0,0.058,0.0,0.0,0.0,0.0,0.0,-1.61,-0.05330894249235873,0.0,0.0,0.0,0.0,0.0,0.0,0.684,0.0,0.0,0.0
506,0.0,0.0,0.0,-0.056568359375,0.0,0.0,0.0,0.0,0.0,0.0,0.058,0.0,0.0,0.0,0.0,0.0,-1.61,-0.053095163859469066,0.0,0.0,0.0,0.0,0.0,0.0,0.684,0.0,0.0,0.0
507,0.0,0.0,0.0,-0.056568359375,0.0,0.0,0.0,0.0,0.0,0.0,0.058,0.0,0.0,0.0,0.0,0.0,-1.61,-0.05287342693199423,0.0,0.0,0.0,0.0,0.0,0.0,0.684,0.0,0.0,0.0
508,0.0,0.0,0.0,-0.055990234375,0.0,0.0,0.0,0.0,0.0,0.0,0.051,0.0,0.0,0.0,0.0,0.0,-1.61,-0.052615193664989346,0.0,0.0,0.0,0.0,0.0,0.0,0.684,0.0,0.0,0.0
509,0.0,0.0,0.0,-0.0554130859375,0.0,0.0,0.0,0.0,0.0,0.0,0.056,0.0,0.0,0.0,0.0,0.0,-1.61,-0.052155777176226555,0.0,0.0,0.0,0.0,0.0,0.0,0.592,0.0,0.0,0.0
510,0.0,0.0,0.0,-0.0554130859375,0.0,0.0,0.0,0.0,0.0,0.0,0.056,0.0,0.0,0.0,0.0,0.0,-1.61,-0.051789903488581195,0.0,0.0,0.0,0.0,0.0,0.0,0.592,0.0,0.0,0.0
511,0.0,0.0,0.0,-0.0549794921875,0.0,0.0,0.0,0.0,0.0,0.0,0.056,0.0,0.0,0.0,0.0,0.0,-1.61,-0.05116369150002954,0.0,0.0,0.0,0.0,0.0,0.0,0.388,0.0,0.0,0.0
512,0.0,0.0,0.0,-0.0545380859375,0.0,0.0,0.0,0.0,0.0,0.0,0.046,0.0,0.0,0.0,0.0,0.0,-1.61,-0.050718978068679116,0.0,0.0,0.0,0.0,0.0,0.0,0.616,0.0,0.0,0.0
513,0.0,0.0,0.0,-0.0538154296875,0.0,0.0,0.0,0.0,0.0,0.0,0.053,0.0,0.0,0.0,0.0,0.0,-1.61,-0.050365926511298655,0.0,0.0,0.0,0.0,0.0,0.0,0.776,0.0,0.0,0.0
514,0.0,0.0,0.0,-0.0533828125,0.0,0.0,0.0,0.0,0.0,0.0,0.056,0.0,0.0,0.0,0.0,0.0,-1.61,-0.04988551042231643,0.0,0.0,0.0,0.0,0.0,0.0,0.616,0.0,0.0,0.0
515,0.0,0.0,0.0,-0.0533828125,0.0,0.0,0.0,0.0,0.0,0.0,0.056,0.0,0.0,0.0,0.0,0.0,-1.61,-0.04951549620089912,0.0,0.0,0.0,0.0,0.0,0.0,0.616,0.0,0.0,0.0
516,0.0,0.0,0.0,-0.05309375,0.0,0.0,0.0,0.0,0.0,0.0,0.037,0.0,0.0,0.0,0.0,0.0,-1.61,-0.04918617718002593,0.0,0.0,0.0,0.0,0.0,0.0,0.64,0.0,0.0,0.0
517,0.0,0.0,0.0,-0.05309375,0.0,0.0,0.0,0.0,0.0,0.0,0.037,0.0,0.0,0.0,0.0,0.0,-1.61,-0.04894551364207402,0.0,0.0,0.0,0.0,0.0,0.0,0.64,0.0,0.0,0.0
518,0.0,0.0,0.0,-0.0525166015625,0.0,0.0,0.0,0.0,0.0,0.0,0.045,0.0,0.0,0.0,0.0,0.0,-1.61,-0.0487226675628463,0.0,0.0,0.0,0.0,0.0,0.0,0.82,0.0,0.0,0.0
519,0.0,0.0,0.0,-0.0525166015625,0.0,0.0,0.0,0.0,0.0,0.0,0.045,0.0,0.0,0.0,0.0,0.0,-1.61,-0.04838756833370234,0.0,0.0,0.0,0.0,0.0,0.0,0.82,0.0,0.0,0.0
520,0.0,0.0,0.0,-0.0519296875,0.0,0.0,0.0,0.0,0.0,0.0,0.06,0.0,0.0,0.0,0.0,0.0,-1.61,-0.04805357156241167,0.0,0.0,0.0,0.0,0.0,0.0,0.8,0.0,0.0,0.0
521,0.0,0.0,0.0,-0.0519296875,0.0,0.0,0.0,0.0,0.0,0.0,0.06,0.0,0.0,0.0,0.0,0.0,-1.61,-0.0478513230649182,0.0,0.0,0.0,0.0,0.0,0.0,0.8,0.0,0.0,0.0
522,0.0,0.0,0.0,-0.05119921875,0.0,0.0,0.0,0.0,0.0,0.0,0.06,0.0,0.0,0.0,0.0,0.0,-1.61,-0.047630597522169964,0.0,0.0,0.0,0.0,0.0,0.0,0.96,0.0,0.0,0.0
523,0.0,0.0,0.0,-0.05119921875,0.0,0.0,0.0,0.0,0.0,0.0,0.06,0.0,0.0,0.0,0.0,0.0,-1.61,-0.04738351799828522,0.0,0.0,0.0,0.0,0.0,0.0,0.96,0.0,0.0,0.0
524,0.0,0.0,0.0,-0.05119921875,0.0,0.0,0.0,0.0,0.0,0.0,0.06,0.0,0.0,0.0,0.0,0.0,-1.61,-0.04716010874157236,0.0,0.0,0.0,0.0,0.0,0.0,0.96,0.0,0.0,0.0
525,0.0,0.0,0.0,-0.0504775390625,0.0,0.0,0.0,0.0,0.0,0.0,0.074,0.0,0.0,0.0,0.0,0.0,-1.61,-0.046937943428133413,0.0,0.0,0.0,0.0,0.0,0.0,0.684,0.0,0.0,0.0
526,0.0,0.0,0.0,-0.0504775390625,0.0,0.0,0.0,0.0,0.0,0.0,0.074,0.0,0.0,0.0,0.0,0.0,-1.61,-0.0466812970573491,0.0,0.0,0.0,0.0,0.0,0.0,0.684,0.0,0.0,0.0
527,0.0,0.0,0.0,-0.0498994140625,0.0,0.0,0.0,0.0,0.0,0.0,0.072,0.0,0.0,0.0,0.0,0.0,-1.61,-0.04629652835874788,0.0,0.0,0.0,0.0,0.0,0.0,0.48,0.0,0.0,0.0
528,0.0,0.0,0.0,-0.0498994140625,0.0,0.0,0.0,0.0,0.0,0.0,0.072,0.0,0.0,0.0,0.0,0.0,-1.61,-0.046073492282544204,0.0,0.0,0.0,0.0,0.0,0.0,0.48,0.0,0.0,0.0
529,0.0,0.0,0.0,-0.049177734375,0.0,0.0,0.0,0.0,0.0,0.0,0.063,0.0,0.0,0.0,0.0,0.0,-1.61,-0.04583069325554709,0.0,0.0,0.0,0.0,0.0,0.0,0.432,0.0,0.0,0.0
530,0.0,0.0,0.0,-0.049177734375,0.0,0.0,0.0,0.0,0.0,0.0,0.063,0.0,0.0,0.0,0.0,0.0,-1.61,-0.04549054397970202,0.0,0.0,0.0,0.0,0.0,0.0,0.432,0.0,0.0,0.0
531,0.0,0.0,0.0,-0.0486005859375,0.0,0.0,0.0,0.0,0.0,0.0,0.065,0.0,0.0,0.0,0.0,0.0,-1.61,-0.04527035461692118,0.0,0.0,0.0,0.0,0.0,0.0,0.296,0.0,0.0,0.0
532,0.0,0.0,0.0,-0.0486005859375,0.0,0.0,0.0,0.0,0.0,0.0,0.065,0.0,0.0,0.0,0.0,0.0,-1.61,-0.04505989470305785,0.0,0.0,0.0,0.0,0.0,0.0,0.296,0.0,0.0,0.0
533,0.0,0.0,0.0,-0.0486005859375,0.0,0.0,0.0,0.0,0.0,0.0,0.065,0.0,0.0,0.0,0.0,0.0,-1.61,-0.044816956375808015,0.0,0.0,0.0,0.0,0.0,0.0,0.296,0.0,0.0,0.0
534,0.0,0.0,0.0,-0.048013671875,0.0,0.0,0.0,0.0,0.0,0.0,0.053,0.0,0.0,0.0,0.0,0.0,-1.61,-0.04445562917542097,0.0,0.0,0.0,0.0,0.0,0.0,0.616,0.0,0.0,0.0
535,0.0,0.0,0.0,-0.048013671875,0.0,0.0,0.0,0.0,0.0,0.0,0.053,0.0,0.0,0.0,0.0,0.0,-1.61,-0.04422015983286522,0.0,0.0,0.0,0.0,0.0,0.0,0.616,0.0,0.0,0.0
536,0.0,0.0,0.0,-0.0472919921875,0.0,0.0,0.0,0.0,0.0,0.0,0.06,0.0,0.0,0.0,0.0,0.0,-1.61,-0.04387104831094452,0.0,0.0,0.0,0.0,0.0,0.0,0.592,0.0,0.0,0.0
537,0.0,0.0,0.0,-0.04671484375,0.0,0.0,0.0,0.0,0.0,0.0,0.074,0.0,0.0,0.0,0.0,0.0,-1.61,-0.043561445175839104,0.0,0.0,0.0,0.0,0.0,0.0,0.34,0.0,0.0,0.0
538,0.0,0.0,0.0,-0.04671484375,0.0,0.0,0.0,0.0,0.0,0.0,0.074,0.0,0.0,0.0,0.0,0.0,-1.61,-0.043317058176172714,0.0,0.0,0.0,0.0,0.0,0.0,0.34,0.0,0.0,0.0
539,0.0,0.0,0.0,-0.04671484375,0.0,0.0,0.0,0.0,0.0,0.0,0.074,0.0,0.0,0.0,0.0,0.0,-1.61,-0.042964407008859874,0.0,0.0,0.0,0.0,0.0,0.0,0.34,0.0,0.0,0.0
540,0.0,0.0,0.0,-0.0459921875,0.0,0.0,0.0,0.0,0.0,0.0,0.064,0.0,0.0,0.0,0.0,0.0,-1.61,-0.042606994619071005,0.0,0.0,0.0,0.0,0.0,0.0,0.32,0.0,0.0,0.0
541,0.0,0.0,0.0,-0.04526171875,0.0,0.0,0.0,0.0,0.0,0.0,0.067,0.0,0.0,0.0,0.0,0.0,-1.61,-0.042275535597872824,0.0,0.0,0.0,0.0,0.0,0.0,0.0,0.0,0.0,0.0
542,0.0,0.0,0.0,-0.04526171875,0.0,0.0,0.0,0.0,0.0,0.0,0.067,0.0,0.0,0.0,0.0,0.0,-1.61,-0.042053624512010626,0.0,0.0,0.0,0.0,0.0,0.0,0.0,0.0,0.0,0.0
543,0.0,0.0,0.0,-0.0446845703125,0.0,0.0,0.0,0.0,0.0,0.0,0.071,0.0,0.0,0.0,0.0,0.0,-1.61,-0.04182983700353851,0.0,0.0,0.0,0.0,0.0,0.0,-0.204,0.0,0.0,0.0
544,0.0,0.0,0.0,-0.0446845703125,0.0,0.0,0.0,0.0,0.0,0.0,0.071,0.0,0.0,0.0,0.0,0.0,-1.61,-0.04157263917595125,0.0,0.0,0.0,0.0,0.0,0.0,-0.204,0.0,0.0,0.0
545,0.0,0.0,0.0,-0.0446845703125,0.0,0.0,0.0,0.0,0.0,0.0,0.071,0.0,0.0,0.0,0.0,0.0,-1.61,-0.04134978819411658,0.0,0.0,0.0,0.0,0.0,0.0,-0.204,0.0,0.0,0.0
546,0.0,0.0,0.0,-0.0439619140625,0.0,0.0,0.0,0.0,0.0,0.0,0.063,0.0,0.0,0.0,0.0,0.0,-1.61,-0.0410546171996642,0.0,0.0,0.0,0.0,0.0,0.0,-0.112,0.0,0.0,0.0
547,0.0,0.0,0.0,-0.0439619140625,0.0,0.0,0.0,0.0,0.0,0.0,0.063,0.0,0.0,0.0,0.0,0.0,-1.61,-0.04083184188682927,0.0,0.0,0.0,0.0,0.0,0.0,-0.112,0.0,0.0,0.0
548,0.0,0.0,0.0,-0.043240234375,0.0,0.0,0.0,0.0,0.0,0.0,0.068,0.0,0.0,0.0,0.0,0.0,-1.61,-0.04044329009014982,0.0,0.0,0.0,0.0,0.0,0.0,-0.044,0.0,0.0,0.0
549,0.0,0.0,0.0,-0.043240234375,0.0,0.0,0.0,0.0,0.0,0.0,0.068,0.0,0.0,0.0,0.0,0.0,-1.61,-0.0401545240140379,0.0,0.0,0.0,0.0,0.0,0.0,-0.044,0.0,0.0,0.0
550,0.0,0.0,0.0,-0.0425185546875,0.0,0.0,0.0,0.0,0.0,0.0,0.072,0.0,0.0,0.0,0.0,0.0,-1.61,-0.03977312762229855,0.0,0.0,0.0,0.0,0.0,0.0,-0.204,0.0,0.0,0.0
551,0.0,0.0,0.0,-0.0425185546875,0.0,0.0,0.0,0.0,0.0,0.0,0.072,0.0,0.0,0.0,0.0,0.0,-1.61,-0.039526615710259075,0.0,0.0,0.0,0.0,0.0,0.0,-0.204,0.0,0.0,0.0
552,0.0,0.0,0.0,-0.041931640625,0.0,0.0,0.0,0.0,0.0,0.0,0.068,0.0,0.0,0.0,0.0,0.0,-1.61,-0.03925642504110082,0.0,0.0,0.0,0.0,0.0,0.0,-0.248,0.0,0.0,0.0
553,0.0,0.0,0.0,-0.041931640625,0.0,0.0,0.0,0.0,0.0,0.0,0.068,0.0,0.0,0.0,0.0,0.0,-1.61,-0.039033187682492226,0.0,0.0,0.0,0.0,0.0,0.0,-0.248,0.0,0.0,0.0
554,0.0,0.0,0.0,-0.0412099609375,0.0,0.0,0.0,0.0,0.0,0.0,0.07,0.0,0.0,0.0,0.0,0.0,-1.61,-0.03873487818029874,0.0,0.0,0.0,0.0,0.0,0.0,-0.524,0.0,0.0,0.0
555,0.0,0.0,0.0,-0.0412099609375,0.0,0.0,0.0,0.0,0.0,0.0,0.07,0.0,0.0,0.0,0.0,0.0,-1.61,-0.038468226822918034,0.0,0.0,0.0,0.0,0.0,0.0,-0.524,0.0,0.0,0.0
556,0.0,0.0,0.0,-0.04048828125,0.0,0.0,0.0,0.0,0.0,0.0,0.07,0.0,0.0,0.0,0.0,0.0,-1.61,-0.03821667110829979,0.0,0.0,0.0,0.0,0.0,0.0,-0.684,0.0,0.0,0.0
557,0.0,0.0,0.0,-0.04048828125,0.0,0.0,0.0,0.0,0.0,0.0,0.07,0.0,0.0,0.0,0.0,0.0,-1.61,-0.03796379097865033,0.0,0.0,0.0,0.0,0.0,0.0,-0.684,0.0,0.0,0.0
558,0.0,0.0,0.0,-0.04048828125,0.0,0.0,0.0,0.0,0.0,0.0,0.07,0.0,0.0,0.0,0.0,0.0,-1.61,-0.037736665820322556,0.0,0.0,0.0,0.0,0.0,0.0,-0.684,0.0,0.0,0.0
559,0.0,0.0,0.0,-0.0397666015625,0.0,0.0,0.0,0.0,0.0,0.0,0.068,0.0,0.0,0.0,0.0,0.0,-1.61,-0.03744484870215071,0.0,0.0,0.0,0.0,0.0,0.0,-0.456,0.0,0.0,0.0
560,0.0,0.0,0.0,-0.0397666015625,0.0,0.0,0.0,0.0,0.0,0.0,0.068,0.0,0.0,0.0,0.0,0.0,-1.61,-0.03720862589739041,0.0,0.0,0.0,0.0,0.0,0.0,-0.456,0.0,0.0,0.0
561,0.0,0.0,0.0,-0.03903515625,0.0,0.0,0.0,0.0,0.0,0.0,0.078,0.0,0.0,0.0,0.0,0.0,-1.61,-0.03696573111599449,0.0,0.0,0.0,0.0,0.0,0.0,-0.728,0.0,0.0,0.0
562,0.0,0.0,0.0,-0.03903515625,0.0,0.0,0.0,0.0,0.0,0.0,0.078,0.0,0.0,0.0,0.0,0.0,-1.61,-0.03670189213287039,0.0,0.0,0.0,0.0,0.0,0.0,-0.728,0.0,0.0,0.0
563,0.0,0.0,0.0,-0.0384580078125,0.0,0.0,0.0,0.0,0.0,0.0,0.063,0.0,0.0,0.0,0.0,0.0,-1.61,-0.036420404526287316,0.0,0.0,0.0,0.0,0.0,0.0,-0.684,0.0,0.0,0.0
564,0.0,0.0,0.0,-0.0384580078125,0.0,0.0,0.0,0.0,0.0,0.0,0.063,0.0,0.0,0.0,0.0,0.0,-1.61,-0.03617320656210877,0.0,0.0,0.0,0.0,0.0,0.0,-0.684,0.0,0.0,0.0
565,0.0,0.0,0.0,-0.0384580078125,0.0,0.0,0.0,0.0,0.0,0.0,0.063,0.0,0.0,0.0,0.0,0.0,-1.61,-0.03595208156821689,0.0,0.0,0.0,0.0,0.0,0.0,-0.684,0.0,0.0,0.0
566,0.0,0.0,0.0,-0.037880859375,0.0,0.0,0.0,0.0,0.0,0.0,0.05,0.0,0.0,0.0,0.0,0.0,-1.61,-0.03561605679935022,0.0,0.0,0.0,0.0,0.0,0.0,-0.34,0.0,0.0,0.0
567,0.0,0.0,0.0,-0.037880859375,0.0,0.0,0.0,0.0,0.0,0.0,0.05,0.0,0.0,0.0,0.0,0.0,-1.61,-0.035369648964502044,0.0,0.0,0.0,0.0,0.0,0.0,-0.34,0.0,0.0,0.0
568,0.0,0.0,0.0,-0.037302734375,0.0,0.0,0.0,0.0,0.0,0.0,0.063,0.0,0.0,0.0,0.0,0.0,-1.61,-0.035146424284525246,0.0,0.0,0.0,0.0,0.0,0.0,-0.592,0.0,0.0,0.0
569,0.0,0.0,0.0,-0.037302734375,0.0,0.0,0.0,0.0,0.0,0.0,0.063,0.0,0.0,0.0,0.0,0.0,-1.61,-0.03488197972124182,0.0,0.0,0.0,0.0,0.0,0.0,-0.592,0.0,0.0,0.0
570,0.0,0.0,0.0,-0.037302734375,0.0,0.0,0.0,0.0,0.0,0.0,0.063,0.0,0.0,0.0,0.0,0.0,-1.61,-0.034637535400235585,0.0,0.0,0.0,0.0,0.0,0.0,-0.592,0.0,0.0,0.0
571,0.0,0.0,0.0,-0.0368701171875,0.0,0.0,0.0,0.0,0.0,0.0,0.052,0.0,0.0,0.0,0.0,0.0,-1.61,-0.034314256158233025,0.0,0.0,0.0,0.0,0.0,0.0,-0.32,0.0,0.0,0.0
572,0.0,0.0,0.0,-0.0368701171875,0.0,0.0,0.0,0.0,0.0,0.0,0.052,0.0,0.0,0.0,0.0,0.0,-1.61,-0.03403318857188812,0.0,0.0,0.0,0.0,0.0,0.0,-0.32,0.0,0.0,0.0
573,0.0,0.0,0.0,-0.0362919921875,0.0,0.0,0.0,0.0,0.0,0.0,0.05,0.0,0.0,0.0,0.0,0.0,-1.61,-0.03362384247342506,0.0,0.0,0.0,0.0,0.0,0.0,-0.32,0.0,0.0,0.0
574,0.0,0.0,0.0,-0.0355615234375,0.0,0.0,0.0,0.0,0.0,0.0,0.068,0.0,0.0,0.0,0.0,0.0,-1.61,-0.03331174068442725,0.0,0.0,0.0,0.0,0.0,0.0,-0.64,0.0,0.0,0.0
575,0.0,0.0,0.0,-0.0355615234375,0.0,0.0,0.0,0.0,0.0,0.0,0.068,0.0,0.0,0.0,0.0,0.0,-1.61,-0.03306900531094596,0.0,0.0,0.0,0.0,0.0,0.0,-0.64,0.0,0.0,0.0
576,0.0,0.0,0.0,-0.0355615234375,0.0,0.0,0.0,0.0,0.0,0.0,0.068,0.0,0.0,0.0,0.0,0.0,-1.61,-0.03280339467926263,0.0,0.0,0.0,0.0,0.0,0.0,-0.64,0.0,0.0,0.0
577,0.0,0.0,0.0,-0.034984375,0.0,0.0,0.0,0.0,0.0,0.0,0.068,0.0,0.0,0.0,0.0,0.0,-1.61,-0.032498813679109985,0.0,0.0,0.0,0.0,0.0,0.0,-0.548,0.0,0.0,0.0
578,0.0,0.0,0.0,-0.034984375,0.0,0.0,0.0,0.0,0.0,0.0,0.068,0.0,0.0,0.0,0.0,0.0,-1.61,-0.03227614178582576,0.0,0.0,0.0,0.0,0.0,0.0,-0.548,0.0,0.0,0.0
579,0.0,0.0,0.0,-0.03440625,0.0,0.0,0.0,0.0,0.0,0.0,0.06,0.0,0.0,0.0,0.0,0.0,-1.61,-0.03197531958690263,0.0,0.0,0.0,0.0,0.0,0.0,-0.728,0.0,0.0,0.0
580,0.0,0.0,0.0,-0.03440625,0.0,0.0,0.0,0.0,0.0,0.0,0.06,0.0,0.0,0.0,0.0,0.0,-1.61,-0.031645143546581454,0.0,0.0,0.0,0.0,0.0,0.0,-0.728,0.0,0.0,0.0
581,0.0,0.0,0.0,-0.0338291015625,0.0,0.0,0.0,0.0,0.0,0.0,0.054,0.0,0.0,0.0,0.0,0.0,-1.61,-0.03135873411127743,0.0,0.0,0.0,0.0,0.0,0.0,-0.684,0.0,0.0,0.0
582,0.0,0.0,0.0,-0.0338291015625,0.0,0.0,0.0,0.0,0.0,0.0,0.054,0.0,0.0,0.0,0.0,0.0,-1.61,-0.031104661029527657,0.0,0.0,0.0,0.0,0.0,0.0,-0.684,0.0,0.0,0.0
583,0.0,0.0,0.0,-0.033251953125,0.0,0.0,0.0,0.0,0.0,0.0,0.049,0.0,0.0,0.0,0.0,0.0,-1.61,-0.030867765660644142,0.0,0.0,0.0,0.0,0.0,0.0,-0.248,0.0,0.0,0.0
584,0.0,0.0,0.0,-0.033251953125,0.0,0.0,0.0,0.0,0.0,0.0,0.049,0.0,0.0,0.0,0.0,0.0,-1.61,-0.03059688357640777,0.0,0.0,0.0,0.0,0.0,0.0,-0.248,0.0,0.0,0.0
585,0.0,0.0,0.0,-0.0328095703125,0.0,0.0,0.0,0.0,0.0,0.0,0.058,0.0,0.0,0.0,0.0,0.0,-1.61,-0.030234502442106032,0.0,0.0,0.0,0.0,0.0,0.0,-0.568,0.0,0.0,0.0
586,0.0,0.0,0.0,-0.0328095703125,0.0,0.0,0.0,0.0,0.0,0.0,0.058,0.0,0.0,0.0,0.0,0.0,-1.61,-0.029941149067358935,0.0,0.0,0.0,0.0,0.0,0.0,-0.568,0.0,0.0,0.0
587,0.0,0.0,0.0,-0.0328095703125,0.0,0.0,0.0,0.0,0.0,0.0,0.058,0.0,0.0,0.0,0.0,0.0,-1.61,-0.029709600411553225,0.0,0.0,0.0,0.0,0.0,0.0,-0.568,0.0,0.0,0.0
588,0.0,0.0,0.0,-0.0323759765625,0.0,0.0,0.0,0.0,0.0,0.0,0.046,0.0,0.0,0.0,0.0,0.0,-1.61,-0.029469800756142524,0.0,0.0,0.0,0.0,0.0,0.0,-0.296,0.0,0.0,0.0
589,0.0,0.0,0.0,-0.0323759765625,0.0,0.0,0.0,0.0,0.0,0.0,0.046,0.0,0.0,0.0,0.0,0.0,-1.61,-0.029172227713002364,0.0,0.0,0.0,0.0,0.0,0.0,-0.296,0.0,0.0,0.0
590,0.0,0.0,0.0,-0.031654296875,0.0,0.0,0.0,0.0,0.0,0.0,0.055,0.0,0.0,0.0,0.0,0.0,-1.61,-0.028932192909813748,0.0,0.0,0.0,0.0,0.0,0.0,-0.088,0.0,0.0,0.0
591,0.0,0.0,0.0,-0.031654296875,0.0,0.0,0.0,0.0,0.0,0.0,0.055,0.0,0.0,0.0,0.0,0.0,-1.61,-0.02865105559771524,0.0,0.0,0.0,0.0,0.0,0.0,-0.088,0.0,0.0,0.0
592,0.0,0.0,0.0,-0.031654296875,0.0,0.0,0.0,0.0,0.0,0.0,0.055,0.0,0.0,0.0,0.0,0.0,-1.61,-0.028340553646919252,0.0,0.0,0.0,0.0,0.0,0.0,-0.088,0.0,0.0,0.0
593,0.0,0.0,0.0,-0.0309326171875,0.0,0.0,0.0,0.0,0.0,0.0,0.074,0.0,0.0,0.0,0.0,0.0,-1.61,-0.02802223872899335,0.0,0.0,0.0,0.0,0.0,0.0,-0.228,0.0,0.0,0.0
594,0.0,0.0,0.0,-0.030345703125,0.0,0.0,0.0,0.0,0.0,0.0,0.061,0.0,0.0,0.0,0.0,0.0,-1.61,-0.027652516643651728,0.0,0.0,0.0,0.0,0.0,0.0,-0.248,0.0,0.0,0.0
595,0.0,0.0,0.0,-0.030345703125,0.0,0.0,0.0,0.0,0.0,0.0,0.061,0.0,0.0,0.0,0.0,0.0,-1.61,-0.027355400331831127,0.0,0.0,0.0,0.0,0.0,0.0,-0.248,0.0,0.0,0.0
596,0.0,0.0,0.0,-0.029759765625,0.0,0.0,0.0,0.0,0.0,0.0,0.058,0.0,0.0,0.0,0.0,0.0,-1.61,-0.027073977578239154,0.0,0.0,0.0,0.0,0.0,0.0,-0.388,0.0,0.0,0.0
597,0.0,0.0,0.0,-0.029759765625,0.0,0.0,0.0,0.0,0.0,0.0,0.058,0.0,0.0,0.0,0.0,0.0,-1.61,-0.026814679131338337,0.0,0.0,0.0,0.0,0.0,0.0,-0.388,0.0,0.0,0.0
598,0.0,0.0,0.0,-0.029037109375,0.0,0.0,0.0,0.0,0.0,0.0,0.069,0.0,0.0,0.0,0.0,0.0,-1.61,-0.026565380516651752,0.0,0.0,0.0,0.0,0.0,0.0,-0.432,0.0,0.0,0.0
599,0.0,0.0,0.0,-0.029037109375,0.0,0.0,0.0,0.0,0.0,0.0,0.069,0.0,0.0,0.0,0.0,0.0,-1.61,-0.026196096870858172,0.0,0.0,0.0,0.0,0.0,0.0,-0.432,0.0,0.0,0.0
600,0.0,0.0,0.0,-0.0286044921875,0.0,0.0,0.0,0.0,0.0,0.0,0.056,0.0,0.0,0.0,0.0,0.0,-1.61,-0.025833867852854384,0.0,0.0,0.0,0.0,0.0,0.0,-0.068,0.0,0.0,0.0
601,0.0,0.0,0.0,-0.0286044921875,0.0,0.0,0.0,0.0,0.0,0.0,0.056,0.0,0.0,0.0,0.0,0.0,-1.61,-0.025585646600519037,0.0,0.0,0.0,0.0,0.0,0.0,-0.068,0.0,0.0,0.0
602,0.0,0.0,0.0,-0.0286044921875,0.0,0.0,0.0,0.0,0.0,0.0,0.056,0.0,0.0,0.0,0.0,0.0,-1.61,-0.025338621967321825,0.0,0.0,0.0,0.0,0.0,0.0,-0.068,0.0,0.0,0.0
603,0.0,0.0,0.0,-0.0278828125,0.0,0.0,0.0,0.0,0.0,0.0,0.056,0.0,0.0,0.0,0.0,0.0,-1.61,-0.02511942647540128,0.0,0.0,0.0,0.0,0.0,0.0,0.044,0.0,0.0,0.0
604,0.0,0.0,0.0,-0.0278828125,0.0,0.0,0.0,0.0,0.0,0.0,0.056,0.0,0.0,0.0,0.0,0.0,-1.61,-0.024879234113156092,0.0,0.0,0.0,0.0,0.0,0.0,0.044,0.0,0.0,0.0
605,0.0,0.0,0.0,-0.0278828125,0.0,0.0,0.0,0.0,0.0,0.0,0.056,0.0,0.0,0.0,0.0,0.0,-1.61,-0.024629605922073763,0.0,0.0,0.0,0.0,0.0,0.0,0.044,0.0,0.0,0.0
606,0.0,0.0,0.0,-0.0273046875,0.0,0.0,0.0,0.0,0.0,0.0,0.067,0.0,0.0,0.0,0.0,0.0,-1.61,-0.02415984943540151,0.0,0.0,0.0,0.0,0.0,0.0,-0.044,0.0,0.0,0.0
607,0.0,0.0,0.0,-0.02671875,0.0,0.0,0.0,0.0,0.0,0.0,0.059,0.0,0.0,0.0,0.0,0.0,-1.61,-0.02374336583736061,0.0,0.0,0.0,0.0,0.0,0.0,0.02,0.0,0.0,0.0
608,0.0,0.0,0.0,-0.0259970703125,0.0,0.0,0.0,0.0,0.0,0.0,0.064,0.0,0.0,0.0,0.0,0.0,-1.61,-0.023264909908930795,0.0,0.0,0.0,0.0,0.0,0.0,-0.248,0.0,0.0,0.0
609,0.0,0.0,0.0,-0.0259970703125,0.0,0.0,0.0,0.0,0.0,0.0,0.064,0.0,0.0,0.0,0.0,0.0,-1.61,-0.022939687587092805,0.0,0.0,0.0,0.0,0.0,0.0,-0.248,0.0,0.0,0.0
610,0.0,0.0,0.0,-0.0255634765625,0.0,0.0,0.0,0.0,0.0,0.0,0.06,0.0,0.0,0.0,0.0,0.0,-1.61,-0.02263395355896652,0.0,0.0,0.0,0.0,0.0,0.0,-0.456,0.0,0.0,0.0
611,0.0,0.0,0.0,-0.0255634765625,0.0,0.0,0.0,0.0,0.0,0.0,0.06,0.0,0.0,0.0,0.0,0.0,-1.61,-0.022327832005528292,0.0,0.0,0.0,0.0,0.0,0.0,-0.456,0.0,0.0,0.0
612,0.0,0.0,0.0,-0.025130859375,0.0,0.0,0.0,0.0,0.0,0.0,0.046,0.0,0.0,0.0,0.0,0.0,-1.61,-0.021970399388784406,0.0,0.0,0.0,0.0,0.0,0.0,-0.48,0.0,0.0,0.0
613,0.0,0.0,0.0,-0.025130859375,0.0,0.0,0.0,0.0,0.0,0.0,0.046,0.0,0.0,0.0,0.0,0.0,-1.61,-0.02171108693194787,0.0,0.0,0.0,0.0,0.0,0.0,-0.48,0.0,0.0,0.0
614,0.0,0.0,0.0,-0.024408203125,0.0,0.0,0.0,0.0,0.0,0.0,0.056,0.0,0.0,0.0,0.0,0.0,-1.61,-0.021421342582606598,0.0,0.0,0.0,0.0,0.0,0.0,0.0,0.0,0.0,0.0
615,0.0,0.0,0.0,-0.024408203125,0.0,0.0,0.0,0.0,0.0,0.0,0.056,0.0,0.0,0.0,0.0,0.0,-1.61,-0.021117797371124496,0.0,0.0,0.0,0.0,0.0,0.0,0.0,0.0,0.0,0.0
616,0.0,0.0,0.0,-0.024408203125,0.0,0.0,0.0,0.0,0.0,0.0,0.056,0.0,0.0,0.0,0.0,0.0,-1.61,-0.02087207477434809,0.0,0.0,0.0,0.0,0.0,0.0,0.0,0.0,0.0,0.0
617,0.0,0.0,0.0,-0.023677734375,0.0,0.0,0.0,0.0,0.0,0.0,0.072,0.0,0.0,0.0,0.0,0.0,-1.61,-0.02053992330218436,0.0,0.0,0.0,0.0,0.0,0.0,0.408,0.0,0.0,0.0
618,0.0,0.0,0.0,-0.0229560546875,0.0,0.0,0.0,0.0,0.0,0.0,0.068,0.0,0.0,0.0,0.0,0.0,-1.61,-0.020229943049351867,0.0,0.0,0.0,0.0,0.0,0.0,0.408,0.0,0.0,0.0
619,0.0,0.0,0.0,-0.0229560546875,0.0,0.0,0.0,0.0,0.0,0.0,0.068,0.0,0.0,0.0,0.0,0.0,-1.61,-0.01977618539576181,0.0,0.0,0.0,0.0,0.0,0.0,0.408,0.0,0.0,0.0
620,0.0,0.0,0.0,-0.0222333984375,0.0,0.0,0.0,0.0,0.0,0.0,0.068,0.0,0.0,0.0,0.0,0.0,-1.61,-0.019407134063739836,0.0,0.0,0.0,0.0,0.0,0.0,0.088,0.0,0.0,0.0
621,0.0,0.0,0.0,-0.0222333984375,0.0,0.0,0.0,0.0,0.0,0.0,0.068,0.0,0.0,0.0,0.0,0.0,-1.61,-0.019117667563497413,0.0,0.0,0.0,0.0,0.0,0.0,0.088,0.0,0.0,0.0
622,0.0,0.0,0.0,-0.02165625,0.0,0.0,0.0,0.0,0.0,0.0,0.069,0.0,0.0,0.0,0.0,0.0,-1.61,-0.018760648182424018,0.0,0.0,0.0,0.0,0.0,0.0,-0.136,0.0,0.0,0.0
623,0.0,0.0,0.0,-0.02165625,0.0,0.0,0.0,0.0,0.0,0.0,0.069,0.0,0.0,0.0,0.0,0.0,-1.61,-0.018353055165325254,0.0,0.0,0.0,0.0,0.0,0.0,-0.136,0.0,0.0,0.0
624,0.0,0.0,0.0,-0.0210791015625,0.0,0.0,0.0,0.0,0.0,0.0,0.059,0.0,0.0,0.0,0.0,0.0,-1.61,-0.018090264190139867,0.0,0.0,0.0,0.0,0.0,0.0,-0.136,0.0,0.0,0.0
625,0.0,0.0,0.0,-0.0210791015625,0.0,0.0,0.0,0.0,0.0,0.0,0.059,0.0,0.0,0.0,0.0,0.0,-1.61,-0.017758956698385227,0.0,0.0,0.0,0.0,0.0,0.0,-0.136,0.0,0.0,0.0
626,0.0,0.0,0.0,-0.02034765625,0.0,0.0,0.0,0.0,0.0,0.0,0.061,0.0,0.0,0.0,0.0,0.0,-1.61,-0.01749478887103402,0.0,0.0,0.0,0.0,0.0,0.0,0.136,0.0,0.0,0.0
627,0.0,0.0,0.0,-0.02034765625,0.0,0.0,0.0,0.0,0.0,0.0,0.061,0.0,0.0,0.0,0.0,0.0,-1.61,-0.017241123368573318,0.0,0.0,0.0,0.0,0.0,0.0,0.136,0.0,0.0,0.0
628,0.0,0.0,0.0,-0.0199150390625,0.0,0.0,0.0,0.0,0.0,0.0,0.06,0.0,0.0,0.0,0.0,0.0,-1.61,-0.016971241495347015,0.0,0.0,0.0,0.0,0.0,0.0,0.068,0.0,0.0,0.0
629,0.0,0.0,0.0,-0.0199150390625,0.0,0.0,0.0,0.0,0.0,0.0,0.06,0.0,0.0,0.0,0.0,0.0,-1.61,-0.016670894585505712,0.0,0.0,0.0,0.0,0.0,0.0,0.068,0.0,0.0,0.0
630,0.0,0.0,0.0,-0.0194814453125,0.0,0.0,0.0,0.0,0.0,0.0,0.044,0.0,0.0,0.0,0.0,0.0,-1.61,-0.016329016198571886,0.0,0.0,0.0,0.0,0.0,0.0,0.568,0.0,0.0,0.0
631,0.0,0.0,0.0,-0.0194814453125,0.0,0.0,0.0,0.0,0.0,0.0,0.044,0.0,0.0,0.0,0.0,0.0,-1.61,-0.016078655120546823,0.0,0.0,0.0,0.0,0.0,0.0,0.568,0.0,0.0,0.0
632,0.0,0.0,0.0,-0.0194814453125,0.0,0.0,0.0,0.0,0.0,0.0,0.044,0.0,0.0,0.0,0.0,0.0,-1.61,-0.015783371321965844,0.0,0.0,0.0,0.0,0.0,0.0,0.568,0.0,0.0,0.0
633,0.0,0.0,0.0,-0.018759765625,0.0,0.0,0.0,0.0,0.0,0.0,0.054,0.0,0.0,0.0,0.0,0.0,-1.61,-0.015448743164476609,0.0,0.0,0.0,0.0,0.0,0.0,0.728,0.0,0.0,0.0
634,0.0,0.0,0.0,-0.018759765625,0.0,0.0,0.0,0.0,0.0,0.0,0.054,0.0,0.0,0.0,0.0,0.0,-1.61,-0.015208701731013123,0.0,0.0,0.0,0.0,0.0,0.0,0.728,0.0,0.0,0.0
635,0.0,0.0,0.0,-0.0181826171875,0.0,0.0,0.0,0.0,0.0,0.0,0.063,0.0,0.0,0.0,0.0,0.0,-1.61,-0.014939821957020313,0.0,0.0,0.0,0.0,0.0,0.0,0.548,0.0,0.0,0.0
636,0.0,0.0,0.0,-0.0181826171875,0.0,0.0,0.0,0.0,0.0,0.0,0.063,0.0,0.0,0.0,0.0,0.0,-1.61,-0.0146306779435309,0.0,0.0,0.0,0.0,0.0,0.0,0.548,0.0,0.0,0.0
637,0.0,0.0,0.0,-0.017595703125,0.0,0.0,0.0,0.0,0.0,0.0,0.055,0.0,0.0,0.0,0.0,0.0,-1.61,-0.014365897101101987,0.0,0.0,0.0,0.0,0.0,0.0,0.5,0.0,0.0,0.0
638,0.0,0.0,0.0,-0.017595703125,0.0,0.0,0.0,0.0,0.0,0.0,0.055,0.0,0.0,0.0,0.0,0.0,-1.61,-0.014140203859592462,0.0,0.0,0.0,0.0,0.0,0.0,0.5,0.0,0.0,0.0
639,0.0,0.0,0.0,-0.017595703125,0.0,0.0,0.0,0.0,0.0,0.0,0.055,0.0,0.0,0.0,0.0,0.0,-1.61,-0.013908676385709962,0.0,0.0,0.0,0.0,0.0,0.0,0.5,0.0,0.0,0.0
640,0.0,0.0,0.0,-0.0168740234375,0.0,0.0,0.0,0.0,0.0,0.0,0.066,0.0,0.0,0.0,0.0,0.0,-1.61,-0.013497267260349393,0.0,0.0,0.0,0.0,0.0,0.0,0.044,0.0,0.0,0.0
641,0.0,0.0,0.0,-0.0168740234375,0.0,0.0,0.0,0.0,0.0,0.0,0.066,0.0,0.0,0.0,0.0,0.0,-1.61,-0.013165828212438656,0.0,0.0,0.0,0.0,0.0,0.0,0.044,0.0,0.0,0.0
642,0.0,0.0,0.0,-0.0164404296875,0.0,0.0,0.0,0.0,0.0,0.0,0.065,0.0,0.0,0.0,0.0,0.0,-1.61,-0.012810837825292784,0.0,0.0,0.0,0.0,0.0,0.0,0.228,0.0,0.0,0.0
643,0.0,0.0,0.0,-0.01571875,0.0,0.0,0.0,0.0,0.0,0.0,0.056,0.0,0.0,0.0,0.0,0.0,-1.61,-0.012406817043549569,0.0,0.0,0.0,0.0,0.0,0.0,0.64,0.0,0.0,0.0
644,0.0,0.0,0.0,-0.01571875,0.0,0.0,0.0,0.0,0.0,0.0,0.056,0.0,0.0,0.0,0.0,0.0,-1.61,-0.012179411224802088,0.0,0.0,0.0,0.0,0.0,0.0,0.64,0.0,0.0,0.0
645,0.0,0.0,0.0,-0.01571875,0.0,0.0,0.0,0.0,0.0,0.0,0.056,0.0,0.0,0.0,0.0,0.0,-1.61,-0.011952335718169714,0.0,0.0,0.0,0.0,0.0,0.0,0.64,0.0,0.0,0.0
646,0.0,0.0,0.0,-0.0152861328125,0.0,0.0,0.0,0.0,0.0,0.0,0.06,0.0,0.0,0.0,0.0,0.0,-1.61,-0.011693046200880452,0.0,0.0,0.0,0.0,0.0,0.0,0.684,0.0,0.0,0.0
647,0.0,0.0,0.0,-0.0152861328125,0.0,0.0,0.0,0.0,0.0,0.0,0.06,0.0,0.0,0.0,0.0,0.0,-1.61,-0.011414858605580974,0.0,0.0,0.0,0.0,0.0,0.0,0.684,0.0,0.0,0.0
648,0.0,0.0,0.0,-0.0147080078125,0.0,0.0,0.0,0.0,0.0,0.0,0.051,0.0,0.0,0.0,0.0,0.0,-1.61,-0.011108719406608084,0.0,0.0,0.0,0.0,0.0,0.0,1.14,0.0,0.0,0.0
649,0.0,0.0,0.0,-0.0147080078125,0.0,0.0,0.0,0.0,0.0,0.0,0.051,0.0,0.0,0.0,0.0,0.0,-1.61,-0.01073227232801822,0.0,0.0,0.0,0.0,0.0,0.0,1.14,0.0,0.0,0.0
650,0.0,0.0,0.0,-0.0138330078125,0.0,0.0,0.0,0.0,0.0,0.0,0.067,0.0,0.0,0.0,0.0,0.0,-1.61,-0.010344705761797992,0.0,0.0,0.0,0.0,0.0,0.0,1.004,0.0,0.0,0.0
651,0.0,0.0,0.0,-0.0138330078125,0.0,0.0,0.0,0.0,0.0,0.0,0.067,0.0,0.0,0.0,0.0,0.0,-1.61,-0.01001011796441765,0.0,0.0,0.0,0.0,0.0,0.0,1.004,0.0,0.0,0.0
652,0.0,0.0,0.0,-0.013255859375,0.0,0.0,0.0,0.0,0.0,0.0,0.077,0.0,0.0,0.0,0.0,0.0,-1.61,-0.009579499966305215,0.0,0.0,0.0,0.0,0.0,0.0,0.684,0.0,0.0,0.0
653,0.0,0.0,0.0,-0.013255859375,0.0,0.0,0.0,0.0,0.0,0.0,0.077,0.0,0.0,0.0,0.0,0.0,-1.61,-0.009299857208641545,0.0,0.0,0.0,0.0,0.0,0.0,0.684,0.0,0.0,0.0
654,0.0,0.0,0.0,-0.0125341796875,0.0,0.0,0.0,0.0,0.0,0.0,0.062,0.0,0.0,0.0,0.0,0.0,-1.61,-0.008931010950721147,0.0,0.0,0.0,0.0,0.0,0.0,0.66,0.0,0.0,0.0
655,0.0,0.0,0.0,-0.0125341796875,0.0,0.0,0.0,0.0,0.0,0.0,0.062,0.0,0.0,0.0,0.0,0.0,-1.61,-0.00861265527140458,0.0,0.0,0.0,0.0,0.0,0.0,0.66,0.0,0.0,0.0
656,0.0,0.0,0.0,-0.0118115234375,0.0,0.0,0.0,0.0,0.0,0.0,0.073,0.0,0.0,0.0,0.0,0.0,-1.61,-0.008333470917538884,0.0,0.0,0.0,0.0,0.0,0.0,0.456,0.0,0.0,0.0
657,0.0,0.0,0.0,-0.0118115234375,0.0,0.0,0.0,0.0,0.0,0.0,0.073,0.0,0.0,0.0,0.0,0.0,-1.61,-0.008059560302720415,0.0,0.0,0.0,0.0,0.0,0.0,0.456,0.0,0.0,0.0
658,0.0,0.0,0.0,-0.0112255859375,0.0,0.0,0.0,0.0,0.0,0.0,0.068,0.0,0.0,0.0,0.0,0.0,-1.61,-0.007688214838527115,0.0,0.0,0.0,0.0,0.0,0.0,0.5,0.0,0.0,0.0
659,0.0,0.0,0.0,-0.0112255859375,0.0,0.0,0.0,0.0,0.0,0.0,0.068,0.0,0.0,0.0,0.0,0.0,-1.61,-0.007350505516530548,0.0,0.0,0.0,0.0,0.0,0.0,0.5,0.0,0.0,0.0
660,0.0,0.0,0.0,-0.0106474609375,0.0,0.0,0.0,0.0,0.0,0.0,0.057,0.0,0.0,0.0,0.0,0.0,-1.61,-0.007031525768422856,0.0,0.0,0.0,0.0,0.0,0.0,1.004,0.0,0.0,0.0
661,0.0,0.0,0.0,-0.0106474609375,0.0,0.0,0.0,0.0,0.0,0.0,0.057,0.0,0.0,0.0,0.0,0.0,-1.61,-0.006712018861627971,0.0,0.0,0.0,0.0,0.0,0.0,1.004,0.0,0.0,0.0
