EmanuelSamir/lab201_ws_projsamir/sawyer_dev/data/sawyer/temp/test_0.csv
,j1,j2,j3,j4,j5,j6,j7,v1,v2,v3,v4,v5,v6,v7,jd1,jd2,jd3,jd4,jd5,jd6,jd7,e1,e2,e3,e4,e5,e6,e7
0,0.0,0.0,0.0,0.0,0.0,0.0,0.0,0.0,0.0,0.0,0.0,0.0,0.0,0.0,0.0,0.0,0.0,0.0,0.0,0.0,0.0,0.0,0.0,0.0,0.0,0.0,0.0,0.0
1,0.0,0.0,0.0,0.0023896484375,0.0,0.0,0.0,0.0,0.0,0.0,-0.001,0.0,0.0,0.0,0.0,0.0,-1.61,6.008148183318579e-05,0.0,0.0,0.0,0.0,0.0,0.0,0.364,0.0,0.0,0.0
2,0.0,0.0,0.0,0.0023896484375,0.0,0.0,0.0,0.0,0.0,0.0,-0.001,0.0,0.0,0.0,0.0,0.0,-1.61,0.013205987656006496,0.0,0.0,0.0,0.0,0.0,0.0,0.32,0.0,0.0,0.0
3,0.0,0.0,0.0,0.0023896484375,0.0,0.0,0.0,0.0,0.0,0.0,-0.001,0.0,0.0,0.0,0.0,0.0,-1.61,0.024734543094083104,0.0,0.0,0.0,0.0,0.0,0.0,0.364,0.0,0.0,0.0
4,0.0,0.0,0.0,0.0023896484375,0.0,0.0,0.0,0.0,0.0,0.0,-0.002,0.0,0.0,0.0,0.0,0.0,-1.61,0.0368610810761804,0.0,0.0,0.0,0.0,0.0,0.0,0.408,0.0,0.0,0.0
5,0.0,0.0,0.0,0.003400390625,0.0,0.0,0.0,0.0,0.0,0.0,0.033,0.0,0.0,0.0,0.0,0.0,-1.61,0.048775197379837695,0.0,0.0,0.0,0.0,0.0,0.0,2.764,0.0,0.0,0.0
6,0.0,0.0,0.0,0.00644140625,0.0,0.0,0.0,0.0,0.0,0.0,0.189,0.0,0.0,0.0,0.0,0.0,-1.61,0.06060195504344563,0.0,0.0,0.0,0.0,0.0,0.0,4.616,0.0,0.0,0.0
7,0.0,0.0,0.0,0.009771484375,0.0,0.0,0.0,0.0,0.0,0.0,0.318,0.0,0.0,0.0,0.0,0.0,-1.61,0.07270516044521633,0.0,0.0,0.0,0.0,0.0,0.0,4.824,0.0,0.0,0.0
8,0.0,0.0,0.0,0.0139853515625,0.0,0.0,0.0,0.0,0.0,0.0,0.364,0.0,0.0,0.0,0.0,0.0,-1.61,0.08455408600138295,0.0,0.0,0.0,0.0,0.0,0.0,4.504,0.0,0.0,0.0
9,0.0,0.0,0.0,0.0194892578125,0.0,0.0,0.0,0.0,0.0,0.0,0.476,0.0,0.0,0.0,0.0,0.0,-1.61,0.09630987556844757,0.0,0.0,0.0,0.0,0.0,0.0,3.04,0.0,0.0,0.0
10,0.0,0.0,0.0,0.0252734375,0.0,0.0,0.0,0.0,0.0,0.0,0.571,0.0,0.0,0.0,0.0,0.0,-1.61,0.10819105717736939,0.0,0.0,0.0,0.0,0.0,0.0,2.264,0.0,0.0,0.0
11,0.0,0.0,0.0,0.0312109375,0.0,0.0,0.0,0.0,0.0,0.0,0.587,0.0,0.0,0.0,0.0,0.0,-1.61,0.11997051943649802,0.0,0.0,0.0,0.0,0.0,0.0,3.04,0.0,0.0,0.0
12,0.0,0.0,0.0,0.0380322265625,0.0,0.0,0.0,0.0,0.0,0.0,0.638,0.0,0.0,0.0,0.0,0.0,-1.61,0.1317385717053625,0.0,0.0,0.0,0.0,0.0,0.0,3.588,0.0,0.0,0.0
13,0.0,0.0,0.0,0.04469140625,0.0,0.0,0.0,0.0,0.0,0.0,0.689,0.0,0.0,0.0,0.0,0.0,-1.61,0.1434222212147869,0.0,0.0,0.0,0.0,0.0,0.0,3.84,0.0,0.0,0.0
14,0.0,0.0,0.0,0.0510625,0.0,0.0,0.0,0.0,0.0,0.0,0.654,0.0,0.0,0.0,0.0,0.0,-1.61,0.15507859400527005,0.0,0.0,0.0,0.0,0.0,0.0,3.748,0.0,0.0,0.0
15,0.0,0.0,0.0,0.05773046875,0.0,0.0,0.0,0.0,0.0,0.0,0.651,0.0,0.0,0.0,0.0,0.0,-1.61,0.1666423433290802,0.0,0.0,0.0,0.0,0.0,0.0,3.704,0.0,0.0,0.0
16,0.0,0.0,0.0,0.0646787109375,0.0,0.0,0.0,0.0,0.0,0.0,0.68,0.0,0.0,0.0,0.0,0.0,-1.61,0.1781350286891029,0.0,0.0,0.0,0.0,0.0,0.0,3.476,0.0,0.0,0.0
17,0.0,0.0,0.0,0.0719248046875,0.0,0.0,0.0,0.0,0.0,0.0,0.704,0.0,0.0,0.0,0.0,0.0,-1.61,0.18960316474411426,0.0,0.0,0.0,0.0,0.0,0.0,3.976,0.0,0.0,0.0
18,0.0,0.0,0.0,0.0790263671875,0.0,0.0,0.0,0.0,0.0,0.0,0.732,0.0,0.0,0.0,0.0,0.0,-1.61,0.20080479411568677,0.0,0.0,0.0,0.0,0.0,0.0,1.78,0.0,0.0,0.0
19,0.0,0.0,0.0,0.085396484375,0.0,0.0,0.0,0.0,0.0,0.0,0.684,0.0,0.0,0.0,0.0,0.0,-1.61,0.21207187479603135,0.0,0.0,0.0,0.0,0.0,0.0,0.82,0.0,0.0,0.0
20,0.0,0.0,0.0,0.0920556640625,0.0,0.0,0.0,0.0,0.0,0.0,0.645,0.0,0.0,0.0,0.0,0.0,-1.61,0.22400466241446598,0.0,0.0,0.0,0.0,0.0,0.0,1.508,0.0,0.0,0.0
21,0.0,0.0,0.0,0.099021484375,0.0,0.0,0.0,0.0,0.0,0.0,0.689,0.0,0.0,0.0,0.0,0.0,-1.61,0.23431732417992907,0.0,0.0,0.0,0.0,0.0,0.0,1.644,0.0,0.0,0.0
22,0.0,0.0,0.0,0.10552734375,0.0,0.0,0.0,0.0,0.0,0.0,0.682,0.0,0.0,0.0,0.0,0.0,-1.61,0.2454042675431884,0.0,0.0,0.0,0.0,0.0,0.0,2.148,0.0,0.0,0.0
23,0.0,0.0,0.0,0.1118984375,0.0,0.0,0.0,0.0,0.0,0.0,0.647,0.0,0.0,0.0,0.0,0.0,-1.61,0.2563407789400584,0.0,0.0,0.0,0.0,0.0,0.0,1.392,0.0,0.0,0.0
24,0.0,0.0,0.0,0.11856640625,0.0,0.0,0.0,0.0,0.0,0.0,0.655,0.0,0.0,0.0,0.0,0.0,-1.61,0.26709107399985715,0.0,0.0,0.0,0.0,0.0,0.0,0.456,0.0,0.0,0.0
25,0.0,0.0,0.0,0.1250810546875,0.0,0.0,0.0,0.0,0.0,0.0,0.667,0.0,0.0,0.0,0.0,0.0,-1.61,0.27785593205770615,0.0,0.0,0.0,0.0,0.0,0.0,0.48,0.0,0.0,0.0
26,0.0,0.0,0.0,0.1315966796875,0.0,0.0,0.0,0.0,0.0,0.0,0.655,0.0,0.0,0.0,0.0,0.0,-1.61,0.28848477966975444,0.0,0.0,0.0,0.0,0.0,0.0,0.888,0.0,0.0,0.0
27,0.0,0.0,0.0,0.1379755859375,0.0,0.0,0.0,0.0,0.0,0.0,0.649,0.0,0.0,0.0,0.0,0.0,-1.61,0.29880365339815057,0.0,0.0,0.0,0.0,0.0,0.0,0.18,0.0,0.0,0.0
28,0.0,0.0,0.0,0.1439130859375,0.0,0.0,0.0,0.0,0.0,0.0,0.614,0.0,0.0,0.0,0.0,0.0,-1.61,0.3092140042085057,0.0,0.0,0.0,0.0,0.0,0.0,-0.64,0.0,0.0,0.0
29,0.0,0.0,0.0,0.1502841796875,0.0,0.0,0.0,0.0,0.0,0.0,0.61,0.0,0.0,0.0,0.0,0.0,-1.61,0.31942306831321027,0.0,0.0,0.0,0.0,0.0,0.0,-0.548,0.0,0.0,0.0
30,0.0,0.0,0.0,0.15681640625,0.0,0.0,0.0,0.0,0.0,0.0,0.649,0.0,0.0,0.0,0.0,0.0,-1.61,0.329442504130193,0.0,0.0,0.0,0.0,0.0,0.0,-0.616,0.0,0.0,0.0
31,0.0,0.0,0.0,0.16304296875,0.0,0.0,0.0,0.0,0.0,0.0,0.645,0.0,0.0,0.0,0.0,0.0,-1.61,0.33946069049727096,0.0,0.0,0.0,0.0,0.0,0.0,-0.228,0.0,0.0,0.0
32,0.0,0.0,0.0,0.1694130859375,0.0,0.0,0.0,0.0,0.0,0.0,0.639,0.0,0.0,0.0,0.0,0.0,-1.61,0.34933366298145696,0.0,0.0,0.0,0.0,0.0,0.0,-0.708,0.0,0.0,0.0
33,0.0,0.0,0.0,0.17579296875,0.0,0.0,0.0,0.0,0.0,0.0,0.643,0.0,0.0,0.0,0.0,0.0,-1.61,0.3590243044580286,0.0,0.0,0.0,0.0,0.0,0.0,-1.416,0.0,0.0,0.0
34,0.0,0.0,0.0,0.18201953125,0.0,0.0,0.0,0.0,0.0,0.0,0.634,0.0,0.0,0.0,0.0,0.0,-1.61,0.36852943064190663,0.0,0.0,0.0,0.0,0.0,0.0,-1.096,0.0,0.0,0.0
35,0.0,0.0,0.0,0.1883896484375,0.0,0.0,0.0,0.0,0.0,0.0,0.633,0.0,0.0,0.0,0.0,0.0,-1.61,0.3782668538683704,0.0,0.0,0.0,0.0,0.0,0.0,-0.752,0.0,0.0,0.0
36,0.0,0.0,0.0,0.1944716796875,0.0,0.0,0.0,0.0,0.0,0.0,0.628,0.0,0.0,0.0,0.0,0.0,-1.61,0.3871278028943764,0.0,0.0,0.0,0.0,0.0,0.0,-0.8,0.0,0.0,0.0
37,0.0,0.0,0.0,0.20041796875,0.0,0.0,0.0,0.0,0.0,0.0,0.608,0.0,0.0,0.0,0.0,0.0,-1.61,0.396254745388232,0.0,0.0,0.0,0.0,0.0,0.0,-1.052,0.0,0.0,0.0
38,0.0,0.0,0.0,0.20635546875,0.0,0.0,0.0,0.0,0.0,0.0,0.589,0.0,0.0,0.0,0.0,0.0,-1.61,0.40527758836053146,0.0,0.0,0.0,0.0,0.0,0.0,-1.3,0.0,0.0,0.0
39,0.0,0.0,0.0,0.2124375,0.0,0.0,0.0,0.0,0.0,0.0,0.606,0.0,0.0,0.0,0.0,0.0,-1.61,0.4139214485315386,0.0,0.0,0.0,0.0,0.0,0.0,-1.3,0.0,0.0,0.0
40,0.0,0.0,0.0,0.2186728515625,0.0,0.0,0.0,0.0,0.0,0.0,0.62,0.0,0.0,0.0,0.0,0.0,-1.61,0.42255494556538226,0.0,0.0,0.0,0.0,0.0,0.0,-1.164,0.0,0.0,0.0
41,0.0,0.0,0.0,0.22475390625,0.0,0.0,0.0,0.0,0.0,0.0,0.615,0.0,0.0,0.0,0.0,0.0,-1.61,0.4310076990682591,0.0,0.0,0.0,0.0,0.0,0.0,-1.484,0.0,0.0,0.0
42,0.0,0.0,0.0,0.2308359375,0.0,0.0,0.0,0.0,0.0,0.0,0.612,0.0,0.0,0.0,0.0,0.0,-1.61,0.4393058032027479,0.0,0.0,0.0,0.0,0.0,0.0,-1.6,0.0,0.0,0.0
43,0.0,0.0,0.0,0.2366376953125,0.0,0.0,0.0,0.0,0.0,0.0,0.6,0.0,0.0,0.0,0.0,0.0,-1.61,0.44730840779635866,0.0,0.0,0.0,0.0,0.0,0.0,-1.348,0.0,0.0,0.0
44,0.0,0.0,0.0,0.24227734375,0.0,0.0,0.0,0.0,0.0,0.0,0.581,0.0,0.0,0.0,0.0,0.0,-1.61,0.45525151197039077,0.0,0.0,0.0,0.0,0.0,0.0,-0.34,0.0,0.0,0.0
45,0.0,0.0,0.0,0.2480703125,0.0,0.0,0.0,0.0,0.0,0.0,0.572,0.0,0.0,0.0,0.0,0.0,-1.61,0.46299177059300295,0.0,0.0,0.0,0.0,0.0,0.0,0.248,0.0,0.0,0.0
46,0.0,0.0,0.0,0.2534306640625,0.0,0.0,0.0,0.0,0.0,0.0,0.561,0.0,0.0,0.0,0.0,0.0,-1.61,0.47055656963372516,0.0,0.0,0.0,0.0,0.0,0.0,-0.068,0.0,0.0,0.0
47,0.0,0.0,0.0,0.2589443359375,0.0,0.0,0.0,0.0,0.0,0.0,0.549,0.0,0.0,0.0,0.0,0.0,-1.61,0.4778498678788447,0.0,0.0,0.0,0.0,0.0,0.0,0.112,0.0,0.0,0.0
48,0.0,0.0,0.0,0.2644482421875,0.0,0.0,0.0,0.0,0.0,0.0,0.552,0.0,0.0,0.0,0.0,0.0,-1.61,0.4850028772498211,0.0,0.0,0.0,0.0,0.0,0.0,-0.02,0.0,0.0,0.0
49,0.0,0.0,0.0,0.269798828125,0.0,0.0,0.0,0.0,0.0,0.0,0.543,0.0,0.0,0.0,0.0,0.0,-1.61,0.4919515170761373,0.0,0.0,0.0,0.0,0.0,0.0,0.0,0.0,0.0,0.0
50,0.0,0.0,0.0,0.27545703125,0.0,0.0,0.0,0.0,0.0,0.0,0.552,0.0,0.0,0.0,0.0,0.0,-1.61,0.4987877824965828,0.0,0.0,0.0,0.0,0.0,0.0,0.32,0.0,0.0,0.0
51,0.0,0.0,0.0,0.28110546875,0.0,0.0,0.0,0.0,0.0,0.0,0.569,0.0,0.0,0.0,0.0,0.0,-1.61,0.5054038043864673,0.0,0.0,0.0,0.0,0.0,0.0,-0.112,0.0,0.0,0.0
52,0.0,0.0,0.0,0.286609375,0.0,0.0,0.0,0.0,0.0,0.0,0.557,0.0,0.0,0.0,0.0,0.0,-1.61,0.51168450919654,0.0,0.0,0.0,0.0,0.0,0.0,-0.088,0.0,0.0,0.0
53,0.0,0.0,0.0,0.2921142578125,0.0,0.0,0.0,0.0,0.0,0.0,0.56,0.0,0.0,0.0,0.0,0.0,-1.61,0.5178435435624026,0.0,0.0,0.0,0.0,0.0,0.0,0.48,0.0,0.0,0.0
54,0.0,0.0,0.0,0.2977626953125,0.0,0.0,0.0,0.0,0.0,0.0,0.561,0.0,0.0,0.0,0.0,0.0,-1.61,0.5238199223642906,0.0,0.0,0.0,0.0,0.0,0.0,0.844,0.0,0.0,0.0
55,0.0,0.0,0.0,0.3032666015625,0.0,0.0,0.0,0.0,0.0,0.0,0.556,0.0,0.0,0.0,0.0,0.0,-1.61,0.5295345471849333,0.0,0.0,0.0,0.0,0.0,0.0,1.052,0.0,0.0,0.0
56,0.0,0.0,0.0,0.308771484375,0.0,0.0,0.0,0.0,0.0,0.0,0.557,0.0,0.0,0.0,0.0,0.0,-1.61,0.5350657953536667,0.0,0.0,0.0,0.0,0.0,0.0,1.392,0.0,0.0,0.0
57,0.0,0.0,0.0,0.3142841796875,0.0,0.0,0.0,0.0,0.0,0.0,0.557,0.0,0.0,0.0,0.0,0.0,-1.61,0.5404147398429482,0.0,0.0,0.0,0.0,0.0,0.0,0.752,0.0,0.0,0.0
58,0.0,0.0,0.0,0.3197802734375,0.0,0.0,0.0,0.0,0.0,0.0,0.548,0.0,0.0,0.0,0.0,0.0,-1.61,0.5455193490752313,0.0,0.0,0.0,0.0,0.0,0.0,0.96,0.0,0.0,0.0
59,0.0,0.0,0.0,0.3252841796875,0.0,0.0,0.0,0.0,0.0,0.0,0.551,0.0,0.0,0.0,0.0,0.0,-1.61,0.5503818788101656,0.0,0.0,0.0,0.0,0.0,0.0,1.052,0.0,0.0,0.0
60,0.0,0.0,0.0,0.3307880859375,0.0,0.0,0.0,0.0,0.0,0.0,0.559,0.0,0.0,0.0,0.0,0.0,-1.61,0.5550916886746612,0.0,0.0,0.0,0.0,0.0,0.0,0.888,0.0,0.0,0.0
61,0.0,0.0,0.0,0.3365908203125,0.0,0.0,0.0,0.0,0.0,0.0,0.566,0.0,0.0,0.0,0.0,0.0,-1.61,0.5595099887719575,0.0,0.0,0.0,0.0,0.0,0.0,0.98,0.0,0.0,0.0
62,0.0,0.0,0.0,0.3423837890625,0.0,0.0,0.0,0.0,0.0,0.0,0.583,0.0,0.0,0.0,0.0,0.0,-1.61,0.5637394520350489,0.0,0.0,0.0,0.0,0.0,0.0,0.708,0.0,0.0,0.0
63,0.0,0.0,0.0,0.3483212890625,0.0,0.0,0.0,0.0,0.0,0.0,0.592,0.0,0.0,0.0,0.0,0.0,-1.61,0.5677527134907948,0.0,0.0,0.0,0.0,0.0,0.0,0.48,0.0,0.0,0.0
64,0.0,0.0,0.0,0.3541142578125,0.0,0.0,0.0,0.0,0.0,0.0,0.588,0.0,0.0,0.0,0.0,0.0,-1.61,0.5714819917521945,0.0,0.0,0.0,0.0,0.0,0.0,0.728,0.0,0.0,0.0
65,0.0,0.0,0.0,0.3600517578125,0.0,0.0,0.0,0.0,0.0,0.0,0.593,0.0,0.0,0.0,0.0,0.0,-1.61,0.5750487670276434,0.0,0.0,0.0,0.0,0.0,0.0,1.164,0.0,0.0,0.0
66,0.0,0.0,0.0,0.3661328125,0.0,0.0,0.0,0.0,0.0,0.0,0.594,0.0,0.0,0.0,0.0,0.0,-1.61,0.5783449838523143,0.0,0.0,0.0,0.0,0.0,0.0,0.98,0.0,0.0,0.0
67,0.0,0.0,0.0,0.371935546875,0.0,0.0,0.0,0.0,0.0,0.0,0.601,0.0,0.0,0.0,0.0,0.0,-1.61,0.5814307676250595,0.0,0.0,0.0,0.0,0.0,0.0,0.936,0.0,0.0,0.0
68,0.0,0.0,0.0,0.377728515625,0.0,0.0,0.0,0.0,0.0,0.0,0.587,0.0,0.0,0.0,0.0,0.0,-1.61,0.5842847318956507,0.0,0.0,0.0,0.0,0.0,0.0,0.64,0.0,0.0,0.0
69,0.0,0.0,0.0,0.383666015625,0.0,0.0,0.0,0.0,0.0,0.0,0.588,0.0,0.0,0.0,0.0,0.0,-1.61,0.5868620071438697,0.0,0.0,0.0,0.0,0.0,0.0,0.912,0.0,0.0,0.0
70,0.0,0.0,0.0,0.3894677734375,0.0,0.0,0.0,0.0,0.0,0.0,0.587,0.0,0.0,0.0,0.0,0.0,-1.61,0.5892579742178033,0.0,0.0,0.0,0.0,0.0,0.0,0.728,0.0,0.0,0.0
71,0.0,0.0,0.0,0.395396484375,0.0,0.0,0.0,0.0,0.0,0.0,0.59,0.0,0.0,0.0,0.0,0.0,-1.61,0.5914073606781955,0.0,0.0,0.0,0.0,0.0,0.0,0.248,0.0,0.0,0.0
72,0.0,0.0,0.0,0.4016220703125,0.0,0.0,0.0,0.0,0.0,0.0,0.611,0.0,0.0,0.0,0.0,0.0,-1.61,0.5932996703343134,0.0,0.0,0.0,0.0,0.0,0.0,0.18,0.0,0.0,0.0
73,0.0,0.0,0.0,0.4077041015625,0.0,0.0,0.0,0.0,0.0,0.0,0.618,0.0,0.0,0.0,0.0,0.0,-1.61,0.5949841334430066,0.0,0.0,0.0,0.0,0.0,0.0,-0.296,0.0,0.0,0.0
74,0.0,0.0,0.0,0.413939453125,0.0,0.0,0.0,0.0,0.0,0.0,0.615,0.0,0.0,0.0,0.0,0.0,-1.61,0.596412127265012,0.0,0.0,0.0,0.0,0.0,0.0,-0.088,0.0,0.0,0.0
75,0.0,0.0,0.0,0.419876953125,0.0,0.0,0.0,0.0,0.0,0.0,0.618,0.0,0.0,0.0,0.0,0.0,-1.61,0.5976918750708543,0.0,0.0,0.0,0.0,0.0,0.0,0.112,0.0,0.0,0.0
76,0.0,0.0,0.0,0.4259580078125,0.0,0.0,0.0,0.0,0.0,0.0,0.607,0.0,0.0,0.0,0.0,0.0,-1.61,0.5985455696182208,0.0,0.0,0.0,0.0,0.0,0.0,0.388,0.0,0.0,0.0
77,0.0,0.0,0.0,0.432048828125,0.0,0.0,0.0,0.0,0.0,0.0,0.611,0.0,0.0,0.0,0.0,0.0,-1.61,0.5992656605483271,0.0,0.0,0.0,0.0,0.0,0.0,0.204,0.0,0.0,0.0
78,0.0,0.0,0.0,0.437986328125,0.0,0.0,0.0,0.0,0.0,0.0,0.608,0.0,0.0,0.0,0.0,0.0,-1.61,0.5997457206764037,0.0,0.0,0.0,0.0,0.0,0.0,0.044,0.0,0.0,0.0
79,0.0,0.0,0.0,0.443923828125,0.0,0.0,0.0,0.0,0.0,0.0,0.593,0.0,0.0,0.0,0.0,0.0,-1.61,0.5999728089845778,0.0,0.0,0.0,0.0,0.0,0.0,0.296,0.0,0.0,0.0
80,0.0,0.0,0.0,0.4497080078125,0.0,0.0,0.0,0.0,0.0,0.0,0.592,0.0,0.0,0.0,0.0,0.0,-1.61,0.5999657578955226,0.0,0.0,0.0,0.0,0.0,0.0,0.32,0.0,0.0,0.0
81,0.0,0.0,0.0,0.4555009765625,0.0,0.0,0.0,0.0,0.0,0.0,0.582,0.0,0.0,0.0,0.0,0.0,-1.61,0.5997201066303466,0.0,0.0,0.0,0.0,0.0,0.0,0.32,0.0,0.0,0.0
82,0.0,0.0,0.0,0.4614384765625,0.0,0.0,0.0,0.0,0.0,0.0,0.589,0.0,0.0,0.0,0.0,0.0,-1.61,0.5992367306960883,0.0,0.0,0.0,0.0,0.0,0.0,0.0,0.0,0.0,0.0
83,0.0,0.0,0.0,0.467529296875,0.0,0.0,0.0,0.0,0.0,0.0,0.604,0.0,0.0,0.0,0.0,0.0,-1.61,0.5985148758553315,0.0,0.0,0.0,0.0,0.0,0.0,-0.248,0.0,0.0,0.0
84,0.0,0.0,0.0,0.473466796875,0.0,0.0,0.0,0.0,0.0,0.0,0.6,0.0,0.0,0.0,0.0,0.0,-1.61,0.5975243116996254,0.0,0.0,0.0,0.0,0.0,0.0,-0.204,0.0,0.0,0.0
85,0.0,0.0,0.0,0.479548828125,0.0,0.0,0.0,0.0,0.0,0.0,0.604,0.0,0.0,0.0,0.0,0.0,-1.61,0.596339608073316,0.0,0.0,0.0,0.0,0.0,0.0,0.0,0.0,0.0,0.0
86,0.0,0.0,0.0,0.485341796875,0.0,0.0,0.0,0.0,0.0,0.0,0.599,0.0,0.0,0.0,0.0,0.0,-1.61,0.5948821125153985,0.0,0.0,0.0,0.0,0.0,0.0,0.408,0.0,0.0,0.0
87,0.0,0.0,0.0,0.491134765625,0.0,0.0,0.0,0.0,0.0,0.0,0.583,0.0,0.0,0.0,0.0,0.0,-1.61,0.5926880725840145,0.0,0.0,0.0,0.0,0.0,0.0,0.296,0.0,0.0,0.0
88,0.0,0.0,0.0,0.497072265625,0.0,0.0,0.0,0.0,0.0,0.0,0.592,0.0,0.0,0.0,0.0,0.0,-1.61,0.5913161444741472,0.0,0.0,0.0,0.0,0.0,0.0,0.388,0.0,0.0,0.0
89,0.0,0.0,0.0,0.502720703125,0.0,0.0,0.0,0.0,0.0,0.0,0.58,0.0,0.0,0.0,0.0,0.0,-1.61,0.5891440281518586,0.0,0.0,0.0,0.0,0.0,0.0,0.136,0.0,0.0,0.0
90,0.0,0.0,0.0,0.508513671875,0.0,0.0,0.0,0.0,0.0,0.0,0.575,0.0,0.0,0.0,0.0,0.0,-1.61,0.5867140675401507,0.0,0.0,0.0,0.0,0.0,0.0,0.616,0.0,0.0,0.0
91,0.0,0.0,0.0,0.514306640625,0.0,0.0,0.0,0.0,0.0,0.0,0.583,0.0,0.0,0.0,0.0,0.0,-1.61,0.584133605730377,0.0,0.0,0.0,0.0,0.0,0.0,0.408,0.0,0.0,0.0
92,0.0,0.0,0.0,0.520099609375,0.0,0.0,0.0,0.0,0.0,0.0,0.582,0.0,0.0,0.0,0.0,0.0,-1.61,0.5812877827973769,0.0,0.0,0.0,0.0,0.0,0.0,0.088,0.0,0.0,0.0
93,0.0,0.0,0.0,0.5259013671875,0.0,0.0,0.0,0.0,0.0,0.0,0.583,0.0,0.0,0.0,0.0,0.0,-1.61,0.5781407821452025,0.0,0.0,0.0,0.0,0.0,0.0,-0.044,0.0,0.0,0.0
94,0.0,0.0,0.0,0.531685546875,0.0,0.0,0.0,0.0,0.0,0.0,0.583,0.0,0.0,0.0,0.0,0.0,-1.61,0.5748701625608383,0.0,0.0,0.0,0.0,0.0,0.0,-0.068,0.0,0.0,0.0
95,0.0,0.0,0.0,0.537767578125,0.0,0.0,0.0,0.0,0.0,0.0,0.594,0.0,0.0,0.0,0.0,0.0,-1.61,0.5713063984984265,0.0,0.0,0.0,0.0,0.0,0.0,-0.02,0.0,0.0,0.0
96,0.0,0.0,0.0,0.5437138671875,0.0,0.0,0.0,0.0,0.0,0.0,0.603,0.0,0.0,0.0,0.0,0.0,-1.61,0.5674791188698595,0.0,0.0,0.0,0.0,0.0,0.0,0.228,0.0,0.0,0.0
97,0.0,0.0,0.0,0.5495068359375,0.0,0.0,0.0,0.0,0.0,0.0,0.592,0.0,0.0,0.0,0.0,0.0,-1.61,0.5635216147236245,0.0,0.0,0.0,0.0,0.0,0.0,0.524,0.0,0.0,0.0
98,0.0,0.0,0.0,0.555291015625,0.0,0.0,0.0,0.0,0.0,0.0,0.582,0.0,0.0,0.0,0.0,0.0,-1.61,0.5593083071668974,0.0,0.0,0.0,0.0,0.0,0.0,0.456,0.0,0.0,0.0
99,0.0,0.0,0.0,0.561083984375,0.0,0.0,0.0,0.0,0.0,0.0,0.582,0.0,0.0,0.0,0.0,0.0,-1.61,0.5548377912155694,0.0,0.0,0.0,0.0,0.0,0.0,0.456,0.0,0.0,0.0
100,0.0,0.0,0.0,0.566453125,0.0,0.0,0.0,0.0,0.0,0.0,0.569,0.0,0.0,0.0,0.0,0.0,-1.61,0.550091118879736,0.0,0.0,0.0,0.0,0.0,0.0,-0.8,0.0,0.0,0.0
101,0.0,0.0,0.0,0.5700712890625,0.0,0.0,0.0,0.0,0.0,0.0,0.474,0.0,0.0,0.0,0.0,0.0,-1.61,0.5452844756256756,0.0,0.0,0.0,0.0,0.0,0.0,-4.344,0.0,0.0,0.0
102,0.0,0.0,0.0,0.57137109375,0.0,0.0,0.0,0.0,0.0,0.0,0.267,0.0,0.0,0.0,0.0,0.0,-1.61,0.5400630171262212,0.0,0.0,0.0,0.0,0.0,0.0,-8.116,0.0,0.0,0.0
103,0.0,0.0,0.0,0.57108203125,0.0,0.0,0.0,0.0,0.0,0.0,0.065,0.0,0.0,0.0,0.0,0.0,-1.61,0.5348350849115091,0.0,0.0,0.0,0.0,0.0,0.0,-9.536,0.0,0.0,0.0
104,0.0,0.0,0.0,0.5693408203125,0.0,0.0,0.0,0.0,0.0,0.0,-0.081,0.0,0.0,0.0,0.0,0.0,-1.61,0.529272168988958,0.0,0.0,0.0,0.0,0.0,0.0,-8.984,0.0,0.0,0.0
105,0.0,0.0,0.0,0.5657216796875,0.0,0.0,0.0,0.0,0.0,0.0,-0.262,0.0,0.0,0.0,0.0,0.0,-1.61,0.5234979149095996,0.0,0.0,0.0,0.0,0.0,0.0,-6.972,0.0,0.0,0.0
106,0.0,0.0,0.0,0.561228515625,0.0,0.0,0.0,0.0,0.0,0.0,-0.4,0.0,0.0,0.0,0.0,0.0,-1.61,0.5175495684171351,0.0,0.0,0.0,0.0,0.0,0.0,-5.852,0.0,0.0,0.0
107,0.0,0.0,0.0,0.5558681640625,0.0,0.0,0.0,0.0,0.0,0.0,-0.491,0.0,0.0,0.0,0.0,0.0,-1.61,0.5113045305983395,0.0,0.0,0.0,0.0,0.0,0.0,-4.296,0.0,0.0,0.0
108,0.0,0.0,0.0,0.550662109375,0.0,0.0,0.0,0.0,0.0,0.0,-0.533,0.0,0.0,0.0,0.0,0.0,-1.61,0.5049599163310536,0.0,0.0,0.0,0.0,0.0,0.0,-3.132,0.0,0.0,0.0
109,0.0,0.0,0.0,0.544580078125,0.0,0.0,0.0,0.0,0.0,0.0,-0.556,0.0,0.0,0.0,0.0,0.0,-1.61,0.4983655619220583,0.0,0.0,0.0,0.0,0.0,0.0,-5.12,0.0,0.0,0.0
110,0.0,0.0,0.0,0.537333984375,0.0,0.0,0.0,0.0,0.0,0.0,-0.667,0.0,0.0,0.0,0.0,0.0,-1.61,0.4916108128463357,0.0,0.0,0.0,0.0,0.0,0.0,-7.156,0.0,0.0,0.0
111,0.0,0.0,0.0,0.5302421875,0.0,0.0,0.0,0.0,0.0,0.0,-0.719,0.0,0.0,0.0,0.0,0.0,-1.61,0.4846348084967578,0.0,0.0,0.0,0.0,0.0,0.0,-8.276,0.0,0.0,0.0
112,0.0,0.0,0.0,0.52299609375,0.0,0.0,0.0,0.0,0.0,0.0,-0.721,0.0,0.0,0.0,0.0,0.0,-1.61,0.477454288579919,0.0,0.0,0.0,0.0,0.0,0.0,-6.012,0.0,0.0,0.0
113,0.0,0.0,0.0,0.5156064453125,0.0,0.0,0.0,0.0,0.0,0.0,-0.73,0.0,0.0,0.0,0.0,0.0,-1.61,0.47011643577486084,0.0,0.0,0.0,0.0,0.0,0.0,-4.0,0.0,0.0,0.0
114,0.0,0.0,0.0,0.5072138671875,0.0,0.0,0.0,0.0,0.0,0.0,-0.782,0.0,0.0,0.0,0.0,0.0,-1.61,0.46258722316472806,0.0,0.0,0.0,0.0,0.0,0.0,-4.276,0.0,0.0,0.0
115,0.0,0.0,0.0,0.498515625,0.0,0.0,0.0,0.0,0.0,0.0,-0.874,0.0,0.0,0.0,0.0,0.0,-1.61,0.4546698077579311,0.0,0.0,0.0,0.0,0.0,0.0,-3.612,0.0,0.0,0.0
116,0.0,0.0,0.0,0.490845703125,0.0,0.0,0.0,0.0,0.0,0.0,-0.83,0.0,0.0,0.0,0.0,0.0,-1.61,0.4469583913491934,0.0,0.0,0.0,0.0,0.0,0.0,-1.052,0.0,0.0,0.0
117,0.0,0.0,0.0,0.4834560546875,0.0,0.0,0.0,0.0,0.0,0.0,-0.754,0.0,0.0,0.0,0.0,0.0,-1.61,0.43875086460985485,0.0,0.0,0.0,0.0,0.0,0.0,0.204,0.0,0.0,0.0
118,0.0,0.0,0.0,0.47534375,0.0,0.0,0.0,0.0,0.0,0.0,-0.772,0.0,0.0,0.0,0.0,0.0,-1.61,0.43054274297467127,0.0,0.0,0.0,0.0,0.0,0.0,-2.104,0.0,0.0,0.0
119,0.0,0.0,0.0,0.467673828125,0.0,0.0,0.0,0.0,0.0,0.0,-0.811,0.0,0.0,0.0,0.0,0.0,-1.61,0.42204549489807763,0.0,0.0,0.0,0.0,0.0,0.0,-2.764,0.0,0.0,0.0
120,0.0,0.0,0.0,0.4612939453125,0.0,0.0,0.0,0.0,0.0,0.0,-0.717,0.0,0.0,0.0,0.0,0.0,-1.61,0.41338268625020336,0.0,0.0,0.0,0.0,0.0,0.0,-0.844,0.0,0.0,0.0
121,0.0,0.0,0.0,0.454345703125,0.0,0.0,0.0,0.0,0.0,0.0,-0.648,0.0,0.0,0.0,0.0,0.0,-1.61,0.40238383045092263,0.0,0.0,0.0,0.0,0.0,0.0,-0.776,0.0,0.0,0.0
122,0.0,0.0,0.0,0.4465224609375,0.0,0.0,0.0,0.0,0.0,0.0,-0.75,0.0,0.0,0.0,0.0,0.0,-1.61,0.39576992322414056,0.0,0.0,0.0,0.0,0.0,0.0,-0.248,0.0,0.0,0.0
123,0.0,0.0,0.0,0.4392861328125,0.0,0.0,0.0,0.0,0.0,0.0,-0.768,0.0,0.0,0.0,0.0,0.0,-1.61,0.38667215426247764,0.0,0.0,0.0,0.0,0.0,0.0,0.548,0.0,0.0,0.0
124,0.0,0.0,0.0,0.432771484375,0.0,0.0,0.0,0.0,0.0,0.0,-0.698,0.0,0.0,0.0,0.0,0.0,-1.61,0.377328304201656,0.0,0.0,0.0,0.0,0.0,0.0,2.284,0.0,0.0,0.0
125,0.0,0.0,0.0,0.4263916015625,0.0,0.0,0.0,0.0,0.0,0.0,-0.644,0.0,0.0,0.0,0.0,0.0,-1.61,0.36801632694820613,0.0,0.0,0.0,0.0,0.0,0.0,2.584,0.0,0.0,0.0
126,0.0,0.0,0.0,0.419443359375,0.0,0.0,0.0,0.0,0.0,0.0,-0.66,0.0,0.0,0.0,0.0,0.0,-1.61,0.358485920074508,0.0,0.0,0.0,0.0,0.0,0.0,1.3,0.0,0.0,0.0
127,0.0,0.0,0.0,0.4126396484375,0.0,0.0,0.0,0.0,0.0,0.0,-0.701,0.0,0.0,0.0,0.0,0.0,-1.61,0.348662560660212,0.0,0.0,0.0,0.0,0.0,0.0,0.524,0.0,0.0,0.0
128,0.0,0.0,0.0,0.406404296875,0.0,0.0,0.0,0.0,0.0,0.0,-0.662,0.0,0.0,0.0,0.0,0.0,-1.61,0.338876888281874,0.0,0.0,0.0,0.0,0.0,0.0,1.552,0.0,0.0,0.0
129,0.0,0.0,0.0,0.400466796875,0.0,0.0,0.0,0.0,0.0,0.0,-0.619,0.0,0.0,0.0,0.0,0.0,-1.61,0.3287966901350788,0.0,0.0,0.0,0.0,0.0,0.0,2.536,0.0,0.0,0.0
130,0.0,0.0,0.0,0.3940966796875,0.0,0.0,0.0,0.0,0.0,0.0,-0.606,0.0,0.0,0.0,0.0,0.0,-1.61,0.31875782142272885,0.0,0.0,0.0,0.0,0.0,0.0,1.644,0.0,0.0,0.0
131,0.0,0.0,0.0,0.3872841796875,0.0,0.0,0.0,0.0,0.0,0.0,-0.664,0.0,0.0,0.0,0.0,0.0,-1.61,0.308556003745559,0.0,0.0,0.0,0.0,0.0,0.0,1.62,0.0,0.0,0.0
132,0.0,0.0,0.0,0.3810576171875,0.0,0.0,0.0,0.0,0.0,0.0,-0.668,0.0,0.0,0.0,0.0,0.0,-1.61,0.2981358482007397,0.0,0.0,0.0,0.0,0.0,0.0,2.604,0.0,0.0,0.0
133,0.0,0.0,0.0,0.3751201171875,0.0,0.0,0.0,0.0,0.0,0.0,-0.618,0.0,0.0,0.0,0.0,0.0,-1.61,0.287766372916537,0.0,0.0,0.0,0.0,0.0,0.0,3.384,0.0,0.0,0.0
134,0.0,0.0,0.0,0.369318359375,0.0,0.0,0.0,0.0,0.0,0.0,-0.582,0.0,0.0,0.0,0.0,0.0,-1.61,0.27719142870797536,0.0,0.0,0.0,0.0,0.0,0.0,3.04,0.0,0.0,0.0
135,0.0,0.0,0.0,0.3628037109375,0.0,0.0,0.0,0.0,0.0,0.0,-0.618,0.0,0.0,0.0,0.0,0.0,-1.61,0.2663766567207209,0.0,0.0,0.0,0.0,0.0,0.0,2.628,0.0,0.0,0.0
136,0.0,0.0,0.0,0.3564326171875,0.0,0.0,0.0,0.0,0.0,0.0,-0.658,0.0,0.0,0.0,0.0,0.0,-1.61,0.25563238567746027,0.0,0.0,0.0,0.0,0.0,0.0,2.4,0.0,0.0,0.0
137,0.0,0.0,0.0,0.350630859375,0.0,0.0,0.0,0.0,0.0,0.0,-0.611,0.0,0.0,0.0,0.0,0.0,-1.61,0.24479693371133762,0.0,0.0,0.0,0.0,0.0,0.0,2.104,0.0,0.0,0.0
138,0.0,0.0,0.0,0.3449912109375,0.0,0.0,0.0,0.0,0.0,0.0,-0.576,0.0,0.0,0.0,0.0,0.0,-1.61,0.23379185237638145,0.0,0.0,0.0,0.0,0.0,0.0,2.468,0.0,0.0,0.0
139,0.0,0.0,0.0,0.3390537109375,0.0,0.0,0.0,0.0,0.0,0.0,-0.583,0.0,0.0,0.0,0.0,0.0,-1.61,0.22259175156674696,0.0,0.0,0.0,0.0,0.0,0.0,2.444,0.0,0.0,0.0
140,0.0,0.0,0.0,0.3334052734375,0.0,0.0,0.0,0.0,0.0,0.0,-0.588,0.0,0.0,0.0,0.0,0.0,-1.61,0.2114985748199432,0.0,0.0,0.0,0.0,0.0,0.0,1.736,0.0,0.0,0.0
141,0.0,0.0,0.0,0.3277470703125,0.0,0.0,0.0,0.0,0.0,0.0,-0.566,0.0,0.0,0.0,0.0,0.0,-1.61,0.20028499851744197,0.0,0.0,0.0,0.0,0.0,0.0,0.776,0.0,0.0,0.0
142,0.0,0.0,0.0,0.3223876953125,0.0,0.0,0.0,0.0,0.0,0.0,-0.556,0.0,0.0,0.0,0.0,0.0,-1.61,0.18874039171461351,0.0,0.0,0.0,0.0,0.0,0.0,1.188,0.0,0.0,0.0
143,0.0,0.0,0.0,0.3171806640625,0.0,0.0,0.0,0.0,0.0,0.0,-0.534,0.0,0.0,0.0,0.0,0.0,-1.61,0.17746264194110226,0.0,0.0,0.0,0.0,0.0,0.0,1.736,0.0,0.0,0.0
144,0.0,0.0,0.0,0.3118125,0.0,0.0,0.0,0.0,0.0,0.0,-0.533,0.0,0.0,0.0,0.0,0.0,-1.61,0.165841367971753,0.0,0.0,0.0,0.0,0.0,0.0,1.14,0.0,0.0,0.0
145,0.0,0.0,0.0,0.3064521484375,0.0,0.0,0.0,0.0,0.0,0.0,-0.539,0.0,0.0,0.0,0.0,0.0,-1.61,0.15424523356236927,0.0,0.0,0.0,0.0,0.0,0.0,0.48,0.0,0.0,0.0
146,0.0,0.0,0.0,0.3009482421875,0.0,0.0,0.0,0.0,0.0,0.0,-0.54,0.0,0.0,0.0,0.0,0.0,-1.61,0.14277576109402562,0.0,0.0,0.0,0.0,0.0,0.0,-0.296,0.0,0.0,0.0
147,0.0,0.0,0.0,0.29530859375,0.0,0.0,0.0,0.0,0.0,0.0,-0.564,0.0,0.0,0.0,0.0,0.0,-1.61,0.13098380807927756,0.0,0.0,0.0,0.0,0.0,0.0,0.34,0.0,0.0,0.0
148,0.0,0.0,0.0,0.290083984375,0.0,0.0,0.0,0.0,0.0,0.0,-0.555,0.0,0.0,0.0,0.0,0.0,-1.61,0.11924447588441218,0.0,0.0,0.0,0.0,0.0,0.0,0.82,0.0,0.0,0.0
149,0.0,0.0,0.0,0.2848681640625,0.0,0.0,0.0,0.0,0.0,0.0,-0.532,0.0,0.0,0.0,0.0,0.0,-1.61,0.1076637359879579,0.0,0.0,0.0,0.0,0.0,0.0,0.408,0.0,0.0,0.0
150,0.0,0.0,0.0,0.279662109375,0.0,0.0,0.0,0.0,0.0,0.0,-0.52,0.0,0.0,0.0,0.0,0.0,-1.61,0.09568384723800019,0.0,0.0,0.0,0.0,0.0,0.0,-0.66,0.0,0.0,0.0
151,0.0,0.0,0.0,0.2744462890625,0.0,0.0,0.0,0.0,0.0,0.0,-0.523,0.0,0.0,0.0,0.0,0.0,-1.61,0.08379273816658644,0.0,0.0,0.0,0.0,0.0,0.0,-1.072,0.0,0.0,0.0
152,0.0,0.0,0.0,0.2692216796875,0.0,0.0,0.0,0.0,0.0,0.0,-0.527,0.0,0.0,0.0,0.0,0.0,-1.61,0.07199578185773943,0.0,0.0,0.0,0.0,0.0,0.0,-1.324,0.0,0.0,0.0
153,0.0,0.0,0.0,0.263861328125,0.0,0.0,0.0,0.0,0.0,0.0,-0.528,0.0,0.0,0.0,0.0,0.0,-1.61,0.06005693593751722,0.0,0.0,0.0,0.0,0.0,0.0,-0.868,0.0,0.0,0.0
154,0.0,0.0,0.0,0.2586552734375,0.0,0.0,0.0,0.0,0.0,0.0,-0.534,0.0,0.0,0.0,0.0,0.0,-1.61,0.04798165752137215,0.0,0.0,0.0,0.0,0.0,0.0,-0.112,0.0,0.0,0.0
155,0.0,0.0,0.0,0.2532861328125,0.0,0.0,0.0,0.0,0.0,0.0,-0.529,0.0,0.0,0.0,0.0,0.0,-1.61,0.03611525550704957,0.0,0.0,0.0,0.0,0.0,0.0,-0.592,0.0,0.0,0.0
156,0.0,0.0,0.0,0.2476376953125,0.0,0.0,0.0,0.0,0.0,0.0,-0.55,0.0,0.0,0.0,0.0,0.0,-1.61,0.024248093362473373,0.0,0.0,0.0,0.0,0.0,0.0,-1.12,0.0,0.0,0.0
157,0.0,0.0,0.0,0.2419892578125,0.0,0.0,0.0,0.0,0.0,0.0,-0.571,0.0,0.0,0.0,0.0,0.0,-1.61,0.01201644185318086,0.0,0.0,0.0,0.0,0.0,0.0,-0.96,0.0,0.0,0.0
158,0.0,0.0,0.0,0.2361962890625,0.0,0.0,0.0,0.0,0.0,0.0,-0.577,0.0,0.0,0.0,0.0,0.0,-1.61,0.0002272558142137821,0.0,0.0,0.0,0.0,0.0,0.0,-0.708,0.0,0.0,0.0
159,0.0,0.0,0.0,0.230546875,0.0,0.0,0.0,0.0,0.0,0.0,-0.582,0.0,0.0,0.0,0.0,0.0,-1.61,-0.011757674984349695,0.0,0.0,0.0,0.0,0.0,0.0,-0.548,0.0,0.0,0.0
160,0.0,0.0,0.0,0.2248984375,0.0,0.0,0.0,0.0,0.0,0.0,-0.568,0.0,0.0,0.0,0.0,0.0,-1.61,-0.023876850297885614,0.0,0.0,0.0,0.0,0.0,0.0,-0.96,0.0,0.0,0.0
161,0.0,0.0,0.0,0.21925,0.0,0.0,0.0,0.0,0.0,0.0,-0.565,0.0,0.0,0.0,0.0,0.0,-1.61,-0.03575751763025583,0.0,0.0,0.0,0.0,0.0,0.0,-1.62,0.0,0.0,0.0
162,0.0,0.0,0.0,0.2134482421875,0.0,0.0,0.0,0.0,0.0,0.0,-0.576,0.0,0.0,0.0,0.0,0.0,-1.61,-0.04783717139205838,0.0,0.0,0.0,0.0,0.0,0.0,-1.692,0.0,0.0,0.0
163,0.0,0.0,0.0,0.2076552734375,0.0,0.0,0.0,0.0,0.0,0.0,-0.584,0.0,0.0,0.0,0.0,0.0,-1.61,-0.059741907307767114,0.0,0.0,0.0,0.0,0.0,0.0,-1.3,0.0,0.0,0.0
164,0.0,0.0,0.0,0.201861328125,0.0,0.0,0.0,0.0,0.0,0.0,-0.583,0.0,0.0,0.0,0.0,0.0,-1.61,-0.07174479256706266,0.0,0.0,0.0,0.0,0.0,0.0,-1.004,0.0,0.0,0.0
165,0.0,0.0,0.0,0.196068359375,0.0,0.0,0.0,0.0,0.0,0.0,-0.583,0.0,0.0,0.0,0.0,0.0,-1.61,-0.08356874692453797,0.0,0.0,0.0,0.0,0.0,0.0,-0.204,0.0,0.0,0.0
166,0.0,0.0,0.0,0.1901220703125,0.0,0.0,0.0,0.0,0.0,0.0,-0.587,0.0,0.0,0.0,0.0,0.0,-1.61,-0.09539754462835388,0.0,0.0,0.0,0.0,0.0,0.0,-0.32,0.0,0.0,0.0
167,0.0,0.0,0.0,0.1840400390625,0.0,0.0,0.0,0.0,0.0,0.0,-0.602,0.0,0.0,0.0,0.0,0.0,-1.61,-0.10719292481375427,0.0,0.0,0.0,0.0,0.0,0.0,-0.5,0.0,0.0,0.0
168,0.0,0.0,0.0,0.1779677734375,0.0,0.0,0.0,0.0,0.0,0.0,-0.614,0.0,0.0,0.0,0.0,0.0,-1.61,-0.11899305335676934,0.0,0.0,0.0,0.0,0.0,0.0,-0.228,0.0,0.0,0.0
169,0.0,0.0,0.0,0.1717236328125,0.0,0.0,0.0,0.0,0.0,0.0,-0.626,0.0,0.0,0.0,0.0,0.0,-1.61,-0.13070664861488968,0.0,0.0,0.0,0.0,0.0,0.0,0.02,0.0,0.0,0.0
170,0.0,0.0,0.0,0.1654970703125,0.0,0.0,0.0,0.0,0.0,0.0,-0.625,0.0,0.0,0.0,0.0,0.0,-1.61,-0.1424812877122258,0.0,0.0,0.0,0.0,0.0,0.0,0.34,0.0,0.0,0.0
171,0.0,0.0,0.0,0.159416015625,0.0,0.0,0.0,0.0,0.0,0.0,-0.62,0.0,0.0,0.0,0.0,0.0,-1.61,-0.15402053961451653,0.0,0.0,0.0,0.0,0.0,0.0,-0.02,0.0,0.0,0.0
172,0.0,0.0,0.0,0.1533251953125,0.0,0.0,0.0,0.0,0.0,0.0,-0.617,0.0,0.0,0.0,0.0,0.0,-1.61,-0.1655557688382872,0.0,0.0,0.0,0.0,0.0,0.0,-0.32,0.0,0.0,0.0
173,0.0,0.0,0.0,0.1472431640625,0.0,0.0,0.0,0.0,0.0,0.0,-0.608,0.0,0.0,0.0,0.0,0.0,-1.61,-0.17722577439181622,0.0,0.0,0.0,0.0,0.0,0.0,-0.296,0.0,0.0,0.0
174,0.0,0.0,0.0,0.1411611328125,0.0,0.0,0.0,0.0,0.0,0.0,-0.611,0.0,0.0,0.0,0.0,0.0,-1.61,-0.18856857360959145,0.0,0.0,0.0,0.0,0.0,0.0,0.0,0.0,0.0,0.0
175,0.0,0.0,0.0,0.1352236328125,0.0,0.0,0.0,0.0,0.0,0.0,-0.606,0.0,0.0,0.0,0.0,0.0,-1.61,-0.19996628998945729,0.0,0.0,0.0,0.0,0.0,0.0,0.524,0.0,0.0,0.0
176,0.0,0.0,0.0,0.1292861328125,0.0,0.0,0.0,0.0,0.0,0.0,-0.6,0.0,0.0,0.0,0.0,0.0,-1.61,-0.21122368056829838,0.0,0.0,0.0,0.0,0.0,0.0,0.568,0.0,0.0,0.0
177,0.0,0.0,0.0,0.123060546875,0.0,0.0,0.0,0.0,0.0,0.0,-0.611,0.0,0.0,0.0,0.0,0.0,-1.61,-0.22235802611654068,0.0,0.0,0.0,0.0,0.0,0.0,0.32,0.0,0.0,0.0
178,0.0,0.0,0.0,0.116978515625,0.0,0.0,0.0,0.0,0.0,0.0,-0.615,0.0,0.0,0.0,0.0,0.0,-1.61,-0.23355004347923136,0.0,0.0,0.0,0.0,0.0,0.0,0.408,0.0,0.0,0.0
179,0.0,0.0,0.0,0.1108876953125,0.0,0.0,0.0,0.0,0.0,0.0,-0.619,0.0,0.0,0.0,0.0,0.0,-1.61,-0.24441586947385008,0.0,0.0,0.0,0.0,0.0,0.0,0.708,0.0,0.0,0.0
180,0.0,0.0,0.0,0.10465234375,0.0,0.0,0.0,0.0,0.0,0.0,-0.624,0.0,0.0,0.0,0.0,0.0,-1.61,-0.255416849972346,0.0,0.0,0.0,0.0,0.0,0.0,0.82,0.0,0.0,0.0
181,0.0,0.0,0.0,0.0987333984375,0.0,0.0,0.0,0.0,0.0,0.0,-0.613,0.0,0.0,0.0,0.0,0.0,-1.61,-0.2661770272767376,0.0,0.0,0.0,0.0,0.0,0.0,0.272,0.0,0.0,0.0
182,0.0,0.0,0.0,0.092787109375,0.0,0.0,0.0,0.0,0.0,0.0,-0.598,0.0,0.0,0.0,0.0,0.0,-1.61,-0.2769895243585418,0.0,0.0,0.0,0.0,0.0,0.0,0.296,0.0,0.0,0.0
183,0.0,0.0,0.0,0.086849609375,0.0,0.0,0.0,0.0,0.0,0.0,-0.595,0.0,0.0,0.0,0.0,0.0,-1.61,-0.2875485294271691,0.0,0.0,0.0,0.0,0.0,0.0,-0.044,0.0,0.0,0.0
184,0.0,0.0,0.0,0.0812001953125,0.0,0.0,0.0,0.0,0.0,0.0,-0.587,0.0,0.0,0.0,0.0,0.0,-1.61,-0.2980934818712339,0.0,0.0,0.0,0.0,0.0,0.0,-0.088,0.0,0.0,0.0
185,0.0,0.0,0.0,0.075263671875,0.0,0.0,0.0,0.0,0.0,0.0,-0.584,0.0,0.0,0.0,0.0,0.0,-1.61,-0.3083803900125306,0.0,0.0,0.0,0.0,0.0,0.0,0.364,0.0,0.0,0.0
186,0.0,0.0,0.0,0.0694609375,0.0,0.0,0.0,0.0,0.0,0.0,-0.589,0.0,0.0,0.0,0.0,0.0,-1.61,-0.3185028782184043,0.0,0.0,0.0,0.0,0.0,0.0,0.82,0.0,0.0,0.0
187,0.0,0.0,0.0,0.0635234375,0.0,0.0,0.0,0.0,0.0,0.0,-0.585,0.0,0.0,0.0,0.0,0.0,-1.61,-0.3286553270821549,0.0,0.0,0.0,0.0,0.0,0.0,0.204,0.0,0.0,0.0
188,0.0,0.0,0.0,0.0575859375,0.0,0.0,0.0,0.0,0.0,0.0,-0.596,0.0,0.0,0.0,0.0,0.0,-1.61,-0.33878111167696334,0.0,0.0,0.0,0.0,0.0,0.0,0.616,0.0,0.0,0.0
189,0.0,0.0,0.0,0.0517841796875,0.0,0.0,0.0,0.0,0.0,0.0,-0.594,0.0,0.0,0.0,0.0,0.0,-1.61,-0.3484430442330782,0.0,0.0,0.0,0.0,0.0,0.0,0.592,0.0,0.0,0.0
190,0.0,0.0,0.0,0.0459912109375,0.0,0.0,0.0,0.0,0.0,0.0,-0.586,0.0,0.0,0.0,0.0,0.0,-1.61,-0.358137878011249,0.0,0.0,0.0,0.0,0.0,0.0,0.32,0.0,0.0,0.0
191,0.0,0.0,0.0,0.0400537109375,0.0,0.0,0.0,0.0,0.0,0.0,-0.594,0.0,0.0,0.0,0.0,0.0,-1.61,-0.3677379581369662,0.0,0.0,0.0,0.0,0.0,0.0,0.408,0.0,0.0,0.0
192,0.0,0.0,0.0,0.0342607421875,0.0,0.0,0.0,0.0,0.0,0.0,-0.587,0.0,0.0,0.0,0.0,0.0,-1.61,-0.37711212864276683,0.0,0.0,0.0,0.0,0.0,0.0,-0.16,0.0,0.0,0.0
193,0.0,0.0,0.0,0.0286123046875,0.0,0.0,0.0,0.0,0.0,0.0,-0.584,0.0,0.0,0.0,0.0,0.0,-1.61,-0.38642847438253897,0.0,0.0,0.0,0.0,0.0,0.0,-0.228,0.0,0.0,0.0
194,0.0,0.0,0.0,0.0229638671875,0.0,0.0,0.0,0.0,0.0,0.0,-0.573,0.0,0.0,0.0,0.0,0.0,-1.61,-0.39568096982568995,0.0,0.0,0.0,0.0,0.0,0.0,-0.204,0.0,0.0,0.0
195,0.0,0.0,0.0,0.017314453125,0.0,0.0,0.0,0.0,0.0,0.0,-0.568,0.0,0.0,0.0,0.0,0.0,-1.61,-0.40450771209537484,0.0,0.0,0.0,0.0,0.0,0.0,-0.66,0.0,0.0,0.0
196,0.0,0.0,0.0,0.0115126953125,0.0,0.0,0.0,0.0,0.0,0.0,-0.571,0.0,0.0,0.0,0.0,0.0,-1.61,-0.41319588944964547,0.0,0.0,0.0,0.0,0.0,0.0,-0.088,0.0,0.0,0.0
197,0.0,0.0,0.0,0.0058642578125,0.0,0.0,0.0,0.0,0.0,0.0,-0.576,0.0,0.0,0.0,0.0,0.0,-1.61,-0.4218734949095725,0.0,0.0,0.0,0.0,0.0,0.0,0.296,0.0,0.0,0.0
198,0.0,0.0,0.0,7.12890625e-05,0.0,0.0,0.0,0.0,0.0,0.0,-0.576,0.0,0.0,0.0,0.0,0.0,-1.61,-0.4303624402690602,0.0,0.0,0.0,0.0,0.0,0.0,-0.204,0.0,0.0,0.0
199,0.0,0.0,0.0,-0.005720703125,0.0,0.0,0.0,0.0,0.0,0.0,-0.583,0.0,0.0,0.0,0.0,0.0,-1.61,-0.43857506316191897,0.0,0.0,0.0,0.0,0.0,0.0,0.16,0.0,0.0,0.0
200,0.0,0.0,0.0,-0.0115234375,0.0,0.0,0.0,0.0,0.0,0.0,-0.584,0.0,0.0,0.0,0.0,0.0,-1.61,-0.4466189324723524,0.0,0.0,0.0,0.0,0.0,0.0,-0.136,0.0,0.0,0.0
201,0.0,0.0,0.0,-0.017451171875,0.0,0.0,0.0,0.0,0.0,0.0,-0.593,0.0,0.0,0.0,0.0,0.0,-1.61,-0.4546316038989965,0.0,0.0,0.0,0.0,0.0,0.0,-0.112,0.0,0.0,0.0
202,0.0,0.0,0.0,-0.023388671875,0.0,0.0,0.0,0.0,0.0,0.0,-0.6,0.0,0.0,0.0,0.0,0.0,-1.61,-0.4623672891212345,0.0,0.0,0.0,0.0,0.0,0.0,0.02,0.0,0.0,0.0
203,0.0,0.0,0.0,-0.029037109375,0.0,0.0,0.0,0.0,0.0,0.0,-0.581,0.0,0.0,0.0,0.0,0.0,-1.61,-0.4699660678583431,0.0,0.0,0.0,0.0,0.0,0.0,-0.48,0.0,0.0,0.0
204,0.0,0.0,0.0,-0.03483984375,0.0,0.0,0.0,0.0,0.0,0.0,-0.575,0.0,0.0,0.0,0.0,0.0,-1.61,-0.4772166996122741,0.0,0.0,0.0,0.0,0.0,0.0,-0.616,0.0,0.0,0.0
205,0.0,0.0,0.0,-0.0406328125,0.0,0.0,0.0,0.0,0.0,0.0,-0.584,0.0,0.0,0.0,0.0,0.0,-1.61,-0.4844320441348519,0.0,0.0,0.0,0.0,0.0,0.0,-0.524,0.0,0.0,0.0
206,0.0,0.0,0.0,-0.04642578125,0.0,0.0,0.0,0.0,0.0,0.0,-0.583,0.0,0.0,0.0,0.0,0.0,-1.61,-0.4913824488338409,0.0,0.0,0.0,0.0,0.0,0.0,-0.592,0.0,0.0,0.0
207,0.0,0.0,0.0,-0.0522275390625,0.0,0.0,0.0,0.0,0.0,0.0,-0.583,0.0,0.0,0.0,0.0,0.0,-1.61,-0.49820528945653375,0.0,0.0,0.0,0.0,0.0,0.0,0.18,0.0,0.0,0.0
208,0.0,0.0,0.0,-0.0580205078125,0.0,0.0,0.0,0.0,0.0,0.0,-0.584,0.0,0.0,0.0,0.0,0.0,-1.61,-0.5047597678293436,0.0,0.0,0.0,0.0,0.0,0.0,0.34,0.0,0.0,0.0
209,0.0,0.0,0.0,-0.0641025390625,0.0,0.0,0.0,0.0,0.0,0.0,-0.593,0.0,0.0,0.0,0.0,0.0,-1.61,-0.5111446339163761,0.0,0.0,0.0,0.0,0.0,0.0,0.0,0.0,0.0,0.0
210,0.0,0.0,0.0,-0.0700400390625,0.0,0.0,0.0,0.0,0.0,0.0,-0.611,0.0,0.0,0.0,0.0,0.0,-1.61,-0.5173797561216037,0.0,0.0,0.0,0.0,0.0,0.0,0.456,0.0,0.0,0.0
211,0.0,0.0,0.0,-0.0759775390625,0.0,0.0,0.0,0.0,0.0,0.0,-0.599,0.0,0.0,0.0,0.0,0.0,-1.61,-0.523288699147889,0.0,0.0,0.0,0.0,0.0,0.0,0.136,0.0,0.0,0.0
212,0.0,0.0,0.0,-0.0820595703125,0.0,0.0,0.0,0.0,0.0,0.0,-0.607,0.0,0.0,0.0,0.0,0.0,-1.61,-0.5290896416218691,0.0,0.0,0.0,0.0,0.0,0.0,0.136,0.0,0.0,0.0
213,0.0,0.0,0.0,-0.08799609375,0.0,0.0,0.0,0.0,0.0,0.0,-0.607,0.0,0.0,0.0,0.0,0.0,-1.61,-0.5346371127672251,0.0,0.0,0.0,0.0,0.0,0.0,0.02,0.0,0.0,0.0
214,0.0,0.0,0.0,-0.09393359375,0.0,0.0,0.0,0.0,0.0,0.0,-0.593,0.0,0.0,0.0,0.0,0.0,-1.61,-0.5399701667471151,0.0,0.0,0.0,0.0,0.0,0.0,-0.432,0.0,0.0,0.0
215,0.0,0.0,0.0,-0.099736328125,0.0,0.0,0.0,0.0,0.0,0.0,-0.595,0.0,0.0,0.0,0.0,0.0,-1.61,-0.545091700645031,0.0,0.0,0.0,0.0,0.0,0.0,-0.34,0.0,0.0,0.0
216,0.0,0.0,0.0,-0.105529296875,0.0,0.0,0.0,0.0,0.0,0.0,-0.584,0.0,0.0,0.0,0.0,0.0,-1.61,-0.5500237363512515,0.0,0.0,0.0,0.0,0.0,0.0,-0.524,0.0,0.0,0.0
217,0.0,0.0,0.0,-0.111322265625,0.0,0.0,0.0,0.0,0.0,0.0,-0.583,0.0,0.0,0.0,0.0,0.0,-1.61,-0.5547008473061171,0.0,0.0,0.0,0.0,0.0,0.0,-0.228,0.0,0.0,0.0
218,0.0,0.0,0.0,-0.117115234375,0.0,0.0,0.0,0.0,0.0,0.0,-0.583,0.0,0.0,0.0,0.0,0.0,-1.61,-0.5591515024188344,0.0,0.0,0.0,0.0,0.0,0.0,0.48,0.0,0.0,0.0
219,0.0,0.0,0.0,-0.1230615234375,0.0,0.0,0.0,0.0,0.0,0.0,-0.593,0.0,0.0,0.0,0.0,0.0,-1.61,-0.5634182345664613,0.0,0.0,0.0,0.0,0.0,0.0,0.02,0.0,0.0,0.0
220,0.0,0.0,0.0,-0.129134765625,0.0,0.0,0.0,0.0,0.0,0.0,-0.603,0.0,0.0,0.0,0.0,0.0,-1.61,-0.5674749717319482,0.0,0.0,0.0,0.0,0.0,0.0,0.248,0.0,0.0,0.0
221,0.0,0.0,0.0,-0.1350712890625,0.0,0.0,0.0,0.0,0.0,0.0,-0.604,0.0,0.0,0.0,0.0,0.0,-1.61,-0.5712276147948269,0.0,0.0,0.0,0.0,0.0,0.0,0.32,0.0,0.0,0.0
222,0.0,0.0,0.0,-0.1410087890625,0.0,0.0,0.0,0.0,0.0,0.0,-0.595,0.0,0.0,0.0,0.0,0.0,-1.61,-0.5747632406616113,0.0,0.0,0.0,0.0,0.0,0.0,0.112,0.0,0.0,0.0
223,0.0,0.0,0.0,-0.147099609375,0.0,0.0,0.0,0.0,0.0,0.0,-0.605,0.0,0.0,0.0,0.0,0.0,-1.61,-0.5780817727528544,0.0,0.0,0.0,0.0,0.0,0.0,0.272,0.0,0.0,0.0
224,0.0,0.0,0.0,-0.152892578125,0.0,0.0,0.0,0.0,0.0,0.0,-0.593,0.0,0.0,0.0,0.0,0.0,-1.61,-0.5812042038075346,0.0,0.0,0.0,0.0,0.0,0.0,-0.272,0.0,0.0,0.0
225,0.0,0.0,0.0,-0.158685546875,0.0,0.0,0.0,0.0,0.0,0.0,-0.591,0.0,0.0,0.0,0.0,0.0,-1.61,-0.5840925576913281,0.0,0.0,0.0,0.0,0.0,0.0,-0.34,0.0,0.0,0.0
226,0.0,0.0,0.0,-0.1643349609375,0.0,0.0,0.0,0.0,0.0,0.0,-0.577,0.0,0.0,0.0,0.0,0.0,-1.61,-0.5866794599969949,0.0,0.0,0.0,0.0,0.0,0.0,-0.432,0.0,0.0,0.0
227,0.0,0.0,0.0,-0.17028125,0.0,0.0,0.0,0.0,0.0,0.0,-0.581,0.0,0.0,0.0,0.0,0.0,-1.61,-0.5890756233262666,0.0,0.0,0.0,0.0,0.0,0.0,-0.524,0.0,0.0,0.0
228,0.0,0.0,0.0,-0.1759208984375,0.0,0.0,0.0,0.0,0.0,0.0,-0.586,0.0,0.0,0.0,0.0,0.0,-1.61,-0.591246718851323,0.0,0.0,0.0,0.0,0.0,0.0,0.18,0.0,0.0,0.0
229,0.0,0.0,0.0,-0.1817138671875,0.0,0.0,0.0,0.0,0.0,0.0,-0.576,0.0,0.0,0.0,0.0,0.0,-1.61,-0.5931722558948977,0.0,0.0,0.0,0.0,0.0,0.0,0.388,0.0,0.0,0.0
230,0.0,0.0,0.0,-0.1876513671875,0.0,0.0,0.0,0.0,0.0,0.0,-0.591,0.0,0.0,0.0,0.0,0.0,-1.61,-0.5948509803607415,0.0,0.0,0.0,0.0,0.0,0.0,-0.044,0.0,0.0,0.0
231,0.0,0.0,0.0,-0.19359765625,0.0,0.0,0.0,0.0,0.0,0.0,-0.603,0.0,0.0,0.0,0.0,0.0,-1.61,-0.5963160739597789,0.0,0.0,0.0,0.0,0.0,0.0,0.228,0.0,0.0,0.0
232,0.0,0.0,0.0,-0.19953515625,0.0,0.0,0.0,0.0,0.0,0.0,-0.593,0.0,0.0,0.0,0.0,0.0,-1.61,-0.5975121295036131,0.0,0.0,0.0,0.0,0.0,0.0,-0.088,0.0,0.0,0.0
233,0.0,0.0,0.0,-0.20547265625,0.0,0.0,0.0,0.0,0.0,0.0,-0.601,0.0,0.0,0.0,0.0,0.0,-1.61,-0.5984899141628863,0.0,0.0,0.0,0.0,0.0,0.0,0.02,0.0,0.0,0.0
234,0.0,0.0,0.0,-0.2112568359375,0.0,0.0,0.0,0.0,0.0,0.0,-0.598,0.0,0.0,0.0,0.0,0.0,-1.61,-0.5992340214025983,0.0,0.0,0.0,0.0,0.0,0.0,0.088,0.0,0.0,0.0
235,0.0,0.0,0.0,-0.217203125,0.0,0.0,0.0,0.0,0.0,0.0,-0.583,0.0,0.0,0.0,0.0,0.0,-1.61,-0.599709241335555,0.0,0.0,0.0,0.0,0.0,0.0,-0.728,0.0,0.0,0.0
236,0.0,0.0,0.0,-0.22299609375,0.0,0.0,0.0,0.0,0.0,0.0,-0.594,0.0,0.0,0.0,0.0,0.0,-1.61,-0.5999630450394973,0.0,0.0,0.0,0.0,0.0,0.0,-0.5,0.0,0.0,0.0
237,0.0,0.0,0.0,-0.22864453125,0.0,0.0,0.0,0.0,0.0,0.0,-0.583,0.0,0.0,0.0,0.0,0.0,-1.61,-0.5999726224514886,0.0,0.0,0.0,0.0,0.0,0.0,-0.548,0.0,0.0,0.0
238,0.0,0.0,0.0,-0.2344375,0.0,0.0,0.0,0.0,0.0,0.0,-0.573,0.0,0.0,0.0,0.0,0.0,-1.61,-0.599749369013141,0.0,0.0,0.0,0.0,0.0,0.0,-0.548,0.0,0.0,0.0
239,0.0,0.0,0.0,-0.24023046875,0.0,0.0,0.0,0.0,0.0,0.0,-0.582,0.0,0.0,0.0,0.0,0.0,-1.61,-0.5992865607446305,0.0,0.0,0.0,0.0,0.0,0.0,0.388,0.0,0.0,0.0
240,0.0,0.0,0.0,-0.24616796875,0.0,0.0,0.0,0.0,0.0,0.0,-0.587,0.0,0.0,0.0,0.0,0.0,-1.61,-0.598561782380869,0.0,0.0,0.0,0.0,0.0,0.0,0.204,0.0,0.0,0.0
241,0.0,0.0,0.0,-0.25210546875,0.0,0.0,0.0,0.0,0.0,0.0,-0.601,0.0,0.0,0.0,0.0,0.0,-1.61,-0.5976316086492328,0.0,0.0,0.0,0.0,0.0,0.0,0.18,0.0,0.0,0.0
242,0.0,0.0,0.0,-0.25804296875,0.0,0.0,0.0,0.0,0.0,0.0,-0.601,0.0,0.0,0.0,0.0,0.0,-1.61,-0.5964375947278613,0.0,0.0,0.0,0.0,0.0,0.0,0.32,0.0,0.0,0.0
243,0.0,0.0,0.0,-0.2639892578125,0.0,0.0,0.0,0.0,0.0,0.0,-0.593,0.0,0.0,0.0,0.0,0.0,-1.61,-0.5950129843350871,0.0,0.0,0.0,0.0,0.0,0.0,-0.02,0.0,0.0,0.0
244,0.0,0.0,0.0,-0.2699267578125,0.0,0.0,0.0,0.0,0.0,0.0,-0.602,0.0,0.0,0.0,0.0,0.0,-1.61,-0.5933643929769388,0.0,0.0,0.0,0.0,0.0,0.0,-0.068,0.0,0.0,0.0
245,0.0,0.0,0.0,-0.27585546875,0.0,0.0,0.0,0.0,0.0,0.0,-0.602,0.0,0.0,0.0,0.0,0.0,-1.61,-0.5914453193174103,0.0,0.0,0.0,0.0,0.0,0.0,-0.16,0.0,0.0,0.0
246,0.0,0.0,0.0,-0.2816484375,0.0,0.0,0.0,0.0,0.0,0.0,-0.586,0.0,0.0,0.0,0.0,0.0,-1.61,-0.5893260249192082,0.0,0.0,0.0,0.0,0.0,0.0,-0.616,0.0,0.0,0.0
247,0.0,0.0,0.0,-0.2874501953125,0.0,0.0,0.0,0.0,0.0,0.0,-0.585,0.0,0.0,0.0,0.0,0.0,-1.61,-0.5869327477081144,0.0,0.0,0.0,0.0,0.0,0.0,-0.432,0.0,0.0,0.0
248,0.0,0.0,0.0,-0.2932431640625,0.0,0.0,0.0,0.0,0.0,0.0,-0.584,0.0,0.0,0.0,0.0,0.0,-1.61,-0.5843372914806316,0.0,0.0,0.0,0.0,0.0,0.0,-0.64,0.0,0.0,0.0
249,0.0,0.0,0.0,-0.29902734375,0.0,0.0,0.0,0.0,0.0,0.0,-0.583,0.0,0.0,0.0,0.0,0.0,-1.61,-0.581507858199876,0.0,0.0,0.0,0.0,0.0,0.0,-0.296,0.0,0.0,0.0
250,0.0,0.0,0.0,-0.3048203125,0.0,0.0,0.0,0.0,0.0,0.0,-0.58,0.0,0.0,0.0,0.0,0.0,-1.61,-0.5784352014477524,0.0,0.0,0.0,0.0,0.0,0.0,0.408,0.0,0.0,0.0
251,0.0,0.0,0.0,-0.31061328125,0.0,0.0,0.0,0.0,0.0,0.0,-0.584,0.0,0.0,0.0,0.0,0.0,-1.61,-0.5751188242774912,0.0,0.0,0.0,0.0,0.0,0.0,0.0,0.0,0.0,0.0
252,0.0,0.0,0.0,-0.3167041015625,0.0,0.0,0.0,0.0,0.0,0.0,-0.601,0.0,0.0,0.0,0.0,0.0,-1.61,-0.5715720967446637,0.0,0.0,0.0,0.0,0.0,0.0,0.112,0.0,0.0,0.0
253,0.0,0.0,0.0,-0.3226416015625,0.0,0.0,0.0,0.0,0.0,0.0,-0.603,0.0,0.0,0.0,0.0,0.0,-1.61,-0.5678225044905002,0.0,0.0,0.0,0.0,0.0,0.0,-0.088,0.0,0.0,0.0
254,0.0,0.0,0.0,-0.3285703125,0.0,0.0,0.0,0.0,0.0,0.0,-0.597,0.0,0.0,0.0,0.0,0.0,-1.61,-0.563863712367814,0.0,0.0,0.0,0.0,0.0,0.0,-0.16,0.0,0.0,0.0
255,0.0,0.0,0.0,-0.3345078125,0.0,0.0,0.0,0.0,0.0,0.0,-0.602,0.0,0.0,0.0,0.0,0.0,-1.61,-0.5596302315414723,0.0,0.0,0.0,0.0,0.0,0.0,0.0,0.0,0.0,0.0
256,0.0,0.0,0.0,-0.3403095703125,0.0,0.0,0.0,0.0,0.0,0.0,-0.591,0.0,0.0,0.0,0.0,0.0,-1.61,-0.5551598266542978,0.0,0.0,0.0,0.0,0.0,0.0,-0.408,0.0,0.0,0.0
257,0.0,0.0,0.0,-0.3462470703125,0.0,0.0,0.0,0.0,0.0,0.0,-0.594,0.0,0.0,0.0,0.0,0.0,-1.61,-0.5505340402369265,0.0,0.0,0.0,0.0,0.0,0.0,-0.568,0.0,0.0,0.0
258,0.0,0.0,0.0,-0.35203125,0.0,0.0,0.0,0.0,0.0,0.0,-0.587,0.0,0.0,0.0,0.0,0.0,-1.61,-0.5456011130579994,0.0,0.0,0.0,0.0,0.0,0.0,-0.64,0.0,0.0,0.0
259,0.0,0.0,0.0,-0.3576796875,0.0,0.0,0.0,0.0,0.0,0.0,-0.58,0.0,0.0,0.0,0.0,0.0,-1.61,-0.5405786631858419,0.0,0.0,0.0,0.0,0.0,0.0,-0.728,0.0,0.0,0.0
260,0.0,0.0,0.0,-0.36347265625,0.0,0.0,0.0,0.0,0.0,0.0,-0.576,0.0,0.0,0.0,0.0,0.0,-1.61,-0.5352544926592453,0.0,0.0,0.0,0.0,0.0,0.0,-0.02,0.0,0.0,0.0
261,0.0,0.0,0.0,-0.36941015625,0.0,0.0,0.0,0.0,0.0,0.0,-0.583,0.0,0.0,0.0,0.0,0.0,-1.61,-0.5296939616992549,0.0,0.0,0.0,0.0,0.0,0.0,0.408,0.0,0.0,0.0
262,0.0,0.0,0.0,-0.37534765625,0.0,0.0,0.0,0.0,0.0,0.0,-0.598,0.0,0.0,0.0,0.0,0.0,-1.61,-0.5240063041949629,0.0,0.0,0.0,0.0,0.0,0.0,0.068,0.0,0.0,0.0
263,0.0,0.0,0.0,-0.38128515625,0.0,0.0,0.0,0.0,0.0,0.0,-0.601,0.0,0.0,0.0,0.0,0.0,-1.61,-0.5180172443637986,0.0,0.0,0.0,0.0,0.0,0.0,0.0,0.0,0.0,0.0
264,0.0,0.0,0.0,-0.38722265625,0.0,0.0,0.0,0.0,0.0,0.0,-0.601,0.0,0.0,0.0,0.0,0.0,-1.61,-0.5118641103493674,0.0,0.0,0.0,0.0,0.0,0.0,-0.136,0.0,0.0,0.0
265,0.0,0.0,0.0,-0.393294921875,0.0,0.0,0.0,0.0,0.0,0.0,-0.607,0.0,0.0,0.0,0.0,0.0,-1.61,-0.5054055981668947,0.0,0.0,0.0,0.0,0.0,0.0,-0.068,0.0,0.0,0.0
266,0.0,0.0,0.0,-0.3992412109375,0.0,0.0,0.0,0.0,0.0,0.0,-0.601,0.0,0.0,0.0,0.0,0.0,-1.61,-0.49892968115521263,0.0,0.0,0.0,0.0,0.0,0.0,0.068,0.0,0.0,0.0
267,0.0,0.0,0.0,-0.4050341796875,0.0,0.0,0.0,0.0,0.0,0.0,-0.594,0.0,0.0,0.0,0.0,0.0,-1.61,-0.49212091734232544,0.0,0.0,0.0,0.0,0.0,0.0,-0.568,0.0,0.0,0.0
268,0.0,0.0,0.0,-0.410818359375,0.0,0.0,0.0,0.0,0.0,0.0,-0.583,0.0,0.0,0.0,0.0,0.0,-1.61,-0.485194085067851,0.0,0.0,0.0,0.0,0.0,0.0,-0.5,0.0,0.0,0.0
269,0.0,0.0,0.0,-0.416611328125,0.0,0.0,0.0,0.0,0.0,0.0,-0.583,0.0,0.0,0.0,0.0,0.0,-1.61,-0.4780004636352334,0.0,0.0,0.0,0.0,0.0,0.0,-0.776,0.0,0.0,0.0
270,0.0,0.0,0.0,-0.422259765625,0.0,0.0,0.0,0.0,0.0,0.0,-0.574,0.0,0.0,0.0,0.0,0.0,-1.61,-0.4706835719899622,0.0,0.0,0.0,0.0,0.0,0.0,-0.548,0.0,0.0,0.0
271,0.0,0.0,0.0,-0.428197265625,0.0,0.0,0.0,0.0,0.0,0.0,-0.577,0.0,0.0,0.0,0.0,0.0,-1.61,-0.4631494354351302,0.0,0.0,0.0,0.0,0.0,0.0,0.296,0.0,0.0,0.0
272,0.0,0.0,0.0,-0.434134765625,0.0,0.0,0.0,0.0,0.0,0.0,-0.594,0.0,0.0,0.0,0.0,0.0,-1.61,-0.45539435212385054,0.0,0.0,0.0,0.0,0.0,0.0,0.364,0.0,0.0,0.0
273,0.0,0.0,0.0,-0.440072265625,0.0,0.0,0.0,0.0,0.0,0.0,-0.596,0.0,0.0,0.0,0.0,0.0,-1.61,-0.44753365570913506,0.0,0.0,0.0,0.0,0.0,0.0,0.0,0.0,0.0,0.0
274,0.0,0.0,0.0,-0.4460009765625,0.0,0.0,0.0,0.0,0.0,0.0,-0.6,0.0,0.0,0.0,0.0,0.0,-1.61,-0.4394052965795745,0.0,0.0,0.0,0.0,0.0,0.0,-0.16,0.0,0.0,0.0
275,0.0,0.0,0.0,-0.4519384765625,0.0,0.0,0.0,0.0,0.0,0.0,-0.603,0.0,0.0,0.0,0.0,0.0,-1.61,-0.4312060176109571,0.0,0.0,0.0,0.0,0.0,0.0,0.18,0.0,0.0,0.0
276,0.0,0.0,0.0,-0.456142578125,0.0,0.0,0.0,0.0,0.0,0.0,-0.543,0.0,0.0,0.0,0.0,0.0,-1.61,-0.4227412916469725,0.0,0.0,0.0,0.0,0.0,0.0,3.084,0.0,0.0,0.0
277,0.0,0.0,0.0,-0.457009765625,0.0,0.0,0.0,0.0,0.0,0.0,-0.289,0.0,0.0,0.0,0.0,0.0,-1.61,-0.4140704740521726,0.0,0.0,0.0,0.0,0.0,0.0,6.424,0.0,0.0,0.0
278,0.0,0.0,0.0,-0.456287109375,0.0,0.0,0.0,0.0,0.0,0.0,-0.014,0.0,0.0,0.0,0.0,0.0,-1.61,-0.4053825627382592,0.0,0.0,0.0,0.0,0.0,0.0,7.204,0.0,0.0,0.0
279,0.0,0.0,0.0,-0.4538154296875,0.0,0.0,0.0,0.0,0.0,0.0,0.135,0.0,0.0,0.0,0.0,0.0,-1.61,-0.3964256443930147,0.0,0.0,0.0,0.0,0.0,0.0,7.316,0.0,0.0,0.0
280,0.0,0.0,0.0,-0.449185546875,0.0,0.0,0.0,0.0,0.0,0.0,0.343,0.0,0.0,0.0,0.0,0.0,-1.61,-0.3872842055842262,0.0,0.0,0.0,0.0,0.0,0.0,5.74,0.0,0.0,0.0
281,0.0,0.0,0.0,-0.4439794921875,0.0,0.0,0.0,0.0,0.0,0.0,0.49,0.0,0.0,0.0,0.0,0.0,-1.61,-0.37813795018191537,0.0,0.0,0.0,0.0,0.0,0.0,4.732,0.0,0.0,0.0
282,0.0,0.0,0.0,-0.438619140625,0.0,0.0,0.0,0.0,0.0,0.0,0.538,0.0,0.0,0.0,0.0,0.0,-1.61,-0.3687291252658507,0.0,0.0,0.0,0.0,0.0,0.0,5.1,0.0,0.0,0.0
283,0.0,0.0,0.0,-0.43269140625,0.0,0.0,0.0,0.0,0.0,0.0,0.557,0.0,0.0,0.0,0.0,0.0,-1.61,-0.359178702923127,0.0,0.0,0.0,0.0,0.0,0.0,6.608,0.0,0.0,0.0
284,0.0,0.0,0.0,-0.4254541015625,0.0,0.0,0.0,0.0,0.0,0.0,0.647,0.0,0.0,0.0,0.0,0.0,-1.61,-0.3495880050235658,0.0,0.0,0.0,0.0,0.0,0.0,7.088,0.0,0.0,0.0
285,0.0,0.0,0.0,-0.41819921875,0.0,0.0,0.0,0.0,0.0,0.0,0.731,0.0,0.0,0.0,0.0,0.0,-1.61,-0.33962760882167403,0.0,0.0,0.0,0.0,0.0,0.0,7.204,0.0,0.0,0.0
286,0.0,0.0,0.0,-0.4103857421875,0.0,0.0,0.0,0.0,0.0,0.0,0.749,0.0,0.0,0.0,0.0,0.0,-1.61,-0.3296537669638182,0.0,0.0,0.0,0.0,0.0,0.0,6.584,0.0,0.0,0.0
287,0.0,0.0,0.0,-0.402859375,0.0,0.0,0.0,0.0,0.0,0.0,0.778,0.0,0.0,0.0,0.0,0.0,-1.61,-0.3196491520370121,0.0,0.0,0.0,0.0,0.0,0.0,4.252,0.0,0.0,0.0
288,0.0,0.0,0.0,-0.394603515625,0.0,0.0,0.0,0.0,0.0,0.0,0.78,0.0,0.0,0.0,0.0,0.0,-1.61,-0.3094379819784619,0.0,0.0,0.0,0.0,0.0,0.0,4.868,0.0,0.0,0.0
289,0.0,0.0,0.0,-0.3862021484375,0.0,0.0,0.0,0.0,0.0,0.0,0.85,0.0,0.0,0.0,0.0,0.0,-1.61,-0.2989990444129469,0.0,0.0,0.0,0.0,0.0,0.0,4.776,0.0,0.0,0.0
290,0.0,0.0,0.0,-0.3788212890625,0.0,0.0,0.0,0.0,0.0,0.0,0.802,0.0,0.0,0.0,0.0,0.0,-1.61,-0.28869288048939584,0.0,0.0,0.0,0.0,0.0,0.0,4.116,0.0,0.0,0.0
291,0.0,0.0,0.0,-0.372451171875,0.0,0.0,0.0,0.0,0.0,0.0,0.695,0.0,0.0,0.0,0.0,0.0,-1.61,-0.278018367816599,0.0,0.0,0.0,0.0,0.0,0.0,3.884,0.0,0.0,0.0
292,0.0,0.0,0.0,-0.364916015625,0.0,0.0,0.0,0.0,0.0,0.0,0.68,0.0,0.0,0.0,0.0,0.0,-1.61,-0.2673561060234412,0.0,0.0,0.0,0.0,0.0,0.0,5.9,0.0,0.0,0.0
293,0.0,0.0,0.0,-0.3571015625,0.0,0.0,0.0,0.0,0.0,0.0,0.789,0.0,0.0,0.0,0.0,0.0,-1.61,-0.256588728307261,0.0,0.0,0.0,0.0,0.0,0.0,3.064,0.0,0.0,0.0
294,0.0,0.0,0.0,-0.3510205078125,0.0,0.0,0.0,0.0,0.0,0.0,0.7,0.0,0.0,0.0,0.0,0.0,-1.61,-0.24569080102737056,0.0,0.0,0.0,0.0,0.0,0.0,2.308,0.0,0.0,0.0
295,0.0,0.0,0.0,-0.343783203125,0.0,0.0,0.0,0.0,0.0,0.0,0.643,0.0,0.0,0.0,0.0,0.0,-1.61,-0.23465615754089084,0.0,0.0,0.0,0.0,0.0,0.0,1.988,0.0,0.0,0.0
296,0.0,0.0,0.0,-0.335806640625,0.0,0.0,0.0,0.0,0.0,0.0,0.782,0.0,0.0,0.0,0.0,0.0,-1.61,-0.22360027834064794,0.0,0.0,0.0,0.0,0.0,0.0,-0.16,0.0,0.0,0.0
297,0.0,0.0,0.0,-0.32930078125,0.0,0.0,0.0,0.0,0.0,0.0,0.741,0.0,0.0,0.0,0.0,0.0,-1.61,-0.21241725330417308,0.0,0.0,0.0,0.0,0.0,0.0,0.82,0.0,0.0,0.0
298,0.0,0.0,0.0,-0.32307421875,0.0,0.0,0.0,0.0,0.0,0.0,0.632,0.0,0.0,0.0,0.0,0.0,-1.61,-0.20103060725672162,0.0,0.0,0.0,0.0,0.0,0.0,1.212,0.0,0.0,0.0
299,0.0,0.0,0.0,-0.3164150390625,0.0,0.0,0.0,0.0,0.0,0.0,0.648,0.0,0.0,0.0,0.0,0.0,-1.61,-0.18828606713079335,0.0,0.0,0.0,0.0,0.0,0.0,-0.16,0.0,0.0,0.0
300,0.0,0.0,0.0,-0.3100361328125,0.0,0.0,0.0,0.0,0.0,0.0,0.659,0.0,0.0,0.0,0.0,0.0,-1.61,-0.17831796495023908,0.0,0.0,0.0,0.0,0.0,0.0,0.432,0.0,0.0,0.0
301,0.0,0.0,0.0,-0.303376953125,0.0,0.0,0.0,0.0,0.0,0.0,0.642,0.0,0.0,0.0,0.0,0.0,-1.61,-0.1668887643479246,0.0,0.0,0.0,0.0,0.0,0.0,1.508,0.0,0.0,0.0
302,0.0,0.0,0.0,-0.2962841796875,0.0,0.0,0.0,0.0,0.0,0.0,0.707,0.0,0.0,0.0,0.0,0.0,-1.61,-0.1553319190062985,0.0,0.0,0.0,0.0,0.0,0.0,-1.3,0.0,0.0,0.0
303,0.0,0.0,0.0,-0.2904912109375,0.0,0.0,0.0,0.0,0.0,0.0,0.653,0.0,0.0,0.0,0.0,0.0,-1.61,-0.14363379982421218,0.0,0.0,0.0,0.0,0.0,0.0,-2.352,0.0,0.0,0.0
304,0.0,0.0,0.0,-0.2835341796875,0.0,0.0,0.0,0.0,0.0,0.0,0.619,0.0,0.0,0.0,0.0,0.0,-1.61,-0.13209544039988408,0.0,0.0,0.0,0.0,0.0,0.0,-2.124,0.0,0.0,0.0
305,0.0,0.0,0.0,-0.2761435546875,0.0,0.0,0.0,0.0,0.0,0.0,0.732,0.0,0.0,0.0,0.0,0.0,-1.61,-0.1202078419059705,0.0,0.0,0.0,0.0,0.0,0.0,-3.428,0.0,0.0,0.0
306,0.0,0.0,0.0,-0.2700712890625,0.0,0.0,0.0,0.0,0.0,0.0,0.683,0.0,0.0,0.0,0.0,0.0,-1.61,-0.10856943165657229,0.0,0.0,0.0,0.0,0.0,0.0,-1.78,0.0,0.0,0.0
307,0.0,0.0,0.0,-0.263412109375,0.0,0.0,0.0,0.0,0.0,0.0,0.636,0.0,0.0,0.0,0.0,0.0,-1.61,-0.0966446740616839,0.0,0.0,0.0,0.0,0.0,0.0,-1.78,0.0,0.0,0.0
308,0.0,0.0,0.0,-0.2564453125,0.0,0.0,0.0,0.0,0.0,0.0,0.686,0.0,0.0,0.0,0.0,0.0,-1.61,-0.08480181602306773,0.0,0.0,0.0,0.0,0.0,0.0,-3.544,0.0,0.0,0.0
309,0.0,0.0,0.0,-0.250228515625,0.0,0.0,0.0,0.0,0.0,0.0,0.659,0.0,0.0,0.0,0.0,0.0,-1.61,-0.07298705424129664,0.0,0.0,0.0,0.0,0.0,0.0,-2.124,0.0,0.0,0.0
310,0.0,0.0,0.0,-0.243271484375,0.0,0.0,0.0,0.0,0.0,0.0,0.653,0.0,0.0,0.0,0.0,0.0,-1.61,-0.06094910022245995,0.0,0.0,0.0,0.0,0.0,0.0,-2.012,0.0,0.0,0.0
311,0.0,0.0,0.0,-0.236603515625,0.0,0.0,0.0,0.0,0.0,0.0,0.706,0.0,0.0,0.0,0.0,0.0,-1.61,-0.04905225861428452,0.0,0.0,0.0,0.0,0.0,0.0,-3.612,0.0,0.0,0.0
312,0.0,0.0,0.0,-0.231251953125,0.0,0.0,0.0,0.0,0.0,0.0,0.603,0.0,0.0,0.0,0.0,0.0,-1.61,-0.0371385385384988,0.0,0.0,0.0,0.0,0.0,0.0,-3.404,0.0,0.0,0.0
313,0.0,0.0,0.0,-0.2247373046875,0.0,0.0,0.0,0.0,0.0,0.0,0.579,0.0,0.0,0.0,0.0,0.0,-1.61,-0.02508175289618011,0.0,0.0,0.0,0.0,0.0,0.0,-3.132,0.0,0.0,0.0
314,0.0,0.0,0.0,-0.21822265625,0.0,0.0,0.0,0.0,0.0,0.0,0.668,0.0,0.0,0.0,0.0,0.0,-1.61,-0.013001654459190468,0.0,0.0,0.0,0.0,0.0,0.0,-3.564,0.0,0.0,0.0
315,0.0,0.0,0.0,-0.2124208984375,0.0,0.0,0.0,0.0,0.0,0.0,0.624,0.0,0.0,0.0,0.0,0.0,-1.61,-0.00096806483866917,0.0,0.0,0.0,0.0,0.0,0.0,-2.604,0.0,0.0,0.0
316,0.0,0.0,0.0,-0.2063388671875,0.0,0.0,0.0,0.0,0.0,0.0,0.593,0.0,0.0,0.0,0.0,0.0,-1.61,0.010892279215824745,0.0,0.0,0.0,0.0,0.0,0.0,-2.352,0.0,0.0,0.0
317,0.0,0.0,0.0,-0.2005458984375,0.0,0.0,0.0,0.0,0.0,0.0,0.611,0.0,0.0,0.0,0.0,0.0,-1.61,2.174377440930311e-05,0.0,0.0,0.0,0.0,0.0,0.0,-3.428,0.0,0.0,0.0
318,0.0,0.0,0.0,-0.195185546875,0.0,0.0,0.0,0.0,0.0,0.0,0.553,0.0,0.0,0.0,0.0,0.0,-1.61,0.011848156395108164,0.0,0.0,0.0,0.0,0.0,0.0,-1.62,0.0,0.0,0.0
319,0.0,0.0,0.0,-0.1892578125,0.0,0.0,0.0,0.0,0.0,0.0,0.563,0.0,0.0,0.0,0.0,0.0,-1.61,0.023824625486161984,0.0,0.0,0.0,0.0,0.0,0.0,-0.456,0.0,0.0,0.0
320,0.0,0.0,0.0,-0.183888671875,0.0,0.0,0.0,0.0,0.0,0.0,0.587,0.0,0.0,0.0,0.0,0.0,-1.61,0.035910113979244866,0.0,0.0,0.0,0.0,0.0,0.0,-1.256,0.0,0.0,0.0
321,0.0,0.0,0.0,-0.1791064453125,0.0,0.0,0.0,0.0,0.0,0.0,0.504,0.0,0.0,0.0,0.0,0.0,-1.61,0.047798190361481835,0.0,0.0,0.0,0.0,0.0,0.0,-0.456,0.0,0.0,0.0
322,0.0,0.0,0.0,-0.1738994140625,0.0,0.0,0.0,0.0,0.0,0.0,0.498,0.0,0.0,0.0,0.0,0.0,-1.61,0.059680506144461985,0.0,0.0,0.0,0.0,0.0,0.0,-0.568,0.0,0.0,0.0
323,0.0,0.0,0.0,-0.168828125,0.0,0.0,0.0,0.0,0.0,0.0,0.528,0.0,0.0,0.0,0.0,0.0,-1.61,0.07184060629170637,0.0,0.0,0.0,0.0,0.0,0.0,-1.072,0.0,0.0,0.0
324,0.0,0.0,0.0,-0.1637568359375,0.0,0.0,0.0,0.0,0.0,0.0,0.5,0.0,0.0,0.0,0.0,0.0,-1.61,0.0835549542492041,0.0,0.0,0.0,0.0,0.0,0.0,0.136,0.0,0.0,0.0
325,0.0,0.0,0.0,-0.1579638671875,0.0,0.0,0.0,0.0,0.0,0.0,0.541,0.0,0.0,0.0,0.0,0.0,-1.61,0.09546909648001961,0.0,0.0,0.0,0.0,0.0,0.0,0.088,0.0,0.0,0.0
326,0.0,0.0,0.0,-0.1527490234375,0.0,0.0,0.0,0.0,0.0,0.0,0.558,0.0,0.0,0.0,0.0,0.0,-1.61,0.10726789193615957,0.0,0.0,0.0,0.0,0.0,0.0,-1.004,0.0,0.0,0.0
327,0.0,0.0,0.0,-0.1479658203125,0.0,0.0,0.0,0.0,0.0,0.0,0.501,0.0,0.0,0.0,0.0,0.0,-1.61,0.11906520905403449,0.0,0.0,0.0,0.0,0.0,0.0,0.0,0.0,0.0,0.0
328,0.0,0.0,0.0,-0.142470703125,0.0,0.0,0.0,0.0,0.0,0.0,0.518,0.0,0.0,0.0,0.0,0.0,-1.61,0.13082066085612493,0.0,0.0,0.0,0.0,0.0,0.0,0.32,0.0,0.0,0.0
329,0.0,0.0,0.0,-0.137390625,0.0,0.0,0.0,0.0,0.0,0.0,0.537,0.0,0.0,0.0,0.0,0.0,-1.61,0.1425061103252551,0.0,0.0,0.0,0.0,0.0,0.0,0.728,0.0,0.0,0.0
330,0.0,0.0,0.0,-0.1321748046875,0.0,0.0,0.0,0.0,0.0,0.0,0.501,0.0,0.0,0.0,0.0,0.0,-1.61,0.15416606935240265,0.0,0.0,0.0,0.0,0.0,0.0,2.264,0.0,0.0,0.0
331,0.0,0.0,0.0,-0.12653515625,0.0,0.0,0.0,0.0,0.0,0.0,0.547,0.0,0.0,0.0,0.0,0.0,-1.61,0.16560342956794769,0.0,0.0,0.0,0.0,0.0,0.0,1.46,0.0,0.0,0.0
332,0.0,0.0,0.0,-0.1216083984375,0.0,0.0,0.0,0.0,0.0,0.0,0.547,0.0,0.0,0.0,0.0,0.0,-1.61,0.17729036728171216,0.0,0.0,0.0,0.0,0.0,0.0,0.8,0.0,0.0,0.0
333,0.0,0.0,0.0,-0.1165283203125,0.0,0.0,0.0,0.0,0.0,0.0,0.493,0.0,0.0,0.0,0.0,0.0,-1.61,0.18862488103276762,0.0,0.0,0.0,0.0,0.0,0.0,1.988,0.0,0.0,0.0
334,0.0,0.0,0.0,-0.111033203125,0.0,0.0,0.0,0.0,0.0,0.0,0.539,0.0,0.0,0.0,0.0,0.0,-1.61,0.19997015183990205,0.0,0.0,0.0,0.0,0.0,0.0,1.188,0.0,0.0,0.0
335,0.0,0.0,0.0,-0.1059619140625,0.0,0.0,0.0,0.0,0.0,0.0,0.535,0.0,0.0,0.0,0.0,0.0,-1.61,0.21134319380744482,0.0,0.0,0.0,0.0,0.0,0.0,1.416,0.0,0.0,0.0
336,0.0,0.0,0.0,-0.1001689453125,0.0,0.0,0.0,0.0,0.0,0.0,0.53,0.0,0.0,0.0,0.0,0.0,-1.61,0.22236183047860694,0.0,0.0,0.0,0.0,0.0,0.0,2.08,0.0,0.0,0.0
337,0.0,0.0,0.0,-0.09422265625,0.0,0.0,0.0,0.0,0.0,0.0,0.6,0.0,0.0,0.0,0.0,0.0,-1.61,0.23341228929815028,0.0,0.0,0.0,0.0,0.0,0.0,0.776,0.0,0.0,0.0
338,0.0,0.0,0.0,-0.0890166015625,0.0,0.0,0.0,0.0,0.0,0.0,0.566,0.0,0.0,0.0,0.0,0.0,-1.61,0.24450504818514238,0.0,0.0,0.0,0.0,0.0,0.0,1.004,0.0,0.0,0.0
339,0.0,0.0,0.0,-0.0830791015625,0.0,0.0,0.0,0.0,0.0,0.0,0.547,0.0,0.0,0.0,0.0,0.0,-1.61,0.25549977200386936,0.0,0.0,0.0,0.0,0.0,0.0,1.988,0.0,0.0,0.0
340,0.0,0.0,0.0,-0.0771416015625,0.0,0.0,0.0,0.0,0.0,0.0,0.603,0.0,0.0,0.0,0.0,0.0,-1.61,0.2661978773171951,0.0,0.0,0.0,0.0,0.0,0.0,1.256,0.0,0.0,0.0
341,0.0,0.0,0.0,-0.0714833984375,0.0,0.0,0.0,0.0,0.0,0.0,0.581,0.0,0.0,0.0,0.0,0.0,-1.61,0.27693351545967015,0.0,0.0,0.0,0.0,0.0,0.0,1.804,0.0,0.0,0.0
342,0.0,0.0,0.0,-0.06540234375,0.0,0.0,0.0,0.0,0.0,0.0,0.584,0.0,0.0,0.0,0.0,0.0,-1.61,0.2875584020339219,0.0,0.0,0.0,0.0,0.0,0.0,2.148,0.0,0.0,0.0
343,0.0,0.0,0.0,-0.0596083984375,0.0,0.0,0.0,0.0,0.0,0.0,0.61,0.0,0.0,0.0,0.0,0.0,-1.61,0.29796667316749426,0.0,0.0,0.0,0.0,0.0,0.0,0.82,0.0,0.0,0.0
344,0.0,0.0,0.0,-0.0542490234375,0.0,0.0,0.0,0.0,0.0,0.0,0.557,0.0,0.0,0.0,0.0,0.0,-1.61,0.3083468443489703,0.0,0.0,0.0,0.0,0.0,0.0,1.92,0.0,0.0,0.0
345,0.0,0.0,0.0,-0.048013671875,0.0,0.0,0.0,0.0,0.0,0.0,0.575,0.0,0.0,0.0,0.0,0.0,-1.61,0.31867920719394455,0.0,0.0,0.0,0.0,0.0,0.0,1.6,0.0,0.0,0.0
346,0.0,0.0,0.0,-0.042076171875,0.0,0.0,0.0,0.0,0.0,0.0,0.615,0.0,0.0,0.0,0.0,0.0,-1.61,0.32864367397676214,0.0,0.0,0.0,0.0,0.0,0.0,0.456,0.0,0.0,0.0
347,0.0,0.0,0.0,-0.035994140625,0.0,0.0,0.0,0.0,0.0,0.0,0.602,0.0,0.0,0.0,0.0,0.0,-1.61,0.33864492557218856,0.0,0.0,0.0,0.0,0.0,0.0,0.936,0.0,0.0,0.0
348,0.0,0.0,0.0,-0.029470703125,0.0,0.0,0.0,0.0,0.0,0.0,0.64,0.0,0.0,0.0,0.0,0.0,-1.61,0.3485497838578426,0.0,0.0,0.0,0.0,0.0,0.0,-0.16,0.0,0.0,0.0
349,0.0,0.0,0.0,-0.023533203125,0.0,0.0,0.0,0.0,0.0,0.0,0.629,0.0,0.0,0.0,0.0,0.0,-1.61,0.35817582452786983,0.0,0.0,0.0,0.0,0.0,0.0,-0.32,0.0,0.0,0.0
350,0.0,0.0,0.0,-0.017451171875,0.0,0.0,0.0,0.0,0.0,0.0,0.598,0.0,0.0,0.0,0.0,0.0,-1.61,0.36773938612698315,0.0,0.0,0.0,0.0,0.0,0.0,0.776,0.0,0.0,0.0
351,0.0,0.0,0.0,-0.0109365234375,0.0,0.0,0.0,0.0,0.0,0.0,0.633,0.0,0.0,0.0,0.0,0.0,-1.61,0.37716671599495705,0.0,0.0,0.0,0.0,0.0,0.0,0.204,0.0,0.0,0.0
352,0.0,0.0,0.0,-0.004845703125,0.0,0.0,0.0,0.0,0.0,0.0,0.631,0.0,0.0,0.0,0.0,0.0,-1.61,0.38643423412493977,0.0,0.0,0.0,0.0,0.0,0.0,0.592,0.0,0.0,0.0
353,0.0,0.0,0.0,0.0013798828125,0.0,0.0,0.0,0.0,0.0,0.0,0.613,0.0,0.0,0.0,0.0,0.0,-1.61,0.39546764191752226,0.0,0.0,0.0,0.0,0.0,0.0,0.616,0.0,0.0,0.0
354,0.0,0.0,0.0,0.0074609375,0.0,0.0,0.0,0.0,0.0,0.0,0.626,0.0,0.0,0.0,0.0,0.0,-1.61,0.40448685927965,0.0,0.0,0.0,0.0,0.0,0.0,-0.02,0.0,0.0,0.0
355,0.0,0.0,0.0,0.013263671875,0.0,0.0,0.0,0.0,0.0,0.0,0.602,0.0,0.0,0.0,0.0,0.0,-1.61,0.41323204972843836,0.0,0.0,0.0,0.0,0.0,0.0,0.272,0.0,0.0,0.0
356,0.0,0.0,0.0,0.0193447265625,0.0,0.0,0.0,0.0,0.0,0.0,0.592,0.0,0.0,0.0,0.0,0.0,-1.61,0.42187905213162386,0.0,0.0,0.0,0.0,0.0,0.0,0.044,0.0,0.0,0.0
357,0.0,0.0,0.0,0.0257158203125,0.0,0.0,0.0,0.0,0.0,0.0,0.629,0.0,0.0,0.0,0.0,0.0,-1.61,0.4303760592765838,0.0,0.0,0.0,0.0,0.0,0.0,-0.708,0.0,0.0,0.0
358,0.0,0.0,0.0,0.0317978515625,0.0,0.0,0.0,0.0,0.0,0.0,0.625,0.0,0.0,0.0,0.0,0.0,-1.61,0.43862295639820875,0.0,0.0,0.0,0.0,0.0,0.0,-0.616,0.0,0.0,0.0
359,0.0,0.0,0.0,0.037888671875,0.0,0.0,0.0,0.0,0.0,0.0,0.61,0.0,0.0,0.0,0.0,0.0,-1.61,0.44669387731095395,0.0,0.0,0.0,0.0,0.0,0.0,-0.5,0.0,0.0,0.0
360,0.0,0.0,0.0,0.0441142578125,0.0,0.0,0.0,0.0,0.0,0.0,0.621,0.0,0.0,0.0,0.0,0.0,-1.61,0.45460608349808834,0.0,0.0,0.0,0.0,0.0,0.0,-0.228,0.0,0.0,0.0
361,0.0,0.0,0.0,0.0500517578125,0.0,0.0,0.0,0.0,0.0,0.0,0.609,0.0,0.0,0.0,0.0,0.0,-1.61,0.462305711887316,0.0,0.0,0.0,0.0,0.0,0.0,-0.136,0.0,0.0,0.0
362,0.0,0.0,0.0,0.056142578125,0.0,0.0,0.0,0.0,0.0,0.0,0.6,0.0,0.0,0.0,0.0,0.0,-1.61,0.46995438505056236,0.0,0.0,0.0,0.0,0.0,0.0,0.228,0.0,0.0,0.0
363,0.0,0.0,0.0,0.062224609375,0.0,0.0,0.0,0.0,0.0,0.0,0.612,0.0,0.0,0.0,0.0,0.0,-1.61,0.47737486552831565,0.0,0.0,0.0,0.0,0.0,0.0,-0.16,0.0,0.0,0.0
364,0.0,0.0,0.0,0.0678642578125,0.0,0.0,0.0,0.0,0.0,0.0,0.596,0.0,0.0,0.0,0.0,0.0,-1.61,0.48440187941103807,0.0,0.0,0.0,0.0,0.0,0.0,-0.364,0.0,0.0,0.0
365,0.0,0.0,0.0,0.0736572265625,0.0,0.0,0.0,0.0,0.0,0.0,0.573,0.0,0.0,0.0,0.0,0.0,-1.61,0.4913903811196235,0.0,0.0,0.0,0.0,0.0,0.0,0.16,0.0,0.0,0.0
366,0.0,0.0,0.0,0.079603515625,0.0,0.0,0.0,0.0,0.0,0.0,0.586,0.0,0.0,0.0,0.0,0.0,-1.61,0.4981914689656972,0.0,0.0,0.0,0.0,0.0,0.0,-0.364,0.0,0.0,0.0
367,0.0,0.0,0.0,0.085251953125,0.0,0.0,0.0,0.0,0.0,0.0,0.584,0.0,0.0,0.0,0.0,0.0,-1.61,0.5047489894263356,0.0,0.0,0.0,0.0,0.0,0.0,-0.408,0.0,0.0,0.0
368,0.0,0.0,0.0,0.091189453125,0.0,0.0,0.0,0.0,0.0,0.0,0.576,0.0,0.0,0.0,0.0,0.0,-1.61,0.5111743453093763,0.0,0.0,0.0,0.0,0.0,0.0,-0.088,0.0,0.0,0.0
369,0.0,0.0,0.0,0.0969912109375,0.0,0.0,0.0,0.0,0.0,0.0,0.599,0.0,0.0,0.0,0.0,0.0,-1.61,0.5173428533349238,0.0,0.0,0.0,0.0,0.0,0.0,-0.616,0.0,0.0,0.0
370,0.0,0.0,0.0,0.102775390625,0.0,0.0,0.0,0.0,0.0,0.0,0.582,0.0,0.0,0.0,0.0,0.0,-1.61,0.5233252724625016,0.0,0.0,0.0,0.0,0.0,0.0,-0.16,0.0,0.0,0.0
371,0.0,0.0,0.0,0.108712890625,0.0,0.0,0.0,0.0,0.0,0.0,0.585,0.0,0.0,0.0,0.0,0.0,-1.61,0.5290717383988129,0.0,0.0,0.0,0.0,0.0,0.0,0.296,0.0,0.0,0.0
372,0.0,0.0,0.0,0.114361328125,0.0,0.0,0.0,0.0,0.0,0.0,0.593,0.0,0.0,0.0,0.0,0.0,-1.61,0.5346722107420302,0.0,0.0,0.0,0.0,0.0,0.0,0.248,0.0,0.0,0.0
373,0.0,0.0,0.0,0.1201640625,0.0,0.0,0.0,0.0,0.0,0.0,0.572,0.0,0.0,0.0,0.0,0.0,-1.61,0.5399875437023673,0.0,0.0,0.0,0.0,0.0,0.0,0.82,0.0,0.0,0.0
374,0.0,0.0,0.0,0.125947265625,0.0,0.0,0.0,0.0,0.0,0.0,0.581,0.0,0.0,0.0,0.0,0.0,-1.61,0.5451160079283237,0.0,0.0,0.0,0.0,0.0,0.0,0.548,0.0,0.0,0.0
375,0.0,0.0,0.0,0.1314521484375,0.0,0.0,0.0,0.0,0.0,0.0,0.569,0.0,0.0,0.0,0.0,0.0,-1.61,0.5500354320840473,0.0,0.0,0.0,0.0,0.0,0.0,0.5,0.0,0.0,0.0
376,0.0,0.0,0.0,0.1369658203125,0.0,0.0,0.0,0.0,0.0,0.0,0.554,0.0,0.0,0.0,0.0,0.0,-1.61,0.5547293411697796,0.0,0.0,0.0,0.0,0.0,0.0,0.82,0.0,0.0,0.0
377,0.0,0.0,0.0,0.1426142578125,0.0,0.0,0.0,0.0,0.0,0.0,0.562,0.0,0.0,0.0,0.0,0.0,-1.61,0.5592143902156328,0.0,0.0,0.0,0.0,0.0,0.0,0.272,0.0,0.0,0.0
378,0.0,0.0,0.0,0.1482626953125,0.0,0.0,0.0,0.0,0.0,0.0,0.57,0.0,0.0,0.0,0.0,0.0,-1.61,0.5634031149561315,0.0,0.0,0.0,0.0,0.0,0.0,0.32,0.0,0.0,0.0
379,0.0,0.0,0.0,0.1542001953125,0.0,0.0,0.0,0.0,0.0,0.0,0.577,0.0,0.0,0.0,0.0,0.0,-1.61,0.5674228535328458,0.0,0.0,0.0,0.0,0.0,0.0,0.364,0.0,0.0,0.0
380,0.0,0.0,0.0,0.160146484375,0.0,0.0,0.0,0.0,0.0,0.0,0.599,0.0,0.0,0.0,0.0,0.0,-1.61,0.5712417338592776,0.0,0.0,0.0,0.0,0.0,0.0,-0.136,0.0,0.0,0.0
381,0.0,0.0,0.0,0.165939453125,0.0,0.0,0.0,0.0,0.0,0.0,0.592,0.0,0.0,0.0,0.0,0.0,-1.61,0.5747489786677652,0.0,0.0,0.0,0.0,0.0,0.0,0.136,0.0,0.0,0.0
382,0.0,0.0,0.0,0.1717236328125,0.0,0.0,0.0,0.0,0.0,0.0,0.582,0.0,0.0,0.0,0.0,0.0,-1.61,0.5781040888023591,0.0,0.0,0.0,0.0,0.0,0.0,0.616,0.0,0.0,0.0
383,0.0,0.0,0.0,0.177525390625,0.0,0.0,0.0,0.0,0.0,0.0,0.583,0.0,0.0,0.0,0.0,0.0,-1.61,0.5811963389674012,0.0,0.0,0.0,0.0,0.0,0.0,0.48,0.0,0.0,0.0
384,0.0,0.0,0.0,0.183462890625,0.0,0.0,0.0,0.0,0.0,0.0,0.589,0.0,0.0,0.0,0.0,0.0,-1.61,0.5840610849964432,0.0,0.0,0.0,0.0,0.0,0.0,0.776,0.0,0.0,0.0
385,0.0,0.0,0.0,0.189255859375,0.0,0.0,0.0,0.0,0.0,0.0,0.592,0.0,0.0,0.0,0.0,0.0,-1.61,0.5867122522953833,0.0,0.0,0.0,0.0,0.0,0.0,0.388,0.0,0.0,0.0
386,0.0,0.0,0.0,0.195048828125,0.0,0.0,0.0,0.0,0.0,0.0,0.583,0.0,0.0,0.0,0.0,0.0,-1.61,0.5890804768576205,0.0,0.0,0.0,0.0,0.0,0.0,0.64,0.0,0.0,0.0
387,0.0,0.0,0.0,0.2008515625,0.0,0.0,0.0,0.0,0.0,0.0,0.583,0.0,0.0,0.0,0.0,0.0,-1.61,0.5912449325807725,0.0,0.0,0.0,0.0,0.0,0.0,0.708,0.0,0.0,0.0
388,0.0,0.0,0.0,0.2065,0.0,0.0,0.0,0.0,0.0,0.0,0.573,0.0,0.0,0.0,0.0,0.0,-1.61,0.593174120066032,0.0,0.0,0.0,0.0,0.0,0.0,0.32,0.0,0.0,0.0
389,0.0,0.0,0.0,0.2124375,0.0,0.0,0.0,0.0,0.0,0.0,0.587,0.0,0.0,0.0,0.0,0.0,-1.61,0.5948545073455241,0.0,0.0,0.0,0.0,0.0,0.0,0.204,0.0,0.0,0.0
390,0.0,0.0,0.0,0.2185283203125,0.0,0.0,0.0,0.0,0.0,0.0,0.607,0.0,0.0,0.0,0.0,0.0,-1.61,0.5963076271568604,0.0,0.0,0.0,0.0,0.0,0.0,0.068,0.0,0.0,0.0
391,0.0,0.0,0.0,0.2244658203125,0.0,0.0,0.0,0.0,0.0,0.0,0.604,0.0,0.0,0.0,0.0,0.0,-1.61,0.5975109663951953,0.0,0.0,0.0,0.0,0.0,0.0,0.02,0.0,0.0,0.0
392,0.0,0.0,0.0,0.2304033203125,0.0,0.0,0.0,0.0,0.0,0.0,0.598,0.0,0.0,0.0,0.0,0.0,-1.61,0.5984864497648105,0.0,0.0,0.0,0.0,0.0,0.0,0.524,0.0,0.0,0.0
393,0.0,0.0,0.0,0.236349609375,0.0,0.0,0.0,0.0,0.0,0.0,0.595,0.0,0.0,0.0,0.0,0.0,-1.61,0.5992217507973725,0.0,0.0,0.0,0.0,0.0,0.0,0.684,0.0,0.0,0.0
394,0.0,0.0,0.0,0.24227734375,0.0,0.0,0.0,0.0,0.0,0.0,0.594,0.0,0.0,0.0,0.0,0.0,-1.61,0.599716457085946,0.0,0.0,0.0,0.0,0.0,0.0,0.592,0.0,0.0,0.0
395,0.0,0.0,0.0,0.24821484375,0.0,0.0,0.0,0.0,0.0,0.0,0.596,0.0,0.0,0.0,0.0,0.0,-1.61,0.5999629952227684,0.0,0.0,0.0,0.0,0.0,0.0,0.548,0.0,0.0,0.0
396,0.0,0.0,0.0,0.2540078125,0.0,0.0,0.0,0.0,0.0,0.0,0.593,0.0,0.0,0.0,0.0,0.0,-1.61,0.5999759493536241,0.0,0.0,0.0,0.0,0.0,0.0,0.32,0.0,0.0,0.0
397,0.0,0.0,0.0,0.259810546875,0.0,0.0,0.0,0.0,0.0,0.0,0.583,0.0,0.0,0.0,0.0,0.0,-1.61,0.5997468879705007,0.0,0.0,0.0,0.0,0.0,0.0,0.616,0.0,0.0,0.0
398,0.0,0.0,0.0,0.265603515625,0.0,0.0,0.0,0.0,0.0,0.0,0.583,0.0,0.0,0.0,0.0,0.0,-1.61,0.5992803219750005,0.0,0.0,0.0,0.0,0.0,0.0,0.364,0.0,0.0,0.0
399,0.0,0.0,0.0,0.271396484375,0.0,0.0,0.0,0.0,0.0,0.0,0.582,0.0,0.0,0.0,0.0,0.0,-1.61,0.5985731766979058,0.0,0.0,0.0,0.0,0.0,0.0,0.068,0.0,0.0,0.0
400,0.0,0.0,0.0,0.2774873046875,0.0,0.0,0.0,0.0,0.0,0.0,0.591,0.0,0.0,0.0,0.0,0.0,-1.61,0.5976218641103797,0.0,0.0,0.0,0.0,0.0,0.0,0.088,0.0,0.0,0.0
401,0.0,0.0,0.0,0.2834248046875,0.0,0.0,0.0,0.0,0.0,0.0,0.604,0.0,0.0,0.0,0.0,0.0,-1.61,0.5964471977485898,0.0,0.0,0.0,0.0,0.0,0.0,-0.16,0.0,0.0,0.0
402,0.0,0.0,0.0,0.289505859375,0.0,0.0,0.0,0.0,0.0,0.0,0.604,0.0,0.0,0.0,0.0,0.0,-1.61,0.595028347845083,0.0,0.0,0.0,0.0,0.0,0.0,-0.068,0.0,0.0,0.0
403,0.0,0.0,0.0,0.295453125,0.0,0.0,0.0,0.0,0.0,0.0,0.603,0.0,0.0,0.0,0.0,0.0,-1.61,0.5933272421115898,0.0,0.0,0.0,0.0,0.0,0.0,0.408,0.0,0.0,0.0
404,0.0,0.0,0.0,0.30124609375,0.0,0.0,0.0,0.0,0.0,0.0,0.594,0.0,0.0,0.0,0.0,0.0,-1.61,0.5914700304593601,0.0,0.0,0.0,0.0,0.0,0.0,0.432,0.0,0.0,0.0
405,0.0,0.0,0.0,0.307173828125,0.0,0.0,0.0,0.0,0.0,0.0,0.593,0.0,0.0,0.0,0.0,0.0,-1.61,0.5893223542328745,0.0,0.0,0.0,0.0,0.0,0.0,0.524,0.0,0.0,0.0
406,0.0,0.0,0.0,0.3131201171875,0.0,0.0,0.0,0.0,0.0,0.0,0.596,0.0,0.0,0.0,0.0,0.0,-1.61,0.5869568281494079,0.0,0.0,0.0,0.0,0.0,0.0,0.408,0.0,0.0,0.0
407,0.0,0.0,0.0,0.3189130859375,0.0,0.0,0.0,0.0,0.0,0.0,0.586,0.0,0.0,0.0,0.0,0.0,-1.61,0.5843690128267075,0.0,0.0,0.0,0.0,0.0,0.0,0.456,0.0,0.0,0.0
408,0.0,0.0,0.0,0.32470703125,0.0,0.0,0.0,0.0,0.0,0.0,0.582,0.0,0.0,0.0,0.0,0.0,-1.61,0.5814311431234029,0.0,0.0,0.0,0.0,0.0,0.0,0.456,0.0,0.0,0.0
409,0.0,0.0,0.0,0.33035546875,0.0,0.0,0.0,0.0,0.0,0.0,0.581,0.0,0.0,0.0,0.0,0.0,-1.61,0.5784644331743453,0.0,0.0,0.0,0.0,0.0,0.0,0.364,0.0,0.0,0.0
410,0.0,0.0,0.0,0.3363017578125,0.0,0.0,0.0,0.0,0.0,0.0,0.576,0.0,0.0,0.0,0.0,0.0,-1.61,0.5751343693505098,0.0,0.0,0.0,0.0,0.0,0.0,0.088,0.0,0.0,0.0
411,0.0,0.0,0.0,0.3422392578125,0.0,0.0,0.0,0.0,0.0,0.0,0.596,0.0,0.0,0.0,0.0,0.0,-1.61,0.5716052149970764,0.0,0.0,0.0,0.0,0.0,0.0,-0.02,0.0,0.0,0.0
412,0.0,0.0,0.0,0.3483212890625,0.0,0.0,0.0,0.0,0.0,0.0,0.606,0.0,0.0,0.0,0.0,0.0,-1.61,0.5678001947189957,0.0,0.0,0.0,0.0,0.0,0.0,-0.18,0.0,0.0,0.0
413,0.0,0.0,0.0,0.3542578125,0.0,0.0,0.0,0.0,0.0,0.0,0.607,0.0,0.0,0.0,0.0,0.0,-1.61,0.5638287623098317,0.0,0.0,0.0,0.0,0.0,0.0,0.044,0.0,0.0,0.0
414,0.0,0.0,0.0,0.3600517578125,0.0,0.0,0.0,0.0,0.0,0.0,0.59,0.0,0.0,0.0,0.0,0.0,-1.61,0.5595879912396361,0.0,0.0,0.0,0.0,0.0,0.0,0.64,0.0,0.0,0.0
415,0.0,0.0,0.0,0.36598828125,0.0,0.0,0.0,0.0,0.0,0.0,0.589,0.0,0.0,0.0,0.0,0.0,-1.61,0.5551632649855178,0.0,0.0,0.0,0.0,0.0,0.0,0.568,0.0,0.0,0.0
416,0.0,0.0,0.0,0.371791015625,0.0,0.0,0.0,0.0,0.0,0.0,0.592,0.0,0.0,0.0,0.0,0.0,-1.61,0.5505630078506254,0.0,0.0,0.0,0.0,0.0,0.0,0.728,0.0,0.0,0.0
417,0.0,0.0,0.0,0.377583984375,0.0,0.0,0.0,0.0,0.0,0.0,0.583,0.0,0.0,0.0,0.0,0.0,-1.61,0.5456578418966191,0.0,0.0,0.0,0.0,0.0,0.0,0.408,0.0,0.0,0.0
418,0.0,0.0,0.0,0.383376953125,0.0,0.0,0.0,0.0,0.0,0.0,0.582,0.0,0.0,0.0,0.0,0.0,-1.61,0.5404675955646162,0.0,0.0,0.0,0.0,0.0,0.0,0.616,0.0,0.0,0.0
419,0.0,0.0,0.0,0.3890166015625,0.0,0.0,0.0,0.0,0.0,0.0,0.577,0.0,0.0,0.0,0.0,0.0,-1.61,0.5352808217214008,0.0,0.0,0.0,0.0,0.0,0.0,0.456,0.0,0.0,0.0
420,0.0,0.0,0.0,0.394818359375,0.0,0.0,0.0,0.0,0.0,0.0,0.573,0.0,0.0,0.0,0.0,0.0,-1.61,0.5297426925307956,0.0,0.0,0.0,0.0,0.0,0.0,0.296,0.0,0.0,0.0
421,0.0,0.0,0.0,0.400755859375,0.0,0.0,0.0,0.0,0.0,0.0,0.586,0.0,0.0,0.0,0.0,0.0,-1.61,0.5239733673907718,0.0,0.0,0.0,0.0,0.0,0.0,0.088,0.0,0.0,0.0
422,0.0,0.0,0.0,0.406693359375,0.0,0.0,0.0,0.0,0.0,0.0,0.598,0.0,0.0,0.0,0.0,0.0,-1.61,0.51800247301735,0.0,0.0,0.0,0.0,0.0,0.0,-0.18,0.0,0.0,0.0
423,0.0,0.0,0.0,0.4126396484375,0.0,0.0,0.0,0.0,0.0,0.0,0.6,0.0,0.0,0.0,0.0,0.0,-1.61,0.5117749281692231,0.0,0.0,0.0,0.0,0.0,0.0,0.068,0.0,0.0,0.0
424,0.0,0.0,0.0,0.4185771484375,0.0,0.0,0.0,0.0,0.0,0.0,0.601,0.0,0.0,0.0,0.0,0.0,-1.61,0.505468758677475,0.0,0.0,0.0,0.0,0.0,0.0,0.296,0.0,0.0,0.0
425,0.0,0.0,0.0,0.4243701171875,0.0,0.0,0.0,0.0,0.0,0.0,0.587,0.0,0.0,0.0,0.0,0.0,-1.61,0.49894997112022643,0.0,0.0,0.0,0.0,0.0,0.0,0.708,0.0,0.0,0.0
426,0.0,0.0,0.0,0.4303076171875,0.0,0.0,0.0,0.0,0.0,0.0,0.589,0.0,0.0,0.0,0.0,0.0,-1.61,0.49219892428799084,0.0,0.0,0.0,0.0,0.0,0.0,0.548,0.0,0.0,0.0
427,0.0,0.0,0.0,0.4361005859375,0.0,0.0,0.0,0.0,0.0,0.0,0.592,0.0,0.0,0.0,0.0,0.0,-1.61,0.4849995618906052,0.0,0.0,0.0,0.0,0.0,0.0,0.48,0.0,0.0,0.0
428,0.0,0.0,0.0,0.4420380859375,0.0,0.0,0.0,0.0,0.0,0.0,0.593,0.0,0.0,0.0,0.0,0.0,-1.61,0.47806905168752556,0.0,0.0,0.0,0.0,0.0,0.0,0.548,0.0,0.0,0.0
429,0.0,0.0,0.0,0.4478310546875,0.0,0.0,0.0,0.0,0.0,0.0,0.586,0.0,0.0,0.0,0.0,0.0,-1.61,0.4707019679689213,0.0,0.0,0.0,0.0,0.0,0.0,0.616,0.0,0.0,0.0
430,0.0,0.0,0.0,0.4534794921875,0.0,0.0,0.0,0.0,0.0,0.0,0.572,0.0,0.0,0.0,0.0,0.0,-1.61,0.46313773715218964,0.0,0.0,0.0,0.0,0.0,0.0,0.34,0.0,0.0,0.0
431,0.0,0.0,0.0,0.459263671875,0.0,0.0,0.0,0.0,0.0,0.0,0.579,0.0,0.0,0.0,0.0,0.0,-1.61,0.4554971048542288,0.0,0.0,0.0,0.0,0.0,0.0,0.044,0.0,0.0,0.0
432,0.0,0.0,0.0,0.465201171875,0.0,0.0,0.0,0.0,0.0,0.0,0.59,0.0,0.0,0.0,0.0,0.0,-1.61,0.44757265887277514,0.0,0.0,0.0,0.0,0.0,0.0,-0.16,0.0,0.0,0.0
433,0.0,0.0,0.0,0.47013671875,0.0,0.0,0.0,0.0,0.0,0.0,0.564,0.0,0.0,0.0,0.0,0.0,-1.61,0.4394237421114524,0.0,0.0,0.0,0.0,0.0,0.0,-2.652,0.0,0.0,0.0
434,0.0,0.0,0.0,0.472302734375,0.0,0.0,0.0,0.0,0.0,0.0,0.388,0.0,0.0,0.0,0.0,0.0,-1.61,0.43111144721902817,0.0,0.0,0.0,0.0,0.0,0.0,-8.208,0.0,0.0,0.0
435,0.0,0.0,0.0,0.472447265625,0.0,0.0,0.0,0.0,0.0,0.0,0.129,0.0,0.0,0.0,0.0,0.0,-1.61,0.4227775679035598,0.0,0.0,0.0,0.0,0.0,0.0,-10.428,0.0,0.0,0.0
436,0.0,0.0,0.0,0.4711474609375,0.0,0.0,0.0,0.0,0.0,0.0,-0.031,0.0,0.0,0.0,0.0,0.0,-1.61,0.4140927695010775,0.0,0.0,0.0,0.0,0.0,0.0,-11.044,0.0,0.0,0.0
437,0.0,0.0,0.0,0.467529296875,0.0,0.0,0.0,0.0,0.0,0.0,-0.235,0.0,0.0,0.0,0.0,0.0,-1.61,0.4054440819244584,0.0,0.0,0.0,0.0,0.0,0.0,-8.964,0.0,0.0,0.0
438,0.0,0.0,0.0,0.46259375,0.0,0.0,0.0,0.0,0.0,0.0,-0.418,0.0,0.0,0.0,0.0,0.0,-1.61,0.3965170561223348,0.0,0.0,0.0,0.0,0.0,0.0,-6.88,0.0,0.0,0.0
439,0.0,0.0,0.0,0.4566650390625,0.0,0.0,0.0,0.0,0.0,0.0,-0.538,0.0,0.0,0.0,0.0,0.0,-1.61,0.38743598648893607,0.0,0.0,0.0,0.0,0.0,0.0,-4.96,0.0,0.0,0.0
440,0.0,0.0,0.0,0.4504384765625,0.0,0.0,0.0,0.0,0.0,0.0,-0.61,0.0,0.0,0.0,0.0,0.0,-1.61,0.37797547816290755,0.0,0.0,0.0,0.0,0.0,0.0,-4.664,0.0,0.0,0.0
441,0.0,0.0,0.0,0.4434814453125,0.0,0.0,0.0,0.0,0.0,0.0,-0.65,0.0,0.0,0.0,0.0,0.0,-1.61,0.36882993337287734,0.0,0.0,0.0,0.0,0.0,0.0,-5.328,0.0,0.0,0.0
442,0.0,0.0,0.0,0.4355234375,0.0,0.0,0.0,0.0,0.0,0.0,-0.745,0.0,0.0,0.0,0.0,0.0,-1.61,0.3592851879239413,0.0,0.0,0.0,0.0,0.0,0.0,-6.972,0.0,0.0,0.0
443,0.0,0.0,0.0,0.4272578125,0.0,0.0,0.0,0.0,0.0,0.0,-0.822,0.0,0.0,0.0,0.0,0.0,-1.61,0.34945189202781435,0.0,0.0,0.0,0.0,0.0,0.0,-6.7,0.0,0.0,0.0
444,0.0,0.0,0.0,0.419587890625,0.0,0.0,0.0,0.0,0.0,0.0,-0.815,0.0,0.0,0.0,0.0,0.0,-1.61,0.3397676185088827,0.0,0.0,0.0,0.0,0.0,0.0,-4.892,0.0,0.0,0.0
445,0.0,0.0,0.0,0.4117734375,0.0,0.0,0.0,0.0,0.0,0.0,-0.76,0.0,0.0,0.0,0.0,0.0,-1.61,0.329581016240225,0.0,0.0,0.0,0.0,0.0,0.0,-5.532,0.0,0.0,0.0
446,0.0,0.0,0.0,0.402353515625,0.0,0.0,0.0,0.0,0.0,0.0,-0.861,0.0,0.0,0.0,0.0,0.0,-1.61,0.31966408671861735,0.0,0.0,0.0,0.0,0.0,0.0,-5.784,0.0,0.0,0.0
447,0.0,0.0,0.0,0.3940966796875,0.0,0.0,0.0,0.0,0.0,0.0,-0.911,0.0,0.0,0.0,0.0,0.0,-1.61,0.30943962018675975,0.0,0.0,0.0,0.0,0.0,0.0,-3.268,0.0,0.0,0.0
448,0.0,0.0,0.0,0.3865625,0.0,0.0,0.0,0.0,0.0,0.0,-0.793,0.0,0.0,0.0,0.0,0.0,-1.61,0.2991150443364585,0.0,0.0,0.0,0.0,0.0,0.0,-0.912,0.0,0.0,0.0
449,0.0,0.0,0.0,0.3784501953125,0.0,0.0,0.0,0.0,0.0,0.0,-0.772,0.0,0.0,0.0,0.0,0.0,-1.61,0.28851145009959317,0.0,0.0,0.0,0.0,0.0,0.0,-1.324,0.0,0.0,0.0
450,0.0,0.0,0.0,0.369751953125,0.0,0.0,0.0,0.0,0.0,0.0,-0.853,0.0,0.0,0.0,0.0,0.0,-1.61,0.27805834523174006,0.0,0.0,0.0,0.0,0.0,0.0,-2.124,0.0,0.0,0.0
451,0.0,0.0,0.0,0.3629482421875,0.0,0.0,0.0,0.0,0.0,0.0,-0.803,0.0,0.0,0.0,0.0,0.0,-1.61,0.267370880292597,0.0,0.0,0.0,0.0,0.0,0.0,-0.48,0.0,0.0,0.0
452,0.0,0.0,0.0,0.3565771484375,0.0,0.0,0.0,0.0,0.0,0.0,-0.655,0.0,0.0,0.0,0.0,0.0,-1.61,0.25650924705517975,0.0,0.0,0.0,0.0,0.0,0.0,-0.752,0.0,0.0,0.0
453,0.0,0.0,0.0,0.34846484375,0.0,0.0,0.0,0.0,0.0,0.0,-0.712,0.0,0.0,0.0,0.0,0.0,-1.61,0.24563251041577655,0.0,0.0,0.0,0.0,0.0,0.0,-1.896,0.0,0.0,0.0
454,0.0,0.0,0.0,0.3409306640625,0.0,0.0,0.0,0.0,0.0,0.0,-0.802,0.0,0.0,0.0,0.0,0.0,-1.61,0.23469873041224623,0.0,0.0,0.0,0.0,0.0,0.0,-1.28,0.0,0.0,0.0
455,0.0,0.0,0.0,0.3349931640625,0.0,0.0,0.0,0.0,0.0,0.0,-0.691,0.0,0.0,0.0,0.0,0.0,-1.61,0.22354523613785185,0.0,0.0,0.0,0.0,0.0,0.0,0.752,0.0,0.0,0.0
456,0.0,0.0,0.0,0.32861328125,0.0,0.0,0.0,0.0,0.0,0.0,-0.608,0.0,0.0,0.0,0.0,0.0,-1.61,0.21248513049786075,0.0,0.0,0.0,0.0,0.0,0.0,1.62,0.0,0.0,0.0
457,0.0,0.0,0.0,0.321521484375,0.0,0.0,0.0,0.0,0.0,0.0,-0.676,0.0,0.0,0.0,0.0,0.0,-1.61,0.20111489368722574,0.0,0.0,0.0,0.0,0.0,0.0,2.104,0.0,0.0,0.0
458,0.0,0.0,0.0,0.315150390625,0.0,0.0,0.0,0.0,0.0,0.0,-0.685,0.0,0.0,0.0,0.0,0.0,-1.61,0.18968305268529514,0.0,0.0,0.0,0.0,0.0,0.0,1.028,0.0,0.0,0.0
459,0.0,0.0,0.0,0.308771484375,0.0,0.0,0.0,0.0,0.0,0.0,-0.643,0.0,0.0,0.0,0.0,0.0,-1.61,0.17843206211569274,0.0,0.0,0.0,0.0,0.0,0.0,0.936,0.0,0.0,0.0
460,0.0,0.0,0.0,0.302833984375,0.0,0.0,0.0,0.0,0.0,0.0,-0.626,0.0,0.0,0.0,0.0,0.0,-1.61,0.16675923656735828,0.0,0.0,0.0,0.0,0.0,0.0,2.744,0.0,0.0,0.0
461,0.0,0.0,0.0,0.296462890625,0.0,0.0,0.0,0.0,0.0,0.0,-0.611,0.0,0.0,0.0,0.0,0.0,-1.61,0.15515883046109938,0.0,0.0,0.0,0.0,0.0,0.0,2.192,0.0,0.0,0.0
462,0.0,0.0,0.0,0.289505859375,0.0,0.0,0.0,0.0,0.0,0.0,-0.666,0.0,0.0,0.0,0.0,0.0,-1.61,0.1436976011958757,0.0,0.0,0.0,0.0,0.0,0.0,1.6,0.0,0.0,0.0
463,0.0,0.0,0.0,0.28255859375,0.0,0.0,0.0,0.0,0.0,0.0,-0.71,0.0,0.0,0.0,0.0,0.0,-1.61,0.13203758130563603,0.0,0.0,0.0,0.0,0.0,0.0,2.056,0.0,0.0,0.0
464,0.0,0.0,0.0,0.27662109375,0.0,0.0,0.0,0.0,0.0,0.0,-0.662,0.0,0.0,0.0,0.0,0.0,-1.61,0.12022008638994591,0.0,0.0,0.0,0.0,0.0,0.0,3.384,0.0,0.0,0.0
465,0.0,0.0,0.0,0.270962890625,0.0,0.0,0.0,0.0,0.0,0.0,-0.574,0.0,0.0,0.0,0.0,0.0,-1.61,0.1084652304649406,0.0,0.0,0.0,0.0,0.0,0.0,3.156,0.0,0.0,0.0
466,0.0,0.0,0.0,0.2643037109375,0.0,0.0,0.0,0.0,0.0,0.0,-0.622,0.0,0.0,0.0,0.0,0.0,-1.61,0.09661098288387213,0.0,0.0,0.0,0.0,0.0,0.0,3.04,0.0,0.0,0.0
467,0.0,0.0,0.0,0.2582216796875,0.0,0.0,0.0,0.0,0.0,0.0,-0.648,0.0,0.0,0.0,0.0,0.0,-1.61,0.08474451342094426,0.0,0.0,0.0,0.0,0.0,0.0,2.652,0.0,0.0,0.0
468,0.0,0.0,0.0,0.252275390625,0.0,0.0,0.0,0.0,0.0,0.0,-0.598,0.0,0.0,0.0,0.0,0.0,-1.61,0.07297134552311452,0.0,0.0,0.0,0.0,0.0,0.0,1.872,0.0,0.0,0.0
469,0.0,0.0,0.0,0.246337890625,0.0,0.0,0.0,0.0,0.0,0.0,-0.603,0.0,0.0,0.0,0.0,0.0,-1.61,0.06100223422985897,0.0,0.0,0.0,0.0,0.0,0.0,2.924,0.0,0.0,0.0
470,0.0,0.0,0.0,0.240400390625,0.0,0.0,0.0,0.0,0.0,0.0,-0.595,0.0,0.0,0.0,0.0,0.0,-1.61,0.04901481428340903,0.0,0.0,0.0,0.0,0.0,0.0,3.544,0.0,0.0,0.0
471,0.0,0.0,0.0,0.2343095703125,0.0,0.0,0.0,0.0,0.0,0.0,-0.607,0.0,0.0,0.0,0.0,0.0,-1.61,0.037014802572534866,0.0,0.0,0.0,0.0,0.0,0.0,2.424,0.0,0.0,0.0
472,0.0,0.0,0.0,0.228228515625,0.0,0.0,0.0,0.0,0.0,0.0,-0.616,0.0,0.0,0.0,0.0,0.0,-1.61,0.02503935618871672,0.0,0.0,0.0,0.0,0.0,0.0,1.692,0.0,0.0,0.0
473,0.0,0.0,0.0,0.222435546875,0.0,0.0,0.0,0.0,0.0,0.0,-0.603,0.0,0.0,0.0,0.0,0.0,-1.61,0.012994126968960937,0.0,0.0,0.0,0.0,0.0,0.0,1.804,0.0,0.0,0.0
474,0.0,0.0,0.0,0.2170751953125,0.0,0.0,0.0,0.0,0.0,0.0,-0.557,0.0,0.0,0.0,0.0,0.0,-1.61,0.0011582319679841872,0.0,0.0,0.0,0.0,0.0,0.0,2.012,0.0,0.0,0.0
475,0.0,0.0,0.0,0.211859375,0.0,0.0,0.0,0.0,0.0,0.0,-0.538,0.0,0.0,0.0,0.0,0.0,-1.61,-0.010906958607611048,0.0,0.0,0.0,0.0,0.0,0.0,1.736,0.0,0.0,0.0
476,0.0,0.0,0.0,0.2065,0.0,0.0,0.0,0.0,0.0,0.0,-0.533,0.0,0.0,0.0,0.0,0.0,-1.61,-0.022878253938030085,0.0,0.0,0.0,0.0,0.0,0.0,0.18,0.0,0.0,0.0
477,0.0,0.0,0.0,0.2012841796875,0.0,0.0,0.0,0.0,0.0,0.0,-0.53,0.0,0.0,0.0,0.0,0.0,-1.61,-0.03518745634980081,0.0,0.0,0.0,0.0,0.0,0.0,-0.432,0.0,0.0,0.0
478,0.0,0.0,0.0,0.1957802734375,0.0,0.0,0.0,0.0,0.0,0.0,-0.539,0.0,0.0,0.0,0.0,0.0,-1.61,-0.04682752574246341,0.0,0.0,0.0,0.0,0.0,0.0,0.5,0.0,0.0,0.0
479,0.0,0.0,0.0,0.190564453125,0.0,0.0,0.0,0.0,0.0,0.0,-0.543,0.0,0.0,0.0,0.0,0.0,-1.61,-0.05874629689398238,0.0,0.0,0.0,0.0,0.0,0.0,1.212,0.0,0.0,0.0
480,0.0,0.0,0.0,0.1854931640625,0.0,0.0,0.0,0.0,0.0,0.0,-0.523,0.0,0.0,0.0,0.0,0.0,-1.61,-0.07073801891985752,0.0,0.0,0.0,0.0,0.0,0.0,0.844,0.0,0.0,0.0
481,0.0,0.0,0.0,0.1801337890625,0.0,0.0,0.0,0.0,0.0,0.0,-0.521,0.0,0.0,0.0,0.0,0.0,-1.61,-0.0825002367470614,0.0,0.0,0.0,0.0,0.0,0.0,0.432,0.0,0.0,0.0
482,0.0,0.0,0.0,0.1746201171875,0.0,0.0,0.0,0.0,0.0,0.0,-0.541,0.0,0.0,0.0,0.0,0.0,-1.61,-0.09444354429029865,0.0,0.0,0.0,0.0,0.0,0.0,-0.32,0.0,0.0,0.0
483,0.0,0.0,0.0,0.1694130859375,0.0,0.0,0.0,0.0,0.0,0.0,-0.544,0.0,0.0,0.0,0.0,0.0,-1.61,-0.10653668357400431,0.0,0.0,0.0,0.0,0.0,0.0,-0.684,0.0,0.0,0.0
484,0.0,0.0,0.0,0.1639091796875,0.0,0.0,0.0,0.0,0.0,0.0,-0.538,0.0,0.0,0.0,0.0,0.0,-1.61,-0.11805910701515904,0.0,0.0,0.0,0.0,0.0,0.0,-0.364,0.0,0.0,0.0
485,0.0,0.0,0.0,0.158837890625,0.0,0.0,0.0,0.0,0.0,0.0,-0.536,0.0,0.0,0.0,0.0,0.0,-1.61,-0.12980234280349756,0.0,0.0,0.0,0.0,0.0,0.0,-0.456,0.0,0.0,0.0
486,0.0,0.0,0.0,0.1537666015625,0.0,0.0,0.0,0.0,0.0,0.0,-0.514,0.0,0.0,0.0,0.0,0.0,-1.61,-0.14154646538416574,0.0,0.0,0.0,0.0,0.0,0.0,-1.212,0.0,0.0,0.0
487,0.0,0.0,0.0,0.1484072265625,0.0,0.0,0.0,0.0,0.0,0.0,-0.518,0.0,0.0,0.0,0.0,0.0,-1.61,-0.153167047065792,0.0,0.0,0.0,0.0,0.0,0.0,-1.6,0.0,0.0,0.0
488,0.0,0.0,0.0,0.143046875,0.0,0.0,0.0,0.0,0.0,0.0,-0.538,0.0,0.0,0.0,0.0,0.0,-1.61,-0.1647760056717866,0.0,0.0,0.0,0.0,0.0,0.0,-1.736,0.0,0.0,0.0
489,0.0,0.0,0.0,0.13754296875,0.0,0.0,0.0,0.0,0.0,0.0,-0.551,0.0,0.0,0.0,0.0,0.0,-1.61,-0.1777909484198448,0.0,0.0,0.0,0.0,0.0,0.0,-1.072,0.0,0.0,0.0
490,0.0,0.0,0.0,0.1321826171875,0.0,0.0,0.0,0.0,0.0,0.0,-0.55,0.0,0.0,0.0,0.0,0.0,-1.61,-0.1877106299780191,0.0,0.0,0.0,0.0,0.0,0.0,-0.524,0.0,0.0,0.0
491,0.0,0.0,0.0,0.1266787109375,0.0,0.0,0.0,0.0,0.0,0.0,-0.547,0.0,0.0,0.0,0.0,0.0,-1.61,-0.1990529413384794,0.0,0.0,0.0,0.0,0.0,0.0,-1.028,0.0,0.0,0.0
492,0.0,0.0,0.0,0.1210302734375,0.0,0.0,0.0,0.0,0.0,0.0,-0.557,0.0,0.0,0.0,0.0,0.0,-1.61,-0.21048574395251002,0.0,0.0,0.0,0.0,0.0,0.0,-1.12,0.0,0.0,0.0
493,0.0,0.0,0.0,0.1152275390625,0.0,0.0,0.0,0.0,0.0,0.0,-0.573,0.0,0.0,0.0,0.0,0.0,-1.61,-0.22151620578388276,0.0,0.0,0.0,0.0,0.0,0.0,-1.576,0.0,0.0,0.0
494,0.0,0.0,0.0,0.1092900390625,0.0,0.0,0.0,0.0,0.0,0.0,-0.586,0.0,0.0,0.0,0.0,0.0,-1.61,-0.23270434061335116,0.0,0.0,0.0,0.0,0.0,0.0,-1.28,0.0,0.0,0.0
495,0.0,0.0,0.0,0.103353515625,0.0,0.0,0.0,0.0,0.0,0.0,-0.604,0.0,0.0,0.0,0.0,0.0,-1.61,-0.24418905055844434,0.0,0.0,0.0,0.0,0.0,0.0,-0.64,0.0,0.0,0.0
496,0.0,0.0,0.0,0.0975693359375,0.0,0.0,0.0,0.0,0.0,0.0,-0.589,0.0,0.0,0.0,0.0,0.0,-1.61,-0.2545238714805,0.0,0.0,0.0,0.0,0.0,0.0,-0.96,0.0,0.0,0.0
497,0.0,0.0,0.0,0.0919111328125,0.0,0.0,0.0,0.0,0.0,0.0,-0.573,0.0,0.0,0.0,0.0,0.0,-1.61,-0.265387517114117,0.0,0.0,0.0,0.0,0.0,0.0,-1.324,0.0,0.0,0.0
498,0.0,0.0,0.0,0.0861181640625,0.0,0.0,0.0,0.0,0.0,0.0,-0.579,0.0,0.0,0.0,0.0,0.0,-1.61,-0.2761110321629511,0.0,0.0,0.0,0.0,0.0,0.0,-1.372,0.0,0.0,0.0
499,0.0,0.0,0.0,0.0801806640625,0.0,0.0,0.0,0.0,0.0,0.0,-0.587,0.0,0.0,0.0,0.0,0.0,-1.61,-0.2867320893180873,0.0,0.0,0.0,0.0,0.0,0.0,-1.3,0.0,0.0,0.0
500,0.0,0.0,0.0,0.07408984375,0.0,0.0,0.0,0.0,0.0,0.0,-0.609,0.0,0.0,0.0,0.0,0.0,-1.61,-0.2971546934776169,0.0,0.0,0.0,0.0,0.0,0.0,-0.432,0.0,0.0,0.0
501,0.0,0.0,0.0,0.0680087890625,0.0,0.0,0.0,0.0,0.0,0.0,-0.615,0.0,0.0,0.0,0.0,0.0,-1.61,-0.3075401480077762,0.0,0.0,0.0,0.0,0.0,0.0,-0.044,0.0,0.0,0.0
502,0.0,0.0,0.0,0.0619267578125,0.0,0.0,0.0,0.0,0.0,0.0,-0.609,0.0,0.0,0.0,0.0,0.0,-1.61,-0.31788945522767664,0.0,0.0,0.0,0.0,0.0,0.0,-0.16,0.0,0.0,0.0
503,0.0,0.0,0.0,0.0557001953125,0.0,0.0,0.0,0.0,0.0,0.0,-0.623,0.0,0.0,0.0,0.0,0.0,-1.61,-0.3279462442569026,0.0,0.0,0.0,0.0,0.0,0.0,0.296,0.0,0.0,0.0
504,0.0,0.0,0.0,0.0493212890625,0.0,0.0,0.0,0.0,0.0,0.0,-0.63,0.0,0.0,0.0,0.0,0.0,-1.61,-0.3378794722242812,0.0,0.0,0.0,0.0,0.0,0.0,0.296,0.0,0.0,0.0
505,0.0,0.0,0.0,0.0430947265625,0.0,0.0,0.0,0.0,0.0,0.0,-0.633,0.0,0.0,0.0,0.0,0.0,-1.61,-0.34769428584638157,0.0,0.0,0.0,0.0,0.0,0.0,0.296,0.0,0.0,0.0
506,0.0,0.0,0.0,0.0368681640625,0.0,0.0,0.0,0.0,0.0,0.0,-0.632,0.0,0.0,0.0,0.0,0.0,-1.61,-0.357385681416781,0.0,0.0,0.0,0.0,0.0,0.0,0.088,0.0,0.0,0.0
507,0.0,0.0,0.0,0.03077734375,0.0,0.0,0.0,0.0,0.0,0.0,-0.624,0.0,0.0,0.0,0.0,0.0,-1.61,-0.36702746797601277,0.0,0.0,0.0,0.0,0.0,0.0,0.044,0.0,0.0,0.0
508,0.0,0.0,0.0,0.02483984375,0.0,0.0,0.0,0.0,0.0,0.0,-0.603,0.0,0.0,0.0,0.0,0.0,-1.61,-0.3765080936113514,0.0,0.0,0.0,0.0,0.0,0.0,-0.34,0.0,0.0,0.0
509,0.0,0.0,0.0,0.0186142578125,0.0,0.0,0.0,0.0,0.0,0.0,-0.611,0.0,0.0,0.0,0.0,0.0,-1.61,-0.3856439398163815,0.0,0.0,0.0,0.0,0.0,0.0,-0.32,0.0,0.0,0.0
510,0.0,0.0,0.0,0.0125322265625,0.0,0.0,0.0,0.0,0.0,0.0,-0.616,0.0,0.0,0.0,0.0,0.0,-1.61,-0.3948921257908725,0.0,0.0,0.0,0.0,0.0,0.0,0.296,0.0,0.0,0.0
511,0.0,0.0,0.0,0.0065859375,0.0,0.0,0.0,0.0,0.0,0.0,-0.607,0.0,0.0,0.0,0.0,0.0,-1.61,-0.4036971015421402,0.0,0.0,0.0,0.0,0.0,0.0,0.82,0.0,0.0,0.0
512,0.0,0.0,0.0,0.00050390625,0.0,0.0,0.0,0.0,0.0,0.0,-0.608,0.0,0.0,0.0,0.0,0.0,-1.61,-0.41253344365323164,0.0,0.0,0.0,0.0,0.0,0.0,0.456,0.0,0.0,0.0
513,0.0,0.0,0.0,-0.005576171875,0.0,0.0,0.0,0.0,0.0,0.0,-0.611,0.0,0.0,0.0,0.0,0.0,-1.61,-0.4211826765652054,0.0,0.0,0.0,0.0,0.0,0.0,0.912,0.0,0.0,0.0
514,0.0,0.0,0.0,-0.0116669921875,0.0,0.0,0.0,0.0,0.0,0.0,-0.611,0.0,0.0,0.0,0.0,0.0,-1.61,-0.4296317482343971,0.0,0.0,0.0,0.0,0.0,0.0,0.48,0.0,0.0,0.0
515,0.0,0.0,0.0,-0.0177490234375,0.0,0.0,0.0,0.0,0.0,0.0,-0.618,0.0,0.0,0.0,0.0,0.0,-1.61,-0.4379464522939881,0.0,0.0,0.0,0.0,0.0,0.0,0.708,0.0,0.0,0.0
516,0.0,0.0,0.0,-0.023677734375,0.0,0.0,0.0,0.0,0.0,0.0,-0.609,0.0,0.0,0.0,0.0,0.0,-1.61,-0.44602063569470085,0.0,0.0,0.0,0.0,0.0,0.0,0.616,0.0,0.0,0.0
517,0.0,0.0,0.0,-0.029615234375,0.0,0.0,0.0,0.0,0.0,0.0,-0.591,0.0,0.0,0.0,0.0,0.0,-1.61,-0.45405494087437065,0.0,0.0,0.0,0.0,0.0,0.0,0.044,0.0,0.0,0.0
518,0.0,0.0,0.0,-0.0354169921875,0.0,0.0,0.0,0.0,0.0,0.0,-0.595,0.0,0.0,0.0,0.0,0.0,-1.61,-0.46173286041793127,0.0,0.0,0.0,0.0,0.0,0.0,0.204,0.0,0.0,0.0
519,0.0,0.0,0.0,-0.0412099609375,0.0,0.0,0.0,0.0,0.0,0.0,-0.584,0.0,0.0,0.0,0.0,0.0,-1.61,-0.4692699888617675,0.0,0.0,0.0,0.0,0.0,0.0,0.068,0.0,0.0,0.0
520,0.0,0.0,0.0,-0.0471474609375,0.0,0.0,0.0,0.0,0.0,0.0,-0.585,0.0,0.0,0.0,0.0,0.0,-1.61,-0.4767079489277882,0.0,0.0,0.0,0.0,0.0,0.0,0.228,0.0,0.0,0.0
521,0.0,0.0,0.0,-0.0528056640625,0.0,0.0,0.0,0.0,0.0,0.0,-0.589,0.0,0.0,0.0,0.0,0.0,-1.61,-0.48389755739177515,0.0,0.0,0.0,0.0,0.0,0.0,1.004,0.0,0.0,0.0
522,0.0,0.0,0.0,-0.0584541015625,0.0,0.0,0.0,0.0,0.0,0.0,-0.565,0.0,0.0,0.0,0.0,0.0,-1.61,-0.49092083895677585,0.0,0.0,0.0,0.0,0.0,0.0,0.408,0.0,0.0,0.0
523,0.0,0.0,0.0,-0.0643916015625,0.0,0.0,0.0,0.0,0.0,0.0,-0.583,0.0,0.0,0.0,0.0,0.0,-1.61,-0.4977635488960361,0.0,0.0,0.0,0.0,0.0,0.0,0.364,0.0,0.0,0.0
524,0.0,0.0,0.0,-0.0701845703125,0.0,0.0,0.0,0.0,0.0,0.0,-0.592,0.0,0.0,0.0,0.0,0.0,-1.61,-0.5042805056781562,0.0,0.0,0.0,0.0,0.0,0.0,0.592,0.0,0.0,0.0
525,0.0,0.0,0.0,-0.0761220703125,0.0,0.0,0.0,0.0,0.0,0.0,-0.585,0.0,0.0,0.0,0.0,0.0,-1.61,-0.5106437056882795,0.0,0.0,0.0,0.0,0.0,0.0,0.136,0.0,0.0,0.0
526,0.0,0.0,0.0,-0.0820595703125,0.0,0.0,0.0,0.0,0.0,0.0,-0.602,0.0,0.0,0.0,0.0,0.0,-1.61,-0.516924683368905,0.0,0.0,0.0,0.0,0.0,0.0,0.228,0.0,0.0,0.0
527,0.0,0.0,0.0,-0.0877080078125,0.0,0.0,0.0,0.0,0.0,0.0,-0.59,0.0,0.0,0.0,0.0,0.0,-1.61,-0.5228718922670382,0.0,0.0,0.0,0.0,0.0,0.0,-0.136,0.0,0.0,0.0
528,0.0,0.0,0.0,-0.0933564453125,0.0,0.0,0.0,0.0,0.0,0.0,-0.569,0.0,0.0,0.0,0.0,0.0,-1.61,-0.5286215434046899,0.0,0.0,0.0,0.0,0.0,0.0,-0.64,0.0,0.0,0.0
529,0.0,0.0,0.0,-0.099158203125,0.0,0.0,0.0,0.0,0.0,0.0,-0.573,0.0,0.0,0.0,0.0,0.0,-1.61,-0.5342585851233236,0.0,0.0,0.0,0.0,0.0,0.0,-0.248,0.0,0.0,0.0
530,0.0,0.0,0.0,-0.1046630859375,0.0,0.0,0.0,0.0,0.0,0.0,-0.569,0.0,0.0,0.0,0.0,0.0,-1.61,-0.5395923963909532,0.0,0.0,0.0,0.0,0.0,0.0,-0.752,0.0,0.0,0.0
531,0.0,0.0,0.0,-0.110302734375,0.0,0.0,0.0,0.0,0.0,0.0,-0.56,0.0,0.0,0.0,0.0,0.0,-1.61,-0.5447175705054546,0.0,0.0,0.0,0.0,0.0,0.0,-0.548,0.0,0.0,0.0
532,0.0,0.0,0.0,-0.115951171875,0.0,0.0,0.0,0.0,0.0,0.0,-0.571,0.0,0.0,0.0,0.0,0.0,-1.61,-0.5496520093069667,0.0,0.0,0.0,0.0,0.0,0.0,0.32,0.0,0.0,0.0
533,0.0,0.0,0.0,-0.1217529296875,0.0,0.0,0.0,0.0,0.0,0.0,-0.569,0.0,0.0,0.0,0.0,0.0,-1.61,-0.5543410419541129,0.0,0.0,0.0,0.0,0.0,0.0,-0.136,0.0,0.0,0.0
534,0.0,0.0,0.0,-0.1276904296875,0.0,0.0,0.0,0.0,0.0,0.0,-0.588,0.0,0.0,0.0,0.0,0.0,-1.61,-0.5588110081000262,0.0,0.0,0.0,0.0,0.0,0.0,0.044,0.0,0.0,0.0
535,0.0,0.0,0.0,-0.1334833984375,0.0,0.0,0.0,0.0,0.0,0.0,-0.596,0.0,0.0,0.0,0.0,0.0,-1.61,-0.5631101974720291,0.0,0.0,0.0,0.0,0.0,0.0,0.136,0.0,0.0,0.0
536,0.0,0.0,0.0,-0.1392763671875,0.0,0.0,0.0,0.0,0.0,0.0,-0.583,0.0,0.0,0.0,0.0,0.0,-1.61,-0.5670868468141036,0.0,0.0,0.0,0.0,0.0,0.0,-0.272,0.0,0.0,0.0
537,0.0,0.0,0.0,-0.1453671875,0.0,0.0,0.0,0.0,0.0,0.0,-0.6,0.0,0.0,0.0,0.0,0.0,-1.61,-0.5709210649868586,0.0,0.0,0.0,0.0,0.0,0.0,-0.044,0.0,0.0,0.0
538,0.0,0.0,0.0,-0.15116015625,0.0,0.0,0.0,0.0,0.0,0.0,-0.598,0.0,0.0,0.0,0.0,0.0,-1.61,-0.5744998402168685,0.0,0.0,0.0,0.0,0.0,0.0,-0.34,0.0,0.0,0.0
539,0.0,0.0,0.0,-0.1569443359375,0.0,0.0,0.0,0.0,0.0,0.0,-0.583,0.0,0.0,0.0,0.0,0.0,-1.61,-0.5778291251389549,0.0,0.0,0.0,0.0,0.0,0.0,-0.548,0.0,0.0,0.0
540,0.0,0.0,0.0,-0.1627373046875,0.0,0.0,0.0,0.0,0.0,0.0,-0.583,0.0,0.0,0.0,0.0,0.0,-1.61,-0.5809843148991817,0.0,0.0,0.0,0.0,0.0,0.0,-0.456,0.0,0.0,0.0
541,0.0,0.0,0.0,-0.1685400390625,0.0,0.0,0.0,0.0,0.0,0.0,-0.583,0.0,0.0,0.0,0.0,0.0,-1.61,-0.5838329560264673,0.0,0.0,0.0,0.0,0.0,0.0,-0.844,0.0,0.0,0.0
542,0.0,0.0,0.0,-0.1743330078125,0.0,0.0,0.0,0.0,0.0,0.0,-0.585,0.0,0.0,0.0,0.0,0.0,-1.61,-0.5864765463340759,0.0,0.0,0.0,0.0,0.0,0.0,-0.088,0.0,0.0,0.0
543,0.0,0.0,0.0,-0.1801259765625,0.0,0.0,0.0,0.0,0.0,0.0,-0.583,0.0,0.0,0.0,0.0,0.0,-1.61,-0.5889111045641925,0.0,0.0,0.0,0.0,0.0,0.0,0.408,0.0,0.0,0.0
544,0.0,0.0,0.0,-0.18620703125,0.0,0.0,0.0,0.0,0.0,0.0,-0.593,0.0,0.0,0.0,0.0,0.0,-1.61,-0.5910677538637457,0.0,0.0,0.0,0.0,0.0,0.0,0.088,0.0,0.0,0.0
545,0.0,0.0,0.0,-0.19214453125,0.0,0.0,0.0,0.0,0.0,0.0,-0.608,0.0,0.0,0.0,0.0,0.0,-1.61,-0.5930232304245796,0.0,0.0,0.0,0.0,0.0,0.0,0.228,0.0,0.0,0.0
546,0.0,0.0,0.0,-0.19808203125,0.0,0.0,0.0,0.0,0.0,0.0,-0.597,0.0,0.0,0.0,0.0,0.0,-1.61,-0.5947342723393398,0.0,0.0,0.0,0.0,0.0,0.0,-0.02,0.0,0.0,0.0
547,0.0,0.0,0.0,-0.2041640625,0.0,0.0,0.0,0.0,0.0,0.0,-0.601,0.0,0.0,0.0,0.0,0.0,-1.61,-0.5961954799286207,0.0,0.0,0.0,0.0,0.0,0.0,-0.16,0.0,0.0,0.0
548,0.0,0.0,0.0,-0.2101015625,0.0,0.0,0.0,0.0,0.0,0.0,-0.61,0.0,0.0,0.0,0.0,0.0,-1.61,-0.5974267978503898,0.0,0.0,0.0,0.0,0.0,0.0,0.16,0.0,0.0,0.0
549,0.0,0.0,0.0,-0.2159033203125,0.0,0.0,0.0,0.0,0.0,0.0,-0.594,0.0,0.0,0.0,0.0,0.0,-1.61,-0.5984143832935445,0.0,0.0,0.0,0.0,0.0,0.0,-0.616,0.0,0.0,0.0
550,0.0,0.0,0.0,-0.2218408203125,0.0,0.0,0.0,0.0,0.0,0.0,-0.593,0.0,0.0,0.0,0.0,0.0,-1.61,-0.5991781347705863,0.0,0.0,0.0,0.0,0.0,0.0,-0.5,0.0,0.0,0.0
551,0.0,0.0,0.0,-0.2276337890625,0.0,0.0,0.0,0.0,0.0,0.0,-0.593,0.0,0.0,0.0,0.0,0.0,-1.61,-0.5996766255624232,0.0,0.0,0.0,0.0,0.0,0.0,-0.548,0.0,0.0,0.0
552,0.0,0.0,0.0,-0.23341796875,0.0,0.0,0.0,0.0,0.0,0.0,-0.578,0.0,0.0,0.0,0.0,0.0,-1.61,-0.5999520770854128,0.0,0.0,0.0,0.0,0.0,0.0,-0.548,0.0,0.0,0.0
553,0.0,0.0,0.0,-0.2392197265625,0.0,0.0,0.0,0.0,0.0,0.0,-0.584,0.0,0.0,0.0,0.0,0.0,-1.61,-0.5999840426821912,0.0,0.0,0.0,0.0,0.0,0.0,0.34,0.0,0.0,0.0
554,0.0,0.0,0.0,-0.2451572265625,0.0,0.0,0.0,0.0,0.0,0.0,-0.59,0.0,0.0,0.0,0.0,0.0,-1.61,-0.5997728217995253,0.0,0.0,0.0,0.0,0.0,0.0,0.48,0.0,0.0,0.0
555,0.0,0.0,0.0,-0.2510947265625,0.0,0.0,0.0,0.0,0.0,0.0,-0.599,0.0,0.0,0.0,0.0,0.0,-1.61,-0.5993287928952447,0.0,0.0,0.0,0.0,0.0,0.0,0.044,0.0,0.0,0.0
556,0.0,0.0,0.0,-0.2570322265625,0.0,0.0,0.0,0.0,0.0,0.0,-0.603,0.0,0.0,0.0,0.0,0.0,-1.61,-0.5986394218512766,0.0,0.0,0.0,0.0,0.0,0.0,0.592,0.0,0.0,0.0
557,0.0,0.0,0.0,-0.2629697265625,0.0,0.0,0.0,0.0,0.0,0.0,-0.596,0.0,0.0,0.0,0.0,0.0,-1.61,-0.5976979291014587,0.0,0.0,0.0,0.0,0.0,0.0,-0.044,0.0,0.0,0.0
558,0.0,0.0,0.0,-0.2690517578125,0.0,0.0,0.0,0.0,0.0,0.0,-0.601,0.0,0.0,0.0,0.0,0.0,-1.61,-0.5965362725245152,0.0,0.0,0.0,0.0,0.0,0.0,-0.044,0.0,0.0,0.0
559,0.0,0.0,0.0,-0.2749892578125,0.0,0.0,0.0,0.0,0.0,0.0,-0.602,0.0,0.0,0.0,0.0,0.0,-1.61,-0.5951409211964058,0.0,0.0,0.0,0.0,0.0,0.0,0.068,0.0,0.0,0.0
560,0.0,0.0,0.0,-0.2807822265625,0.0,0.0,0.0,0.0,0.0,0.0,-0.593,0.0,0.0,0.0,0.0,0.0,-1.61,-0.5935015854969319,0.0,0.0,0.0,0.0,0.0,0.0,-0.408,0.0,0.0,0.0
561,0.0,0.0,0.0,-0.2865751953125,0.0,0.0,0.0,0.0,0.0,0.0,-0.586,0.0,0.0,0.0,0.0,0.0,-1.61,-0.5916192779183573,0.0,0.0,0.0,0.0,0.0,0.0,-0.388,0.0,0.0,0.0
562,0.0,0.0,0.0,-0.2922236328125,0.0,0.0,0.0,0.0,0.0,0.0,-0.573,0.0,0.0,0.0,0.0,0.0,-1.61,-0.5894784927833976,0.0,0.0,0.0,0.0,0.0,0.0,-0.568,0.0,0.0,0.0
563,0.0,0.0,0.0,-0.2980166015625,0.0,0.0,0.0,0.0,0.0,0.0,-0.579,0.0,0.0,0.0,0.0,0.0,-1.61,-0.5871282855296701,0.0,0.0,0.0,0.0,0.0,0.0,-0.524,0.0,0.0,0.0
564,0.0,0.0,0.0,-0.3038095703125,0.0,0.0,0.0,0.0,0.0,0.0,-0.584,0.0,0.0,0.0,0.0,0.0,-1.61,-0.5845512067628547,0.0,0.0,0.0,0.0,0.0,0.0,0.388,0.0,0.0,0.0
565,0.0,0.0,0.0,-0.3096025390625,0.0,0.0,0.0,0.0,0.0,0.0,-0.583,0.0,0.0,0.0,0.0,0.0,-1.61,-0.5817042003716886,0.0,0.0,0.0,0.0,0.0,0.0,0.044,0.0,0.0,0.0
566,0.0,0.0,0.0,-0.3156845703125,0.0,0.0,0.0,0.0,0.0,0.0,-0.593,0.0,0.0,0.0,0.0,0.0,-1.61,-0.5786894893177883,0.0,0.0,0.0,0.0,0.0,0.0,0.16,0.0,0.0,0.0
567,0.0,0.0,0.0,-0.3214775390625,0.0,0.0,0.0,0.0,0.0,0.0,-0.601,0.0,0.0,0.0,0.0,0.0,-1.61,-0.5753998297034064,0.0,0.0,0.0,0.0,0.0,0.0,0.136,0.0,0.0,0.0
568,0.0,0.0,0.0,-0.3274150390625,0.0,0.0,0.0,0.0,0.0,0.0,-0.594,0.0,0.0,0.0,0.0,0.0,-1.61,-0.5718622836015259,0.0,0.0,0.0,0.0,0.0,0.0,-0.204,0.0,0.0,0.0
569,0.0,0.0,0.0,-0.3333525390625,0.0,0.0,0.0,0.0,0.0,0.0,-0.598,0.0,0.0,0.0,0.0,0.0,-1.61,-0.5681137690959948,0.0,0.0,0.0,0.0,0.0,0.0,-0.088,0.0,0.0,0.0
570,0.0,0.0,0.0,-0.33913671875,0.0,0.0,0.0,0.0,0.0,0.0,-0.592,0.0,0.0,0.0,0.0,0.0,-1.61,-0.5641383847669091,0.0,0.0,0.0,0.0,0.0,0.0,-0.364,0.0,0.0,0.0
571,0.0,0.0,0.0,-0.3450830078125,0.0,0.0,0.0,0.0,0.0,0.0,-0.591,0.0,0.0,0.0,0.0,0.0,-1.61,-0.5599911671350981,0.0,0.0,0.0,0.0,0.0,0.0,-0.568,0.0,0.0,0.0
572,0.0,0.0,0.0,-0.3508759765625,0.0,0.0,0.0,0.0,0.0,0.0,-0.592,0.0,0.0,0.0,0.0,0.0,-1.61,-0.5554960761395893,0.0,0.0,0.0,0.0,0.0,0.0,-0.64,0.0,0.0,0.0
573,0.0,0.0,0.0,-0.3565244140625,0.0,0.0,0.0,0.0,0.0,0.0,-0.573,0.0,0.0,0.0,0.0,0.0,-1.61,-0.5501229094387664,0.0,0.0,0.0,0.0,0.0,0.0,-0.616,0.0,0.0,0.0
574,0.0,0.0,0.0,-0.36230859375,0.0,0.0,0.0,0.0,0.0,0.0,-0.578,0.0,0.0,0.0,0.0,0.0,-1.61,-0.5460376173430324,0.0,0.0,0.0,0.0,0.0,0.0,-0.248,0.0,0.0,0.0
575,0.0,0.0,0.0,-0.3681103515625,0.0,0.0,0.0,0.0,0.0,0.0,-0.583,0.0,0.0,0.0,0.0,0.0,-1.61,-0.5408948147862489,0.0,0.0,0.0,0.0,0.0,0.0,0.388,0.0,0.0,0.0
576,0.0,0.0,0.0,-0.3740478515625,0.0,0.0,0.0,0.0,0.0,0.0,-0.59,0.0,0.0,0.0,0.0,0.0,-1.61,-0.5356518308490856,0.0,0.0,0.0,0.0,0.0,0.0,-0.044,0.0,0.0,0.0
577,0.0,0.0,0.0,-0.38012109375,0.0,0.0,0.0,0.0,0.0,0.0,-0.601,0.0,0.0,0.0,0.0,0.0,-1.61,-0.5301075603115007,0.0,0.0,0.0,0.0,0.0,0.0,0.112,0.0,0.0,0.0
578,0.0,0.0,0.0,-0.38605859375,0.0,0.0,0.0,0.0,0.0,0.0,-0.605,0.0,0.0,0.0,0.0,0.0,-1.61,-0.5243939641889795,0.0,0.0,0.0,0.0,0.0,0.0,-0.112,0.0,0.0,0.0
579,0.0,0.0,0.0,-0.3919951171875,0.0,0.0,0.0,0.0,0.0,0.0,-0.6,0.0,0.0,0.0,0.0,0.0,-1.61,-0.5184562831946374,0.0,0.0,0.0,0.0,0.0,0.0,-0.068,0.0,0.0,0.0
580,0.0,0.0,0.0,-0.3979423828125,0.0,0.0,0.0,0.0,0.0,0.0,-0.595,0.0,0.0,0.0,0.0,0.0,-1.61,-0.5123105027455996,0.0,0.0,0.0,0.0,0.0,0.0,-0.044,0.0,0.0,0.0
581,0.0,0.0,0.0,-0.4037255859375,0.0,0.0,0.0,0.0,0.0,0.0,-0.594,0.0,0.0,0.0,0.0,0.0,-1.61,-0.5059868562492191,0.0,0.0,0.0,0.0,0.0,0.0,-0.592,0.0,0.0,0.0
582,0.0,0.0,0.0,-0.4096630859375,0.0,0.0,0.0,0.0,0.0,0.0,-0.585,0.0,0.0,0.0,0.0,0.0,-1.61,-0.49940433189995886,0.0,0.0,0.0,0.0,0.0,0.0,-0.616,0.0,0.0,0.0
583,0.0,0.0,0.0,-0.4153125,0.0,0.0,0.0,0.0,0.0,0.0,-0.586,0.0,0.0,0.0,0.0,0.0,-1.61,-0.49266532408214697,0.0,0.0,0.0,0.0,0.0,0.0,-0.82,0.0,0.0,0.0
584,0.0,0.0,0.0,-0.421240234375,0.0,0.0,0.0,0.0,0.0,0.0,-0.584,0.0,0.0,0.0,0.0,0.0,-1.61,-0.4857667035077068,0.0,0.0,0.0,0.0,0.0,0.0,-0.524,0.0,0.0,0.0
585,0.0,0.0,0.0,-0.4268984375,0.0,0.0,0.0,0.0,0.0,0.0,-0.588,0.0,0.0,0.0,0.0,0.0,-1.61,-0.47865748493687477,0.0,0.0,0.0,0.0,0.0,0.0,0.364,0.0,0.0,0.0
586,0.0,0.0,0.0,-0.4328359375,0.0,0.0,0.0,0.0,0.0,0.0,-0.575,0.0,0.0,0.0,0.0,0.0,-1.61,-0.47129471482893764,0.0,0.0,0.0,0.0,0.0,0.0,0.248,0.0,0.0,0.0
587,0.0,0.0,0.0,-0.438908203125,0.0,0.0,0.0,0.0,0.0,0.0,-0.601,0.0,0.0,0.0,0.0,0.0,-1.61,-0.463749255057627,0.0,0.0,0.0,0.0,0.0,0.0,-0.068,0.0,0.0,0.0
588,0.0,0.0,0.0,-0.444845703125,0.0,0.0,0.0,0.0,0.0,0.0,-0.609,0.0,0.0,0.0,0.0,0.0,-1.61,-0.4559493834733911,0.0,0.0,0.0,0.0,0.0,0.0,0.088,0.0,0.0,0.0
589,0.0,0.0,0.0,-0.450638671875,0.0,0.0,0.0,0.0,0.0,0.0,-0.594,0.0,0.0,0.0,0.0,0.0,-1.61,-0.44819334913786796,0.0,0.0,0.0,0.0,0.0,0.0,-0.112,0.0,0.0,0.0
590,0.0,0.0,0.0,-0.456576171875,0.0,0.0,0.0,0.0,0.0,0.0,-0.594,0.0,0.0,0.0,0.0,0.0,-1.61,-0.4397785782666511,0.0,0.0,0.0,0.0,0.0,0.0,-0.044,0.0,0.0,0.0
591,0.0,0.0,0.0,-0.4613583984375,0.0,0.0,0.0,0.0,0.0,0.0,-0.555,0.0,0.0,0.0,0.0,0.0,-1.61,-0.43187469545296414,0.0,0.0,0.0,0.0,0.0,0.0,2.308,0.0,0.0,0.0
592,0.0,0.0,0.0,-0.4629462890625,0.0,0.0,0.0,0.0,0.0,0.0,-0.361,0.0,0.0,0.0,0.0,0.0,-1.61,-0.42335399885341624,0.0,0.0,0.0,0.0,0.0,0.0,6.288,0.0,0.0,0.0
593,0.0,0.0,0.0,-0.4619365234375,0.0,0.0,0.0,0.0,0.0,0.0,-0.042,0.0,0.0,0.0,0.0,0.0,-1.61,-0.4148270313781042,0.0,0.0,0.0,0.0,0.0,0.0,7.636,0.0,0.0,0.0
594,0.0,0.0,0.0,-0.4596171875,0.0,0.0,0.0,0.0,0.0,0.0,0.15,0.0,0.0,0.0,0.0,0.0,-1.61,-0.40601386743790396,0.0,0.0,0.0,0.0,0.0,0.0,7.592,0.0,0.0,0.0
595,0.0,0.0,0.0,-0.4555654296875,0.0,0.0,0.0,0.0,0.0,0.0,0.302,0.0,0.0,0.0,0.0,0.0,-1.61,-0.39721578054423057,0.0,0.0,0.0,0.0,0.0,0.0,6.196,0.0,0.0,0.0
596,0.0,0.0,0.0,-0.450052734375,0.0,0.0,0.0,0.0,0.0,0.0,0.473,0.0,0.0,0.0,0.0,0.0,-1.61,-0.3882073201631074,0.0,0.0,0.0,0.0,0.0,0.0,4.756,0.0,0.0,0.0
597,0.0,0.0,0.0,-0.4444130859375,0.0,0.0,0.0,0.0,0.0,0.0,0.561,0.0,0.0,0.0,0.0,0.0,-1.61,-0.37887428962752934,0.0,0.0,0.0,0.0,0.0,0.0,4.664,0.0,0.0,0.0
598,0.0,0.0,0.0,-0.438763671875,0.0,0.0,0.0,0.0,0.0,0.0,0.563,0.0,0.0,0.0,0.0,0.0,-1.61,-0.3694403406558246,0.0,0.0,0.0,0.0,0.0,0.0,6.472,0.0,0.0,0.0
599,0.0,0.0,0.0,-0.431671875,0.0,0.0,0.0,0.0,0.0,0.0,0.625,0.0,0.0,0.0,0.0,0.0,-1.61,-0.3599723037863411,0.0,0.0,0.0,0.0,0.0,0.0,7.912,0.0,0.0,0.0
600,0.0,0.0,0.0,-0.4239921875,0.0,0.0,0.0,0.0,0.0,0.0,0.747,0.0,0.0,0.0,0.0,0.0,-1.61,-0.3502761559111616,0.0,0.0,0.0,0.0,0.0,0.0,7.156,0.0,0.0,0.0
601,0.0,0.0,0.0,-0.416611328125,0.0,0.0,0.0,0.0,0.0,0.0,0.761,0.0,0.0,0.0,0.0,0.0,-1.61,-0.34050633989745627,0.0,0.0,0.0,0.0,0.0,0.0,6.312,0.0,0.0,0.0
602,0.0,0.0,0.0,-0.40894140625,0.0,0.0,0.0,0.0,0.0,0.0,0.739,0.0,0.0,0.0,0.0,0.0,-1.61,-0.3305014483259476,0.0,0.0,0.0,0.0,0.0,0.0,5.188,0.0,0.0,0.0
603,0.0,0.0,0.0,-0.400541015625,0.0,0.0,0.0,0.0,0.0,0.0,0.804,0.0,0.0,0.0,0.0,0.0,-1.61,-0.32034760979491866,0.0,0.0,0.0,0.0,0.0,0.0,4.32,0.0,0.0,0.0
604,0.0,0.0,0.0,-0.3921396484375,0.0,0.0,0.0,0.0,0.0,0.0,0.853,0.0,0.0,0.0,0.0,0.0,-1.61,-0.31025383608075363,0.0,0.0,0.0,0.0,0.0,0.0,4.732,0.0,0.0,0.0
605,0.0,0.0,0.0,-0.3849033203125,0.0,0.0,0.0,0.0,0.0,0.0,0.796,0.0,0.0,0.0,0.0,0.0,-1.61,-0.29985687903887426,0.0,0.0,0.0,0.0,0.0,0.0,4.32,0.0,0.0,0.0
606,0.0,0.0,0.0,-0.377955078125,0.0,0.0,0.0,0.0,0.0,0.0,0.711,0.0,0.0,0.0,0.0,0.0,-1.61,-0.2895432414356589,0.0,0.0,0.0,0.0,0.0,0.0,3.956,0.0,0.0,0.0
607,0.0,0.0,0.0,-0.37057421875,0.0,0.0,0.0,0.0,0.0,0.0,0.713,0.0,0.0,0.0,0.0,0.0,-1.61,-0.2788313816027267,0.0,0.0,0.0,0.0,0.0,0.0,5.028,0.0,0.0,0.0
608,0.0,0.0,0.0,-0.3630302734375,0.0,0.0,0.0,0.0,0.0,0.0,0.753,0.0,0.0,0.0,0.0,0.0,-1.61,-0.2681797578215052,0.0,0.0,0.0,0.0,0.0,0.0,4.824,0.0,0.0,0.0
609,0.0,0.0,0.0,-0.3565244140625,0.0,0.0,0.0,0.0,0.0,0.0,0.721,0.0,0.0,0.0,0.0,0.0,-1.61,-0.25730333328525856,0.0,0.0,0.0,0.0,0.0,0.0,2.032,0.0,0.0,0.0
610,0.0,0.0,0.0,-0.349865234375,0.0,0.0,0.0,0.0,0.0,0.0,0.649,0.0,0.0,0.0,0.0,0.0,-1.61,-0.2463301223895391,0.0,0.0,0.0,0.0,0.0,0.0,1.6,0.0,0.0,0.0
611,0.0,0.0,0.0,-0.3418974609375,0.0,0.0,0.0,0.0,0.0,0.0,0.731,0.0,0.0,0.0,0.0,0.0,-1.61,-0.2355061216010585,0.0,0.0,0.0,0.0,0.0,0.0,0.66,0.0,0.0,0.0
612,0.0,0.0,0.0,-0.3349404296875,0.0,0.0,0.0,0.0,0.0,0.0,0.772,0.0,0.0,0.0,0.0,0.0,-1.61,-0.22423253815928554,0.0,0.0,0.0,0.0,0.0,0.0,0.388,0.0,0.0,0.0
613,0.0,0.0,0.0,-0.3288583984375,0.0,0.0,0.0,0.0,0.0,0.0,0.647,0.0,0.0,0.0,0.0,0.0,-1.61,-0.2132967710635593,0.0,0.0,0.0,0.0,0.0,0.0,0.868,0.0,0.0,0.0
614,0.0,0.0,0.0,-0.32248828125,0.0,0.0,0.0,0.0,0.0,0.0,0.621,0.0,0.0,0.0,0.0,0.0,-1.61,-0.2020161024315611,0.0,0.0,0.0,0.0,0.0,0.0,0.16,0.0,0.0,0.0
615,0.0,0.0,0.0,-0.3156845703125,0.0,0.0,0.0,0.0,0.0,0.0,0.669,0.0,0.0,0.0,0.0,0.0,-1.61,-0.190538196903242,0.0,0.0,0.0,0.0,0.0,0.0,0.296,0.0,0.0,0.0
616,0.0,0.0,0.0,-0.3090166015625,0.0,0.0,0.0,0.0,0.0,0.0,0.679,0.0,0.0,0.0,0.0,0.0,-1.61,-0.1793041355407544,0.0,0.0,0.0,0.0,0.0,0.0,0.8,0.0,0.0,0.0
617,0.0,0.0,0.0,-0.302212890625,0.0,0.0,0.0,0.0,0.0,0.0,0.667,0.0,0.0,0.0,0.0,0.0,-1.61,-0.1678498248119327,0.0,0.0,0.0,0.0,0.0,0.0,0.044,0.0,0.0,0.0
618,0.0,0.0,0.0,-0.295986328125,0.0,0.0,0.0,0.0,0.0,0.0,0.669,0.0,0.0,0.0,0.0,0.0,-1.61,-0.1561928489091588,0.0,0.0,0.0,0.0,0.0,0.0,-2.264,0.0,0.0,0.0
619,0.0,0.0,0.0,-0.289625,0.0,0.0,0.0,0.0,0.0,0.0,0.626,0.0,0.0,0.0,0.0,0.0,-1.61,-0.144634441168406,0.0,0.0,0.0,0.0,0.0,0.0,-2.468,0.0,0.0,0.0
620,0.0,0.0,0.0,-0.2822255859375,0.0,0.0,0.0,0.0,0.0,0.0,0.682,0.0,0.0,0.0,0.0,0.0,-1.61,-0.13286782543138573,0.0,0.0,0.0,0.0,0.0,0.0,-2.352,0.0,0.0,0.0
621,0.0,0.0,0.0,-0.27556640625,0.0,0.0,0.0,0.0,0.0,0.0,0.718,0.0,0.0,0.0,0.0,0.0,-1.61,-0.12117275790251548,0.0,0.0,0.0,0.0,0.0,0.0,-2.536,0.0,0.0,0.0
622,0.0,0.0,0.0,-0.26933984375,0.0,0.0,0.0,0.0,0.0,0.0,0.643,0.0,0.0,0.0,0.0,0.0,-1.61,-0.1094213351745944,0.0,0.0,0.0,0.0,0.0,0.0,-2.032,0.0,0.0,0.0
623,0.0,0.0,0.0,-0.2625361328125,0.0,0.0,0.0,0.0,0.0,0.0,0.654,0.0,0.0,0.0,0.0,0.0,-1.61,-0.09762858722654397,0.0,0.0,0.0,0.0,0.0,0.0,-3.132,0.0,0.0,0.0
624,0.0,0.0,0.0,-0.2558681640625,0.0,0.0,0.0,0.0,0.0,0.0,0.682,0.0,0.0,0.0,0.0,0.0,-1.61,-0.0857414676120938,0.0,0.0,0.0,0.0,0.0,0.0,-3.016,0.0,0.0,0.0
625,0.0,0.0,0.0,-0.249208984375,0.0,0.0,0.0,0.0,0.0,0.0,0.672,0.0,0.0,0.0,0.0,0.0,-1.61,-0.0737435114824637,0.0,0.0,0.0,0.0,0.0,0.0,-2.08,0.0,0.0,0.0
626,0.0,0.0,0.0,-0.2425498046875,0.0,0.0,0.0,0.0,0.0,0.0,0.667,0.0,0.0,0.0,0.0,0.0,-1.61,-0.06196255202603259,0.0,0.0,0.0,0.0,0.0,0.0,-2.972,0.0,0.0,0.0
627,0.0,0.0,0.0,-0.236603515625,0.0,0.0,0.0,0.0,0.0,0.0,0.64,0.0,0.0,0.0,0.0,0.0,-1.61,-0.0499957405909912,0.0,0.0,0.0,0.0,0.0,0.0,-3.428,0.0,0.0,0.0
628,0.0,0.0,0.0,-0.230666015625,0.0,0.0,0.0,0.0,0.0,0.0,0.585,0.0,0.0,0.0,0.0,0.0,-1.61,-0.038040274661816385,0.0,0.0,0.0,0.0,0.0,0.0,-3.2,0.0,0.0,0.0
629,0.0,0.0,0.0,-0.2241513671875,0.0,0.0,0.0,0.0,0.0,0.0,0.628,0.0,0.0,0.0,0.0,0.0,-1.61,-0.026177667728187855,0.0,0.0,0.0,0.0,0.0,0.0,-3.084,0.0,0.0,0.0
630,0.0,0.0,0.0,-0.218078125,0.0,0.0,0.0,0.0,0.0,0.0,0.644,0.0,0.0,0.0,0.0,0.0,-1.61,-0.014103153148676195,0.0,0.0,0.0,0.0,0.0,0.0,-2.924,0.0,0.0,0.0
631,0.0,0.0,0.0,-0.2122763671875,0.0,0.0,0.0,0.0,0.0,0.0,0.589,0.0,0.0,0.0,0.0,0.0,-1.61,-0.001986585798904507,0.0,0.0,0.0,0.0,0.0,0.0,-2.696,0.0,0.0,0.0
632,0.0,0.0,0.0,-0.2061943359375,0.0,0.0,0.0,0.0,0.0,0.0,0.594,0.0,0.0,0.0,0.0,0.0,-1.61,0.009883347783597701,0.0,0.0,0.0,0.0,0.0,0.0,-3.016,0.0,0.0,0.0
633,0.0,0.0,0.0,-0.2006904296875,0.0,0.0,0.0,0.0,0.0,0.0,0.589,0.0,0.0,0.0,0.0,0.0,-1.61,5.9795379539691484e-05,0.0,0.0,0.0,0.0,0.0,0.0,-2.536,0.0,0.0,0.0
634,0.0,0.0,0.0,-0.195185546875,0.0,0.0,0.0,0.0,0.0,0.0,0.549,0.0,0.0,0.0,0.0,0.0,-1.61,0.011996614168397987,0.0,0.0,0.0,0.0,0.0,0.0,-0.776,0.0,0.0,0.0
635,0.0,0.0,0.0,-0.1894013671875,0.0,0.0,0.0,0.0,0.0,0.0,0.573,0.0,0.0,0.0,0.0,0.0,-1.61,0.023956414048304765,0.0,0.0,0.0,0.0,0.0,0.0,-0.5,0.0,0.0,0.0
636,0.0,0.0,0.0,-0.1844658203125,0.0,0.0,0.0,0.0,0.0,0.0,0.548,0.0,0.0,0.0,0.0,0.0,-1.61,0.035950667594469236,0.0,0.0,0.0,0.0,0.0,0.0,-1.096,0.0,0.0,0.0
637,0.0,0.0,0.0,-0.1795390625,0.0,0.0,0.0,0.0,0.0,0.0,0.491,0.0,0.0,0.0,0.0,0.0,-1.61,0.047959607859455494,0.0,0.0,0.0,0.0,0.0,0.0,-0.34,0.0,0.0,0.0
638,0.0,0.0,0.0,-0.1741884765625,0.0,0.0,0.0,0.0,0.0,0.0,0.516,0.0,0.0,0.0,0.0,0.0,-1.61,0.05992874495478784,0.0,0.0,0.0,0.0,0.0,0.0,-0.364,0.0,0.0,0.0
639,0.0,0.0,0.0,-0.16926171875,0.0,0.0,0.0,0.0,0.0,0.0,0.519,0.0,0.0,0.0,0.0,0.0,-1.61,0.07178436524664909,0.0,0.0,0.0,0.0,0.0,0.0,-0.548,0.0,0.0,0.0
640,0.0,0.0,0.0,-0.1640458984375,0.0,0.0,0.0,0.0,0.0,0.0,0.498,0.0,0.0,0.0,0.0,0.0,-1.61,0.08379463154652726,0.0,0.0,0.0,0.0,0.0,0.0,0.228,0.0,0.0,0.0
641,0.0,0.0,0.0,-0.1583974609375,0.0,0.0,0.0,0.0,0.0,0.0,0.551,0.0,0.0,0.0,0.0,0.0,-1.61,0.09554931349463341,0.0,0.0,0.0,0.0,0.0,0.0,-0.364,0.0,0.0,0.0
642,0.0,0.0,0.0,-0.153470703125,0.0,0.0,0.0,0.0,0.0,0.0,0.541,0.0,0.0,0.0,0.0,0.0,-1.61,0.10744607207279132,0.0,0.0,0.0,0.0,0.0,0.0,-1.028,0.0,0.0,0.0
643,0.0,0.0,0.0,-0.148408203125,0.0,0.0,0.0,0.0,0.0,0.0,0.491,0.0,0.0,0.0,0.0,0.0,-1.61,0.11922868492266862,0.0,0.0,0.0,0.0,0.0,0.0,0.364,0.0,0.0,0.0
644,0.0,0.0,0.0,-0.142904296875,0.0,0.0,0.0,0.0,0.0,0.0,0.531,0.0,0.0,0.0,0.0,0.0,-1.61,0.1309343005173597,0.0,0.0,0.0,0.0,0.0,0.0,0.64,0.0,0.0,0.0
645,0.0,0.0,0.0,-0.13782421875,0.0,0.0,0.0,0.0,0.0,0.0,0.539,0.0,0.0,0.0,0.0,0.0,-1.61,0.1427648355970227,0.0,0.0,0.0,0.0,0.0,0.0,1.164,0.0,0.0,0.0
646,0.0,0.0,0.0,-0.13247265625,0.0,0.0,0.0,0.0,0.0,0.0,0.514,0.0,0.0,0.0,0.0,0.0,-1.61,0.15428661863434345,0.0,0.0,0.0,0.0,0.0,0.0,2.056,0.0,0.0,0.0
647,0.0,0.0,0.0,-0.12696875,0.0,0.0,0.0,0.0,0.0,0.0,0.557,0.0,0.0,0.0,0.0,0.0,-1.61,0.16588829788683124,0.0,0.0,0.0,0.0,0.0,0.0,1.096,0.0,0.0,0.0
648,0.0,0.0,0.0,-0.1221865234375,0.0,0.0,0.0,0.0,0.0,0.0,0.525,0.0,0.0,0.0,0.0,0.0,-1.61,0.17728900064535366,0.0,0.0,0.0,0.0,0.0,0.0,1.072,0.0,0.0,0.0
649,0.0,0.0,0.0,-0.116826171875,0.0,0.0,0.0,0.0,0.0,0.0,0.494,0.0,0.0,0.0,0.0,0.0,-1.61,0.18889591307713846,0.0,0.0,0.0,0.0,0.0,0.0,2.104,0.0,0.0,0.0
650,0.0,0.0,0.0,-0.111177734375,0.0,0.0,0.0,0.0,0.0,0.0,0.555,0.0,0.0,0.0,0.0,0.0,-1.61,0.2001497918312309,0.0,0.0,0.0,0.0,0.0,0.0,1.44,0.0,0.0,0.0
651,0.0,0.0,0.0,-0.1062509765625,0.0,0.0,0.0,0.0,0.0,0.0,0.535,0.0,0.0,0.0,0.0,0.0,-1.61,0.21131507810624767,0.0,0.0,0.0,0.0,0.0,0.0,1.348,0.0,0.0,0.0
652,0.0,0.0,0.0,-0.1003134765625,0.0,0.0,0.0,0.0,0.0,0.0,0.532,0.0,0.0,0.0,0.0,0.0,-1.61,0.22267243351227783,0.0,0.0,0.0,0.0,0.0,0.0,1.804,0.0,0.0,0.0
653,0.0,0.0,0.0,-0.0943671875,0.0,0.0,0.0,0.0,0.0,0.0,0.602,0.0,0.0,0.0,0.0,0.0,-1.61,0.23376805468947837,0.0,0.0,0.0,0.0,0.0,0.0,0.456,0.0,0.0,0.0
654,0.0,0.0,0.0,-0.0893046875,0.0,0.0,0.0,0.0,0.0,0.0,0.562,0.0,0.0,0.0,0.0,0.0,-1.61,0.24468478811789318,0.0,0.0,0.0,0.0,0.0,0.0,1.164,0.0,0.0,0.0
655,0.0,0.0,0.0,-0.0830791015625,0.0,0.0,0.0,0.0,0.0,0.0,0.556,0.0,0.0,0.0,0.0,0.0,-1.61,0.2556755285355053,0.0,0.0,0.0,0.0,0.0,0.0,2.032,0.0,0.0,0.0
656,0.0,0.0,0.0,-0.0769970703125,0.0,0.0,0.0,0.0,0.0,0.0,0.628,0.0,0.0,0.0,0.0,0.0,-1.61,0.2663247894130701,0.0,0.0,0.0,0.0,0.0,0.0,1.096,0.0,0.0,0.0
657,0.0,0.0,0.0,-0.0713388671875,0.0,0.0,0.0,0.0,0.0,0.0,0.584,0.0,0.0,0.0,0.0,0.0,-1.61,0.2771471965518428,0.0,0.0,0.0,0.0,0.0,0.0,1.828,0.0,0.0,0.0
658,0.0,0.0,0.0,-0.06511328125,0.0,0.0,0.0,0.0,0.0,0.0,0.589,0.0,0.0,0.0,0.0,0.0,-1.61,0.2877575066473941,0.0,0.0,0.0,0.0,0.0,0.0,1.712,0.0,0.0,0.0
659,0.0,0.0,0.0,-0.05946484375,0.0,0.0,0.0,0.0,0.0,0.0,0.612,0.0,0.0,0.0,0.0,0.0,-1.61,0.29805929521238367,0.0,0.0,0.0,0.0,0.0,0.0,0.844,0.0,0.0,0.0
660,0.0,0.0,0.0,-0.0538154296875,0.0,0.0,0.0,0.0,0.0,0.0,0.565,0.0,0.0,0.0,0.0,0.0,-1.61,0.308506114252534,0.0,0.0,0.0,0.0,0.0,0.0,2.056,0.0,0.0,0.0
661,0.0,0.0,0.0,-0.0475810546875,0.0,0.0,0.0,0.0,0.0,0.0,0.593,0.0,0.0,0.0,0.0,0.0,-1.61,0.3188224596457994,0.0,0.0,0.0,0.0,0.0,0.0,1.072,0.0,0.0,0.0
662,0.0,0.0,0.0,-0.0416435546875,0.0,0.0,0.0,0.0,0.0,0.0,0.619,0.0,0.0,0.0,0.0,0.0,-1.61,0.32882844317462107,0.0,0.0,0.0,0.0,0.0,0.0,0.204,0.0,0.0,0.0
663,0.0,0.0,0.0,-0.0354169921875,0.0,0.0,0.0,0.0,0.0,0.0,0.598,0.0,0.0,0.0,0.0,0.0,-1.61,0.33876867135633104,0.0,0.0,0.0,0.0,0.0,0.0,0.752,0.0,0.0,0.0
664,0.0,0.0,0.0,-0.029037109375,0.0,0.0,0.0,0.0,0.0,0.0,0.638,0.0,0.0,0.0,0.0,0.0,-1.61,0.34882219541720877,0.0,0.0,0.0,0.0,0.0,0.0,-0.364,0.0,0.0,0.0
665,0.0,0.0,0.0,-0.0229560546875,0.0,0.0,0.0,0.0,0.0,0.0,0.631,0.0,0.0,0.0,0.0,0.0,-1.61,0.35829608792353745,0.0,0.0,0.0,0.0,0.0,0.0,-0.16,0.0,0.0,0.0
666,0.0,0.0,0.0,-0.0168740234375,0.0,0.0,0.0,0.0,0.0,0.0,0.605,0.0,0.0,0.0,0.0,0.0,-1.61,0.3679202129298701,0.0,0.0,0.0,0.0,0.0,0.0,0.752,0.0,0.0,0.0
