EmanuelSamir/lab201_ws_projsamir/sawyer_dev/data/sawyer/temp/test3.csv
,j1,j2,j3,j4,j5,j6,j7,jd1,jd2,jd3,jd4,jd5,jd6,jd7,e1,e2,e3,e4,e5,e6,e7
0,0.0,0.0,0.0,0.0,0.0,0.0,0.0,0.0,0.0,0.0,0.0,0.0,0.0,0.0,0.0,0.0,0.0,0.0,0.0,0.0,0.0
1,-0.0022060546875,-0.001818359375,-0.0037236328125,-0.0013720703125,0.0052001953125,-0.00508984375,0.001619140625,-0.32965428054198015,0.34984646241834083,0.10460136943198461,-0.22388982490205517,-0.305362167615455,-0.322898214223838,-0.15117209807081908,0.528,-44.324,-4.9,-13.904,2.356,-0.648,0.0
2,-0.0022060546875,-0.001818359375,-0.0037236328125,-0.0013720703125,0.0052001953125,-0.00508984375,0.001619140625,-0.32965428054198015,0.34984646241834083,0.10460136943198461,-0.22388982490205517,-0.305362167615455,-0.322898214223838,-0.15117209807081908,0.528,-44.324,-4.9,-13.904,2.356,-0.648,0.0
3,-0.0022060546875,-0.001818359375,-0.0037236328125,-0.0013720703125,0.0052001953125,-0.00508984375,0.001619140625,-0.32965428054198015,0.34984646241834083,0.10460136943198461,-0.22388982490205517,-0.305362167615455,-0.322898214223838,-0.15117209807081908,0.584,-44.376,-4.948,-13.924,2.336,-0.648,-0.012
4,-0.00230859375,-0.001818359375,-0.0035791015625,-0.0013720703125,0.0049931640625,-0.00508984375,0.001619140625,-0.32965428054198015,0.34984646241834083,0.10460136943198461,-0.22388982490205517,-0.305362167615455,-0.322898214223838,-0.15117209807081908,-0.156,-44.052,-5.016,-14.016,2.288,-0.648,-0.004
5,-0.0026181640625,-0.0009951171875,-0.0044443359375,-0.0025361328125,0.004580078125,-0.00508984375,0.001619140625,-0.32965428054198015,0.34984646241834083,0.10460136943198461,-0.22388982490205517,-0.305362167615455,-0.322898214223838,-0.15117209807081908,-6.164,-38.548,-3.792,-14.656,2.192,-0.8,-0.036
6,-0.0032412109375,0.001166015625,-0.005021484375,-0.006298828125,0.003134765625,-0.0059033203125,0.0009990234375,-0.32965428054198015,0.34984646241834083,0.10460136943198461,-0.22388982490205517,-0.305362167615455,-0.322898214223838,-0.15117209807081908,-12.228,-33.632,-1.708,-12.712,2.72,-1.288,-0.156
7,-0.0039619140625,0.0037451171875,-0.00401171875,-0.00992578125,0.004580078125,-0.010861328125,-0.000240234375,-0.32965428054198015,0.34984646241834083,0.10460136943198461,-0.22388982490205517,-0.305362167615455,-0.322898214223838,-0.15117209807081908,-14.78,-32.068,-2.356,-10.52,1.88,-0.556,-0.168
8,-0.005197265625,0.006935546875,-0.0030107421875,-0.0141220703125,0.0049931640625,-0.0160126953125,-0.0018798828125,-0.32965428054198015,0.34984646241834083,0.10460136943198461,-0.22388982490205517,-0.305362167615455,-0.322898214223838,-0.15117209807081908,-16.48,-31.692,-4.024,-8.872,0.576,0.488,-0.108
9,-0.00664453125,0.010125,-0.00214453125,-0.0181826171875,0.003134765625,-0.020337890625,-0.0039326171875,-0.32965428054198015,0.34984646241834083,0.10460136943198461,-0.22388982490205517,-0.305362167615455,-0.322898214223838,-0.15117209807081908,-17.864,-32.016,-3.584,-6.996,0.556,0.4,-0.148
10,-0.0083935546875,0.01321875,-0.001421875,-0.0209345703125,0.000875,-0.0254892578125,-0.0063857421875,-0.32965428054198015,0.34984646241834083,0.10460136943198461,-0.22388982490205517,-0.305362167615455,-0.322898214223838,-0.15117209807081908,-18.128,-30.124,-3.4,-9.968,0.804,0.332,-0.2
11,-0.0106640625,0.0173349609375,-0.0012783203125,-0.0252744140625,-0.003255859375,-0.029814453125,-0.0088515625,-0.32965428054198015,0.34984646241834083,0.10460136943198461,-0.22388982490205517,-0.305362167615455,-0.322898214223838,-0.15117209807081908,-17.596,-28.344,-1.592,-10.496,1.644,-0.244,-0.172
12,-0.0132431640625,0.0216640625,0.000455078125,-0.0288935546875,-0.00530859375,-0.036412109375,-0.0115244140625,-0.32965428054198015,0.34984646241834083,0.10460136943198461,-0.22388982490205517,-0.305362167615455,-0.322898214223838,-0.15117209807081908,-17.28,-29.532,-1.524,-9.468,1.684,-0.46,-0.18
13,-0.01643359375,0.026294921875,0.002900390625,-0.0322314453125,-0.0067548828125,-0.0440419921875,-0.014197265625,-0.32965428054198015,0.34984646241834083,0.10460136943198461,-0.22388982490205517,-0.305362167615455,-0.322898214223838,-0.15117209807081908,-16.108,-33.472,-4.648,-10.176,0.54,0.524,-0.208
14,-0.0199453125,0.0312412109375,0.0040546875,-0.0358505859375,-0.0112861328125,-0.0483671875,-0.016650390625,-0.32965428054198015,0.34984646241834083,0.10460136943198461,-0.22388982490205517,-0.305362167615455,-0.322898214223838,-0.15117209807081908,-15.256,-37.468,-5.156,-8.344,0.54,0.572,-0.18
15,-0.0237587890625,0.03525390625,0.0054990234375,-0.037447265625,-0.0168505859375,-0.0527060546875,-0.0189091796875,-0.32965428054198015,0.34984646241834083,0.10460136943198461,-0.22388982490205517,-0.305362167615455,-0.322898214223838,-0.15117209807081908,-14.352,-38.924,-4.464,-10.7,1.328,0.044,-0.188
16,-0.0278818359375,0.0395830078125,0.0066533203125,-0.0396220703125,-0.0232421875,-0.0553779296875,-0.020755859375,-0.32965428054198015,0.34984646241834083,0.10460136943198461,-0.22388982490205517,-0.305362167615455,-0.322898214223838,-0.15117209807081908,-13.344,-38.276,-3.952,-14.544,2.18,-0.468,-0.2
17,-0.032416015625,0.0448310546875,0.0077998046875,-0.0428076171875,-0.028806640625,-0.05868359375,-0.0223955078125,-0.32965428054198015,0.34984646241834083,0.10460136943198461,-0.22388982490205517,-0.305362167615455,-0.322898214223838,-0.15117209807081908,-12.864,-38.656,-2.22,-13.584,2.876,-1.196,-0.148
18,-0.037265625,0.0498798828125,0.01054296875,-0.04526171875,-0.0323056640625,-0.06507421875,-0.023634765625,-0.32965428054198015,0.34984646241834083,0.10460136943198461,-0.22388982490205517,-0.305362167615455,-0.322898214223838,-0.15117209807081908,-11.8,-40.328,-4.068,-13.104,1.992,-0.284,-0.168
19,-0.0422119140625,0.055333984375,0.0124111328125,-0.0486005859375,-0.03745703125,-0.068986328125,-0.024861328125,-0.32965428054198015,0.34984646241834083,0.10460136943198461,-0.22388982490205517,-0.305362167615455,-0.322898214223838,-0.15117209807081908,-8.824,-43.784,-6.496,-11.732,1.028,0.512,-0.188
20,-0.0473701171875,0.0599716796875,0.0137099609375,-0.05062109375,-0.0444677734375,-0.0710517578125,-0.0261005859375,-0.32965428054198015,0.34984646241834083,0.10460136943198461,-0.22388982490205517,-0.305362167615455,-0.322898214223838,-0.15117209807081908,-5.42,-45.836,-5.964,-10.976,1.508,-0.076,-0.128
21,-0.0527275390625,0.064087890625,0.015009765625,-0.05119921875,-0.05209765625,-0.0729111328125,-0.02712109375,-0.32965428054198015,0.34984646241834083,0.10460136943198461,-0.22388982490205517,-0.305362167615455,-0.322898214223838,-0.15117209807081908,-3.136,-44.432,-5.504,-15.276,2.2,-0.332,-0.18
22,-0.0582978515625,0.068828125,0.0154423828125,-0.0533828125,-0.0599345703125,-0.07332421875,-0.0285537109375,-0.32965428054198015,0.34984646241834083,0.10460136943198461,-0.22388982490205517,-0.305362167615455,-0.322898214223838,-0.15117209807081908,-3.508,-42.868,-3.376,-15.64,2.968,-1.344,-0.156
23,-0.0640673828125,0.073458984375,0.017166015625,-0.0545380859375,-0.0646728515625,-0.077236328125,-0.02979296875,-0.32965428054198015,0.34984646241834083,0.10460136943198461,-0.22388982490205517,-0.305362167615455,-0.322898214223838,-0.15117209807081908,-5.316,-42.76,-3.468,-14.864,2.796,-1.184,-0.14
24,-0.0699453125,0.0785078125,0.0191875,-0.056568359375,-0.068998046875,-0.0807353515625,-0.03101953125,-0.32965428054198015,0.34984646241834083,0.10460136943198461,-0.22388982490205517,-0.305362167615455,-0.322898214223838,-0.15117209807081908,-5.42,-44.052,-5.804,-14.728,1.84,-0.284,-0.208
25,-0.0754130859375,0.08366015625,0.0201982421875,-0.05917578125,-0.075388671875,-0.08280078125,-0.0328662109375,-0.32965428054198015,0.34984646241834083,0.10460136943198461,-0.22388982490205517,-0.305362167615455,-0.322898214223838,-0.15117209807081908,-0.584,-45.888,-5.964,-12.416,1.776,-0.596,-0.168
26,-0.081072265625,0.0877763671875,0.02177734375,-0.0597529296875,-0.0815732421875,-0.085693359375,-0.034298828125,-0.32965428054198015,0.34984646241834083,0.10460136943198461,-0.22388982490205517,-0.305362167615455,-0.322898214223838,-0.15117209807081908,4.996,-45.944,-6.22,-14.108,2.216,-0.452,-0.18
27,-0.086642578125,0.0922080078125,0.0224990234375,-0.0613505859375,-0.088376953125,-0.08651953125,-0.0361455078125,-0.32965428054198015,0.34984646241834083,0.10460136943198461,-0.22388982490205517,-0.305362167615455,-0.322898214223838,-0.15117209807081908,7.176,-45.024,-5.296,-16.488,2.616,-1.168,-0.188
28,-0.092103515625,0.0968388671875,0.0237978515625,-0.0632275390625,-0.0941611328125,-0.0898115234375,-0.0380048828125,-0.32965428054198015,0.34984646241834083,0.10460136943198461,-0.22388982490205517,-0.305362167615455,-0.322898214223838,-0.15117209807081908,5.156,-45.404,-3.816,-15.528,3.384,-1.588,-0.12
29,-0.0977763671875,0.101681640625,0.025810546875,-0.06482421875,-0.0972470703125,-0.0943564453125,-0.03964453125,-0.32965428054198015,0.34984646241834083,0.10460136943198461,-0.22388982490205517,-0.305362167615455,-0.322898214223838,-0.15117209807081908,2.764,-46.376,-5.34,-16.488,2.66,-0.844,-0.16
30,-0.10303125,0.106923828125,0.0269658203125,-0.068154296875,-0.10137890625,-0.09785546875,-0.041697265625,-0.32965428054198015,0.34984646241834083,0.10460136943198461,-0.22388982490205517,-0.305362167615455,-0.322898214223838,-0.15117209807081908,2.924,-48.156,-5.988,-14.496,2.164,-0.72,-0.148
31,-0.1080859375,0.1115615234375,0.0282646484375,-0.0700400390625,-0.1054970703125,-0.10238671875,-0.04375,-0.32965428054198015,0.34984646241834083,0.10460136943198461,-0.22388982490205517,-0.305362167615455,-0.322898214223838,-0.15117209807081908,6.324,-49.616,-6.06,-14.224,2.532,-0.46,-0.052
32,-0.113134765625,0.1157802734375,0.029564453125,-0.0714833984375,-0.10899609375,-0.1056923828125,-0.045802734375,-0.32965428054198015,0.34984646241834083,0.10460136943198461,-0.22388982490205517,-0.305362167615455,-0.322898214223838,-0.15117209807081908,9.836,-48.536,-6.544,-17.884,2.524,-0.696,-0.188
33,-0.1177724609375,0.1202119140625,0.03027734375,-0.073658203125,-0.113541015625,-0.10941015625,-0.0480498046875,-0.32965428054198015,0.34984646241834083,0.10460136943198461,-0.22388982490205517,-0.305362167615455,-0.322898214223838,-0.15117209807081908,9.408,-48.752,-5.18,-17.356,3.312,-1.272,-0.172
34,-0.1226220703125,0.124328125,0.032154296875,-0.075111328125,-0.1147802734375,-0.11498828125,-0.049908203125,-0.32965428054198015,0.34984646241834083,0.10460136943198461,-0.22388982490205517,-0.305362167615455,-0.322898214223838,-0.15117209807081908,6.856,-48.212,-5.828,-18.132,3.032,-0.872,-0.16
35,-0.12715625,0.1286572265625,0.03359765625,-0.07771875,-0.116626953125,-0.11951953125,-0.0517548828125,-0.32965428054198015,0.34984646241834083,0.10460136943198461,-0.22388982490205517,-0.305362167615455,-0.322898214223838,-0.15117209807081908,4.624,-47.996,-6.844,-17.564,2.472,-0.708,-0.22
36,-0.1313818359375,0.132978515625,0.0348876953125,-0.080326171875,-0.11910546875,-0.124271484375,-0.0536015625,-0.32965428054198015,0.34984646241834083,0.10460136943198461,-0.22388982490205517,-0.305362167615455,-0.322898214223838,-0.15117209807081908,5.104,-48.32,-6.36,-15.024,2.648,-0.656,-0.148
37,-0.1355048828125,0.1365810546875,0.0366201171875,-0.0817705078125,-0.1203447265625,-0.1283896484375,-0.0552412109375,-0.32965428054198015,0.34984646241834083,0.10460136943198461,-0.22388982490205517,-0.305362167615455,-0.322898214223838,-0.15117209807081908,7.44,-47.348,-7.332,-16.852,2.356,-0.452,-0.168
38,-0.1393193359375,0.1406005859375,0.037486328125,-0.0846669921875,-0.12363671875,-0.1308681640625,-0.056880859375,-0.32965428054198015,0.34984646241834083,0.10460136943198461,-0.22388982490205517,-0.305362167615455,-0.322898214223838,-0.15117209807081908,8.028,-46.86,-6.704,-16.852,2.776,-1.048,-0.18
39,-0.143236328125,0.1443115234375,0.03877734375,-0.086697265625,-0.1252900390625,-0.135400390625,-0.0587265625,-0.32965428054198015,0.34984646241834083,0.10460136943198461,-0.22388982490205517,-0.305362167615455,-0.322898214223838,-0.15117209807081908,7.284,-46.536,-5.848,-16.328,3.044,-1.048,-0.104
40,-0.14684375,0.1481259765625,0.040509765625,-0.08916015625,-0.1261162109375,-0.1393251953125,-0.06016015625,-0.32965428054198015,0.34984646241834083,0.10460136943198461,-0.22388982490205517,-0.305362167615455,-0.322898214223838,-0.15117209807081908,6.804,-46.052,-6.96,-17.312,2.408,-0.624,-0.16
41,-0.15024609375,0.1522421875,0.0415205078125,-0.092779296875,-0.128181640625,-0.1424111328125,-0.062005859375,-0.32965428054198015,0.34984646241834083,0.10460136943198461,-0.22388982490205517,-0.305362167615455,-0.322898214223838,-0.15117209807081908,5.156,-46.536,-6.684,-14.316,2.524,-0.824,-0.104
42,-0.153642578125,0.1557412109375,0.043099609375,-0.0949541015625,-0.1294208984375,-0.1469560546875,-0.0634521484375,-0.32965428054198015,0.34984646241834083,0.10460136943198461,-0.22388982490205517,-0.305362167615455,-0.322898214223838,-0.15117209807081908,3.668,-45.996,-6.636,-14.316,2.288,-0.396,-0.104
43,-0.1568388671875,0.1595546875,0.0439658203125,-0.0981474609375,-0.1318876953125,-0.1500546875,-0.065091796875,-0.32965428054198015,0.34984646241834083,0.10460136943198461,-0.22388982490205517,-0.305362167615455,-0.322898214223838,-0.15117209807081908,3.136,-44.972,-7.144,-15.436,2.18,-0.408,-0.148
44,-0.159830078125,0.1633623046875,0.04483203125,-0.1016220703125,-0.134779296875,-0.1531396484375,-0.066525390625,-0.32965428054198015,0.34984646241834083,0.10460136943198461,-0.22388982490205517,-0.305362167615455,-0.322898214223838,-0.15117209807081908,3.4,-45.348,-5.548,-14.064,2.844,-1.008,-0.016
45,-0.162814453125,0.1668681640625,0.046564453125,-0.104076171875,-0.1358125,-0.1576845703125,-0.0679580078125,-0.32965428054198015,0.34984646241834083,0.10460136943198461,-0.22388982490205517,-0.305362167615455,-0.322898214223838,-0.15117209807081908,3.72,-44.7,-6.752,-15.94,2.4,-0.544,-0.076
46,-0.1658046875,0.1708818359375,0.047421875,-0.10813671875,-0.1380849609375,-0.1605634765625,-0.0696103515625,-0.32965428054198015,0.34984646241834083,0.10460136943198461,-0.22388982490205517,-0.305362167615455,-0.322898214223838,-0.15117209807081908,3.24,-45.08,-6.82,-14.292,2.096,-0.664,-0.044
47,-0.168693359375,0.1743798828125,0.048576171875,-0.111033203125,-0.14055078125,-0.1646953125,-0.07125,-0.32965428054198015,0.34984646241834083,0.10460136943198461,-0.22388982490205517,-0.305362167615455,-0.322898214223838,-0.15117209807081908,2.176,-45.08,-6.704,-12.896,2.212,-0.668,0.016
48,-0.1714775390625,0.1776796875,0.0498759765625,-0.11378515625,-0.143236328125,-0.168,-0.07268359375,-0.32965428054198015,0.34984646241834083,0.10460136943198461,-0.22388982490205517,-0.305362167615455,-0.322898214223838,-0.15117209807081908,1.276,-43.244,-6.844,-15.024,1.972,-0.448,-0.036
49,-0.1741533203125,0.181384765625,0.050453125,-0.1175478515625,-0.14694140625,-0.1700537109375,-0.074529296875,-0.32965428054198015,0.34984646241834083,0.10460136943198461,-0.22388982490205517,-0.305362167615455,-0.322898214223838,-0.15117209807081908,0.052,-43.028,-5.34,-13.444,2.44,-1.116,-0.032
50,-0.177041015625,0.18468359375,0.0520322265625,-0.11972265625,-0.14859375,-0.17459765625,-0.0761689453125,-0.32965428054198015,0.34984646241834083,0.10460136943198461,-0.22388982490205517,-0.305362167615455,-0.322898214223838,-0.15117209807081908,-0.9,-42.056,-5.828,-14.248,2.268,-0.668,-0.024
51,-0.1799296875,0.188388671875,0.05304296875,-0.1232060546875,-0.1516923828125,-0.177490234375,-0.0778095703125,-0.32965428054198015,0.34984646241834083,0.10460136943198461,-0.22388982490205517,-0.305362167615455,-0.322898214223838,-0.15117209807081908,-1.488,-41.732,-5.92,-14.248,1.832,-0.524,-0.096
52,-0.1827138671875,0.19209375,0.0539091796875,-0.12653515625,-0.15519140625,-0.1807822265625,-0.07966796875,-0.32965428054198015,0.34984646241834083,0.10460136943198461,-0.22388982490205517,-0.305362167615455,-0.322898214223838,-0.15117209807081908,-2.124,-42.328,-4.624,-11.868,2.276,-0.76,-0.036
53,-0.1856982421875,0.19549609375,0.05534375,-0.128701171875,-0.1574638671875,-0.1851201171875,-0.0811015625,-0.32965428054198015,0.34984646241834083,0.10460136943198461,-0.22388982490205517,-0.305362167615455,-0.322898214223838,-0.15117209807081908,-1.964,-41.896,-5.48,-13.604,1.744,-0.252,-0.116
54,-0.1885869140625,0.199509765625,0.0557685546875,-0.1326171875,-0.1626279296875,-0.187392578125,-0.082947265625,-0.32965428054198015,0.34984646241834083,-0.379838508910184,-0.22388982490205517,-0.305362167615455,-0.322898214223838,-0.15117209807081908,-2.336,-41.408,-4.692,-13.124,2.128,-0.52,-0.12
55,-0.1915771484375,0.203111328125,0.0567783203125,-0.1352158203125,-0.1659208984375,-0.1917177734375,-0.0847939453125,-0.32965428054198015,0.34984646241834083,-0.379838508910184,-0.22388982490205517,-0.305362167615455,-0.322898214223838,-0.15117209807081908,-2.496,-41.68,-3.86,-12.668,2.392,-0.628,-0.064
56,-0.1947734375,0.206822265625,0.058078125,-0.13753515625,-0.1688125,-0.19667578125,-0.08643359375,-0.32965428054198015,0.34984646241834083,-0.379838508910184,-0.22388982490205517,-0.305362167615455,-0.322898214223838,-0.15117209807081908,-2.552,-40.868,-5.48,-14.932,1.644,-0.016,-0.168
57,-0.1978671875,0.2109384765625,0.05822265625,-0.1410087890625,-0.17355078125,-0.2001748046875,-0.0882802734375,-0.32965428054198015,0.34984646241834083,-0.379838508910184,-0.22388982490205517,-0.305362167615455,-0.322898214223838,-0.15117209807081908,-2.604,-42.22,-4.556,-12.464,2.016,-0.348,-0.104
58,-0.2010576171875,0.2144443359375,0.0572119140625,-0.1420380859375,-0.1747900390625,-0.2053388671875,-0.089919921875,-0.32965428054198015,0.34984646241834083,-0.379838508910184,-0.22388982490205517,-0.305362167615455,-0.322898214223838,-0.15117209807081908,0.156,-45.728,-7.216,-12.712,1.332,-0.016,-0.14
59,-0.20425390625,0.2177373046875,0.0537646484375,-0.142759765625,-0.1793349609375,-0.2084375,-0.091365234375,-0.32965428054198015,0.34984646241834083,-0.379838508910184,-0.22388982490205517,-0.305362167615455,-0.322898214223838,-0.15117209807081908,3.668,-48.968,-9.528,-14.224,0.996,0.408,-0.224
60,-0.20734765625,0.2203095703125,0.049154296875,-0.142470703125,-0.18551953125,-0.209263671875,-0.092591796875,-0.32965428054198015,0.34984646241834083,-0.379838508910184,-0.22388982490205517,-0.305362167615455,-0.322898214223838,-0.15117209807081908,5.688,-50.316,-7.332,-14.588,2.744,-0.544,-0.156
61,-0.210544921875,0.2222646484375,0.04454296875,-0.140720703125,-0.1892373046875,-0.2102841796875,-0.0932119140625,-0.32965428054198015,0.34984646241834083,-0.379838508910184,-0.22388982490205517,-0.305362167615455,-0.322898214223838,-0.15117209807081908,7.496,-48.912,-7.168,-20.1,3.072,-1.208,-0.24
62,-0.213419921875,0.225255859375,0.03848828125,-0.1417490234375,-0.1933564453125,-0.2115234375,-0.094025390625,-0.32965428054198015,0.34984646241834083,-0.379838508910184,-0.22388982490205517,-0.305362167615455,-0.322898214223838,-0.15117209807081908,8.188,-49.724,-5.92,-19.804,3.5,-1.572,-0.22
63,-0.2161015625,0.2280341796875,0.03330859375,-0.1420380859375,-0.194595703125,-0.2144150390625,-0.0944384765625,-0.32965428054198015,0.34984646241834083,-0.379838508910184,-0.22388982490205517,-0.305362167615455,-0.322898214223838,-0.15117209807081908,8.028,-52.476,-6.592,-17.584,3.144,-1.04,-0.16
64,-0.218578125,0.2304013671875,0.0273984375,-0.1420380859375,-0.195421875,-0.2154482421875,-0.09464453125,-0.32965428054198015,0.34984646241834083,-0.379838508910184,-0.22388982490205517,-0.305362167615455,-0.322898214223838,-0.15117209807081908,8.028,-53.18,-8.624,-18.272,1.976,-0.42,-0.284
65,-0.220841796875,0.2325625,0.0200537109375,-0.142615234375,-0.199759765625,-0.215654296875,-0.09505859375,-0.32965428054198015,0.34984646241834083,-0.379838508910184,-0.22388982490205517,-0.305362167615455,-0.322898214223838,-0.15117209807081908,7.972,-53.072,-7.424,-16.464,2.688,-0.728,-0.208
66,-0.223009765625,0.2338037109375,0.01284375,-0.1417490234375,-0.2024326171875,-0.2154482421875,-0.0952646484375,-0.32965428054198015,0.34984646241834083,-0.379838508910184,-0.22388982490205517,-0.305362167615455,-0.322898214223838,-0.15117209807081908,8.24,-50.588,-5.712,-18.912,3.208,-0.888,-0.22
67,-0.22496484375,0.23565625,0.0050654296875,-0.142326171875,-0.2049111328125,-0.2146220703125,-0.0956650390625,-0.32965428054198015,0.34984646241834083,-0.379838508910184,-0.22388982490205517,-0.305362167615455,-0.322898214223838,-0.15117209807081908,8.132,-48.536,-5.016,-20.58,3.312,-1.412,-0.284
68,-0.226720703125,0.2375087890625,-0.00214453125,-0.1436259765625,-0.2069775390625,-0.215654296875,-0.0964912109375,-0.32965428054198015,0.34984646241834083,-0.379838508910184,-0.22388982490205517,-0.305362167615455,-0.322898214223838,-0.15117209807081908,7.708,-49.02,-4.092,-17.7,3.748,-1.384,-0.172
69,-0.228263671875,0.2390517578125,-0.0083330078125,-0.14434765625,-0.206357421875,-0.21689453125,-0.097111328125,-0.32965428054198015,0.34984646241834083,-0.379838508910184,-0.22388982490205517,-0.305362167615455,-0.322898214223838,-0.15117209807081908,6.964,-48.752,-6.404,-18.384,2.588,-0.644,-0.276
70,-0.2294990234375,0.240904296875,-0.0159755859375,-0.1465224609375,-0.208216796875,-0.21689453125,-0.098130859375,-0.32965428054198015,0.34984646241834083,-0.379838508910184,-0.22388982490205517,-0.305362167615455,-0.322898214223838,-0.15117209807081908,5.9,-48.804,-6.984,-16.512,2.336,-0.76,-0.272
71,-0.23084375,0.2421396484375,-0.023185546875,-0.147388671875,-0.2096630859375,-0.21833984375,-0.0991640625,-0.32965428054198015,0.34984646241834083,-0.379838508910184,-0.22388982490205517,-0.305362167615455,-0.322898214223838,-0.15117209807081908,4.944,-48.428,-6.428,-15.848,2.94,-0.76,-0.16
72,-0.2318720703125,0.243072265625,-0.029818359375,-0.148408203125,-0.2106953125,-0.218546875,-0.10018359375,-0.32965428054198015,0.34984646241834083,-0.379838508910184,-0.22388982490205517,-0.305362167615455,-0.322898214223838,-0.15117209807081908,4.304,-46.536,-6.036,-18.752,2.7,-0.82,-0.284
73,-0.2329013671875,0.24471875,-0.0368740234375,-0.1510068359375,-0.2125419921875,-0.219166015625,-0.1016171875,-0.32965428054198015,0.34984646241834083,-0.379838508910184,-0.22388982490205517,-0.305362167615455,-0.322898214223838,-0.15117209807081908,3.24,-46.16,-3.884,-16.58,3.248,-1.344,-0.2
74,-0.233833984375,0.245953125,-0.0429287109375,-0.1521708984375,-0.21090234375,-0.222458984375,-0.102443359375,-0.32965428054198015,0.34984646241834083,-0.379838508910184,-0.22388982490205517,-0.305362167615455,-0.322898214223838,0.25257712251300973,2.444,-45.564,-4.924,-15.984,2.536,-0.824,-0.188
75,-0.2346572265625,0.2473935546875,-0.0492724609375,-0.154779296875,-0.2115087890625,-0.224318359375,-0.1036826171875,-0.32965428054198015,0.34984646241834083,-0.379838508910184,-0.22388982490205517,-0.305362167615455,-0.322898214223838,0.25257712251300973,1.648,-45.024,-5.688,-15.228,2.016,-0.296,-0.2
76,-0.23548046875,0.2488349609375,-0.056048828125,-0.1570888671875,-0.21212890625,-0.225970703125,-0.1047158203125,-0.32965428054198015,0.34984646241834083,-0.379838508910184,-0.22388982490205517,-0.305362167615455,-0.322898214223838,0.25257712251300973,0.636,-45.404,-4.252,-13.012,2.324,-0.656,-0.156
77,-0.2364072265625,0.2495546875,-0.062248046875,-0.1579638671875,-0.211921875,-0.2290693359375,-0.104921875,-0.32965428054198015,0.34984646241834083,-0.379838508910184,-0.22388982490205517,-0.305362167615455,-0.322898214223838,0.25257712251300973,0.0,-43.352,-4.324,-14.908,2.152,-0.416,-0.2
78,-0.2373330078125,0.25099609375,-0.0690244140625,-0.1607158203125,-0.2133681640625,-0.23030859375,-0.10326953125,-0.32965428054198015,0.34984646241834083,-0.379838508910184,-0.22388982490205517,-0.305362167615455,-0.322898214223838,0.25257712251300973,-0.688,-42.436,-3.816,-14.224,2.584,-0.636,-0.004
79,-0.238265625,0.25223046875,-0.0749443359375,-0.16244921875,-0.212955078125,-0.2334072265625,-0.0993701171875,-0.32965428054198015,0.34984646241834083,-0.379838508910184,-0.22388982490205517,-0.305362167615455,-0.322898214223838,0.25257712251300973,-1.22,-42.652,-4.184,-13.264,2.472,-0.804,0.004
80,-0.23919140625,0.2534716796875,-0.0804208984375,-0.1643349609375,-0.2125419921875,-0.237525390625,-0.093818359375,-0.32965428054198015,0.34984646241834083,-0.379838508910184,-0.22388982490205517,-0.305362167615455,-0.322898214223838,0.25257712251300973,-1.912,-41.408,-5.736,-14.292,1.828,-0.024,-0.004
81,-0.240220703125,0.255015625,-0.0866201171875,-0.166951171875,-0.213162109375,-0.239591796875,-0.087259765625,-0.32965428054198015,0.34984646241834083,-0.379838508910184,-0.22388982490205517,-0.305362167615455,-0.322898214223838,0.25257712251300973,-2.496,-41.68,-4.856,-12.256,2.044,-0.304,0.104
82,-0.2413525390625,0.25594140625,-0.0919619140625,-0.1678173828125,-0.212955078125,-0.243103515625,-0.0794619140625,-0.32965428054198015,0.34984646241834083,-0.379838508910184,-0.22388982490205517,-0.305362167615455,-0.322898214223838,0.25257712251300973,-2.976,-40.924,-5.016,-12.6,1.768,-0.292,0.16
83,-0.24259375,0.257279296875,-0.098296875,-0.1696943359375,-0.21378125,-0.24558203125,-0.07125,-0.32965428054198015,0.34984646241834083,-0.379838508910184,-0.22388982490205517,-0.305362167615455,-0.322898214223838,0.25257712251300973,-3.028,-39.844,-4.484,-13.376,1.644,-0.032,0.284
84,-0.2438291015625,0.258720703125,-0.10449609375,-0.1712919921875,-0.2150205078125,-0.2472216796875,-0.06160546875,-0.32965428054198015,0.34984646241834083,-0.379838508910184,-0.22388982490205517,-0.305362167615455,-0.322898214223838,0.25257712251300973,-3.188,-39.736,-3.304,-11.548,2.2,-0.648,0.188
85,-0.2451669921875,0.2598525390625,-0.109837890625,-0.172013671875,-0.2150205078125,-0.2503203125,-0.0509287109375,-0.32965428054198015,0.34984646241834083,-0.379838508910184,-0.22388982490205517,-0.305362167615455,-0.322898214223838,0.25257712251300973,-3.508,-38.764,-3.86,-13.216,1.712,-0.336,0.084
86,-0.246716796875,0.2616015625,-0.116037109375,-0.1741884765625,-0.216466796875,-0.2519736328125,-0.041490234375,-0.32965428054198015,0.34984646241834083,-0.379838508910184,-0.22388982490205517,-0.305362167615455,-0.322898214223838,0.25257712251300973,-3.508,-39.304,-3.652,-12.188,1.748,-0.396,0.052
87,-0.2482607421875,0.26315234375,-0.121658203125,-0.1754873046875,-0.2175,-0.2540390625,-0.033072265625,-0.32965428054198015,0.34984646241834083,-0.379838508910184,0.1502005365552851,-0.305362167615455,-0.322898214223838,0.25257712251300973,-3.456,-40.004,-3.652,-11.228,1.872,-0.46,0.168
88,-0.2499072265625,0.2646953125,-0.127578125,-0.176353515625,-0.218326171875,-0.2558984375,-0.024654296875,-0.32965428054198015,0.34984646241834083,-0.379838508910184,0.1502005365552851,-0.305362167615455,-0.322898214223838,0.25257712251300973,-3.296,-39.628,-4.0,-13.012,1.32,-0.116,0.156
89,-0.2516630859375,0.266650390625,-0.1340654296875,-0.178240234375,-0.22101171875,-0.256517578125,-0.016650390625,-0.32965428054198015,0.34984646241834083,-0.379838508910184,0.1502005365552851,-0.305362167615455,-0.322898214223838,0.25257712251300973,-2.976,-39.788,-3.72,-11.684,1.8,-0.556,0.044
90,-0.253412109375,0.26798828125,-0.1395517578125,-0.178240234375,-0.22203125,-0.258376953125,-0.00905859375,-0.32965428054198015,0.34984646241834083,-0.379838508910184,0.1502005365552851,-0.305362167615455,-0.322898214223838,0.25257712251300973,-2.604,-39.464,-4.14,-11.524,1.92,-0.488,0.044
91,-0.2550654296875,0.269017578125,-0.14402734375,-0.1772294921875,-0.222857421875,-0.2598232421875,-0.0033125,-0.32965428054198015,0.34984646241834083,-0.379838508910184,0.1502005365552851,-0.305362167615455,-0.322898214223838,0.25257712251300973,-2.124,-38.168,-5.316,-10.908,1.28,-0.108,0.064
92,-0.2567119140625,0.269943359375,-0.148783203125,-0.1754873046875,-0.2243037109375,-0.26085546875,0.0012060546875,-0.32965428054198015,0.34984646241834083,-0.379838508910184,0.1502005365552851,-0.305362167615455,-0.322898214223838,0.25257712251300973,-1.964,-37.144,-5.064,-9.032,0.988,-0.064,0.064
93,-0.2584609375,0.2704580078125,-0.15369140625,-0.172158203125,-0.2261630859375,-0.26208203125,0.0048984375,-0.32965428054198015,0.34984646241834083,-0.379838508910184,0.1502005365552851,-0.305362167615455,-0.322898214223838,0.25257712251300973,-1.488,-35.2,-4.624,-8.756,0.948,0.032,0.148
94,-0.26001171875,0.2708701171875,-0.1584560546875,-0.1682509765625,-0.228435546875,-0.26249609375,0.0077646484375,-0.32965428054198015,0.34984646241834083,-0.379838508910184,0.1502005365552851,-0.305362167615455,-0.322898214223838,0.25257712251300973,-1.06,-32.984,-3.676,-9.216,1.072,0.024,0.032
95,-0.261658203125,0.27128125,-0.1633642578125,-0.1633154296875,-0.230294921875,-0.2629091796875,0.0106435546875,-0.32965428054198015,0.34984646241834083,-0.379838508910184,0.1502005365552851,-0.305362167615455,-0.322898214223838,0.25257712251300973,-0.9,-31.96,-2.796,-8.916,1.26,-0.324,0.172
96,-0.2633046875,0.2717958984375,-0.1676865234375,-0.15767578125,-0.2313271484375,-0.2643544921875,0.01331640625,-0.32965428054198015,0.34984646241834083,-0.379838508910184,0.1502005365552851,-0.305362167615455,-0.322898214223838,0.25257712251300973,-0.744,-31.096,-3.328,-9.74,1.08,-0.088,0.2
97,-0.2647451171875,0.272728515625,-0.172017578125,-0.1524599609375,-0.2333935546875,-0.264974609375,0.0159755859375,-0.32965428054198015,0.34984646241834083,-0.379838508910184,0.1502005365552851,-0.305362167615455,-0.322898214223838,0.25257712251300973,-0.528,-31.152,-2.888,-9.512,1.092,-0.032,0.188
98,-0.2662890625,0.2736552734375,-0.176205078125,-0.1459453125,-0.2342060546875,-0.2662138671875,0.0192685546875,-0.32965428054198015,0.34984646241834083,-0.379838508910184,0.1502005365552851,-0.305362167615455,-0.322898214223838,0.25257712251300973,-0.584,-31.584,-3.028,-8.824,0.988,-0.128,0.208
99,-0.267736328125,0.2745810546875,-0.1805361328125,-0.13869921875,-0.2354462890625,-0.2680732421875,0.0229609375,-0.32965428054198015,0.34984646241834083,-0.379838508910184,0.1502005365552851,-0.305362167615455,-0.322898214223838,0.25257712251300973,-0.584,-31.528,-3.836,-9.032,0.616,0.212,0.104
100,-0.269279296875,0.2759189453125,-0.18530078125,-0.1317421875,-0.2381318359375,-0.268486328125,0.0274794921875,-0.32965428054198015,0.34984646241834083,-0.379838508910184,0.1502005365552851,-0.305362167615455,-0.322898214223838,0.25257712251300973,-0.372,-31.908,-2.796,-8.596,1.104,0.032,0.052
101,-0.2706171875,0.277462890625,-0.1899208984375,-0.124072265625,-0.2397841796875,-0.2691064453125,0.03260546875,-0.32965428054198015,0.34984646241834083,-0.379838508910184,0.1502005365552851,-0.305362167615455,-0.322898214223838,0.25257712251300973,-0.584,-32.444,-2.404,-10.268,1.456,-0.348,0.056
102,-0.27216796875,0.2796240234375,-0.19467578125,-0.117404296875,-0.242056640625,-0.270138671875,0.0373310546875,-0.32965428054198015,0.34984646241834083,-0.379838508910184,0.1502005365552851,-0.305362167615455,-0.322898214223838,0.25257712251300973,-0.528,-34.012,-2.772,-11.252,1.724,-0.52,0.032
103,-0.2736083984375,0.2818876953125,-0.19871875,-0.109869140625,-0.2428828125,-0.2724111328125,0.0426630859375,-0.32965428054198015,0.34984646241834083,-0.379838508910184,0.1502005365552851,-0.305362167615455,-0.322898214223838,0.25257712251300973,-0.104,-36.604,-3.512,-9.352,1.796,-0.252,0.108
104,-0.275048828125,0.2839521484375,-0.202328125,-0.1016220703125,-0.2432958984375,-0.2740634765625,0.0479951171875,-0.32965428054198015,0.34984646241834083,-0.379838508910184,0.1502005365552851,-0.305362167615455,-0.322898214223838,0.25257712251300973,-0.264,-37.468,-5.688,-11.204,0.884,0.2,0.036
105,-0.27649609375,0.286525390625,-0.206947265625,-0.0947998046875,-0.2472080078125,-0.2744765625,0.0531337890625,-0.32965428054198015,0.34984646241834083,-0.379838508910184,0.1502005365552851,-0.305362167615455,0.30853384939040507,0.25257712251300973,-0.316,-38.924,-4.832,-11.892,1.748,-0.192,0.104
106,-0.277833984375,0.28909765625,-0.210990234375,-0.0874189453125,-0.24948046875,-0.2753037109375,0.0584658203125,-0.32965428054198015,0.34984646241834083,-0.379838508910184,0.1502005365552851,-0.305362167615455,0.30853384939040507,0.25257712251300973,-0.372,-40.868,-3.908,-13.584,2.668,-0.644,0.148
107,-0.2792744140625,0.2918759765625,-0.214888671875,-0.0796044921875,-0.2498935546875,-0.277369140625,0.0646376953125,-0.32965428054198015,0.34984646241834083,-0.379838508910184,0.1502005365552851,-0.305362167615455,0.30853384939040507,0.25257712251300973,0.104,-41.948,-4.808,-14.156,1.992,-0.596,0.064
108,-0.2807216796875,0.294763671875,-0.2189306640625,-0.072349609375,-0.2517529296875,-0.27962890625,0.0705888671875,-0.32965428054198015,0.34984646241834083,-0.379838508910184,0.1502005365552851,-0.305362167615455,0.30853384939040507,0.25257712251300973,0.424,-43.192,-5.064,-12.712,1.6,0.12,0.004
109,-0.28195703125,0.29754296875,-0.22238671875,-0.0658349609375,-0.2548515625,-0.2777822265625,0.0761279296875,0.3341945803818985,0.34984646241834083,-0.379838508910184,0.1502005365552851,-0.305362167615455,0.30853384939040507,0.25257712251300973,1.168,-45.024,-5.064,-13.812,2.096,0.304,0.004
110,-0.2830888671875,0.300423828125,-0.22570703125,-0.0603310546875,-0.25836328125,-0.271791015625,0.0804404296875,0.3341945803818985,0.34984646241834083,-0.379838508910184,0.1502005365552851,-0.305362167615455,0.30853384939040507,0.25257712251300973,1.752,-46.916,-4.808,-15.412,2.648,-0.624,-0.012
111,-0.284330078125,0.303208984375,-0.2287392578125,-0.0545380859375,-0.2608291015625,-0.266833984375,0.08433984375,0.3341945803818985,-0.2501295102655404,-0.379838508910184,0.1502005365552851,0.22764110472470245,0.30853384939040507,0.25257712251300973,2.072,-48.644,-4.44,-15.664,2.936,-1.144,0.036
112,-0.285255859375,0.30547265625,-0.2306162109375,-0.0486005859375,-0.2622744140625,-0.2606494140625,0.0874248046875,0.3341945803818985,-0.2501295102655404,-0.379838508910184,0.1502005365552851,0.22764110472470245,0.30853384939040507,0.25257712251300973,5.208,-49.94,-5.62,-16.876,2.588,-0.344,0.068
113,-0.2857705078125,0.3076337890625,-0.2319150390625,-0.0442509765625,-0.2662001953125,-0.2501142578125,0.0894775390625,0.3341945803818985,-0.2501295102655404,-0.379838508910184,0.1502005365552851,0.22764110472470245,0.30853384939040507,0.25257712251300973,8.292,-51.72,-6.268,-18.296,2.66,-0.876,0.056
114,-0.2861826171875,0.3096923828125,-0.2330703125,-0.04077734375,-0.270951171875,-0.2389716796875,0.090498046875,0.3341945803818985,-0.2501295102655404,-0.379838508910184,0.1502005365552851,0.22764110472470245,0.30853384939040507,0.25257712251300973,11.536,-54.204,-4.74,-20.008,3.78,-1.692,0.076
115,-0.2860791015625,0.31082421875,-0.2322041015625,-0.0367255859375,-0.2736240234375,-0.229482421875,0.0909111328125,0.3341945803818985,-0.2501295102655404,-0.379838508910184,0.1502005365552851,0.22764110472470245,0.30853384939040507,0.25257712251300973,14.992,-61.708,-6.636,-23.508,4.432,-1.432,0.116
116,-0.2857705078125,0.31175,-0.2319150390625,-0.033251953125,-0.2744501953125,-0.2187529296875,0.0911171875,0.3341945803818985,-0.2501295102655404,-0.379838508910184,0.1502005365552851,0.22764110472470245,0.30853384939040507,0.25257712251300973,18.5,-66.676,-8.74,-26.0,4.0,-1.852,0.012
117,-0.2847412109375,0.3120595703125,-0.2320595703125,-0.030201171875,-0.27672265625,-0.209470703125,0.0909111328125,0.3341945803818985,-0.2501295102655404,-0.379838508910184,0.1502005365552851,0.22764110472470245,0.30853384939040507,0.25257712251300973,21.584,-70.292,-8.188,-25.384,4.716,-2.088,0.052
118,-0.2830888671875,0.3110302734375,-0.231771484375,-0.0264296875,-0.27630859375,-0.1991416015625,0.0911171875,0.3341945803818985,-0.2501295102655404,-0.379838508910184,0.1502005365552851,0.22764110472470245,0.30853384939040507,0.25257712251300973,23.872,-71.644,-8.672,-28.012,4.776,-1.684,0.032
119,-0.280927734375,0.309794921875,-0.2322041015625,-0.0241201171875,-0.2769287109375,-0.1884130859375,0.0911171875,0.3341945803818985,-0.2501295102655404,-0.379838508910184,0.1502005365552851,0.22764110472470245,0.30853384939040507,0.25257712251300973,25.944,-71.968,-8.256,-28.7,4.984,-2.44,0.012
120,-0.2780400390625,0.30783984375,-0.2324931640625,-0.0219453125,-0.27630859375,-0.1807822265625,0.0909111328125,0.3341945803818985,-0.2501295102655404,-0.379838508910184,0.1502005365552851,0.22764110472470245,0.30853384939040507,0.25257712251300973,27.168,-71.104,-7.584,-28.54,5.564,-2.4,0.036
121,-0.2746376953125,0.30547265625,-0.2327822265625,-0.020203125,-0.2732109375,-0.1741845703125,0.0911171875,0.3341945803818985,-0.2501295102655404,-0.379838508910184,0.1502005365552851,0.22764110472470245,0.30853384939040507,0.25257712251300973,27.86,-69.16,-8.048,-28.724,4.98,-2.444,0.024
122,-0.2706171875,0.3026943359375,-0.2336484375,-0.0194814453125,-0.2703310546875,-0.1688134765625,0.0911171875,0.3341945803818985,-0.2501295102655404,-0.379838508910184,0.1502005365552851,0.22764110472470245,0.30853384939040507,0.25257712251300973,27.592,-66.676,-8.416,-26.8,4.756,-2.236,0.032
123,-0.26598046875,0.2992919921875,-0.2345146484375,-0.018759765625,-0.2659931640625,-0.163662109375,0.09132421875,0.3341945803818985,-0.2501295102655404,-0.379838508910184,0.1502005365552851,0.22764110472470245,0.30853384939040507,0.25257712251300973,26.848,-63.708,-7.584,-24.744,4.504,-2.028,0.104
124,-0.2608349609375,0.2953818359375,-0.2356689453125,-0.0180380859375,-0.2608291015625,-0.1597373046875,0.0919306640625,0.3341945803818985,-0.2501295102655404,-0.379838508910184,0.1502005365552851,0.22764110472470245,0.30853384939040507,0.25257712251300973,25.572,-60.088,-7.632,-24.676,4.016,-1.84,0.104
125,-0.2550654296875,0.291361328125,-0.2375458984375,-0.0183271484375,-0.2558837890625,-0.1564453125,0.09255078125,0.3341945803818985,-0.2501295102655404,-0.379838508910184,0.1502005365552851,0.22764110472470245,0.30853384939040507,0.25257712251300973,22.7,-56.472,-6.128,-22.616,4.156,-1.672,0.116
126,-0.24898046875,0.287142578125,-0.2391337890625,-0.018470703125,-0.2488603515625,-0.1545859375,0.0937900390625,0.3341945803818985,-0.2501295102655404,-0.379838508910184,0.1502005365552851,0.22764110472470245,0.30853384939040507,0.25257712251300973,19.724,-52.908,-5.364,-20.992,3.676,-1.592,0.108
127,-0.24259375,0.2828203125,-0.2410107421875,-0.019048828125,-0.2410234375,-0.15437890625,0.0950166015625,0.3341945803818985,-0.2501295102655404,-0.379838508910184,0.1502005365552851,0.22764110472470245,0.30853384939040507,0.25257712251300973,16.268,-50.156,-5.572,-19.828,3.052,-1.008,0.104
128,-0.2357890625,0.2784912109375,-0.2427529296875,-0.0200595703125,-0.2335869140625,-0.1539658203125,0.09665625,0.3341945803818985,-0.2501295102655404,-0.379838508910184,0.1502005365552851,0.22764110472470245,0.30853384939040507,0.25257712251300973,12.492,-48.536,-5.156,-16.92,2.848,-0.676,0.172
129,-0.2284697265625,0.2736552734375,-0.2441962890625,-0.02034765625,-0.224923828125,-0.1541728515625,0.0982958984375,0.3341945803818985,-0.2501295102655404,-0.379838508910184,0.1502005365552851,0.22764110472470245,0.30853384939040507,0.25257712251300973,11.056,-46.752,-4.996,-16.028,2.44,-0.616,0.172
130,-0.2210478515625,0.268708984375,-0.2462177734375,-0.0204921875,-0.216466796875,-0.15437890625,0.09994921875,0.3341945803818985,-0.2501295102655404,-0.379838508910184,0.1502005365552851,0.22764110472470245,0.30853384939040507,0.25257712251300973,10.524,-44.916,-4.716,-15.824,2.444,-0.428,0.156
131,-0.21331640625,0.26376953125,-0.2480947265625,-0.0207900390625,-0.208216796875,-0.1541728515625,0.101794921875,0.3341945803818985,-0.2501295102655404,-0.379838508910184,0.1502005365552851,0.22764110472470245,0.30853384939040507,0.25257712251300973,7.228,-43.676,-4.044,-14.796,2.66,-0.524,0.26
132,-0.205701171875,0.2586171875,-0.2496826171875,-0.0209345703125,-0.19893359375,-0.1541728515625,0.1036416015625,0.3341945803818985,-0.2501295102655404,-0.379838508910184,0.1502005365552851,0.22764110472470245,0.30853384939040507,0.25257712251300973,1.116,-42.056,-3.976,-14.84,2.164,-0.492,0.172
133,-0.1978671875,0.2535751953125,-0.2511259765625,-0.0213671875,-0.1902705078125,-0.15479296875,0.10528125,0.3341945803818985,-0.2501295102655404,-0.379838508910184,0.1502005365552851,0.22764110472470245,0.30853384939040507,0.25257712251300973,-3.668,-42.596,-3.768,-13.788,1.904,-0.264,0.172
134,-0.189923828125,0.248216796875,-0.25213671875,-0.0213671875,-0.181400390625,-0.1549990234375,0.1069208984375,0.3341945803818985,-0.2501295102655404,-0.379838508910184,0.1502005365552851,0.22764110472470245,0.30853384939040507,0.25257712251300973,-2.924,-44.0,-4.556,-12.784,1.66,0.036,0.188
135,-0.1819873046875,0.2425576171875,-0.2534365234375,-0.0207900390625,-0.1733447265625,-0.1541728515625,0.108560546875,0.3341945803818985,-0.2501295102655404,-0.379838508910184,0.1502005365552851,0.22764110472470245,0.30853384939040507,0.25257712251300973,-2.444,-44.916,-4.9,-13.192,1.484,0.136,0.088
136,-0.174359375,0.2367880859375,-0.2548798828125,-0.0200595703125,-0.1667470703125,-0.1525205078125,0.1100068359375,0.3341945803818985,-0.2501295102655404,-0.379838508910184,0.1502005365552851,0.22764110472470245,0.30853384939040507,0.25257712251300973,-7.44,-44.54,-4.416,-13.356,1.936,0.004,0.108
137,-0.167046875,0.230607421875,-0.25574609375,-0.018759765625,-0.1601494140625,-0.150248046875,0.111439453125,0.3341945803818985,-0.2501295102655404,-0.379838508910184,0.1502005365552851,0.22764110472470245,0.30853384939040507,0.25257712251300973,-12.28,-45.888,-4.184,-13.972,1.964,-0.172,0.044
138,-0.1597265625,0.224330078125,-0.2567568359375,-0.017595703125,-0.15396484375,-0.1484013671875,0.112873046875,0.3341945803818985,-0.2501295102655404,-0.379838508910184,0.1502005365552851,0.22764110472470245,0.30853384939040507,0.25257712251300973,-11.96,-47.888,-4.996,-14.336,1.816,-0.076,0.016
139,-0.15272265625,0.2177373046875,-0.257478515625,-0.0164404296875,-0.1492138671875,-0.145302734375,0.1139052734375,0.3341945803818985,-0.2501295102655404,-0.379838508910184,0.1502005365552851,0.22764110472470245,0.30853384939040507,0.25257712251300973,-9.248,-49.56,-5.664,-13.652,2.096,-0.004,0.044
140,-0.1460205078125,0.210423828125,-0.257912109375,-0.01441015625,-0.144888671875,-0.141390625,0.11492578125,0.3341945803818985,-0.2501295102655404,-0.379838508910184,0.1502005365552851,0.22764110472470245,0.30853384939040507,0.25257712251300973,-10.844,-49.992,-6.104,-14.568,1.892,-0.316,0.036
141,-0.13973046875,0.2032138671875,-0.2595,-0.012677734375,-0.1417900390625,-0.1374658203125,0.115751953125,0.3341945803818985,-0.2501295102655404,-0.379838508910184,0.1502005365552851,0.22764110472470245,0.30853384939040507,0.25257712251300973,-15.684,-49.184,-5.204,-15.504,2.264,-0.368,0.064
142,-0.133755859375,0.196421875,-0.261232421875,-0.0121005859375,-0.1388974609375,-0.132521484375,0.1165654296875,0.3341945803818985,-0.2501295102655404,-0.379838508910184,0.1502005365552851,0.22764110472470245,0.30853384939040507,0.25257712251300973,-15.576,-44.324,-3.468,-13.492,2.496,-0.604,0.084
143,-0.1279794921875,0.18941796875,-0.261376953125,-0.0110810546875,-0.134779296875,-0.128802734375,0.11759765625,0.3341945803818985,-0.2501295102655404,-0.379838508910184,0.1502005365552851,0.22764110472470245,0.30853384939040507,0.25257712251300973,-12.016,-42.596,-4.44,-11.204,1.8,-0.428,0.084
144,-0.122828125,0.182310546875,-0.2620986328125,-0.0100703125,-0.1316806640625,-0.125498046875,0.1186181640625,0.3341945803818985,-0.2501295102655404,-0.379838508910184,0.1502005365552851,0.22764110472470245,0.30853384939040507,0.25257712251300973,-9.248,-41.516,-6.38,-11.112,0.968,0.592,0.064
145,-0.117978515625,0.1759306640625,-0.2644091796875,-0.0100703125,-0.1304541015625,-0.1184873046875,0.119650390625,0.3341945803818985,-0.2501295102655404,-0.379838508910184,0.1502005365552851,0.22764110472470245,0.30853384939040507,0.25257712251300973,-11.376,-36.98,-4.068,-9.26,1.184,0.284,0.076
146,-0.1133408203125,0.169337890625,-0.2659970703125,-0.0093486328125,-0.12921484375,-0.1131162109375,0.1204638671875,0.3341945803818985,-0.2501295102655404,-0.379838508910184,0.1502005365552851,0.22764110472470245,0.30853384939040507,0.25257712251300973,-13.024,-32.932,-2.796,-7.98,1.488,-0.18,0.076
147,-0.109115234375,0.1630537109375,-0.26671875,-0.0084736328125,-0.12735546875,-0.10941015625,0.1214970703125,0.3341945803818985,-0.2501295102655404,-0.379838508910184,0.1502005365552851,0.22764110472470245,0.30853384939040507,0.25257712251300973,-10.896,-32.232,-4.044,-9.168,1.124,0.648,0.068
148,-0.105095703125,0.1573935546875,-0.2680185546875,-0.0086171875,-0.1259091796875,-0.103212890625,0.1227236328125,0.3341945803818985,-0.2501295102655404,-0.379838508910184,0.1502005365552851,0.22764110472470245,0.30853384939040507,0.25257712251300973,-8.452,-32.876,-4.324,-7.66,0.94,0.312,0.076
149,-0.10128125,0.15193359375,-0.2694619140625,-0.0077421875,-0.1242568359375,-0.0988876953125,0.124169921875,0.3341945803818985,-0.2501295102655404,-0.379838508910184,0.1502005365552851,0.22764110472470245,0.30853384939040507,0.25257712251300973,-6.804,-31.204,-4.044,-7.728,0.76,0.136,0.056
150,-0.0976728515625,0.14708984375,-0.271203125,-0.0073095703125,-0.1234306640625,-0.0943564453125,0.125396484375,0.3341945803818985,-0.2501295102655404,-0.379838508910184,0.1502005365552851,0.22764110472470245,0.30853384939040507,0.25257712251300973,-6.484,-29.856,-3.444,-7.864,1.04,0.388,0.088
151,-0.0942705078125,0.14214453125,-0.27192578125,-0.006298828125,-0.1213779296875,-0.0893984375,0.1268291015625,0.3341945803818985,-0.2501295102655404,-0.379838508910184,0.1502005365552851,0.22764110472470245,0.30853384939040507,0.25257712251300973,-6.856,-33.2,-3.468,-7.156,1.048,-0.168,0.108
152,-0.09107421875,0.13730078125,-0.2726474609375,-0.0044130859375,-0.1193125,-0.0861064453125,0.128275390625,0.3341945803818985,-0.2501295102655404,-0.379838508910184,0.1502005365552851,0.22764110472470245,0.30853384939040507,0.25257712251300973,-6.164,-34.12,-5.016,-9.536,0.72,0.136,0.044
153,-0.0851953125,0.13009765625,-0.27553515625,-0.00194921875,-0.1160068359375,-0.07641015625,0.130728515625,0.3341945803818985,-0.2501295102655404,-0.379838508910184,0.1502005365552851,0.22764110472470245,0.30853384939040507,0.25257712251300973,-3.08,-32.876,-3.328,-8.664,1.416,-0.488,0.104
154,-0.0851953125,0.13009765625,-0.27553515625,-0.00194921875,-0.1160068359375,-0.07641015625,0.130728515625,0.3341945803818985,-0.2501295102655404,-0.379838508910184,0.1502005365552851,0.22764110472470245,0.30853384939040507,0.25257712251300973,-3.08,-32.876,-3.328,-8.664,1.416,-0.488,0.104
155,-0.0819990234375,0.125974609375,-0.2762568359375,0.0002158203125,-0.1131279296875,-0.07332421875,0.1319677734375,0.3341945803818985,-0.2501295102655404,-0.379838508910184,0.1502005365552851,0.22764110472470245,0.30853384939040507,0.25257712251300973,-1.328,-34.768,-4.368,-10.428,1.312,0.084,0.084
156,-0.0791240234375,0.1225791015625,-0.276978515625,0.0018125,-0.11085546875,-0.0685732421875,0.1331943359375,0.3341945803818985,-0.2501295102655404,-0.379838508910184,0.1502005365552851,0.22764110472470245,0.30853384939040507,0.25257712251300973,-0.052,-39.68,-4.9,-10.244,1.572,0.156,0.136
157,-0.0761328125,0.118970703125,-0.2778447265625,0.004564453125,-0.10776953125,-0.064455078125,0.13443359375,0.3341945803818985,-0.2501295102655404,-0.379838508910184,0.1502005365552851,0.22764110472470245,0.30853384939040507,0.25257712251300973,0.372,-40.816,-5.316,-11.456,1.424,-0.16,0.056
158,-0.0732451171875,0.1158828125,-0.2794326171875,0.00673046875,-0.1061171875,-0.060943359375,0.13566015625,0.3341945803818985,-0.2501295102655404,-0.379838508910184,0.1502005365552851,0.22764110472470245,0.30853384939040507,0.25257712251300973,1.328,-39.088,-4.416,-12.712,1.984,-0.036,0.108
159,-0.070357421875,0.113001953125,-0.280443359375,0.0086162109375,-0.1030185546875,-0.0564111328125,0.1366806640625,0.3341945803818985,-0.2501295102655404,-0.379838508910184,0.1502005365552851,0.22764110472470245,0.30853384939040507,0.25257712251300973,2.176,-39.088,-3.608,-11.82,2.304,-0.468,0.148
160,-0.0674697265625,0.1101142578125,-0.280876953125,0.011080078125,-0.0988994140625,-0.0539326171875,0.137919921875,0.3341945803818985,-0.2501295102655404,-0.379838508910184,0.1502005365552851,0.22764110472470245,0.30853384939040507,0.25257712251300973,2.924,-40.76,-4.9,-12.6,1.776,-0.532,0.068
161,-0.064478515625,0.107541015625,-0.28188671875,0.013119140625,-0.09580078125,-0.051259765625,0.139146484375,0.3341945803818985,-0.2501295102655404,-0.379838508910184,0.1502005365552851,0.22764110472470245,0.30853384939040507,0.25257712251300973,3.772,-43.728,-5.224,-12.6,2.004,0.096,0.104
162,-0.0612880859375,0.104666015625,-0.282609375,0.0155732421875,-0.092095703125,-0.0467275390625,0.1403857421875,0.3341945803818985,-0.2501295102655404,-0.379838508910184,0.1502005365552851,0.22764110472470245,0.30853384939040507,0.25257712251300973,4.2,-46.376,-5.572,-12.668,2.152,-0.472,0.104
163,-0.058091796875,0.1014755859375,-0.283763671875,0.0184697265625,-0.0896171875,-0.04362890625,0.1416123046875,0.3341945803818985,-0.2501295102655404,-0.379838508910184,0.1502005365552851,0.22764110472470245,0.30853384939040507,0.25257712251300973,4.836,-47.348,-5.664,-15.136,2.492,-0.656,0.104
164,-0.054689453125,0.098587890625,-0.2850634765625,0.0205,-0.087150390625,-0.0393037109375,0.1428388671875,0.3341945803818985,-0.2501295102655404,-0.379838508910184,0.1502005365552851,0.22764110472470245,0.30853384939040507,0.25257712251300973,5.528,-47.24,-4.44,-15.756,3.128,-0.72,0.168
165,-0.051287109375,0.09570703125,-0.2859296875,0.0226748046875,-0.0828125,-0.03537890625,0.144078125,0.3341945803818985,-0.2501295102655404,-0.379838508910184,0.1502005365552851,0.22764110472470245,0.30853384939040507,0.25257712251300973,6.22,-46.644,-4.764,-15.136,2.792,-1.144,0.12
166,-0.047884765625,0.0928251953125,-0.2867958984375,0.0245517578125,-0.079107421875,-0.033326171875,0.1453046875,0.3341945803818985,-0.2501295102655404,-0.379838508910184,0.1502005365552851,0.22764110472470245,0.30853384939040507,0.25257712251300973,6.644,-47.024,-5.736,-15.228,2.42,-0.316,0.12
167,-0.0440703125,0.0899375,-0.2878154296875,0.0261484375,-0.075388671875,-0.028587890625,0.1467509765625,0.3341945803818985,-0.2501295102655404,-0.379838508910184,0.1502005365552851,0.22764110472470245,0.30853384939040507,0.25257712251300973,6.804,-48.32,-5.964,-14.248,2.4,-0.244,0.148
168,-0.04025,0.0864384765625,-0.288681640625,0.0284677734375,-0.0720966796875,-0.02445703125,0.1479775390625,0.3341945803818985,-0.2501295102655404,-0.379838508910184,0.1502005365552851,0.22764110472470245,0.30853384939040507,0.25257712251300973,6.912,-49.02,-6.104,-15.276,2.44,-0.708,0.076
169,-0.0363330078125,0.0830361328125,-0.2899814453125,0.0303447265625,-0.06982421875,-0.0207509765625,0.1492041015625,0.3341945803818985,-0.2501295102655404,-0.379838508910184,0.1502005365552851,0.22764110472470245,0.30853384939040507,0.25257712251300973,6.592,-49.184,-5.18,-16.488,2.9,-0.376,0.088
170,-0.0322099609375,0.0796396484375,-0.2909921875,0.03194140625,-0.066119140625,-0.015806640625,0.150650390625,0.3341945803818985,-0.2501295102655404,-0.379838508910184,0.1502005365552851,0.22764110472470245,0.30853384939040507,0.25257712251300973,5.9,-50.208,-4.972,-16.1,2.948,-0.928,0.068
171,-0.027984375,0.0760380859375,-0.2918583984375,0.03368359375,-0.062400390625,-0.0127080078125,0.151876953125,0.3341945803818985,-0.2501295102655404,-0.379838508910184,0.1502005365552851,0.22764110472470245,0.30853384939040507,0.25257712251300973,5.952,-49.832,-5.896,-16.42,2.64,-0.832,0.016
172,-0.023552734375,0.072533203125,-0.2933017578125,0.03455859375,-0.0591083984375,-0.009001953125,0.153103515625,0.3341945803818985,-0.2501295102655404,-0.379838508910184,0.1502005365552851,0.22764110472470245,0.30853384939040507,0.25257712251300973,6.22,-48.644,-5.364,-15.572,2.688,-0.524,0.032
173,-0.019115234375,0.068828125,-0.2943125,0.036001953125,-0.0549892578125,-0.0048837890625,0.154548828125,0.3341945803818985,-0.2501295102655404,-0.379838508910184,0.1502005365552851,0.22764110472470245,0.30853384939040507,0.25257712251300973,6.06,-48.32,-5.548,-15.048,2.516,-0.928,0.012
174,-0.0144775390625,0.064705078125,-0.2953232421875,0.0374462890625,-0.0514775390625,-0.00178515625,0.155775390625,0.3341945803818985,-0.2501295102655404,-0.379838508910184,0.1502005365552851,0.22764110472470245,0.30853384939040507,0.25257712251300973,4.944,-47.78,-5.712,-16.12,2.512,-0.68,-0.004
175,-0.0097314453125,0.0608974609375,-0.2969111328125,0.0383212890625,-0.0479794921875,0.0029521484375,0.1570146484375,0.3341945803818985,-0.2501295102655404,-0.379838508910184,0.1502005365552851,0.22764110472470245,0.30853384939040507,0.25257712251300973,4.464,-47.996,-4.88,-15.068,2.776,-0.804,0.036
176,-0.0048876953125,0.0566787109375,-0.297921875,0.0399091796875,-0.043640625,0.006658203125,0.1582412109375,0.3341945803818985,-0.2501295102655404,-0.379838508910184,0.1502005365552851,0.22764110472470245,0.30853384939040507,0.25257712251300973,3.932,-47.832,-5.064,-15.0,2.628,-0.98,0.016
177,-4.4921875e-05,0.052453125,-0.2990771484375,0.0410732421875,-0.0403486328125,0.009962890625,0.1594677734375,0.3341945803818985,-0.2501295102655404,-0.379838508910184,0.1502005365552851,0.22764110472470245,0.30853384939040507,0.25257712251300973,2.868,-47.292,-5.364,-15.276,2.48,-0.436,-0.012
178,0.00490625,0.0483369140625,-0.3005205078125,0.042083984375,-0.03623046875,0.014908203125,0.1605009765625,0.3341945803818985,-0.2501295102655404,-0.379838508910184,0.1502005365552851,0.22764110472470245,0.30853384939040507,0.25257712251300973,2.336,-46.268,-4.672,-14.292,2.392,-0.564,0.024
179,0.009955078125,0.0439052734375,-0.3016845703125,0.043681640625,-0.0323056640625,0.0184072265625,0.161521484375,0.3341945803818985,-0.2501295102655404,-0.379838508910184,0.1502005365552851,0.22764110472470245,0.30853384939040507,0.25257712251300973,2.284,-44.972,-4.924,-14.588,2.224,-0.572,0.012
180,0.0150107421875,0.0395830078125,-0.302984375,0.0448359375,-0.028806640625,0.022125,0.1625537109375,0.3341945803818985,-0.2501295102655404,-0.379838508910184,0.1502005365552851,0.22764110472470245,0.30853384939040507,0.25257712251300973,1.648,-44.756,-4.484,-14.816,2.36,-0.116,0.016
181,0.0200595703125,0.03525390625,-0.304427734375,0.0458466796875,-0.0244814453125,0.02686328125,0.1637802734375,0.3341945803818985,-0.2501295102655404,-0.379838508910184,0.1502005365552851,0.22764110472470245,0.30853384939040507,0.25257712251300973,0.688,-45.08,-4.208,-13.812,2.328,-0.636,0.004
182,0.025115234375,0.0308291015625,-0.3054384765625,0.0471552734375,-0.020556640625,0.0295361328125,0.1648134765625,0.3341945803818985,-0.2501295102655404,-0.379838508910184,0.1502005365552851,0.22764110472470245,0.30853384939040507,0.25257712251300973,0.636,-45.024,-4.716,-13.904,2.164,-0.344,0.016
183,0.0301640625,0.026603515625,-0.3067373046875,0.047876953125,-0.0168505859375,0.03303515625,0.1658330078125,0.3341945803818985,-0.2501295102655404,-0.379838508910184,0.1502005365552851,0.22764110472470245,0.30853384939040507,0.25257712251300973,0.052,-45.132,-4.324,-13.104,2.192,-0.232,0.056
184,0.0351162109375,0.02228125,-0.307892578125,0.0490322265625,-0.0123193359375,0.0369599609375,0.167072265625,0.3341945803818985,-0.2501295102655404,-0.379838508910184,0.1502005365552851,0.22764110472470245,0.30853384939040507,0.25257712251300973,-0.744,-44.108,-4.208,-12.712,2.076,-0.576,0.024
185,0.040171875,0.017953125,-0.3090478515625,0.0501962890625,-0.00861328125,0.0396328125,0.1680927734375,0.3341945803818985,-0.2501295102655404,-0.379838508910184,0.1502005365552851,0.22764110472470245,0.30853384939040507,0.25257712251300973,-0.688,-43.836,-4.508,-13.012,2.184,-0.336,0.032
186,0.045111328125,0.0137333984375,-0.3103466796875,0.0510625,-0.004482421875,0.0433505859375,0.169525390625,0.3341945803818985,-0.2501295102655404,-0.379838508910184,0.1502005365552851,0.22764110472470245,0.30853384939040507,0.25257712251300973,-0.744,-44.484,-4.3,-12.692,2.304,-0.368,0.068
187,0.0499609375,0.0093017578125,-0.311501953125,0.0522177734375,-0.000158203125,0.046642578125,0.170765625,0.3341945803818985,-0.2501295102655404,-0.379838508910184,0.1502005365552851,0.22764110472470245,0.30853384939040507,0.25257712251300973,-1.432,-44.16,-4.348,-12.416,2.216,-0.572,0.052
188,0.055009765625,0.0050830078125,-0.3125126953125,0.0533818359375,0.0035478515625,0.0495224609375,0.1719921875,0.3341945803818985,-0.2501295102655404,-0.379838508910184,0.1502005365552851,0.22764110472470245,0.30853384939040507,0.25257712251300973,-1.54,-43.944,-4.3,-12.188,2.204,-0.284,0.096
189,0.0597568359375,0.000857421875,-0.3136767578125,0.0544013671875,0.007873046875,0.053240234375,0.1732314453125,0.3341945803818985,-0.2501295102655404,-0.379838508910184,0.1502005365552851,0.22764110472470245,0.30853384939040507,0.25257712251300973,-1.648,-43.192,-4.184,-11.752,1.944,-0.208,0.096
190,0.0644970703125,-0.0033623046875,-0.31483203125,0.0555556640625,0.0117978515625,0.056533203125,0.1744580078125,0.3341945803818985,-0.2501295102655404,-0.379838508910184,0.1502005365552851,0.22764110472470245,0.30853384939040507,0.25257712251300973,-2.02,-42.272,-4.484,-11.776,1.828,-0.252,0.104
191,0.0693466796875,-0.007587890625,-0.3158427734375,0.0567197265625,0.0155029296875,0.0598251953125,0.1756845703125,0.3341945803818985,-0.2501295102655404,-0.379838508910184,0.1502005365552851,0.22764110472470245,0.30853384939040507,0.25257712251300973,-2.284,-42.596,-4.416,-11.708,1.976,-0.052,0.12
192,0.0739833984375,-0.01191015625,-0.3169970703125,0.0581640625,0.0194150390625,0.0635302734375,0.176923828125,0.3341945803818985,-0.2501295102655404,-0.379838508910184,0.1502005365552851,0.22764110472470245,0.30853384939040507,0.25257712251300973,-2.284,-42.868,-4.392,-12.12,1.92,-0.16,0.148
193,0.07862109375,-0.016033203125,-0.31815234375,0.05947265625,0.0229140625,0.0670419921875,0.177943359375,0.3341945803818985,-0.2501295102655404,-0.379838508910184,0.1502005365552851,0.22764110472470245,0.30853384939040507,0.25257712251300973,-2.496,-42.868,-4.416,-12.052,2.024,-0.276,0.128
194,0.083162109375,-0.0201494140625,-0.3191630859375,0.060771484375,0.02642578125,0.0703349609375,0.17918359375,0.3341945803818985,-0.2501295102655404,-0.379838508910184,0.1502005365552851,0.22764110472470245,0.30853384939040507,0.25257712251300973,-2.392,-43.192,-4.532,-11.776,2.12,-0.156,0.16
195,0.0876962890625,-0.024271484375,-0.320029296875,0.062080078125,0.030337890625,0.0740400390625,0.18041015625,0.3341945803818985,-0.2501295102655404,-0.379838508910184,0.1502005365552851,0.22764110472470245,0.30853384939040507,0.25257712251300973,-2.02,-42.436,-4.856,-12.12,1.88,-0.284,0.156
196,0.092134765625,-0.0281826171875,-0.3211845703125,0.06337890625,0.0336298828125,0.0775517578125,0.1814423828125,0.3341945803818985,-0.2501295102655404,-0.379838508910184,0.1502005365552851,0.22764110472470245,0.30853384939040507,0.25257712251300973,-2.02,-42.22,-4.74,-11.732,2.044,-0.468,0.172
197,0.0965654296875,-0.032408203125,-0.32190625,0.0649677734375,0.0375546875,0.08084375,0.1826689453125,0.3341945803818985,-0.2501295102655404,-0.379838508910184,0.1502005365552851,0.22764110472470245,0.30853384939040507,0.25257712251300973,-1.964,-42.976,-5.108,-11.892,2.148,-0.316,0.2
198,0.10089453125,-0.036318359375,-0.3229169921875,0.066275390625,0.0410537109375,0.084755859375,0.1838955078125,0.3341945803818985,-0.2501295102655404,-0.379838508910184,0.1502005365552851,0.22764110472470245,0.30853384939040507,0.25257712251300973,-1.964,-43.028,-5.364,-12.188,2.044,-0.448,0.18
199,0.1052294921875,-0.0401328125,-0.3240810546875,0.0675751953125,0.0441396484375,0.0884619140625,0.1849287109375,0.3341945803818985,-0.2501295102655404,-0.379838508910184,0.1502005365552851,0.22764110472470245,0.30853384939040507,0.25257712251300973,-1.488,-43.512,-5.108,-11.524,2.256,-0.572,0.224
200,0.109455078125,-0.044146484375,-0.324802734375,0.06931640625,0.0476513671875,0.0921796875,0.186361328125,0.3341945803818985,-0.2501295102655404,-0.379838508910184,0.1502005365552851,0.22764110472470245,0.30853384939040507,0.25257712251300973,-1.432,-43.404,-5.432,-12.28,2.024,-0.42,0.208
201,0.1136806640625,-0.048056640625,-0.3259580078125,0.0706162109375,0.0507373046875,0.0967119140625,0.18739453125,0.3341945803818985,-0.2501295102655404,-0.379838508910184,0.1502005365552851,0.22764110472470245,0.30853384939040507,0.25257712251300973,-1.38,-42.76,-5.248,-12.188,1.996,-0.504,0.224
202,0.1179130859375,-0.0519736328125,-0.32682421875,0.072357421875,0.053822265625,0.1006240234375,0.18862109375,0.3341945803818985,-0.2501295102655404,-0.379838508910184,0.1502005365552851,0.22764110472470245,0.30853384939040507,0.25257712251300973,-1.008,-42.596,-5.388,-12.232,2.14,-0.408,0.264
203,0.1220361328125,-0.0559873046875,-0.3276904296875,0.07408984375,0.0571279296875,0.1047421875,0.1898603515625,0.3341945803818985,-0.2501295102655404,-0.379838508910184,0.1502005365552851,0.22764110472470245,0.30853384939040507,0.25257712251300973,-0.528,-43.244,-5.872,-12.804,1.996,-0.172,0.208
204,0.126158203125,-0.05980078125,-0.3288447265625,0.0755517578125,0.060419921875,0.10948046875,0.1910869140625,0.3341945803818985,-0.2501295102655404,-0.379838508910184,0.1502005365552851,0.22764110472470245,0.30853384939040507,0.25257712251300973,-0.372,-43.784,-5.756,-12.44,2.108,-0.324,0.172
205,0.1302880859375,-0.0636083984375,-0.32985546875,0.0772939453125,0.0632998046875,0.113392578125,0.1923134765625,0.3341945803818985,-0.2501295102655404,-0.379838508910184,0.1502005365552851,0.22764110472470245,0.30853384939040507,0.25257712251300973,-0.264,-44.0,-5.596,-12.416,2.284,-0.332,0.2
206,0.13441015625,-0.0673193359375,-0.3308662109375,0.0787373046875,0.0666044921875,0.1175107421875,0.193759765625,0.3341945803818985,-0.2501295102655404,0.3254263638140814,0.1502005365552851,0.22764110472470245,0.30853384939040507,0.25257712251300973,-0.212,-44.216,-5.664,-12.484,2.112,-0.284,0.156
207,0.1384306640625,-0.0710244140625,-0.331876953125,0.0801806640625,0.069896484375,0.1218359375,0.1951923828125,0.3341945803818985,-0.2501295102655404,0.3254263638140814,0.1502005365552851,0.22764110472470245,0.30853384939040507,0.25257712251300973,0.316,-44.324,-5.848,-12.12,2.172,-0.52,0.104
208,0.14245703125,-0.07494140625,-0.3328876953125,0.0819228515625,0.072982421875,0.1253349609375,0.1964189453125,0.3341945803818985,-0.2501295102655404,0.3254263638140814,0.1502005365552851,0.22764110472470245,0.30853384939040507,0.25257712251300973,0.264,-44.376,-6.08,-12.784,2.252,-0.376,0.084
209,0.1464765625,-0.0788515625,-0.33375390625,0.083375,0.075875,0.1300732421875,0.198072265625,0.3341945803818985,-0.2501295102655404,0.3254263638140814,0.1502005365552851,0.22764110472470245,0.30853384939040507,0.25257712251300973,-0.052,-44.268,-5.456,-13.08,2.392,-0.448,0.084
210,0.1503935546875,-0.082556640625,-0.3328876953125,0.0845302734375,0.0783408203125,0.13460546875,0.199298828125,0.3341945803818985,-0.2501295102655404,0.3254263638140814,0.1502005365552851,0.22764110472470245,0.30853384939040507,0.25257712251300973,-3.88,-40.06,-3.884,-12.784,2.76,-0.888,0.068
211,0.1538984375,-0.085958984375,-0.33014453125,0.084962890625,0.0816328125,0.137484375,0.200125,0.3341945803818985,-0.2501295102655404,0.3254263638140814,0.1502005365552851,0.22764110472470245,0.30853384939040507,0.25257712251300973,-8.24,-35.632,-3.144,-11.572,2.608,-0.844,0.088
212,0.1571982421875,-0.0887373046875,-0.32624609375,0.0846748046875,0.0861650390625,0.13934375,0.2009384765625,0.3341945803818985,-0.2501295102655404,0.3254263638140814,0.1502005365552851,0.22764110472470245,0.30853384939040507,0.25257712251300973,-9.676,-34.444,-3.792,-9.628,1.464,-0.108,0.044
213,0.160189453125,-0.091310546875,-0.32205078125,0.083953125,0.0894697265625,0.1416025390625,0.2013515625,0.3341945803818985,-0.2501295102655404,0.3254263638140814,0.1502005365552851,0.22764110472470245,0.30853384939040507,0.25257712251300973,-10.74,-33.632,-3.908,-7.592,0.832,0.504,0.056
214,0.1630771484375,-0.094095703125,-0.3169970703125,0.08380859375,0.0917294921875,0.1442880859375,0.2015576171875,0.3341945803818985,-0.2501295102655404,0.3254263638140814,0.1502005365552851,0.22764110472470245,0.30853384939040507,0.25257712251300973,-11.8,-32.716,-3.12,-6.584,0.844,0.416,0.084
215,0.16596484375,-0.09666796875,-0.311791015625,0.0842412109375,0.094001953125,0.1463408203125,0.2017646484375,0.3341945803818985,-0.2501295102655404,0.3254263638140814,0.1502005365552851,0.22764110472470245,0.30853384939040507,0.25257712251300973,-12.6,-30.88,-2.22,-7.544,0.836,0.244,0.032
216,0.168337890625,-0.098623046875,-0.306015625,0.0842412109375,0.0956416015625,0.147994140625,0.2017646484375,0.3341945803818985,-0.2501295102655404,0.3254263638140814,0.1502005365552851,0.22764110472470245,0.30853384939040507,0.25257712251300973,-12.76,-30.34,-2.104,-7.704,1.236,0.18,0.056
217,0.17040234375,-0.10037890625,-0.2990771484375,0.0843857421875,0.0983271484375,0.1492333984375,0.2017646484375,0.3341945803818985,-0.2501295102655404,0.3254263638140814,0.1502005365552851,0.22764110472470245,0.30853384939040507,0.25257712251300973,-12.172,-30.88,-2.496,-7.864,1.092,0.108,0.036
218,0.1720498046875,-0.1015048828125,-0.292435546875,0.0845302734375,0.1005859375,0.149439453125,0.2017646484375,0.3341945803818985,-0.2501295102655404,0.3254263638140814,0.1502005365552851,0.22764110472470245,0.30853384939040507,0.25257712251300973,-11.216,-32.5,-3.744,-8.184,0.78,0.324,0.036
219,0.17349609375,-0.1027392578125,-0.28578515625,0.0848193359375,0.1018251953125,0.14983984375,0.201970703125,0.3341945803818985,-0.2501295102655404,0.3254263638140814,0.1502005365552851,0.22764110472470245,0.30853384939040507,0.25257712251300973,-10.048,-34.712,-4.184,-8.024,1.02,0.468,0.096
220,0.1747314453125,-0.1040771484375,-0.27885546875,0.0861181640625,0.1030654296875,0.150666015625,0.2023837890625,0.3341945803818985,-0.2501295102655404,0.3254263638140814,0.1502005365552851,0.22764110472470245,0.30853384939040507,0.25257712251300973,-9.248,-35.74,-4.068,-9.628,1.208,0.156,0.064
221,0.1758701171875,-0.1051064453125,-0.27192578125,0.0869931640625,0.103271484375,0.1514931640625,0.2027841796875,0.3341945803818985,-0.2501295102655404,0.3254263638140814,0.1502005365552851,0.22764110472470245,0.30853384939040507,0.25257712251300973,-8.452,-36.224,-4.068,-10.68,1.82,-0.148,0.084
222,0.1767958984375,-0.1058271484375,-0.2642646484375,0.0881484375,0.104498046875,0.1514931640625,0.203404296875,0.3341945803818985,-0.2501295102655404,0.3254263638140814,0.1502005365552851,0.22764110472470245,0.30853384939040507,-0.380853591792255,-7.284,-37.792,-4.368,-11.18,1.996,-0.24,0.104
223,0.1778251953125,-0.106546875,-0.2511259765625,0.08974609375,0.106150390625,0.1512861328125,0.2048369140625,0.3341945803818985,-0.2501295102655404,0.3254263638140814,0.1502005365552851,0.22764110472470245,0.30853384939040507,-0.380853591792255,-4.252,-41.14,-4.464,-10.952,1.644,-0.004,0.084
224,0.1778251953125,-0.106546875,-0.2511259765625,0.08974609375,0.106150390625,0.1512861328125,0.2048369140625,0.3341945803818985,-0.2501295102655404,0.3254263638140814,0.1502005365552851,0.22764110472470245,0.30853384939040507,-0.380853591792255,-4.252,-41.14,-4.464,-10.952,1.644,-0.004,0.084
225,0.17833984375,-0.107267578125,-0.243474609375,0.091478515625,0.106357421875,0.1514931640625,0.20525,0.3341945803818985,-0.2501295102655404,0.3254263638140814,0.1502005365552851,0.22764110472470245,0.30853384939040507,-0.380853591792255,-2.604,-41.896,-4.556,-12.372,1.808,-0.012,0.052
226,0.1786484375,-0.1077822265625,-0.23682421875,0.0929306640625,0.1057373046875,0.1523193359375,0.204630859375,0.3341945803818985,-0.2501295102655404,0.3254263638140814,0.1502005365552851,0.22764110472470245,0.30853384939040507,-0.380853591792255,-1.06,-42.272,-4.092,-13.628,2.16,-0.312,-0.128
227,0.1789638671875,-0.1080908203125,-0.2303271484375,0.09423046875,0.1059443359375,0.152732421875,0.2013515625,0.3341945803818985,-0.2501295102655404,0.3254263638140814,0.1502005365552851,0.22764110472470245,0.30853384939040507,-0.380853591792255,-0.156,-43.296,-4.3,-13.948,2.428,-0.532,-0.148
228,0.1791689453125,-0.108296875,-0.223830078125,0.09510546875,0.1059443359375,0.1529384765625,0.1958125,0.3341945803818985,-0.2501295102655404,0.3254263638140814,0.1502005365552851,0.22764110472470245,0.30853384939040507,-0.380853591792255,1.276,-45.188,-5.248,-14.428,2.236,-0.252,-0.14
229,0.179478515625,-0.1085087890625,-0.2176318359375,0.096125,0.1059443359375,0.1539716796875,0.1892412109375,0.3341945803818985,-0.2501295102655404,0.3254263638140814,0.1502005365552851,0.22764110472470245,0.30853384939040507,-0.380853591792255,2.552,-46.752,-5.48,-14.568,2.212,-0.22,-0.044
230,0.179787109375,-0.1090234375,-0.2114228515625,0.0974248046875,0.10553125,0.155404296875,0.1816494140625,0.3341945803818985,-0.2501295102655404,0.3254263638140814,0.1502005365552851,0.22764110472470245,0.30853384939040507,-0.380853591792255,3.772,-47.456,-5.896,-15.32,2.484,-0.42,-0.024
231,0.180095703125,-0.109640625,-0.2049267578125,0.0985888671875,0.1049111328125,0.157263671875,0.1732314453125,0.3341945803818985,-0.2501295102655404,0.3254263638140814,0.1502005365552851,0.22764110472470245,0.30853384939040507,-0.380853591792255,4.944,-47.832,-5.664,-16.396,2.68,-0.584,-0.14
232,0.1806103515625,-0.110052734375,-0.1990068359375,0.099455078125,0.1051181640625,0.1589033203125,0.1637802734375,0.3341945803818985,-0.2501295102655404,0.3254263638140814,0.1502005365552851,0.22764110472470245,0.30853384939040507,-0.380853591792255,5.74,-48.644,-5.804,-16.648,2.672,-0.752,-0.212
233,0.181125,-0.110669921875,-0.192943359375,0.1001767578125,0.1051181640625,0.160556640625,0.1535166015625,0.3341945803818985,-0.2501295102655404,0.3254263638140814,0.1502005365552851,0.22764110472470245,0.30853384939040507,-0.380853591792255,6.536,-49.832,-5.688,-16.512,2.724,-0.576,-0.22
234,0.1818515625,-0.1114931640625,-0.186888671875,0.1011875,0.10553125,0.1630224609375,0.1446982421875,0.3341945803818985,-0.2501295102655404,0.3254263638140814,0.1502005365552851,0.22764110472470245,0.30853384939040507,-0.380853591792255,7.016,-50.316,-5.34,-16.808,2.564,-0.576,-0.192
235,0.1826748046875,-0.1125224609375,-0.18111328125,0.1020537109375,0.1051181640625,0.1657080078125,0.13688671875,0.3341945803818985,-0.2501295102655404,0.3254263638140814,-0.2999694645996951,0.22764110472470245,0.30853384939040507,-0.380853591792255,7.496,-50.1,-5.204,-17.24,2.772,-0.844,-0.172
236,0.1837041015625,-0.1137568359375,-0.1751943359375,0.103064453125,0.10532421875,0.168173828125,0.1301220703125,0.3341945803818985,-0.2501295102655404,0.3254263638140814,-0.2999694645996951,0.22764110472470245,0.30853384939040507,-0.380853591792255,7.708,-49.616,-4.9,-17.86,3.032,-0.884,-0.128
237,0.184841796875,-0.1149921875,-0.1694189453125,0.1037861328125,0.106357421875,0.1708466796875,0.12313671875,0.3341945803818985,-0.2501295102655404,0.3254263638140814,-0.2999694645996951,0.22764110472470245,0.30853384939040507,-0.380853591792255,7.972,-49.292,-4.924,-17.928,2.928,-0.976,-0.172
238,0.1860771484375,-0.1161240234375,-0.1639423828125,0.1039306640625,0.10718359375,0.1733251953125,0.1171845703125,0.3341945803818985,-0.2501295102655404,0.3254263638140814,-0.2999694645996951,0.22764110472470245,0.30853384939040507,-0.380853591792255,8.08,-49.884,-5.572,-17.904,2.824,-0.832,-0.2
239,0.187517578125,-0.11716015625,-0.1584560546875,0.102919921875,0.10718359375,0.1770302734375,0.111646484375,0.3341945803818985,-0.2501295102655404,0.3254263638140814,-0.2999694645996951,0.22764110472470245,0.30853384939040507,-0.380853591792255,7.76,-50.48,-5.248,-20.032,3.228,-1.048,-0.148
240,0.18896484375,-0.1180859375,-0.1526806640625,0.1008984375,0.10718359375,0.180736328125,0.1067138671875,0.3341945803818985,-0.2501295102655404,0.3254263638140814,-0.2999694645996951,0.22764110472470245,0.30853384939040507,-0.380853591792255,7.812,-52.1,-5.224,-20.376,3.748,-1.736,-0.088
241,0.19071484375,-0.11901171875,-0.1466259765625,0.0987333984375,0.1088232421875,0.182595703125,0.1024013671875,0.3341945803818985,-0.2501295102655404,0.3254263638140814,-0.2999694645996951,0.22764110472470245,0.30853384939040507,-0.380853591792255,7.708,-53.124,-6.08,-21.54,3.56,-1.32,-0.068
242,0.1923671875,-0.119732421875,-0.1405625,0.0949521484375,0.1100625,0.185474609375,0.0982958984375,0.3341945803818985,-0.2501295102655404,0.3254263638140814,-0.2999694645996951,0.22764110472470245,0.30853384939040507,-0.380853591792255,7.44,-54.42,-6.66,-20.42,3.476,-0.976,-0.052
243,0.1943291015625,-0.120658203125,-0.134642578125,0.090900390625,0.11212890625,0.188560546875,0.093984375,0.3341945803818985,-0.2501295102655404,0.3254263638140814,-0.2999694645996951,0.22764110472470245,0.30853384939040507,-0.380853591792255,6.912,-55.768,-6.844,-19.62,3.248,-1.188,-0.116
244,0.196490234375,-0.1218935546875,-0.128732421875,0.086560546875,0.1127353515625,0.1908193359375,0.089271484375,0.3341945803818985,-0.2501295102655404,0.3254263638140814,-0.2999694645996951,0.22764110472470245,0.30853384939040507,-0.380853591792255,6.06,-55.552,-6.312,-20.56,3.424,-0.852,-0.136
245,0.1986572265625,-0.1232314453125,-0.1231025390625,0.0816337890625,0.113974609375,0.1943310546875,0.0841328125,0.3341945803818985,-0.2501295102655404,0.3254263638140814,-0.2999694645996951,0.22764110472470245,0.30853384939040507,-0.380853591792255,5.156,-55.284,-5.064,-20.1,3.664,-1.084,-0.136
246,0.200927734375,-0.124671875,-0.11719140625,0.07641796875,0.116041015625,0.1963837890625,0.0783876953125,0.3341945803818985,-0.2501295102655404,0.3254263638140814,-0.2999694645996951,0.22764110472470245,0.30853384939040507,-0.380853591792255,4.516,-54.472,-5.528,-20.536,3.528,-1.272,-0.26
247,0.2033017578125,-0.126119140625,-0.1112724609375,0.0701826171875,0.1174736328125,0.197830078125,0.0718154296875,0.3341945803818985,-0.2501295102655404,0.3254263638140814,-0.2999694645996951,0.22764110472470245,0.30853384939040507,-0.380853591792255,3.72,-54.04,-5.548,-19.508,3.564,-0.78,-0.22
248,0.205771484375,-0.127765625,-0.1052177734375,0.0641015625,0.120779296875,0.1998828125,0.06505078125,0.3341945803818985,-0.2501295102655404,0.3254263638140814,-0.2999694645996951,0.22764110472470245,0.30853384939040507,-0.380853591792255,2.868,-53.828,-5.62,-17.036,3.196,-0.884,-0.22
249,0.2083505859375,-0.130029296875,-0.0993076171875,0.0584521484375,0.1232451171875,0.2002958984375,0.0584658203125,0.3341945803818985,-0.2501295102655404,0.3254263638140814,-0.2999694645996951,0.22764110472470245,0.30853384939040507,-0.380853591792255,2.124,-52.368,-6.636,-16.188,2.804,-0.572,-0.156
250,0.2110322265625,-0.1321904296875,-0.093974609375,0.052361328125,0.1248974609375,0.2019482421875,0.0521005859375,0.3341945803818985,-0.2501295102655404,0.3254263638140814,-0.2999694645996951,0.22764110472470245,0.30853384939040507,-0.380853591792255,0.956,-50.424,-5.412,-16.624,2.992,-0.388,-0.168
251,0.21371484375,-0.1346669921875,-0.0883525390625,0.0461357421875,0.126744140625,0.204001953125,0.0459423828125,0.3341945803818985,-0.2501295102655404,0.3254263638140814,-0.2999694645996951,0.22764110472470245,0.30853384939040507,-0.380853591792255,-0.156,-49.128,-5.088,-17.652,3.304,-1.028,-0.14
252,0.2162939453125,-0.136828125,-0.0822978515625,0.03933203125,0.1286025390625,0.20462109375,0.0391767578125,0.3341945803818985,-0.2501295102655404,0.3254263638140814,-0.2999694645996951,0.22764110472470245,0.30853384939040507,-0.380853591792255,-0.796,-47.888,-5.272,-18.592,3.252,-1.012,-0.24
253,0.218873046875,-0.1389892578125,-0.0765234375,0.0320859375,0.1318955078125,0.204828125,0.0321923828125,0.3341945803818985,-0.2501295102655404,0.3254263638140814,-0.2999694645996951,0.22764110472470245,0.30853384939040507,-0.380853591792255,-1.488,-47.94,-5.48,-15.136,2.952,-0.72,-0.168
254,0.2214580078125,-0.14187109375,-0.07003515625,0.0268701171875,0.1364267578125,0.2042080078125,0.0252197265625,0.3341945803818985,-0.2501295102655404,0.3254263638140814,-0.2999694645996951,0.22764110472470245,0.30853384939040507,-0.380853591792255,-1.964,-46.484,-6.8,-13.376,1.796,-0.18,-0.16
255,0.22403125,-0.1449638671875,-0.0647021484375,0.0212216796875,0.13806640625,0.204828125,0.0186484375,0.3341945803818985,-0.2501295102655404,0.3254263638140814,-0.2999694645996951,0.22764110472470245,0.30853384939040507,-0.380853591792255,-2.868,-43.836,-5.896,-13.696,1.536,0.056,-0.116
256,0.2266103515625,-0.1479482421875,-0.059802734375,0.01499609375,0.1382734375,0.2070869140625,0.0126962890625,0.3341945803818985,-0.2501295102655404,0.3254263638140814,-0.2999694645996951,0.22764110472470245,0.30853384939040507,-0.380853591792255,-3.772,-42.328,-2.936,-14.336,2.968,-0.636,-0.032
257,0.2289833984375,-0.150630859375,-0.054181640625,0.0087607421875,0.140958984375,0.2081201171875,0.007158203125,0.3341945803818985,-0.2501295102655404,0.3254263638140814,-0.2999694645996951,0.22764110472470245,0.30853384939040507,-0.380853591792255,-4.092,-41.624,-3.052,-16.556,3.004,-1.308,-0.12
258,0.23125390625,-0.1526884765625,-0.04840625,0.0015234375,0.1442509765625,0.2070869140625,0.001412109375,0.3341945803818985,-0.2501295102655404,0.3254263638140814,-0.2999694645996951,0.22764110472470245,0.30853384939040507,-0.380853591792255,-4.464,-42.436,-3.792,-13.4,2.66,-0.8,-0.14
259,0.233421875,-0.1553642578125,-0.04191796875,-0.0042685546875,0.14940234375,0.2058603515625,-0.0045390625,0.3341945803818985,-0.2501295102655404,0.3254263638140814,-0.2999694645996951,0.22764110472470245,0.30853384939040507,-0.380853591792255,-4.572,-42.652,-5.18,-10.2,1.432,0.14,-0.168
260,0.2355830078125,-0.1583486328125,-0.036296875,-0.00978125,0.151455078125,0.2064677734375,-0.01028515625,0.3341945803818985,-0.2501295102655404,0.3254263638140814,-0.2999694645996951,0.22764110472470245,0.30853384939040507,-0.380853591792255,-4.516,-40.06,-6.244,-11.18,0.656,0.4,-0.276
261,0.2375439453125,-0.1608251953125,-0.031974609375,-0.0160078125,0.1508359375,0.208533203125,-0.0168564453125,0.3341945803818985,-0.2501295102655404,0.3254263638140814,-0.2999694645996951,0.22764110472470245,0.30853384939040507,-0.380853591792255,-4.676,-38.168,-3.352,-12.072,2.212,-0.272,-0.188
262,0.239505859375,-0.1633974609375,-0.026208984375,-0.02151171875,0.153314453125,0.2097724609375,-0.0230146484375,0.3341945803818985,-0.2501295102655404,0.3254263638140814,-0.2999694645996951,0.22764110472470245,0.30853384939040507,-0.380853591792255,-4.624,-37.144,-3.12,-14.428,2.752,-0.924,-0.156
263,0.2413583984375,-0.1650439453125,-0.0202978515625,-0.02802734375,0.156400390625,0.20956640625,-0.028966796875,0.3341945803818985,-0.2501295102655404,0.3254263638140814,-0.2999694645996951,0.22764110472470245,0.30853384939040507,-0.380853591792255,-4.464,-37.628,-4.324,-13.012,2.048,-0.564,-0.14
264,0.2431142578125,-0.167,-0.013955078125,-0.0336845703125,0.1607255859375,0.2089462890625,-0.034505859375,0.3341945803818985,-0.2501295102655404,0.3254263638140814,-0.2999694645996951,0.22764110472470245,0.30853384939040507,-0.380853591792255,-4.144,-38.764,-5.572,-9.376,1.36,0.244,-0.136
265,0.2447607421875,-0.1695791015625,-0.0077646484375,-0.0381689453125,0.16319140625,0.2097724609375,-0.0398505859375,0.3341945803818985,-0.2501295102655404,0.3254263638140814,-0.2999694645996951,0.22764110472470245,0.30853384939040507,-0.380853591792255,-3.932,-37.304,-6.452,-10.748,0.52,0.576,-0.172
266,0.2462080078125,-0.1715341796875,-0.0028662109375,-0.0439619140625,0.16196484375,0.2128583984375,-0.045802734375,0.3341945803818985,-0.2501295102655404,0.3254263638140814,-0.2999694645996951,0.22764110472470245,0.30853384939040507,-0.380853591792255,-3.668,-36.008,-3.536,-11.524,1.884,-0.156,-0.104
267,0.247751953125,-0.1734892578125,0.002900390625,-0.048888671875,0.1633974609375,0.21532421875,-0.0519482421875,0.3341945803818985,-0.2501295102655404,0.3254263638140814,-0.2999694645996951,0.22764110472470245,0.30853384939040507,-0.380853591792255,-3.08,-36.388,-1.848,-12.576,2.76,-0.884,-0.14
268,0.2491982421875,-0.174724609375,0.008666015625,-0.0545380859375,0.165876953125,0.2159443359375,-0.0583134765625,0.3341945803818985,-0.2501295102655404,0.3254263638140814,-0.2999694645996951,0.22764110472470245,0.30853384939040507,-0.380853591792255,-3.08,-37.52,-3.836,-13.104,2.024,-0.556,-0.18
269,0.25043359375,-0.175759765625,0.014576171875,-0.0603310546875,0.1675166015625,0.2167705078125,-0.065298828125,0.3341945803818985,-0.2501295102655404,0.3254263638140814,-0.2999694645996951,0.22764110472470245,0.30853384939040507,-0.380853591792255,-2.604,-40.06,-4.232,-9.628,1.872,0.172,-0.024
270,0.2516748046875,-0.177818359375,0.0210546875,-0.0642470703125,0.1699951171875,0.2190302734375,-0.07125,0.3341945803818985,-0.2501295102655404,0.3254263638140814,-0.2999694645996951,0.22764110472470245,0.30853384939040507,-0.380853591792255,-1.86,-39.572,-5.504,-10.68,1.08,0.14,-0.032
271,0.25291015625,-0.1792587890625,0.0262431640625,-0.0691650390625,0.1683427734375,0.2217158203125,-0.0772021484375,0.3341945803818985,-0.2501295102655404,0.3254263638140814,-0.2999694645996951,0.22764110472470245,0.30853384939040507,-0.380853591792255,-1.22,-37.844,-4.324,-12.028,1.724,-0.188,-0.044
272,0.2539453125,-0.1804931640625,0.031720703125,-0.074091796875,0.1683427734375,0.22480078125,-0.082947265625,0.3341945803818985,-0.2501295102655404,0.3254263638140814,-0.2999694645996951,0.22764110472470245,0.30853384939040507,-0.380853591792255,-0.528,-38.224,-3.144,-12.736,2.908,-0.524,-0.076
273,0.255283203125,-0.1816259765625,0.038064453125,-0.0787294921875,0.1706025390625,0.226853515625,-0.088693359375,0.3341945803818985,-0.2501295102655404,0.3254263638140814,-0.2999694645996951,0.22764110472470245,0.30853384939040507,-0.380853591792255,-0.264,-39.14,-5.316,-13.812,2.132,-0.732,-0.156
274,0.2564150390625,-0.1821396484375,0.0439658203125,-0.0842333984375,0.1706025390625,0.2272666015625,-0.0952646484375,0.3341945803818985,-0.2501295102655404,0.3254263638140814,-0.2999694645996951,0.22764110472470245,0.30853384939040507,-0.380853591792255,0.104,-41.032,-5.736,-12.028,1.912,0.24,-0.18
275,0.2575537109375,-0.1834775390625,0.05059765625,-0.08828515625,0.1722548828125,0.2303525390625,-0.1016171875,0.3341945803818985,-0.2501295102655404,0.3254263638140814,-0.2999694645996951,0.22764110472470245,0.30853384939040507,-0.380853591792255,0.744,-41.788,-6.104,-11.48,1.748,0.188,-0.2
276,0.258685546875,-0.1849248046875,0.0569228515625,-0.0919130859375,0.171841796875,0.23283203125,-0.108408203125,0.3341945803818985,-0.2501295102655404,0.3254263638140814,-0.2999694645996951,0.22764110472470245,0.30853384939040507,-0.380853591792255,1.276,-40.6,-5.456,-13.264,1.548,-0.272,-0.252
277,0.25982421875,-0.1858515625,0.062111328125,-0.0961083984375,0.17080859375,0.234884765625,-0.11456640625,0.3341945803818985,-0.2501295102655404,0.3254263638140814,-0.2999694645996951,0.22764110472470245,0.30853384939040507,-0.380853591792255,1.804,-40.492,-2.868,-12.988,2.636,-0.068,-0.056
278,0.261162109375,-0.18677734375,0.0683017578125,-0.1001689453125,0.1722548828125,0.2381767578125,-0.1201181640625,0.3341945803818985,-0.2501295102655404,0.3254263638140814,-0.2999694645996951,0.22764110472470245,0.30853384939040507,-0.380853591792255,1.912,-41.3,-3.932,-13.856,2.472,-0.592,-0.16
279,0.2625,-0.187189453125,0.0739228515625,-0.104951171875,0.1720478515625,0.2390029296875,-0.12586328125,0.3341945803818985,-0.2501295102655404,0.3254263638140814,-0.2999694645996951,0.22764110472470245,0.30853384939040507,-0.380853591792255,1.912,-43.136,-4.764,-13.72,2.172,-0.4,-0.2
280,0.26384375,-0.1879091796875,0.0802578125,-0.1092919921875,0.17266796875,0.240849609375,-0.131609375,0.3341945803818985,-0.2501295102655404,0.3254263638140814,-0.2999694645996951,0.22764110472470245,0.30853384939040507,-0.380853591792255,2.072,-44.756,-4.416,-12.712,2.536,0.024,-0.068
281,0.265181640625,-0.189041015625,0.086591796875,-0.1130546875,0.173701171875,0.2437412109375,-0.137560546875,0.3341945803818985,-0.2501295102655404,0.3254263638140814,-0.2999694645996951,0.22764110472470245,0.30853384939040507,-0.380853591792255,2.232,-44.592,-6.568,-14.544,2.08,-0.584,-0.208
282,0.26662890625,-0.1898642578125,0.092205078125,-0.1175478515625,0.17266796875,0.24476171875,-0.1441328125,0.3341945803818985,-0.2501295102655404,0.3254263638140814,-0.2999694645996951,0.22764110472470245,0.30853384939040507,-0.380853591792255,2.444,-44.916,-5.204,-14.04,2.812,-0.52,-0.172
283,0.268275390625,-0.191099609375,0.098404296875,-0.12117578125,0.1739072265625,0.2468271484375,-0.1507041015625,0.3341945803818985,-0.2501295102655404,0.3254263638140814,-0.2999694645996951,0.22764110472470245,0.30853384939040507,-0.380853591792255,2.444,-45.348,-5.872,-14.52,2.772,-0.48,-0.108
284,0.2698251953125,-0.19212890625,0.1043046875,-0.1252275390625,0.174720703125,0.248673828125,-0.15665625,0.3341945803818985,-0.2501295102655404,0.3254263638140814,-0.2999694645996951,0.22764110472470245,0.30853384939040507,-0.380853591792255,2.284,-45.456,-6.8,-15.024,2.308,-0.76,-0.14
285,0.2715751953125,-0.1931640625,0.1100625,-0.129720703125,0.1745146484375,0.2499130859375,-0.1624013671875,0.3341945803818985,-0.2501295102655404,0.3254263638140814,-0.2999694645996951,0.22764110472470245,0.30853384939040507,-0.380853591792255,2.284,-46.104,-5.688,-13.996,2.992,-0.604,0.0
286,0.2733310546875,-0.1945986328125,0.1169736328125,-0.1336279296875,0.1759599609375,0.2519658203125,-0.1679404296875,0.3341945803818985,-0.2501295102655404,0.3254263638140814,-0.2999694645996951,0.22764110472470245,0.30853384939040507,-0.380853591792255,2.072,-45.836,-6.22,-16.144,2.732,-0.844,-0.068
287,0.2750869140625,-0.1956279296875,0.122875,-0.1384013671875,0.1767861328125,0.2529990234375,-0.173685546875,0.3341945803818985,-0.2501295102655404,0.3254263638140814,-0.2999694645996951,0.22764110472470245,0.30853384939040507,-0.380853591792255,1.7,-45.996,-5.388,-15.572,2.7,-0.856,-0.192
288,0.2769384765625,-0.1969658203125,0.1290654296875,-0.142904296875,0.1786328125,0.2536181640625,-0.1796376953125,0.3341945803818985,-0.2501295102655404,0.3254263638140814,-0.2999694645996951,0.22764110472470245,0.30853384939040507,-0.380853591792255,1.592,-46.592,-4.716,-14.476,2.556,-0.436,-0.14
289,0.278900390625,-0.1985087890625,0.1348310546875,-0.1469560546875,0.1806982421875,0.254857421875,-0.1860029296875,0.3341945803818985,-0.2501295102655404,0.3254263638140814,-0.2999694645996951,-0.30869792309908395,0.30853384939040507,-0.380853591792255,1.116,-46.484,-6.196,-15.412,1.976,-0.46,-0.284
290,0.280759765625,-0.19994921875,0.1401552734375,-0.15144921875,0.181111328125,0.256291015625,-0.1927685546875,0.3341945803818985,-0.2501295102655404,0.3254263638140814,-0.2999694645996951,-0.30869792309908395,0.30853384939040507,-0.380853591792255,0.848,-45.944,-4.948,-14.612,2.548,-0.604,-0.172
291,0.28271484375,-0.2019111328125,0.146201171875,-0.1553564453125,0.1827509765625,0.258150390625,-0.1989267578125,0.3341945803818985,-0.2501295102655404,0.3254263638140814,-0.2999694645996951,-0.30869792309908395,0.30853384939040507,-0.380853591792255,0.796,-44.916,-4.556,-14.932,2.784,-0.864,-0.128
292,0.2846767578125,-0.2035576171875,0.1522470703125,-0.1599853515625,0.184404296875,0.2589638671875,-0.20487890625,0.3341945803818985,0.36403806873854816,0.3254263638140814,-0.2999694645996951,-0.30869792309908395,0.30853384939040507,-0.380853591792255,0.264,-43.892,-5.48,-14.908,2.44,-0.94,-0.212
293,0.28653515625,-0.2045869140625,0.1569931640625,-0.1654990234375,0.1856435546875,0.2589638671875,-0.2104306640625,-0.3012534993363073,0.36403806873854816,0.3254263638140814,-0.2999694645996951,-0.30869792309908395,-0.20831881754555176,-0.380853591792255,-1.008,-44.052,-5.828,-12.348,1.976,-0.344,-0.136
294,0.288490234375,-0.206130859375,0.161748046875,-0.1699833984375,0.1860439453125,0.2595830078125,-0.2143291015625,-0.3012534993363073,0.36403806873854816,0.3254263638140814,-0.2999694645996951,-0.30869792309908395,-0.20831881754555176,-0.380853591792255,-2.552,-43.404,-7.144,-10.68,1.124,-0.064,-0.076
295,0.2901435546875,-0.2079833984375,0.16533984375,-0.1738994140625,0.1837841796875,0.2606162109375,-0.2188349609375,-0.3012534993363073,0.36403806873854816,0.3254263638140814,-0.2999694645996951,-0.30869792309908395,-0.20831881754555176,-0.380853591792255,-3.508,-39.52,-7.54,-10.496,0.968,0.084,-0.16
296,0.2913779296875,-0.208806640625,0.166638671875,-0.178095703125,0.1817314453125,0.2622685546875,-0.22171484375,-0.3012534993363073,0.36403806873854816,0.3254263638140814,-0.2999694645996951,-0.30869792309908395,-0.20831881754555176,-0.380853591792255,-5.9,-29.532,-3.652,-8.368,1.288,-0.14,-0.14
297,0.2922080078125,-0.20901171875,0.1679296875,-0.1815693359375,0.181318359375,0.2626689453125,-0.223767578125,-0.3012534993363073,0.36403806873854816,0.3254263638140814,-0.2999694645996951,-0.30869792309908395,-0.20831881754555176,-0.380853591792255,-13.236,-19.488,-2.08,-4.388,0.532,-0.356,-0.136
298,0.2928251953125,-0.208806640625,0.169228515625,-0.1847548828125,0.1804921875,0.2604091796875,-0.2252001953125,-0.3012534993363073,0.36403806873854816,0.3254263638140814,-0.2999694645996951,-0.30869792309908395,-0.20831881754555176,-0.380853591792255,-19.46,-15.116,-2.868,-1.3,-0.804,0.304,-0.128
299,0.2928251953125,-0.2078798828125,0.169083984375,-0.1876513671875,0.1780126953125,0.257943359375,-0.2258203125,-0.3012534993363073,0.36403806873854816,0.3254263638140814,-0.2999694645996951,-0.30869792309908395,-0.20831881754555176,-0.380853591792255,-23.392,-12.9,-3.12,0.524,-1.288,1.116,-0.148
300,0.2920986328125,-0.2065419921875,0.1683623046875,-0.1894013671875,0.174720703125,0.2567041015625,-0.2258203125,-0.3012534993363073,0.36403806873854816,0.3254263638140814,-0.2999694645996951,-0.30869792309908395,-0.20831881754555176,-0.380853591792255,-25.2,-11.496,-1.964,0.408,-1.132,0.664,-0.104
301,0.290966796875,-0.2048955078125,0.1679296875,-0.1901240234375,0.1691689453125,0.2536181640625,-0.2258203125,-0.3012534993363073,0.36403806873854816,0.3254263638140814,-0.2999694645996951,-0.30869792309908395,-0.20831881754555176,-0.380853591792255,-26.212,-10.796,-1.06,-1.896,-0.304,0.084,-0.088
302,0.2893203125,-0.2021171875,0.16778515625,-0.190845703125,0.1646376953125,0.2490869140625,-0.2258203125,-0.3012534993363073,0.36403806873854816,0.3254263638140814,-0.2999694645996951,-0.30869792309908395,-0.20831881754555176,-0.380853591792255,-26.584,-11.876,-0.344,-3.564,0.224,0.252,-0.088
303,0.2870498046875,-0.1982001953125,0.1680732421875,-0.1918564453125,0.1607255859375,0.2445546875,-0.2258203125,-0.3012534993363073,0.36403806873854816,0.3254263638140814,-0.2999694645996951,-0.30869792309908395,-0.20831881754555176,-0.380853591792255,-26.796,-15.332,-1.084,-3.476,0.064,-0.004,-0.084
304,0.284162109375,-0.1936787109375,0.1687958984375,-0.19214453125,0.156400390625,0.237763671875,-0.2258203125,-0.3012534993363073,0.36403806873854816,0.3254263638140814,-0.2999694645996951,-0.30869792309908395,-0.20831881754555176,-0.380853591792255,-25.944,-19.436,-2.564,-3.68,-0.188,0.408,-0.116
305,0.2804443359375,-0.188732421875,0.169373046875,-0.1920009765625,0.1510419921875,0.2311787109375,-0.2258203125,-0.3012534993363073,0.36403806873854816,0.3254263638140814,-0.2999694645996951,-0.30869792309908395,-0.20831881754555176,-0.380853591792255,-24.192,-22.888,-3.468,-4.916,-0.012,0.876,-0.096
306,0.2760126953125,-0.183375,0.169806640625,-0.1915673828125,0.1452841796875,0.2274736328125,-0.2258203125,-0.3012534993363073,0.36403806873854816,0.3254263638140814,-0.2999694645996951,-0.30869792309908395,-0.20831881754555176,-0.380853591792255,-22.012,-25.104,-2.98,-6.172,0.44,0.16,-0.116
307,0.271265625,-0.17771484375,0.1705185546875,-0.190556640625,0.1386865234375,0.2217158203125,-0.2258203125,-0.3012534993363073,0.36403806873854816,0.3254263638140814,-0.2999694645996951,-0.30869792309908395,-0.20831881754555176,-0.380853591792255,-19.724,-27.264,-2.772,-8.392,1.164,-0.18,-0.108
308,0.2661142578125,-0.1715341796875,0.171962890625,-0.1898349609375,0.1327216796875,0.2178037109375,-0.2258203125,-0.3012534993363073,0.36403806873854816,0.3254263638140814,-0.2999694645996951,-0.30869792309908395,-0.20831881754555176,-0.380853591792255,-18.608,-30.72,-3.608,-10.288,1.696,-0.096,-0.12
309,0.26044140625,-0.1648388671875,0.1735419921875,-0.1895458984375,0.1269501953125,0.2138916015625,-0.2260263671875,-0.3012534993363073,0.36403806873854816,0.3254263638140814,-0.2999694645996951,-0.30869792309908395,-0.20831881754555176,-0.380853591792255,-17.704,-35.416,-4.484,-10.976,1.716,-0.468,-0.192
310,0.2544599609375,-0.1580400390625,0.1751298828125,-0.18911328125,0.120779296875,0.2091533203125,-0.2266337890625,-0.3012534993363073,0.36403806873854816,0.3254263638140814,-0.2999694645996951,-0.30869792309908395,-0.20831881754555176,-0.380853591792255,-15.364,-38.708,-4.624,-11.752,1.84,-0.292,-0.192
311,0.24806640625,-0.1511455078125,0.176998046875,-0.1889599609375,0.114181640625,0.2064677734375,-0.2274599609375,-0.3012534993363073,0.36403806873854816,0.3254263638140814,-0.2999694645996951,-0.30869792309908395,-0.20831881754555176,-0.380853591792255,-10.952,-39.628,-5.224,-12.096,1.972,-0.212,-0.18
312,0.2414609375,-0.144244140625,0.179009765625,-0.1885263671875,0.1075966796875,0.2042080078125,-0.2286865234375,-0.3012534993363073,0.36403806873854816,0.3254263638140814,-0.2999694645996951,-0.30869792309908395,-0.20831881754555176,-0.380853591792255,-6.696,-44.0,-5.456,-12.552,2.108,-0.572,-0.172
313,0.2345537109375,-0.137857421875,0.18146484375,-0.1872177734375,0.101619140625,0.20153515625,-0.2301328125,-0.3012534993363073,0.36403806873854816,0.3254263638140814,-0.2999694645996951,-0.30869792309908395,-0.20831881754555176,-0.380853591792255,-5.848,-48.264,-6.636,-14.888,2.432,-0.572,-0.18
314,0.2273369140625,-0.13105859375,0.1826103515625,-0.18678515625,0.095021484375,0.20008984375,-0.2317724609375,-0.3012534993363073,0.36403806873854816,0.3254263638140814,-0.2999694645996951,-0.30869792309908395,-0.20831881754555176,-0.380853591792255,-7.016,-50.1,-6.312,-16.852,2.796,-0.688,-0.14
315,0.220107421875,-0.1242607421875,0.183765625,-0.1870732421875,0.08823046875,0.1984501953125,-0.2338251953125,-0.3012534993363073,0.36403806873854816,0.3254263638140814,-0.2999694645996951,-0.30869792309908395,-0.20831881754555176,-0.380853591792255,-6.696,-49.776,-4.368,-16.304,3.252,-1.216,-0.116
316,0.2132001953125,-0.1180859375,0.18635546875,-0.18649609375,0.082666015625,0.1957646484375,-0.2356708984375,-0.3012534993363073,0.36403806873854816,0.3254263638140814,-0.2999694645996951,-0.30869792309908395,-0.20831881754555176,-0.380853591792255,-0.156,-52.1,-5.364,-17.288,3.24,-1.1,-0.14
317,0.206189453125,-0.1118017578125,0.18851171875,-0.186640625,0.0771015625,0.1926787109375,-0.237517578125,-0.3012534993363073,0.36403806873854816,0.3254263638140814,-0.2999694645996951,-0.30869792309908395,-0.20831881754555176,-0.380853591792255,4.676,-55.012,-8.164,-17.928,3.092,-0.564,-0.156
318,0.1990693359375,-0.1055185546875,0.1896669921875,-0.1873623046875,0.0715498046875,0.191232421875,-0.23936328125,-0.3012534993363073,0.36403806873854816,0.3254263638140814,-0.2999694645996951,-0.30869792309908395,-0.20831881754555176,-0.380853591792255,4.996,-56.2,-7.26,-16.624,3.044,-0.78,-0.076
319,0.1919560546875,-0.0999677734375,0.19124609375,-0.1870732421875,0.0666044921875,0.1891796875,-0.240796875,-0.3012534993363073,0.36403806873854816,0.3254263638140814,-0.2999694645996951,-0.30869792309908395,-0.20831881754555176,-0.380853591792255,2.284,-55.284,-6.36,-17.472,3.012,-1.248,-0.108
320,0.1850478515625,-0.0948154296875,0.1923916015625,-0.1869296875,0.061453125,0.18630078125,-0.2422431640625,-0.3012534993363073,0.36403806873854816,0.3254263638140814,-0.2999694645996951,-0.30869792309908395,-0.20831881754555176,-0.380853591792255,3.828,-56.308,-6.912,-19.436,3.356,-1.052,-0.064
321,0.1786484375,-0.08997265625,0.19369140625,-0.1875068359375,0.05671484375,0.1842353515625,-0.2438828125,-0.3012534993363073,0.36403806873854816,0.3254263638140814,-0.2999694645996951,-0.30869792309908395,-0.20831881754555176,-0.380853591792255,10.952,-57.064,-6.82,-19.392,3.74,-1.528,-0.064
322,0.1722548828125,-0.0849296875,0.194845703125,-0.188228515625,0.053822265625,0.180736328125,-0.2446962890625,-0.3012534993363073,0.36403806873854816,0.3254263638140814,-0.2999694645996951,-0.30869792309908395,-0.20831881754555176,-0.380853591792255,13.076,-56.256,-7.1,-18.888,3.468,-1.384,-0.088
323,0.1661708984375,-0.079880859375,0.19613671875,-0.1896904296875,0.051150390625,0.1772373046875,-0.245728515625,-0.3012534993363073,0.36403806873854816,0.3254263638140814,-0.2999694645996951,-0.30869792309908395,-0.20831881754555176,-0.380853591792255,9.62,-55.984,-7.052,-17.404,3.084,-0.968,-0.052
324,0.1602919921875,-0.075662109375,0.1978603515625,-0.190990234375,0.0486708984375,0.1741513671875,-0.2467490234375,-0.3012534993363073,0.36403806873854816,0.3254263638140814,-0.2999694645996951,-0.30869792309908395,-0.20831881754555176,-0.380853591792255,6.008,-56.632,-7.908,-16.372,2.916,-1.188,-0.084
325,0.154728515625,-0.071951171875,0.1988701171875,-0.1915673828125,0.0457919921875,0.1696201171875,-0.2475751953125,-0.3012534993363073,0.36403806873854816,0.3254263638140814,-0.2999694645996951,-0.30869792309908395,-0.20831881754555176,-0.380853591792255,9.568,-56.092,-8.048,-18.088,2.876,-0.852,-0.128
326,0.1496728515625,-0.0684521484375,0.1995927734375,-0.1928759765625,0.04229296875,0.16734765625,-0.2484013671875,-0.3012534993363073,0.36403806873854816,0.3254263638140814,-0.2999694645996951,-0.30869792309908395,-0.20831881754555176,-0.380853591792255,14.248,-53.504,-6.844,-17.904,3.652,-1.112,-0.064
327,0.1445146484375,-0.064740234375,0.200314453125,-0.1943193359375,0.0418798828125,0.1636416015625,-0.24921484375,-0.3012534993363073,0.36403806873854816,0.3254263638140814,-0.2999694645996951,-0.30869792309908395,-0.20831881754555176,-0.380853591792255,13.98,-51.236,-5.92,-17.332,3.312,-1.372,-0.136
328,0.1400830078125,-0.061138671875,0.2014599609375,-0.196205078125,0.04084765625,0.158490234375,-0.250248046875,-0.3012534993363073,0.36403806873854816,0.3254263638140814,-0.2999694645996951,-0.30869792309908395,-0.20831881754555176,-0.380853591792255,10.208,-50.372,-6.544,-16.28,2.796,-0.752,-0.128
329,0.1356513671875,-0.057845703125,0.202470703125,-0.1979375,0.0402275390625,0.1537646484375,-0.251267578125,-0.3012534993363073,0.36403806873854816,0.3254263638140814,-0.2999694645996951,-0.30869792309908395,-0.20831881754555176,-0.380853591792255,6.752,-50.264,-7.052,-14.636,2.556,-0.348,-0.108
330,0.131419921875,-0.055060546875,0.203328125,-0.1991015625,0.0391943359375,0.149439453125,-0.25230078125,-0.3012534993363073,0.36403806873854816,0.3254263638140814,-0.2999694645996951,-0.30869792309908395,-0.20831881754555176,-0.380853591792255,7.76,-49.992,-7.052,-15.388,2.216,-0.388,-0.14
331,0.12760546875,-0.05248828125,0.2040498046875,-0.2004013671875,0.0365224609375,0.1455283203125,-0.2533203125,-0.3012534993363073,0.36403806873854816,0.3254263638140814,-0.2999694645996951,-0.30869792309908395,-0.20831881754555176,-0.380853591792255,9.992,-47.508,-6.336,-15.892,2.92,-0.656,-0.12
332,0.1236884765625,-0.0498125,0.2044833984375,-0.2017001953125,0.036109375,0.1420166015625,-0.254353515625,-0.3012534993363073,0.36403806873854816,0.3254263638140814,-0.2999694645996951,-0.30869792309908395,-0.20831881754555176,-0.380853591792255,9.78,-45.348,-5.04,-15.504,2.864,-0.728,-0.128
333,0.1204921875,-0.0469248046875,0.20562890625,-0.2035869140625,0.0356953125,0.13769140625,-0.255580078125,-0.3012534993363073,0.36403806873854816,0.3254263638140814,-0.2999694645996951,-0.30869792309908395,-0.20831881754555176,-0.380853591792255,7.548,-43.404,-5.432,-14.292,2.356,-0.604,-0.168
334,0.1171923828125,-0.0439404296875,0.2064951171875,-0.2056171875,0.035076171875,0.132552734375,-0.2570126953125,-0.3012534993363073,0.36403806873854816,0.3254263638140814,-0.2999694645996951,-0.30869792309908395,-0.20831881754555176,-0.380853591792255,5.208,-42.652,-6.128,-12.668,1.932,-0.12,-0.148
335,0.11399609375,-0.04105859375,0.207361328125,-0.207349609375,0.0344560546875,0.1292470703125,-0.258251953125,-0.3012534993363073,0.36403806873854816,0.3254263638140814,-0.2999694645996951,-0.30869792309908395,-0.20831881754555176,-0.380853591792255,3.028,-42.272,-6.08,-11.936,1.38,-0.068,-0.192
