EmanuelSamir/lab201_ws_projsamir/sawyer_dev/data/sawyer/temp/test_quiescent_joint2.csv
,j1,j2,j3,j4,j5,j6,j7,jd1,jd2,jd3,jd4,jd5,jd6,jd7,e1,e2,e3,e4,e5,e6,e7
0,0.0,0.0,0.0,0.0,0.0,0.0,0.0,0.0,0.0,0.0,0.0,0.0,0.0,0.0,0.0,0.0,0.0,0.0,0.0,0.0,0.0
1,0.0,-0.0014072265625,0.0,0.0,0.0,0.0,0.0,0.0,0.3580874391227311,0.0,0.0,0.0,0.0,0.0,0.0,-44.324,0.0,0.0,0.0,0.0,0.0
2,0.0,-0.0014072265625,0.0,0.0,0.0,0.0,0.0,0.0,0.3580874391227311,0.0,0.0,0.0,0.0,0.0,0.0,-44.324,0.0,0.0,0.0,0.0,0.0
3,0.0,-0.0014072265625,0.0,0.0,0.0,0.0,0.0,0.0,0.3580874391227311,0.0,0.0,0.0,0.0,0.0,0.0,-44.324,0.0,0.0,0.0,0.0,0.0
4,0.0,-0.0014072265625,0.0,0.0,0.0,0.0,0.0,0.0,0.3580874391227311,0.0,0.0,0.0,0.0,0.0,0.0,-44.324,0.0,0.0,0.0,0.0,0.0
5,0.0,-0.0014072265625,0.0,0.0,0.0,0.0,0.0,0.0,0.3580874391227311,0.0,0.0,0.0,0.0,0.0,0.0,-44.324,0.0,0.0,0.0,0.0,0.0
6,0.0,-0.00109765625,0.0,0.0,0.0,0.0,0.0,0.0,0.3580874391227311,0.0,0.0,0.0,0.0,0.0,0.0,-40.76,0.0,0.0,0.0,0.0,0.0
7,0.0,-0.00109765625,0.0,0.0,0.0,0.0,0.0,0.0,0.3580874391227311,0.0,0.0,0.0,0.0,0.0,0.0,-40.76,0.0,0.0,0.0,0.0,0.0
8,0.0,-0.00109765625,0.0,0.0,0.0,0.0,0.0,0.0,0.3580874391227311,0.0,0.0,0.0,0.0,0.0,0.0,-40.76,0.0,0.0,0.0,0.0,0.0
9,0.0,0.0002392578125,0.0,0.0,0.0,0.0,0.0,0.0,0.3580874391227311,0.0,0.0,0.0,0.0,0.0,0.0,-33.848,0.0,0.0,0.0,0.0,0.0
10,0.0,0.0002392578125,0.0,0.0,0.0,0.0,0.0,0.0,0.3580874391227311,0.0,0.0,0.0,0.0,0.0,0.0,-33.848,0.0,0.0,0.0,0.0,0.0
11,0.0,0.0002392578125,0.0,0.0,0.0,0.0,0.0,0.0,0.3580874391227311,0.0,0.0,0.0,0.0,0.0,0.0,-33.848,0.0,0.0,0.0,0.0,0.0
12,0.0,0.0019892578125,0.0,0.0,0.0,0.0,0.0,0.0,0.3580874391227311,0.0,0.0,0.0,0.0,0.0,0.0,-29.64,0.0,0.0,0.0,0.0,0.0
13,0.0,0.0019892578125,0.0,0.0,0.0,0.0,0.0,0.0,0.3580874391227311,0.0,0.0,0.0,0.0,0.0,0.0,-29.64,0.0,0.0,0.0,0.0,0.0
14,0.0,0.0019892578125,0.0,0.0,0.0,0.0,0.0,0.0,0.3580874391227311,0.0,0.0,0.0,0.0,0.0,0.0,-29.64,0.0,0.0,0.0,0.0,0.0
15,0.0,0.0043623046875,0.0,0.0,0.0,0.0,0.0,0.0,0.3580874391227311,0.0,0.0,0.0,0.0,0.0,0.0,-27.208,0.0,0.0,0.0,0.0,0.0
16,0.0,0.0043623046875,0.0,0.0,0.0,0.0,0.0,0.0,0.3580874391227311,0.0,0.0,0.0,0.0,0.0,0.0,-27.208,0.0,0.0,0.0,0.0,0.0
17,0.0,0.0043623046875,0.0,0.0,0.0,0.0,0.0,0.0,0.3580874391227311,0.0,0.0,0.0,0.0,0.0,0.0,-27.208,0.0,0.0,0.0,0.0,0.0
18,0.0,0.0070380859375,0.0,0.0,0.0,0.0,0.0,0.0,0.3580874391227311,0.0,0.0,0.0,0.0,0.0,0.0,-26.992,0.0,0.0,0.0,0.0,0.0
19,0.0,0.0070380859375,0.0,0.0,0.0,0.0,0.0,0.0,0.3580874391227311,0.0,0.0,0.0,0.0,0.0,0.0,-26.992,0.0,0.0,0.0,0.0,0.0
20,0.0,0.0070380859375,0.0,0.0,0.0,0.0,0.0,0.0,0.3580874391227311,0.0,0.0,0.0,0.0,0.0,0.0,-26.992,0.0,0.0,0.0,0.0,0.0
21,0.0,0.0096103515625,0.0,0.0,0.0,0.0,0.0,0.0,0.3580874391227311,0.0,0.0,0.0,0.0,0.0,0.0,-26.076,0.0,0.0,0.0,0.0,0.0
22,0.0,0.0096103515625,0.0,0.0,0.0,0.0,0.0,0.0,0.3580874391227311,0.0,0.0,0.0,0.0,0.0,0.0,-26.076,0.0,0.0,0.0,0.0,0.0
23,0.0,0.0096103515625,0.0,0.0,0.0,0.0,0.0,0.0,0.3580874391227311,0.0,0.0,0.0,0.0,0.0,0.0,-26.076,0.0,0.0,0.0,0.0,0.0
24,0.0,0.0134248046875,0.0,0.0,0.0,0.0,0.0,0.0,0.3580874391227311,0.0,0.0,0.0,0.0,0.0,0.0,-24.24,0.0,0.0,0.0,0.0,0.0
25,0.0,0.0134248046875,0.0,0.0,0.0,0.0,0.0,0.0,0.3580874391227311,0.0,0.0,0.0,0.0,0.0,0.0,-24.24,0.0,0.0,0.0,0.0,0.0
26,0.0,0.0134248046875,0.0,0.0,0.0,0.0,0.0,0.0,0.3580874391227311,0.0,0.0,0.0,0.0,0.0,0.0,-24.24,0.0,0.0,0.0,0.0,0.0
27,0.0,0.017849609375,0.0,0.0,0.0,0.0,0.0,0.0,0.3580874391227311,0.0,0.0,0.0,0.0,0.0,0.0,-24.672,0.0,0.0,0.0,0.0,0.0
28,0.0,0.017849609375,0.0,0.0,0.0,0.0,0.0,0.0,0.3580874391227311,0.0,0.0,0.0,0.0,0.0,0.0,-24.672,0.0,0.0,0.0,0.0,0.0
29,0.0,0.017849609375,0.0,0.0,0.0,0.0,0.0,0.0,0.3580874391227311,0.0,0.0,0.0,0.0,0.0,0.0,-24.672,0.0,0.0,0.0,0.0,0.0
30,0.0,0.022384765625,0.0,0.0,0.0,0.0,0.0,0.0,0.3580874391227311,0.0,0.0,0.0,0.0,0.0,0.0,-28.18,0.0,0.0,0.0,0.0,0.0
31,0.0,0.022384765625,0.0,0.0,0.0,0.0,0.0,0.0,0.3580874391227311,0.0,0.0,0.0,0.0,0.0,0.0,-28.18,0.0,0.0,0.0,0.0,0.0
32,0.0,0.022384765625,0.0,0.0,0.0,0.0,0.0,0.0,0.3580874391227311,0.0,0.0,0.0,0.0,0.0,0.0,-28.18,0.0,0.0,0.0,0.0,0.0
33,0.0,0.02732421875,0.0,0.0,0.0,0.0,0.0,0.0,0.3580874391227311,0.0,0.0,0.0,0.0,0.0,0.0,-33.472,0.0,0.0,0.0,0.0,0.0
34,0.0,0.02732421875,0.0,0.0,0.0,0.0,0.0,0.0,0.3580874391227311,0.0,0.0,0.0,0.0,0.0,0.0,-33.472,0.0,0.0,0.0,0.0,0.0
35,0.0,0.02732421875,0.0,0.0,0.0,0.0,0.0,0.0,0.3580874391227311,0.0,0.0,0.0,0.0,0.0,0.0,-33.472,0.0,0.0,0.0,0.0,0.0
36,0.0,0.031755859375,0.0,0.0,0.0,0.0,0.0,0.0,0.3580874391227311,0.0,0.0,0.0,0.0,0.0,0.0,-36.496,0.0,0.0,0.0,0.0,0.0
37,0.0,0.031755859375,0.0,0.0,0.0,0.0,0.0,0.0,0.3580874391227311,0.0,0.0,0.0,0.0,0.0,0.0,-36.496,0.0,0.0,0.0,0.0,0.0
38,0.0,0.031755859375,0.0,0.0,0.0,0.0,0.0,0.0,0.3580874391227311,0.0,0.0,0.0,0.0,0.0,0.0,-36.496,0.0,0.0,0.0,0.0,0.0
39,0.0,0.036283203125,0.0,0.0,0.0,0.0,0.0,0.0,0.3580874391227311,0.0,0.0,0.0,0.0,0.0,0.0,-38.008,0.0,0.0,0.0,0.0,0.0
40,0.0,0.036283203125,0.0,0.0,0.0,0.0,0.0,0.0,0.3580874391227311,0.0,0.0,0.0,0.0,0.0,0.0,-38.008,0.0,0.0,0.0,0.0,0.0
41,0.0,0.036283203125,0.0,0.0,0.0,0.0,0.0,0.0,0.3580874391227311,0.0,0.0,0.0,0.0,0.0,0.0,-38.008,0.0,0.0,0.0,0.0,0.0
42,0.0,0.036283203125,0.0,0.0,0.0,0.0,0.0,0.0,0.3580874391227311,0.0,0.0,0.0,0.0,0.0,0.0,-38.008,0.0,0.0,0.0,0.0,0.0
43,0.0,0.041435546875,0.0,0.0,0.0,0.0,0.0,0.0,0.3580874391227311,0.0,0.0,0.0,0.0,0.0,0.0,-39.628,0.0,0.0,0.0,0.0,0.0
44,0.0,0.041435546875,0.0,0.0,0.0,0.0,0.0,0.0,0.3580874391227311,0.0,0.0,0.0,0.0,0.0,0.0,-39.628,0.0,0.0,0.0,0.0,0.0
45,0.0,0.041435546875,0.0,0.0,0.0,0.0,0.0,0.0,0.3580874391227311,0.0,0.0,0.0,0.0,0.0,0.0,-39.628,0.0,0.0,0.0,0.0,0.0
46,0.0,0.0468896484375,0.0,0.0,0.0,0.0,0.0,0.0,0.3580874391227311,0.0,0.0,0.0,0.0,0.0,0.0,-40.004,0.0,0.0,0.0,0.0,0.0
47,0.0,0.0468896484375,0.0,0.0,0.0,0.0,0.0,0.0,0.3580874391227311,0.0,0.0,0.0,0.0,0.0,0.0,-40.004,0.0,0.0,0.0,0.0,0.0
48,0.0,0.052453125,0.0,0.0,0.0,0.0,0.0,0.0,0.3580874391227311,0.0,0.0,0.0,0.0,0.0,0.0,-42.004,0.0,0.0,0.0,0.0,0.0
49,0.0,0.052453125,0.0,0.0,0.0,0.0,0.0,0.0,0.3580874391227311,0.0,0.0,0.0,0.0,0.0,0.0,-42.004,0.0,0.0,0.0,0.0,0.0
50,0.0,0.052453125,0.0,0.0,0.0,0.0,0.0,0.0,0.3580874391227311,0.0,0.0,0.0,0.0,0.0,0.0,-42.004,0.0,0.0,0.0,0.0,0.0
51,0.0,0.0577080078125,0.0,0.0,0.0,0.0,0.0,0.0,0.3580874391227311,0.0,0.0,0.0,0.0,0.0,0.0,-44.916,0.0,0.0,0.0,0.0,0.0
52,0.0,0.0577080078125,0.0,0.0,0.0,0.0,0.0,0.0,0.3580874391227311,0.0,0.0,0.0,0.0,0.0,0.0,-44.916,0.0,0.0,0.0,0.0,0.0
53,0.0,0.0577080078125,0.0,0.0,0.0,0.0,0.0,0.0,0.3580874391227311,0.0,0.0,0.0,0.0,0.0,0.0,-44.916,0.0,0.0,0.0,0.0,0.0
54,0.0,0.0625439453125,0.0,0.0,0.0,0.0,0.0,0.0,0.3580874391227311,0.0,0.0,0.0,0.0,0.0,0.0,-46.16,0.0,0.0,0.0,0.0,0.0
55,0.0,0.0625439453125,0.0,0.0,0.0,0.0,0.0,0.0,0.3580874391227311,0.0,0.0,0.0,0.0,0.0,0.0,-46.16,0.0,0.0,0.0,0.0,0.0
56,0.0,0.0625439453125,0.0,0.0,0.0,0.0,0.0,0.0,0.3580874391227311,0.0,0.0,0.0,0.0,0.0,0.0,-46.16,0.0,0.0,0.0,0.0,0.0
57,0.0,0.0673876953125,0.0,0.0,0.0,0.0,0.0,0.0,0.3580874391227311,0.0,0.0,0.0,0.0,0.0,0.0,-45.728,0.0,0.0,0.0,0.0,0.0
58,0.0,0.0673876953125,0.0,0.0,0.0,0.0,0.0,0.0,0.3580874391227311,0.0,0.0,0.0,0.0,0.0,0.0,-45.728,0.0,0.0,0.0,0.0,0.0
59,0.0,0.0673876953125,0.0,0.0,0.0,0.0,0.0,0.0,0.3580874391227311,0.0,0.0,0.0,0.0,0.0,0.0,-45.728,0.0,0.0,0.0,0.0,0.0
60,0.0,0.0673876953125,0.0,0.0,0.0,0.0,0.0,0.0,0.3580874391227311,0.0,0.0,0.0,0.0,0.0,0.0,-45.728,0.0,0.0,0.0,0.0,0.0
61,0.0,0.072533203125,0.0,0.0,0.0,0.0,0.0,0.0,0.3580874391227311,0.0,0.0,0.0,0.0,0.0,0.0,-44.216,0.0,0.0,0.0,0.0,0.0
62,0.0,0.072533203125,0.0,0.0,0.0,0.0,0.0,0.0,0.3580874391227311,0.0,0.0,0.0,0.0,0.0,0.0,-44.216,0.0,0.0,0.0,0.0,0.0
63,0.0,0.072533203125,0.0,0.0,0.0,0.0,0.0,0.0,0.3580874391227311,0.0,0.0,0.0,0.0,0.0,0.0,-44.216,0.0,0.0,0.0,0.0,0.0
64,0.0,0.0779931640625,0.0,0.0,0.0,0.0,0.0,0.0,0.3580874391227311,0.0,0.0,0.0,0.0,0.0,0.0,-45.188,0.0,0.0,0.0,0.0,0.0
65,0.0,0.0779931640625,0.0,0.0,0.0,0.0,0.0,0.0,0.3580874391227311,0.0,0.0,0.0,0.0,0.0,0.0,-45.188,0.0,0.0,0.0,0.0,0.0
66,0.0,0.0779931640625,0.0,0.0,0.0,0.0,0.0,0.0,0.3580874391227311,0.0,0.0,0.0,0.0,0.0,0.0,-45.188,0.0,0.0,0.0,0.0,0.0
67,0.0,0.083248046875,0.0,0.0,0.0,0.0,0.0,0.0,0.3580874391227311,0.0,0.0,0.0,0.0,0.0,0.0,-47.4,0.0,0.0,0.0,0.0,0.0
68,0.0,0.083248046875,0.0,0.0,0.0,0.0,0.0,0.0,0.3580874391227311,0.0,0.0,0.0,0.0,0.0,0.0,-47.4,0.0,0.0,0.0,0.0,0.0
69,0.0,0.083248046875,0.0,0.0,0.0,0.0,0.0,0.0,0.3580874391227311,0.0,0.0,0.0,0.0,0.0,0.0,-47.4,0.0,0.0,0.0,0.0,0.0
70,0.0,0.087982421875,0.0,0.0,0.0,0.0,0.0,0.0,0.3580874391227311,0.0,0.0,0.0,0.0,0.0,0.0,-48.536,0.0,0.0,0.0,0.0,0.0
71,0.0,0.087982421875,0.0,0.0,0.0,0.0,0.0,0.0,0.3580874391227311,0.0,0.0,0.0,0.0,0.0,0.0,-48.536,0.0,0.0,0.0,0.0,0.0
72,0.0,0.087982421875,0.0,0.0,0.0,0.0,0.0,0.0,0.3580874391227311,0.0,0.0,0.0,0.0,0.0,0.0,-48.536,0.0,0.0,0.0,0.0,0.0
73,0.0,0.092619140625,0.0,0.0,0.0,0.0,0.0,0.0,0.3580874391227311,0.0,0.0,0.0,0.0,0.0,0.0,-47.888,0.0,0.0,0.0,0.0,0.0
74,0.0,0.092619140625,0.0,0.0,0.0,0.0,0.0,0.0,0.3580874391227311,0.0,0.0,0.0,0.0,0.0,0.0,-47.888,0.0,0.0,0.0,0.0,0.0
75,0.0,0.092619140625,0.0,0.0,0.0,0.0,0.0,0.0,0.3580874391227311,0.0,0.0,0.0,0.0,0.0,0.0,-47.888,0.0,0.0,0.0,0.0,0.0
76,0.0,0.0974560546875,0.0,0.0,0.0,0.0,0.0,0.0,0.3580874391227311,0.0,0.0,0.0,0.0,0.0,0.0,-46.968,0.0,0.0,0.0,0.0,0.0
77,0.0,0.0974560546875,0.0,0.0,0.0,0.0,0.0,0.0,0.3580874391227311,0.0,0.0,0.0,0.0,0.0,0.0,-46.968,0.0,0.0,0.0,0.0,0.0
78,0.0,0.0974560546875,0.0,0.0,0.0,0.0,0.0,0.0,0.3580874391227311,0.0,0.0,0.0,0.0,0.0,0.0,-46.968,0.0,0.0,0.0,0.0,0.0
79,0.0,0.10240234375,0.0,0.0,0.0,0.0,0.0,0.0,0.3580874391227311,0.0,0.0,0.0,0.0,0.0,0.0,-47.832,0.0,0.0,0.0,0.0,0.0
80,0.0,0.10240234375,0.0,0.0,0.0,0.0,0.0,0.0,0.3580874391227311,0.0,0.0,0.0,0.0,0.0,0.0,-47.832,0.0,0.0,0.0,0.0,0.0
81,0.0,0.1073349609375,0.0,0.0,0.0,0.0,0.0,0.0,0.3580874391227311,0.0,0.0,0.0,0.0,0.0,0.0,-49.508,0.0,0.0,0.0,0.0,0.0
82,0.0,0.1073349609375,0.0,0.0,0.0,0.0,0.0,0.0,0.3580874391227311,0.0,0.0,0.0,0.0,0.0,0.0,-49.508,0.0,0.0,0.0,0.0,0.0
83,0.0,0.1073349609375,0.0,0.0,0.0,0.0,0.0,0.0,0.3580874391227311,0.0,0.0,0.0,0.0,0.0,0.0,-49.508,0.0,0.0,0.0,0.0,0.0
84,0.0,0.1118701171875,0.0,0.0,0.0,0.0,0.0,0.0,0.3580874391227311,0.0,0.0,0.0,0.0,0.0,0.0,-50.208,0.0,0.0,0.0,0.0,0.0
85,0.0,0.1118701171875,0.0,0.0,0.0,0.0,0.0,0.0,0.3580874391227311,0.0,0.0,0.0,0.0,0.0,0.0,-50.208,0.0,0.0,0.0,0.0,0.0
86,0.0,0.1160888671875,0.0,0.0,0.0,0.0,0.0,0.0,0.3580874391227311,0.0,0.0,0.0,0.0,0.0,0.0,-48.804,0.0,0.0,0.0,0.0,0.0
87,0.0,0.1160888671875,0.0,0.0,0.0,0.0,0.0,0.0,0.3580874391227311,0.0,0.0,0.0,0.0,0.0,0.0,-48.804,0.0,0.0,0.0,0.0,0.0
88,0.0,0.1160888671875,0.0,0.0,0.0,0.0,0.0,0.0,0.3580874391227311,0.0,0.0,0.0,0.0,0.0,0.0,-48.804,0.0,0.0,0.0,0.0,0.0
89,0.0,0.1202119140625,0.0,0.0,0.0,0.0,0.0,0.0,0.3580874391227311,0.0,0.0,0.0,0.0,0.0,0.0,-47.348,0.0,0.0,0.0,0.0,0.0
90,0.0,0.1202119140625,0.0,0.0,0.0,0.0,0.0,0.0,0.3580874391227311,0.0,0.0,0.0,0.0,0.0,0.0,-47.348,0.0,0.0,0.0,0.0,0.0
91,0.0,0.1202119140625,0.0,0.0,0.0,0.0,0.0,0.0,0.3580874391227311,0.0,0.0,0.0,0.0,0.0,0.0,-47.348,0.0,0.0,0.0,0.0,0.0
92,0.0,0.1245341796875,0.0,0.0,0.0,0.0,0.0,0.0,0.3580874391227311,0.0,0.0,0.0,0.0,0.0,0.0,-47.292,0.0,0.0,0.0,0.0,0.0
93,0.0,0.1245341796875,0.0,0.0,0.0,0.0,0.0,0.0,0.3580874391227311,0.0,0.0,0.0,0.0,0.0,0.0,-47.292,0.0,0.0,0.0,0.0,0.0
94,0.0,0.1288623046875,0.0,0.0,0.0,0.0,0.0,0.0,0.3580874391227311,0.0,0.0,0.0,0.0,0.0,0.0,-48.32,0.0,0.0,0.0,0.0,0.0
95,0.0,0.1288623046875,0.0,0.0,0.0,0.0,0.0,0.0,0.3580874391227311,0.0,0.0,0.0,0.0,0.0,0.0,-48.32,0.0,0.0,0.0,0.0,0.0
96,0.0,0.132978515625,0.0,0.0,0.0,0.0,0.0,0.0,0.3580874391227311,0.0,0.0,0.0,0.0,0.0,0.0,-48.696,0.0,0.0,0.0,0.0,0.0
97,0.0,0.13668359375,0.0,0.0,0.0,0.0,0.0,0.0,0.3580874391227311,0.0,0.0,0.0,0.0,0.0,0.0,-47.94,0.0,0.0,0.0,0.0,0.0
98,0.0,0.1401884765625,0.0,0.0,0.0,0.0,0.0,0.0,0.3580874391227311,0.0,0.0,0.0,0.0,0.0,0.0,-46.752,0.0,0.0,0.0,0.0,0.0
99,0.0,0.1401884765625,0.0,0.0,0.0,0.0,0.0,0.0,0.3580874391227311,0.0,0.0,0.0,0.0,0.0,0.0,-46.752,0.0,0.0,0.0,0.0,0.0
100,0.0,0.1401884765625,0.0,0.0,0.0,0.0,0.0,0.0,0.3580874391227311,0.0,0.0,0.0,0.0,0.0,0.0,-46.752,0.0,0.0,0.0,0.0,0.0
101,0.0,0.143900390625,0.0,0.0,0.0,0.0,0.0,0.0,0.3580874391227311,0.0,0.0,0.0,0.0,0.0,0.0,-45.728,0.0,0.0,0.0,0.0,0.0
102,0.0,0.143900390625,0.0,0.0,0.0,0.0,0.0,0.0,0.3580874391227311,0.0,0.0,0.0,0.0,0.0,0.0,-45.728,0.0,0.0,0.0,0.0,0.0
103,0.0,0.143900390625,0.0,0.0,0.0,0.0,0.0,0.0,0.3580874391227311,0.0,0.0,0.0,0.0,0.0,0.0,-45.728,0.0,0.0,0.0,0.0,0.0
104,0.0,0.147611328125,0.0,0.0,0.0,0.0,0.0,0.0,0.3580874391227311,0.0,0.0,0.0,0.0,0.0,0.0,-45.944,0.0,0.0,0.0,0.0,0.0
105,0.0,0.147611328125,0.0,0.0,0.0,0.0,0.0,0.0,0.3580874391227311,0.0,0.0,0.0,0.0,0.0,0.0,-45.944,0.0,0.0,0.0,0.0,0.0
106,0.0,0.1514189453125,0.0,0.0,0.0,0.0,0.0,0.0,0.3580874391227311,0.0,0.0,0.0,0.0,0.0,0.0,-46.376,0.0,0.0,0.0,0.0,0.0
107,0.0,0.1514189453125,0.0,0.0,0.0,0.0,0.0,0.0,0.3580874391227311,0.0,0.0,0.0,0.0,0.0,0.0,-46.376,0.0,0.0,0.0,0.0,0.0
108,0.0,0.1514189453125,0.0,0.0,0.0,0.0,0.0,0.0,0.3580874391227311,0.0,0.0,0.0,0.0,0.0,0.0,-46.376,0.0,0.0,0.0,0.0,0.0
109,0.0,0.1550205078125,0.0,0.0,0.0,0.0,0.0,0.0,0.3580874391227311,0.0,0.0,0.0,0.0,0.0,0.0,-45.836,0.0,0.0,0.0,0.0,0.0
110,0.0,0.1550205078125,0.0,0.0,0.0,0.0,0.0,0.0,0.3580874391227311,0.0,0.0,0.0,0.0,0.0,0.0,-45.836,0.0,0.0,0.0,0.0,0.0
111,0.0,0.1550205078125,0.0,0.0,0.0,0.0,0.0,0.0,0.3580874391227311,0.0,0.0,0.0,0.0,0.0,0.0,-45.836,0.0,0.0,0.0,0.0,0.0
112,0.0,0.1583203125,0.0,0.0,0.0,0.0,0.0,0.0,0.3580874391227311,0.0,0.0,0.0,0.0,0.0,0.0,-44.324,0.0,0.0,0.0,0.0,0.0
113,0.0,0.1583203125,0.0,0.0,0.0,0.0,0.0,0.0,0.3580874391227311,0.0,0.0,0.0,0.0,0.0,0.0,-44.324,0.0,0.0,0.0,0.0,0.0
114,0.0,0.1583203125,0.0,0.0,0.0,0.0,0.0,0.0,0.3580874391227311,0.0,0.0,0.0,0.0,0.0,0.0,-44.324,0.0,0.0,0.0,0.0,0.0
115,0.0,0.16161328125,0.0,0.0,0.0,0.0,0.0,0.0,0.3580874391227311,0.0,0.0,0.0,0.0,0.0,0.0,-43.028,0.0,0.0,0.0,0.0,0.0
116,0.0,0.16161328125,0.0,0.0,0.0,0.0,0.0,0.0,0.3580874391227311,0.0,0.0,0.0,0.0,0.0,0.0,-43.028,0.0,0.0,0.0,0.0,0.0
117,0.0,0.16161328125,0.0,0.0,0.0,0.0,0.0,0.0,0.3580874391227311,0.0,0.0,0.0,0.0,0.0,0.0,-43.028,0.0,0.0,0.0,0.0,0.0
118,0.0,0.16161328125,0.0,0.0,0.0,0.0,0.0,0.0,0.3580874391227311,0.0,0.0,0.0,0.0,0.0,0.0,-43.028,0.0,0.0,0.0,0.0,0.0
119,0.0,0.1651123046875,0.0,0.0,0.0,0.0,0.0,0.0,0.3580874391227311,0.0,0.0,0.0,0.0,0.0,0.0,-42.488,0.0,0.0,0.0,0.0,0.0
120,0.0,0.1651123046875,0.0,0.0,0.0,0.0,0.0,0.0,0.3580874391227311,0.0,0.0,0.0,0.0,0.0,0.0,-42.488,0.0,0.0,0.0,0.0,0.0
121,0.0,0.168720703125,0.0,0.0,0.0,0.0,0.0,0.0,0.3580874391227311,0.0,0.0,0.0,0.0,0.0,0.0,-42.544,0.0,0.0,0.0,0.0,0.0
122,0.0,0.168720703125,0.0,0.0,0.0,0.0,0.0,0.0,0.3580874391227311,0.0,0.0,0.0,0.0,0.0,0.0,-42.544,0.0,0.0,0.0,0.0,0.0
123,0.0,0.172322265625,0.0,0.0,0.0,0.0,0.0,0.0,0.3580874391227311,0.0,0.0,0.0,0.0,0.0,0.0,-43.192,0.0,0.0,0.0,0.0,0.0
124,0.0,0.172322265625,0.0,0.0,0.0,0.0,0.0,0.0,0.3580874391227311,0.0,0.0,0.0,0.0,0.0,0.0,-43.192,0.0,0.0,0.0,0.0,0.0
125,0.0,0.172322265625,0.0,0.0,0.0,0.0,0.0,0.0,0.3580874391227311,0.0,0.0,0.0,0.0,0.0,0.0,-43.192,0.0,0.0,0.0,0.0,0.0
126,0.0,0.172322265625,0.0,0.0,0.0,0.0,0.0,0.0,0.3580874391227311,0.0,0.0,0.0,0.0,0.0,0.0,-43.192,0.0,0.0,0.0,0.0,0.0
127,0.0,0.1759306640625,0.0,0.0,0.0,0.0,0.0,0.0,0.3580874391227311,0.0,0.0,0.0,0.0,0.0,0.0,-42.544,0.0,0.0,0.0,0.0,0.0
128,0.0,0.1759306640625,0.0,0.0,0.0,0.0,0.0,0.0,0.3580874391227311,0.0,0.0,0.0,0.0,0.0,0.0,-42.544,0.0,0.0,0.0,0.0,0.0
129,0.0,0.1759306640625,0.0,0.0,0.0,0.0,0.0,0.0,0.3580874391227311,0.0,0.0,0.0,0.0,0.0,0.0,-42.544,0.0,0.0,0.0,0.0,0.0
130,0.0,0.1794296875,0.0,0.0,0.0,0.0,0.0,0.0,0.3580874391227311,0.0,0.0,0.0,0.0,0.0,0.0,-41.732,0.0,0.0,0.0,0.0,0.0
131,0.0,0.1794296875,0.0,0.0,0.0,0.0,0.0,0.0,0.3580874391227311,0.0,0.0,0.0,0.0,0.0,0.0,-41.732,0.0,0.0,0.0,0.0,0.0
132,0.0,0.1794296875,0.0,0.0,0.0,0.0,0.0,0.0,0.3580874391227311,0.0,0.0,0.0,0.0,0.0,0.0,-41.732,0.0,0.0,0.0,0.0,0.0
133,0.0,0.182927734375,0.0,0.0,0.0,0.0,0.0,0.0,0.3580874391227311,0.0,0.0,0.0,0.0,0.0,0.0,-41.248,0.0,0.0,0.0,0.0,0.0
134,0.0,0.182927734375,0.0,0.0,0.0,0.0,0.0,0.0,0.3580874391227311,0.0,0.0,0.0,0.0,0.0,0.0,-41.248,0.0,0.0,0.0,0.0,0.0
135,0.0,0.182927734375,0.0,0.0,0.0,0.0,0.0,0.0,0.3580874391227311,0.0,0.0,0.0,0.0,0.0,0.0,-41.248,0.0,0.0,0.0,0.0,0.0
136,0.0,0.1866396484375,0.0,0.0,0.0,0.0,0.0,0.0,0.3580874391227311,0.0,0.0,0.0,0.0,0.0,0.0,-41.3,0.0,0.0,0.0,0.0,0.0
137,0.0,0.1866396484375,0.0,0.0,0.0,0.0,0.0,0.0,0.3580874391227311,0.0,0.0,0.0,0.0,0.0,0.0,-41.3,0.0,0.0,0.0,0.0,0.0
138,0.0,0.1866396484375,0.0,0.0,0.0,0.0,0.0,0.0,0.3580874391227311,0.0,0.0,0.0,0.0,0.0,0.0,-41.3,0.0,0.0,0.0,0.0,0.0
139,0.0,0.1905498046875,0.0,0.0,0.0,0.0,0.0,0.0,0.3580874391227311,0.0,0.0,0.0,0.0,0.0,0.0,-41.732,0.0,0.0,0.0,0.0,0.0
140,0.0,0.1905498046875,0.0,0.0,0.0,0.0,0.0,0.0,0.3580874391227311,0.0,0.0,0.0,0.0,0.0,0.0,-41.732,0.0,0.0,0.0,0.0,0.0
141,0.0,0.1905498046875,0.0,0.0,0.0,0.0,0.0,0.0,0.3580874391227311,0.0,0.0,0.0,0.0,0.0,0.0,-41.732,0.0,0.0,0.0,0.0,0.0
142,0.0,0.1943642578125,0.0,0.0,0.0,0.0,0.0,0.0,0.3580874391227311,0.0,0.0,0.0,0.0,0.0,0.0,-42.544,0.0,0.0,0.0,0.0,0.0
143,0.0,0.1943642578125,0.0,0.0,0.0,0.0,0.0,0.0,0.3580874391227311,0.0,0.0,0.0,0.0,0.0,0.0,-42.544,0.0,0.0,0.0,0.0,0.0
144,0.0,0.1943642578125,0.0,0.0,0.0,0.0,0.0,0.0,0.3580874391227311,0.0,0.0,0.0,0.0,0.0,0.0,-42.544,0.0,0.0,0.0,0.0,0.0
145,0.0,0.1982744140625,0.0,0.0,0.0,0.0,0.0,0.0,0.3580874391227311,0.0,0.0,0.0,0.0,0.0,0.0,-42.544,0.0,0.0,0.0,0.0,0.0
146,0.0,0.1982744140625,0.0,0.0,0.0,0.0,0.0,0.0,0.3580874391227311,0.0,0.0,0.0,0.0,0.0,0.0,-42.544,0.0,0.0,0.0,0.0,0.0
147,0.0,0.1982744140625,0.0,0.0,0.0,0.0,0.0,0.0,0.3580874391227311,0.0,0.0,0.0,0.0,0.0,0.0,-42.544,0.0,0.0,0.0,0.0,0.0
148,0.0,0.2021845703125,0.0,0.0,0.0,0.0,0.0,0.0,0.3580874391227311,0.0,0.0,0.0,0.0,0.0,0.0,-41.788,0.0,0.0,0.0,0.0,0.0
149,0.0,0.2021845703125,0.0,0.0,0.0,0.0,0.0,0.0,0.3580874391227311,0.0,0.0,0.0,0.0,0.0,0.0,-41.788,0.0,0.0,0.0,0.0,0.0
150,0.0,0.2021845703125,0.0,0.0,0.0,0.0,0.0,0.0,0.3580874391227311,0.0,0.0,0.0,0.0,0.0,0.0,-41.788,0.0,0.0,0.0,0.0,0.0
151,0.0,0.2061015625,0.0,0.0,0.0,0.0,0.0,0.0,0.3580874391227311,0.0,0.0,0.0,0.0,0.0,0.0,-41.3,0.0,0.0,0.0,0.0,0.0
152,0.0,0.2061015625,0.0,0.0,0.0,0.0,0.0,0.0,0.3580874391227311,0.0,0.0,0.0,0.0,0.0,0.0,-41.3,0.0,0.0,0.0,0.0,0.0
153,0.0,0.2061015625,0.0,0.0,0.0,0.0,0.0,0.0,0.3580874391227311,0.0,0.0,0.0,0.0,0.0,0.0,-41.3,0.0,0.0,0.0,0.0,0.0
154,0.0,0.2100126953125,0.0,0.0,0.0,0.0,0.0,0.0,0.3580874391227311,0.0,0.0,0.0,0.0,0.0,0.0,-41.732,0.0,0.0,0.0,0.0,0.0
155,0.0,0.2100126953125,0.0,0.0,0.0,0.0,0.0,0.0,0.3580874391227311,0.0,0.0,0.0,0.0,0.0,0.0,-41.732,0.0,0.0,0.0,0.0,0.0
156,0.0,0.2100126953125,0.0,0.0,0.0,0.0,0.0,0.0,0.3580874391227311,0.0,0.0,0.0,0.0,0.0,0.0,-41.732,0.0,0.0,0.0,0.0,0.0
157,0.0,0.214134765625,0.0,0.0,0.0,0.0,0.0,0.0,0.3580874391227311,0.0,0.0,0.0,0.0,0.0,0.0,-42.22,0.0,0.0,0.0,0.0,0.0
158,0.0,0.214134765625,0.0,0.0,0.0,0.0,0.0,0.0,0.3580874391227311,0.0,0.0,0.0,0.0,0.0,0.0,-42.22,0.0,0.0,0.0,0.0,0.0
159,0.0,0.2181484375,0.0,0.0,0.0,0.0,0.0,0.0,0.3580874391227311,0.0,0.0,0.0,0.0,0.0,0.0,-42.704,0.0,0.0,0.0,0.0,0.0
160,0.0,0.2181484375,0.0,0.0,0.0,0.0,0.0,0.0,0.3580874391227311,0.0,0.0,0.0,0.0,0.0,0.0,-42.704,0.0,0.0,0.0,0.0,0.0
161,0.0,0.2181484375,0.0,0.0,0.0,0.0,0.0,0.0,0.3580874391227311,0.0,0.0,0.0,0.0,0.0,0.0,-42.704,0.0,0.0,0.0,0.0,0.0
162,0.0,0.2222646484375,0.0,0.0,0.0,0.0,0.0,0.0,0.3580874391227311,0.0,0.0,0.0,0.0,0.0,0.0,-42.544,0.0,0.0,0.0,0.0,0.0
163,0.0,0.2222646484375,0.0,0.0,0.0,0.0,0.0,0.0,0.3580874391227311,0.0,0.0,0.0,0.0,0.0,0.0,-42.544,0.0,0.0,0.0,0.0,0.0
164,0.0,0.2222646484375,0.0,0.0,0.0,0.0,0.0,0.0,0.3580874391227311,0.0,0.0,0.0,0.0,0.0,0.0,-42.544,0.0,0.0,0.0,0.0,0.0
165,0.0,0.2263876953125,0.0,0.0,0.0,0.0,0.0,0.0,0.3580874391227311,0.0,0.0,0.0,0.0,0.0,0.0,-42.38,0.0,0.0,0.0,0.0,0.0
166,0.0,0.2263876953125,0.0,0.0,0.0,0.0,0.0,0.0,0.3580874391227311,0.0,0.0,0.0,0.0,0.0,0.0,-42.38,0.0,0.0,0.0,0.0,0.0
167,0.0,0.2263876953125,0.0,0.0,0.0,0.0,0.0,0.0,0.3580874391227311,0.0,0.0,0.0,0.0,0.0,0.0,-42.38,0.0,0.0,0.0,0.0,0.0
168,0.0,0.23050390625,0.0,0.0,0.0,0.0,0.0,0.0,0.3580874391227311,0.0,0.0,0.0,0.0,0.0,0.0,-42.652,0.0,0.0,0.0,0.0,0.0
169,0.0,0.23050390625,0.0,0.0,0.0,0.0,0.0,0.0,0.3580874391227311,0.0,0.0,0.0,0.0,0.0,0.0,-42.652,0.0,0.0,0.0,0.0,0.0
170,0.0,0.23050390625,0.0,0.0,0.0,0.0,0.0,0.0,0.3580874391227311,0.0,0.0,0.0,0.0,0.0,0.0,-42.652,0.0,0.0,0.0,0.0,0.0
171,0.0,0.234626953125,0.0,0.0,0.0,0.0,0.0,0.0,0.3580874391227311,0.0,0.0,0.0,0.0,0.0,0.0,-43.136,0.0,0.0,0.0,0.0,0.0
172,0.0,0.234626953125,0.0,0.0,0.0,0.0,0.0,0.0,0.3580874391227311,0.0,0.0,0.0,0.0,0.0,0.0,-43.136,0.0,0.0,0.0,0.0,0.0
173,0.0,0.2387431640625,0.0,0.0,0.0,0.0,0.0,0.0,0.3580874391227311,0.0,0.0,0.0,0.0,0.0,0.0,-43.404,0.0,0.0,0.0,0.0,0.0
174,0.0,0.2387431640625,0.0,0.0,0.0,0.0,0.0,0.0,0.3580874391227311,0.0,0.0,0.0,0.0,0.0,0.0,-43.404,0.0,0.0,0.0,0.0,0.0
175,0.0,0.2387431640625,0.0,0.0,0.0,0.0,0.0,0.0,0.3580874391227311,0.0,0.0,0.0,0.0,0.0,0.0,-43.404,0.0,0.0,0.0,0.0,0.0
176,0.0,0.24296875,0.0,0.0,0.0,0.0,0.0,0.0,0.3580874391227311,0.0,0.0,0.0,0.0,0.0,0.0,-43.892,0.0,0.0,0.0,0.0,0.0
177,0.0,0.24296875,0.0,0.0,0.0,0.0,0.0,0.0,0.3580874391227311,0.0,0.0,0.0,0.0,0.0,0.0,-43.892,0.0,0.0,0.0,0.0,0.0
178,0.0,0.24296875,0.0,0.0,0.0,0.0,0.0,0.0,0.3580874391227311,0.0,0.0,0.0,0.0,0.0,0.0,-43.892,0.0,0.0,0.0,0.0,0.0
179,0.0,0.2471884765625,0.0,0.0,0.0,0.0,0.0,0.0,0.3580874391227311,0.0,0.0,0.0,0.0,0.0,0.0,-43.676,0.0,0.0,0.0,0.0,0.0
180,0.0,0.2471884765625,0.0,0.0,0.0,0.0,0.0,0.0,0.3580874391227311,0.0,0.0,0.0,0.0,0.0,0.0,-43.676,0.0,0.0,0.0,0.0,0.0
181,0.0,0.2471884765625,0.0,0.0,0.0,0.0,0.0,0.0,0.3580874391227311,0.0,0.0,0.0,0.0,0.0,0.0,-43.676,0.0,0.0,0.0,0.0,0.0
182,0.0,0.2513046875,0.0,0.0,0.0,0.0,0.0,0.0,0.3580874391227311,0.0,0.0,0.0,0.0,0.0,0.0,-43.512,0.0,0.0,0.0,0.0,0.0
183,0.0,0.2513046875,0.0,0.0,0.0,0.0,0.0,0.0,0.3580874391227311,0.0,0.0,0.0,0.0,0.0,0.0,-43.512,0.0,0.0,0.0,0.0,0.0
184,0.0,0.2513046875,0.0,0.0,0.0,0.0,0.0,0.0,0.3580874391227311,0.0,0.0,0.0,0.0,0.0,0.0,-43.512,0.0,0.0,0.0,0.0,0.0
185,0.0,0.255427734375,0.0,0.0,0.0,0.0,0.0,0.0,0.3580874391227311,0.0,0.0,0.0,0.0,0.0,0.0,-43.296,0.0,0.0,0.0,0.0,0.0
186,0.0,0.255427734375,0.0,0.0,0.0,0.0,0.0,0.0,0.3580874391227311,0.0,0.0,0.0,0.0,0.0,0.0,-43.296,0.0,0.0,0.0,0.0,0.0
187,0.0,0.255427734375,0.0,0.0,0.0,0.0,0.0,0.0,0.3580874391227311,0.0,0.0,0.0,0.0,0.0,0.0,-43.296,0.0,0.0,0.0,0.0,0.0
188,0.0,0.2595439453125,0.0,0.0,0.0,0.0,0.0,0.0,0.3580874391227311,0.0,0.0,0.0,0.0,0.0,0.0,-43.46,0.0,0.0,0.0,0.0,0.0
189,0.0,0.2595439453125,0.0,0.0,0.0,0.0,0.0,0.0,0.3580874391227311,0.0,0.0,0.0,0.0,0.0,0.0,-43.46,0.0,0.0,0.0,0.0,0.0
190,0.0,0.2595439453125,0.0,0.0,0.0,0.0,0.0,0.0,0.3580874391227311,0.0,0.0,0.0,0.0,0.0,0.0,-43.46,0.0,0.0,0.0,0.0,0.0
191,0.0,0.263666015625,0.0,0.0,0.0,0.0,0.0,0.0,0.3580874391227311,0.0,0.0,0.0,0.0,0.0,0.0,-43.296,0.0,0.0,0.0,0.0,0.0
192,0.0,0.263666015625,0.0,0.0,0.0,0.0,0.0,0.0,0.3580874391227311,0.0,0.0,0.0,0.0,0.0,0.0,-43.296,0.0,0.0,0.0,0.0,0.0
193,0.0,0.263666015625,0.0,0.0,0.0,0.0,0.0,0.0,0.3580874391227311,0.0,0.0,0.0,0.0,0.0,0.0,-43.296,0.0,0.0,0.0,0.0,0.0
194,0.0,0.2676796875,0.0,0.0,0.0,0.0,0.0,0.0,0.3580874391227311,0.0,0.0,0.0,0.0,0.0,0.0,-43.676,0.0,0.0,0.0,0.0,0.0
195,0.0,0.2676796875,0.0,0.0,0.0,0.0,0.0,0.0,0.3580874391227311,0.0,0.0,0.0,0.0,0.0,0.0,-43.676,0.0,0.0,0.0,0.0,0.0
196,0.0,0.2676796875,0.0,0.0,0.0,0.0,0.0,0.0,0.3580874391227311,0.0,0.0,0.0,0.0,0.0,0.0,-43.676,0.0,0.0,0.0,0.0,0.0
197,0.0,0.2717958984375,0.0,0.0,0.0,0.0,0.0,0.0,0.3580874391227311,0.0,0.0,0.0,0.0,0.0,0.0,-43.296,0.0,0.0,0.0,0.0,0.0
198,0.0,0.2717958984375,0.0,0.0,0.0,0.0,0.0,0.0,0.3580874391227311,0.0,0.0,0.0,0.0,0.0,0.0,-43.296,0.0,0.0,0.0,0.0,0.0
199,0.0,0.2717958984375,0.0,0.0,0.0,0.0,0.0,0.0,0.3580874391227311,0.0,0.0,0.0,0.0,0.0,0.0,-43.296,0.0,0.0,0.0,0.0,0.0
200,0.0,0.2759189453125,0.0,0.0,0.0,0.0,0.0,0.0,0.3580874391227311,0.0,0.0,0.0,0.0,0.0,0.0,-43.136,0.0,0.0,0.0,0.0,0.0
201,0.0,0.2759189453125,0.0,0.0,0.0,0.0,0.0,0.0,0.3580874391227311,0.0,0.0,0.0,0.0,0.0,0.0,-43.136,0.0,0.0,0.0,0.0,0.0
202,0.0,0.2759189453125,0.0,0.0,0.0,0.0,0.0,0.0,0.3580874391227311,0.0,0.0,0.0,0.0,0.0,0.0,-43.136,0.0,0.0,0.0,0.0,0.0
203,0.0,0.2799326171875,0.0,0.0,0.0,0.0,0.0,0.0,0.3580874391227311,0.0,0.0,0.0,0.0,0.0,0.0,-43.46,0.0,0.0,0.0,0.0,0.0
204,0.0,0.2799326171875,0.0,0.0,0.0,0.0,0.0,0.0,0.3580874391227311,0.0,0.0,0.0,0.0,0.0,0.0,-43.46,0.0,0.0,0.0,0.0,0.0
205,0.0,0.2799326171875,0.0,0.0,0.0,0.0,0.0,0.0,0.3580874391227311,0.0,0.0,0.0,0.0,0.0,0.0,-43.46,0.0,0.0,0.0,0.0,0.0
206,0.0,0.283849609375,0.0,0.0,0.0,0.0,0.0,0.0,0.3580874391227311,0.0,0.0,0.0,0.0,0.0,0.0,-43.404,0.0,0.0,0.0,0.0,0.0
207,0.0,0.283849609375,0.0,0.0,0.0,0.0,0.0,0.0,0.3580874391227311,0.0,0.0,0.0,0.0,0.0,0.0,-43.404,0.0,0.0,0.0,0.0,0.0
208,0.0,0.283849609375,0.0,0.0,0.0,0.0,0.0,0.0,0.3580874391227311,0.0,0.0,0.0,0.0,0.0,0.0,-43.404,0.0,0.0,0.0,0.0,0.0
209,0.0,0.28786328125,0.0,0.0,0.0,0.0,0.0,0.0,0.3580874391227311,0.0,0.0,0.0,0.0,0.0,0.0,-43.244,0.0,0.0,0.0,0.0,0.0
210,0.0,0.28786328125,0.0,0.0,0.0,0.0,0.0,0.0,0.3580874391227311,0.0,0.0,0.0,0.0,0.0,0.0,-43.244,0.0,0.0,0.0,0.0,0.0
211,0.0,0.28786328125,0.0,0.0,0.0,0.0,0.0,0.0,0.3580874391227311,0.0,0.0,0.0,0.0,0.0,0.0,-43.244,0.0,0.0,0.0,0.0,0.0
212,0.0,0.2917734375,0.0,0.0,0.0,0.0,0.0,0.0,0.3580874391227311,0.0,0.0,0.0,0.0,0.0,0.0,-43.676,0.0,0.0,0.0,0.0,0.0
213,0.0,0.2917734375,0.0,0.0,0.0,0.0,0.0,0.0,0.3580874391227311,0.0,0.0,0.0,0.0,0.0,0.0,-43.676,0.0,0.0,0.0,0.0,0.0
214,0.0,0.2917734375,0.0,0.0,0.0,0.0,0.0,0.0,0.3580874391227311,0.0,0.0,0.0,0.0,0.0,0.0,-43.676,0.0,0.0,0.0,0.0,0.0
215,0.0,0.295896484375,0.0,0.0,0.0,0.0,0.0,0.0,0.3580874391227311,0.0,0.0,0.0,0.0,0.0,0.0,-43.028,0.0,0.0,0.0,0.0,0.0
216,0.0,0.295896484375,0.0,0.0,0.0,0.0,0.0,0.0,0.3580874391227311,0.0,0.0,0.0,0.0,0.0,0.0,-43.028,0.0,0.0,0.0,0.0,0.0
217,0.0,0.295896484375,0.0,0.0,0.0,0.0,0.0,0.0,0.3580874391227311,0.0,0.0,0.0,0.0,0.0,0.0,-43.028,0.0,0.0,0.0,0.0,0.0
218,0.0,0.2999091796875,0.0,0.0,0.0,0.0,0.0,0.0,0.3580874391227311,0.0,0.0,0.0,0.0,0.0,0.0,-42.704,0.0,0.0,0.0,0.0,0.0
219,0.0,0.2999091796875,0.0,0.0,0.0,0.0,0.0,0.0,0.3580874391227311,0.0,0.0,0.0,0.0,0.0,0.0,-42.704,0.0,0.0,0.0,0.0,0.0
220,0.0,0.2999091796875,0.0,0.0,0.0,0.0,0.0,0.0,0.3580874391227311,0.0,0.0,0.0,0.0,0.0,0.0,-42.704,0.0,0.0,0.0,0.0,0.0
221,0.0,0.303826171875,0.0,0.0,0.0,0.0,0.0,0.0,0.3580874391227311,0.0,0.0,0.0,0.0,0.0,0.0,-42.436,0.0,0.0,0.0,0.0,0.0
222,0.0,0.303826171875,0.0,0.0,0.0,0.0,0.0,0.0,0.3580874391227311,0.0,0.0,0.0,0.0,0.0,0.0,-42.436,0.0,0.0,0.0,0.0,0.0
223,0.0,0.303826171875,0.0,0.0,0.0,0.0,0.0,0.0,0.3580874391227311,0.0,0.0,0.0,0.0,0.0,0.0,-42.436,0.0,0.0,0.0,0.0,0.0
224,0.0,0.303826171875,0.0,0.0,0.0,0.0,0.0,0.0,0.3580874391227311,0.0,0.0,0.0,0.0,0.0,0.0,-42.436,0.0,0.0,0.0,0.0,0.0
225,0.0,0.3076337890625,0.0,0.0,0.0,0.0,0.0,0.0,0.3580874391227311,0.0,0.0,0.0,0.0,0.0,0.0,-42.328,0.0,0.0,0.0,0.0,0.0
226,0.0,0.3076337890625,0.0,0.0,0.0,0.0,0.0,0.0,0.3580874391227311,0.0,0.0,0.0,0.0,0.0,0.0,-42.328,0.0,0.0,0.0,0.0,0.0
227,0.0,0.311544921875,0.0,0.0,0.0,0.0,0.0,0.0,0.3580874391227311,0.0,0.0,0.0,0.0,0.0,0.0,-42.112,0.0,0.0,0.0,0.0,0.0
228,0.0,0.311544921875,0.0,0.0,0.0,0.0,0.0,0.0,-0.2732633675726527,0.0,0.0,0.0,0.0,0.0,0.0,-42.112,0.0,0.0,0.0,0.0,0.0
229,0.0,0.311544921875,0.0,0.0,0.0,0.0,0.0,0.0,-0.2732633675726527,0.0,0.0,0.0,0.0,0.0,0.0,-42.112,0.0,0.0,0.0,0.0,0.0
230,0.0,0.3154619140625,0.0,0.0,0.0,0.0,0.0,0.0,-0.2732633675726527,0.0,0.0,0.0,0.0,0.0,0.0,-42.436,0.0,0.0,0.0,0.0,0.0
231,0.0,0.3154619140625,0.0,0.0,0.0,0.0,0.0,0.0,-0.2732633675726527,0.0,0.0,0.0,0.0,0.0,0.0,-42.436,0.0,0.0,0.0,0.0,0.0
232,0.0,0.3154619140625,0.0,0.0,0.0,0.0,0.0,0.0,-0.2732633675726527,0.0,0.0,0.0,0.0,0.0,0.0,-42.436,0.0,0.0,0.0,0.0,0.0
233,0.0,0.319474609375,0.0,0.0,0.0,0.0,0.0,0.0,-0.2732633675726527,0.0,0.0,0.0,0.0,0.0,0.0,-42.328,0.0,0.0,0.0,0.0,0.0
234,0.0,0.319474609375,0.0,0.0,0.0,0.0,0.0,0.0,-0.2732633675726527,0.0,0.0,0.0,0.0,0.0,0.0,-42.328,0.0,0.0,0.0,0.0,0.0
235,0.0,0.319474609375,0.0,0.0,0.0,0.0,0.0,0.0,-0.2732633675726527,0.0,0.0,0.0,0.0,0.0,0.0,-42.328,0.0,0.0,0.0,0.0,0.0
236,0.0,0.3227685546875,0.0,0.0,0.0,0.0,0.0,0.0,-0.2732633675726527,0.0,0.0,0.0,0.0,0.0,0.0,-49.508,0.0,0.0,0.0,0.0,0.0
237,0.0,0.3227685546875,0.0,0.0,0.0,0.0,0.0,0.0,-0.2732633675726527,0.0,0.0,0.0,0.0,0.0,0.0,-49.508,0.0,0.0,0.0,0.0,0.0
238,0.0,0.3227685546875,0.0,0.0,0.0,0.0,0.0,0.0,-0.2732633675726527,0.0,0.0,0.0,0.0,0.0,0.0,-49.508,0.0,0.0,0.0,0.0,0.0
239,0.0,0.3244208984375,0.0,0.0,0.0,0.0,0.0,0.0,-0.2732633675726527,0.0,0.0,0.0,0.0,0.0,0.0,-61.764,0.0,0.0,0.0,0.0,0.0
240,0.0,0.3244208984375,0.0,0.0,0.0,0.0,0.0,0.0,-0.2732633675726527,0.0,0.0,0.0,0.0,0.0,0.0,-61.764,0.0,0.0,0.0,0.0,0.0
241,0.0,0.3244208984375,0.0,0.0,0.0,0.0,0.0,0.0,-0.2732633675726527,0.0,0.0,0.0,0.0,0.0,0.0,-61.764,0.0,0.0,0.0,0.0,0.0
242,0.0,0.3250380859375,0.0,0.0,0.0,0.0,0.0,0.0,-0.2732633675726527,0.0,0.0,0.0,0.0,0.0,0.0,-70.672,0.0,0.0,0.0,0.0,0.0
243,0.0,0.3250380859375,0.0,0.0,0.0,0.0,0.0,0.0,-0.2732633675726527,0.0,0.0,0.0,0.0,0.0,0.0,-70.672,0.0,0.0,0.0,0.0,0.0
244,0.0,0.324626953125,0.0,0.0,0.0,0.0,0.0,0.0,-0.2732633675726527,0.0,0.0,0.0,0.0,0.0,0.0,-74.504,0.0,0.0,0.0,0.0,0.0
245,0.0,0.324626953125,0.0,0.0,0.0,0.0,0.0,0.0,-0.2732633675726527,0.0,0.0,0.0,0.0,0.0,0.0,-74.504,0.0,0.0,0.0,0.0,0.0
246,0.0,0.324626953125,0.0,0.0,0.0,0.0,0.0,0.0,-0.2732633675726527,0.0,0.0,0.0,0.0,0.0,0.0,-74.504,0.0,0.0,0.0,0.0,0.0
247,0.0,0.324626953125,0.0,0.0,0.0,0.0,0.0,0.0,-0.2732633675726527,0.0,0.0,0.0,0.0,0.0,0.0,-74.504,0.0,0.0,0.0,0.0,0.0
248,0.0,0.323701171875,0.0,0.0,0.0,0.0,0.0,0.0,-0.2732633675726527,0.0,0.0,0.0,0.0,0.0,0.0,-74.992,0.0,0.0,0.0,0.0,0.0
249,0.0,0.323701171875,0.0,0.0,0.0,0.0,0.0,0.0,-0.2732633675726527,0.0,0.0,0.0,0.0,0.0,0.0,-74.992,0.0,0.0,0.0,0.0,0.0
250,0.0,0.322458984375,0.0,0.0,0.0,0.0,0.0,0.0,-0.2732633675726527,0.0,0.0,0.0,0.0,0.0,0.0,-76.988,0.0,0.0,0.0,0.0,0.0
251,0.0,0.322458984375,0.0,0.0,0.0,0.0,0.0,0.0,-0.2732633675726527,0.0,0.0,0.0,0.0,0.0,0.0,-76.988,0.0,0.0,0.0,0.0,0.0
252,0.0,0.322458984375,0.0,0.0,0.0,0.0,0.0,0.0,-0.2732633675726527,0.0,0.0,0.0,0.0,0.0,0.0,-76.988,0.0,0.0,0.0,0.0,0.0
253,0.0,0.3196806640625,0.0,0.0,0.0,0.0,0.0,0.0,-0.2732633675726527,0.0,0.0,0.0,0.0,0.0,0.0,-77.148,0.0,0.0,0.0,0.0,0.0
254,0.0,0.3196806640625,0.0,0.0,0.0,0.0,0.0,0.0,-0.2732633675726527,0.0,0.0,0.0,0.0,0.0,0.0,-77.148,0.0,0.0,0.0,0.0,0.0
255,0.0,0.3196806640625,0.0,0.0,0.0,0.0,0.0,0.0,-0.2732633675726527,0.0,0.0,0.0,0.0,0.0,0.0,-77.148,0.0,0.0,0.0,0.0,0.0
256,0.0,0.3196806640625,0.0,0.0,0.0,0.0,0.0,0.0,-0.2732633675726527,0.0,0.0,0.0,0.0,0.0,0.0,-77.148,0.0,0.0,0.0,0.0,0.0
257,0.0,0.315564453125,0.0,0.0,0.0,0.0,0.0,0.0,-0.2732633675726527,0.0,0.0,0.0,0.0,0.0,0.0,-74.18,0.0,0.0,0.0,0.0,0.0
258,0.0,0.315564453125,0.0,0.0,0.0,0.0,0.0,0.0,-0.2732633675726527,0.0,0.0,0.0,0.0,0.0,0.0,-74.18,0.0,0.0,0.0,0.0,0.0
259,0.0,0.315564453125,0.0,0.0,0.0,0.0,0.0,0.0,-0.2732633675726527,0.0,0.0,0.0,0.0,0.0,0.0,-74.18,0.0,0.0,0.0,0.0,0.0
260,0.0,0.3107216796875,0.0,0.0,0.0,0.0,0.0,0.0,-0.2732633675726527,0.0,0.0,0.0,0.0,0.0,0.0,-68.728,0.0,0.0,0.0,0.0,0.0
261,0.0,0.3107216796875,0.0,0.0,0.0,0.0,0.0,0.0,-0.2732633675726527,0.0,0.0,0.0,0.0,0.0,0.0,-68.728,0.0,0.0,0.0,0.0,0.0
262,0.0,0.3107216796875,0.0,0.0,0.0,0.0,0.0,0.0,-0.2732633675726527,0.0,0.0,0.0,0.0,0.0,0.0,-68.728,0.0,0.0,0.0,0.0,0.0
263,0.0,0.305267578125,0.0,0.0,0.0,0.0,0.0,0.0,-0.2732633675726527,0.0,0.0,0.0,0.0,0.0,0.0,-62.788,0.0,0.0,0.0,0.0,0.0
264,0.0,0.305267578125,0.0,0.0,0.0,0.0,0.0,0.0,-0.2732633675726527,0.0,0.0,0.0,0.0,0.0,0.0,-62.788,0.0,0.0,0.0,0.0,0.0
265,0.0,0.305267578125,0.0,0.0,0.0,0.0,0.0,0.0,-0.2732633675726527,0.0,0.0,0.0,0.0,0.0,0.0,-62.788,0.0,0.0,0.0,0.0,0.0
266,0.0,0.3003212890625,0.0,0.0,0.0,0.0,0.0,0.0,-0.2732633675726527,0.0,0.0,0.0,0.0,0.0,0.0,-59.008,0.0,0.0,0.0,0.0,0.0
267,0.0,0.3003212890625,0.0,0.0,0.0,0.0,0.0,0.0,-0.2732633675726527,0.0,0.0,0.0,0.0,0.0,0.0,-59.008,0.0,0.0,0.0,0.0,0.0
268,0.0,0.3003212890625,0.0,0.0,0.0,0.0,0.0,0.0,-0.2732633675726527,0.0,0.0,0.0,0.0,0.0,0.0,-59.008,0.0,0.0,0.0,0.0,0.0
269,0.0,0.2953818359375,0.0,0.0,0.0,0.0,0.0,0.0,-0.2732633675726527,0.0,0.0,0.0,0.0,0.0,0.0,-56.092,0.0,0.0,0.0,0.0,0.0
270,0.0,0.2953818359375,0.0,0.0,0.0,0.0,0.0,0.0,-0.2732633675726527,0.0,0.0,0.0,0.0,0.0,0.0,-56.092,0.0,0.0,0.0,0.0,0.0
271,0.0,0.2953818359375,0.0,0.0,0.0,0.0,0.0,0.0,-0.2732633675726527,0.0,0.0,0.0,0.0,0.0,0.0,-56.092,0.0,0.0,0.0,0.0,0.0
272,0.0,0.2899208984375,0.0,0.0,0.0,0.0,0.0,0.0,-0.2732633675726527,0.0,0.0,0.0,0.0,0.0,0.0,-52.1,0.0,0.0,0.0,0.0,0.0
273,0.0,0.2899208984375,0.0,0.0,0.0,0.0,0.0,0.0,-0.2732633675726527,0.0,0.0,0.0,0.0,0.0,0.0,-52.1,0.0,0.0,0.0,0.0,0.0
274,0.0,0.2899208984375,0.0,0.0,0.0,0.0,0.0,0.0,-0.2732633675726527,0.0,0.0,0.0,0.0,0.0,0.0,-52.1,0.0,0.0,0.0,0.0,0.0
275,0.0,0.2842607421875,0.0,0.0,0.0,0.0,0.0,0.0,-0.2732633675726527,0.0,0.0,0.0,0.0,0.0,0.0,-47.94,0.0,0.0,0.0,0.0,0.0
276,0.0,0.2842607421875,0.0,0.0,0.0,0.0,0.0,0.0,-0.2732633675726527,0.0,0.0,0.0,0.0,0.0,0.0,-47.94,0.0,0.0,0.0,0.0,0.0
277,0.0,0.2842607421875,0.0,0.0,0.0,0.0,0.0,0.0,-0.2732633675726527,0.0,0.0,0.0,0.0,0.0,0.0,-47.94,0.0,0.0,0.0,0.0,0.0
278,0.0,0.2781826171875,0.0,0.0,0.0,0.0,0.0,0.0,-0.2732633675726527,0.0,0.0,0.0,0.0,0.0,0.0,-45.188,0.0,0.0,0.0,0.0,0.0
279,0.0,0.2781826171875,0.0,0.0,0.0,0.0,0.0,0.0,-0.2732633675726527,0.0,0.0,0.0,0.0,0.0,0.0,-45.188,0.0,0.0,0.0,0.0,0.0
280,0.0,0.2781826171875,0.0,0.0,0.0,0.0,0.0,0.0,-0.2732633675726527,0.0,0.0,0.0,0.0,0.0,0.0,-45.188,0.0,0.0,0.0,0.0,0.0
281,0.0,0.272419921875,0.0,0.0,0.0,0.0,0.0,0.0,-0.2732633675726527,0.0,0.0,0.0,0.0,0.0,0.0,-43.512,0.0,0.0,0.0,0.0,0.0
282,0.0,0.272419921875,0.0,0.0,0.0,0.0,0.0,0.0,-0.2732633675726527,0.0,0.0,0.0,0.0,0.0,0.0,-43.512,0.0,0.0,0.0,0.0,0.0
283,0.0,0.272419921875,0.0,0.0,0.0,0.0,0.0,0.0,-0.2732633675726527,0.0,0.0,0.0,0.0,0.0,0.0,-43.512,0.0,0.0,0.0,0.0,0.0
284,0.0,0.2670625,0.0,0.0,0.0,0.0,0.0,0.0,-0.2732633675726527,0.0,0.0,0.0,0.0,0.0,0.0,-43.892,0.0,0.0,0.0,0.0,0.0
285,0.0,0.2670625,0.0,0.0,0.0,0.0,0.0,0.0,-0.2732633675726527,0.0,0.0,0.0,0.0,0.0,0.0,-43.892,0.0,0.0,0.0,0.0,0.0
286,0.0,0.2670625,0.0,0.0,0.0,0.0,0.0,0.0,-0.2732633675726527,0.0,0.0,0.0,0.0,0.0,0.0,-43.892,0.0,0.0,0.0,0.0,0.0
287,0.0,0.2614990234375,0.0,0.0,0.0,0.0,0.0,0.0,-0.2732633675726527,0.0,0.0,0.0,0.0,0.0,0.0,-43.728,0.0,0.0,0.0,0.0,0.0
288,0.0,0.2614990234375,0.0,0.0,0.0,0.0,0.0,0.0,-0.2732633675726527,0.0,0.0,0.0,0.0,0.0,0.0,-43.728,0.0,0.0,0.0,0.0,0.0
289,0.0,0.2614990234375,0.0,0.0,0.0,0.0,0.0,0.0,-0.2732633675726527,0.0,0.0,0.0,0.0,0.0,0.0,-43.728,0.0,0.0,0.0,0.0,0.0
290,0.0,0.2556328125,0.0,0.0,0.0,0.0,0.0,0.0,-0.2732633675726527,0.0,0.0,0.0,0.0,0.0,0.0,-44.864,0.0,0.0,0.0,0.0,0.0
291,0.0,0.2556328125,0.0,0.0,0.0,0.0,0.0,0.0,-0.2732633675726527,0.0,0.0,0.0,0.0,0.0,0.0,-44.864,0.0,0.0,0.0,0.0,0.0
292,0.0,0.2556328125,0.0,0.0,0.0,0.0,0.0,0.0,-0.2732633675726527,0.0,0.0,0.0,0.0,0.0,0.0,-44.864,0.0,0.0,0.0,0.0,0.0
293,0.0,0.2556328125,0.0,0.0,0.0,0.0,0.0,0.0,-0.2732633675726527,0.0,0.0,0.0,0.0,0.0,0.0,-44.864,0.0,0.0,0.0,0.0,0.0
294,0.0,0.249349609375,0.0,0.0,0.0,0.0,0.0,0.0,-0.2732633675726527,0.0,0.0,0.0,0.0,0.0,0.0,-46.752,0.0,0.0,0.0,0.0,0.0
295,0.0,0.249349609375,0.0,0.0,0.0,0.0,0.0,0.0,-0.2732633675726527,0.0,0.0,0.0,0.0,0.0,0.0,-46.752,0.0,0.0,0.0,0.0,0.0
296,0.0,0.2428662109375,0.0,0.0,0.0,0.0,0.0,0.0,-0.2732633675726527,0.0,0.0,0.0,0.0,0.0,0.0,-46.644,0.0,0.0,0.0,0.0,0.0
297,0.0,0.2428662109375,0.0,0.0,0.0,0.0,0.0,0.0,-0.2732633675726527,0.0,0.0,0.0,0.0,0.0,0.0,-46.644,0.0,0.0,0.0,0.0,0.0
298,0.0,0.236994140625,0.0,0.0,0.0,0.0,0.0,0.0,-0.2732633675726527,0.0,0.0,0.0,0.0,0.0,0.0,-42.056,0.0,0.0,0.0,0.0,0.0
299,0.0,0.236994140625,0.0,0.0,0.0,0.0,0.0,0.0,-0.2732633675726527,0.0,0.0,0.0,0.0,0.0,0.0,-42.056,0.0,0.0,0.0,0.0,0.0
300,0.0,0.2310185546875,0.0,0.0,0.0,0.0,0.0,0.0,-0.2732633675726527,0.0,0.0,0.0,0.0,0.0,0.0,-41.516,0.0,0.0,0.0,0.0,0.0
301,0.0,0.2310185546875,0.0,0.0,0.0,0.0,0.0,0.0,-0.2732633675726527,0.0,0.0,0.0,0.0,0.0,0.0,-41.516,0.0,0.0,0.0,0.0,0.0
302,0.0,0.2310185546875,0.0,0.0,0.0,0.0,0.0,0.0,-0.2732633675726527,0.0,0.0,0.0,0.0,0.0,0.0,-41.516,0.0,0.0,0.0,0.0,0.0
303,0.0,0.2247412109375,0.0,0.0,0.0,0.0,0.0,0.0,-0.2732633675726527,0.0,0.0,0.0,0.0,0.0,0.0,-43.296,0.0,0.0,0.0,0.0,0.0
304,0.0,0.2247412109375,0.0,0.0,0.0,0.0,0.0,0.0,-0.2732633675726527,0.0,0.0,0.0,0.0,0.0,0.0,-43.296,0.0,0.0,0.0,0.0,0.0
305,0.0,0.2247412109375,0.0,0.0,0.0,0.0,0.0,0.0,-0.2732633675726527,0.0,0.0,0.0,0.0,0.0,0.0,-43.296,0.0,0.0,0.0,0.0,0.0
306,0.0,0.218765625,0.0,0.0,0.0,0.0,0.0,0.0,-0.2732633675726527,0.0,0.0,0.0,0.0,0.0,0.0,-41.248,0.0,0.0,0.0,0.0,0.0
307,0.0,0.218765625,0.0,0.0,0.0,0.0,0.0,0.0,-0.2732633675726527,0.0,0.0,0.0,0.0,0.0,0.0,-41.248,0.0,0.0,0.0,0.0,0.0
308,0.0,0.218765625,0.0,0.0,0.0,0.0,0.0,0.0,-0.2732633675726527,0.0,0.0,0.0,0.0,0.0,0.0,-41.248,0.0,0.0,0.0,0.0,0.0
309,0.0,0.218765625,0.0,0.0,0.0,0.0,0.0,0.0,-0.2732633675726527,0.0,0.0,0.0,0.0,0.0,0.0,-41.248,0.0,0.0,0.0,0.0,0.0
310,0.0,0.2128935546875,0.0,0.0,0.0,0.0,0.0,0.0,-0.2732633675726527,0.0,0.0,0.0,0.0,0.0,0.0,-35.36,0.0,0.0,0.0,0.0,0.0
311,0.0,0.2128935546875,0.0,0.0,0.0,0.0,0.0,0.0,-0.2732633675726527,0.0,0.0,0.0,0.0,0.0,0.0,-35.36,0.0,0.0,0.0,0.0,0.0
312,0.0,0.2128935546875,0.0,0.0,0.0,0.0,0.0,0.0,-0.2732633675726527,0.0,0.0,0.0,0.0,0.0,0.0,-35.36,0.0,0.0,0.0,0.0,0.0
313,0.0,0.207234375,0.0,0.0,0.0,0.0,0.0,0.0,-0.2732633675726527,0.0,0.0,0.0,0.0,0.0,0.0,-33.148,0.0,0.0,0.0,0.0,0.0
314,0.0,0.207234375,0.0,0.0,0.0,0.0,0.0,0.0,-0.2732633675726527,0.0,0.0,0.0,0.0,0.0,0.0,-33.148,0.0,0.0,0.0,0.0,0.0
315,0.0,0.207234375,0.0,0.0,0.0,0.0,0.0,0.0,-0.2732633675726527,0.0,0.0,0.0,0.0,0.0,0.0,-33.148,0.0,0.0,0.0,0.0,0.0
316,0.0,0.2019794921875,0.0,0.0,0.0,0.0,0.0,0.0,-0.2732633675726527,0.0,0.0,0.0,0.0,0.0,0.0,-35.576,0.0,0.0,0.0,0.0,0.0
317,0.0,0.2019794921875,0.0,0.0,0.0,0.0,0.0,0.0,-0.2732633675726527,0.0,0.0,0.0,0.0,0.0,0.0,-35.576,0.0,0.0,0.0,0.0,0.0
318,0.0,0.2019794921875,0.0,0.0,0.0,0.0,0.0,0.0,-0.2732633675726527,0.0,0.0,0.0,0.0,0.0,0.0,-35.576,0.0,0.0,0.0,0.0,0.0
319,0.0,0.1966279296875,0.0,0.0,0.0,0.0,0.0,0.0,-0.2732633675726527,0.0,0.0,0.0,0.0,0.0,0.0,-36.872,0.0,0.0,0.0,0.0,0.0
320,0.0,0.1966279296875,0.0,0.0,0.0,0.0,0.0,0.0,-0.2732633675726527,0.0,0.0,0.0,0.0,0.0,0.0,-36.872,0.0,0.0,0.0,0.0,0.0
321,0.0,0.1966279296875,0.0,0.0,0.0,0.0,0.0,0.0,-0.2732633675726527,0.0,0.0,0.0,0.0,0.0,0.0,-36.872,0.0,0.0,0.0,0.0,0.0
322,0.0,0.19178515625,0.0,0.0,0.0,0.0,0.0,0.0,-0.2732633675726527,0.0,0.0,0.0,0.0,0.0,0.0,-33.256,0.0,0.0,0.0,0.0,0.0
323,0.0,0.19178515625,0.0,0.0,0.0,0.0,0.0,0.0,-0.2732633675726527,0.0,0.0,0.0,0.0,0.0,0.0,-33.256,0.0,0.0,0.0,0.0,0.0
324,0.0,0.19178515625,0.0,0.0,0.0,0.0,0.0,0.0,-0.2732633675726527,0.0,0.0,0.0,0.0,0.0,0.0,-33.256,0.0,0.0,0.0,0.0,0.0
325,0.0,0.1872568359375,0.0,0.0,0.0,0.0,0.0,0.0,-0.2732633675726527,0.0,0.0,0.0,0.0,0.0,0.0,-32.176,0.0,0.0,0.0,0.0,0.0
326,0.0,0.1872568359375,0.0,0.0,0.0,0.0,0.0,0.0,-0.2732633675726527,0.0,0.0,0.0,0.0,0.0,0.0,-32.176,0.0,0.0,0.0,0.0,0.0
327,0.0,0.1872568359375,0.0,0.0,0.0,0.0,0.0,0.0,-0.2732633675726527,0.0,0.0,0.0,0.0,0.0,0.0,-32.176,0.0,0.0,0.0,0.0,0.0
328,0.0,0.1872568359375,0.0,0.0,0.0,0.0,0.0,0.0,-0.2732633675726527,0.0,0.0,0.0,0.0,0.0,0.0,-32.176,0.0,0.0,0.0,0.0,0.0
329,0.0,0.1824140625,0.0,0.0,0.0,0.0,0.0,0.0,-0.2732633675726527,0.0,0.0,0.0,0.0,0.0,0.0,-34.336,0.0,0.0,0.0,0.0,0.0
330,0.0,0.1824140625,0.0,0.0,0.0,0.0,0.0,0.0,-0.2732633675726527,0.0,0.0,0.0,0.0,0.0,0.0,-34.336,0.0,0.0,0.0,0.0,0.0
331,0.0,0.1824140625,0.0,0.0,0.0,0.0,0.0,0.0,-0.2732633675726527,0.0,0.0,0.0,0.0,0.0,0.0,-34.336,0.0,0.0,0.0,0.0,0.0
332,0.0,0.1778857421875,0.0,0.0,0.0,0.0,0.0,0.0,-0.2732633675726527,0.0,0.0,0.0,0.0,0.0,0.0,-38.548,0.0,0.0,0.0,0.0,0.0
333,0.0,0.1778857421875,0.0,0.0,0.0,0.0,0.0,0.0,-0.2732633675726527,0.0,0.0,0.0,0.0,0.0,0.0,-38.548,0.0,0.0,0.0,0.0,0.0
334,0.0,0.1778857421875,0.0,0.0,0.0,0.0,0.0,0.0,-0.2732633675726527,0.0,0.0,0.0,0.0,0.0,0.0,-38.548,0.0,0.0,0.0,0.0,0.0
335,0.0,0.17366015625,0.0,0.0,0.0,0.0,0.0,0.0,-0.2732633675726527,0.0,0.0,0.0,0.0,0.0,0.0,-36.496,0.0,0.0,0.0,0.0,0.0
336,0.0,0.17366015625,0.0,0.0,0.0,0.0,0.0,0.0,-0.2732633675726527,0.0,0.0,0.0,0.0,0.0,0.0,-36.496,0.0,0.0,0.0,0.0,0.0
337,0.0,0.1698525390625,0.0,0.0,0.0,0.0,0.0,0.0,-0.2732633675726527,0.0,0.0,0.0,0.0,0.0,0.0,-33.524,0.0,0.0,0.0,0.0,0.0
338,0.0,0.1698525390625,0.0,0.0,0.0,0.0,0.0,0.0,-0.2732633675726527,0.0,0.0,0.0,0.0,0.0,0.0,-33.524,0.0,0.0,0.0,0.0,0.0
339,0.0,0.1698525390625,0.0,0.0,0.0,0.0,0.0,0.0,-0.2732633675726527,0.0,0.0,0.0,0.0,0.0,0.0,-33.524,0.0,0.0,0.0,0.0,0.0
340,0.0,0.1698525390625,0.0,0.0,0.0,0.0,0.0,0.0,-0.2732633675726527,0.0,0.0,0.0,0.0,0.0,0.0,-33.524,0.0,0.0,0.0,0.0,0.0
341,0.0,0.166044921875,0.0,0.0,0.0,0.0,0.0,0.0,-0.2732633675726527,0.0,0.0,0.0,0.0,0.0,0.0,-35.848,0.0,0.0,0.0,0.0,0.0
342,0.0,0.166044921875,0.0,0.0,0.0,0.0,0.0,0.0,-0.2732633675726527,0.0,0.0,0.0,0.0,0.0,0.0,-35.848,0.0,0.0,0.0,0.0,0.0
343,0.0,0.166044921875,0.0,0.0,0.0,0.0,0.0,0.0,-0.2732633675726527,0.0,0.0,0.0,0.0,0.0,0.0,-35.848,0.0,0.0,0.0,0.0,0.0
344,0.0,0.162333984375,0.0,0.0,0.0,0.0,0.0,0.0,-0.2732633675726527,0.0,0.0,0.0,0.0,0.0,0.0,-38.008,0.0,0.0,0.0,0.0,0.0
345,0.0,0.162333984375,0.0,0.0,0.0,0.0,0.0,0.0,-0.2732633675726527,0.0,0.0,0.0,0.0,0.0,0.0,-38.008,0.0,0.0,0.0,0.0,0.0
346,0.0,0.15862890625,0.0,0.0,0.0,0.0,0.0,0.0,-0.2732633675726527,0.0,0.0,0.0,0.0,0.0,0.0,-40.976,0.0,0.0,0.0,0.0,0.0
347,0.0,0.15862890625,0.0,0.0,0.0,0.0,0.0,0.0,-0.2732633675726527,0.0,0.0,0.0,0.0,0.0,0.0,-40.976,0.0,0.0,0.0,0.0,0.0
348,0.0,0.15491796875,0.0,0.0,0.0,0.0,0.0,0.0,-0.2732633675726527,0.0,0.0,0.0,0.0,0.0,0.0,-40.168,0.0,0.0,0.0,0.0,0.0
349,0.0,0.15491796875,0.0,0.0,0.0,0.0,0.0,0.0,-0.2732633675726527,0.0,0.0,0.0,0.0,0.0,0.0,-40.168,0.0,0.0,0.0,0.0,0.0
350,0.0,0.15491796875,0.0,0.0,0.0,0.0,0.0,0.0,-0.2732633675726527,0.0,0.0,0.0,0.0,0.0,0.0,-40.168,0.0,0.0,0.0,0.0,0.0
351,0.0,0.15491796875,0.0,0.0,0.0,0.0,0.0,0.0,-0.2732633675726527,0.0,0.0,0.0,0.0,0.0,0.0,-40.168,0.0,0.0,0.0,0.0,0.0
352,0.0,0.151830078125,0.0,0.0,0.0,0.0,0.0,0.0,-0.2732633675726527,0.0,0.0,0.0,0.0,0.0,0.0,-38.872,0.0,0.0,0.0,0.0,0.0
353,0.0,0.151830078125,0.0,0.0,0.0,0.0,0.0,0.0,-0.2732633675726527,0.0,0.0,0.0,0.0,0.0,0.0,-38.872,0.0,0.0,0.0,0.0,0.0
354,0.0,0.151830078125,0.0,0.0,0.0,0.0,0.0,0.0,-0.2732633675726527,0.0,0.0,0.0,0.0,0.0,0.0,-38.872,0.0,0.0,0.0,0.0,0.0
355,0.0,0.148640625,0.0,0.0,0.0,0.0,0.0,0.0,-0.2732633675726527,0.0,0.0,0.0,0.0,0.0,0.0,-40.652,0.0,0.0,0.0,0.0,0.0
356,0.0,0.148640625,0.0,0.0,0.0,0.0,0.0,0.0,-0.2732633675726527,0.0,0.0,0.0,0.0,0.0,0.0,-40.652,0.0,0.0,0.0,0.0,0.0
357,0.0,0.148640625,0.0,0.0,0.0,0.0,0.0,0.0,-0.2732633675726527,0.0,0.0,0.0,0.0,0.0,0.0,-40.652,0.0,0.0,0.0,0.0,0.0
358,0.0,0.14585546875,0.0,0.0,0.0,0.0,0.0,0.0,-0.2732633675726527,0.0,0.0,0.0,0.0,0.0,0.0,-43.192,0.0,0.0,0.0,0.0,0.0
359,0.0,0.14585546875,0.0,0.0,0.0,0.0,0.0,0.0,-0.2732633675726527,0.0,0.0,0.0,0.0,0.0,0.0,-43.192,0.0,0.0,0.0,0.0,0.0
360,0.0,0.1428642578125,0.0,0.0,0.0,0.0,0.0,0.0,-0.2732633675726527,0.0,0.0,0.0,0.0,0.0,0.0,-44.864,0.0,0.0,0.0,0.0,0.0
361,0.0,0.1428642578125,0.0,0.0,0.0,0.0,0.0,0.0,-0.2732633675726527,0.0,0.0,0.0,0.0,0.0,0.0,-44.864,0.0,0.0,0.0,0.0,0.0
362,0.0,0.1428642578125,0.0,0.0,0.0,0.0,0.0,0.0,-0.2732633675726527,0.0,0.0,0.0,0.0,0.0,0.0,-44.864,0.0,0.0,0.0,0.0,0.0
363,0.0,0.13916015625,0.0,0.0,0.0,0.0,0.0,0.0,-0.2732633675726527,0.0,0.0,0.0,0.0,0.0,0.0,-45.24,0.0,0.0,0.0,0.0,0.0
364,0.0,0.13916015625,0.0,0.0,0.0,0.0,0.0,0.0,-0.2732633675726527,0.0,0.0,0.0,0.0,0.0,0.0,-45.24,0.0,0.0,0.0,0.0,0.0
365,0.0,0.13916015625,0.0,0.0,0.0,0.0,0.0,0.0,-0.2732633675726527,0.0,0.0,0.0,0.0,0.0,0.0,-45.24,0.0,0.0,0.0,0.0,0.0
366,0.0,0.13916015625,0.0,0.0,0.0,0.0,0.0,0.0,-0.2732633675726527,0.0,0.0,0.0,0.0,0.0,0.0,-45.24,0.0,0.0,0.0,0.0,0.0
367,0.0,0.1357578125,0.0,0.0,0.0,0.0,0.0,0.0,-0.2732633675726527,0.0,0.0,0.0,0.0,0.0,0.0,-44.864,0.0,0.0,0.0,0.0,0.0
368,0.0,0.1357578125,0.0,0.0,0.0,0.0,0.0,0.0,-0.2732633675726527,0.0,0.0,0.0,0.0,0.0,0.0,-44.864,0.0,0.0,0.0,0.0,0.0
369,0.0,0.132669921875,0.0,0.0,0.0,0.0,0.0,0.0,-0.2732633675726527,0.0,0.0,0.0,0.0,0.0,0.0,-44.756,0.0,0.0,0.0,0.0,0.0
370,0.0,0.132669921875,0.0,0.0,0.0,0.0,0.0,0.0,-0.2732633675726527,0.0,0.0,0.0,0.0,0.0,0.0,-44.756,0.0,0.0,0.0,0.0,0.0
371,0.0,0.132669921875,0.0,0.0,0.0,0.0,0.0,0.0,-0.2732633675726527,0.0,0.0,0.0,0.0,0.0,0.0,-44.756,0.0,0.0,0.0,0.0,0.0
372,0.0,0.132669921875,0.0,0.0,0.0,0.0,0.0,0.0,-0.2732633675726527,0.0,0.0,0.0,0.0,0.0,0.0,-44.756,0.0,0.0,0.0,0.0,0.0
373,0.0,0.1295830078125,0.0,0.0,0.0,0.0,0.0,0.0,-0.2732633675726527,0.0,0.0,0.0,0.0,0.0,0.0,-45.564,0.0,0.0,0.0,0.0,0.0
374,0.0,0.1295830078125,0.0,0.0,0.0,0.0,0.0,0.0,-0.2732633675726527,0.0,0.0,0.0,0.0,0.0,0.0,-45.564,0.0,0.0,0.0,0.0,0.0
375,0.0,0.1295830078125,0.0,0.0,0.0,0.0,0.0,0.0,-0.2732633675726527,0.0,0.0,0.0,0.0,0.0,0.0,-45.564,0.0,0.0,0.0,0.0,0.0
376,0.0,0.126591796875,0.0,0.0,0.0,0.0,0.0,0.0,-0.2732633675726527,0.0,0.0,0.0,0.0,0.0,0.0,-47.4,0.0,0.0,0.0,0.0,0.0
377,0.0,0.126591796875,0.0,0.0,0.0,0.0,0.0,0.0,-0.2732633675726527,0.0,0.0,0.0,0.0,0.0,0.0,-47.4,0.0,0.0,0.0,0.0,0.0
378,0.0,0.126591796875,0.0,0.0,0.0,0.0,0.0,0.0,-0.2732633675726527,0.0,0.0,0.0,0.0,0.0,0.0,-47.4,0.0,0.0,0.0,0.0,0.0
379,0.0,0.12309375,0.0,0.0,0.0,0.0,0.0,0.0,-0.2732633675726527,0.0,0.0,0.0,0.0,0.0,0.0,-47.832,0.0,0.0,0.0,0.0,0.0
380,0.0,0.12309375,0.0,0.0,0.0,0.0,0.0,0.0,-0.2732633675726527,0.0,0.0,0.0,0.0,0.0,0.0,-47.832,0.0,0.0,0.0,0.0,0.0
381,0.0,0.12309375,0.0,0.0,0.0,0.0,0.0,0.0,-0.2732633675726527,0.0,0.0,0.0,0.0,0.0,0.0,-47.832,0.0,0.0,0.0,0.0,0.0
382,0.0,0.119279296875,0.0,0.0,0.0,0.0,0.0,0.0,-0.2732633675726527,0.0,0.0,0.0,0.0,0.0,0.0,-46.484,0.0,0.0,0.0,0.0,0.0
383,0.0,0.119279296875,0.0,0.0,0.0,0.0,0.0,0.0,-0.2732633675726527,0.0,0.0,0.0,0.0,0.0,0.0,-46.484,0.0,0.0,0.0,0.0,0.0
384,0.0,0.119279296875,0.0,0.0,0.0,0.0,0.0,0.0,-0.2732633675726527,0.0,0.0,0.0,0.0,0.0,0.0,-46.484,0.0,0.0,0.0,0.0,0.0
385,0.0,0.115677734375,0.0,0.0,0.0,0.0,0.0,0.0,-0.2732633675726527,0.0,0.0,0.0,0.0,0.0,0.0,-46.644,0.0,0.0,0.0,0.0,0.0
386,0.0,0.115677734375,0.0,0.0,0.0,0.0,0.0,0.0,-0.2732633675726527,0.0,0.0,0.0,0.0,0.0,0.0,-46.644,0.0,0.0,0.0,0.0,0.0
387,0.0,0.115677734375,0.0,0.0,0.0,0.0,0.0,0.0,-0.2732633675726527,0.0,0.0,0.0,0.0,0.0,0.0,-46.644,0.0,0.0,0.0,0.0,0.0
388,0.0,0.1120751953125,0.0,0.0,0.0,0.0,0.0,0.0,-0.2732633675726527,0.0,0.0,0.0,0.0,0.0,0.0,-46.808,0.0,0.0,0.0,0.0,0.0
389,0.0,0.1120751953125,0.0,0.0,0.0,0.0,0.0,0.0,-0.2732633675726527,0.0,0.0,0.0,0.0,0.0,0.0,-46.808,0.0,0.0,0.0,0.0,0.0
390,0.0,0.1120751953125,0.0,0.0,0.0,0.0,0.0,0.0,-0.2732633675726527,0.0,0.0,0.0,0.0,0.0,0.0,-46.808,0.0,0.0,0.0,0.0,0.0
391,0.0,0.1087763671875,0.0,0.0,0.0,0.0,0.0,0.0,-0.2732633675726527,0.0,0.0,0.0,0.0,0.0,0.0,-47.348,0.0,0.0,0.0,0.0,0.0
392,0.0,0.1087763671875,0.0,0.0,0.0,0.0,0.0,0.0,-0.2732633675726527,0.0,0.0,0.0,0.0,0.0,0.0,-47.348,0.0,0.0,0.0,0.0,0.0
393,0.0,0.1087763671875,0.0,0.0,0.0,0.0,0.0,0.0,-0.2732633675726527,0.0,0.0,0.0,0.0,0.0,0.0,-47.348,0.0,0.0,0.0,0.0,0.0
394,0.0,0.1050712890625,0.0,0.0,0.0,0.0,0.0,0.0,-0.2732633675726527,0.0,0.0,0.0,0.0,0.0,0.0,-47.78,0.0,0.0,0.0,0.0,0.0
395,0.0,0.1050712890625,0.0,0.0,0.0,0.0,0.0,0.0,-0.2732633675726527,0.0,0.0,0.0,0.0,0.0,0.0,-47.78,0.0,0.0,0.0,0.0,0.0
396,0.0,0.1050712890625,0.0,0.0,0.0,0.0,0.0,0.0,-0.2732633675726527,0.0,0.0,0.0,0.0,0.0,0.0,-47.78,0.0,0.0,0.0,0.0,0.0
397,0.0,0.1050712890625,0.0,0.0,0.0,0.0,0.0,0.0,-0.2732633675726527,0.0,0.0,0.0,0.0,0.0,0.0,-47.78,0.0,0.0,0.0,0.0,0.0
398,0.0,0.1011611328125,0.0,0.0,0.0,0.0,0.0,0.0,-0.2732633675726527,0.0,0.0,0.0,0.0,0.0,0.0,-47.184,0.0,0.0,0.0,0.0,0.0
399,0.0,0.1011611328125,0.0,0.0,0.0,0.0,0.0,0.0,-0.2732633675726527,0.0,0.0,0.0,0.0,0.0,0.0,-47.184,0.0,0.0,0.0,0.0,0.0
400,0.0,0.1011611328125,0.0,0.0,0.0,0.0,0.0,0.0,-0.2732633675726527,0.0,0.0,0.0,0.0,0.0,0.0,-47.184,0.0,0.0,0.0,0.0,0.0
401,0.0,0.09725,0.0,0.0,0.0,0.0,0.0,0.0,-0.2732633675726527,0.0,0.0,0.0,0.0,0.0,0.0,-46.484,0.0,0.0,0.0,0.0,0.0
402,0.0,0.09725,0.0,0.0,0.0,0.0,0.0,0.0,-0.2732633675726527,0.0,0.0,0.0,0.0,0.0,0.0,-46.484,0.0,0.0,0.0,0.0,0.0
403,0.0,0.09725,0.0,0.0,0.0,0.0,0.0,0.0,-0.2732633675726527,0.0,0.0,0.0,0.0,0.0,0.0,-46.484,0.0,0.0,0.0,0.0,0.0
404,0.0,0.09303125,0.0,0.0,0.0,0.0,0.0,0.0,-0.2732633675726527,0.0,0.0,0.0,0.0,0.0,0.0,-45.888,0.0,0.0,0.0,0.0,0.0
405,0.0,0.09303125,0.0,0.0,0.0,0.0,0.0,0.0,-0.2732633675726527,0.0,0.0,0.0,0.0,0.0,0.0,-45.888,0.0,0.0,0.0,0.0,0.0
406,0.0,0.089216796875,0.0,0.0,0.0,0.0,0.0,0.0,-0.2732633675726527,0.0,0.0,0.0,0.0,0.0,0.0,-46.536,0.0,0.0,0.0,0.0,0.0
407,0.0,0.089216796875,0.0,0.0,0.0,0.0,0.0,0.0,-0.2732633675726527,0.0,0.0,0.0,0.0,0.0,0.0,-46.536,0.0,0.0,0.0,0.0,0.0
408,0.0,0.089216796875,0.0,0.0,0.0,0.0,0.0,0.0,-0.2732633675726527,0.0,0.0,0.0,0.0,0.0,0.0,-46.536,0.0,0.0,0.0,0.0,0.0
409,0.0,0.085306640625,0.0,0.0,0.0,0.0,0.0,0.0,-0.2732633675726527,0.0,0.0,0.0,0.0,0.0,0.0,-46.808,0.0,0.0,0.0,0.0,0.0
410,0.0,0.085306640625,0.0,0.0,0.0,0.0,0.0,0.0,-0.2732633675726527,0.0,0.0,0.0,0.0,0.0,0.0,-46.808,0.0,0.0,0.0,0.0,0.0
411,0.0,0.085306640625,0.0,0.0,0.0,0.0,0.0,0.0,-0.2732633675726527,0.0,0.0,0.0,0.0,0.0,0.0,-46.808,0.0,0.0,0.0,0.0,0.0
412,0.0,0.08118359375,0.0,0.0,0.0,0.0,0.0,0.0,-0.2732633675726527,0.0,0.0,0.0,0.0,0.0,0.0,-46.32,0.0,0.0,0.0,0.0,0.0
413,0.0,0.08118359375,0.0,0.0,0.0,0.0,0.0,0.0,-0.2732633675726527,0.0,0.0,0.0,0.0,0.0,0.0,-46.32,0.0,0.0,0.0,0.0,0.0
414,0.0,0.08118359375,0.0,0.0,0.0,0.0,0.0,0.0,-0.2732633675726527,0.0,0.0,0.0,0.0,0.0,0.0,-46.32,0.0,0.0,0.0,0.0,0.0
415,0.0,0.0770673828125,0.0,0.0,0.0,0.0,0.0,0.0,-0.2732633675726527,0.0,0.0,0.0,0.0,0.0,0.0,-46.16,0.0,0.0,0.0,0.0,0.0
416,0.0,0.0770673828125,0.0,0.0,0.0,0.0,0.0,0.0,-0.2732633675726527,0.0,0.0,0.0,0.0,0.0,0.0,-46.16,0.0,0.0,0.0,0.0,0.0
417,0.0,0.0770673828125,0.0,0.0,0.0,0.0,0.0,0.0,-0.2732633675726527,0.0,0.0,0.0,0.0,0.0,0.0,-46.16,0.0,0.0,0.0,0.0,0.0
418,0.0,0.0727392578125,0.0,0.0,0.0,0.0,0.0,0.0,-0.2732633675726527,0.0,0.0,0.0,0.0,0.0,0.0,-45.404,0.0,0.0,0.0,0.0,0.0
419,0.0,0.0727392578125,0.0,0.0,0.0,0.0,0.0,0.0,-0.2732633675726527,0.0,0.0,0.0,0.0,0.0,0.0,-45.404,0.0,0.0,0.0,0.0,0.0
420,0.0,0.0684169921875,0.0,0.0,0.0,0.0,0.0,0.0,-0.2732633675726527,0.0,0.0,0.0,0.0,0.0,0.0,-44.648,0.0,0.0,0.0,0.0,0.0
421,0.0,0.0684169921875,0.0,0.0,0.0,0.0,0.0,0.0,-0.2732633675726527,0.0,0.0,0.0,0.0,0.0,0.0,-44.648,0.0,0.0,0.0,0.0,0.0
422,0.0,0.0684169921875,0.0,0.0,0.0,0.0,0.0,0.0,-0.2732633675726527,0.0,0.0,0.0,0.0,0.0,0.0,-44.648,0.0,0.0,0.0,0.0,0.0
423,0.0,0.064087890625,0.0,0.0,0.0,0.0,0.0,0.0,-0.2732633675726527,0.0,0.0,0.0,0.0,0.0,0.0,-45.08,0.0,0.0,0.0,0.0,0.0
424,0.0,0.064087890625,0.0,0.0,0.0,0.0,0.0,0.0,-0.2732633675726527,0.0,0.0,0.0,0.0,0.0,0.0,-45.08,0.0,0.0,0.0,0.0,0.0
425,0.0,0.064087890625,0.0,0.0,0.0,0.0,0.0,0.0,-0.2732633675726527,0.0,0.0,0.0,0.0,0.0,0.0,-45.08,0.0,0.0,0.0,0.0,0.0
426,0.0,0.059869140625,0.0,0.0,0.0,0.0,0.0,0.0,-0.2732633675726527,0.0,0.0,0.0,0.0,0.0,0.0,-44.54,0.0,0.0,0.0,0.0,0.0
427,0.0,0.059869140625,0.0,0.0,0.0,0.0,0.0,0.0,-0.2732633675726527,0.0,0.0,0.0,0.0,0.0,0.0,-44.54,0.0,0.0,0.0,0.0,0.0
428,0.0,0.05574609375,0.0,0.0,0.0,0.0,0.0,0.0,-0.2732633675726527,0.0,0.0,0.0,0.0,0.0,0.0,-44.052,0.0,0.0,0.0,0.0,0.0
429,0.0,0.05574609375,0.0,0.0,0.0,0.0,0.0,0.0,-0.2732633675726527,0.0,0.0,0.0,0.0,0.0,0.0,-44.052,0.0,0.0,0.0,0.0,0.0
430,0.0,0.05574609375,0.0,0.0,0.0,0.0,0.0,0.0,-0.2732633675726527,0.0,0.0,0.0,0.0,0.0,0.0,-44.052,0.0,0.0,0.0,0.0,0.0
431,0.0,0.0516298828125,0.0,0.0,0.0,0.0,0.0,0.0,-0.2732633675726527,0.0,0.0,0.0,0.0,0.0,0.0,-44.0,0.0,0.0,0.0,0.0,0.0
432,0.0,0.0516298828125,0.0,0.0,0.0,0.0,0.0,0.0,-0.2732633675726527,0.0,0.0,0.0,0.0,0.0,0.0,-44.0,0.0,0.0,0.0,0.0,0.0
433,0.0,0.0516298828125,0.0,0.0,0.0,0.0,0.0,0.0,-0.2732633675726527,0.0,0.0,0.0,0.0,0.0,0.0,-44.0,0.0,0.0,0.0,0.0,0.0
434,0.0,0.04730078125,0.0,0.0,0.0,0.0,0.0,0.0,-0.2732633675726527,0.0,0.0,0.0,0.0,0.0,0.0,-43.46,0.0,0.0,0.0,0.0,0.0
435,0.0,0.04730078125,0.0,0.0,0.0,0.0,0.0,0.0,-0.2732633675726527,0.0,0.0,0.0,0.0,0.0,0.0,-43.46,0.0,0.0,0.0,0.0,0.0
436,0.0,0.04730078125,0.0,0.0,0.0,0.0,0.0,0.0,-0.2732633675726527,0.0,0.0,0.0,0.0,0.0,0.0,-43.46,0.0,0.0,0.0,0.0,0.0
437,0.0,0.04308203125,0.0,0.0,0.0,0.0,0.0,0.0,-0.2732633675726527,0.0,0.0,0.0,0.0,0.0,0.0,-43.46,0.0,0.0,0.0,0.0,0.0
438,0.0,0.04308203125,0.0,0.0,0.0,0.0,0.0,0.0,-0.2732633675726527,0.0,0.0,0.0,0.0,0.0,0.0,-43.46,0.0,0.0,0.0,0.0,0.0
439,0.0,0.04308203125,0.0,0.0,0.0,0.0,0.0,0.0,-0.2732633675726527,0.0,0.0,0.0,0.0,0.0,0.0,-43.46,0.0,0.0,0.0,0.0,0.0
440,0.0,0.0386572265625,0.0,0.0,0.0,0.0,0.0,0.0,-0.2732633675726527,0.0,0.0,0.0,0.0,0.0,0.0,-43.512,0.0,0.0,0.0,0.0,0.0
441,0.0,0.0386572265625,0.0,0.0,0.0,0.0,0.0,0.0,-0.2732633675726527,0.0,0.0,0.0,0.0,0.0,0.0,-43.512,0.0,0.0,0.0,0.0,0.0
442,0.0,0.0386572265625,0.0,0.0,0.0,0.0,0.0,0.0,-0.2732633675726527,0.0,0.0,0.0,0.0,0.0,0.0,-43.512,0.0,0.0,0.0,0.0,0.0
443,0.0,0.0345341796875,0.0,0.0,0.0,0.0,0.0,0.0,-0.2732633675726527,0.0,0.0,0.0,0.0,0.0,0.0,-43.192,0.0,0.0,0.0,0.0,0.0
444,0.0,0.0345341796875,0.0,0.0,0.0,0.0,0.0,0.0,-0.2732633675726527,0.0,0.0,0.0,0.0,0.0,0.0,-43.192,0.0,0.0,0.0,0.0,0.0
445,0.0,0.0345341796875,0.0,0.0,0.0,0.0,0.0,0.0,-0.2732633675726527,0.0,0.0,0.0,0.0,0.0,0.0,-43.192,0.0,0.0,0.0,0.0,0.0
446,0.0,0.0305205078125,0.0,0.0,0.0,0.0,0.0,0.0,-0.2732633675726527,0.0,0.0,0.0,0.0,0.0,0.0,-43.512,0.0,0.0,0.0,0.0,0.0
447,0.0,0.0305205078125,0.0,0.0,0.0,0.0,0.0,0.0,-0.2732633675726527,0.0,0.0,0.0,0.0,0.0,0.0,-43.512,0.0,0.0,0.0,0.0,0.0
448,0.0,0.0305205078125,0.0,0.0,0.0,0.0,0.0,0.0,-0.2732633675726527,0.0,0.0,0.0,0.0,0.0,0.0,-43.512,0.0,0.0,0.0,0.0,0.0
449,0.0,0.026603515625,0.0,0.0,0.0,0.0,0.0,0.0,-0.2732633675726527,0.0,0.0,0.0,0.0,0.0,0.0,-43.944,0.0,0.0,0.0,0.0,0.0
450,0.0,0.026603515625,0.0,0.0,0.0,0.0,0.0,0.0,-0.2732633675726527,0.0,0.0,0.0,0.0,0.0,0.0,-43.944,0.0,0.0,0.0,0.0,0.0
451,0.0,0.026603515625,0.0,0.0,0.0,0.0,0.0,0.0,-0.2732633675726527,0.0,0.0,0.0,0.0,0.0,0.0,-43.944,0.0,0.0,0.0,0.0,0.0
452,0.0,0.0224873046875,0.0,0.0,0.0,0.0,0.0,0.0,-0.2732633675726527,0.0,0.0,0.0,0.0,0.0,0.0,-43.676,0.0,0.0,0.0,0.0,0.0
453,0.0,0.0224873046875,0.0,0.0,0.0,0.0,0.0,0.0,-0.2732633675726527,0.0,0.0,0.0,0.0,0.0,0.0,-43.676,0.0,0.0,0.0,0.0,0.0
454,0.0,0.0224873046875,0.0,0.0,0.0,0.0,0.0,0.0,-0.2732633675726527,0.0,0.0,0.0,0.0,0.0,0.0,-43.676,0.0,0.0,0.0,0.0,0.0
455,0.0,0.01826171875,0.0,0.0,0.0,0.0,0.0,0.0,-0.2732633675726527,0.0,0.0,0.0,0.0,0.0,0.0,-43.944,0.0,0.0,0.0,0.0,0.0
456,0.0,0.01826171875,0.0,0.0,0.0,0.0,0.0,0.0,-0.2732633675726527,0.0,0.0,0.0,0.0,0.0,0.0,-43.944,0.0,0.0,0.0,0.0,0.0
457,0.0,0.0140419921875,0.0,0.0,0.0,0.0,0.0,0.0,-0.2732633675726527,0.0,0.0,0.0,0.0,0.0,0.0,-43.62,0.0,0.0,0.0,0.0,0.0
458,0.0,0.0140419921875,0.0,0.0,0.0,0.0,0.0,0.0,-0.2732633675726527,0.0,0.0,0.0,0.0,0.0,0.0,-43.62,0.0,0.0,0.0,0.0,0.0
459,0.0,0.0140419921875,0.0,0.0,0.0,0.0,0.0,0.0,-0.2732633675726527,0.0,0.0,0.0,0.0,0.0,0.0,-43.62,0.0,0.0,0.0,0.0,0.0
460,0.0,0.010125,0.0,0.0,0.0,0.0,0.0,0.0,-0.2732633675726527,0.0,0.0,0.0,0.0,0.0,0.0,-43.512,0.0,0.0,0.0,0.0,0.0
461,0.0,0.010125,0.0,0.0,0.0,0.0,0.0,0.0,-0.2732633675726527,0.0,0.0,0.0,0.0,0.0,0.0,-43.512,0.0,0.0,0.0,0.0,0.0
462,0.0,0.010125,0.0,0.0,0.0,0.0,0.0,0.0,-0.2732633675726527,0.0,0.0,0.0,0.0,0.0,0.0,-43.512,0.0,0.0,0.0,0.0,0.0
463,0.0,0.0063173828125,0.0,0.0,0.0,0.0,0.0,0.0,-0.2732633675726527,0.0,0.0,0.0,0.0,0.0,0.0,-43.836,0.0,0.0,0.0,0.0,0.0
464,0.0,0.0063173828125,0.0,0.0,0.0,0.0,0.0,0.0,-0.2732633675726527,0.0,0.0,0.0,0.0,0.0,0.0,-43.836,0.0,0.0,0.0,0.0,0.0
465,0.0,0.0063173828125,0.0,0.0,0.0,0.0,0.0,0.0,-0.2732633675726527,0.0,0.0,0.0,0.0,0.0,0.0,-43.836,0.0,0.0,0.0,0.0,0.0
466,0.0,0.0026064453125,0.0,0.0,0.0,0.0,0.0,0.0,-0.2732633675726527,0.0,0.0,0.0,0.0,0.0,0.0,-44.324,0.0,0.0,0.0,0.0,0.0
467,0.0,0.0026064453125,0.0,0.0,0.0,0.0,0.0,0.0,-0.2732633675726527,0.0,0.0,0.0,0.0,0.0,0.0,-44.324,0.0,0.0,0.0,0.0,0.0
468,0.0,0.0026064453125,0.0,0.0,0.0,0.0,0.0,0.0,-0.2732633675726527,0.0,0.0,0.0,0.0,0.0,0.0,-44.324,0.0,0.0,0.0,0.0,0.0
469,0.0,-0.0013037109375,0.0,0.0,0.0,0.0,0.0,0.0,-0.2732633675726527,0.0,0.0,0.0,0.0,0.0,0.0,-44.052,0.0,0.0,0.0,0.0,0.0
470,0.0,-0.0013037109375,0.0,0.0,0.0,0.0,0.0,0.0,-0.2732633675726527,0.0,0.0,0.0,0.0,0.0,0.0,-44.052,0.0,0.0,0.0,0.0,0.0
471,0.0,-0.0013037109375,0.0,0.0,0.0,0.0,0.0,0.0,-0.2732633675726527,0.0,0.0,0.0,0.0,0.0,0.0,-44.052,0.0,0.0,0.0,0.0,0.0
472,0.0,-0.0013037109375,0.0,0.0,0.0,0.0,0.0,0.0,-0.2732633675726527,0.0,0.0,0.0,0.0,0.0,0.0,-44.052,0.0,0.0,0.0,0.0,0.0
473,0.0,-0.005529296875,0.0,0.0,0.0,0.0,0.0,0.0,-0.2732633675726527,0.0,0.0,0.0,0.0,0.0,0.0,-44.108,0.0,0.0,0.0,0.0,0.0
474,0.0,-0.0096455078125,0.0,0.0,0.0,0.0,0.0,0.0,-0.2732633675726527,0.0,0.0,0.0,0.0,0.0,0.0,-44.0,0.0,0.0,0.0,0.0,0.0
475,0.0,-0.0096455078125,0.0,0.0,0.0,0.0,0.0,0.0,-0.2732633675726527,0.0,0.0,0.0,0.0,0.0,0.0,-44.0,0.0,0.0,0.0,0.0,0.0
476,0.0,-0.013556640625,0.0,0.0,0.0,0.0,0.0,0.0,-0.2732633675726527,0.0,0.0,0.0,0.0,0.0,0.0,-43.944,0.0,0.0,0.0,0.0,0.0
477,0.0,-0.013556640625,0.0,0.0,0.0,0.0,0.0,0.0,-0.2732633675726527,0.0,0.0,0.0,0.0,0.0,0.0,-43.944,0.0,0.0,0.0,0.0,0.0
478,0.0,-0.013556640625,0.0,0.0,0.0,0.0,0.0,0.0,-0.2732633675726527,0.0,0.0,0.0,0.0,0.0,0.0,-43.944,0.0,0.0,0.0,0.0,0.0
479,0.0,-0.017267578125,0.0,0.0,0.0,0.0,0.0,0.0,-0.2732633675726527,0.0,0.0,0.0,0.0,0.0,0.0,-44.54,0.0,0.0,0.0,0.0,0.0
480,0.0,-0.017267578125,0.0,0.0,0.0,0.0,0.0,0.0,-0.2732633675726527,0.0,0.0,0.0,0.0,0.0,0.0,-44.54,0.0,0.0,0.0,0.0,0.0
481,0.0,-0.017267578125,0.0,0.0,0.0,0.0,0.0,0.0,-0.2732633675726527,0.0,0.0,0.0,0.0,0.0,0.0,-44.54,0.0,0.0,0.0,0.0,0.0
482,0.0,-0.020869140625,0.0,0.0,0.0,0.0,0.0,0.0,-0.2732633675726527,0.0,0.0,0.0,0.0,0.0,0.0,-45.024,0.0,0.0,0.0,0.0,0.0
483,0.0,-0.020869140625,0.0,0.0,0.0,0.0,0.0,0.0,-0.2732633675726527,0.0,0.0,0.0,0.0,0.0,0.0,-45.024,0.0,0.0,0.0,0.0,0.0
484,0.0,-0.0247861328125,0.0,0.0,0.0,0.0,0.0,0.0,-0.2732633675726527,0.0,0.0,0.0,0.0,0.0,0.0,-44.756,0.0,0.0,0.0,0.0,0.0
485,0.0,-0.0247861328125,0.0,0.0,0.0,0.0,0.0,0.0,-0.2732633675726527,0.0,0.0,0.0,0.0,0.0,0.0,-44.756,0.0,0.0,0.0,0.0,0.0
486,0.0,-0.0247861328125,0.0,0.0,0.0,0.0,0.0,0.0,-0.2732633675726527,0.0,0.0,0.0,0.0,0.0,0.0,-44.756,0.0,0.0,0.0,0.0,0.0
487,0.0,-0.02890234375,0.0,0.0,0.0,0.0,0.0,0.0,-0.2732633675726527,0.0,0.0,0.0,0.0,0.0,0.0,-44.756,0.0,0.0,0.0,0.0,0.0
488,0.0,-0.02890234375,0.0,0.0,0.0,0.0,0.0,0.0,-0.2732633675726527,0.0,0.0,0.0,0.0,0.0,0.0,-44.756,0.0,0.0,0.0,0.0,0.0
489,0.0,-0.02890234375,0.0,0.0,0.0,0.0,0.0,0.0,-0.2732633675726527,0.0,0.0,0.0,0.0,0.0,0.0,-44.756,0.0,0.0,0.0,0.0,0.0
490,0.0,-0.03312890625,0.0,0.0,0.0,0.0,0.0,0.0,-0.2732633675726527,0.0,0.0,0.0,0.0,0.0,0.0,-44.432,0.0,0.0,0.0,0.0,0.0
491,0.0,-0.03312890625,0.0,0.0,0.0,0.0,0.0,0.0,-0.2732633675726527,0.0,0.0,0.0,0.0,0.0,0.0,-44.432,0.0,0.0,0.0,0.0,0.0
492,0.0,-0.03312890625,0.0,0.0,0.0,0.0,0.0,0.0,-0.2732633675726527,0.0,0.0,0.0,0.0,0.0,0.0,-44.432,0.0,0.0,0.0,0.0,0.0
493,0.0,-0.0370390625,0.0,0.0,0.0,0.0,0.0,0.0,-0.2732633675726527,0.0,0.0,0.0,0.0,0.0,0.0,-44.216,0.0,0.0,0.0,0.0,0.0
494,0.0,-0.0370390625,0.0,0.0,0.0,0.0,0.0,0.0,-0.2732633675726527,0.0,0.0,0.0,0.0,0.0,0.0,-44.216,0.0,0.0,0.0,0.0,0.0
495,0.0,-0.0370390625,0.0,0.0,0.0,0.0,0.0,0.0,-0.2732633675726527,0.0,0.0,0.0,0.0,0.0,0.0,-44.216,0.0,0.0,0.0,0.0,0.0
496,0.0,-0.0406474609375,0.0,0.0,0.0,0.0,0.0,0.0,-0.2732633675726527,0.0,0.0,0.0,0.0,0.0,0.0,-44.808,0.0,0.0,0.0,0.0,0.0
497,0.0,-0.0406474609375,0.0,0.0,0.0,0.0,0.0,0.0,-0.2732633675726527,0.0,0.0,0.0,0.0,0.0,0.0,-44.808,0.0,0.0,0.0,0.0,0.0
498,0.0,-0.0406474609375,0.0,0.0,0.0,0.0,0.0,0.0,-0.2732633675726527,0.0,0.0,0.0,0.0,0.0,0.0,-44.808,0.0,0.0,0.0,0.0,0.0
499,0.0,-0.0442490234375,0.0,0.0,0.0,0.0,0.0,0.0,-0.2732633675726527,0.0,0.0,0.0,0.0,0.0,0.0,-45.188,0.0,0.0,0.0,0.0,0.0
500,0.0,-0.0442490234375,0.0,0.0,0.0,0.0,0.0,0.0,-0.2732633675726527,0.0,0.0,0.0,0.0,0.0,0.0,-45.188,0.0,0.0,0.0,0.0,0.0
501,0.0,-0.0442490234375,0.0,0.0,0.0,0.0,0.0,0.0,-0.2732633675726527,0.0,0.0,0.0,0.0,0.0,0.0,-45.188,0.0,0.0,0.0,0.0,0.0
502,0.0,-0.0442490234375,0.0,0.0,0.0,0.0,0.0,0.0,-0.2732633675726527,0.0,0.0,0.0,0.0,0.0,0.0,-45.188,0.0,0.0,0.0,0.0,0.0
503,0.0,-0.0481591796875,0.0,0.0,0.0,0.0,0.0,0.0,-0.2732633675726527,0.0,0.0,0.0,0.0,0.0,0.0,-44.7,0.0,0.0,0.0,0.0,0.0
504,0.0,-0.0481591796875,0.0,0.0,0.0,0.0,0.0,0.0,-0.2732633675726527,0.0,0.0,0.0,0.0,0.0,0.0,-44.7,0.0,0.0,0.0,0.0,0.0
505,0.0,-0.0481591796875,0.0,0.0,0.0,0.0,0.0,0.0,-0.2732633675726527,0.0,0.0,0.0,0.0,0.0,0.0,-44.7,0.0,0.0,0.0,0.0,0.0
506,0.0,-0.052384765625,0.0,0.0,0.0,0.0,0.0,0.0,-0.2732633675726527,0.0,0.0,0.0,0.0,0.0,0.0,-44.54,0.0,0.0,0.0,0.0,0.0
507,0.0,-0.052384765625,0.0,0.0,0.0,0.0,0.0,0.0,-0.2732633675726527,0.0,0.0,0.0,0.0,0.0,0.0,-44.54,0.0,0.0,0.0,0.0,0.0
508,0.0,-0.052384765625,0.0,0.0,0.0,0.0,0.0,0.0,-0.2732633675726527,0.0,0.0,0.0,0.0,0.0,0.0,-44.54,0.0,0.0,0.0,0.0,0.0
509,0.0,-0.05670703125,0.0,0.0,0.0,0.0,0.0,0.0,-0.2732633675726527,0.0,0.0,0.0,0.0,0.0,0.0,-44.484,0.0,0.0,0.0,0.0,0.0
510,0.0,-0.05670703125,0.0,0.0,0.0,0.0,0.0,0.0,-0.2732633675726527,0.0,0.0,0.0,0.0,0.0,0.0,-44.484,0.0,0.0,0.0,0.0,0.0
511,0.0,-0.05670703125,0.0,0.0,0.0,0.0,0.0,0.0,-0.2732633675726527,0.0,0.0,0.0,0.0,0.0,0.0,-44.484,0.0,0.0,0.0,0.0,0.0
512,0.0,-0.0606240234375,0.0,0.0,0.0,0.0,0.0,0.0,-0.2732633675726527,0.0,0.0,0.0,0.0,0.0,0.0,-44.324,0.0,0.0,0.0,0.0,0.0
513,0.0,-0.0606240234375,0.0,0.0,0.0,0.0,0.0,0.0,-0.2732633675726527,0.0,0.0,0.0,0.0,0.0,0.0,-44.324,0.0,0.0,0.0,0.0,0.0
514,0.0,-0.0606240234375,0.0,0.0,0.0,0.0,0.0,0.0,-0.2732633675726527,0.0,0.0,0.0,0.0,0.0,0.0,-44.324,0.0,0.0,0.0,0.0,0.0
515,0.0,-0.0643291015625,0.0,0.0,0.0,0.0,0.0,0.0,-0.2732633675726527,0.0,0.0,0.0,0.0,0.0,0.0,-44.916,0.0,0.0,0.0,0.0,0.0
516,0.0,-0.0643291015625,0.0,0.0,0.0,0.0,0.0,0.0,-0.2732633675726527,0.0,0.0,0.0,0.0,0.0,0.0,-44.916,0.0,0.0,0.0,0.0,0.0
517,0.0,-0.0643291015625,0.0,0.0,0.0,0.0,0.0,0.0,-0.2732633675726527,0.0,0.0,0.0,0.0,0.0,0.0,-44.916,0.0,0.0,0.0,0.0,0.0
518,0.0,-0.0643291015625,0.0,0.0,0.0,0.0,0.0,0.0,-0.2732633675726527,0.0,0.0,0.0,0.0,0.0,0.0,-44.916,0.0,0.0,0.0,0.0,0.0
519,0.0,-0.0680400390625,0.0,0.0,0.0,0.0,0.0,0.0,-0.2732633675726527,0.0,0.0,0.0,0.0,0.0,0.0,-45.188,0.0,0.0,0.0,0.0,0.0
520,0.0,-0.0680400390625,0.0,0.0,0.0,0.0,0.0,0.0,-0.2732633675726527,0.0,0.0,0.0,0.0,0.0,0.0,-45.188,0.0,0.0,0.0,0.0,0.0
521,0.0,-0.071951171875,0.0,0.0,0.0,0.0,0.0,0.0,-0.2732633675726527,0.0,0.0,0.0,0.0,0.0,0.0,-44.972,0.0,0.0,0.0,0.0,0.0
522,0.0,-0.071951171875,0.0,0.0,0.0,0.0,0.0,0.0,-0.2732633675726527,0.0,0.0,0.0,0.0,0.0,0.0,-44.972,0.0,0.0,0.0,0.0,0.0
523,0.0,-0.071951171875,0.0,0.0,0.0,0.0,0.0,0.0,-0.2732633675726527,0.0,0.0,0.0,0.0,0.0,0.0,-44.972,0.0,0.0,0.0,0.0,0.0
524,0.0,-0.076279296875,0.0,0.0,0.0,0.0,0.0,0.0,-0.2732633675726527,0.0,0.0,0.0,0.0,0.0,0.0,-44.7,0.0,0.0,0.0,0.0,0.0
525,0.0,-0.076279296875,0.0,0.0,0.0,0.0,0.0,0.0,-0.2732633675726527,0.0,0.0,0.0,0.0,0.0,0.0,-44.7,0.0,0.0,0.0,0.0,0.0
526,0.0,-0.076279296875,0.0,0.0,0.0,0.0,0.0,0.0,-0.2732633675726527,0.0,0.0,0.0,0.0,0.0,0.0,-44.7,0.0,0.0,0.0,0.0,0.0
527,0.0,-0.076279296875,0.0,0.0,0.0,0.0,0.0,0.0,-0.2732633675726527,0.0,0.0,0.0,0.0,0.0,0.0,-44.7,0.0,0.0,0.0,0.0,0.0
528,0.0,-0.0806015625,0.0,0.0,0.0,0.0,0.0,0.0,-0.2732633675726527,0.0,0.0,0.0,0.0,0.0,0.0,-44.484,0.0,0.0,0.0,0.0,0.0
529,0.0,-0.0806015625,0.0,0.0,0.0,0.0,0.0,0.0,-0.2732633675726527,0.0,0.0,0.0,0.0,0.0,0.0,-44.484,0.0,0.0,0.0,0.0,0.0
530,0.0,-0.08462109375,0.0,0.0,0.0,0.0,0.0,0.0,-0.2732633675726527,0.0,0.0,0.0,0.0,0.0,0.0,-44.052,0.0,0.0,0.0,0.0,0.0
531,0.0,-0.08462109375,0.0,0.0,0.0,0.0,0.0,0.0,-0.2732633675726527,0.0,0.0,0.0,0.0,0.0,0.0,-44.052,0.0,0.0,0.0,0.0,0.0
532,0.0,-0.08462109375,0.0,0.0,0.0,0.0,0.0,0.0,-0.2732633675726527,0.0,0.0,0.0,0.0,0.0,0.0,-44.052,0.0,0.0,0.0,0.0,0.0
533,0.0,-0.08462109375,0.0,0.0,0.0,0.0,0.0,0.0,-0.2732633675726527,0.0,0.0,0.0,0.0,0.0,0.0,-44.052,0.0,0.0,0.0,0.0,0.0
534,0.0,-0.088326171875,0.0,0.0,0.0,0.0,0.0,0.0,-0.2732633675726527,0.0,0.0,0.0,0.0,0.0,0.0,-44.376,0.0,0.0,0.0,0.0,0.0
535,0.0,-0.088326171875,0.0,0.0,0.0,0.0,0.0,0.0,-0.2732633675726527,0.0,0.0,0.0,0.0,0.0,0.0,-44.376,0.0,0.0,0.0,0.0,0.0
536,0.0,-0.092037109375,0.0,0.0,0.0,0.0,0.0,0.0,-0.2732633675726527,0.0,0.0,0.0,0.0,0.0,0.0,-44.592,0.0,0.0,0.0,0.0,0.0
537,0.0,-0.092037109375,0.0,0.0,0.0,0.0,0.0,0.0,-0.2732633675726527,0.0,0.0,0.0,0.0,0.0,0.0,-44.592,0.0,0.0,0.0,0.0,0.0
538,0.0,-0.092037109375,0.0,0.0,0.0,0.0,0.0,0.0,-0.2732633675726527,0.0,0.0,0.0,0.0,0.0,0.0,-44.592,0.0,0.0,0.0,0.0,0.0
539,0.0,-0.095947265625,0.0,0.0,0.0,0.0,0.0,0.0,-0.2732633675726527,0.0,0.0,0.0,0.0,0.0,0.0,-44.268,0.0,0.0,0.0,0.0,0.0
540,0.0,-0.095947265625,0.0,0.0,0.0,0.0,0.0,0.0,-0.2732633675726527,0.0,0.0,0.0,0.0,0.0,0.0,-44.268,0.0,0.0,0.0,0.0,0.0
541,0.0,-0.095947265625,0.0,0.0,0.0,0.0,0.0,0.0,-0.2732633675726527,0.0,0.0,0.0,0.0,0.0,0.0,-44.268,0.0,0.0,0.0,0.0,0.0
542,0.0,-0.1002763671875,0.0,0.0,0.0,0.0,0.0,0.0,-0.2732633675726527,0.0,0.0,0.0,0.0,0.0,0.0,-44.216,0.0,0.0,0.0,0.0,0.0
543,0.0,-0.1002763671875,0.0,0.0,0.0,0.0,0.0,0.0,-0.2732633675726527,0.0,0.0,0.0,0.0,0.0,0.0,-44.216,0.0,0.0,0.0,0.0,0.0
544,0.0,-0.1002763671875,0.0,0.0,0.0,0.0,0.0,0.0,-0.2732633675726527,0.0,0.0,0.0,0.0,0.0,0.0,-44.216,0.0,0.0,0.0,0.0,0.0
545,0.0,-0.104591796875,0.0,0.0,0.0,0.0,0.0,0.0,-0.2732633675726527,0.0,0.0,0.0,0.0,0.0,0.0,-44.052,0.0,0.0,0.0,0.0,0.0
546,0.0,-0.104591796875,0.0,0.0,0.0,0.0,0.0,0.0,-0.2732633675726527,0.0,0.0,0.0,0.0,0.0,0.0,-44.052,0.0,0.0,0.0,0.0,0.0
547,0.0,-0.104591796875,0.0,0.0,0.0,0.0,0.0,0.0,-0.2732633675726527,0.0,0.0,0.0,0.0,0.0,0.0,-44.052,0.0,0.0,0.0,0.0,0.0
548,0.0,-0.10871484375,0.0,0.0,0.0,0.0,0.0,0.0,-0.2732633675726527,0.0,0.0,0.0,0.0,0.0,0.0,-43.676,0.0,0.0,0.0,0.0,0.0
549,0.0,-0.10871484375,0.0,0.0,0.0,0.0,0.0,0.0,-0.2732633675726527,0.0,0.0,0.0,0.0,0.0,0.0,-43.676,0.0,0.0,0.0,0.0,0.0
550,0.0,-0.10871484375,0.0,0.0,0.0,0.0,0.0,0.0,-0.2732633675726527,0.0,0.0,0.0,0.0,0.0,0.0,-43.676,0.0,0.0,0.0,0.0,0.0
551,0.0,-0.112419921875,0.0,0.0,0.0,0.0,0.0,0.0,-0.2732633675726527,0.0,0.0,0.0,0.0,0.0,0.0,-44.108,0.0,0.0,0.0,0.0,0.0
552,0.0,-0.112419921875,0.0,0.0,0.0,0.0,0.0,0.0,-0.2732633675726527,0.0,0.0,0.0,0.0,0.0,0.0,-44.108,0.0,0.0,0.0,0.0,0.0
553,0.0,-0.112419921875,0.0,0.0,0.0,0.0,0.0,0.0,-0.2732633675726527,0.0,0.0,0.0,0.0,0.0,0.0,-44.108,0.0,0.0,0.0,0.0,0.0
554,0.0,-0.1161240234375,0.0,0.0,0.0,0.0,0.0,0.0,-0.2732633675726527,0.0,0.0,0.0,0.0,0.0,0.0,-44.376,0.0,0.0,0.0,0.0,0.0
555,0.0,-0.1161240234375,0.0,0.0,0.0,0.0,0.0,0.0,-0.2732633675726527,0.0,0.0,0.0,0.0,0.0,0.0,-44.376,0.0,0.0,0.0,0.0,0.0
556,0.0,-0.1161240234375,0.0,0.0,0.0,0.0,0.0,0.0,-0.2732633675726527,0.0,0.0,0.0,0.0,0.0,0.0,-44.376,0.0,0.0,0.0,0.0,0.0
557,0.0,-0.1161240234375,0.0,0.0,0.0,0.0,0.0,0.0,-0.2732633675726527,0.0,0.0,0.0,0.0,0.0,0.0,-44.376,0.0,0.0,0.0,0.0,0.0
558,0.0,-0.120041015625,0.0,0.0,0.0,0.0,0.0,0.0,-0.2732633675726527,0.0,0.0,0.0,0.0,0.0,0.0,-44.324,0.0,0.0,0.0,0.0,0.0
559,0.0,-0.120041015625,0.0,0.0,0.0,0.0,0.0,0.0,-0.2732633675726527,0.0,0.0,0.0,0.0,0.0,0.0,-44.324,0.0,0.0,0.0,0.0,0.0
560,0.0,-0.1242607421875,0.0,0.0,0.0,0.0,0.0,0.0,-0.2732633675726527,0.0,0.0,0.0,0.0,0.0,0.0,-44.324,0.0,0.0,0.0,0.0,0.0
561,0.0,-0.1242607421875,0.0,0.0,0.0,0.0,0.0,0.0,-0.2732633675726527,0.0,0.0,0.0,0.0,0.0,0.0,-44.324,0.0,0.0,0.0,0.0,0.0
562,0.0,-0.1242607421875,0.0,0.0,0.0,0.0,0.0,0.0,-0.2732633675726527,0.0,0.0,0.0,0.0,0.0,0.0,-44.324,0.0,0.0,0.0,0.0,0.0
563,0.0,-0.1242607421875,0.0,0.0,0.0,0.0,0.0,0.0,-0.2732633675726527,0.0,0.0,0.0,0.0,0.0,0.0,-44.324,0.0,0.0,0.0,0.0,0.0
564,0.0,-0.1285888671875,0.0,0.0,0.0,0.0,0.0,0.0,-0.2732633675726527,0.0,0.0,0.0,0.0,0.0,0.0,-44.052,0.0,0.0,0.0,0.0,0.0
565,0.0,-0.1285888671875,0.0,0.0,0.0,0.0,0.0,0.0,-0.2732633675726527,0.0,0.0,0.0,0.0,0.0,0.0,-44.052,0.0,0.0,0.0,0.0,0.0
566,0.0,-0.1285888671875,0.0,0.0,0.0,0.0,0.0,0.0,-0.2732633675726527,0.0,0.0,0.0,0.0,0.0,0.0,-44.052,0.0,0.0,0.0,0.0,0.0
567,0.0,-0.132705078125,0.0,0.0,0.0,0.0,0.0,0.0,-0.2732633675726527,0.0,0.0,0.0,0.0,0.0,0.0,-43.784,0.0,0.0,0.0,0.0,0.0
568,0.0,-0.132705078125,0.0,0.0,0.0,0.0,0.0,0.0,-0.2732633675726527,0.0,0.0,0.0,0.0,0.0,0.0,-43.784,0.0,0.0,0.0,0.0,0.0
569,0.0,-0.136416015625,0.0,0.0,0.0,0.0,0.0,0.0,-0.2732633675726527,0.0,0.0,0.0,0.0,0.0,0.0,-44.0,0.0,0.0,0.0,0.0,0.0
570,0.0,-0.136416015625,0.0,0.0,0.0,0.0,0.0,0.0,-0.2732633675726527,0.0,0.0,0.0,0.0,0.0,0.0,-44.0,0.0,0.0,0.0,0.0,0.0
571,0.0,-0.136416015625,0.0,0.0,0.0,0.0,0.0,0.0,-0.2732633675726527,0.0,0.0,0.0,0.0,0.0,0.0,-44.0,0.0,0.0,0.0,0.0,0.0
572,0.0,-0.1400185546875,0.0,0.0,0.0,0.0,0.0,0.0,-0.2732633675726527,0.0,0.0,0.0,0.0,0.0,0.0,-44.16,0.0,0.0,0.0,0.0,0.0
573,0.0,-0.1400185546875,0.0,0.0,0.0,0.0,0.0,0.0,-0.2732633675726527,0.0,0.0,0.0,0.0,0.0,0.0,-44.16,0.0,0.0,0.0,0.0,0.0
574,0.0,-0.1400185546875,0.0,0.0,0.0,0.0,0.0,0.0,-0.2732633675726527,0.0,0.0,0.0,0.0,0.0,0.0,-44.16,0.0,0.0,0.0,0.0,0.0
575,0.0,-0.1400185546875,0.0,0.0,0.0,0.0,0.0,0.0,-0.2732633675726527,0.0,0.0,0.0,0.0,0.0,0.0,-44.16,0.0,0.0,0.0,0.0,0.0
576,0.0,-0.143935546875,0.0,0.0,0.0,0.0,0.0,0.0,-0.2732633675726527,0.0,0.0,0.0,0.0,0.0,0.0,-44.0,0.0,0.0,0.0,0.0,0.0
577,0.0,-0.143935546875,0.0,0.0,0.0,0.0,0.0,0.0,-0.2732633675726527,0.0,0.0,0.0,0.0,0.0,0.0,-44.0,0.0,0.0,0.0,0.0,0.0
578,0.0,-0.143935546875,0.0,0.0,0.0,0.0,0.0,0.0,-0.2732633675726527,0.0,0.0,0.0,0.0,0.0,0.0,-44.0,0.0,0.0,0.0,0.0,0.0
579,0.0,-0.148154296875,0.0,0.0,0.0,0.0,0.0,0.0,-0.2732633675726527,0.0,0.0,0.0,0.0,0.0,0.0,-44.052,0.0,0.0,0.0,0.0,0.0
580,0.0,-0.148154296875,0.0,0.0,0.0,0.0,0.0,0.0,-0.2732633675726527,0.0,0.0,0.0,0.0,0.0,0.0,-44.052,0.0,0.0,0.0,0.0,0.0
581,0.0,-0.148154296875,0.0,0.0,0.0,0.0,0.0,0.0,-0.2732633675726527,0.0,0.0,0.0,0.0,0.0,0.0,-44.052,0.0,0.0,0.0,0.0,0.0
582,0.0,-0.1524833984375,0.0,0.0,0.0,0.0,0.0,0.0,-0.2732633675726527,0.0,0.0,0.0,0.0,0.0,0.0,-43.944,0.0,0.0,0.0,0.0,0.0
583,0.0,-0.1524833984375,0.0,0.0,0.0,0.0,0.0,0.0,-0.2732633675726527,0.0,0.0,0.0,0.0,0.0,0.0,-43.944,0.0,0.0,0.0,0.0,0.0
584,0.0,-0.1524833984375,0.0,0.0,0.0,0.0,0.0,0.0,-0.2732633675726527,0.0,0.0,0.0,0.0,0.0,0.0,-43.944,0.0,0.0,0.0,0.0,0.0
585,0.0,-0.156599609375,0.0,0.0,0.0,0.0,0.0,0.0,-0.2732633675726527,0.0,0.0,0.0,0.0,0.0,0.0,-43.568,0.0,0.0,0.0,0.0,0.0
586,0.0,-0.156599609375,0.0,0.0,0.0,0.0,0.0,0.0,-0.2732633675726527,0.0,0.0,0.0,0.0,0.0,0.0,-43.568,0.0,0.0,0.0,0.0,0.0
587,0.0,-0.156599609375,0.0,0.0,0.0,0.0,0.0,0.0,-0.2732633675726527,0.0,0.0,0.0,0.0,0.0,0.0,-43.568,0.0,0.0,0.0,0.0,0.0
588,0.0,-0.160310546875,0.0,0.0,0.0,0.0,0.0,0.0,-0.2732633675726527,0.0,0.0,0.0,0.0,0.0,0.0,-43.836,0.0,0.0,0.0,0.0,0.0
589,0.0,-0.160310546875,0.0,0.0,0.0,0.0,0.0,0.0,-0.2732633675726527,0.0,0.0,0.0,0.0,0.0,0.0,-43.836,0.0,0.0,0.0,0.0,0.0
590,0.0,-0.160310546875,0.0,0.0,0.0,0.0,0.0,0.0,-0.2732633675726527,0.0,0.0,0.0,0.0,0.0,0.0,-43.836,0.0,0.0,0.0,0.0,0.0
591,0.0,-0.163912109375,0.0,0.0,0.0,0.0,0.0,0.0,-0.2732633675726527,0.0,0.0,0.0,0.0,0.0,0.0,-44.108,0.0,0.0,0.0,0.0,0.0
592,0.0,-0.163912109375,0.0,0.0,0.0,0.0,0.0,0.0,-0.2732633675726527,0.0,0.0,0.0,0.0,0.0,0.0,-44.108,0.0,0.0,0.0,0.0,0.0
593,0.0,-0.1678291015625,0.0,0.0,0.0,0.0,0.0,0.0,-0.2732633675726527,0.0,0.0,0.0,0.0,0.0,0.0,-44.108,0.0,0.0,0.0,0.0,0.0
594,0.0,-0.1678291015625,0.0,0.0,0.0,0.0,0.0,0.0,-0.2732633675726527,0.0,0.0,0.0,0.0,0.0,0.0,-44.108,0.0,0.0,0.0,0.0,0.0
595,0.0,-0.172048828125,0.0,0.0,0.0,0.0,0.0,0.0,-0.2732633675726527,0.0,0.0,0.0,0.0,0.0,0.0,-44.16,0.0,0.0,0.0,0.0,0.0
596,0.0,-0.172048828125,0.0,0.0,0.0,0.0,0.0,0.0,-0.2732633675726527,0.0,0.0,0.0,0.0,0.0,0.0,-44.16,0.0,0.0,0.0,0.0,0.0
597,0.0,-0.172048828125,0.0,0.0,0.0,0.0,0.0,0.0,-0.2732633675726527,0.0,0.0,0.0,0.0,0.0,0.0,-44.16,0.0,0.0,0.0,0.0,0.0
598,0.0,-0.176376953125,0.0,0.0,0.0,0.0,0.0,0.0,-0.2732633675726527,0.0,0.0,0.0,0.0,0.0,0.0,-43.728,0.0,0.0,0.0,0.0,0.0
599,0.0,-0.176376953125,0.0,0.0,0.0,0.0,0.0,0.0,-0.2732633675726527,0.0,0.0,0.0,0.0,0.0,0.0,-43.728,0.0,0.0,0.0,0.0,0.0
600,0.0,-0.176376953125,0.0,0.0,0.0,0.0,0.0,0.0,-0.2732633675726527,0.0,0.0,0.0,0.0,0.0,0.0,-43.728,0.0,0.0,0.0,0.0,0.0
601,0.0,-0.1804931640625,0.0,0.0,0.0,0.0,0.0,0.0,-0.2732633675726527,0.0,0.0,0.0,0.0,0.0,0.0,-43.46,0.0,0.0,0.0,0.0,0.0
602,0.0,-0.1804931640625,0.0,0.0,0.0,0.0,0.0,0.0,-0.2732633675726527,0.0,0.0,0.0,0.0,0.0,0.0,-43.46,0.0,0.0,0.0,0.0,0.0
603,0.0,-0.184205078125,0.0,0.0,0.0,0.0,0.0,0.0,-0.2732633675726527,0.0,0.0,0.0,0.0,0.0,0.0,-43.728,0.0,0.0,0.0,0.0,0.0
604,0.0,-0.184205078125,0.0,0.0,0.0,0.0,0.0,0.0,-0.2732633675726527,0.0,0.0,0.0,0.0,0.0,0.0,-43.728,0.0,0.0,0.0,0.0,0.0
605,0.0,-0.184205078125,0.0,0.0,0.0,0.0,0.0,0.0,-0.2732633675726527,0.0,0.0,0.0,0.0,0.0,0.0,-43.728,0.0,0.0,0.0,0.0,0.0
606,0.0,-0.187806640625,0.0,0.0,0.0,0.0,0.0,0.0,-0.2732633675726527,0.0,0.0,0.0,0.0,0.0,0.0,-43.728,0.0,0.0,0.0,0.0,0.0
607,0.0,-0.187806640625,0.0,0.0,0.0,0.0,0.0,0.0,-0.2732633675726527,0.0,0.0,0.0,0.0,0.0,0.0,-43.728,0.0,0.0,0.0,0.0,0.0
608,0.0,-0.191716796875,0.0,0.0,0.0,0.0,0.0,0.0,-0.2732633675726527,0.0,0.0,0.0,0.0,0.0,0.0,-43.62,0.0,0.0,0.0,0.0,0.0
609,0.0,-0.191716796875,0.0,0.0,0.0,0.0,0.0,0.0,-0.2732633675726527,0.0,0.0,0.0,0.0,0.0,0.0,-43.62,0.0,0.0,0.0,0.0,0.0
610,0.0,-0.191716796875,0.0,0.0,0.0,0.0,0.0,0.0,-0.2732633675726527,0.0,0.0,0.0,0.0,0.0,0.0,-43.62,0.0,0.0,0.0,0.0,0.0
611,0.0,-0.1959365234375,0.0,0.0,0.0,0.0,0.0,0.0,-0.2732633675726527,0.0,0.0,0.0,0.0,0.0,0.0,-43.728,0.0,0.0,0.0,0.0,0.0
612,0.0,-0.1959365234375,0.0,0.0,0.0,0.0,0.0,0.0,-0.2732633675726527,0.0,0.0,0.0,0.0,0.0,0.0,-43.728,0.0,0.0,0.0,0.0,0.0
613,0.0,-0.1959365234375,0.0,0.0,0.0,0.0,0.0,0.0,-0.2732633675726527,0.0,0.0,0.0,0.0,0.0,0.0,-43.728,0.0,0.0,0.0,0.0,0.0
614,0.0,-0.2002587890625,0.0,0.0,0.0,0.0,0.0,0.0,-0.2732633675726527,0.0,0.0,0.0,0.0,0.0,0.0,-43.676,0.0,0.0,0.0,0.0,0.0
615,0.0,-0.2002587890625,0.0,0.0,0.0,0.0,0.0,0.0,-0.2732633675726527,0.0,0.0,0.0,0.0,0.0,0.0,-43.676,0.0,0.0,0.0,0.0,0.0
616,0.0,-0.2002587890625,0.0,0.0,0.0,0.0,0.0,0.0,-0.2732633675726527,0.0,0.0,0.0,0.0,0.0,0.0,-43.676,0.0,0.0,0.0,0.0,0.0
617,0.0,-0.204380859375,0.0,0.0,0.0,0.0,0.0,0.0,-0.2732633675726527,0.0,0.0,0.0,0.0,0.0,0.0,-43.352,0.0,0.0,0.0,0.0,0.0
618,0.0,-0.204380859375,0.0,0.0,0.0,0.0,0.0,0.0,-0.2732633675726527,0.0,0.0,0.0,0.0,0.0,0.0,-43.352,0.0,0.0,0.0,0.0,0.0
619,0.0,-0.204380859375,0.0,0.0,0.0,0.0,0.0,0.0,-0.2732633675726527,0.0,0.0,0.0,0.0,0.0,0.0,-43.352,0.0,0.0,0.0,0.0,0.0
620,0.0,-0.204380859375,0.0,0.0,0.0,0.0,0.0,0.0,-0.2732633675726527,0.0,0.0,0.0,0.0,0.0,0.0,-43.352,0.0,0.0,0.0,0.0,0.0
621,0.0,-0.2081884765625,0.0,0.0,0.0,0.0,0.0,0.0,-0.2732633675726527,0.0,0.0,0.0,0.0,0.0,0.0,-43.676,0.0,0.0,0.0,0.0,0.0
622,0.0,-0.2081884765625,0.0,0.0,0.0,0.0,0.0,0.0,-0.2732633675726527,0.0,0.0,0.0,0.0,0.0,0.0,-43.676,0.0,0.0,0.0,0.0,0.0
623,0.0,-0.211796875,0.0,0.0,0.0,0.0,0.0,0.0,-0.2732633675726527,0.0,0.0,0.0,0.0,0.0,0.0,-43.728,0.0,0.0,0.0,0.0,0.0
624,0.0,-0.211796875,0.0,0.0,0.0,0.0,0.0,0.0,-0.2732633675726527,0.0,0.0,0.0,0.0,0.0,0.0,-43.728,0.0,0.0,0.0,0.0,0.0
625,0.0,-0.2156044921875,0.0,0.0,0.0,0.0,0.0,0.0,-0.2732633675726527,0.0,0.0,0.0,0.0,0.0,0.0,-43.676,0.0,0.0,0.0,0.0,0.0
626,0.0,-0.2156044921875,0.0,0.0,0.0,0.0,0.0,0.0,-0.2732633675726527,0.0,0.0,0.0,0.0,0.0,0.0,-43.676,0.0,0.0,0.0,0.0,0.0
627,0.0,-0.2156044921875,0.0,0.0,0.0,0.0,0.0,0.0,-0.2732633675726527,0.0,0.0,0.0,0.0,0.0,0.0,-43.676,0.0,0.0,0.0,0.0,0.0
628,0.0,-0.219830078125,0.0,0.0,0.0,0.0,0.0,0.0,-0.2732633675726527,0.0,0.0,0.0,0.0,0.0,0.0,-43.676,0.0,0.0,0.0,0.0,0.0
629,0.0,-0.219830078125,0.0,0.0,0.0,0.0,0.0,0.0,-0.2732633675726527,0.0,0.0,0.0,0.0,0.0,0.0,-43.676,0.0,0.0,0.0,0.0,0.0
630,0.0,-0.219830078125,0.0,0.0,0.0,0.0,0.0,0.0,-0.2732633675726527,0.0,0.0,0.0,0.0,0.0,0.0,-43.676,0.0,0.0,0.0,0.0,0.0
631,0.0,-0.22415234375,0.0,0.0,0.0,0.0,0.0,0.0,-0.2732633675726527,0.0,0.0,0.0,0.0,0.0,0.0,-43.512,0.0,0.0,0.0,0.0,0.0
632,0.0,-0.22415234375,0.0,0.0,0.0,0.0,0.0,0.0,0.6348346056375401,0.0,0.0,0.0,0.0,0.0,0.0,-43.512,0.0,0.0,0.0,0.0,0.0
633,0.0,-0.22415234375,0.0,0.0,0.0,0.0,0.0,0.0,0.6348346056375401,0.0,0.0,0.0,0.0,0.0,0.0,-43.512,0.0,0.0,0.0,0.0,0.0
634,0.0,-0.228275390625,0.0,0.0,0.0,0.0,0.0,0.0,0.6348346056375401,0.0,0.0,0.0,0.0,0.0,0.0,-43.084,0.0,0.0,0.0,0.0,0.0
635,0.0,-0.228275390625,0.0,0.0,0.0,0.0,0.0,0.0,0.6348346056375401,0.0,0.0,0.0,0.0,0.0,0.0,-43.084,0.0,0.0,0.0,0.0,0.0
636,0.0,-0.2320830078125,0.0,0.0,0.0,0.0,0.0,0.0,0.6348346056375401,0.0,0.0,0.0,0.0,0.0,0.0,-42.868,0.0,0.0,0.0,0.0,0.0
637,0.0,-0.2320830078125,0.0,0.0,0.0,0.0,0.0,0.0,0.6348346056375401,0.0,0.0,0.0,0.0,0.0,0.0,-42.868,0.0,0.0,0.0,0.0,0.0
638,0.0,-0.2320830078125,0.0,0.0,0.0,0.0,0.0,0.0,0.6348346056375401,0.0,0.0,0.0,0.0,0.0,0.0,-42.868,0.0,0.0,0.0,0.0,0.0
639,0.0,-0.2348681640625,0.0,0.0,0.0,0.0,0.0,0.0,0.6348346056375401,0.0,0.0,0.0,0.0,0.0,0.0,-35.632,0.0,0.0,0.0,0.0,0.0
640,0.0,-0.2348681640625,0.0,0.0,0.0,0.0,0.0,0.0,0.6348346056375401,0.0,0.0,0.0,0.0,0.0,0.0,-35.632,0.0,0.0,0.0,0.0,0.0
641,0.0,-0.2348681640625,0.0,0.0,0.0,0.0,0.0,0.0,0.6348346056375401,0.0,0.0,0.0,0.0,0.0,0.0,-35.632,0.0,0.0,0.0,0.0,0.0
642,0.0,-0.2361025390625,0.0,0.0,0.0,0.0,0.0,0.0,0.6348346056375401,0.0,0.0,0.0,0.0,0.0,0.0,-23.7,0.0,0.0,0.0,0.0,0.0
643,0.0,-0.2361025390625,0.0,0.0,0.0,0.0,0.0,0.0,0.6348346056375401,0.0,0.0,0.0,0.0,0.0,0.0,-23.7,0.0,0.0,0.0,0.0,0.0
644,0.0,-0.2361025390625,0.0,0.0,0.0,0.0,0.0,0.0,0.6348346056375401,0.0,0.0,0.0,0.0,0.0,0.0,-23.7,0.0,0.0,0.0,0.0,0.0
645,0.0,-0.2368232421875,0.0,0.0,0.0,0.0,0.0,0.0,0.6348346056375401,0.0,0.0,0.0,0.0,0.0,0.0,-14.684,0.0,0.0,0.0,0.0,0.0
646,0.0,-0.2368232421875,0.0,0.0,0.0,0.0,0.0,0.0,0.6348346056375401,0.0,0.0,0.0,0.0,0.0,0.0,-14.684,0.0,0.0,0.0,0.0,0.0
647,0.0,-0.2368232421875,0.0,0.0,0.0,0.0,0.0,0.0,0.6348346056375401,0.0,0.0,0.0,0.0,0.0,0.0,-14.684,0.0,0.0,0.0,0.0,0.0
648,0.0,-0.2365146484375,0.0,0.0,0.0,0.0,0.0,0.0,0.6348346056375401,0.0,0.0,0.0,0.0,0.0,0.0,-10.796,0.0,0.0,0.0,0.0,0.0
649,0.0,-0.2365146484375,0.0,0.0,0.0,0.0,0.0,0.0,0.6348346056375401,0.0,0.0,0.0,0.0,0.0,0.0,-10.796,0.0,0.0,0.0,0.0,0.0
650,0.0,-0.2365146484375,0.0,0.0,0.0,0.0,0.0,0.0,0.6348346056375401,0.0,0.0,0.0,0.0,0.0,0.0,-10.796,0.0,0.0,0.0,0.0,0.0
651,0.0,-0.2354853515625,0.0,0.0,0.0,0.0,0.0,0.0,0.6348346056375401,0.0,0.0,0.0,0.0,0.0,0.0,-9.824,0.0,0.0,0.0,0.0,0.0
652,0.0,-0.2354853515625,0.0,0.0,0.0,0.0,0.0,0.0,0.6348346056375401,0.0,0.0,0.0,0.0,0.0,0.0,-9.824,0.0,0.0,0.0,0.0,0.0
653,0.0,-0.2354853515625,0.0,0.0,0.0,0.0,0.0,0.0,0.6348346056375401,0.0,0.0,0.0,0.0,0.0,0.0,-9.824,0.0,0.0,0.0,0.0,0.0
654,0.0,-0.234044921875,0.0,0.0,0.0,0.0,0.0,0.0,0.6348346056375401,0.0,0.0,0.0,0.0,0.0,0.0,-8.368,0.0,0.0,0.0,0.0,0.0
655,0.0,-0.234044921875,0.0,0.0,0.0,0.0,0.0,0.0,0.6348346056375401,0.0,0.0,0.0,0.0,0.0,0.0,-8.368,0.0,0.0,0.0,0.0,0.0
656,0.0,-0.234044921875,0.0,0.0,0.0,0.0,0.0,0.0,0.6348346056375401,0.0,0.0,0.0,0.0,0.0,0.0,-8.368,0.0,0.0,0.0,0.0,0.0
657,0.0,-0.23115625,0.0,0.0,0.0,0.0,0.0,0.0,0.6348346056375401,0.0,0.0,0.0,0.0,0.0,0.0,-9.016,0.0,0.0,0.0,0.0,0.0
658,0.0,-0.23115625,0.0,0.0,0.0,0.0,0.0,0.0,0.6348346056375401,0.0,0.0,0.0,0.0,0.0,0.0,-9.016,0.0,0.0,0.0,0.0,0.0
659,0.0,-0.23115625,0.0,0.0,0.0,0.0,0.0,0.0,0.6348346056375401,0.0,0.0,0.0,0.0,0.0,0.0,-9.016,0.0,0.0,0.0,0.0,0.0
660,0.0,-0.2274521484375,0.0,0.0,0.0,0.0,0.0,0.0,0.6348346056375401,0.0,0.0,0.0,0.0,0.0,0.0,-11.28,0.0,0.0,0.0,0.0,0.0
661,0.0,-0.2274521484375,0.0,0.0,0.0,0.0,0.0,0.0,0.6348346056375401,0.0,0.0,0.0,0.0,0.0,0.0,-11.28,0.0,0.0,0.0,0.0,0.0
662,0.0,-0.2226083984375,0.0,0.0,0.0,0.0,0.0,0.0,0.6348346056375401,0.0,0.0,0.0,0.0,0.0,0.0,-13.928,0.0,0.0,0.0,0.0,0.0
663,0.0,-0.2226083984375,0.0,0.0,0.0,0.0,0.0,0.0,0.6348346056375401,0.0,0.0,0.0,0.0,0.0,0.0,-13.928,0.0,0.0,0.0,0.0,0.0
664,0.0,-0.2226083984375,0.0,0.0,0.0,0.0,0.0,0.0,0.6348346056375401,0.0,0.0,0.0,0.0,0.0,0.0,-13.928,0.0,0.0,0.0,0.0,0.0
665,0.0,-0.21683984375,0.0,0.0,0.0,0.0,0.0,0.0,0.6348346056375401,0.0,0.0,0.0,0.0,0.0,0.0,-17.652,0.0,0.0,0.0,0.0,0.0
666,0.0,-0.21683984375,0.0,0.0,0.0,0.0,0.0,0.0,0.6348346056375401,0.0,0.0,0.0,0.0,0.0,0.0,-17.652,0.0,0.0,0.0,0.0,0.0
667,0.0,-0.21683984375,0.0,0.0,0.0,0.0,0.0,0.0,0.6348346056375401,0.0,0.0,0.0,0.0,0.0,0.0,-17.652,0.0,0.0,0.0,0.0,0.0
668,0.0,-0.2112822265625,0.0,0.0,0.0,0.0,0.0,0.0,0.6348346056375401,0.0,0.0,0.0,0.0,0.0,0.0,-19.868,0.0,0.0,0.0,0.0,0.0
669,0.0,-0.2112822265625,0.0,0.0,0.0,0.0,0.0,0.0,0.6348346056375401,0.0,0.0,0.0,0.0,0.0,0.0,-19.868,0.0,0.0,0.0,0.0,0.0
670,0.0,-0.2112822265625,0.0,0.0,0.0,0.0,0.0,0.0,0.6348346056375401,0.0,0.0,0.0,0.0,0.0,0.0,-19.868,0.0,0.0,0.0,0.0,0.0
671,0.0,-0.20541015625,0.0,0.0,0.0,0.0,0.0,0.0,0.6348346056375401,0.0,0.0,0.0,0.0,0.0,0.0,-24.456,0.0,0.0,0.0,0.0,0.0
672,0.0,-0.20541015625,0.0,0.0,0.0,0.0,0.0,0.0,0.6348346056375401,0.0,0.0,0.0,0.0,0.0,0.0,-24.456,0.0,0.0,0.0,0.0,0.0
673,0.0,-0.1998466796875,0.0,0.0,0.0,0.0,0.0,0.0,0.6348346056375401,0.0,0.0,0.0,0.0,0.0,0.0,-31.096,0.0,0.0,0.0,0.0,0.0
674,0.0,-0.1998466796875,0.0,0.0,0.0,0.0,0.0,0.0,0.6348346056375401,0.0,0.0,0.0,0.0,0.0,0.0,-31.096,0.0,0.0,0.0,0.0,0.0
675,0.0,-0.1998466796875,0.0,0.0,0.0,0.0,0.0,0.0,0.6348346056375401,0.0,0.0,0.0,0.0,0.0,0.0,-31.096,0.0,0.0,0.0,0.0,0.0
676,0.0,-0.1998466796875,0.0,0.0,0.0,0.0,0.0,0.0,0.6348346056375401,0.0,0.0,0.0,0.0,0.0,0.0,-31.096,0.0,0.0,0.0,0.0,0.0
677,0.0,-0.1936787109375,0.0,0.0,0.0,0.0,0.0,0.0,0.6348346056375401,0.0,0.0,0.0,0.0,0.0,0.0,-33.904,0.0,0.0,0.0,0.0,0.0
678,0.0,-0.1936787109375,0.0,0.0,0.0,0.0,0.0,0.0,0.6348346056375401,0.0,0.0,0.0,0.0,0.0,0.0,-33.904,0.0,0.0,0.0,0.0,0.0
679,0.0,-0.1936787109375,0.0,0.0,0.0,0.0,0.0,0.0,0.6348346056375401,0.0,0.0,0.0,0.0,0.0,0.0,-33.904,0.0,0.0,0.0,0.0,0.0
680,0.0,-0.1866748046875,0.0,0.0,0.0,0.0,0.0,0.0,0.6348346056375401,0.0,0.0,0.0,0.0,0.0,0.0,-35.632,0.0,0.0,0.0,0.0,0.0
681,0.0,-0.1866748046875,0.0,0.0,0.0,0.0,0.0,0.0,0.6348346056375401,0.0,0.0,0.0,0.0,0.0,0.0,-35.632,0.0,0.0,0.0,0.0,0.0
682,0.0,-0.1866748046875,0.0,0.0,0.0,0.0,0.0,0.0,0.6348346056375401,0.0,0.0,0.0,0.0,0.0,0.0,-35.632,0.0,0.0,0.0,0.0,0.0
683,0.0,-0.179669921875,0.0,0.0,0.0,0.0,0.0,0.0,0.6348346056375401,0.0,0.0,0.0,0.0,0.0,0.0,-35.74,0.0,0.0,0.0,0.0,0.0
684,0.0,-0.179669921875,0.0,0.0,0.0,0.0,0.0,0.0,0.6348346056375401,0.0,0.0,0.0,0.0,0.0,0.0,-35.74,0.0,0.0,0.0,0.0,0.0
685,0.0,-0.179669921875,0.0,0.0,0.0,0.0,0.0,0.0,0.6348346056375401,0.0,0.0,0.0,0.0,0.0,0.0,-35.74,0.0,0.0,0.0,0.0,0.0
686,0.0,-0.1727685546875,0.0,0.0,0.0,0.0,0.0,0.0,0.6348346056375401,0.0,0.0,0.0,0.0,0.0,0.0,-40.544,0.0,0.0,0.0,0.0,0.0
687,0.0,-0.1727685546875,0.0,0.0,0.0,0.0,0.0,0.0,0.6348346056375401,0.0,0.0,0.0,0.0,0.0,0.0,-40.544,0.0,0.0,0.0,0.0,0.0
688,0.0,-0.1727685546875,0.0,0.0,0.0,0.0,0.0,0.0,0.6348346056375401,0.0,0.0,0.0,0.0,0.0,0.0,-40.544,0.0,0.0,0.0,0.0,0.0
689,0.0,-0.1663818359375,0.0,0.0,0.0,0.0,0.0,0.0,0.6348346056375401,0.0,0.0,0.0,0.0,0.0,0.0,-45.404,0.0,0.0,0.0,0.0,0.0
690,0.0,-0.1663818359375,0.0,0.0,0.0,0.0,0.0,0.0,0.6348346056375401,0.0,0.0,0.0,0.0,0.0,0.0,-45.404,0.0,0.0,0.0,0.0,0.0
691,0.0,-0.1663818359375,0.0,0.0,0.0,0.0,0.0,0.0,0.6348346056375401,0.0,0.0,0.0,0.0,0.0,0.0,-45.404,0.0,0.0,0.0,0.0,0.0
692,0.0,-0.160001953125,0.0,0.0,0.0,0.0,0.0,0.0,0.6348346056375401,0.0,0.0,0.0,0.0,0.0,0.0,-44.268,0.0,0.0,0.0,0.0,0.0
693,0.0,-0.160001953125,0.0,0.0,0.0,0.0,0.0,0.0,0.6348346056375401,0.0,0.0,0.0,0.0,0.0,0.0,-44.268,0.0,0.0,0.0,0.0,0.0
694,0.0,-0.153306640625,0.0,0.0,0.0,0.0,0.0,0.0,0.6348346056375401,0.0,0.0,0.0,0.0,0.0,0.0,-43.62,0.0,0.0,0.0,0.0,0.0
695,0.0,-0.153306640625,0.0,0.0,0.0,0.0,0.0,0.0,0.6348346056375401,0.0,0.0,0.0,0.0,0.0,0.0,-43.62,0.0,0.0,0.0,0.0,0.0
696,0.0,-0.153306640625,0.0,0.0,0.0,0.0,0.0,0.0,0.6348346056375401,0.0,0.0,0.0,0.0,0.0,0.0,-43.62,0.0,0.0,0.0,0.0,0.0
697,0.0,-0.1470224609375,0.0,0.0,0.0,0.0,0.0,0.0,0.6348346056375401,0.0,0.0,0.0,0.0,0.0,0.0,-47.996,0.0,0.0,0.0,0.0,0.0
698,0.0,-0.1470224609375,0.0,0.0,0.0,0.0,0.0,0.0,0.6348346056375401,0.0,0.0,0.0,0.0,0.0,0.0,-47.996,0.0,0.0,0.0,0.0,0.0
699,0.0,-0.1470224609375,0.0,0.0,0.0,0.0,0.0,0.0,0.6348346056375401,0.0,0.0,0.0,0.0,0.0,0.0,-47.996,0.0,0.0,0.0,0.0,0.0
700,0.0,-0.1470224609375,0.0,0.0,0.0,0.0,0.0,0.0,0.6348346056375401,0.0,0.0,0.0,0.0,0.0,0.0,-47.996,0.0,0.0,0.0,0.0,0.0
701,0.0,-0.140533203125,0.0,0.0,0.0,0.0,0.0,0.0,0.6348346056375401,0.0,0.0,0.0,0.0,0.0,0.0,-52.1,0.0,0.0,0.0,0.0,0.0
702,0.0,-0.140533203125,0.0,0.0,0.0,0.0,0.0,0.0,0.6348346056375401,0.0,0.0,0.0,0.0,0.0,0.0,-52.1,0.0,0.0,0.0,0.0,0.0
703,0.0,-0.13415234375,0.0,0.0,0.0,0.0,0.0,0.0,0.6348346056375401,0.0,0.0,0.0,0.0,0.0,0.0,-52.044,0.0,0.0,0.0,0.0,0.0
704,0.0,-0.13415234375,0.0,0.0,0.0,0.0,0.0,0.0,0.6348346056375401,0.0,0.0,0.0,0.0,0.0,0.0,-52.044,0.0,0.0,0.0,0.0,0.0
705,0.0,-0.13415234375,0.0,0.0,0.0,0.0,0.0,0.0,0.6348346056375401,0.0,0.0,0.0,0.0,0.0,0.0,-52.044,0.0,0.0,0.0,0.0,0.0
706,0.0,-0.128486328125,0.0,0.0,0.0,0.0,0.0,0.0,0.6348346056375401,0.0,0.0,0.0,0.0,0.0,0.0,-52.316,0.0,0.0,0.0,0.0,0.0
707,0.0,-0.1229228515625,0.0,0.0,0.0,0.0,0.0,0.0,0.6348346056375401,0.0,0.0,0.0,0.0,0.0,0.0,-55.984,0.0,0.0,0.0,0.0,0.0
708,0.0,-0.1229228515625,0.0,0.0,0.0,0.0,0.0,0.0,0.6348346056375401,0.0,0.0,0.0,0.0,0.0,0.0,-55.984,0.0,0.0,0.0,0.0,0.0
709,0.0,-0.1229228515625,0.0,0.0,0.0,0.0,0.0,0.0,0.6348346056375401,0.0,0.0,0.0,0.0,0.0,0.0,-55.984,0.0,0.0,0.0,0.0,0.0
710,0.0,-0.1229228515625,0.0,0.0,0.0,0.0,0.0,0.0,0.6348346056375401,0.0,0.0,0.0,0.0,0.0,0.0,-55.984,0.0,0.0,0.0,0.0,0.0
711,0.0,-0.1175712890625,0.0,0.0,0.0,0.0,0.0,0.0,0.6348346056375401,0.0,0.0,0.0,0.0,0.0,0.0,-57.604,0.0,0.0,0.0,0.0,0.0
712,0.0,-0.1175712890625,0.0,0.0,0.0,0.0,0.0,0.0,0.6348346056375401,0.0,0.0,0.0,0.0,0.0,0.0,-57.604,0.0,0.0,0.0,0.0,0.0
713,0.0,-0.1121103515625,0.0,0.0,0.0,0.0,0.0,0.0,0.6348346056375401,0.0,0.0,0.0,0.0,0.0,0.0,-55.12,0.0,0.0,0.0,0.0,0.0
714,0.0,-0.1121103515625,0.0,0.0,0.0,0.0,0.0,0.0,0.6348346056375401,0.0,0.0,0.0,0.0,0.0,0.0,-55.12,0.0,0.0,0.0,0.0,0.0
715,0.0,-0.1067529296875,0.0,0.0,0.0,0.0,0.0,0.0,0.6348346056375401,0.0,0.0,0.0,0.0,0.0,0.0,-54.852,0.0,0.0,0.0,0.0,0.0
716,0.0,-0.1067529296875,0.0,0.0,0.0,0.0,0.0,0.0,0.6348346056375401,0.0,0.0,0.0,0.0,0.0,0.0,-54.852,0.0,0.0,0.0,0.0,0.0
717,0.0,-0.1067529296875,0.0,0.0,0.0,0.0,0.0,0.0,0.6348346056375401,0.0,0.0,0.0,0.0,0.0,0.0,-54.852,0.0,0.0,0.0,0.0,0.0
718,0.0,-0.1024306640625,0.0,0.0,0.0,0.0,0.0,0.0,0.6348346056375401,0.0,0.0,0.0,0.0,0.0,0.0,-58.416,0.0,0.0,0.0,0.0,0.0
719,0.0,-0.1024306640625,0.0,0.0,0.0,0.0,0.0,0.0,0.6348346056375401,0.0,0.0,0.0,0.0,0.0,0.0,-58.416,0.0,0.0,0.0,0.0,0.0
720,0.0,-0.098314453125,0.0,0.0,0.0,0.0,0.0,0.0,0.6348346056375401,0.0,0.0,0.0,0.0,0.0,0.0,-59.224,0.0,0.0,0.0,0.0,0.0
721,0.0,-0.098314453125,0.0,0.0,0.0,0.0,0.0,0.0,0.6348346056375401,0.0,0.0,0.0,0.0,0.0,0.0,-59.224,0.0,0.0,0.0,0.0,0.0
722,0.0,-0.098314453125,0.0,0.0,0.0,0.0,0.0,0.0,0.6348346056375401,0.0,0.0,0.0,0.0,0.0,0.0,-59.224,0.0,0.0,0.0,0.0,0.0
723,0.0,-0.0941982421875,0.0,0.0,0.0,0.0,0.0,0.0,0.6348346056375401,0.0,0.0,0.0,0.0,0.0,0.0,-56.256,0.0,0.0,0.0,0.0,0.0
724,0.0,-0.0941982421875,0.0,0.0,0.0,0.0,0.0,0.0,0.6348346056375401,0.0,0.0,0.0,0.0,0.0,0.0,-56.256,0.0,0.0,0.0,0.0,0.0
725,0.0,-0.0941982421875,0.0,0.0,0.0,0.0,0.0,0.0,0.6348346056375401,0.0,0.0,0.0,0.0,0.0,0.0,-56.256,0.0,0.0,0.0,0.0,0.0
726,0.0,-0.0941982421875,0.0,0.0,0.0,0.0,0.0,0.0,0.6348346056375401,0.0,0.0,0.0,0.0,0.0,0.0,-56.256,0.0,0.0,0.0,0.0,0.0
727,0.0,-0.0901787109375,0.0,0.0,0.0,0.0,0.0,0.0,0.6348346056375401,0.0,0.0,0.0,0.0,0.0,0.0,-52.316,0.0,0.0,0.0,0.0,0.0
728,0.0,-0.0901787109375,0.0,0.0,0.0,0.0,0.0,0.0,0.6348346056375401,0.0,0.0,0.0,0.0,0.0,0.0,-52.316,0.0,0.0,0.0,0.0,0.0
729,0.0,-0.0901787109375,0.0,0.0,0.0,0.0,0.0,0.0,0.6348346056375401,0.0,0.0,0.0,0.0,0.0,0.0,-52.316,0.0,0.0,0.0,0.0,0.0
730,0.0,-0.0860625,0.0,0.0,0.0,0.0,0.0,0.0,0.6348346056375401,0.0,0.0,0.0,0.0,0.0,0.0,-52.316,0.0,0.0,0.0,0.0,0.0
731,0.0,-0.0860625,0.0,0.0,0.0,0.0,0.0,0.0,0.6348346056375401,0.0,0.0,0.0,0.0,0.0,0.0,-52.316,0.0,0.0,0.0,0.0,0.0
732,0.0,-0.0860625,0.0,0.0,0.0,0.0,0.0,0.0,0.6348346056375401,0.0,0.0,0.0,0.0,0.0,0.0,-52.316,0.0,0.0,0.0,0.0,0.0
733,0.0,-0.0826591796875,0.0,0.0,0.0,0.0,0.0,0.0,0.6348346056375401,0.0,0.0,0.0,0.0,0.0,0.0,-54.904,0.0,0.0,0.0,0.0,0.0
734,0.0,-0.0826591796875,0.0,0.0,0.0,0.0,0.0,0.0,0.6348346056375401,0.0,0.0,0.0,0.0,0.0,0.0,-54.904,0.0,0.0,0.0,0.0,0.0
735,0.0,-0.0826591796875,0.0,0.0,0.0,0.0,0.0,0.0,0.6348346056375401,0.0,0.0,0.0,0.0,0.0,0.0,-54.904,0.0,0.0,0.0,0.0,0.0
736,0.0,-0.0797783203125,0.0,0.0,0.0,0.0,0.0,0.0,0.6348346056375401,0.0,0.0,0.0,0.0,0.0,0.0,-54.204,0.0,0.0,0.0,0.0,0.0
737,0.0,-0.0797783203125,0.0,0.0,0.0,0.0,0.0,0.0,0.6348346056375401,0.0,0.0,0.0,0.0,0.0,0.0,-54.204,0.0,0.0,0.0,0.0,0.0
738,0.0,-0.0797783203125,0.0,0.0,0.0,0.0,0.0,0.0,0.6348346056375401,0.0,0.0,0.0,0.0,0.0,0.0,-54.204,0.0,0.0,0.0,0.0,0.0
739,0.0,-0.0767939453125,0.0,0.0,0.0,0.0,0.0,0.0,0.6348346056375401,0.0,0.0,0.0,0.0,0.0,0.0,-50.856,0.0,0.0,0.0,0.0,0.0
740,0.0,-0.0767939453125,0.0,0.0,0.0,0.0,0.0,0.0,0.6348346056375401,0.0,0.0,0.0,0.0,0.0,0.0,-50.856,0.0,0.0,0.0,0.0,0.0
741,0.0,-0.0767939453125,0.0,0.0,0.0,0.0,0.0,0.0,0.6348346056375401,0.0,0.0,0.0,0.0,0.0,0.0,-50.856,0.0,0.0,0.0,0.0,0.0
742,0.0,-0.074111328125,0.0,0.0,0.0,0.0,0.0,0.0,0.6348346056375401,0.0,0.0,0.0,0.0,0.0,0.0,-46.428,0.0,0.0,0.0,0.0,0.0
743,0.0,-0.074111328125,0.0,0.0,0.0,0.0,0.0,0.0,0.6348346056375401,0.0,0.0,0.0,0.0,0.0,0.0,-46.428,0.0,0.0,0.0,0.0,0.0
744,0.0,-0.0707158203125,0.0,0.0,0.0,0.0,0.0,0.0,0.6348346056375401,0.0,0.0,0.0,0.0,0.0,0.0,-44.108,0.0,0.0,0.0,0.0,0.0
745,0.0,-0.0707158203125,0.0,0.0,0.0,0.0,0.0,0.0,0.6348346056375401,0.0,0.0,0.0,0.0,0.0,0.0,-44.108,0.0,0.0,0.0,0.0,0.0
746,0.0,-0.0674228515625,0.0,0.0,0.0,0.0,0.0,0.0,0.6348346056375401,0.0,0.0,0.0,0.0,0.0,0.0,-45.296,0.0,0.0,0.0,0.0,0.0
747,0.0,-0.06453515625,0.0,0.0,0.0,0.0,0.0,0.0,0.6348346056375401,0.0,0.0,0.0,0.0,0.0,0.0,-46.268,0.0,0.0,0.0,0.0,0.0
748,0.0,-0.06453515625,0.0,0.0,0.0,0.0,0.0,0.0,0.6348346056375401,0.0,0.0,0.0,0.0,0.0,0.0,-46.268,0.0,0.0,0.0,0.0,0.0
749,0.0,-0.06453515625,0.0,0.0,0.0,0.0,0.0,0.0,0.6348346056375401,0.0,0.0,0.0,0.0,0.0,0.0,-46.268,0.0,0.0,0.0,0.0,0.0
750,0.0,-0.061859375,0.0,0.0,0.0,0.0,0.0,0.0,0.6348346056375401,0.0,0.0,0.0,0.0,0.0,0.0,-45.62,0.0,0.0,0.0,0.0,0.0
751,0.0,-0.061859375,0.0,0.0,0.0,0.0,0.0,0.0,0.6348346056375401,0.0,0.0,0.0,0.0,0.0,0.0,-45.62,0.0,0.0,0.0,0.0,0.0
752,0.0,-0.061859375,0.0,0.0,0.0,0.0,0.0,0.0,0.6348346056375401,0.0,0.0,0.0,0.0,0.0,0.0,-45.62,0.0,0.0,0.0,0.0,0.0
753,0.0,-0.0594921875,0.0,0.0,0.0,0.0,0.0,0.0,0.6348346056375401,0.0,0.0,0.0,0.0,0.0,0.0,-43.512,0.0,0.0,0.0,0.0,0.0
754,0.0,-0.0594921875,0.0,0.0,0.0,0.0,0.0,0.0,0.6348346056375401,0.0,0.0,0.0,0.0,0.0,0.0,-43.512,0.0,0.0,0.0,0.0,0.0
755,0.0,-0.0594921875,0.0,0.0,0.0,0.0,0.0,0.0,0.6348346056375401,0.0,0.0,0.0,0.0,0.0,0.0,-43.512,0.0,0.0,0.0,0.0,0.0
756,0.0,-0.0594921875,0.0,0.0,0.0,0.0,0.0,0.0,0.6348346056375401,0.0,0.0,0.0,0.0,0.0,0.0,-43.512,0.0,0.0,0.0,0.0,0.0
757,0.0,-0.0563984375,0.0,0.0,0.0,0.0,0.0,0.0,0.6348346056375401,0.0,0.0,0.0,0.0,0.0,0.0,-41.624,0.0,0.0,0.0,0.0,0.0
758,0.0,-0.0563984375,0.0,0.0,0.0,0.0,0.0,0.0,0.6348346056375401,0.0,0.0,0.0,0.0,0.0,0.0,-41.624,0.0,0.0,0.0,0.0,0.0
759,0.0,-0.0563984375,0.0,0.0,0.0,0.0,0.0,0.0,0.6348346056375401,0.0,0.0,0.0,0.0,0.0,0.0,-41.624,0.0,0.0,0.0,0.0,0.0
760,0.0,-0.0530029296875,0.0,0.0,0.0,0.0,0.0,0.0,0.6348346056375401,0.0,0.0,0.0,0.0,0.0,0.0,-41.68,0.0,0.0,0.0,0.0,0.0
761,0.0,-0.0530029296875,0.0,0.0,0.0,0.0,0.0,0.0,0.6348346056375401,0.0,0.0,0.0,0.0,0.0,0.0,-41.68,0.0,0.0,0.0,0.0,0.0
762,0.0,-0.0498125,0.0,0.0,0.0,0.0,0.0,0.0,0.6348346056375401,0.0,0.0,0.0,0.0,0.0,0.0,-41.464,0.0,0.0,0.0,0.0,0.0
763,0.0,-0.0498125,0.0,0.0,0.0,0.0,0.0,0.0,0.6348346056375401,0.0,0.0,0.0,0.0,0.0,0.0,-41.464,0.0,0.0,0.0,0.0,0.0
764,0.0,-0.0498125,0.0,0.0,0.0,0.0,0.0,0.0,0.6348346056375401,0.0,0.0,0.0,0.0,0.0,0.0,-41.464,0.0,0.0,0.0,0.0,0.0
765,0.0,-0.04641015625,0.0,0.0,0.0,0.0,0.0,0.0,0.6348346056375401,0.0,0.0,0.0,0.0,0.0,0.0,-41.408,0.0,0.0,0.0,0.0,0.0
766,0.0,-0.04641015625,0.0,0.0,0.0,0.0,0.0,0.0,0.6348346056375401,0.0,0.0,0.0,0.0,0.0,0.0,-41.408,0.0,0.0,0.0,0.0,0.0
767,0.0,-0.0435283203125,0.0,0.0,0.0,0.0,0.0,0.0,0.6348346056375401,0.0,0.0,0.0,0.0,0.0,0.0,-41.3,0.0,0.0,0.0,0.0,0.0
768,0.0,-0.0435283203125,0.0,0.0,0.0,0.0,0.0,0.0,0.6348346056375401,0.0,0.0,0.0,0.0,0.0,0.0,-41.3,0.0,0.0,0.0,0.0,0.0
769,0.0,-0.0435283203125,0.0,0.0,0.0,0.0,0.0,0.0,0.6348346056375401,0.0,0.0,0.0,0.0,0.0,0.0,-41.3,0.0,0.0,0.0,0.0,0.0
770,0.0,-0.04044140625,0.0,0.0,0.0,0.0,0.0,0.0,0.6348346056375401,0.0,0.0,0.0,0.0,0.0,0.0,-40.112,0.0,0.0,0.0,0.0,0.0
771,0.0,-0.04044140625,0.0,0.0,0.0,0.0,0.0,0.0,0.6348346056375401,0.0,0.0,0.0,0.0,0.0,0.0,-40.112,0.0,0.0,0.0,0.0,0.0
772,0.0,-0.04044140625,0.0,0.0,0.0,0.0,0.0,0.0,0.6348346056375401,0.0,0.0,0.0,0.0,0.0,0.0,-40.112,0.0,0.0,0.0,0.0,0.0
773,0.0,-0.0368330078125,0.0,0.0,0.0,0.0,0.0,0.0,0.6348346056375401,0.0,0.0,0.0,0.0,0.0,0.0,-40.436,0.0,0.0,0.0,0.0,0.0
774,0.0,-0.0368330078125,0.0,0.0,0.0,0.0,0.0,0.0,0.6348346056375401,0.0,0.0,0.0,0.0,0.0,0.0,-40.436,0.0,0.0,0.0,0.0,0.0
775,0.0,-0.0368330078125,0.0,0.0,0.0,0.0,0.0,0.0,0.6348346056375401,0.0,0.0,0.0,0.0,0.0,0.0,-40.436,0.0,0.0,0.0,0.0,0.0
776,0.0,-0.033333984375,0.0,0.0,0.0,0.0,0.0,0.0,0.6348346056375401,0.0,0.0,0.0,0.0,0.0,0.0,-40.328,0.0,0.0,0.0,0.0,0.0
777,0.0,-0.033333984375,0.0,0.0,0.0,0.0,0.0,0.0,0.6348346056375401,0.0,0.0,0.0,0.0,0.0,0.0,-40.328,0.0,0.0,0.0,0.0,0.0
778,0.0,-0.033333984375,0.0,0.0,0.0,0.0,0.0,0.0,0.6348346056375401,0.0,0.0,0.0,0.0,0.0,0.0,-40.328,0.0,0.0,0.0,0.0,0.0
779,0.0,-0.0295205078125,0.0,0.0,0.0,0.0,0.0,0.0,0.6348346056375401,0.0,0.0,0.0,0.0,0.0,0.0,-40.168,0.0,0.0,0.0,0.0,0.0
780,0.0,-0.0295205078125,0.0,0.0,0.0,0.0,0.0,0.0,0.6348346056375401,0.0,0.0,0.0,0.0,0.0,0.0,-40.168,0.0,0.0,0.0,0.0,0.0
781,0.0,-0.0295205078125,0.0,0.0,0.0,0.0,0.0,0.0,0.6348346056375401,0.0,0.0,0.0,0.0,0.0,0.0,-40.168,0.0,0.0,0.0,0.0,0.0
782,0.0,-0.02591796875,0.0,0.0,0.0,0.0,0.0,0.0,0.6348346056375401,0.0,0.0,0.0,0.0,0.0,0.0,-39.896,0.0,0.0,0.0,0.0,0.0
783,0.0,-0.02591796875,0.0,0.0,0.0,0.0,0.0,0.0,0.6348346056375401,0.0,0.0,0.0,0.0,0.0,0.0,-39.896,0.0,0.0,0.0,0.0,0.0
784,0.0,-0.02591796875,0.0,0.0,0.0,0.0,0.0,0.0,0.6348346056375401,0.0,0.0,0.0,0.0,0.0,0.0,-39.896,0.0,0.0,0.0,0.0,0.0
785,0.0,-0.022310546875,0.0,0.0,0.0,0.0,0.0,0.0,0.6348346056375401,0.0,0.0,0.0,0.0,0.0,0.0,-39.196,0.0,0.0,0.0,0.0,0.0
786,0.0,-0.022310546875,0.0,0.0,0.0,0.0,0.0,0.0,0.6348346056375401,0.0,0.0,0.0,0.0,0.0,0.0,-39.196,0.0,0.0,0.0,0.0,0.0
787,0.0,-0.022310546875,0.0,0.0,0.0,0.0,0.0,0.0,0.6348346056375401,0.0,0.0,0.0,0.0,0.0,0.0,-39.196,0.0,0.0,0.0,0.0,0.0
788,0.0,-0.022310546875,0.0,0.0,0.0,0.0,0.0,0.0,0.6348346056375401,0.0,0.0,0.0,0.0,0.0,0.0,-39.196,0.0,0.0,0.0,0.0,0.0
789,0.0,-0.0183994140625,0.0,0.0,0.0,0.0,0.0,0.0,0.6348346056375401,0.0,0.0,0.0,0.0,0.0,0.0,-40.112,0.0,0.0,0.0,0.0,0.0
790,0.0,-0.0183994140625,0.0,0.0,0.0,0.0,0.0,0.0,0.6348346056375401,0.0,0.0,0.0,0.0,0.0,0.0,-40.112,0.0,0.0,0.0,0.0,0.0
791,0.0,-0.0183994140625,0.0,0.0,0.0,0.0,0.0,0.0,0.6348346056375401,0.0,0.0,0.0,0.0,0.0,0.0,-40.112,0.0,0.0,0.0,0.0,0.0
792,0.0,-0.014591796875,0.0,0.0,0.0,0.0,0.0,0.0,0.6348346056375401,0.0,0.0,0.0,0.0,0.0,0.0,-40.436,0.0,0.0,0.0,0.0,0.0
793,0.0,-0.014591796875,0.0,0.0,0.0,0.0,0.0,0.0,0.6348346056375401,0.0,0.0,0.0,0.0,0.0,0.0,-40.436,0.0,0.0,0.0,0.0,0.0
794,0.0,-0.010572265625,0.0,0.0,0.0,0.0,0.0,0.0,0.6348346056375401,0.0,0.0,0.0,0.0,0.0,0.0,-40.868,0.0,0.0,0.0,0.0,0.0
795,0.0,-0.010572265625,0.0,0.0,0.0,0.0,0.0,0.0,0.6348346056375401,0.0,0.0,0.0,0.0,0.0,0.0,-40.868,0.0,0.0,0.0,0.0,0.0
796,0.0,-0.010572265625,0.0,0.0,0.0,0.0,0.0,0.0,0.6348346056375401,0.0,0.0,0.0,0.0,0.0,0.0,-40.868,0.0,0.0,0.0,0.0,0.0
797,0.0,-0.0064560546875,0.0,0.0,0.0,0.0,0.0,0.0,0.6348346056375401,0.0,0.0,0.0,0.0,0.0,0.0,-40.976,0.0,0.0,0.0,0.0,0.0
798,0.0,-0.0064560546875,0.0,0.0,0.0,0.0,0.0,0.0,0.6348346056375401,0.0,0.0,0.0,0.0,0.0,0.0,-40.976,0.0,0.0,0.0,0.0,0.0
799,0.0,-0.0064560546875,0.0,0.0,0.0,0.0,0.0,0.0,0.6348346056375401,0.0,0.0,0.0,0.0,0.0,0.0,-40.976,0.0,0.0,0.0,0.0,0.0
800,0.0,-0.0064560546875,0.0,0.0,0.0,0.0,0.0,0.0,0.6348346056375401,0.0,0.0,0.0,0.0,0.0,0.0,-40.976,0.0,0.0,0.0,0.0,0.0
801,0.0,-0.0023330078125,0.0,0.0,0.0,0.0,0.0,0.0,0.6348346056375401,0.0,0.0,0.0,0.0,0.0,0.0,-40.816,0.0,0.0,0.0,0.0,0.0
802,0.0,-0.0023330078125,0.0,0.0,0.0,0.0,0.0,0.0,0.6348346056375401,0.0,0.0,0.0,0.0,0.0,0.0,-40.816,0.0,0.0,0.0,0.0,0.0
803,0.0,-0.0023330078125,0.0,0.0,0.0,0.0,0.0,0.0,0.6348346056375401,0.0,0.0,0.0,0.0,0.0,0.0,-40.816,0.0,0.0,0.0,0.0,0.0
804,0.0,0.0019892578125,0.0,0.0,0.0,0.0,0.0,0.0,0.6348346056375401,0.0,0.0,0.0,0.0,0.0,0.0,-41.464,0.0,0.0,0.0,0.0,0.0
805,0.0,0.0019892578125,0.0,0.0,0.0,0.0,0.0,0.0,0.6348346056375401,0.0,0.0,0.0,0.0,0.0,0.0,-41.464,0.0,0.0,0.0,0.0,0.0
806,0.0,0.0063173828125,0.0,0.0,0.0,0.0,0.0,0.0,0.6348346056375401,0.0,0.0,0.0,0.0,0.0,0.0,-42.976,0.0,0.0,0.0,0.0,0.0
807,0.0,0.0063173828125,0.0,0.0,0.0,0.0,0.0,0.0,0.6348346056375401,0.0,0.0,0.0,0.0,0.0,0.0,-42.976,0.0,0.0,0.0,0.0,0.0
808,0.0,0.0063173828125,0.0,0.0,0.0,0.0,0.0,0.0,0.6348346056375401,0.0,0.0,0.0,0.0,0.0,0.0,-42.976,0.0,0.0,0.0,0.0,0.0
809,0.0,0.0106396484375,0.0,0.0,0.0,0.0,0.0,0.0,0.6348346056375401,0.0,0.0,0.0,0.0,0.0,0.0,-43.676,0.0,0.0,0.0,0.0,0.0
810,0.0,0.0106396484375,0.0,0.0,0.0,0.0,0.0,0.0,0.6348346056375401,0.0,0.0,0.0,0.0,0.0,0.0,-43.676,0.0,0.0,0.0,0.0,0.0
811,0.0,0.0106396484375,0.0,0.0,0.0,0.0,0.0,0.0,0.6348346056375401,0.0,0.0,0.0,0.0,0.0,0.0,-43.676,0.0,0.0,0.0,0.0,0.0
812,0.0,0.0150712890625,0.0,0.0,0.0,0.0,0.0,0.0,0.6348346056375401,0.0,0.0,0.0,0.0,0.0,0.0,-44.108,0.0,0.0,0.0,0.0,0.0
813,0.0,0.0150712890625,0.0,0.0,0.0,0.0,0.0,0.0,0.6348346056375401,0.0,0.0,0.0,0.0,0.0,0.0,-44.108,0.0,0.0,0.0,0.0,0.0
814,0.0,0.0193935546875,0.0,0.0,0.0,0.0,0.0,0.0,0.6348346056375401,0.0,0.0,0.0,0.0,0.0,0.0,-43.944,0.0,0.0,0.0,0.0,0.0
815,0.0,0.0193935546875,0.0,0.0,0.0,0.0,0.0,0.0,0.6348346056375401,0.0,0.0,0.0,0.0,0.0,0.0,-43.944,0.0,0.0,0.0,0.0,0.0
816,0.0,0.023927734375,0.0,0.0,0.0,0.0,0.0,0.0,0.6348346056375401,0.0,0.0,0.0,0.0,0.0,0.0,-43.944,0.0,0.0,0.0,0.0,0.0
817,0.0,0.023927734375,0.0,0.0,0.0,0.0,0.0,0.0,0.6348346056375401,0.0,0.0,0.0,0.0,0.0,0.0,-43.944,0.0,0.0,0.0,0.0,0.0
818,0.0,0.0284560546875,0.0,0.0,0.0,0.0,0.0,0.0,0.6348346056375401,0.0,0.0,0.0,0.0,0.0,0.0,-44.972,0.0,0.0,0.0,0.0,0.0
819,0.0,0.0284560546875,0.0,0.0,0.0,0.0,0.0,0.0,0.6348346056375401,0.0,0.0,0.0,0.0,0.0,0.0,-44.972,0.0,0.0,0.0,0.0,0.0
820,0.0,0.0284560546875,0.0,0.0,0.0,0.0,0.0,0.0,0.6348346056375401,0.0,0.0,0.0,0.0,0.0,0.0,-44.972,0.0,0.0,0.0,0.0,0.0
821,0.0,0.0327841796875,0.0,0.0,0.0,0.0,0.0,0.0,0.6348346056375401,0.0,0.0,0.0,0.0,0.0,0.0,-45.728,0.0,0.0,0.0,0.0,0.0
822,0.0,0.0327841796875,0.0,0.0,0.0,0.0,0.0,0.0,0.6348346056375401,0.0,0.0,0.0,0.0,0.0,0.0,-45.728,0.0,0.0,0.0,0.0,0.0
823,0.0,0.0327841796875,0.0,0.0,0.0,0.0,0.0,0.0,0.6348346056375401,0.0,0.0,0.0,0.0,0.0,0.0,-45.728,0.0,0.0,0.0,0.0,0.0
824,0.0,0.0371064453125,0.0,0.0,0.0,0.0,0.0,0.0,0.6348346056375401,0.0,0.0,0.0,0.0,0.0,0.0,-45.996,0.0,0.0,0.0,0.0,0.0
825,0.0,0.0371064453125,0.0,0.0,0.0,0.0,0.0,0.0,0.6348346056375401,0.0,0.0,0.0,0.0,0.0,0.0,-45.996,0.0,0.0,0.0,0.0,0.0
826,0.0,0.0371064453125,0.0,0.0,0.0,0.0,0.0,0.0,0.6348346056375401,0.0,0.0,0.0,0.0,0.0,0.0,-45.996,0.0,0.0,0.0,0.0,0.0
827,0.0,0.041435546875,0.0,0.0,0.0,0.0,0.0,0.0,0.6348346056375401,0.0,0.0,0.0,0.0,0.0,0.0,-45.672,0.0,0.0,0.0,0.0,0.0
828,0.0,0.041435546875,0.0,0.0,0.0,0.0,0.0,0.0,0.6348346056375401,0.0,0.0,0.0,0.0,0.0,0.0,-45.672,0.0,0.0,0.0,0.0,0.0
829,0.0,0.041435546875,0.0,0.0,0.0,0.0,0.0,0.0,0.6348346056375401,0.0,0.0,0.0,0.0,0.0,0.0,-45.672,0.0,0.0,0.0,0.0,0.0
830,0.0,0.045654296875,0.0,0.0,0.0,0.0,0.0,0.0,0.6348346056375401,0.0,0.0,0.0,0.0,0.0,0.0,-45.348,0.0,0.0,0.0,0.0,0.0
831,0.0,0.045654296875,0.0,0.0,0.0,0.0,0.0,0.0,0.6348346056375401,0.0,0.0,0.0,0.0,0.0,0.0,-45.348,0.0,0.0,0.0,0.0,0.0
832,0.0,0.045654296875,0.0,0.0,0.0,0.0,0.0,0.0,0.6348346056375401,0.0,0.0,0.0,0.0,0.0,0.0,-45.348,0.0,0.0,0.0,0.0,0.0
833,0.0,0.0499833984375,0.0,0.0,0.0,0.0,0.0,0.0,0.6348346056375401,0.0,0.0,0.0,0.0,0.0,0.0,-45.62,0.0,0.0,0.0,0.0,0.0
834,0.0,0.0499833984375,0.0,0.0,0.0,0.0,0.0,0.0,0.6348346056375401,0.0,0.0,0.0,0.0,0.0,0.0,-45.62,0.0,0.0,0.0,0.0,0.0
835,0.0,0.054099609375,0.0,0.0,0.0,0.0,0.0,0.0,0.6348346056375401,0.0,0.0,0.0,0.0,0.0,0.0,-46.268,0.0,0.0,0.0,0.0,0.0
836,0.0,0.054099609375,0.0,0.0,0.0,0.0,0.0,0.0,0.6348346056375401,0.0,0.0,0.0,0.0,0.0,0.0,-46.268,0.0,0.0,0.0,0.0,0.0
837,0.0,0.0583251953125,0.0,0.0,0.0,0.0,0.0,0.0,0.6348346056375401,0.0,0.0,0.0,0.0,0.0,0.0,-46.16,0.0,0.0,0.0,0.0,0.0
838,0.0,0.0583251953125,0.0,0.0,0.0,0.0,0.0,0.0,0.6348346056375401,0.0,0.0,0.0,0.0,0.0,0.0,-46.16,0.0,0.0,0.0,0.0,0.0
839,0.0,0.0583251953125,0.0,0.0,0.0,0.0,0.0,0.0,0.6348346056375401,0.0,0.0,0.0,0.0,0.0,0.0,-46.16,0.0,0.0,0.0,0.0,0.0
840,0.0,0.0623388671875,0.0,0.0,0.0,0.0,0.0,0.0,0.6348346056375401,0.0,0.0,0.0,0.0,0.0,0.0,-45.836,0.0,0.0,0.0,0.0,0.0
841,0.0,0.0623388671875,0.0,0.0,0.0,0.0,0.0,0.0,0.6348346056375401,0.0,0.0,0.0,0.0,0.0,0.0,-45.836,0.0,0.0,0.0,0.0,0.0
