EmanuelSamir/lab201_ws_projsamir/sawyer_dev/data/sawyer/temp/training_data_drad.csv
,j1,j2,j3,j4,j5,j6,j7,jd1,jd2,jd3,jd4,jd5,jd6,jd7,e1,e2,e3,e4,e5,e6,e7
0,0.0,0.0,0.0,0.0,0.0,0.0,0.0,0.0,0.0,0.0,0.0,0.0,0.0,0.0,0.0,0.0,0.0,0.0,0.0,0.0,0.0
1,0.0,0.0,0.0,-0.0009384765625,0.0,0.0,0.0,0.0,0.0,0.0,-0.0009355963219092344,0.0,0.0,0.0,0.0,0.0,0.0,-13.676,0.0,0.0,0.0
2,0.0,0.0,0.0,-0.0009384765625,0.0,0.0,0.0,0.0,0.0,0.0,-0.0006972585806780882,0.0,0.0,0.0,0.0,0.0,0.0,-13.536,0.0,0.0,0.0
3,0.0,0.0,0.0,-0.0009384765625,0.0,0.0,0.0,0.0,0.0,0.0,-0.0005624776615916116,0.0,0.0,0.0,0.0,0.0,0.0,-13.536,0.0,0.0,0.0
4,0.0,0.0,0.0,-0.0009384765625,0.0,0.0,0.0,0.0,0.0,0.0,-0.0004562669951359582,0.0,0.0,0.0,0.0,0.0,0.0,-13.604,0.0,0.0,0.0
5,0.0,0.0,0.0,-0.0009384765625,0.0,0.0,0.0,0.0,0.0,0.0,-0.00038310803500159196,0.0,0.0,0.0,0.0,0.0,0.0,-13.604,0.0,0.0,0.0
6,0.0,0.0,0.0,-0.0012275390625,0.0,0.0,0.0,0.0,0.0,0.0,-0.0005880727314155822,0.0,0.0,0.0,0.0,0.0,0.0,-14.108,0.0,0.0,0.0
7,0.0,0.0,0.0,-0.0012275390625,0.0,0.0,0.0,0.0,0.0,0.0,-0.0005134304678628543,0.0,0.0,0.0,0.0,0.0,0.0,-14.108,0.0,0.0,0.0
8,0.0,0.0,0.0,-0.0012275390625,0.0,0.0,0.0,0.0,0.0,0.0,-0.0004444561357872266,0.0,0.0,0.0,0.0,0.0,0.0,-14.108,0.0,0.0,0.0
9,0.0,0.0,0.0,-0.00194921875,0.0,0.0,0.0,0.0,0.0,0.0,-0.0010942049610891684,0.0,0.0,0.0,0.0,0.0,0.0,-14.384,0.0,0.0,0.0
10,0.0,0.0,0.0,-0.00194921875,0.0,0.0,0.0,0.0,0.0,0.0,-0.0010334900152152333,0.0,0.0,0.0,0.0,0.0,0.0,-14.384,0.0,0.0,0.0
11,0.0,0.0,0.0,-0.00194921875,0.0,0.0,0.0,0.0,0.0,0.0,-0.0009767532424398919,0.0,0.0,0.0,0.0,0.0,0.0,-14.384,0.0,0.0,0.0
12,0.0,0.0,0.0,-0.00209375,0.0,0.0,0.0,0.0,0.0,0.0,-0.001039232101252683,0.0,0.0,0.0,0.0,0.0,0.0,-13.56,0.0,0.0,0.0
13,0.0,0.0,0.0,-0.00209375,0.0,0.0,0.0,0.0,0.0,0.0,-0.0009535626260681422,0.0,0.0,0.0,0.0,0.0,0.0,-13.56,0.0,0.0,0.0
14,0.0,0.0,0.0,-0.00209375,0.0,0.0,0.0,0.0,0.0,0.0,-0.0008765436224334997,0.0,0.0,0.0,0.0,0.0,0.0,-13.56,0.0,0.0,0.0
15,0.0,0.0,0.0,-0.00194921875,0.0,0.0,0.0,0.0,0.0,0.0,-0.000668379023333515,0.0,0.0,0.0,0.0,0.0,0.0,-13.744,0.0,0.0,0.0
16,0.0,0.0,0.0,-0.00194921875,0.0,0.0,0.0,0.0,0.0,0.0,-0.0006013905276779023,0.0,0.0,0.0,0.0,0.0,0.0,-13.744,0.0,0.0,0.0
17,0.0,0.0,0.0,-0.00194921875,0.0,0.0,0.0,0.0,0.0,0.0,-0.0005334725968001563,0.0,0.0,0.0,0.0,0.0,0.0,-13.744,0.0,0.0,0.0
18,0.0,0.0,0.0,-0.00209375,0.0,0.0,0.0,0.0,0.0,0.0,-0.0005894195928845538,0.0,0.0,0.0,0.0,0.0,0.0,-13.24,0.0,0.0,0.0
19,0.0,0.0,0.0,-0.00209375,0.0,0.0,0.0,0.0,0.0,0.0,-0.0004952794053850712,0.0,0.0,0.0,0.0,0.0,0.0,-13.24,0.0,0.0,0.0
20,0.0,0.0,0.0,-0.00166015625,0.0,0.0,0.0,0.0,0.0,0.0,6.25974289057672e-05,0.0,0.0,0.0,0.0,0.0,0.0,-13.88,0.0,0.0,0.0
21,0.0,0.0,0.0,-0.00166015625,0.0,0.0,0.0,0.0,0.0,0.0,0.00017282029613522915,0.0,0.0,0.0,0.0,0.0,0.0,-13.88,0.0,0.0,0.0
22,0.0,0.0,0.0,-0.00166015625,0.0,0.0,0.0,0.0,0.0,0.0,0.0002453366953432902,0.0,0.0,0.0,0.0,0.0,0.0,-13.88,0.0,0.0,0.0
23,0.0,0.0,0.0,-0.0018046875,0.0,0.0,0.0,0.0,0.0,0.0,0.0001815676242630487,0.0,0.0,0.0,0.0,0.0,0.0,-14.2,0.0,0.0,0.0
24,0.0,0.0,0.0,-0.00209375,0.0,0.0,0.0,0.0,0.0,0.0,-1.9357033013606834e-05,0.0,0.0,0.0,0.0,0.0,0.0,-13.516,0.0,0.0,0.0
25,0.0,0.0,0.0,-0.00209375,0.0,0.0,0.0,0.0,0.0,0.0,6.645233268159694e-05,0.0,0.0,0.0,0.0,0.0,0.0,-13.516,0.0,0.0,0.0
26,0.0,0.0,0.0,-0.00209375,0.0,0.0,0.0,0.0,0.0,0.0,0.00015565880019133066,0.0,0.0,0.0,0.0,0.0,0.0,-13.516,0.0,0.0,0.0
27,0.0,0.0,0.0,-0.00209375,0.0,0.0,0.0,0.0,0.0,0.0,0.0002708741702488154,0.0,0.0,0.0,0.0,0.0,0.0,-13.4,0.0,0.0,0.0
28,0.0,0.0,0.0,-0.00209375,0.0,0.0,0.0,0.0,0.0,0.0,0.0003622774590031422,0.0,0.0,0.0,0.0,0.0,0.0,-13.4,0.0,0.0,0.0
29,0.0,0.0,0.0,-0.0023916015625,0.0,0.0,0.0,0.0,0.0,0.0,0.00013955053695599963,0.0,0.0,0.0,0.0,0.0,0.0,-13.056,0.0,0.0,0.0
30,0.0,0.0,0.0,-0.0023916015625,0.0,0.0,0.0,0.0,0.0,0.0,0.00023479758713711336,0.0,0.0,0.0,0.0,0.0,0.0,-13.056,0.0,0.0,0.0
31,0.0,0.0,0.0,-0.00209375,0.0,0.0,0.0,0.0,0.0,0.0,0.0006235724041178448,0.0,0.0,0.0,0.0,0.0,0.0,-13.308,0.0,0.0,0.0
32,0.0,0.0,0.0,-0.00209375,0.0,0.0,0.0,0.0,0.0,0.0,0.0006965692269050041,0.0,0.0,0.0,0.0,0.0,0.0,-13.308,0.0,0.0,0.0
33,0.0,0.0,0.0,-0.00194921875,0.0,0.0,0.0,0.0,0.0,0.0,0.0009599813078224003,0.0,0.0,0.0,0.0,0.0,0.0,-13.676,0.0,0.0,0.0
34,0.0,0.0,0.0,-0.00194921875,0.0,0.0,0.0,0.0,0.0,0.0,0.0010997857648741886,0.0,0.0,0.0,0.0,0.0,0.0,-13.676,0.0,0.0,0.0
35,0.0,0.0,0.0,-0.00209375,0.0,0.0,0.0,0.0,0.0,0.0,0.001061488488026494,0.0,0.0,0.0,0.0,0.0,0.0,-13.516,0.0,0.0,0.0
36,0.0,0.0,0.0,-0.00209375,0.0,0.0,0.0,0.0,0.0,0.0,0.001139622581066509,0.0,0.0,0.0,0.0,0.0,0.0,-13.516,0.0,0.0,0.0
37,0.0,0.0,0.0,-0.00209375,0.0,0.0,0.0,0.0,0.0,0.0,0.001214884869284946,0.0,0.0,0.0,0.0,0.0,0.0,-13.516,0.0,0.0,0.0
38,0.0,0.0,0.0,-0.00209375,0.0,0.0,0.0,0.0,0.0,0.0,0.0012895960737888275,0.0,0.0,0.0,0.0,0.0,0.0,-13.516,0.0,0.0,0.0
39,0.0,0.0,0.0,-0.00223828125,0.0,0.0,0.0,0.0,0.0,0.0,0.0012542574175243276,0.0,0.0,0.0,0.0,0.0,0.0,-13.216,0.0,0.0,0.0
40,0.0,0.0,0.0,-0.00223828125,0.0,0.0,0.0,0.0,0.0,0.0,0.001363810906580951,0.0,0.0,0.0,0.0,0.0,0.0,-13.216,0.0,0.0,0.0
41,0.0,0.0,0.0,-0.00223828125,0.0,0.0,0.0,0.0,0.0,0.0,0.001428128453543967,0.0,0.0,0.0,0.0,0.0,0.0,-13.216,0.0,0.0,0.0
42,0.0,0.0,0.0,-0.00209375,0.0,0.0,0.0,0.0,0.0,0.0,0.0016450796985914406,0.0,0.0,0.0,0.0,0.0,0.0,-13.172,0.0,0.0,0.0
43,0.0,0.0,0.0,-0.00209375,0.0,0.0,0.0,0.0,0.0,0.0,0.0017126850039671658,0.0,0.0,0.0,0.0,0.0,0.0,-13.172,0.0,0.0,0.0
44,0.0,0.0,0.0,-0.00209375,0.0,0.0,0.0,0.0,0.0,0.0,0.0018182379349589344,0.0,0.0,0.0,0.0,0.0,0.0,-13.444,0.0,0.0,0.0
45,0.0,0.0,0.0,-0.00209375,0.0,0.0,0.0,0.0,0.0,0.0,0.0019146022039279132,0.0,0.0,0.0,0.0,0.0,0.0,-13.444,0.0,0.0,0.0
46,0.0,0.0,0.0,-0.00209375,0.0,0.0,0.0,0.0,0.0,0.0,0.0020207617657093833,0.0,0.0,0.0,0.0,0.0,0.0,-13.444,0.0,0.0,0.0
47,0.0,0.0,0.0,-0.00194921875,0.0,0.0,0.0,0.0,0.0,0.0,0.002358575616392969,0.0,0.0,0.0,0.0,0.0,0.0,-13.836,0.0,0.0,0.0
48,0.0,0.0,0.0,-0.00194921875,0.0,0.0,0.0,0.0,0.0,0.0,0.0024907128844571164,0.0,0.0,0.0,0.0,0.0,0.0,-13.836,0.0,0.0,0.0
49,0.0,0.0,0.0,-0.00194921875,0.0,0.0,0.0,0.0,0.0,0.0,0.0025947741266070883,0.0,0.0,0.0,0.0,0.0,0.0,-13.628,0.0,0.0,0.0
50,0.0,0.0,0.0,-0.00194921875,0.0,0.0,0.0,0.0,0.0,0.0,0.0027059547313166552,0.0,0.0,0.0,0.0,0.0,0.0,-13.628,0.0,0.0,0.0
51,0.0,0.0,0.0,-0.00194921875,0.0,0.0,0.0,0.0,0.0,0.0,0.002775876460093299,0.0,0.0,0.0,0.0,0.0,0.0,-13.604,0.0,0.0,0.0
52,0.0,0.0,0.0,-0.00194921875,0.0,0.0,0.0,0.0,0.0,0.0,0.0028327885183232556,0.0,0.0,0.0,0.0,0.0,0.0,-13.604,0.0,0.0,0.0
53,0.0,0.0,0.0,-0.00194921875,0.0,0.0,0.0,0.0,0.0,0.0,0.0029255772451126766,0.0,0.0,0.0,0.0,0.0,0.0,-13.604,0.0,0.0,0.0
54,0.0,0.0,0.0,-0.00194921875,0.0,0.0,0.0,0.0,0.0,0.0,0.003005734223717856,0.0,0.0,0.0,0.0,0.0,0.0,-13.812,0.0,0.0,0.0
55,0.0,0.0,0.0,-0.00194921875,0.0,0.0,0.0,0.0,0.0,0.0,0.0030628526035395925,0.0,0.0,0.0,0.0,0.0,0.0,-13.812,0.0,0.0,0.0
56,0.0,0.0,0.0,-0.00194921875,0.0,0.0,0.0,0.0,0.0,0.0,0.003127317315566327,0.0,0.0,0.0,0.0,0.0,0.0,-13.812,0.0,0.0,0.0
57,0.0,0.0,0.0,-0.00194921875,0.0,0.0,0.0,0.0,0.0,0.0,0.0032061631759298576,0.0,0.0,0.0,0.0,0.0,0.0,-13.856,0.0,0.0,0.0
58,0.0,0.0,0.0,-0.00194921875,0.0,0.0,0.0,0.0,0.0,0.0,0.003306969308138017,0.0,0.0,0.0,0.0,0.0,0.0,-13.856,0.0,0.0,0.0
59,0.0,0.0,0.0,-0.0018046875,0.0,0.0,0.0,0.0,0.0,0.0,0.0035368732446600833,0.0,0.0,0.0,0.0,0.0,0.0,-13.948,0.0,0.0,0.0
60,0.0,0.0,0.0,-0.0018046875,0.0,0.0,0.0,0.0,0.0,0.0,0.003624280570710385,0.0,0.0,0.0,0.0,0.0,0.0,-13.948,0.0,0.0,0.0
61,0.0,0.0,0.0,-0.0018046875,0.0,0.0,0.0,0.0,0.0,0.0,0.003697727352371947,0.0,0.0,0.0,0.0,0.0,0.0,-13.812,0.0,0.0,0.0
62,0.0,0.0,0.0,-0.0018046875,0.0,0.0,0.0,0.0,0.0,0.0,0.0037738599267165603,0.0,0.0,0.0,0.0,0.0,0.0,-13.812,0.0,0.0,0.0
63,0.0,0.0,0.0,-0.0018046875,0.0,0.0,0.0,0.0,0.0,0.0,0.003850417954761165,0.0,0.0,0.0,0.0,0.0,0.0,-13.812,0.0,0.0,0.0
64,0.0,0.0,0.0,-0.00194921875,0.0,0.0,0.0,0.0,0.0,0.0,0.003782810760881199,0.0,0.0,0.0,0.0,0.0,0.0,-13.696,0.0,0.0,0.0
65,0.0,0.0,0.0,-0.00194921875,0.0,0.0,0.0,0.0,0.0,0.0,0.003940427670633843,0.0,0.0,0.0,0.0,0.0,0.0,-13.696,0.0,0.0,0.0
66,0.0,0.0,0.0,-0.0018046875,0.0,0.0,0.0,0.0,0.0,0.0,0.004177246992017678,0.0,0.0,0.0,0.0,0.0,0.0,-13.604,0.0,0.0,0.0
67,0.0,0.0,0.0,-0.0018046875,0.0,0.0,0.0,0.0,0.0,0.0,0.004261554981281387,0.0,0.0,0.0,0.0,0.0,0.0,-13.604,0.0,0.0,0.0
68,0.0,0.0,0.0,-0.00166015625,0.0,0.0,0.0,0.0,0.0,0.0,0.004499790199406784,0.0,0.0,0.0,0.0,0.0,0.0,-13.536,0.0,0.0,0.0
69,0.0,0.0,0.0,-0.00166015625,0.0,0.0,0.0,0.0,0.0,0.0,0.004609492049163728,0.0,0.0,0.0,0.0,0.0,0.0,-13.536,0.0,0.0,0.0
70,0.0,0.0,0.0,-0.001515625,0.0,0.0,0.0,0.0,0.0,0.0,0.0048611166841971455,0.0,0.0,0.0,0.0,0.0,0.0,-13.696,0.0,0.0,0.0
71,0.0,0.0,0.0,-0.0013720703125,0.0,0.0,0.0,0.0,0.0,0.0,0.005132890857961978,0.0,0.0,0.0,0.0,0.0,0.0,-13.4,0.0,0.0,0.0
72,0.0,0.0,0.0,-0.0013720703125,0.0,0.0,0.0,0.0,0.0,0.0,0.005226986456849235,0.0,0.0,0.0,0.0,0.0,0.0,-13.4,0.0,0.0,0.0
73,0.0,0.0,0.0,-0.0010830078125,0.0,0.0,0.0,0.0,0.0,0.0,0.0056037106743885776,0.0,0.0,0.0,0.0,0.0,0.0,-13.264,0.0,0.0,0.0
74,0.0,0.0,0.0,-0.0010830078125,0.0,0.0,0.0,0.0,0.0,0.0,0.005684995114200327,0.0,0.0,0.0,0.0,0.0,0.0,-13.264,0.0,0.0,0.0
75,0.0,0.0,0.0,-0.0010830078125,0.0,0.0,0.0,0.0,0.0,0.0,0.005775626217496602,0.0,0.0,0.0,0.0,0.0,0.0,-13.264,0.0,0.0,0.0
76,0.0,0.0,0.0,-0.0007939453125,0.0,0.0,0.0,0.0,0.0,0.0,0.006151438135250253,0.0,0.0,0.0,0.0,0.0,0.0,-13.032,0.0,0.0,0.0
77,0.0,0.0,0.0,-0.0007939453125,0.0,0.0,0.0,0.0,0.0,0.0,0.0062373593879829665,0.0,0.0,0.0,0.0,0.0,0.0,-13.032,0.0,0.0,0.0
78,0.0,0.0,0.0,-0.000505859375,0.0,0.0,0.0,0.0,0.0,0.0,0.006638201744840728,0.0,0.0,0.0,0.0,0.0,0.0,-13.172,0.0,0.0,0.0
79,0.0,0.0,0.0,-0.000505859375,0.0,0.0,0.0,0.0,0.0,0.0,0.00672757966776767,0.0,0.0,0.0,0.0,0.0,0.0,-13.172,0.0,0.0,0.0
80,0.0,0.0,0.0,-0.000361328125,0.0,0.0,0.0,0.0,0.0,0.0,0.006932246846811795,0.0,0.0,0.0,0.0,0.0,0.0,-13.08,0.0,0.0,0.0
81,0.0,0.0,0.0,-0.000361328125,0.0,0.0,0.0,0.0,0.0,0.0,0.006994615641661431,0.0,0.0,0.0,0.0,0.0,0.0,-13.08,0.0,0.0,0.0
82,0.0,0.0,0.0,-0.000361328125,0.0,0.0,0.0,0.0,0.0,0.0,0.007135888723366537,0.0,0.0,0.0,0.0,0.0,0.0,-13.08,0.0,0.0,0.0
83,0.0,0.0,0.0,7.12890625e-05,0.0,0.0,0.0,0.0,0.0,0.0,0.007671055058092724,0.0,0.0,0.0,0.0,0.0,0.0,-12.964,0.0,0.0,0.0
84,0.0,0.0,0.0,0.000359375,0.0,0.0,0.0,0.0,0.0,0.0,0.008025057527994853,0.0,0.0,0.0,0.0,0.0,0.0,-12.944,0.0,0.0,0.0
85,0.0,0.0,0.0,0.000359375,0.0,0.0,0.0,0.0,0.0,0.0,0.008087984863867494,0.0,0.0,0.0,0.0,0.0,0.0,-12.944,0.0,0.0,0.0
86,0.0,0.0,0.0,0.000359375,0.0,0.0,0.0,0.0,0.0,0.0,0.008176690841826892,0.0,0.0,0.0,0.0,0.0,0.0,-12.944,0.0,0.0,0.0
87,0.0,0.0,0.0,0.0009462890625,0.0,0.0,0.0,0.0,0.0,0.0,0.00883630693042883,0.0,0.0,0.0,0.0,0.0,0.0,-13.056,0.0,0.0,0.0
88,0.0,0.0,0.0,0.0009462890625,0.0,0.0,0.0,0.0,0.0,0.0,0.00891101464318777,0.0,0.0,0.0,0.0,0.0,0.0,-13.056,0.0,0.0,0.0
89,0.0,0.0,0.0,0.0015234375,0.0,0.0,0.0,0.0,0.0,0.0,0.009573462015582786,0.0,0.0,0.0,0.0,0.0,0.0,-13.172,0.0,0.0,0.0
90,0.0,0.0,0.0,0.0015234375,0.0,0.0,0.0,0.0,0.0,0.0,0.00967704118533947,0.0,0.0,0.0,0.0,0.0,0.0,-13.172,0.0,0.0,0.0
91,0.0,0.0,0.0,0.00224609375,0.0,0.0,0.0,0.0,0.0,0.0,0.010483127313563871,0.0,0.0,0.0,0.0,0.0,0.0,-13.356,0.0,0.0,0.0
92,0.0,0.0,0.0,0.00224609375,0.0,0.0,0.0,0.0,0.0,0.0,0.010570761872635663,0.0,0.0,0.0,0.0,0.0,0.0,-13.356,0.0,0.0,0.0
93,0.0,0.0,0.0,0.0026787109375,0.0,0.0,0.0,0.0,0.0,0.0,0.011140957856482362,0.0,0.0,0.0,0.0,0.0,0.0,-13.536,0.0,0.0,0.0
94,0.0,0.0,0.0,0.0026787109375,0.0,0.0,0.0,0.0,0.0,0.0,0.01124419920207384,0.0,0.0,0.0,0.0,0.0,0.0,-13.536,0.0,0.0,0.0
95,0.0,0.0,0.0,0.003255859375,0.0,0.0,0.0,0.0,0.0,0.0,0.011885417304973911,0.0,0.0,0.0,0.0,0.0,0.0,-13.468,0.0,0.0,0.0
96,0.0,0.0,0.0,0.003255859375,0.0,0.0,0.0,0.0,0.0,0.0,0.011975171491332285,0.0,0.0,0.0,0.0,0.0,0.0,-13.468,0.0,0.0,0.0
97,0.0,0.0,0.0,0.0041318359375,0.0,0.0,0.0,0.0,0.0,0.0,0.012966504239633431,0.0,0.0,0.0,0.0,0.0,0.0,-13.332,0.0,0.0,0.0
98,0.0,0.0,0.0,0.0041318359375,0.0,0.0,0.0,0.0,0.0,0.0,0.013051280811063812,0.0,0.0,0.0,0.0,0.0,0.0,-13.332,0.0,0.0,0.0
99,0.0,0.0,0.0,0.004998046875,0.0,0.0,0.0,0.0,0.0,0.0,0.014110597892314013,0.0,0.0,0.0,0.0,0.0,0.0,-13.376,0.0,0.0,0.0
100,0.0,0.0,0.0,0.0058642578125,0.0,0.0,0.0,0.0,0.0,0.0,0.015064651884571536,0.0,0.0,0.0,0.0,0.0,0.0,-13.584,0.0,0.0,0.0
101,0.0,0.0,0.0,0.0058642578125,0.0,0.0,0.0,0.0,0.0,0.0,0.015141096237156728,0.0,0.0,0.0,0.0,0.0,0.0,-13.584,0.0,0.0,0.0
102,0.0,0.0,0.0,0.00673046875,0.0,0.0,0.0,0.0,0.0,0.0,0.01610381866437614,0.0,0.0,0.0,0.0,0.0,0.0,-14.132,0.0,0.0,0.0
103,0.0,0.0,0.0,0.00673046875,0.0,0.0,0.0,0.0,0.0,0.0,0.0161644674123886,0.0,0.0,0.0,0.0,0.0,0.0,-14.132,0.0,0.0,0.0
104,0.0,0.0,0.0,0.00760546875,0.0,0.0,0.0,0.0,0.0,0.0,0.0171172053962588,0.0,0.0,0.0,0.0,0.0,0.0,-13.676,0.0,0.0,0.0
105,0.0,0.0,0.0,0.00760546875,0.0,0.0,0.0,0.0,0.0,0.0,0.017214404416293433,0.0,0.0,0.0,0.0,0.0,0.0,-13.676,0.0,0.0,0.0
106,0.0,0.0,0.0,0.0086162109375,0.0,0.0,0.0,0.0,0.0,0.0,0.018308173905546697,0.0,0.0,0.0,0.0,0.0,0.0,-13.764,0.0,0.0,0.0
107,0.0,0.0,0.0,0.0086162109375,0.0,0.0,0.0,0.0,0.0,0.0,0.01838920691754747,0.0,0.0,0.0,0.0,0.0,0.0,-13.764,0.0,0.0,0.0
108,0.0,0.0,0.0,0.009626953125,0.0,0.0,0.0,0.0,0.0,0.0,0.019502664124607404,0.0,0.0,0.0,0.0,0.0,0.0,-13.652,0.0,0.0,0.0
109,0.0,0.0,0.0,0.009626953125,0.0,0.0,0.0,0.0,0.0,0.0,0.01962295875845963,0.0,0.0,0.0,0.0,0.0,0.0,-13.652,0.0,0.0,0.0
110,0.0,0.0,0.0,0.010791015625,0.0,0.0,0.0,0.0,0.0,0.0,0.02087476752816672,0.0,0.0,0.0,0.0,0.0,0.0,-13.4,0.0,0.0,0.0
111,0.0,0.0,0.0,0.010791015625,0.0,0.0,0.0,0.0,0.0,0.0,0.020960365760820193,0.0,0.0,0.0,0.0,0.0,0.0,-13.4,0.0,0.0,0.0
112,0.0,0.0,0.0,0.0122431640625,0.0,0.0,0.0,0.0,0.0,0.0,0.022504887763280593,0.0,0.0,0.0,0.0,0.0,0.0,-13.604,0.0,0.0,0.0
113,0.0,0.0,0.0,0.0122431640625,0.0,0.0,0.0,0.0,0.0,0.0,0.022585325825766722,0.0,0.0,0.0,0.0,0.0,0.0,-13.604,0.0,0.0,0.0
114,0.0,0.0,0.0,0.0135517578125,0.0,0.0,0.0,0.0,0.0,0.0,0.023976236314538976,0.0,0.0,0.0,0.0,0.0,0.0,-13.696,0.0,0.0,0.0
115,0.0,0.0,0.0,0.0135517578125,0.0,0.0,0.0,0.0,0.0,0.0,0.024055409438002454,0.0,0.0,0.0,0.0,0.0,0.0,-13.696,0.0,0.0,0.0
116,0.0,0.0,0.0,0.0145625,0.0,0.0,0.0,0.0,0.0,0.0,0.02514565185028245,0.0,0.0,0.0,0.0,0.0,0.0,-13.972,0.0,0.0,0.0
117,0.0,0.0,0.0,0.0145625,0.0,0.0,0.0,0.0,0.0,0.0,0.02521673709481776,0.0,0.0,0.0,0.0,0.0,0.0,-13.972,0.0,0.0,0.0
118,0.0,0.0,0.0,0.0145625,0.0,0.0,0.0,0.0,0.0,0.0,0.025270483426890197,0.0,0.0,0.0,0.0,0.0,0.0,-13.972,0.0,0.0,0.0
119,0.0,0.0,0.0,0.0145625,0.0,0.0,0.0,0.0,0.0,0.0,0.025342713867725873,0.0,0.0,0.0,0.0,0.0,0.0,-13.972,0.0,0.0,0.0
120,0.0,0.0,0.0,0.0157177734375,0.0,0.0,0.0,0.0,0.0,0.0,0.02660448227775683,0.0,0.0,0.0,0.0,0.0,0.0,-13.284,0.0,0.0,0.0
121,0.0,0.0,0.0,0.0170263671875,0.0,0.0,0.0,0.0,0.0,0.0,0.02799253770888791,0.0,0.0,0.0,0.0,0.0,0.0,-13.284,0.0,0.0,0.0
122,0.0,0.0,0.0,0.0170263671875,0.0,0.0,0.0,0.0,0.0,0.0,0.028064359911167312,0.0,0.0,0.0,0.0,0.0,0.0,-13.284,0.0,0.0,0.0
123,0.0,0.0,0.0,0.0181806640625,0.0,0.0,0.0,0.0,0.0,0.0,0.029303262447139756,0.0,0.0,0.0,0.0,0.0,0.0,-13.08,0.0,0.0,0.0
124,0.0,0.0,0.0,0.0181806640625,0.0,0.0,0.0,0.0,0.0,0.0,0.029378711602683686,0.0,0.0,0.0,0.0,0.0,0.0,-13.08,0.0,0.0,0.0
125,0.0,0.0,0.0,0.0199228515625,0.0,0.0,0.0,0.0,0.0,0.0,0.031195014398989335,0.0,0.0,0.0,0.0,0.0,0.0,-12.988,0.0,0.0,0.0
126,0.0,0.0,0.0,0.0199228515625,0.0,0.0,0.0,0.0,0.0,0.0,0.031268155979958856,0.0,0.0,0.0,0.0,0.0,0.0,-12.988,0.0,0.0,0.0
127,0.0,0.0,0.0,0.0199228515625,0.0,0.0,0.0,0.0,0.0,0.0,0.03132804688082256,0.0,0.0,0.0,0.0,0.0,0.0,-12.988,0.0,0.0,0.0
128,0.0,0.0,0.0,0.0215107421875,0.0,0.0,0.0,0.0,0.0,0.0,0.03297002375607107,0.0,0.0,0.0,0.0,0.0,0.0,-14.108,0.0,0.0,0.0
129,0.0,0.0,0.0,0.0215107421875,0.0,0.0,0.0,0.0,0.0,0.0,0.03301927477759869,0.0,0.0,0.0,0.0,0.0,0.0,-14.108,0.0,0.0,0.0
130,0.0,0.0,0.0,0.0215107421875,0.0,0.0,0.0,0.0,0.0,0.0,0.03307856275063688,0.0,0.0,0.0,0.0,0.0,0.0,-14.108,0.0,0.0,0.0
131,0.0,0.0,0.0,0.0223857421875,0.0,0.0,0.0,0.0,0.0,0.0,0.03401377228165041,0.0,0.0,0.0,0.0,0.0,0.0,-13.652,0.0,0.0,0.0
132,0.0,0.0,0.0,0.0223857421875,0.0,0.0,0.0,0.0,0.0,0.0,0.03407074901732962,0.0,0.0,0.0,0.0,0.0,0.0,-13.652,0.0,0.0,0.0
133,0.0,0.0,0.0,0.0223857421875,0.0,0.0,0.0,0.0,0.0,0.0,0.034123315707992194,0.0,0.0,0.0,0.0,0.0,0.0,-13.652,0.0,0.0,0.0
134,0.0,0.0,0.0,0.0241181640625,0.0,0.0,0.0,0.0,0.0,0.0,0.035916094541717056,0.0,0.0,0.0,0.0,0.0,0.0,-13.216,0.0,0.0,0.0
135,0.0,0.0,0.0,0.0241181640625,0.0,0.0,0.0,0.0,0.0,0.0,0.035974580154692334,0.0,0.0,0.0,0.0,0.0,0.0,-13.216,0.0,0.0,0.0
136,0.0,0.0,0.0,0.0257158203125,0.0,0.0,0.0,0.0,0.0,0.0,0.03766699724081149,0.0,0.0,0.0,0.0,0.0,0.0,-13.696,0.0,0.0,0.0
137,0.0,0.0,0.0,0.0257158203125,0.0,0.0,0.0,0.0,0.0,0.0,0.03775268432761897,0.0,0.0,0.0,0.0,0.0,0.0,-13.696,0.0,0.0,0.0
138,0.0,0.0,0.0,0.0270146484375,0.0,0.0,0.0,0.0,0.0,0.0,0.03911628493940002,0.0,0.0,0.0,0.0,0.0,0.0,-12.712,0.0,0.0,0.0
139,0.0,0.0,0.0,0.0270146484375,0.0,0.0,0.0,0.0,0.0,0.0,0.039177052566225,0.0,0.0,0.0,0.0,0.0,0.0,-12.712,0.0,0.0,0.0
140,0.0,0.0,0.0,0.0270146484375,0.0,0.0,0.0,0.0,0.0,0.0,0.03924472525622301,0.0,0.0,0.0,0.0,0.0,0.0,-12.712,0.0,0.0,0.0
141,0.0,0.0,0.0,0.029478515625,0.0,0.0,0.0,0.0,0.0,0.0,0.041772470304696385,0.0,0.0,0.0,0.0,0.0,0.0,-13.584,0.0,0.0,0.0
142,0.0,0.0,0.0,0.029478515625,0.0,0.0,0.0,0.0,0.0,0.0,0.041818732326593465,0.0,0.0,0.0,0.0,0.0,0.0,-13.584,0.0,0.0,0.0
143,0.0,0.0,0.0,0.029478515625,0.0,0.0,0.0,0.0,0.0,0.0,0.04187160552820807,0.0,0.0,0.0,0.0,0.0,0.0,-13.584,0.0,0.0,0.0
144,0.0,0.0,0.0,0.030921875,0.0,0.0,0.0,0.0,0.0,0.0,0.043375074872974026,0.0,0.0,0.0,0.0,0.0,0.0,-14.36,0.0,0.0,0.0
145,0.0,0.0,0.0,0.030921875,0.0,0.0,0.0,0.0,0.0,0.0,0.043432674289041025,0.0,0.0,0.0,0.0,0.0,0.0,-14.36,0.0,0.0,0.0
146,0.0,0.0,0.0,0.032375,0.0,0.0,0.0,0.0,0.0,0.0,0.04497787347347154,0.0,0.0,0.0,0.0,0.0,0.0,-13.56,0.0,0.0,0.0
147,0.0,0.0,0.0,0.032375,0.0,0.0,0.0,0.0,0.0,0.0,0.04504069889774082,0.0,0.0,0.0,0.0,0.0,0.0,-13.56,0.0,0.0,0.0
148,0.0,0.0,0.0,0.032375,0.0,0.0,0.0,0.0,0.0,0.0,0.04509269325444465,0.0,0.0,0.0,0.0,0.0,0.0,-13.56,0.0,0.0,0.0
149,0.0,0.0,0.0,0.03455859375,0.0,0.0,0.0,0.0,0.0,0.0,0.04734059918742817,0.0,0.0,0.0,0.0,0.0,0.0,-14.268,0.0,0.0,0.0
150,0.0,0.0,0.0,0.03455859375,0.0,0.0,0.0,0.0,0.0,0.0,0.047401819041351434,0.0,0.0,0.0,0.0,0.0,0.0,-14.268,0.0,0.0,0.0
151,0.0,0.0,0.0,0.0358583984375,0.0,0.0,0.0,0.0,0.0,0.0,0.048766395334096095,0.0,0.0,0.0,0.0,0.0,0.0,-13.856,0.0,0.0,0.0
152,0.0,0.0,0.0,0.0358583984375,0.0,0.0,0.0,0.0,0.0,0.0,0.04882531437445295,0.0,0.0,0.0,0.0,0.0,0.0,-13.856,0.0,0.0,0.0
153,0.0,0.0,0.0,0.0358583984375,0.0,0.0,0.0,0.0,0.0,0.0,0.048882647304828074,0.0,0.0,0.0,0.0,0.0,0.0,-13.856,0.0,0.0,0.0
154,0.0,0.0,0.0,0.0380322265625,0.0,0.0,0.0,0.0,0.0,0.0,0.05110441963163524,0.0,0.0,0.0,0.0,0.0,0.0,-13.516,0.0,0.0,0.0
155,0.0,0.0,0.0,0.0380322265625,0.0,0.0,0.0,0.0,0.0,0.0,0.051145880561119565,0.0,0.0,0.0,0.0,0.0,0.0,-13.516,0.0,0.0,0.0
156,0.0,0.0,0.0,0.0380322265625,0.0,0.0,0.0,0.0,0.0,0.0,0.05118812616889772,0.0,0.0,0.0,0.0,0.0,0.0,-13.516,0.0,0.0,0.0
157,0.0,0.0,0.0,0.040640625,0.0,0.0,0.0,0.0,0.0,0.0,0.053855359444596705,0.0,0.0,0.0,0.0,0.0,0.0,-14.908,0.0,0.0,0.0
158,0.0,0.0,0.0,0.040640625,0.0,0.0,0.0,0.0,0.0,0.0,0.053910310243580416,0.0,0.0,0.0,0.0,0.0,0.0,-14.908,0.0,0.0,0.0
159,0.0,0.0,0.0,0.040640625,0.0,0.0,0.0,0.0,0.0,0.0,0.05396244418761428,0.0,0.0,0.0,0.0,0.0,0.0,-14.908,0.0,0.0,0.0
160,0.0,0.0,0.0,0.042373046875,0.0,0.0,0.0,0.0,0.0,0.0,0.0557432547368923,0.0,0.0,0.0,0.0,0.0,0.0,-14.544,0.0,0.0,0.0
161,0.0,0.0,0.0,0.042373046875,0.0,0.0,0.0,0.0,0.0,0.0,0.05579437281435135,0.0,0.0,0.0,0.0,0.0,0.0,-14.544,0.0,0.0,0.0
162,0.0,0.0,0.0,0.042373046875,0.0,0.0,0.0,0.0,0.0,0.0,0.05585339151526949,0.0,0.0,0.0,0.0,0.0,0.0,-14.544,0.0,0.0,0.0
163,0.0,0.0,0.0,0.0448359375,0.0,0.0,0.0,0.0,0.0,0.0,0.058386079593206575,0.0,0.0,0.0,0.0,0.0,0.0,-14.428,0.0,0.0,0.0
164,0.0,0.0,0.0,0.0448359375,0.0,0.0,0.0,0.0,0.0,0.0,0.05843159212733025,0.0,0.0,0.0,0.0,0.0,0.0,-14.428,0.0,0.0,0.0
165,0.0,0.0,0.0,0.0448359375,0.0,0.0,0.0,0.0,0.0,0.0,0.05848027144609869,0.0,0.0,0.0,0.0,0.0,0.0,-14.428,0.0,0.0,0.0
166,0.0,0.0,0.0,0.0470107421875,0.0,0.0,0.0,0.0,0.0,0.0,0.060700407085418046,0.0,0.0,0.0,0.0,0.0,0.0,-14.04,0.0,0.0,0.0
167,0.0,0.0,0.0,0.0470107421875,0.0,0.0,0.0,0.0,0.0,0.0,0.0607455918325986,0.0,0.0,0.0,0.0,0.0,0.0,-14.04,0.0,0.0,0.0
168,0.0,0.0,0.0,0.0491767578125,0.0,0.0,0.0,0.0,0.0,0.0,0.06298326206408662,0.0,0.0,0.0,0.0,0.0,0.0,-13.376,0.0,0.0,0.0
169,0.0,0.0,0.0,0.0491767578125,0.0,0.0,0.0,0.0,0.0,0.0,0.06302572786606077,0.0,0.0,0.0,0.0,0.0,0.0,-13.376,0.0,0.0,0.0
170,0.0,0.0,0.0,0.0491767578125,0.0,0.0,0.0,0.0,0.0,0.0,0.06306508028648036,0.0,0.0,0.0,0.0,0.0,0.0,-13.376,0.0,0.0,0.0
171,0.0,0.0,0.0,0.0491767578125,0.0,0.0,0.0,0.0,0.0,0.0,0.06310455450503964,0.0,0.0,0.0,0.0,0.0,0.0,-13.376,0.0,0.0,0.0
172,0.0,0.0,0.0,0.0516396484375,0.0,0.0,0.0,0.0,0.0,0.0,0.06562037475755961,0.0,0.0,0.0,0.0,0.0,0.0,-13.812,0.0,0.0,0.0
173,0.0,0.0,0.0,0.0516396484375,0.0,0.0,0.0,0.0,0.0,0.0,0.06571388951223031,0.0,0.0,0.0,0.0,0.0,0.0,-13.812,0.0,0.0,0.0
174,0.0,0.0,0.0,0.0516396484375,0.0,0.0,0.0,0.0,0.0,0.0,0.06576564517447818,0.0,0.0,0.0,0.0,0.0,0.0,-13.812,0.0,0.0,0.0
175,0.0,0.0,0.0,0.0541123046875,0.0,0.0,0.0,0.0,0.0,0.0,0.06829021855124774,0.0,0.0,0.0,0.0,0.0,0.0,-13.88,0.0,0.0,0.0
176,0.0,0.0,0.0,0.0541123046875,0.0,0.0,0.0,0.0,0.0,0.0,0.06834136506585102,0.0,0.0,0.0,0.0,0.0,0.0,-13.88,0.0,0.0,0.0
177,0.0,0.0,0.0,0.056576171875,0.0,0.0,0.0,0.0,0.0,0.0,0.0708761911220544,0.0,0.0,0.0,0.0,0.0,0.0,-13.628,0.0,0.0,0.0
178,0.0,0.0,0.0,0.056576171875,0.0,0.0,0.0,0.0,0.0,0.0,0.07092215289729172,0.0,0.0,0.0,0.0,0.0,0.0,-13.628,0.0,0.0,0.0
179,0.0,0.0,0.0,0.0588857421875,0.0,0.0,0.0,0.0,0.0,0.0,0.07328203304152064,0.0,0.0,0.0,0.0,0.0,0.0,-13.584,0.0,0.0,0.0
180,0.0,0.0,0.0,0.0588857421875,0.0,0.0,0.0,0.0,0.0,0.0,0.07334141833280576,0.0,0.0,0.0,0.0,0.0,0.0,-13.584,0.0,0.0,0.0
181,0.0,0.0,0.0,0.0588857421875,0.0,0.0,0.0,0.0,0.0,0.0,0.07341354128763475,0.0,0.0,0.0,0.0,0.0,0.0,-13.584,0.0,0.0,0.0
182,0.0,0.0,0.0,0.061205078125,0.0,0.0,0.0,0.0,0.0,0.0,0.07577738253550184,0.0,0.0,0.0,0.0,0.0,0.0,-13.24,0.0,0.0,0.0
183,0.0,0.0,0.0,0.061205078125,0.0,0.0,0.0,0.0,0.0,0.0,0.07583678660066992,0.0,0.0,0.0,0.0,0.0,0.0,-13.24,0.0,0.0,0.0
184,0.0,0.0,0.0,0.0638125,0.0,0.0,0.0,0.0,0.0,0.0,0.07851181018551656,0.0,0.0,0.0,0.0,0.0,0.0,-13.332,0.0,0.0,0.0
185,0.0,0.0,0.0,0.0638125,0.0,0.0,0.0,0.0,0.0,0.0,0.0785839189493016,0.0,0.0,0.0,0.0,0.0,0.0,-13.332,0.0,0.0,0.0
186,0.0,0.0,0.0,0.066275390625,0.0,0.0,0.0,0.0,0.0,0.0,0.08110614656874694,0.0,0.0,0.0,0.0,0.0,0.0,-13.948,0.0,0.0,0.0
187,0.0,0.0,0.0,0.066275390625,0.0,0.0,0.0,0.0,0.0,0.0,0.08116063077521195,0.0,0.0,0.0,0.0,0.0,0.0,-13.948,0.0,0.0,0.0
188,0.0,0.0,0.0,0.066275390625,0.0,0.0,0.0,0.0,0.0,0.0,0.08121885098510005,0.0,0.0,0.0,0.0,0.0,0.0,-13.948,0.0,0.0,0.0
189,0.0,0.0,0.0,0.0687392578125,0.0,0.0,0.0,0.0,0.0,0.0,0.08374813715257752,0.0,0.0,0.0,0.0,0.0,0.0,-13.764,0.0,0.0,0.0
190,0.0,0.0,0.0,0.0687392578125,0.0,0.0,0.0,0.0,0.0,0.0,0.0837934119626924,0.0,0.0,0.0,0.0,0.0,0.0,-13.764,0.0,0.0,0.0
191,0.0,0.0,0.0,0.0714912109375,0.0,0.0,0.0,0.0,0.0,0.0,0.0865999057520599,0.0,0.0,0.0,0.0,0.0,0.0,-14.292,0.0,0.0,0.0
192,0.0,0.0,0.0,0.0714912109375,0.0,0.0,0.0,0.0,0.0,0.0,0.08664259749969089,0.0,0.0,0.0,0.0,0.0,0.0,-14.292,0.0,0.0,0.0
193,0.0,0.0,0.0,0.0714912109375,0.0,0.0,0.0,0.0,0.0,0.0,0.08668167492899903,0.0,0.0,0.0,0.0,0.0,0.0,-14.292,0.0,0.0,0.0
194,0.0,0.0,0.0,0.0736572265625,0.0,0.0,0.0,0.0,0.0,0.0,0.08889406180350419,0.0,0.0,0.0,0.0,0.0,0.0,-13.996,0.0,0.0,0.0
195,0.0,0.0,0.0,0.0736572265625,0.0,0.0,0.0,0.0,0.0,0.0,0.08893400812868966,0.0,0.0,0.0,0.0,0.0,0.0,-13.996,0.0,0.0,0.0
196,0.0,0.0,0.0,0.0736572265625,0.0,0.0,0.0,0.0,0.0,0.0,0.08897435136861205,0.0,0.0,0.0,0.0,0.0,0.0,-13.996,0.0,0.0,0.0
197,0.0,0.0,0.0,0.07641796875,0.0,0.0,0.0,0.0,0.0,0.0,0.09178907048496467,0.0,0.0,0.0,0.0,0.0,0.0,-13.264,0.0,0.0,0.0
198,0.0,0.0,0.0,0.07641796875,0.0,0.0,0.0,0.0,0.0,0.0,0.09183194732389569,0.0,0.0,0.0,0.0,0.0,0.0,-13.264,0.0,0.0,0.0
199,0.0,0.0,0.0,0.07641796875,0.0,0.0,0.0,0.0,0.0,0.0,0.09187817465805889,0.0,0.0,0.0,0.0,0.0,0.0,-13.264,0.0,0.0,0.0
200,0.0,0.0,0.0,0.079314453125,0.0,0.0,0.0,0.0,0.0,0.0,0.0948244528094911,0.0,0.0,0.0,0.0,0.0,0.0,-13.604,0.0,0.0,0.0
201,0.0,0.0,0.0,0.079314453125,0.0,0.0,0.0,0.0,0.0,0.0,0.09486931337355671,0.0,0.0,0.0,0.0,0.0,0.0,-13.604,0.0,0.0,0.0
202,0.0,0.0,0.0,0.079314453125,0.0,0.0,0.0,0.0,0.0,0.0,0.09490883205721219,0.0,0.0,0.0,0.0,0.0,0.0,-13.604,0.0,0.0,0.0
203,0.0,0.0,0.0,0.0819228515625,0.0,0.0,0.0,0.0,0.0,0.0,0.09756352641750748,0.0,0.0,0.0,0.0,0.0,0.0,-13.516,0.0,0.0,0.0
204,0.0,0.0,0.0,0.0819228515625,0.0,0.0,0.0,0.0,0.0,0.0,0.09760771719457945,0.0,0.0,0.0,0.0,0.0,0.0,-13.516,0.0,0.0,0.0
205,0.0,0.0,0.0,0.0819228515625,0.0,0.0,0.0,0.0,0.0,0.0,0.09764625619520491,0.0,0.0,0.0,0.0,0.0,0.0,-13.516,0.0,0.0,0.0
206,0.0,0.0,0.0,0.0848193359375,0.0,0.0,0.0,0.0,0.0,0.0,0.10059162041830053,0.0,0.0,0.0,0.0,0.0,0.0,-13.72,0.0,0.0,0.0
207,0.0,0.0,0.0,0.0848193359375,0.0,0.0,0.0,0.0,0.0,0.0,0.10063787469667065,0.0,0.0,0.0,0.0,0.0,0.0,-13.72,0.0,0.0,0.0
208,0.0,0.0,0.0,0.0874267578125,0.0,0.0,0.0,0.0,0.0,0.0,0.10331035390333264,0.0,0.0,0.0,0.0,0.0,0.0,-13.652,0.0,0.0,0.0
209,0.0,0.0,0.0,0.0874267578125,0.0,0.0,0.0,0.0,0.0,0.0,0.10334408435898837,0.0,0.0,0.0,0.0,0.0,0.0,-13.652,0.0,0.0,0.0
210,0.0,0.0,0.0,0.0874267578125,0.0,0.0,0.0,0.0,0.0,0.0,0.10338010089494643,0.0,0.0,0.0,0.0,0.0,0.0,-13.652,0.0,0.0,0.0
211,0.0,0.0,0.0,0.0900341796875,0.0,0.0,0.0,0.0,0.0,0.0,0.10603088719135215,0.0,0.0,0.0,0.0,0.0,0.0,-13.24,0.0,0.0,0.0
212,0.0,0.0,0.0,0.0900341796875,0.0,0.0,0.0,0.0,0.0,0.0,0.10607261345034788,0.0,0.0,0.0,0.0,0.0,0.0,-13.24,0.0,0.0,0.0
213,0.0,0.0,0.0,0.0900341796875,0.0,0.0,0.0,0.0,0.0,0.0,0.1061129136795897,0.0,0.0,0.0,0.0,0.0,0.0,-13.24,0.0,0.0,0.0
214,0.0,0.0,0.0,0.092787109375,0.0,0.0,0.0,0.0,0.0,0.0,0.10890055825966832,0.0,0.0,0.0,0.0,0.0,0.0,-13.356,0.0,0.0,0.0
215,0.0,0.0,0.0,0.092787109375,0.0,0.0,0.0,0.0,0.0,0.0,0.10893639746437252,0.0,0.0,0.0,0.0,0.0,0.0,-13.356,0.0,0.0,0.0
216,0.0,0.0,0.0,0.092787109375,0.0,0.0,0.0,0.0,0.0,0.0,0.10897624962285689,0.0,0.0,0.0,0.0,0.0,0.0,-13.356,0.0,0.0,0.0
217,0.0,0.0,0.0,0.0958369140625,0.0,0.0,0.0,0.0,0.0,0.0,0.11207935701206725,0.0,0.0,0.0,0.0,0.0,0.0,-13.492,0.0,0.0,0.0
218,0.0,0.0,0.0,0.0958369140625,0.0,0.0,0.0,0.0,0.0,0.0,0.11212042301920856,0.0,0.0,0.0,0.0,0.0,0.0,-13.492,0.0,0.0,0.0
219,0.0,0.0,0.0,0.0958369140625,0.0,0.0,0.0,0.0,0.0,0.0,0.11215876017123638,0.0,0.0,0.0,0.0,0.0,0.0,-13.492,0.0,0.0,0.0
220,0.0,0.0,0.0,0.0987333984375,0.0,0.0,0.0,0.0,0.0,0.0,0.11509120400213738,0.0,0.0,0.0,0.0,0.0,0.0,-14.248,0.0,0.0,0.0
221,0.0,0.0,0.0,0.0987333984375,0.0,0.0,0.0,0.0,0.0,0.0,0.1151337078804566,0.0,0.0,0.0,0.0,0.0,0.0,-14.248,0.0,0.0,0.0
222,0.0,0.0,0.0,0.0987333984375,0.0,0.0,0.0,0.0,0.0,0.0,0.11516968241596708,0.0,0.0,0.0,0.0,0.0,0.0,-14.248,0.0,0.0,0.0
223,0.0,0.0,0.0,0.1014765625,0.0,0.0,0.0,0.0,0.0,0.0,0.11795273105942569,0.0,0.0,0.0,0.0,0.0,0.0,-14.248,0.0,0.0,0.0
224,0.0,0.0,0.0,0.1014765625,0.0,0.0,0.0,0.0,0.0,0.0,0.11798608144367265,0.0,0.0,0.0,0.0,0.0,0.0,-14.248,0.0,0.0,0.0
225,0.0,0.0,0.0,0.1014765625,0.0,0.0,0.0,0.0,0.0,0.0,0.11802457555916926,0.0,0.0,0.0,0.0,0.0,0.0,-14.248,0.0,0.0,0.0
226,0.0,0.0,0.0,0.10465234375,0.0,0.0,0.0,0.0,0.0,0.0,0.12124157696570502,0.0,0.0,0.0,0.0,0.0,0.0,-14.2,0.0,0.0,0.0
227,0.0,0.0,0.0,0.10465234375,0.0,0.0,0.0,0.0,0.0,0.0,0.12128795382801874,0.0,0.0,0.0,0.0,0.0,0.0,-14.2,0.0,0.0,0.0
228,0.0,0.0,0.0,0.10465234375,0.0,0.0,0.0,0.0,0.0,0.0,0.12133383919545723,0.0,0.0,0.0,0.0,0.0,0.0,-14.2,0.0,0.0,0.0
229,0.0,0.0,0.0,0.107693359375,0.0,0.0,0.0,0.0,0.0,0.0,0.12441926715318954,0.0,0.0,0.0,0.0,0.0,0.0,-14.016,0.0,0.0,0.0
230,0.0,0.0,0.0,0.107693359375,0.0,0.0,0.0,0.0,0.0,0.0,0.12446170347396994,0.0,0.0,0.0,0.0,0.0,0.0,-14.016,0.0,0.0,0.0
231,0.0,0.0,0.0,0.1108876953125,0.0,0.0,0.0,0.0,0.0,0.0,0.12771430594088892,0.0,0.0,0.0,0.0,0.0,0.0,-13.628,0.0,0.0,0.0
232,0.0,0.0,0.0,0.1108876953125,0.0,0.0,0.0,0.0,0.0,0.0,0.12775587299042993,0.0,0.0,0.0,0.0,0.0,0.0,-13.628,0.0,0.0,0.0
233,0.0,0.0,0.0,0.1108876953125,0.0,0.0,0.0,0.0,0.0,0.0,0.12778702799336858,0.0,0.0,0.0,0.0,0.0,0.0,-13.628,0.0,0.0,0.0
234,0.0,0.0,0.0,0.1139287109375,0.0,0.0,0.0,0.0,0.0,0.0,0.1308707559092106,0.0,0.0,0.0,0.0,0.0,0.0,-14.016,0.0,0.0,0.0
235,0.0,0.0,0.0,0.1139287109375,0.0,0.0,0.0,0.0,0.0,0.0,0.13091560025342014,0.0,0.0,0.0,0.0,0.0,0.0,-14.016,0.0,0.0,0.0
236,0.0,0.0,0.0,0.117123046875,0.0,0.0,0.0,0.0,0.0,0.0,0.13416521158880815,0.0,0.0,0.0,0.0,0.0,0.0,-13.376,0.0,0.0,0.0
237,0.0,0.0,0.0,0.117123046875,0.0,0.0,0.0,0.0,0.0,0.0,0.13419991637878026,0.0,0.0,0.0,0.0,0.0,0.0,-13.376,0.0,0.0,0.0
238,0.0,0.0,0.0,0.117123046875,0.0,0.0,0.0,0.0,0.0,0.0,0.13423464833417226,0.0,0.0,0.0,0.0,0.0,0.0,-13.376,0.0,0.0,0.0
239,0.0,0.0,0.0,0.1205966796875,0.0,0.0,0.0,0.0,0.0,0.0,0.1377472253728003,0.0,0.0,0.0,0.0,0.0,0.0,-13.124,0.0,0.0,0.0
240,0.0,0.0,0.0,0.1205966796875,0.0,0.0,0.0,0.0,0.0,0.0,0.13778852597683594,0.0,0.0,0.0,0.0,0.0,0.0,-13.124,0.0,0.0,0.0
241,0.0,0.0,0.0,0.1205966796875,0.0,0.0,0.0,0.0,0.0,0.0,0.13784068106797465,0.0,0.0,0.0,0.0,0.0,0.0,-13.124,0.0,0.0,0.0
242,0.0,0.0,0.0,0.1239267578125,0.0,0.0,0.0,0.0,0.0,0.0,0.14121362901461545,0.0,0.0,0.0,0.0,0.0,0.0,-13.08,0.0,0.0,0.0
243,0.0,0.0,0.0,0.1239267578125,0.0,0.0,0.0,0.0,0.0,0.0,0.14127393362098675,0.0,0.0,0.0,0.0,0.0,0.0,-13.08,0.0,0.0,0.0
244,0.0,0.0,0.0,0.127255859375,0.0,0.0,0.0,0.0,0.0,0.0,0.14464104916589812,0.0,0.0,0.0,0.0,0.0,0.0,-13.492,0.0,0.0,0.0
245,0.0,0.0,0.0,0.127255859375,0.0,0.0,0.0,0.0,0.0,0.0,0.14467242919082485,0.0,0.0,0.0,0.0,0.0,0.0,-13.492,0.0,0.0,0.0
246,0.0,0.0,0.0,0.127255859375,0.0,0.0,0.0,0.0,0.0,0.0,0.14470225589740798,0.0,0.0,0.0,0.0,0.0,0.0,-13.492,0.0,0.0,0.0
247,0.0,0.0,0.0,0.13044140625,0.0,0.0,0.0,0.0,0.0,0.0,0.1479200777370697,0.0,0.0,0.0,0.0,0.0,0.0,-14.108,0.0,0.0,0.0
248,0.0,0.0,0.0,0.13044140625,0.0,0.0,0.0,0.0,0.0,0.0,0.14795151393337874,0.0,0.0,0.0,0.0,0.0,0.0,-14.108,0.0,0.0,0.0
249,0.0,0.0,0.0,0.133193359375,0.0,0.0,0.0,0.0,0.0,0.0,0.15076034078673098,0.0,0.0,0.0,0.0,0.0,0.0,-14.156,0.0,0.0,0.0
250,0.0,0.0,0.0,0.133193359375,0.0,0.0,0.0,0.0,0.0,0.0,0.1507953926963884,0.0,0.0,0.0,0.0,0.0,0.0,-14.156,0.0,0.0,0.0
251,0.0,0.0,0.0,0.133193359375,0.0,0.0,0.0,0.0,0.0,0.0,0.15083068067983946,0.0,0.0,0.0,0.0,0.0,0.0,-14.156,0.0,0.0,0.0
252,0.0,0.0,0.0,0.1366767578125,0.0,0.0,0.0,0.0,0.0,0.0,0.15435376492646008,0.0,0.0,0.0,0.0,0.0,0.0,-13.08,0.0,0.0,0.0
253,0.0,0.0,0.0,0.1366767578125,0.0,0.0,0.0,0.0,0.0,0.0,0.15440748550692898,0.0,0.0,0.0,0.0,0.0,0.0,-13.08,0.0,0.0,0.0
254,0.0,0.0,0.0,0.140294921875,0.0,0.0,0.0,0.0,0.0,0.0,0.15807680308307975,0.0,0.0,0.0,0.0,0.0,0.0,-13.24,0.0,0.0,0.0
255,0.0,0.0,0.0,0.140294921875,0.0,0.0,0.0,0.0,0.0,0.0,0.15812417147571226,0.0,0.0,0.0,0.0,0.0,0.0,-13.24,0.0,0.0,0.0
256,0.0,0.0,0.0,0.1437685546875,0.0,0.0,0.0,0.0,0.0,0.0,0.1616319628553972,0.0,0.0,0.0,0.0,0.0,0.0,-13.468,0.0,0.0,0.0
257,0.0,0.0,0.0,0.1437685546875,0.0,0.0,0.0,0.0,0.0,0.0,0.16166186050552644,0.0,0.0,0.0,0.0,0.0,0.0,-13.468,0.0,0.0,0.0
258,0.0,0.0,0.0,0.1437685546875,0.0,0.0,0.0,0.0,0.0,0.0,0.1616943148019381,0.0,0.0,0.0,0.0,0.0,0.0,-13.468,0.0,0.0,0.0
259,0.0,0.0,0.0,0.1470986328125,0.0,0.0,0.0,0.0,0.0,0.0,0.1650539362933024,0.0,0.0,0.0,0.0,0.0,0.0,-14.292,0.0,0.0,0.0
260,0.0,0.0,0.0,0.1470986328125,0.0,0.0,0.0,0.0,0.0,0.0,0.16509125889822662,0.0,0.0,0.0,0.0,0.0,0.0,-14.292,0.0,0.0,0.0
261,0.0,0.0,0.0,0.1470986328125,0.0,0.0,0.0,0.0,0.0,0.0,0.1651387866007179,0.0,0.0,0.0,0.0,0.0,0.0,-14.292,0.0,0.0,0.0
262,0.0,0.0,0.0,0.15058203125,0.0,0.0,0.0,0.0,0.0,0.0,0.1686722557189822,0.0,0.0,0.0,0.0,0.0,0.0,-13.652,0.0,0.0,0.0
263,0.0,0.0,0.0,0.1542001953125,0.0,0.0,0.0,0.0,0.0,0.0,0.17233936209763695,0.0,0.0,0.0,0.0,0.0,0.0,-13.492,0.0,0.0,0.0
264,0.0,0.0,0.0,0.1542001953125,0.0,0.0,0.0,0.0,0.0,0.0,0.17238232995002858,0.0,0.0,0.0,0.0,0.0,0.0,-13.492,0.0,0.0,0.0
265,0.0,0.0,0.0,0.15739453125,0.0,0.0,0.0,0.0,0.0,0.0,0.17561228161245204,0.0,0.0,0.0,0.0,0.0,0.0,-13.628,0.0,0.0,0.0
266,0.0,0.0,0.0,0.15739453125,0.0,0.0,0.0,0.0,0.0,0.0,0.17566005657814454,0.0,0.0,0.0,0.0,0.0,0.0,-13.628,0.0,0.0,0.0
267,0.0,0.0,0.0,0.160580078125,0.0,0.0,0.0,0.0,0.0,0.0,0.17889679392254823,0.0,0.0,0.0,0.0,0.0,0.0,-14.292,0.0,0.0,0.0
268,0.0,0.0,0.0,0.160580078125,0.0,0.0,0.0,0.0,0.0,0.0,0.17893066048839829,0.0,0.0,0.0,0.0,0.0,0.0,-14.292,0.0,0.0,0.0
269,0.0,0.0,0.0,0.1643427734375,0.0,0.0,0.0,0.0,0.0,0.0,0.18273808265304448,0.0,0.0,0.0,0.0,0.0,0.0,-14.544,0.0,0.0,0.0
270,0.0,0.0,0.0,0.1643427734375,0.0,0.0,0.0,0.0,0.0,0.0,0.18277303319965071,0.0,0.0,0.0,0.0,0.0,0.0,-14.544,0.0,0.0,0.0
271,0.0,0.0,0.0,0.167671875,0.0,0.0,0.0,0.0,0.0,0.0,0.18614979169312512,0.0,0.0,0.0,0.0,0.0,0.0,-15.184,0.0,0.0,0.0
272,0.0,0.0,0.0,0.167671875,0.0,0.0,0.0,0.0,0.0,0.0,0.18618047249392866,0.0,0.0,0.0,0.0,0.0,0.0,-15.184,0.0,0.0,0.0
273,0.0,0.0,0.0,0.170712890625,0.0,0.0,0.0,0.0,0.0,0.0,0.18925145060252777,0.0,0.0,0.0,0.0,0.0,0.0,-13.628,0.0,0.0,0.0
274,0.0,0.0,0.0,0.170712890625,0.0,0.0,0.0,0.0,0.0,0.0,0.18929024565601044,0.0,0.0,0.0,0.0,0.0,0.0,-13.628,0.0,0.0,0.0
275,0.0,0.0,0.0,0.1750625,0.0,0.0,0.0,0.0,0.0,0.0,0.19367084629251197,0.0,0.0,0.0,0.0,0.0,0.0,-13.332,0.0,0.0,0.0
276,0.0,0.0,0.0,0.1750625,0.0,0.0,0.0,0.0,0.0,0.0,0.19369534602118943,0.0,0.0,0.0,0.0,0.0,0.0,-13.332,0.0,0.0,0.0
277,0.0,0.0,0.0,0.1750625,0.0,0.0,0.0,0.0,0.0,0.0,0.1937245895940562,0.0,0.0,0.0,0.0,0.0,0.0,-13.332,0.0,0.0,0.0
278,0.0,0.0,0.0,0.178689453125,0.0,0.0,0.0,0.0,0.0,0.0,0.1973817203042389,0.0,0.0,0.0,0.0,0.0,0.0,-13.764,0.0,0.0,0.0
279,0.0,0.0,0.0,0.178689453125,0.0,0.0,0.0,0.0,0.0,0.0,0.19740800765535993,0.0,0.0,0.0,0.0,0.0,0.0,-13.764,0.0,0.0,0.0
280,0.0,0.0,0.0,0.178689453125,0.0,0.0,0.0,0.0,0.0,0.0,0.1974287786484704,0.0,0.0,0.0,0.0,0.0,0.0,-13.764,0.0,0.0,0.0
281,0.0,0.0,0.0,0.1824521484375,0.0,0.0,0.0,0.0,0.0,0.0,0.20121295142106635,0.0,0.0,0.0,0.0,0.0,0.0,-13.284,0.0,0.0,0.0
282,0.0,0.0,0.0,0.1824521484375,0.0,0.0,0.0,0.0,0.0,0.0,0.2012466242002667,0.0,0.0,0.0,0.0,0.0,0.0,-13.284,0.0,0.0,0.0
283,0.0,0.0,0.0,0.18650390625,0.0,0.0,0.0,0.0,0.0,0.0,0.20532983347637138,0.0,0.0,0.0,0.0,0.0,0.0,-13.56,0.0,0.0,0.0
284,0.0,0.0,0.0,0.18650390625,0.0,0.0,0.0,0.0,0.0,0.0,0.2053501232745922,0.0,0.0,0.0,0.0,0.0,0.0,-13.56,0.0,0.0,0.0
285,0.0,0.0,0.0,0.18650390625,0.0,0.0,0.0,0.0,0.0,0.0,0.20538747374139443,0.0,0.0,0.0,0.0,0.0,0.0,-13.56,0.0,0.0,0.0
286,0.0,0.0,0.0,0.1899775390625,0.0,0.0,0.0,0.0,0.0,0.0,0.20889984689915375,0.0,0.0,0.0,0.0,0.0,0.0,-13.24,0.0,0.0,0.0
287,0.0,0.0,0.0,0.1934609375,0.0,0.0,0.0,0.0,0.0,0.0,0.21241564802410623,0.0,0.0,0.0,0.0,0.0,0.0,-12.12,0.0,0.0,0.0
288,0.0,0.0,0.0,0.1934609375,0.0,0.0,0.0,0.0,0.0,0.0,0.21243708929856858,0.0,0.0,0.0,0.0,0.0,0.0,-12.12,0.0,0.0,0.0
289,0.0,0.0,0.0,0.1934609375,0.0,0.0,0.0,0.0,0.0,0.0,0.2124579045215235,0.0,0.0,0.0,0.0,0.0,0.0,-12.12,0.0,0.0,0.0
290,0.0,0.0,0.0,0.197666015625,0.0,0.0,0.0,0.0,0.0,0.0,0.2167041682971396,0.0,0.0,0.0,0.0,0.0,0.0,-12.76,0.0,0.0,0.0
291,0.0,0.0,0.0,0.197666015625,0.0,0.0,0.0,0.0,0.0,0.0,0.21672407329282384,0.0,0.0,0.0,0.0,0.0,0.0,-12.76,0.0,0.0,0.0
292,0.0,0.0,0.0,0.197666015625,0.0,0.0,0.0,0.0,0.0,0.0,0.21674344961489997,0.0,0.0,0.0,0.0,0.0,0.0,-12.76,0.0,0.0,0.0
293,0.0,0.0,0.0,0.2011396484375,0.0,0.0,0.0,0.0,0.0,0.0,0.2202437920087984,0.0,0.0,0.0,0.0,0.0,0.0,-13.104,0.0,0.0,0.0
294,0.0,0.0,0.0,0.2011396484375,0.0,0.0,0.0,0.0,0.0,0.0,0.2202730208057002,0.0,0.0,0.0,0.0,0.0,0.0,-13.104,0.0,0.0,0.0
295,0.0,0.0,0.0,0.205046875,0.0,0.0,0.0,0.0,0.0,0.0,0.2242055385105819,0.0,0.0,0.0,0.0,0.0,0.0,-12.76,0.0,0.0,0.0
296,0.0,0.0,0.0,0.205046875,0.0,0.0,0.0,0.0,0.0,0.0,0.224230328452658,0.0,0.0,0.0,0.0,0.0,0.0,-12.76,0.0,0.0,0.0
297,0.0,0.0,0.0,0.208521484375,0.0,0.0,0.0,0.0,0.0,0.0,0.22773031189709547,0.0,0.0,0.0,0.0,0.0,0.0,-13.836,0.0,0.0,0.0
298,0.0,0.0,0.0,0.208521484375,0.0,0.0,0.0,0.0,0.0,0.0,0.22775709081084095,0.0,0.0,0.0,0.0,0.0,0.0,-13.836,0.0,0.0,0.0
299,0.0,0.0,0.0,0.208521484375,0.0,0.0,0.0,0.0,0.0,0.0,0.2277831084544092,0.0,0.0,0.0,0.0,0.0,0.0,-13.836,0.0,0.0,0.0
300,0.0,0.0,0.0,0.2115615234375,0.0,0.0,0.0,0.0,0.0,0.0,0.23084718632264167,0.0,0.0,0.0,0.0,0.0,0.0,-12.828,0.0,0.0,0.0
301,0.0,0.0,0.0,0.2115615234375,0.0,0.0,0.0,0.0,0.0,0.0,0.23086631718331924,0.0,0.0,0.0,0.0,0.0,0.0,-12.828,0.0,0.0,0.0
302,0.0,0.0,0.0,0.2157763671875,0.0,0.0,0.0,0.0,0.0,0.0,0.23510829137570952,0.0,0.0,0.0,0.0,0.0,0.0,-13.284,0.0,0.0,0.0
303,0.0,0.0,0.0,0.2157763671875,0.0,0.0,0.0,0.0,0.0,0.0,0.23512427355922516,0.0,0.0,0.0,0.0,0.0,0.0,-13.284,0.0,0.0,0.0
304,0.0,0.0,0.0,0.2195390625,0.0,0.0,0.0,0.0,0.0,0.0,0.23890469680673043,0.0,0.0,0.0,0.0,0.0,0.0,-14.084,0.0,0.0,0.0
305,0.0,0.0,0.0,0.2195390625,0.0,0.0,0.0,0.0,0.0,0.0,0.2389252834049596,0.0,0.0,0.0,0.0,0.0,0.0,-14.084,0.0,0.0,0.0
306,0.0,0.0,0.0,0.2195390625,0.0,0.0,0.0,0.0,0.0,0.0,0.23895010087968926,0.0,0.0,0.0,0.0,0.0,0.0,-14.084,0.0,0.0,0.0
307,0.0,0.0,0.0,0.2233017578125,0.0,0.0,0.0,0.0,0.0,0.0,0.24273706966012548,0.0,0.0,0.0,0.0,0.0,0.0,-14.748,0.0,0.0,0.0
308,0.0,0.0,0.0,0.2233017578125,0.0,0.0,0.0,0.0,0.0,0.0,0.24275774538486,0.0,0.0,0.0,0.0,0.0,0.0,-14.748,0.0,0.0,0.0
309,0.0,0.0,0.0,0.2273623046875,0.0,0.0,0.0,0.0,0.0,0.0,0.24684123698620708,0.0,0.0,0.0,0.0,0.0,0.0,-15.068,0.0,0.0,0.0
310,0.0,0.0,0.0,0.2273623046875,0.0,0.0,0.0,0.0,0.0,0.0,0.24686395393721627,0.0,0.0,0.0,0.0,0.0,0.0,-15.068,0.0,0.0,0.0
311,0.0,0.0,0.0,0.2317021484375,0.0,0.0,0.0,0.0,0.0,0.0,0.2512275841844601,0.0,0.0,0.0,0.0,0.0,0.0,-14.224,0.0,0.0,0.0
312,0.0,0.0,0.0,0.2317021484375,0.0,0.0,0.0,0.0,0.0,0.0,0.2512488949499848,0.0,0.0,0.0,0.0,0.0,0.0,-14.224,0.0,0.0,0.0
313,0.0,0.0,0.0,0.2317021484375,0.0,0.0,0.0,0.0,0.0,0.0,0.2512695684018196,0.0,0.0,0.0,0.0,0.0,0.0,-14.224,0.0,0.0,0.0
314,0.0,0.0,0.0,0.2354736328125,0.0,0.0,0.0,0.0,0.0,0.0,0.2550595838331621,0.0,0.0,0.0,0.0,0.0,0.0,-13.536,0.0,0.0,0.0
315,0.0,0.0,0.0,0.2386591796875,0.0,0.0,0.0,0.0,0.0,0.0,0.2582647908146062,0.0,0.0,0.0,0.0,0.0,0.0,-13.652,0.0,0.0,0.0
316,0.0,0.0,0.0,0.2386591796875,0.0,0.0,0.0,0.0,0.0,0.0,0.25828417507063606,0.0,0.0,0.0,0.0,0.0,0.0,-13.652,0.0,0.0,0.0
317,0.0,0.0,0.0,0.2418447265625,0.0,0.0,0.0,0.0,0.0,0.0,0.2615018423463526,0.0,0.0,0.0,0.0,0.0,0.0,-13.88,0.0,0.0,0.0
318,0.0,0.0,0.0,0.2418447265625,0.0,0.0,0.0,0.0,0.0,0.0,0.2615189728920747,0.0,0.0,0.0,0.0,0.0,0.0,-13.88,0.0,0.0,0.0
319,0.0,0.0,0.0,0.245318359375,0.0,0.0,0.0,0.0,0.0,0.0,0.26501731449382415,0.0,0.0,0.0,0.0,0.0,0.0,-13.24,0.0,0.0,0.0
320,0.0,0.0,0.0,0.2490908203125,0.0,0.0,0.0,0.0,0.0,0.0,0.2688041399434965,0.0,0.0,0.0,0.0,0.0,0.0,-12.348,0.0,0.0,0.0
321,0.0,0.0,0.0,0.2490908203125,0.0,0.0,0.0,0.0,0.0,0.0,0.2688161439757159,0.0,0.0,0.0,0.0,0.0,0.0,-12.348,0.0,0.0,0.0
322,0.0,0.0,0.0,0.2490908203125,0.0,0.0,0.0,0.0,0.0,0.0,0.2688277399494749,0.0,0.0,0.0,0.0,0.0,0.0,-12.348,0.0,0.0,0.0
323,0.0,0.0,0.0,0.252853515625,0.0,0.0,0.0,0.0,0.0,0.0,0.27260784964154106,0.0,0.0,0.0,0.0,0.0,0.0,-12.576,0.0,0.0,0.0
324,0.0,0.0,0.0,0.252853515625,0.0,0.0,0.0,0.0,0.0,0.0,0.27261898264950934,0.0,0.0,0.0,0.0,0.0,0.0,-12.576,0.0,0.0,0.0
325,0.0,0.0,0.0,0.256625,0.0,0.0,0.0,0.0,0.0,0.0,0.27640117211279686,0.0,0.0,0.0,0.0,0.0,0.0,-13.376,0.0,0.0,0.0
326,0.0,0.0,0.0,0.256625,0.0,0.0,0.0,0.0,0.0,0.0,0.27641169356582007,0.0,0.0,0.0,0.0,0.0,0.0,-13.376,0.0,0.0,0.0
327,0.0,0.0,0.0,0.256625,0.0,0.0,0.0,0.0,0.0,0.0,0.2764261135058417,0.0,0.0,0.0,0.0,0.0,0.0,-13.376,0.0,0.0,0.0
328,0.0,0.0,0.0,0.2608203125,0.0,0.0,0.0,0.0,0.0,0.0,0.2806320765079262,0.0,0.0,0.0,0.0,0.0,0.0,-13.104,0.0,0.0,0.0
329,0.0,0.0,0.0,0.2608203125,0.0,0.0,0.0,0.0,0.0,0.0,0.28064084836242126,0.0,0.0,0.0,0.0,0.0,0.0,-13.104,0.0,0.0,0.0
330,0.0,0.0,0.0,0.2608203125,0.0,0.0,0.0,0.0,0.0,0.0,0.28065062073734176,0.0,0.0,0.0,0.0,0.0,0.0,-13.104,0.0,0.0,0.0
331,0.0,0.0,0.0,0.264880859375,0.0,0.0,0.0,0.0,0.0,0.0,0.284721474732785,0.0,0.0,0.0,0.0,0.0,0.0,-12.712,0.0,0.0,0.0
332,0.0,0.0,0.0,0.264880859375,0.0,0.0,0.0,0.0,0.0,0.0,0.28473098570900385,0.0,0.0,0.0,0.0,0.0,0.0,-12.712,0.0,0.0,0.0
333,0.0,0.0,0.0,0.26864453125,0.0,0.0,0.0,0.0,0.0,0.0,0.28850610235945706,0.0,0.0,0.0,0.0,0.0,0.0,-11.572,0.0,0.0,0.0
334,0.0,0.0,0.0,0.26864453125,0.0,0.0,0.0,0.0,0.0,0.0,0.28851603623956973,0.0,0.0,0.0,0.0,0.0,0.0,-11.572,0.0,0.0,0.0
335,0.0,0.0,0.0,0.27255078125,0.0,0.0,0.0,0.0,0.0,0.0,0.2924374650527882,0.0,0.0,0.0,0.0,0.0,0.0,-12.484,0.0,0.0,0.0
336,0.0,0.0,0.0,0.27255078125,0.0,0.0,0.0,0.0,0.0,0.0,0.29244514701983193,0.0,0.0,0.0,0.0,0.0,0.0,-12.484,0.0,0.0,0.0
337,0.0,0.0,0.0,0.2764765625,0.0,0.0,0.0,0.0,0.0,0.0,0.2963796227427515,0.0,0.0,0.0,0.0,0.0,0.0,-12.92,0.0,0.0,0.0
338,0.0,0.0,0.0,0.2764765625,0.0,0.0,0.0,0.0,0.0,0.0,0.29638528363967276,0.0,0.0,0.0,0.0,0.0,0.0,-12.92,0.0,0.0,0.0
339,0.0,0.0,0.0,0.2764765625,0.0,0.0,0.0,0.0,0.0,0.0,0.2963918999607172,0.0,0.0,0.0,0.0,0.0,0.0,-12.92,0.0,0.0,0.0
340,0.0,0.0,0.0,0.280671875,0.0,0.0,0.0,0.0,0.0,0.0,0.30059600634315875,0.0,0.0,0.0,0.0,0.0,0.0,-13.56,0.0,0.0,0.0
341,0.0,0.0,0.0,0.280671875,0.0,0.0,0.0,0.0,0.0,0.0,0.30060162022583437,0.0,0.0,0.0,0.0,0.0,0.0,-13.56,0.0,0.0,0.0
342,0.0,0.0,0.0,0.280671875,0.0,0.0,0.0,0.0,0.0,0.0,0.3006084241403426,0.0,0.0,0.0,0.0,0.0,0.0,-13.56,0.0,0.0,0.0
343,0.0,0.0,0.0,0.2845791015625,0.0,0.0,0.0,0.0,0.0,0.0,0.3045215342336758,0.0,0.0,0.0,0.0,0.0,0.0,-13.424,0.0,0.0,0.0
344,0.0,0.0,0.0,0.2845791015625,0.0,0.0,0.0,0.0,0.0,0.0,0.30452677678885726,0.0,0.0,0.0,0.0,0.0,0.0,-13.424,0.0,0.0,0.0
345,0.0,0.0,0.0,0.2890732421875,0.0,0.0,0.0,0.0,0.0,0.0,0.3090272283038759,0.0,0.0,0.0,0.0,0.0,0.0,-13.356,0.0,0.0,0.0
346,0.0,0.0,0.0,0.2890732421875,0.0,0.0,0.0,0.0,0.0,0.0,0.30903325369851165,0.0,0.0,0.0,0.0,0.0,0.0,-13.356,0.0,0.0,0.0
347,0.0,0.0,0.0,0.2890732421875,0.0,0.0,0.0,0.0,0.0,0.0,0.3090368653645817,0.0,0.0,0.0,0.0,0.0,0.0,-13.356,0.0,0.0,0.0
348,0.0,0.0,0.0,0.2934228515625,0.0,0.0,0.0,0.0,0.0,0.0,0.313391113238533,0.0,0.0,0.0,0.0,0.0,0.0,-14.084,0.0,0.0,0.0
349,0.0,0.0,0.0,0.2934228515625,0.0,0.0,0.0,0.0,0.0,0.0,0.31339523607123915,0.0,0.0,0.0,0.0,0.0,0.0,-14.084,0.0,0.0,0.0
350,0.0,0.0,0.0,0.2934228515625,0.0,0.0,0.0,0.0,0.0,0.0,0.3133989820977893,0.0,0.0,0.0,0.0,0.0,0.0,-14.084,0.0,0.0,0.0
351,0.0,0.0,0.0,0.297185546875,0.0,0.0,0.0,0.0,0.0,0.0,0.31716487079274225,0.0,0.0,0.0,0.0,0.0,0.0,-13.972,0.0,0.0,0.0
352,0.0,0.0,0.0,0.297185546875,0.0,0.0,0.0,0.0,0.0,0.0,0.3171676937732596,0.0,0.0,0.0,0.0,0.0,0.0,-13.972,0.0,0.0,0.0
353,0.0,0.0,0.0,0.3013896484375,0.0,0.0,0.0,0.0,0.0,0.0,0.3213761762185432,0.0,0.0,0.0,0.0,0.0,0.0,-12.624,0.0,0.0,0.0
354,0.0,0.0,0.0,0.3013896484375,0.0,0.0,0.0,0.0,0.0,0.0,0.32137843582960796,0.0,0.0,0.0,0.0,0.0,0.0,-12.624,0.0,0.0,0.0
355,0.0,0.0,0.0,0.3013896484375,0.0,0.0,0.0,0.0,0.0,0.0,0.3213804339381766,0.0,0.0,0.0,0.0,0.0,0.0,-12.624,0.0,0.0,0.0
356,0.0,0.0,0.0,0.3013896484375,0.0,0.0,0.0,0.0,0.0,0.0,0.32138239559332366,0.0,0.0,0.0,0.0,0.0,0.0,-12.624,0.0,0.0,0.0
357,0.0,0.0,0.0,0.305875,0.0,0.0,0.0,0.0,0.0,0.0,0.3258696836032557,0.0,0.0,0.0,0.0,0.0,0.0,-12.256,0.0,0.0,0.0
358,0.0,0.0,0.0,0.305875,0.0,0.0,0.0,0.0,0.0,0.0,0.3258717896116568,0.0,0.0,0.0,0.0,0.0,0.0,-12.256,0.0,0.0,0.0
359,0.0,0.0,0.0,0.30992578125,0.0,0.0,0.0,0.0,0.0,0.0,0.3299236188095475,0.0,0.0,0.0,0.0,0.0,0.0,-12.052,0.0,0.0,0.0
360,0.0,0.0,0.0,0.30992578125,0.0,0.0,0.0,0.0,0.0,0.0,0.32992444403906646,0.0,0.0,0.0,0.0,0.0,0.0,-12.052,0.0,0.0,0.0
361,0.0,0.0,0.0,0.30992578125,0.0,0.0,0.0,0.0,0.0,0.0,0.32992541008114223,0.0,0.0,0.0,0.0,0.0,0.0,-12.052,0.0,0.0,0.0
362,0.0,0.0,0.0,0.314140625,0.0,0.0,0.0,0.0,0.0,0.0,0.33414057665939545,0.0,0.0,0.0,0.0,0.0,0.0,-12.624,0.0,0.0,0.0
363,0.0,0.0,0.0,0.314140625,0.0,0.0,0.0,0.0,0.0,0.0,0.3341406012001973,0.0,0.0,0.0,0.0,0.0,0.0,-12.624,0.0,0.0,0.0
364,0.0,0.0,0.0,0.3183359375,0.0,0.0,0.0,0.0,0.0,0.0,0.33833563085960505,0.0,0.0,0.0,0.0,0.0,0.0,-13.424,0.0,0.0,0.0
365,0.0,0.0,0.0,0.3183359375,0.0,0.0,0.0,0.0,0.0,0.0,0.3383349703195108,0.0,0.0,0.0,0.0,0.0,0.0,-13.424,0.0,0.0,0.0
366,0.0,0.0,0.0,0.3226767578125,0.0,0.0,0.0,0.0,0.0,0.0,0.3426745906513228,0.0,0.0,0.0,0.0,0.0,0.0,-13.284,0.0,0.0,0.0
367,0.0,0.0,0.0,0.3226767578125,0.0,0.0,0.0,0.0,0.0,0.0,0.342673038001458,0.0,0.0,0.0,0.0,0.0,0.0,-13.284,0.0,0.0,0.0
368,0.0,0.0,0.0,0.3226767578125,0.0,0.0,0.0,0.0,0.0,0.0,0.3426712733125854,0.0,0.0,0.0,0.0,0.0,0.0,-13.284,0.0,0.0,0.0
369,0.0,0.0,0.0,0.3267373046875,0.0,0.0,0.0,0.0,0.0,0.0,0.34672952404240986,0.0,0.0,0.0,0.0,0.0,0.0,-13.308,0.0,0.0,0.0
370,0.0,0.0,0.0,0.3267373046875,0.0,0.0,0.0,0.0,0.0,0.0,0.346726459245885,0.0,0.0,0.0,0.0,0.0,0.0,-13.308,0.0,0.0,0.0
371,0.0,0.0,0.0,0.3307880859375,0.0,0.0,0.0,0.0,0.0,0.0,0.3507737447508194,0.0,0.0,0.0,0.0,0.0,0.0,-11.548,0.0,0.0,0.0
372,0.0,0.0,0.0,0.3307880859375,0.0,0.0,0.0,0.0,0.0,0.0,0.3507701530715023,0.0,0.0,0.0,0.0,0.0,0.0,-11.548,0.0,0.0,0.0
373,0.0,0.0,0.0,0.335724609375,0.0,0.0,0.0,0.0,0.0,0.0,0.3557024620953247,0.0,0.0,0.0,0.0,0.0,0.0,-12.896,0.0,0.0,0.0
374,0.0,0.0,0.0,0.335724609375,0.0,0.0,0.0,0.0,0.0,0.0,0.35569786728181807,0.0,0.0,0.0,0.0,0.0,0.0,-12.896,0.0,0.0,0.0
375,0.0,0.0,0.0,0.3390537109375,0.0,0.0,0.0,0.0,0.0,0.0,0.3590221997843529,0.0,0.0,0.0,0.0,0.0,0.0,-13.764,0.0,0.0,0.0
376,0.0,0.0,0.0,0.3390537109375,0.0,0.0,0.0,0.0,0.0,0.0,0.35901720165371187,0.0,0.0,0.0,0.0,0.0,0.0,-13.764,0.0,0.0,0.0
377,0.0,0.0,0.0,0.3390537109375,0.0,0.0,0.0,0.0,0.0,0.0,0.35901113152504066,0.0,0.0,0.0,0.0,0.0,0.0,-13.764,0.0,0.0,0.0
378,0.0,0.0,0.0,0.34325,0.0,0.0,0.0,0.0,0.0,0.0,0.3632013048459301,0.0,0.0,0.0,0.0,0.0,0.0,-13.356,0.0,0.0,0.0
379,0.0,0.0,0.0,0.34325,0.0,0.0,0.0,0.0,0.0,0.0,0.36319539020586367,0.0,0.0,0.0,0.0,0.0,0.0,-13.356,0.0,0.0,0.0
380,0.0,0.0,0.0,0.347734375,0.0,0.0,0.0,0.0,0.0,0.0,0.36767266541470156,0.0,0.0,0.0,0.0,0.0,0.0,-13.904,0.0,0.0,0.0
381,0.0,0.0,0.0,0.347734375,0.0,0.0,0.0,0.0,0.0,0.0,0.3676652691727037,0.0,0.0,0.0,0.0,0.0,0.0,-13.904,0.0,0.0,0.0
382,0.0,0.0,0.0,0.3519482421875,0.0,0.0,0.0,0.0,0.0,0.0,0.3718716865119984,0.0,0.0,0.0,0.0,0.0,0.0,-13.308,0.0,0.0,0.0
383,0.0,0.0,0.0,0.3519482421875,0.0,0.0,0.0,0.0,0.0,0.0,0.371863606529531,0.0,0.0,0.0,0.0,0.0,0.0,-13.308,0.0,0.0,0.0
384,0.0,0.0,0.0,0.3519482421875,0.0,0.0,0.0,0.0,0.0,0.0,0.37185518978929066,0.0,0.0,0.0,0.0,0.0,0.0,-13.308,0.0,0.0,0.0
385,0.0,0.0,0.0,0.3519482421875,0.0,0.0,0.0,0.0,0.0,0.0,0.37184578073155017,0.0,0.0,0.0,0.0,0.0,0.0,-13.308,0.0,0.0,0.0
386,0.0,0.0,0.0,0.3564326171875,0.0,0.0,0.0,0.0,0.0,0.0,0.37632034103317497,0.0,0.0,0.0,0.0,0.0,0.0,-13.332,0.0,0.0,0.0
387,0.0,0.0,0.0,0.3610712890625,0.0,0.0,0.0,0.0,0.0,0.0,0.3809482534362862,0.0,0.0,0.0,0.0,0.0,0.0,-12.372,0.0,0.0,0.0
388,0.0,0.0,0.0,0.3610712890625,0.0,0.0,0.0,0.0,0.0,0.0,0.3809377532692443,0.0,0.0,0.0,0.0,0.0,0.0,-12.372,0.0,0.0,0.0
389,0.0,0.0,0.0,0.3658447265625,0.0,0.0,0.0,0.0,0.0,0.0,0.38569957910875274,0.0,0.0,0.0,0.0,0.0,0.0,-13.24,0.0,0.0,0.0
390,0.0,0.0,0.0,0.3658447265625,0.0,0.0,0.0,0.0,0.0,0.0,0.385689439289741,0.0,0.0,0.0,0.0,0.0,0.0,-13.24,0.0,0.0,0.0
391,0.0,0.0,0.0,0.3685966796875,0.0,0.0,0.0,0.0,0.0,0.0,0.3884303008336623,0.0,0.0,0.0,0.0,0.0,0.0,-13.744,0.0,0.0,0.0
392,0.0,0.0,0.0,0.3685966796875,0.0,0.0,0.0,0.0,0.0,0.0,0.3884183239345641,0.0,0.0,0.0,0.0,0.0,0.0,-13.744,0.0,0.0,0.0
393,0.0,0.0,0.0,0.371791015625,0.0,0.0,0.0,0.0,0.0,0.0,0.3915993881135233,0.0,0.0,0.0,0.0,0.0,0.0,-12.576,0.0,0.0,0.0
394,0.0,0.0,0.0,0.371791015625,0.0,0.0,0.0,0.0,0.0,0.0,0.3915875828070807,0.0,0.0,0.0,0.0,0.0,0.0,-12.576,0.0,0.0,0.0
395,0.0,0.0,0.0,0.371791015625,0.0,0.0,0.0,0.0,0.0,0.0,0.39157871404683675,0.0,0.0,0.0,0.0,0.0,0.0,-12.576,0.0,0.0,0.0
396,0.0,0.0,0.0,0.3756982421875,0.0,0.0,0.0,0.0,0.0,0.0,0.39547356699047,0.0,0.0,0.0,0.0,0.0,0.0,-12.14,0.0,0.0,0.0
397,0.0,0.0,0.0,0.3756982421875,0.0,0.0,0.0,0.0,0.0,0.0,0.3954610665146847,0.0,0.0,0.0,0.0,0.0,0.0,-12.14,0.0,0.0,0.0
398,0.0,0.0,0.0,0.3756982421875,0.0,0.0,0.0,0.0,0.0,0.0,0.395451656543633,0.0,0.0,0.0,0.0,0.0,0.0,-12.14,0.0,0.0,0.0
399,0.0,0.0,0.0,0.380046875,0.0,0.0,0.0,0.0,0.0,0.0,0.3997903364755363,0.0,0.0,0.0,0.0,0.0,0.0,-11.5,0.0,0.0,0.0
400,0.0,0.0,0.0,0.380046875,0.0,0.0,0.0,0.0,0.0,0.0,0.3997769486599398,0.0,0.0,0.0,0.0,0.0,0.0,-11.5,0.0,0.0,0.0
401,0.0,0.0,0.0,0.38467578125,0.0,0.0,0.0,0.0,0.0,0.0,0.404385215103645,0.0,0.0,0.0,0.0,0.0,0.0,-12.508,0.0,0.0,0.0
402,0.0,0.0,0.0,0.38467578125,0.0,0.0,0.0,0.0,0.0,0.0,0.4043751540243452,0.0,0.0,0.0,0.0,0.0,0.0,-12.508,0.0,0.0,0.0
403,0.0,0.0,0.0,0.38467578125,0.0,0.0,0.0,0.0,0.0,0.0,0.40436494888079283,0.0,0.0,0.0,0.0,0.0,0.0,-12.508,0.0,0.0,0.0
404,0.0,0.0,0.0,0.3887275390625,0.0,0.0,0.0,0.0,0.0,0.0,0.40840503764258457,0.0,0.0,0.0,0.0,0.0,0.0,-13.536,0.0,0.0,0.0
405,0.0,0.0,0.0,0.3887275390625,0.0,0.0,0.0,0.0,0.0,0.0,0.40838996702369845,0.0,0.0,0.0,0.0,0.0,0.0,-13.536,0.0,0.0,0.0
406,0.0,0.0,0.0,0.3887275390625,0.0,0.0,0.0,0.0,0.0,0.0,0.40837200200386736,0.0,0.0,0.0,0.0,0.0,0.0,-13.536,0.0,0.0,0.0
407,0.0,0.0,0.0,0.3925087890625,0.0,0.0,0.0,0.0,0.0,0.0,0.4121396698924814,0.0,0.0,0.0,0.0,0.0,0.0,-14.04,0.0,0.0,0.0
408,0.0,0.0,0.0,0.3925087890625,0.0,0.0,0.0,0.0,0.0,0.0,0.41212468899697957,0.0,0.0,0.0,0.0,0.0,0.0,-14.04,0.0,0.0,0.0
409,0.0,0.0,0.0,0.395982421875,0.0,0.0,0.0,0.0,0.0,0.0,0.4155776500630121,0.0,0.0,0.0,0.0,0.0,0.0,-11.616,0.0,0.0,0.0
410,0.0,0.0,0.0,0.395982421875,0.0,0.0,0.0,0.0,0.0,0.0,0.41556141393292473,0.0,0.0,0.0,0.0,0.0,0.0,-11.616,0.0,0.0,0.0
411,0.0,0.0,0.0,0.395982421875,0.0,0.0,0.0,0.0,0.0,0.0,0.4155467432919176,0.0,0.0,0.0,0.0,0.0,0.0,-11.616,0.0,0.0,0.0
412,0.0,0.0,0.0,0.400755859375,0.0,0.0,0.0,0.0,0.0,0.0,0.42030526171295085,0.0,0.0,0.0,0.0,0.0,0.0,-11.5,0.0,0.0,0.0
413,0.0,0.0,0.0,0.400755859375,0.0,0.0,0.0,0.0,0.0,0.0,0.42029310992437846,0.0,0.0,0.0,0.0,0.0,0.0,-11.5,0.0,0.0,0.0
414,0.0,0.0,0.0,0.400755859375,0.0,0.0,0.0,0.0,0.0,0.0,0.42027154685723844,0.0,0.0,0.0,0.0,0.0,0.0,-11.5,0.0,0.0,0.0
415,0.0,0.0,0.0,0.4045185546875,0.0,0.0,0.0,0.0,0.0,0.0,0.42401748072851503,0.0,0.0,0.0,0.0,0.0,0.0,-12.736,0.0,0.0,0.0
416,0.0,0.0,0.0,0.4045185546875,0.0,0.0,0.0,0.0,0.0,0.0,0.42400261485957136,0.0,0.0,0.0,0.0,0.0,0.0,-12.736,0.0,0.0,0.0
417,0.0,0.0,0.0,0.409021484375,0.0,0.0,0.0,0.0,0.0,0.0,0.4284883978905636,0.0,0.0,0.0,0.0,0.0,0.0,-13.676,0.0,0.0,0.0
418,0.0,0.0,0.0,0.409021484375,0.0,0.0,0.0,0.0,0.0,0.0,0.4284683306262246,0.0,0.0,0.0,0.0,0.0,0.0,-13.676,0.0,0.0,0.0
419,0.0,0.0,0.0,0.409021484375,0.0,0.0,0.0,0.0,0.0,0.0,0.42844778472530026,0.0,0.0,0.0,0.0,0.0,0.0,-13.676,0.0,0.0,0.0
420,0.0,0.0,0.0,0.413361328125,0.0,0.0,0.0,0.0,0.0,0.0,0.4327545431987711,0.0,0.0,0.0,0.0,0.0,0.0,-14.656,0.0,0.0,0.0
421,0.0,0.0,0.0,0.413361328125,0.0,0.0,0.0,0.0,0.0,0.0,0.43273934333525493,0.0,0.0,0.0,0.0,0.0,0.0,-14.656,0.0,0.0,0.0
422,0.0,0.0,0.0,0.4174130859375,0.0,0.0,0.0,0.0,0.0,0.0,0.4367619434119538,0.0,0.0,0.0,0.0,0.0,0.0,-12.944,0.0,0.0,0.0
423,0.0,0.0,0.0,0.4174130859375,0.0,0.0,0.0,0.0,0.0,0.0,0.4367438508802943,0.0,0.0,0.0,0.0,0.0,0.0,-12.944,0.0,0.0,0.0
424,0.0,0.0,0.0,0.4217626953125,0.0,0.0,0.0,0.0,0.0,0.0,0.44107599242725065,0.0,0.0,0.0,0.0,0.0,0.0,-12.12,0.0,0.0,0.0
425,0.0,0.0,0.0,0.4217626953125,0.0,0.0,0.0,0.0,0.0,0.0,0.4410535353831814,0.0,0.0,0.0,0.0,0.0,0.0,-12.12,0.0,0.0,0.0
426,0.0,0.0,0.0,0.425236328125,0.0,0.0,0.0,0.0,0.0,0.0,0.4444987915719117,0.0,0.0,0.0,0.0,0.0,0.0,-11.548,0.0,0.0,0.0
427,0.0,0.0,0.0,0.425236328125,0.0,0.0,0.0,0.0,0.0,0.0,0.4444768048959338,0.0,0.0,0.0,0.0,0.0,0.0,-11.548,0.0,0.0,0.0
428,0.0,0.0,0.0,0.425236328125,0.0,0.0,0.0,0.0,0.0,0.0,0.4444580975957643,0.0,0.0,0.0,0.0,0.0,0.0,-11.548,0.0,0.0,0.0
429,0.0,0.0,0.0,0.42944140625,0.0,0.0,0.0,0.0,0.0,0.0,0.44864207151182117,0.0,0.0,0.0,0.0,0.0,0.0,-11.98,0.0,0.0,0.0
430,0.0,0.0,0.0,0.42944140625,0.0,0.0,0.0,0.0,0.0,0.0,0.44861307492040947,0.0,0.0,0.0,0.0,0.0,0.0,-11.98,0.0,0.0,0.0
431,0.0,0.0,0.0,0.43378125,0.0,0.0,0.0,0.0,0.0,0.0,0.45293263561927977,0.0,0.0,0.0,0.0,0.0,0.0,-12.392,0.0,0.0,0.0
432,0.0,0.0,0.0,0.43378125,0.0,0.0,0.0,0.0,0.0,0.0,0.45291240016923506,0.0,0.0,0.0,0.0,0.0,0.0,-12.392,0.0,0.0,0.0
433,0.0,0.0,0.0,0.43378125,0.0,0.0,0.0,0.0,0.0,0.0,0.4528955510665307,0.0,0.0,0.0,0.0,0.0,0.0,-12.392,0.0,0.0,0.0
434,0.0,0.0,0.0,0.438130859375,0.0,0.0,0.0,0.0,0.0,0.0,0.4572188251589283,0.0,0.0,0.0,0.0,0.0,0.0,-12.096,0.0,0.0,0.0
435,0.0,0.0,0.0,0.438130859375,0.0,0.0,0.0,0.0,0.0,0.0,0.45719305336355526,0.0,0.0,0.0,0.0,0.0,0.0,-12.096,0.0,0.0,0.0
436,0.0,0.0,0.0,0.438130859375,0.0,0.0,0.0,0.0,0.0,0.0,0.45717274373133904,0.0,0.0,0.0,0.0,0.0,0.0,-12.096,0.0,0.0,0.0
437,0.0,0.0,0.0,0.4418935546875,0.0,0.0,0.0,0.0,0.0,0.0,0.4609157630335322,0.0,0.0,0.0,0.0,0.0,0.0,-11.912,0.0,0.0,0.0
438,0.0,0.0,0.0,0.4418935546875,0.0,0.0,0.0,0.0,0.0,0.0,0.46089857920042243,0.0,0.0,0.0,0.0,0.0,0.0,-11.912,0.0,0.0,0.0
439,0.0,0.0,0.0,0.4418935546875,0.0,0.0,0.0,0.0,0.0,0.0,0.4608803368996687,0.0,0.0,0.0,0.0,0.0,0.0,-11.912,0.0,0.0,0.0
440,0.0,0.0,0.0,0.4459453125,0.0,0.0,0.0,0.0,0.0,0.0,0.46490596003317325,0.0,0.0,0.0,0.0,0.0,0.0,-11.684,0.0,0.0,0.0
441,0.0,0.0,0.0,0.4459453125,0.0,0.0,0.0,0.0,0.0,0.0,0.464885484660133,0.0,0.0,0.0,0.0,0.0,0.0,-11.684,0.0,0.0,0.0
442,0.0,0.0,0.0,0.4459453125,0.0,0.0,0.0,0.0,0.0,0.0,0.464865750333942,0.0,0.0,0.0,0.0,0.0,0.0,-11.684,0.0,0.0,0.0
443,0.0,0.0,0.0,0.4459453125,0.0,0.0,0.0,0.0,0.0,0.0,0.46484727781257523,0.0,0.0,0.0,0.0,0.0,0.0,-11.684,0.0,0.0,0.0
444,0.0,0.0,0.0,0.4505830078125,0.0,0.0,0.0,0.0,0.0,0.0,0.46945873453798176,0.0,0.0,0.0,0.0,0.0,0.0,-11.752,0.0,0.0,0.0
445,0.0,0.0,0.0,0.4505830078125,0.0,0.0,0.0,0.0,0.0,0.0,0.4694293933624788,0.0,0.0,0.0,0.0,0.0,0.0,-11.752,0.0,0.0,0.0
446,0.0,0.0,0.0,0.454779296875,0.0,0.0,0.0,0.0,0.0,0.0,0.4736032796984118,0.0,0.0,0.0,0.0,0.0,0.0,-12.028,0.0,0.0,0.0
447,0.0,0.0,0.0,0.454779296875,0.0,0.0,0.0,0.0,0.0,0.0,0.47358404885010796,0.0,0.0,0.0,0.0,0.0,0.0,-12.028,0.0,0.0,0.0
448,0.0,0.0,0.0,0.454779296875,0.0,0.0,0.0,0.0,0.0,0.0,0.4735645675273552,0.0,0.0,0.0,0.0,0.0,0.0,-12.028,0.0,0.0,0.0
449,0.0,0.0,0.0,0.454779296875,0.0,0.0,0.0,0.0,0.0,0.0,0.47354308998434824,0.0,0.0,0.0,0.0,0.0,0.0,-12.028,0.0,0.0,0.0
450,0.0,0.0,0.0,0.4588310546875,0.0,0.0,0.0,0.0,0.0,0.0,0.4775602529491859,0.0,0.0,0.0,0.0,0.0,0.0,-13.172,0.0,0.0,0.0
451,0.0,0.0,0.0,0.4588310546875,0.0,0.0,0.0,0.0,0.0,0.0,0.4775354054142392,0.0,0.0,0.0,0.0,0.0,0.0,-13.172,0.0,0.0,0.0
452,0.0,0.0,0.0,0.46216015625,0.0,0.0,0.0,0.0,0.0,0.0,0.4808397566375568,0.0,0.0,0.0,0.0,0.0,0.0,-13.148,0.0,0.0,0.0
453,0.0,0.0,0.0,0.46216015625,0.0,0.0,0.0,0.0,0.0,0.0,0.48081830933526076,0.0,0.0,0.0,0.0,0.0,0.0,-13.148,0.0,0.0,0.0
454,0.0,0.0,0.0,0.46216015625,0.0,0.0,0.0,0.0,0.0,0.0,0.48078617702460524,0.0,0.0,0.0,0.0,0.0,0.0,-13.148,0.0,0.0,0.0
455,0.0,0.0,0.0,0.466076171875,0.0,0.0,0.0,0.0,0.0,0.0,0.48466712782423227,0.0,0.0,0.0,0.0,0.0,0.0,-12.668,0.0,0.0,0.0
456,0.0,0.0,0.0,0.466076171875,0.0,0.0,0.0,0.0,0.0,0.0,0.48464267766618885,0.0,0.0,0.0,0.0,0.0,0.0,-12.668,0.0,0.0,0.0
457,0.0,0.0,0.0,0.466076171875,0.0,0.0,0.0,0.0,0.0,0.0,0.4846213540277724,0.0,0.0,0.0,0.0,0.0,0.0,-12.668,0.0,0.0,0.0
458,0.0,0.0,0.0,0.47028125,0.0,0.0,0.0,0.0,0.0,0.0,0.48880484975780597,0.0,0.0,0.0,0.0,0.0,0.0,-12.44,0.0,0.0,0.0
459,0.0,0.0,0.0,0.47028125,0.0,0.0,0.0,0.0,0.0,0.0,0.48877159698095574,0.0,0.0,0.0,0.0,0.0,0.0,-12.44,0.0,0.0,0.0
460,0.0,0.0,0.0,0.4744775390625,0.0,0.0,0.0,0.0,0.0,0.0,0.49293624265117,0.0,0.0,0.0,0.0,0.0,0.0,-12.624,0.0,0.0,0.0
461,0.0,0.0,0.0,0.4744775390625,0.0,0.0,0.0,0.0,0.0,0.0,0.49291121287569223,0.0,0.0,0.0,0.0,0.0,0.0,-12.624,0.0,0.0,0.0
462,0.0,0.0,0.0,0.4744775390625,0.0,0.0,0.0,0.0,0.0,0.0,0.49288486554832517,0.0,0.0,0.0,0.0,0.0,0.0,-12.624,0.0,0.0,0.0
463,0.0,0.0,0.0,0.4788173828125,0.0,0.0,0.0,0.0,0.0,0.0,0.4971856342399904,0.0,0.0,0.0,0.0,0.0,0.0,-13.72,0.0,0.0,0.0
464,0.0,0.0,0.0,0.4788173828125,0.0,0.0,0.0,0.0,0.0,0.0,0.49715776386172117,0.0,0.0,0.0,0.0,0.0,0.0,-13.72,0.0,0.0,0.0
465,0.0,0.0,0.0,0.4788173828125,0.0,0.0,0.0,0.0,0.0,0.0,0.49712762535829963,0.0,0.0,0.0,0.0,0.0,0.0,-13.72,0.0,0.0,0.0
466,0.0,0.0,0.0,0.4833115234375,0.0,0.0,0.0,0.0,0.0,0.0,0.5015957494383853,0.0,0.0,0.0,0.0,0.0,0.0,-12.644,0.0,0.0,0.0
467,0.0,0.0,0.0,0.4833115234375,0.0,0.0,0.0,0.0,0.0,0.0,0.5015711950682619,0.0,0.0,0.0,0.0,0.0,0.0,-12.644,0.0,0.0,0.0
468,0.0,0.0,0.0,0.4833115234375,0.0,0.0,0.0,0.0,0.0,0.0,0.5015412243329842,0.0,0.0,0.0,0.0,0.0,0.0,-12.644,0.0,0.0,0.0
469,0.0,0.0,0.0,0.48766015625,0.0,0.0,0.0,0.0,0.0,0.0,0.5058575828686019,0.0,0.0,0.0,0.0,0.0,0.0,-12.576,0.0,0.0,0.0
470,0.0,0.0,0.0,0.48766015625,0.0,0.0,0.0,0.0,0.0,0.0,0.5058312019198837,0.0,0.0,0.0,0.0,0.0,0.0,-12.576,0.0,0.0,0.0
471,0.0,0.0,0.0,0.48766015625,0.0,0.0,0.0,0.0,0.0,0.0,0.5058006447594896,0.0,0.0,0.0,0.0,0.0,0.0,-12.576,0.0,0.0,0.0
472,0.0,0.0,0.0,0.4914228515625,0.0,0.0,0.0,0.0,0.0,0.0,0.5095342722161631,0.0,0.0,0.0,0.0,0.0,0.0,-11.228,0.0,0.0,0.0
473,0.0,0.0,0.0,0.4914228515625,0.0,0.0,0.0,0.0,0.0,0.0,0.5094977102843745,0.0,0.0,0.0,0.0,0.0,0.0,-11.228,0.0,0.0,0.0
474,0.0,0.0,0.0,0.495619140625,0.0,0.0,0.0,0.0,0.0,0.0,0.5136359902362279,0.0,0.0,0.0,0.0,0.0,0.0,-11.524,0.0,0.0,0.0
475,0.0,0.0,0.0,0.495619140625,0.0,0.0,0.0,0.0,0.0,0.0,0.5136050523394956,0.0,0.0,0.0,0.0,0.0,0.0,-11.524,0.0,0.0,0.0
476,0.0,0.0,0.0,0.495619140625,0.0,0.0,0.0,0.0,0.0,0.0,0.5135780100632289,0.0,0.0,0.0,0.0,0.0,0.0,-11.524,0.0,0.0,0.0
477,0.0,0.0,0.0,0.49953515625,0.0,0.0,0.0,0.0,0.0,0.0,0.5174595966631221,0.0,0.0,0.0,0.0,0.0,0.0,-10.976,0.0,0.0,0.0
478,0.0,0.0,0.0,0.49953515625,0.0,0.0,0.0,0.0,0.0,0.0,0.5174196494098372,0.0,0.0,0.0,0.0,0.0,0.0,-10.976,0.0,0.0,0.0
479,0.0,0.0,0.0,0.5038759765625,0.0,0.0,0.0,0.0,0.0,0.0,0.5217146753150693,0.0,0.0,0.0,0.0,0.0,0.0,-11.752,0.0,0.0,0.0
480,0.0,0.0,0.0,0.5038759765625,0.0,0.0,0.0,0.0,0.0,0.0,0.5216717543225043,0.0,0.0,0.0,0.0,0.0,0.0,-11.752,0.0,0.0,0.0
481,0.0,0.0,0.0,0.5073583984375,0.0,0.0,0.0,0.0,0.0,0.0,0.5251150076536449,0.0,0.0,0.0,0.0,0.0,0.0,-12.304,0.0,0.0,0.0
482,0.0,0.0,0.0,0.5073583984375,0.0,0.0,0.0,0.0,0.0,0.0,0.5250816507248408,0.0,0.0,0.0,0.0,0.0,0.0,-12.304,0.0,0.0,0.0
483,0.0,0.0,0.0,0.5073583984375,0.0,0.0,0.0,0.0,0.0,0.0,0.5250502598616944,0.0,0.0,0.0,0.0,0.0,0.0,-12.304,0.0,0.0,0.0
484,0.0,0.0,0.0,0.51141015625,0.0,0.0,0.0,0.0,0.0,0.0,0.5290738553556568,0.0,0.0,0.0,0.0,0.0,0.0,-11.572,0.0,0.0,0.0
485,0.0,0.0,0.0,0.51141015625,0.0,0.0,0.0,0.0,0.0,0.0,0.5290472684285472,0.0,0.0,0.0,0.0,0.0,0.0,-11.572,0.0,0.0,0.0
486,0.0,0.0,0.0,0.51141015625,0.0,0.0,0.0,0.0,0.0,0.0,0.5290066807731022,0.0,0.0,0.0,0.0,0.0,0.0,-11.572,0.0,0.0,0.0
487,0.0,0.0,0.0,0.5156064453125,0.0,0.0,0.0,0.0,0.0,0.0,0.5331622938800091,0.0,0.0,0.0,0.0,0.0,0.0,-11.572,0.0,0.0,0.0
488,0.0,0.0,0.0,0.5156064453125,0.0,0.0,0.0,0.0,0.0,0.0,0.5331274260599148,0.0,0.0,0.0,0.0,0.0,0.0,-11.572,0.0,0.0,0.0
489,0.0,0.0,0.0,0.5156064453125,0.0,0.0,0.0,0.0,0.0,0.0,0.5330937470199236,0.0,0.0,0.0,0.0,0.0,0.0,-11.572,0.0,0.0,0.0
490,0.0,0.0,0.0,0.519810546875,0.0,0.0,0.0,0.0,0.0,0.0,0.5372529705633915,0.0,0.0,0.0,0.0,0.0,0.0,-11.5,0.0,0.0,0.0
491,0.0,0.0,0.0,0.519810546875,0.0,0.0,0.0,0.0,0.0,0.0,0.5372226878213252,0.0,0.0,0.0,0.0,0.0,0.0,-11.5,0.0,0.0,0.0
492,0.0,0.0,0.0,0.519810546875,0.0,0.0,0.0,0.0,0.0,0.0,0.5371852325049633,0.0,0.0,0.0,0.0,0.0,0.0,-11.5,0.0,0.0,0.0
493,0.0,0.0,0.0,0.52387109375,0.0,0.0,0.0,0.0,0.0,0.0,0.5412154156462521,0.0,0.0,0.0,0.0,0.0,0.0,-12.804,0.0,0.0,0.0
494,0.0,0.0,0.0,0.52387109375,0.0,0.0,0.0,0.0,0.0,0.0,0.5411829417127104,0.0,0.0,0.0,0.0,0.0,0.0,-12.804,0.0,0.0,0.0
495,0.0,0.0,0.0,0.52387109375,0.0,0.0,0.0,0.0,0.0,0.0,0.5411447796158837,0.0,0.0,0.0,0.0,0.0,0.0,-12.804,0.0,0.0,0.0
496,0.0,0.0,0.0,0.527490234375,0.0,0.0,0.0,0.0,0.0,0.0,0.5447316740807041,0.0,0.0,0.0,0.0,0.0,0.0,-12.852,0.0,0.0,0.0
497,0.0,0.0,0.0,0.527490234375,0.0,0.0,0.0,0.0,0.0,0.0,0.5446983848502509,0.0,0.0,0.0,0.0,0.0,0.0,-12.852,0.0,0.0,0.0
498,0.0,0.0,0.0,0.527490234375,0.0,0.0,0.0,0.0,0.0,0.0,0.5446691461658709,0.0,0.0,0.0,0.0,0.0,0.0,-12.852,0.0,0.0,0.0
499,0.0,0.0,0.0,0.5313974609375,0.0,0.0,0.0,0.0,0.0,0.0,0.5485451526269194,0.0,0.0,0.0,0.0,0.0,0.0,-13.104,0.0,0.0,0.0
500,0.0,0.0,0.0,0.5313974609375,0.0,0.0,0.0,0.0,0.0,0.0,0.5485117609053191,0.0,0.0,0.0,0.0,0.0,0.0,-13.104,0.0,0.0,0.0
501,0.0,0.0,0.0,0.5313974609375,0.0,0.0,0.0,0.0,0.0,0.0,0.548473670451831,0.0,0.0,0.0,0.0,0.0,0.0,-13.104,0.0,0.0,0.0
502,0.0,0.0,0.0,0.5353037109375,0.0,0.0,0.0,0.0,0.0,0.0,0.5523375694964746,0.0,0.0,0.0,0.0,0.0,0.0,-12.668,0.0,0.0,0.0
503,0.0,0.0,0.0,0.5353037109375,0.0,0.0,0.0,0.0,0.0,0.0,0.5522940585067065,0.0,0.0,0.0,0.0,0.0,0.0,-12.668,0.0,0.0,0.0
504,0.0,0.0,0.0,0.5393642578125,0.0,0.0,0.0,0.0,0.0,0.0,0.5563086273144084,0.0,0.0,0.0,0.0,0.0,0.0,-12.6,0.0,0.0,0.0
505,0.0,0.0,0.0,0.5393642578125,0.0,0.0,0.0,0.0,0.0,0.0,0.5562608544935183,0.0,0.0,0.0,0.0,0.0,0.0,-12.6,0.0,0.0,0.0
506,0.0,0.0,0.0,0.5393642578125,0.0,0.0,0.0,0.0,0.0,0.0,0.5562080719541058,0.0,0.0,0.0,0.0,0.0,0.0,-12.6,0.0,0.0,0.0
507,0.0,0.0,0.0,0.5434248046875,0.0,0.0,0.0,0.0,0.0,0.0,0.560235716885034,0.0,0.0,0.0,0.0,0.0,0.0,-12.028,0.0,0.0,0.0
508,0.0,0.0,0.0,0.5434248046875,0.0,0.0,0.0,0.0,0.0,0.0,0.5602058953411657,0.0,0.0,0.0,0.0,0.0,0.0,-12.028,0.0,0.0,0.0
509,0.0,0.0,0.0,0.5434248046875,0.0,0.0,0.0,0.0,0.0,0.0,0.5601516206592485,0.0,0.0,0.0,0.0,0.0,0.0,-12.028,0.0,0.0,0.0
510,0.0,0.0,0.0,0.54762109375,0.0,0.0,0.0,0.0,0.0,0.0,0.5642985051466365,0.0,0.0,0.0,0.0,0.0,0.0,-11.776,0.0,0.0,0.0
511,0.0,0.0,0.0,0.54762109375,0.0,0.0,0.0,0.0,0.0,0.0,0.5642652938970621,0.0,0.0,0.0,0.0,0.0,0.0,-11.776,0.0,0.0,0.0
512,0.0,0.0,0.0,0.5518173828125,0.0,0.0,0.0,0.0,0.0,0.0,0.5684261144400796,0.0,0.0,0.0,0.0,0.0,0.0,-11.64,0.0,0.0,0.0
513,0.0,0.0,0.0,0.5518173828125,0.0,0.0,0.0,0.0,0.0,0.0,0.5683821995900716,0.0,0.0,0.0,0.0,0.0,0.0,-11.64,0.0,0.0,0.0
514,0.0,0.0,0.0,0.5518173828125,0.0,0.0,0.0,0.0,0.0,0.0,0.5683373319797896,0.0,0.0,0.0,0.0,0.0,0.0,-11.64,0.0,0.0,0.0
515,0.0,0.0,0.0,0.555291015625,0.0,0.0,0.0,0.0,0.0,0.0,0.5717673972651899,0.0,0.0,0.0,0.0,0.0,0.0,-12.004,0.0,0.0,0.0
516,0.0,0.0,0.0,0.555291015625,0.0,0.0,0.0,0.0,0.0,0.0,0.5717309515493602,0.0,0.0,0.0,0.0,0.0,0.0,-12.004,0.0,0.0,0.0
517,0.0,0.0,0.0,0.555291015625,0.0,0.0,0.0,0.0,0.0,0.0,0.5716873857406813,0.0,0.0,0.0,0.0,0.0,0.0,-12.004,0.0,0.0,0.0
518,0.0,0.0,0.0,0.5584765625,0.0,0.0,0.0,0.0,0.0,0.0,0.5748097537478104,0.0,0.0,0.0,0.0,0.0,0.0,-11.204,0.0,0.0,0.0
519,0.0,0.0,0.0,0.5584765625,0.0,0.0,0.0,0.0,0.0,0.0,0.5747705847584985,0.0,0.0,0.0,0.0,0.0,0.0,-11.204,0.0,0.0,0.0
520,0.0,0.0,0.0,0.562392578125,0.0,0.0,0.0,0.0,0.0,0.0,0.578645995250317,0.0,0.0,0.0,0.0,0.0,0.0,-10.312,0.0,0.0,0.0
521,0.0,0.0,0.0,0.562392578125,0.0,0.0,0.0,0.0,0.0,0.0,0.578608242603976,0.0,0.0,0.0,0.0,0.0,0.0,-10.312,0.0,0.0,0.0
522,0.0,0.0,0.0,0.562392578125,0.0,0.0,0.0,0.0,0.0,0.0,0.5785700176390919,0.0,0.0,0.0,0.0,0.0,0.0,-10.312,0.0,0.0,0.0
523,0.0,0.0,0.0,0.5662998046875,0.0,0.0,0.0,0.0,0.0,0.0,0.5824168790502067,0.0,0.0,0.0,0.0,0.0,0.0,-11.296,0.0,0.0,0.0
524,0.0,0.0,0.0,0.5662998046875,0.0,0.0,0.0,0.0,0.0,0.0,0.5823669947457087,0.0,0.0,0.0,0.0,0.0,0.0,-11.296,0.0,0.0,0.0
525,0.0,0.0,0.0,0.5662998046875,0.0,0.0,0.0,0.0,0.0,0.0,0.5823293506882361,0.0,0.0,0.0,0.0,0.0,0.0,-11.296,0.0,0.0,0.0
526,0.0,0.0,0.0,0.5694853515625,0.0,0.0,0.0,0.0,0.0,0.0,0.5854422852828403,0.0,0.0,0.0,0.0,0.0,0.0,-12.028,0.0,0.0,0.0
527,0.0,0.0,0.0,0.5732568359375,0.0,0.0,0.0,0.0,0.0,0.0,0.5891417278214335,0.0,0.0,0.0,0.0,0.0,0.0,-12.212,0.0,0.0,0.0
528,0.0,0.0,0.0,0.5732568359375,0.0,0.0,0.0,0.0,0.0,0.0,0.5890786426467681,0.0,0.0,0.0,0.0,0.0,0.0,-12.212,0.0,0.0,0.0
529,0.0,0.0,0.0,0.5732568359375,0.0,0.0,0.0,0.0,0.0,0.0,0.5890360469671128,0.0,0.0,0.0,0.0,0.0,0.0,-12.212,0.0,0.0,0.0
530,0.0,0.0,0.0,0.5765771484375,0.0,0.0,0.0,0.0,0.0,0.0,0.5923019557821354,0.0,0.0,0.0,0.0,0.0,0.0,-12.324,0.0,0.0,0.0
531,0.0,0.0,0.0,0.5765771484375,0.0,0.0,0.0,0.0,0.0,0.0,0.5922415943018362,0.0,0.0,0.0,0.0,0.0,0.0,-12.324,0.0,0.0,0.0
532,0.0,0.0,0.0,0.5794736328125,0.0,0.0,0.0,0.0,0.0,0.0,0.5950805221209423,0.0,0.0,0.0,0.0,0.0,0.0,-12.052,0.0,0.0,0.0
533,0.0,0.0,0.0,0.5794736328125,0.0,0.0,0.0,0.0,0.0,0.0,0.5950333484236039,0.0,0.0,0.0,0.0,0.0,0.0,-12.052,0.0,0.0,0.0
534,0.0,0.0,0.0,0.58295703125,0.0,0.0,0.0,0.0,0.0,0.0,0.5984514978221616,0.0,0.0,0.0,0.0,0.0,0.0,-11.432,0.0,0.0,0.0
535,0.0,0.0,0.0,0.58295703125,0.0,0.0,0.0,0.0,0.0,0.0,0.5983974447508498,0.0,0.0,0.0,0.0,0.0,0.0,-11.432,0.0,0.0,0.0
536,0.0,0.0,0.0,0.58295703125,0.0,0.0,0.0,0.0,0.0,0.0,0.5983523515948778,0.0,0.0,0.0,0.0,0.0,0.0,-11.432,0.0,0.0,0.0
537,0.0,0.0,0.0,0.5864306640625,0.0,0.0,0.0,0.0,0.0,0.0,0.6017835728959996,0.0,0.0,0.0,0.0,0.0,0.0,-11.18,0.0,0.0,0.0
538,0.0,0.0,0.0,0.5864306640625,0.0,0.0,0.0,0.0,0.0,0.0,0.6017249586810444,0.0,0.0,0.0,0.0,0.0,0.0,-11.18,0.0,0.0,0.0
539,0.0,0.0,0.0,0.5897607421875,0.0,0.0,0.0,0.0,0.0,0.0,0.6049988506443966,0.0,0.0,0.0,0.0,0.0,0.0,-12.028,0.0,0.0,0.0
540,0.0,0.0,0.0,0.5897607421875,0.0,0.0,0.0,0.0,0.0,0.0,0.6049508251084801,0.0,0.0,0.0,0.0,0.0,0.0,-12.028,0.0,0.0,0.0
541,0.0,0.0,0.0,0.5897607421875,0.0,0.0,0.0,0.0,0.0,0.0,0.6048959637775693,0.0,0.0,0.0,0.0,0.0,0.0,-12.028,0.0,0.0,0.0
542,0.0,0.0,0.0,0.59308984375,0.0,0.0,0.0,0.0,0.0,0.0,0.6081455890924572,0.0,0.0,0.0,0.0,0.0,0.0,-12.712,0.0,0.0,0.0
543,0.0,0.0,0.0,0.59308984375,0.0,0.0,0.0,0.0,0.0,0.0,0.6080849698160977,0.0,0.0,0.0,0.0,0.0,0.0,-12.712,0.0,0.0,0.0
544,0.0,0.0,0.0,0.596419921875,0.0,0.0,0.0,0.0,0.0,0.0,0.6113569286504609,0.0,0.0,0.0,0.0,0.0,0.0,-12.188,0.0,0.0,0.0
545,0.0,0.0,0.0,0.596419921875,0.0,0.0,0.0,0.0,0.0,0.0,0.6112966961965296,0.0,0.0,0.0,0.0,0.0,0.0,-12.188,0.0,0.0,0.0
546,0.0,0.0,0.0,0.5997490234375,0.0,0.0,0.0,0.0,0.0,0.0,0.6145616422849597,0.0,0.0,0.0,0.0,0.0,0.0,-12.304,0.0,0.0,0.0
547,0.0,0.0,0.0,0.5997490234375,0.0,0.0,0.0,0.0,0.0,0.0,0.6145000072673237,0.0,0.0,0.0,0.0,0.0,0.0,-12.304,0.0,0.0,0.0
548,0.0,0.0,0.0,0.602943359375,0.0,0.0,0.0,0.0,0.0,0.0,0.6176323694678356,0.0,0.0,0.0,0.0,0.0,0.0,-12.232,0.0,0.0,0.0
549,0.0,0.0,0.0,0.602943359375,0.0,0.0,0.0,0.0,0.0,0.0,0.6175795215009967,0.0,0.0,0.0,0.0,0.0,0.0,-12.232,0.0,0.0,0.0
550,0.0,0.0,0.0,0.602943359375,0.0,0.0,0.0,0.0,0.0,0.0,0.6175081557908618,0.0,0.0,0.0,0.0,0.0,0.0,-12.232,0.0,0.0,0.0
551,0.0,0.0,0.0,0.60641796875,0.0,0.0,0.0,0.0,0.0,0.0,0.6209174962523224,0.0,0.0,0.0,0.0,0.0,0.0,-11.912,0.0,0.0,0.0
552,0.0,0.0,0.0,0.60641796875,0.0,0.0,0.0,0.0,0.0,0.0,0.6208760814025162,0.0,0.0,0.0,0.0,0.0,0.0,-11.912,0.0,0.0,0.0
553,0.0,0.0,0.0,0.6096025390625,0.0,0.0,0.0,0.0,0.0,0.0,0.6240160964516184,0.0,0.0,0.0,0.0,0.0,0.0,-11.364,0.0,0.0,0.0
554,0.0,0.0,0.0,0.6096025390625,0.0,0.0,0.0,0.0,0.0,0.0,0.6239595912172947,0.0,0.0,0.0,0.0,0.0,0.0,-11.364,0.0,0.0,0.0
555,0.0,0.0,0.0,0.6096025390625,0.0,0.0,0.0,0.0,0.0,0.0,0.6239044915747081,0.0,0.0,0.0,0.0,0.0,0.0,-11.364,0.0,0.0,0.0
556,0.0,0.0,0.0,0.6129326171875,0.0,0.0,0.0,0.0,0.0,0.0,0.6271927846127129,0.0,0.0,0.0,0.0,0.0,0.0,-10.768,0.0,0.0,0.0
557,0.0,0.0,0.0,0.6129326171875,0.0,0.0,0.0,0.0,0.0,0.0,0.6271526426720532,0.0,0.0,0.0,0.0,0.0,0.0,-10.768,0.0,0.0,0.0
558,0.0,0.0,0.0,0.6129326171875,0.0,0.0,0.0,0.0,0.0,0.0,0.6270974245693463,0.0,0.0,0.0,0.0,0.0,0.0,-10.768,0.0,0.0,0.0
559,0.0,0.0,0.0,0.6156845703125,0.0,0.0,0.0,0.0,0.0,0.0,0.6297811736247054,0.0,0.0,0.0,0.0,0.0,0.0,-11.044,0.0,0.0,0.0
560,0.0,0.0,0.0,0.6156845703125,0.0,0.0,0.0,0.0,0.0,0.0,0.6297294126768206,0.0,0.0,0.0,0.0,0.0,0.0,-11.044,0.0,0.0,0.0
561,0.0,0.0,0.0,0.6156845703125,0.0,0.0,0.0,0.0,0.0,0.0,0.6296806273508898,0.0,0.0,0.0,0.0,0.0,0.0,-11.044,0.0,0.0,0.0
562,0.0,0.0,0.0,0.6185810546875,0.0,0.0,0.0,0.0,0.0,0.0,0.6325209796647103,0.0,0.0,0.0,0.0,0.0,0.0,-10.496,0.0,0.0,0.0
563,0.0,0.0,0.0,0.6185810546875,0.0,0.0,0.0,0.0,0.0,0.0,0.6324413118195942,0.0,0.0,0.0,0.0,0.0,0.0,-10.496,0.0,0.0,0.0
564,0.0,0.0,0.0,0.6216220703125,0.0,0.0,0.0,0.0,0.0,0.0,0.6354121917244554,0.0,0.0,0.0,0.0,0.0,0.0,-11.044,0.0,0.0,0.0
565,0.0,0.0,0.0,0.6216220703125,0.0,0.0,0.0,0.0,0.0,0.0,0.6353600533660912,0.0,0.0,0.0,0.0,0.0,0.0,-11.044,0.0,0.0,0.0
566,0.0,0.0,0.0,0.6243740234375,0.0,0.0,0.0,0.0,0.0,0.0,0.638046865306086,0.0,0.0,0.0,0.0,0.0,0.0,-11.296,0.0,0.0,0.0
567,0.0,0.0,0.0,0.6243740234375,0.0,0.0,0.0,0.0,0.0,0.0,0.6379778470802079,0.0,0.0,0.0,0.0,0.0,0.0,-11.296,0.0,0.0,0.0
568,0.0,0.0,0.0,0.6243740234375,0.0,0.0,0.0,0.0,0.0,0.0,0.6379328593606043,0.0,0.0,0.0,0.0,0.0,0.0,-11.296,0.0,0.0,0.0
569,0.0,0.0,0.0,0.626982421875,0.0,0.0,0.0,0.0,0.0,0.0,0.6404947573282013,0.0,0.0,0.0,0.0,0.0,0.0,-12.392,0.0,0.0,0.0
570,0.0,0.0,0.0,0.626982421875,0.0,0.0,0.0,0.0,0.0,0.0,0.64044938818468,0.0,0.0,0.0,0.0,0.0,0.0,-12.392,0.0,0.0,0.0
571,0.0,0.0,0.0,0.626982421875,0.0,0.0,0.0,0.0,0.0,0.0,0.6404039391939436,0.0,0.0,0.0,0.0,0.0,0.0,-12.392,0.0,0.0,0.0
572,0.0,0.0,0.0,0.6291572265625,0.0,0.0,0.0,0.0,0.0,0.0,0.6425248711038267,0.0,0.0,0.0,0.0,0.0,0.0,-12.072,0.0,0.0,0.0
573,0.0,0.0,0.0,0.6291572265625,0.0,0.0,0.0,0.0,0.0,0.0,0.6424759954484904,0.0,0.0,0.0,0.0,0.0,0.0,-12.072,0.0,0.0,0.0
574,0.0,0.0,0.0,0.6291572265625,0.0,0.0,0.0,0.0,0.0,0.0,0.6424295644054931,0.0,0.0,0.0,0.0,0.0,0.0,-12.072,0.0,0.0,0.0
575,0.0,0.0,0.0,0.6320439453125,0.0,0.0,0.0,0.0,0.0,0.0,0.6452622983851709,0.0,0.0,0.0,0.0,0.0,0.0,-10.768,0.0,0.0,0.0
576,0.0,0.0,0.0,0.6320439453125,0.0,0.0,0.0,0.0,0.0,0.0,0.6452042371259986,0.0,0.0,0.0,0.0,0.0,0.0,-10.768,0.0,0.0,0.0
577,0.0,0.0,0.0,0.6320439453125,0.0,0.0,0.0,0.0,0.0,0.0,0.6451499421672524,0.0,0.0,0.0,0.0,0.0,0.0,-10.768,0.0,0.0,0.0
578,0.0,0.0,0.0,0.6349404296875,0.0,0.0,0.0,0.0,0.0,0.0,0.6479910768818826,0.0,0.0,0.0,0.0,0.0,0.0,-10.22,0.0,0.0,0.0
579,0.0,0.0,0.0,0.6349404296875,0.0,0.0,0.0,0.0,0.0,0.0,0.6479453219924428,0.0,0.0,0.0,0.0,0.0,0.0,-10.22,0.0,0.0,0.0
580,0.0,0.0,0.0,0.6349404296875,0.0,0.0,0.0,0.0,0.0,0.0,0.6479024459800666,0.0,0.0,0.0,0.0,0.0,0.0,-10.22,0.0,0.0,0.0
581,0.0,0.0,0.0,0.637548828125,0.0,0.0,0.0,0.0,0.0,0.0,0.6503905774404319,0.0,0.0,0.0,0.0,0.0,0.0,-10.656,0.0,0.0,0.0
582,0.0,0.0,0.0,0.637548828125,0.0,0.0,0.0,0.0,0.0,0.0,0.6503213421497059,0.0,0.0,0.0,0.0,0.0,0.0,-10.656,0.0,0.0,0.0
583,0.0,0.0,0.0,0.6403095703125,0.0,0.0,0.0,0.0,0.0,0.0,0.6530128738304859,0.0,0.0,0.0,0.0,0.0,0.0,-11.252,0.0,0.0,0.0
584,0.0,0.0,0.0,0.6403095703125,0.0,0.0,0.0,0.0,0.0,0.0,0.6529336748203053,0.0,0.0,0.0,0.0,0.0,0.0,-11.252,0.0,0.0,0.0
585,0.0,0.0,0.0,0.64291796875,0.0,0.0,0.0,0.0,0.0,0.0,0.6554541116915639,0.0,0.0,0.0,0.0,0.0,0.0,-11.572,0.0,0.0,0.0
586,0.0,0.0,0.0,0.64291796875,0.0,0.0,0.0,0.0,0.0,0.0,0.655387416700089,0.0,0.0,0.0,0.0,0.0,0.0,-11.572,0.0,0.0,0.0
587,0.0,0.0,0.0,0.6452275390625,0.0,0.0,0.0,0.0,0.0,0.0,0.6576505591625996,0.0,0.0,0.0,0.0,0.0,0.0,-11.228,0.0,0.0,0.0
588,0.0,0.0,0.0,0.6452275390625,0.0,0.0,0.0,0.0,0.0,0.0,0.6575842432062817,0.0,0.0,0.0,0.0,0.0,0.0,-11.228,0.0,0.0,0.0
589,0.0,0.0,0.0,0.6452275390625,0.0,0.0,0.0,0.0,0.0,0.0,0.6575311732332266,0.0,0.0,0.0,0.0,0.0,0.0,-11.228,0.0,0.0,0.0
590,0.0,0.0,0.0,0.6476904296875,0.0,0.0,0.0,0.0,0.0,0.0,0.6599343177670761,0.0,0.0,0.0,0.0,0.0,0.0,-11.204,0.0,0.0,0.0
591,0.0,0.0,0.0,0.6476904296875,0.0,0.0,0.0,0.0,0.0,0.0,0.6598763185197905,0.0,0.0,0.0,0.0,0.0,0.0,-11.204,0.0,0.0,0.0
592,0.0,0.0,0.0,0.6476904296875,0.0,0.0,0.0,0.0,0.0,0.0,0.6598232156784517,0.0,0.0,0.0,0.0,0.0,0.0,-11.204,0.0,0.0,0.0
593,0.0,0.0,0.0,0.6476904296875,0.0,0.0,0.0,0.0,0.0,0.0,0.6597403800709328,0.0,0.0,0.0,0.0,0.0,0.0,-11.204,0.0,0.0,0.0
594,0.0,0.0,0.0,0.6498564453125,0.0,0.0,0.0,0.0,0.0,0.0,0.6618258878800412,0.0,0.0,0.0,0.0,0.0,0.0,-10.86,0.0,0.0,0.0
595,0.0,0.0,0.0,0.65217578125,0.0,0.0,0.0,0.0,0.0,0.0,0.6640673796527838,0.0,0.0,0.0,0.0,0.0,0.0,-11.044,0.0,0.0,0.0
596,0.0,0.0,0.0,0.65217578125,0.0,0.0,0.0,0.0,0.0,0.0,0.6640101825366981,0.0,0.0,0.0,0.0,0.0,0.0,-11.044,0.0,0.0,0.0
597,0.0,0.0,0.0,0.654638671875,0.0,0.0,0.0,0.0,0.0,0.0,0.6663902318087296,0.0,0.0,0.0,0.0,0.0,0.0,-11.868,0.0,0.0,0.0
598,0.0,0.0,0.0,0.654638671875,0.0,0.0,0.0,0.0,0.0,0.0,0.6663215824333704,0.0,0.0,0.0,0.0,0.0,0.0,-11.868,0.0,0.0,0.0
599,0.0,0.0,0.0,0.654638671875,0.0,0.0,0.0,0.0,0.0,0.0,0.6662646483312051,0.0,0.0,0.0,0.0,0.0,0.0,-11.868,0.0,0.0,0.0
600,0.0,0.0,0.0,0.65694921875,0.0,0.0,0.0,0.0,0.0,0.0,0.6685098117408752,0.0,0.0,0.0,0.0,0.0,0.0,-11.868,0.0,0.0,0.0
601,0.0,0.0,0.0,0.65694921875,0.0,0.0,0.0,0.0,0.0,0.0,0.6684330207441732,0.0,0.0,0.0,0.0,0.0,0.0,-11.868,0.0,0.0,0.0
602,0.0,0.0,0.0,0.6594208984375,0.0,0.0,0.0,0.0,0.0,0.0,0.6708475458663616,0.0,0.0,0.0,0.0,0.0,0.0,-11.96,0.0,0.0,0.0
603,0.0,0.0,0.0,0.6594208984375,0.0,0.0,0.0,0.0,0.0,0.0,0.6707874386227708,0.0,0.0,0.0,0.0,0.0,0.0,-11.96,0.0,0.0,0.0
604,0.0,0.0,0.0,0.6594208984375,0.0,0.0,0.0,0.0,0.0,0.0,0.670726653177568,0.0,0.0,0.0,0.0,0.0,0.0,-11.96,0.0,0.0,0.0
605,0.0,0.0,0.0,0.661595703125,0.0,0.0,0.0,0.0,0.0,0.0,0.672821744354078,0.0,0.0,0.0,0.0,0.0,0.0,-12.164,0.0,0.0,0.0
606,0.0,0.0,0.0,0.661595703125,0.0,0.0,0.0,0.0,0.0,0.0,0.6727687131666241,0.0,0.0,0.0,0.0,0.0,0.0,-12.164,0.0,0.0,0.0
607,0.0,0.0,0.0,0.66405078125,0.0,0.0,0.0,0.0,0.0,0.0,0.6751547185104917,0.0,0.0,0.0,0.0,0.0,0.0,-11.892,0.0,0.0,0.0
608,0.0,0.0,0.0,0.66405078125,0.0,0.0,0.0,0.0,0.0,0.0,0.6751019443937842,0.0,0.0,0.0,0.0,0.0,0.0,-11.892,0.0,0.0,0.0
609,0.0,0.0,0.0,0.66405078125,0.0,0.0,0.0,0.0,0.0,0.0,0.6750293475260948,0.0,0.0,0.0,0.0,0.0,0.0,-11.892,0.0,0.0,0.0
610,0.0,0.0,0.0,0.666658203125,0.0,0.0,0.0,0.0,0.0,0.0,0.6775631258294879,0.0,0.0,0.0,0.0,0.0,0.0,-11.684,0.0,0.0,0.0
611,0.0,0.0,0.0,0.666658203125,0.0,0.0,0.0,0.0,0.0,0.0,0.6775099700691379,0.0,0.0,0.0,0.0,0.0,0.0,-11.684,0.0,0.0,0.0
612,0.0,0.0,0.0,0.666658203125,0.0,0.0,0.0,0.0,0.0,0.0,0.6774464815971917,0.0,0.0,0.0,0.0,0.0,0.0,-11.684,0.0,0.0,0.0
613,0.0,0.0,0.0,0.6689775390625,0.0,0.0,0.0,0.0,0.0,0.0,0.6797017404919019,0.0,0.0,0.0,0.0,0.0,0.0,-11.272,0.0,0.0,0.0
614,0.0,0.0,0.0,0.6689775390625,0.0,0.0,0.0,0.0,0.0,0.0,0.679619588234201,0.0,0.0,0.0,0.0,0.0,0.0,-11.272,0.0,0.0,0.0
615,0.0,0.0,0.0,0.671142578125,0.0,0.0,0.0,0.0,0.0,0.0,0.681723604897127,0.0,0.0,0.0,0.0,0.0,0.0,-10.84,0.0,0.0,0.0
616,0.0,0.0,0.0,0.671142578125,0.0,0.0,0.0,0.0,0.0,0.0,0.6816632007221897,0.0,0.0,0.0,0.0,0.0,0.0,-10.84,0.0,0.0,0.0
617,0.0,0.0,0.0,0.671142578125,0.0,0.0,0.0,0.0,0.0,0.0,0.6815902942389028,0.0,0.0,0.0,0.0,0.0,0.0,-10.84,0.0,0.0,0.0
618,0.0,0.0,0.0,0.6730283203125,0.0,0.0,0.0,0.0,0.0,0.0,0.6833835218658629,0.0,0.0,0.0,0.0,0.0,0.0,-10.36,0.0,0.0,0.0
619,0.0,0.0,0.0,0.6730283203125,0.0,0.0,0.0,0.0,0.0,0.0,0.6833257472381147,0.0,0.0,0.0,0.0,0.0,0.0,-10.36,0.0,0.0,0.0
620,0.0,0.0,0.0,0.675203125,0.0,0.0,0.0,0.0,0.0,0.0,0.6854238430660633,0.0,0.0,0.0,0.0,0.0,0.0,-9.604,0.0,0.0,0.0
621,0.0,0.0,0.0,0.675203125,0.0,0.0,0.0,0.0,0.0,0.0,0.6853739691214354,0.0,0.0,0.0,0.0,0.0,0.0,-9.604,0.0,0.0,0.0
622,0.0,0.0,0.0,0.675203125,0.0,0.0,0.0,0.0,0.0,0.0,0.6853247714842208,0.0,0.0,0.0,0.0,0.0,0.0,-9.604,0.0,0.0,0.0
623,0.0,0.0,0.0,0.677224609375,0.0,0.0,0.0,0.0,0.0,0.0,0.6872843492070044,0.0,0.0,0.0,0.0,0.0,0.0,-10.22,0.0,0.0,0.0
624,0.0,0.0,0.0,0.677224609375,0.0,0.0,0.0,0.0,0.0,0.0,0.687231491127118,0.0,0.0,0.0,0.0,0.0,0.0,-10.22,0.0,0.0,0.0
625,0.0,0.0,0.0,0.677224609375,0.0,0.0,0.0,0.0,0.0,0.0,0.6871702055525961,0.0,0.0,0.0,0.0,0.0,0.0,-10.22,0.0,0.0,0.0
626,0.0,0.0,0.0,0.679263671875,0.0,0.0,0.0,0.0,0.0,0.0,0.6891393897380345,0.0,0.0,0.0,0.0,0.0,0.0,-10.656,0.0,0.0,0.0
627,0.0,0.0,0.0,0.679263671875,0.0,0.0,0.0,0.0,0.0,0.0,0.6890657677065217,0.0,0.0,0.0,0.0,0.0,0.0,-10.656,0.0,0.0,0.0
628,0.0,0.0,0.0,0.679263671875,0.0,0.0,0.0,0.0,0.0,0.0,0.6889859078532578,0.0,0.0,0.0,0.0,0.0,0.0,-10.656,0.0,0.0,0.0
629,0.0,0.0,0.0,0.681140625,0.0,0.0,0.0,0.0,0.0,0.0,0.6907852306745689,0.0,0.0,0.0,0.0,0.0,0.0,-11.02,0.0,0.0,0.0
630,0.0,0.0,0.0,0.681140625,0.0,0.0,0.0,0.0,0.0,0.0,0.6906989165048475,0.0,0.0,0.0,0.0,0.0,0.0,-11.02,0.0,0.0,0.0
631,0.0,0.0,0.0,0.68273828125,0.0,0.0,0.0,0.0,0.0,0.0,0.6922066562407027,0.0,0.0,0.0,0.0,0.0,0.0,-10.84,0.0,0.0,0.0
632,0.0,0.0,0.0,0.68273828125,0.0,0.0,0.0,0.0,0.0,0.0,0.6921449621320334,0.0,0.0,0.0,0.0,0.0,0.0,-10.84,0.0,0.0,0.0
633,0.0,0.0,0.0,0.684470703125,0.0,0.0,0.0,0.0,0.0,0.0,0.6938000708963037,0.0,0.0,0.0,0.0,0.0,0.0,-10.86,0.0,0.0,0.0
634,0.0,0.0,0.0,0.684470703125,0.0,0.0,0.0,0.0,0.0,0.0,0.6937486961158931,0.0,0.0,0.0,0.0,0.0,0.0,-10.86,0.0,0.0,0.0
635,0.0,0.0,0.0,0.684470703125,0.0,0.0,0.0,0.0,0.0,0.0,0.693664965047776,0.0,0.0,0.0,0.0,0.0,0.0,-10.86,0.0,0.0,0.0
636,0.0,0.0,0.0,0.6859140625,0.0,0.0,0.0,0.0,0.0,0.0,0.6950245719798179,0.0,0.0,0.0,0.0,0.0,0.0,-10.36,0.0,0.0,0.0
637,0.0,0.0,0.0,0.6859140625,0.0,0.0,0.0,0.0,0.0,0.0,0.6949473378816367,0.0,0.0,0.0,0.0,0.0,0.0,-10.36,0.0,0.0,0.0
638,0.0,0.0,0.0,0.6877998046875,0.0,0.0,0.0,0.0,0.0,0.0,0.6967635857410092,0.0,0.0,0.0,0.0,0.0,0.0,-10.312,0.0,0.0,0.0
639,0.0,0.0,0.0,0.6877998046875,0.0,0.0,0.0,0.0,0.0,0.0,0.6966902902482892,0.0,0.0,0.0,0.0,0.0,0.0,-10.312,0.0,0.0,0.0
640,0.0,0.0,0.0,0.6877998046875,0.0,0.0,0.0,0.0,0.0,0.0,0.6966160660969576,0.0,0.0,0.0,0.0,0.0,0.0,-10.312,0.0,0.0,0.0
641,0.0,0.0,0.0,0.689244140625,0.0,0.0,0.0,0.0,0.0,0.0,0.6980000183930226,0.0,0.0,0.0,0.0,0.0,0.0,-11.0,0.0,0.0,0.0
642,0.0,0.0,0.0,0.689244140625,0.0,0.0,0.0,0.0,0.0,0.0,0.6979244119988245,0.0,0.0,0.0,0.0,0.0,0.0,-11.0,0.0,0.0,0.0
643,0.0,0.0,0.0,0.6908408203125,0.0,0.0,0.0,0.0,0.0,0.0,0.6994261347172104,0.0,0.0,0.0,0.0,0.0,0.0,-10.84,0.0,0.0,0.0
644,0.0,0.0,0.0,0.6908408203125,0.0,0.0,0.0,0.0,0.0,0.0,0.6993518058827853,0.0,0.0,0.0,0.0,0.0,0.0,-10.84,0.0,0.0,0.0
645,0.0,0.0,0.0,0.6908408203125,0.0,0.0,0.0,0.0,0.0,0.0,0.6992916423937485,0.0,0.0,0.0,0.0,0.0,0.0,-10.84,0.0,0.0,0.0
646,0.0,0.0,0.0,0.6922841796875,0.0,0.0,0.0,0.0,0.0,0.0,0.7006746114205293,0.0,0.0,0.0,0.0,0.0,0.0,-11.044,0.0,0.0,0.0
647,0.0,0.0,0.0,0.6922841796875,0.0,0.0,0.0,0.0,0.0,0.0,0.7006215592098551,0.0,0.0,0.0,0.0,0.0,0.0,-11.044,0.0,0.0,0.0
648,0.0,0.0,0.0,0.6922841796875,0.0,0.0,0.0,0.0,0.0,0.0,0.7005411304510489,0.0,0.0,0.0,0.0,0.0,0.0,-11.044,0.0,0.0,0.0
649,0.0,0.0,0.0,0.6935927734375,0.0,0.0,0.0,0.0,0.0,0.0,0.7017849471800214,0.0,0.0,0.0,0.0,0.0,0.0,-10.496,0.0,0.0,0.0
650,0.0,0.0,0.0,0.6935927734375,0.0,0.0,0.0,0.0,0.0,0.0,0.7017074891017494,0.0,0.0,0.0,0.0,0.0,0.0,-10.496,0.0,0.0,0.0
651,0.0,0.0,0.0,0.6935927734375,0.0,0.0,0.0,0.0,0.0,0.0,0.7016492861965442,0.0,0.0,0.0,0.0,0.0,0.0,-10.496,0.0,0.0,0.0
652,0.0,0.0,0.0,0.6951806640625,0.0,0.0,0.0,0.0,0.0,0.0,0.7031697799059805,0.0,0.0,0.0,0.0,0.0,0.0,-10.588,0.0,0.0,0.0
653,0.0,0.0,0.0,0.6951806640625,0.0,0.0,0.0,0.0,0.0,0.0,0.7030720508057545,0.0,0.0,0.0,0.0,0.0,0.0,-10.588,0.0,0.0,0.0
654,0.0,0.0,0.0,0.6963359375,0.0,0.0,0.0,0.0,0.0,0.0,0.7041362847608356,0.0,0.0,0.0,0.0,0.0,0.0,-10.448,0.0,0.0,0.0
655,0.0,0.0,0.0,0.6963359375,0.0,0.0,0.0,0.0,0.0,0.0,0.7040662290658004,0.0,0.0,0.0,0.0,0.0,0.0,-10.448,0.0,0.0,0.0
656,0.0,0.0,0.0,0.6977890625,0.0,0.0,0.0,0.0,0.0,0.0,0.7054454381065741,0.0,0.0,0.0,0.0,0.0,0.0,-10.564,0.0,0.0,0.0
657,0.0,0.0,0.0,0.6977890625,0.0,0.0,0.0,0.0,0.0,0.0,0.7053819455742132,0.0,0.0,0.0,0.0,0.0,0.0,-10.564,0.0,0.0,0.0
658,0.0,0.0,0.0,0.6977890625,0.0,0.0,0.0,0.0,0.0,0.0,0.7053110079213061,0.0,0.0,0.0,0.0,0.0,0.0,-10.564,0.0,0.0,0.0
659,0.0,0.0,0.0,0.69880859375,0.0,0.0,0.0,0.0,0.0,0.0,0.7062547142595489,0.0,0.0,0.0,0.0,0.0,0.0,-10.84,0.0,0.0,0.0
660,0.0,0.0,0.0,0.69880859375,0.0,0.0,0.0,0.0,0.0,0.0,0.706184808359182,0.0,0.0,0.0,0.0,0.0,0.0,-10.84,0.0,0.0,0.0
661,0.0,0.0,0.0,0.69880859375,0.0,0.0,0.0,0.0,0.0,0.0,0.7060983015676275,0.0,0.0,0.0,0.0,0.0,0.0,-10.84,0.0,0.0,0.0
662,0.0,0.0,0.0,0.6998193359375,0.0,0.0,0.0,0.0,0.0,0.0,0.7070500787009836,0.0,0.0,0.0,0.0,0.0,0.0,-10.36,0.0,0.0,0.0
663,0.0,0.0,0.0,0.6998193359375,0.0,0.0,0.0,0.0,0.0,0.0,0.7069912290525009,0.0,0.0,0.0,0.0,0.0,0.0,-10.36,0.0,0.0,0.0
664,0.0,0.0,0.0,0.6998193359375,0.0,0.0,0.0,0.0,0.0,0.0,0.7069367378487277,0.0,0.0,0.0,0.0,0.0,0.0,-10.36,0.0,0.0,0.0
665,0.0,0.0,0.0,0.7008388671875,0.0,0.0,0.0,0.0,0.0,0.0,0.7079003630950695,0.0,0.0,0.0,0.0,0.0,0.0,-10.312,0.0,0.0,0.0
666,0.0,0.0,0.0,0.7008388671875,0.0,0.0,0.0,0.0,0.0,0.0,0.7078142591089086,0.0,0.0,0.0,0.0,0.0,0.0,-10.312,0.0,0.0,0.0
667,0.0,0.0,0.0,0.701849609375,0.0,0.0,0.0,0.0,0.0,0.0,0.7087360458185041,0.0,0.0,0.0,0.0,0.0,0.0,-10.2,0.0,0.0,0.0
668,0.0,0.0,0.0,0.701849609375,0.0,0.0,0.0,0.0,0.0,0.0,0.7086772125393934,0.0,0.0,0.0,0.0,0.0,0.0,-10.2,0.0,0.0,0.0
669,0.0,0.0,0.0,0.701849609375,0.0,0.0,0.0,0.0,0.0,0.0,0.7086077794920707,0.0,0.0,0.0,0.0,0.0,0.0,-10.2,0.0,0.0,0.0
670,0.0,0.0,0.0,0.7030048828125,0.0,0.0,0.0,0.0,0.0,0.0,0.7096586454135024,0.0,0.0,0.0,0.0,0.0,0.0,-10.52,0.0,0.0,0.0
671,0.0,0.0,0.0,0.7030048828125,0.0,0.0,0.0,0.0,0.0,0.0,0.7095985459394393,0.0,0.0,0.0,0.0,0.0,0.0,-10.52,0.0,0.0,0.0
672,0.0,0.0,0.0,0.70387109375,0.0,0.0,0.0,0.0,0.0,0.0,0.7103806186048401,0.0,0.0,0.0,0.0,0.0,0.0,-10.632,0.0,0.0,0.0
673,0.0,0.0,0.0,0.70387109375,0.0,0.0,0.0,0.0,0.0,0.0,0.7103232393607404,0.0,0.0,0.0,0.0,0.0,0.0,-10.632,0.0,0.0,0.0
674,0.0,0.0,0.0,0.70387109375,0.0,0.0,0.0,0.0,0.0,0.0,0.7102447594637665,0.0,0.0,0.0,0.0,0.0,0.0,-10.632,0.0,0.0,0.0
675,0.0,0.0,0.0,0.7046015625,0.0,0.0,0.0,0.0,0.0,0.0,0.7109053102054357,0.0,0.0,0.0,0.0,0.0,0.0,-10.656,0.0,0.0,0.0
676,0.0,0.0,0.0,0.7046015625,0.0,0.0,0.0,0.0,0.0,0.0,0.7108426958030458,0.0,0.0,0.0,0.0,0.0,0.0,-10.656,0.0,0.0,0.0
677,0.0,0.0,0.0,0.7046015625,0.0,0.0,0.0,0.0,0.0,0.0,0.7107758693687146,0.0,0.0,0.0,0.0,0.0,0.0,-10.656,0.0,0.0,0.0
678,0.0,0.0,0.0,0.7051787109375,0.0,0.0,0.0,0.0,0.0,0.0,0.7112872457852545,0.0,0.0,0.0,0.0,0.0,0.0,-10.588,0.0,0.0,0.0
679,0.0,0.0,0.0,0.7051787109375,0.0,0.0,0.0,0.0,0.0,0.0,0.7111897124695373,0.0,0.0,0.0,0.0,0.0,0.0,-10.588,0.0,0.0,0.0
680,0.0,0.0,0.0,0.706044921875,0.0,0.0,0.0,0.0,0.0,0.0,0.7119467663873057,0.0,0.0,0.0,0.0,0.0,0.0,-10.268,0.0,0.0,0.0
681,0.0,0.0,0.0,0.706044921875,0.0,0.0,0.0,0.0,0.0,0.0,0.7118362564267107,0.0,0.0,0.0,0.0,0.0,0.0,-10.268,0.0,0.0,0.0
682,0.0,0.0,0.0,0.706767578125,0.0,0.0,0.0,0.0,0.0,0.0,0.7124624581318381,0.0,0.0,0.0,0.0,0.0,0.0,-10.404,0.0,0.0,0.0
683,0.0,0.0,0.0,0.706767578125,0.0,0.0,0.0,0.0,0.0,0.0,0.7123929582465088,0.0,0.0,0.0,0.0,0.0,0.0,-10.404,0.0,0.0,0.0
684,0.0,0.0,0.0,0.706767578125,0.0,0.0,0.0,0.0,0.0,0.0,0.7123312887426985,0.0,0.0,0.0,0.0,0.0,0.0,-10.404,0.0,0.0,0.0
685,0.0,0.0,0.0,0.7074892578125,0.0,0.0,0.0,0.0,0.0,0.0,0.7129834904156186,0.0,0.0,0.0,0.0,0.0,0.0,-10.496,0.0,0.0,0.0
686,0.0,0.0,0.0,0.7074892578125,0.0,0.0,0.0,0.0,0.0,0.0,0.7129228707975932,0.0,0.0,0.0,0.0,0.0,0.0,-10.496,0.0,0.0,0.0
687,0.0,0.0,0.0,0.70806640625,0.0,0.0,0.0,0.0,0.0,0.0,0.713395537598374,0.0,0.0,0.0,0.0,0.0,0.0,-11.068,0.0,0.0,0.0
688,0.0,0.0,0.0,0.70806640625,0.0,0.0,0.0,0.0,0.0,0.0,0.7133309431465876,0.0,0.0,0.0,0.0,0.0,0.0,-11.068,0.0,0.0,0.0
689,0.0,0.0,0.0,0.70806640625,0.0,0.0,0.0,0.0,0.0,0.0,0.7132701415054031,0.0,0.0,0.0,0.0,0.0,0.0,-11.068,0.0,0.0,0.0
690,0.0,0.0,0.0,0.70806640625,0.0,0.0,0.0,0.0,0.0,0.0,0.7132153336701045,0.0,0.0,0.0,0.0,0.0,0.0,-11.068,0.0,0.0,0.0
691,0.0,0.0,0.0,0.7085087890625,0.0,0.0,0.0,0.0,0.0,0.0,0.713591806044123,0.0,0.0,0.0,0.0,0.0,0.0,-11.02,0.0,0.0,0.0
692,0.0,0.0,0.0,0.7085087890625,0.0,0.0,0.0,0.0,0.0,0.0,0.713496899775656,0.0,0.0,0.0,0.0,0.0,0.0,-11.02,0.0,0.0,0.0
693,0.0,0.0,0.0,0.7087978515625,0.0,0.0,0.0,0.0,0.0,0.0,0.7137206653188746,0.0,0.0,0.0,0.0,0.0,0.0,-10.952,0.0,0.0,0.0
694,0.0,0.0,0.0,0.7087978515625,0.0,0.0,0.0,0.0,0.0,0.0,0.7136581016472161,0.0,0.0,0.0,0.0,0.0,0.0,-10.952,0.0,0.0,0.0
695,0.0,0.0,0.0,0.7087978515625,0.0,0.0,0.0,0.0,0.0,0.0,0.7136028656229149,0.0,0.0,0.0,0.0,0.0,0.0,-10.952,0.0,0.0,0.0
696,0.0,0.0,0.0,0.7090859375,0.0,0.0,0.0,0.0,0.0,0.0,0.7137989435328915,0.0,0.0,0.0,0.0,0.0,0.0,-10.54,0.0,0.0,0.0
697,0.0,0.0,0.0,0.7090859375,0.0,0.0,0.0,0.0,0.0,0.0,0.7137160143445267,0.0,0.0,0.0,0.0,0.0,0.0,-10.54,0.0,0.0,0.0
698,0.0,0.0,0.0,0.7090859375,0.0,0.0,0.0,0.0,0.0,0.0,0.7136497182640271,0.0,0.0,0.0,0.0,0.0,0.0,-10.54,0.0,0.0,0.0
699,0.0,0.0,0.0,0.70951953125,0.0,0.0,0.0,0.0,0.0,0.0,0.7140151174867689,0.0,0.0,0.0,0.0,0.0,0.0,-10.608,0.0,0.0,0.0
700,0.0,0.0,0.0,0.70951953125,0.0,0.0,0.0,0.0,0.0,0.0,0.7139596906567753,0.0,0.0,0.0,0.0,0.0,0.0,-10.608,0.0,0.0,0.0
701,0.0,0.0,0.0,0.70951953125,0.0,0.0,0.0,0.0,0.0,0.0,0.7138814180410004,0.0,0.0,0.0,0.0,0.0,0.0,-10.608,0.0,0.0,0.0
702,0.0,0.0,0.0,0.7099521484375,0.0,0.0,0.0,0.0,0.0,0.0,0.714236775582134,0.0,0.0,0.0,0.0,0.0,0.0,-10.792,0.0,0.0,0.0
703,0.0,0.0,0.0,0.7099521484375,0.0,0.0,0.0,0.0,0.0,0.0,0.7141601923826187,0.0,0.0,0.0,0.0,0.0,0.0,-10.792,0.0,0.0,0.0
704,0.0,0.0,0.0,0.7099521484375,0.0,0.0,0.0,0.0,0.0,0.0,0.7140957476142563,0.0,0.0,0.0,0.0,0.0,0.0,-10.792,0.0,0.0,0.0
705,0.0,0.0,0.0,0.7100966796875,0.0,0.0,0.0,0.0,0.0,0.0,0.7141398563300737,0.0,0.0,0.0,0.0,0.0,0.0,-11.088,0.0,0.0,0.0
706,0.0,0.0,0.0,0.7102412109375,0.0,0.0,0.0,0.0,0.0,0.0,0.7141679011600447,0.0,0.0,0.0,0.0,0.0,0.0,-11.112,0.0,0.0,0.0
707,0.0,0.0,0.0,0.7102412109375,0.0,0.0,0.0,0.0,0.0,0.0,0.7140574365982943,0.0,0.0,0.0,0.0,0.0,0.0,-11.112,0.0,0.0,0.0
708,0.0,0.0,0.0,0.7102412109375,0.0,0.0,0.0,0.0,0.0,0.0,0.7139777876852885,0.0,0.0,0.0,0.0,0.0,0.0,-11.112,0.0,0.0,0.0
709,0.0,0.0,0.0,0.7102412109375,0.0,0.0,0.0,0.0,0.0,0.0,0.7139020618653087,0.0,0.0,0.0,0.0,0.0,0.0,-10.884,0.0,0.0,0.0
710,0.0,0.0,0.0,0.7102412109375,0.0,0.0,0.0,0.0,0.0,0.0,0.71384515455563,0.0,0.0,0.0,0.0,0.0,0.0,-10.884,0.0,0.0,0.0
711,0.0,0.0,0.0,0.7100966796875,0.0,0.0,0.0,0.0,0.0,0.0,0.7136022361067684,0.0,0.0,0.0,0.0,0.0,0.0,-10.748,0.0,0.0,0.0
712,0.0,0.0,0.0,0.7100966796875,0.0,0.0,0.0,0.0,0.0,0.0,0.7135384760725947,0.0,0.0,0.0,0.0,0.0,0.0,-10.748,0.0,0.0,0.0
713,0.0,0.0,0.0,0.7100966796875,0.0,0.0,0.0,0.0,0.0,0.0,0.7134479374141169,0.0,0.0,0.0,0.0,0.0,0.0,-10.748,0.0,0.0,0.0
714,0.0,0.0,0.0,0.7102412109375,0.0,0.0,0.0,0.0,0.0,0.0,0.7135209073559022,0.0,0.0,0.0,0.0,0.0,0.0,-10.7,0.0,0.0,0.0
715,0.0,0.0,0.0,0.7102412109375,0.0,0.0,0.0,0.0,0.0,0.0,0.7134597830568624,0.0,0.0,0.0,0.0,0.0,0.0,-10.7,0.0,0.0,0.0
716,0.0,0.0,0.0,0.7102412109375,0.0,0.0,0.0,0.0,0.0,0.0,0.7133895040660464,0.0,0.0,0.0,0.0,0.0,0.0,-10.7,0.0,0.0,0.0
717,0.0,0.0,0.0,0.7102412109375,0.0,0.0,0.0,0.0,0.0,0.0,0.7133262004247725,0.0,0.0,0.0,0.0,0.0,0.0,-10.884,0.0,0.0,0.0
718,0.0,0.0,0.0,0.7102412109375,0.0,0.0,0.0,0.0,0.0,0.0,0.7132372088606461,0.0,0.0,0.0,0.0,0.0,0.0,-10.884,0.0,0.0,0.0
719,0.0,0.0,0.0,0.7102412109375,0.0,0.0,0.0,0.0,0.0,0.0,0.7131780673328998,0.0,0.0,0.0,0.0,0.0,0.0,-10.884,0.0,0.0,0.0
720,0.0,0.0,0.0,0.7102412109375,0.0,0.0,0.0,0.0,0.0,0.0,0.713093191282289,0.0,0.0,0.0,0.0,0.0,0.0,-10.792,0.0,0.0,0.0
721,0.0,0.0,0.0,0.7102412109375,0.0,0.0,0.0,0.0,0.0,0.0,0.7129782568962663,0.0,0.0,0.0,0.0,0.0,0.0,-10.792,0.0,0.0,0.0
722,0.0,0.0,0.0,0.7102412109375,0.0,0.0,0.0,0.0,0.0,0.0,0.7128801233002249,0.0,0.0,0.0,0.0,0.0,0.0,-10.7,0.0,0.0,0.0
723,0.0,0.0,0.0,0.7102412109375,0.0,0.0,0.0,0.0,0.0,0.0,0.7128062530166617,0.0,0.0,0.0,0.0,0.0,0.0,-10.7,0.0,0.0,0.0
724,0.0,0.0,0.0,0.7100966796875,0.0,0.0,0.0,0.0,0.0,0.0,0.7125857370241913,0.0,0.0,0.0,0.0,0.0,0.0,-10.632,0.0,0.0,0.0
725,0.0,0.0,0.0,0.7100966796875,0.0,0.0,0.0,0.0,0.0,0.0,0.7125149031643676,0.0,0.0,0.0,0.0,0.0,0.0,-10.632,0.0,0.0,0.0
726,0.0,0.0,0.0,0.7100966796875,0.0,0.0,0.0,0.0,0.0,0.0,0.7124427520836037,0.0,0.0,0.0,0.0,0.0,0.0,-10.632,0.0,0.0,0.0
727,0.0,0.0,0.0,0.7100966796875,0.0,0.0,0.0,0.0,0.0,0.0,0.7123572610533498,0.0,0.0,0.0,0.0,0.0,0.0,-10.496,0.0,0.0,0.0
728,0.0,0.0,0.0,0.7100966796875,0.0,0.0,0.0,0.0,0.0,0.0,0.7122930810841418,0.0,0.0,0.0,0.0,0.0,0.0,-10.496,0.0,0.0,0.0
729,0.0,0.0,0.0,0.7100966796875,0.0,0.0,0.0,0.0,0.0,0.0,0.712216193031474,0.0,0.0,0.0,0.0,0.0,0.0,-10.496,0.0,0.0,0.0
730,0.0,0.0,0.0,0.7100966796875,0.0,0.0,0.0,0.0,0.0,0.0,0.7121426509461789,0.0,0.0,0.0,0.0,0.0,0.0,-10.428,0.0,0.0,0.0
731,0.0,0.0,0.0,0.7100966796875,0.0,0.0,0.0,0.0,0.0,0.0,0.7120725622955167,0.0,0.0,0.0,0.0,0.0,0.0,-10.428,0.0,0.0,0.0
732,0.0,0.0,0.0,0.7100966796875,0.0,0.0,0.0,0.0,0.0,0.0,0.7119926947837307,0.0,0.0,0.0,0.0,0.0,0.0,-10.608,0.0,0.0,0.0
733,0.0,0.0,0.0,0.7100966796875,0.0,0.0,0.0,0.0,0.0,0.0,0.7119107688674458,0.0,0.0,0.0,0.0,0.0,0.0,-10.608,0.0,0.0,0.0
734,0.0,0.0,0.0,0.7100966796875,0.0,0.0,0.0,0.0,0.0,0.0,0.7118484964884497,0.0,0.0,0.0,0.0,0.0,0.0,-10.608,0.0,0.0,0.0
735,0.0,0.0,0.0,0.7100966796875,0.0,0.0,0.0,0.0,0.0,0.0,0.7117504399809258,0.0,0.0,0.0,0.0,0.0,0.0,-10.52,0.0,0.0,0.0
736,0.0,0.0,0.0,0.7100966796875,0.0,0.0,0.0,0.0,0.0,0.0,0.7116817026005392,0.0,0.0,0.0,0.0,0.0,0.0,-10.52,0.0,0.0,0.0
737,0.0,0.0,0.0,0.7100966796875,0.0,0.0,0.0,0.0,0.0,0.0,0.7116188516658564,0.0,0.0,0.0,0.0,0.0,0.0,-10.52,0.0,0.0,0.0
738,0.0,0.0,0.0,0.7100966796875,0.0,0.0,0.0,0.0,0.0,0.0,0.7115230054273757,0.0,0.0,0.0,0.0,0.0,0.0,-10.52,0.0,0.0,0.0
739,0.0,0.0,0.0,0.7100966796875,0.0,0.0,0.0,0.0,0.0,0.0,0.7114200810496637,0.0,0.0,0.0,0.0,0.0,0.0,-10.52,0.0,0.0,0.0
740,0.0,0.0,0.0,0.7099521484375,0.0,0.0,0.0,0.0,0.0,0.0,0.7111622561734009,0.0,0.0,0.0,0.0,0.0,0.0,-10.288,0.0,0.0,0.0
741,0.0,0.0,0.0,0.7099521484375,0.0,0.0,0.0,0.0,0.0,0.0,0.7110522550889106,0.0,0.0,0.0,0.0,0.0,0.0,-10.288,0.0,0.0,0.0
742,0.0,0.0,0.0,0.7100966796875,0.0,0.0,0.0,0.0,0.0,0.0,0.7110784892041867,0.0,0.0,0.0,0.0,0.0,0.0,-10.288,0.0,0.0,0.0
743,0.0,0.0,0.0,0.7100966796875,0.0,0.0,0.0,0.0,0.0,0.0,0.7109521572688742,0.0,0.0,0.0,0.0,0.0,0.0,-10.52,0.0,0.0,0.0
744,0.0,0.0,0.0,0.7100966796875,0.0,0.0,0.0,0.0,0.0,0.0,0.7108440120486215,0.0,0.0,0.0,0.0,0.0,0.0,-10.52,0.0,0.0,0.0
745,0.0,0.0,0.0,0.7102412109375,0.0,0.0,0.0,0.0,0.0,0.0,0.7108736917229055,0.0,0.0,0.0,0.0,0.0,0.0,-10.68,0.0,0.0,0.0
746,0.0,0.0,0.0,0.7102412109375,0.0,0.0,0.0,0.0,0.0,0.0,0.7107800481103197,0.0,0.0,0.0,0.0,0.0,0.0,-10.68,0.0,0.0,0.0
747,0.0,0.0,0.0,0.7102412109375,0.0,0.0,0.0,0.0,0.0,0.0,0.7107205931347973,0.0,0.0,0.0,0.0,0.0,0.0,-10.68,0.0,0.0,0.0
748,0.0,0.0,0.0,0.7102412109375,0.0,0.0,0.0,0.0,0.0,0.0,0.710647918058189,0.0,0.0,0.0,0.0,0.0,0.0,-10.768,0.0,0.0,0.0
749,0.0,0.0,0.0,0.7102412109375,0.0,0.0,0.0,0.0,0.0,0.0,0.7105839261538208,0.0,0.0,0.0,0.0,0.0,0.0,-10.768,0.0,0.0,0.0
750,0.0,0.0,0.0,0.7102412109375,0.0,0.0,0.0,0.0,0.0,0.0,0.71051133008139,0.0,0.0,0.0,0.0,0.0,0.0,-10.768,0.0,0.0,0.0
751,0.0,0.0,0.0,0.7102412109375,0.0,0.0,0.0,0.0,0.0,0.0,0.7104278822070216,0.0,0.0,0.0,0.0,0.0,0.0,-10.608,0.0,0.0,0.0
752,0.0,0.0,0.0,0.7102412109375,0.0,0.0,0.0,0.0,0.0,0.0,0.7103647200144318,0.0,0.0,0.0,0.0,0.0,0.0,-10.608,0.0,0.0,0.0
753,0.0,0.0,0.0,0.7102412109375,0.0,0.0,0.0,0.0,0.0,0.0,0.7103067871201827,0.0,0.0,0.0,0.0,0.0,0.0,-10.608,0.0,0.0,0.0
754,0.0,0.0,0.0,0.7100966796875,0.0,0.0,0.0,0.0,0.0,0.0,0.7100724876770718,0.0,0.0,0.0,0.0,0.0,0.0,-10.632,0.0,0.0,0.0
755,0.0,0.0,0.0,0.7100966796875,0.0,0.0,0.0,0.0,0.0,0.0,0.709982921143307,0.0,0.0,0.0,0.0,0.0,0.0,-10.632,0.0,0.0,0.0
756,0.0,0.0,0.0,0.7100966796875,0.0,0.0,0.0,0.0,0.0,0.0,0.7099000051548553,0.0,0.0,0.0,0.0,0.0,0.0,-10.54,0.0,0.0,0.0
757,0.0,0.0,0.0,0.7100966796875,0.0,0.0,0.0,0.0,0.0,0.0,0.7098215179765468,0.0,0.0,0.0,0.0,0.0,0.0,-10.54,0.0,0.0,0.0
758,0.0,0.0,0.0,0.7100966796875,0.0,0.0,0.0,0.0,0.0,0.0,0.7097504037912006,0.0,0.0,0.0,0.0,0.0,0.0,-10.54,0.0,0.0,0.0
759,0.0,0.0,0.0,0.7100966796875,0.0,0.0,0.0,0.0,0.0,0.0,0.7096694778409472,0.0,0.0,0.0,0.0,0.0,0.0,-10.608,0.0,0.0,0.0
760,0.0,0.0,0.0,0.7100966796875,0.0,0.0,0.0,0.0,0.0,0.0,0.7095833300372824,0.0,0.0,0.0,0.0,0.0,0.0,-10.608,0.0,0.0,0.0
761,0.0,0.0,0.0,0.7100966796875,0.0,0.0,0.0,0.0,0.0,0.0,0.7095102771191953,0.0,0.0,0.0,0.0,0.0,0.0,-10.816,0.0,0.0,0.0
762,0.0,0.0,0.0,0.7100966796875,0.0,0.0,0.0,0.0,0.0,0.0,0.7094230791228585,0.0,0.0,0.0,0.0,0.0,0.0,-10.816,0.0,0.0,0.0
763,0.0,0.0,0.0,0.7100966796875,0.0,0.0,0.0,0.0,0.0,0.0,0.7093561738091566,0.0,0.0,0.0,0.0,0.0,0.0,-10.816,0.0,0.0,0.0
764,0.0,0.0,0.0,0.7100966796875,0.0,0.0,0.0,0.0,0.0,0.0,0.7092402766514457,0.0,0.0,0.0,0.0,0.0,0.0,-10.816,0.0,0.0,0.0
765,0.0,0.0,0.0,0.7100966796875,0.0,0.0,0.0,0.0,0.0,0.0,0.7091673130885118,0.0,0.0,0.0,0.0,0.0,0.0,-10.816,0.0,0.0,0.0
766,0.0,0.0,0.0,0.7100966796875,0.0,0.0,0.0,0.0,0.0,0.0,0.7090970523290097,0.0,0.0,0.0,0.0,0.0,0.0,-10.816,0.0,0.0,0.0
767,0.0,0.0,0.0,0.7099521484375,0.0,0.0,0.0,0.0,0.0,0.0,0.7088754866796693,0.0,0.0,0.0,0.0,0.0,0.0,-10.86,0.0,0.0,0.0
768,0.0,0.0,0.0,0.7099521484375,0.0,0.0,0.0,0.0,0.0,0.0,0.7087868246569016,0.0,0.0,0.0,0.0,0.0,0.0,-10.86,0.0,0.0,0.0
769,0.0,0.0,0.0,0.7098076171875,0.0,0.0,0.0,0.0,0.0,0.0,0.7085484341353884,0.0,0.0,0.0,0.0,0.0,0.0,-10.816,0.0,0.0,0.0
770,0.0,0.0,0.0,0.7098076171875,0.0,0.0,0.0,0.0,0.0,0.0,0.7084275026206354,0.0,0.0,0.0,0.0,0.0,0.0,-10.816,0.0,0.0,0.0
771,0.0,0.0,0.0,0.7098076171875,0.0,0.0,0.0,0.0,0.0,0.0,0.7083299960750753,0.0,0.0,0.0,0.0,0.0,0.0,-10.884,0.0,0.0,0.0
772,0.0,0.0,0.0,0.7098076171875,0.0,0.0,0.0,0.0,0.0,0.0,0.7082441374544567,0.0,0.0,0.0,0.0,0.0,0.0,-10.884,0.0,0.0,0.0
773,0.0,0.0,0.0,0.7096640625,0.0,0.0,0.0,0.0,0.0,0.0,0.7080233058900276,0.0,0.0,0.0,0.0,0.0,0.0,-11.0,0.0,0.0,0.0
774,0.0,0.0,0.0,0.7096640625,0.0,0.0,0.0,0.0,0.0,0.0,0.7079594634201435,0.0,0.0,0.0,0.0,0.0,0.0,-11.0,0.0,0.0,0.0
775,0.0,0.0,0.0,0.7096640625,0.0,0.0,0.0,0.0,0.0,0.0,0.707894880881529,0.0,0.0,0.0,0.0,0.0,0.0,-11.0,0.0,0.0,0.0
776,0.0,0.0,0.0,0.70923046875,0.0,0.0,0.0,0.0,0.0,0.0,0.7072515745933872,0.0,0.0,0.0,0.0,0.0,0.0,-11.252,0.0,0.0,0.0
777,0.0,0.0,0.0,0.70894140625,0.0,0.0,0.0,0.0,0.0,0.0,0.7068878414091296,0.0,0.0,0.0,0.0,0.0,0.0,-11.068,0.0,0.0,0.0
778,0.0,0.0,0.0,0.70894140625,0.0,0.0,0.0,0.0,0.0,0.0,0.7067656467037906,0.0,0.0,0.0,0.0,0.0,0.0,-11.068,0.0,0.0,0.0
779,0.0,0.0,0.0,0.7083642578125,0.0,0.0,0.0,0.0,0.0,0.0,0.7061004647322768,0.0,0.0,0.0,0.0,0.0,0.0,-11.068,0.0,0.0,0.0
780,0.0,0.0,0.0,0.7083642578125,0.0,0.0,0.0,0.0,0.0,0.0,0.7060379469889558,0.0,0.0,0.0,0.0,0.0,0.0,-11.068,0.0,0.0,0.0
781,0.0,0.0,0.0,0.7083642578125,0.0,0.0,0.0,0.0,0.0,0.0,0.7059671951450911,0.0,0.0,0.0,0.0,0.0,0.0,-11.068,0.0,0.0,0.0
782,0.0,0.0,0.0,0.707921875,0.0,0.0,0.0,0.0,0.0,0.0,0.7054353065772202,0.0,0.0,0.0,0.0,0.0,0.0,-10.84,0.0,0.0,0.0
783,0.0,0.0,0.0,0.707921875,0.0,0.0,0.0,0.0,0.0,0.0,0.7053545420183613,0.0,0.0,0.0,0.0,0.0,0.0,-10.84,0.0,0.0,0.0
784,0.0,0.0,0.0,0.7074892578125,0.0,0.0,0.0,0.0,0.0,0.0,0.7048549769283005,0.0,0.0,0.0,0.0,0.0,0.0,-11.412,0.0,0.0,0.0
785,0.0,0.0,0.0,0.7074892578125,0.0,0.0,0.0,0.0,0.0,0.0,0.704794603120151,0.0,0.0,0.0,0.0,0.0,0.0,-11.412,0.0,0.0,0.0
786,0.0,0.0,0.0,0.7074892578125,0.0,0.0,0.0,0.0,0.0,0.0,0.70470432997135,0.0,0.0,0.0,0.0,0.0,0.0,-11.412,0.0,0.0,0.0
787,0.0,0.0,0.0,0.706478515625,0.0,0.0,0.0,0.0,0.0,0.0,0.7035980603741218,0.0,0.0,0.0,0.0,0.0,0.0,-11.572,0.0,0.0,0.0
788,0.0,0.0,0.0,0.706478515625,0.0,0.0,0.0,0.0,0.0,0.0,0.7035052056223772,0.0,0.0,0.0,0.0,0.0,0.0,-11.572,0.0,0.0,0.0
789,0.0,0.0,0.0,0.7056123046875,0.0,0.0,0.0,0.0,0.0,0.0,0.7025486249550059,0.0,0.0,0.0,0.0,0.0,0.0,-11.456,0.0,0.0,0.0
790,0.0,0.0,0.0,0.7056123046875,0.0,0.0,0.0,0.0,0.0,0.0,0.7024540699640555,0.0,0.0,0.0,0.0,0.0,0.0,-11.456,0.0,0.0,0.0
791,0.0,0.0,0.0,0.70474609375,0.0,0.0,0.0,0.0,0.0,0.0,0.7015174211081721,0.0,0.0,0.0,0.0,0.0,0.0,-11.204,0.0,0.0,0.0
792,0.0,0.0,0.0,0.70474609375,0.0,0.0,0.0,0.0,0.0,0.0,0.7014565875200689,0.0,0.0,0.0,0.0,0.0,0.0,-11.204,0.0,0.0,0.0
793,0.0,0.0,0.0,0.70474609375,0.0,0.0,0.0,0.0,0.0,0.0,0.7013790877686575,0.0,0.0,0.0,0.0,0.0,0.0,-11.204,0.0,0.0,0.0
794,0.0,0.0,0.0,0.7037265625,0.0,0.0,0.0,0.0,0.0,0.0,0.7002744674228963,0.0,0.0,0.0,0.0,0.0,0.0,-11.48,0.0,0.0,0.0
795,0.0,0.0,0.0,0.7037265625,0.0,0.0,0.0,0.0,0.0,0.0,0.700200459021836,0.0,0.0,0.0,0.0,0.0,0.0,-11.48,0.0,0.0,0.0
796,0.0,0.0,0.0,0.7037265625,0.0,0.0,0.0,0.0,0.0,0.0,0.7001283876239925,0.0,0.0,0.0,0.0,0.0,0.0,-11.48,0.0,0.0,0.0
797,0.0,0.0,0.0,0.7024267578125,0.0,0.0,0.0,0.0,0.0,0.0,0.69874383164709,0.0,0.0,0.0,0.0,0.0,0.0,-11.708,0.0,0.0,0.0
798,0.0,0.0,0.0,0.7024267578125,0.0,0.0,0.0,0.0,0.0,0.0,0.6986851450017807,0.0,0.0,0.0,0.0,0.0,0.0,-11.708,0.0,0.0,0.0
799,0.0,0.0,0.0,0.7024267578125,0.0,0.0,0.0,0.0,0.0,0.0,0.6986218045781661,0.0,0.0,0.0,0.0,0.0,0.0,-11.708,0.0,0.0,0.0
800,0.0,0.0,0.0,0.7011279296875,0.0,0.0,0.0,0.0,0.0,0.0,0.6972496002804084,0.0,0.0,0.0,0.0,0.0,0.0,-11.524,0.0,0.0,0.0
801,0.0,0.0,0.0,0.7011279296875,0.0,0.0,0.0,0.0,0.0,0.0,0.6971832434155762,0.0,0.0,0.0,0.0,0.0,0.0,-11.524,0.0,0.0,0.0
802,0.0,0.0,0.0,0.7011279296875,0.0,0.0,0.0,0.0,0.0,0.0,0.6971069239970888,0.0,0.0,0.0,0.0,0.0,0.0,-11.524,0.0,0.0,0.0
803,0.0,0.0,0.0,0.6999638671875,0.0,0.0,0.0,0.0,0.0,0.0,0.6958178737586053,0.0,0.0,0.0,0.0,0.0,0.0,-11.252,0.0,0.0,0.0
804,0.0,0.0,0.0,0.6999638671875,0.0,0.0,0.0,0.0,0.0,0.0,0.6957424659676624,0.0,0.0,0.0,0.0,0.0,0.0,-11.252,0.0,0.0,0.0
805,0.0,0.0,0.0,0.6986640625,0.0,0.0,0.0,0.0,0.0,0.0,0.6943792734412007,0.0,0.0,0.0,0.0,0.0,0.0,-11.684,0.0,0.0,0.0
806,0.0,0.0,0.0,0.6986640625,0.0,0.0,0.0,0.0,0.0,0.0,0.6943063141947593,0.0,0.0,0.0,0.0,0.0,0.0,-11.684,0.0,0.0,0.0
807,0.0,0.0,0.0,0.6970673828125,0.0,0.0,0.0,0.0,0.0,0.0,0.6926290042097711,0.0,0.0,0.0,0.0,0.0,0.0,-11.708,0.0,0.0,0.0
808,0.0,0.0,0.0,0.6970673828125,0.0,0.0,0.0,0.0,0.0,0.0,0.6925548692641176,0.0,0.0,0.0,0.0,0.0,0.0,-11.708,0.0,0.0,0.0
809,0.0,0.0,0.0,0.6970673828125,0.0,0.0,0.0,0.0,0.0,0.0,0.6924792187663186,0.0,0.0,0.0,0.0,0.0,0.0,-11.708,0.0,0.0,0.0
810,0.0,0.0,0.0,0.6956142578125,0.0,0.0,0.0,0.0,0.0,0.0,0.6909396820428884,0.0,0.0,0.0,0.0,0.0,0.0,-11.456,0.0,0.0,0.0
811,0.0,0.0,0.0,0.6956142578125,0.0,0.0,0.0,0.0,0.0,0.0,0.6908214294852882,0.0,0.0,0.0,0.0,0.0,0.0,-11.456,0.0,0.0,0.0
812,0.0,0.0,0.0,0.6938818359375,0.0,0.0,0.0,0.0,0.0,0.0,0.6889871348834494,0.0,0.0,0.0,0.0,0.0,0.0,-11.8,0.0,0.0,0.0
813,0.0,0.0,0.0,0.6938818359375,0.0,0.0,0.0,0.0,0.0,0.0,0.6888974706548262,0.0,0.0,0.0,0.0,0.0,0.0,-11.8,0.0,0.0,0.0
814,0.0,0.0,0.0,0.69199609375,0.0,0.0,0.0,0.0,0.0,0.0,0.6869187917219712,0.0,0.0,0.0,0.0,0.0,0.0,-11.732,0.0,0.0,0.0
815,0.0,0.0,0.0,0.69199609375,0.0,0.0,0.0,0.0,0.0,0.0,0.6868311150263011,0.0,0.0,0.0,0.0,0.0,0.0,-11.732,0.0,0.0,0.0
816,0.0,0.0,0.0,0.69199609375,0.0,0.0,0.0,0.0,0.0,0.0,0.6867334040377683,0.0,0.0,0.0,0.0,0.0,0.0,-11.732,0.0,0.0,0.0
817,0.0,0.0,0.0,0.690263671875,0.0,0.0,0.0,0.0,0.0,0.0,0.6849080198492729,0.0,0.0,0.0,0.0,0.0,0.0,-11.296,0.0,0.0,0.0
818,0.0,0.0,0.0,0.6882333984375,0.0,0.0,0.0,0.0,0.0,0.0,0.6827872125281911,0.0,0.0,0.0,0.0,0.0,0.0,-11.204,0.0,0.0,0.0
819,0.0,0.0,0.0,0.6882333984375,0.0,0.0,0.0,0.0,0.0,0.0,0.6827024100511301,0.0,0.0,0.0,0.0,0.0,0.0,-11.204,0.0,0.0,0.0
820,0.0,0.0,0.0,0.6882333984375,0.0,0.0,0.0,0.0,0.0,0.0,0.6826199096928253,0.0,0.0,0.0,0.0,0.0,0.0,-11.204,0.0,0.0,0.0
821,0.0,0.0,0.0,0.6862119140625,0.0,0.0,0.0,0.0,0.0,0.0,0.6805093404578796,0.0,0.0,0.0,0.0,0.0,0.0,-11.388,0.0,0.0,0.0
822,0.0,0.0,0.0,0.6862119140625,0.0,0.0,0.0,0.0,0.0,0.0,0.6804242579960667,0.0,0.0,0.0,0.0,0.0,0.0,-11.388,0.0,0.0,0.0
823,0.0,0.0,0.0,0.684037109375,0.0,0.0,0.0,0.0,0.0,0.0,0.6781611642813228,0.0,0.0,0.0,0.0,0.0,0.0,-11.412,0.0,0.0,0.0
824,0.0,0.0,0.0,0.684037109375,0.0,0.0,0.0,0.0,0.0,0.0,0.6780807005046382,0.0,0.0,0.0,0.0,0.0,0.0,-11.412,0.0,0.0,0.0
825,0.0,0.0,0.0,0.6817177734375,0.0,0.0,0.0,0.0,0.0,0.0,0.6756666845447263,0.0,0.0,0.0,0.0,0.0,0.0,-11.388,0.0,0.0,0.0
826,0.0,0.0,0.0,0.6817177734375,0.0,0.0,0.0,0.0,0.0,0.0,0.6755795922591399,0.0,0.0,0.0,0.0,0.0,0.0,-11.388,0.0,0.0,0.0
827,0.0,0.0,0.0,0.679408203125,0.0,0.0,0.0,0.0,0.0,0.0,0.6731813420229619,0.0,0.0,0.0,0.0,0.0,0.0,-11.16,0.0,0.0,0.0
828,0.0,0.0,0.0,0.679408203125,0.0,0.0,0.0,0.0,0.0,0.0,0.6730662616989812,0.0,0.0,0.0,0.0,0.0,0.0,-11.16,0.0,0.0,0.0
829,0.0,0.0,0.0,0.676935546875,0.0,0.0,0.0,0.0,0.0,0.0,0.6705040131411494,0.0,0.0,0.0,0.0,0.0,0.0,-11.66,0.0,0.0,0.0
830,0.0,0.0,0.0,0.676935546875,0.0,0.0,0.0,0.0,0.0,0.0,0.6704154180548584,0.0,0.0,0.0,0.0,0.0,0.0,-11.66,0.0,0.0,0.0
831,0.0,0.0,0.0,0.676935546875,0.0,0.0,0.0,0.0,0.0,0.0,0.6703263036517295,0.0,0.0,0.0,0.0,0.0,0.0,-11.66,0.0,0.0,0.0
832,0.0,0.0,0.0,0.67418359375,0.0,0.0,0.0,0.0,0.0,0.0,0.6674816014183755,0.0,0.0,0.0,0.0,0.0,0.0,-11.752,0.0,0.0,0.0
833,0.0,0.0,0.0,0.67418359375,0.0,0.0,0.0,0.0,0.0,0.0,0.6673943817727565,0.0,0.0,0.0,0.0,0.0,0.0,-11.752,0.0,0.0,0.0
834,0.0,0.0,0.0,0.6715849609375,0.0,0.0,0.0,0.0,0.0,0.0,0.6647077811423464,0.0,0.0,0.0,0.0,0.0,0.0,-12.212,0.0,0.0,0.0
835,0.0,0.0,0.0,0.6715849609375,0.0,0.0,0.0,0.0,0.0,0.0,0.6646234597401497,0.0,0.0,0.0,0.0,0.0,0.0,-12.212,0.0,0.0,0.0
836,0.0,0.0,0.0,0.6689775390625,0.0,0.0,0.0,0.0,0.0,0.0,0.6619300247927284,0.0,0.0,0.0,0.0,0.0,0.0,-11.776,0.0,0.0,0.0
837,0.0,0.0,0.0,0.6689775390625,0.0,0.0,0.0,0.0,0.0,0.0,0.661842849284825,0.0,0.0,0.0,0.0,0.0,0.0,-11.776,0.0,0.0,0.0
838,0.0,0.0,0.0,0.666802734375,0.0,0.0,0.0,0.0,0.0,0.0,0.6595820673953031,0.0,0.0,0.0,0.0,0.0,0.0,-11.432,0.0,0.0,0.0
839,0.0,0.0,0.0,0.666802734375,0.0,0.0,0.0,0.0,0.0,0.0,0.6594979607947525,0.0,0.0,0.0,0.0,0.0,0.0,-11.432,0.0,0.0,0.0
840,0.0,0.0,0.0,0.66405078125,0.0,0.0,0.0,0.0,0.0,0.0,0.6566332831560207,0.0,0.0,0.0,0.0,0.0,0.0,-13.012,0.0,0.0,0.0
841,0.0,0.0,0.0,0.66405078125,0.0,0.0,0.0,0.0,0.0,0.0,0.6565488228906169,0.0,0.0,0.0,0.0,0.0,0.0,-13.012,0.0,0.0,0.0
842,0.0,0.0,0.0,0.66405078125,0.0,0.0,0.0,0.0,0.0,0.0,0.6564656439749894,0.0,0.0,0.0,0.0,0.0,0.0,-13.012,0.0,0.0,0.0
843,0.0,0.0,0.0,0.6611630859375,0.0,0.0,0.0,0.0,0.0,0.0,0.653488823406121,0.0,0.0,0.0,0.0,0.0,0.0,-12.372,0.0,0.0,0.0
844,0.0,0.0,0.0,0.6611630859375,0.0,0.0,0.0,0.0,0.0,0.0,0.6534056785967776,0.0,0.0,0.0,0.0,0.0,0.0,-12.372,0.0,0.0,0.0
