EmanuelSamir/lab201_ws_projsamir/sawyer_dev/data/sawyer/temp/training_data_all.csv
,j1,j2,j3,j4,j5,j6,j7,jd1,jd2,jd3,jd4,jd5,jd6,jd7,e1,e2,e3,e4,e5,e6,e7
0,0.0,0.0,0.0,0.0,0.0,0.0,0.0,0.0,0.0,0.0,0.0,0.0,0.0,0.0,0.0,0.0,0.0,0.0,0.0,0.0,0.0
1,-0.002103515625,-0.001509765625,2.1484375e-05,-0.0039794921875,0.0033408203125,-0.0048837890625,-0.0016728515625,-0.8911477296796338,-0.2779981958386395,0.40522321799780514,-0.610921138118444,0.3780864718420036,-0.4042930316381963,1.0264568525721183,0.104,-44.324,-4.556,-13.812,2.324,-0.7,-0.024
2,-0.002103515625,-0.001509765625,2.1484375e-05,-0.0039794921875,0.0033408203125,-0.0048837890625,-0.0016728515625,-0.8911477296796338,-0.2779981958386395,0.40522321799780514,-0.610921138118444,0.3780864718420036,-0.4042930316381963,1.0264568525721183,0.156,-44.268,-4.6,-13.972,2.296,-0.708,0.0
3,-0.002103515625,-0.001509765625,2.1484375e-05,-0.0039794921875,0.0033408203125,-0.0048837890625,-0.0016728515625,-0.8911477296796338,-0.2779981958386395,0.40522321799780514,-0.610921138118444,0.3780864718420036,-0.4042930316381963,1.0264568525721183,0.052,-44.324,-4.576,-13.856,2.276,-0.708,-0.012
4,-0.00230859375,-0.001509765625,0.000166015625,-0.0042685546875,0.002927734375,-0.0048837890625,-0.001466796875,-0.8911477296796338,-0.2779981958386395,0.40522321799780514,-0.610921138118444,0.3780864718420036,-0.4042930316381963,1.0264568525721183,-3.88,-45.456,-4.392,-15.388,2.42,-0.72,0.056
5,-0.002720703125,-0.0014072265625,0.0007431640625,-0.006009765625,0.0012880859375,-0.0040576171875,0.0018125,-0.8911477296796338,-0.2779981958386395,0.40522321799780514,-0.610921138118444,0.3780864718420036,-0.4042930316381963,1.0264568525721183,-7.6,-48.752,-4.44,-18.384,3.232,-1.228,0.044
6,-0.0032412109375,-0.0013037109375,0.0020341796875,-0.0077421875,0.0010810546875,-0.0048837890625,0.006951171875,-0.8911477296796338,-0.2779981958386395,0.40522321799780514,-0.610921138118444,0.3780864718420036,-0.4042930316381963,1.0264568525721183,-11.8,-52.8,-4.16,-19.596,3.604,-1.704,0.108
7,-0.0042705078125,-0.0013037109375,0.00391015625,-0.0094931640625,0.00189453125,-0.007349609375,0.0139228515625,-0.8911477296796338,-0.2779981958386395,0.40522321799780514,-0.610921138118444,0.3780864718420036,-0.4042930316381963,1.0264568525721183,-16.004,-55.12,-5.548,-20.788,3.312,-1.288,0.116
8,-0.005505859375,-0.001509765625,0.005787109375,-0.0119560546875,0.00189453125,-0.0094150390625,0.0223408203125,-0.8911477296796338,-0.2779981958386395,0.40522321799780514,-0.610921138118444,0.3780864718420036,-0.4042930316381963,1.0264568525721183,-20.364,-56.74,-6.244,-20.284,3.376,-1.22,0.136
9,-0.0073642578125,-0.0023330078125,0.0079443359375,-0.0139775390625,0.0027216796875,-0.011880859375,0.03260546875,-0.8911477296796338,-0.2779981958386395,0.40522321799780514,-0.610921138118444,0.3780864718420036,-0.4042930316381963,1.0264568525721183,-24.508,-57.388,-5.988,-21.128,3.468,-1.344,-0.012
10,-0.0098408203125,-0.0033623046875,0.0103984375,-0.016296875,0.0033408203125,-0.0147734375,0.0424560546875,-0.8911477296796338,-0.2779981958386395,0.40522321799780514,-0.610921138118444,0.3780864718420036,-0.4042930316381963,1.0264568525721183,-27.488,-56.364,-5.712,-22.48,3.544,-1.412,0.024
11,-0.012927734375,-0.004494140625,0.01284375,-0.019193359375,0.004787109375,-0.018685546875,0.05066796875,-0.8911477296796338,-0.2779981958386395,0.40522321799780514,-0.610921138118444,0.3780864718420036,-0.4042930316381963,1.0264568525721183,-29.08,-55.768,-5.34,-21.404,3.76,-1.432,0.056
12,-0.016748046875,-0.00594140625,0.0161640625,-0.02208984375,0.0074599609375,-0.0230107421875,0.0584658203125,-0.8911477296796338,-0.2779981958386395,0.40522321799780514,-0.610921138118444,0.3780864718420036,-0.4042930316381963,1.0264568525721183,-29.296,-55.176,-5.712,-20.788,3.372,-1.052,0.068
13,-0.021283203125,-0.0073818359375,0.018609375,-0.0257080078125,0.0099384765625,-0.026935546875,0.0658642578125,-0.8911477296796338,-0.2779981958386395,0.40522321799780514,-0.610921138118444,0.3780864718420036,-0.4042930316381963,1.0264568525721183,-30.092,-54.636,-5.92,-19.644,3.004,-0.884,0.036
14,-0.0264345703125,-0.009234375,0.02134375,-0.029326171875,0.0124169921875,-0.0304345703125,0.0728486328125,-0.8911477296796338,-0.2779981958386395,0.40522321799780514,-0.610921138118444,0.3780864718420036,-0.4042930316381963,1.0264568525721183,-29.456,-53.988,-5.504,-18.112,3.228,-0.96,0.0
15,-0.032107421875,-0.011498046875,0.0240869140625,-0.0326650390625,0.015296875,-0.0337392578125,0.07880078125,-0.8911477296796338,-0.2779981958386395,0.40522321799780514,-0.610921138118444,0.3780864718420036,-0.4042930316381963,1.0264568525721183,-25.68,-52.208,-5.432,-19.024,3.084,-0.996,-0.052
16,-0.038294921875,-0.013453125,0.0265322265625,-0.037447265625,0.01796875,-0.036205078125,0.0835263671875,-0.8911477296796338,-0.2779981958386395,0.40522321799780514,-0.610921138118444,0.3780864718420036,-0.4042930316381963,1.0264568525721183,-20.416,-51.612,-4.716,-18.544,3.324,-1.208,0.044
17,-0.0449970703125,-0.01562109375,0.029564453125,-0.042076171875,0.0221005859375,-0.0395107421875,0.0876318359375,-0.8911477296796338,-0.2779981958386395,0.40522321799780514,-0.610921138118444,0.3780864718420036,-0.4042930316381963,1.0264568525721183,-15.472,-51.344,-4.6,-17.584,3.144,-1.116,0.076
18,-0.0521103515625,-0.0177822265625,0.0325869140625,-0.0468583984375,0.0268388671875,-0.0425966796875,0.09153125,-0.8911477296796338,-0.2779981958386395,0.40522321799780514,-0.610921138118444,0.3780864718420036,-0.4042930316381963,1.0264568525721183,-12.068,-50.532,-5.804,-16.876,2.672,-0.708,0.084
19,-0.05973828125,-0.0201494140625,0.0350322265625,-0.05178515625,0.03095703125,-0.044869140625,0.0954296875,-0.8911477296796338,-0.2779981958386395,0.40522321799780514,-0.610921138118444,0.3780864718420036,-0.4042930316381963,1.0264568525721183,-11.8,-49.508,-5.756,-15.116,2.584,-0.656,0.172
20,-0.0676748046875,-0.023037109375,0.037486328125,-0.055845703125,0.0352822265625,-0.0469345703125,0.09994921875,-0.8911477296796338,-0.2779981958386395,0.40522321799780514,-0.610921138118444,0.3780864718420036,-0.4042930316381963,1.0264568525721183,-13.292,-48.048,-5.548,-15.0,2.584,-0.604,0.2
21,-0.0757216796875,-0.02591796875,0.0397880859375,-0.0603310546875,0.03898828125,-0.0481611328125,0.1048681640625,-0.8911477296796338,-0.2779981958386395,0.40522321799780514,-0.610921138118444,0.3780864718420036,-0.4042930316381963,1.0264568525721183,-9.196,-46.268,-5.548,-16.144,2.848,-0.824,0.188
22,-0.0836513671875,-0.0284912109375,0.04209765625,-0.06540234375,0.0427060546875,-0.0498134765625,0.11061328125,-0.8911477296796338,-0.2779981958386395,0.40522321799780514,-0.610921138118444,0.3780864718420036,-0.4042930316381963,1.0264568525721183,-2.708,-45.348,-4.784,-15.46,3.168,-1.136,0.104
23,-0.0918974609375,-0.0310634765625,0.0446875,-0.07076171875,0.0476513671875,-0.05229296875,0.1171845703125,-0.8911477296796338,-0.2779981958386395,0.40522321799780514,-0.610921138118444,0.3780864718420036,-0.4042930316381963,1.0264568525721183,-0.796,-45.024,-5.456,-15.664,2.7,-0.78,0.052
24,-0.100251953125,-0.033333984375,0.04698828125,-0.0767080078125,0.0521826171875,-0.0545517578125,0.1237568359375,-0.8911477296796338,-0.2779981958386395,0.40522321799780514,-0.610921138118444,0.3780864718420036,-0.4042930316381963,1.0264568525721183,-2.124,-45.348,-5.848,-14.084,2.232,-0.604,0.024
25,-0.1086005859375,-0.0361123046875,0.0494423828125,-0.0813369140625,0.0573349609375,-0.057650390625,0.130728515625,-0.8911477296796338,-0.2779981958386395,0.40522321799780514,-0.610921138118444,0.3780864718420036,-0.4042930316381963,1.0264568525721183,-0.316,-44.432,-5.872,-12.692,1.808,-0.18,0.068
26,-0.116640625,-0.038994140625,0.051599609375,-0.0855419921875,0.06124609375,-0.059716796875,0.13709375,-0.8911477296796338,-0.2779981958386395,0.40522321799780514,-0.610921138118444,0.3780864718420036,-0.4042930316381963,1.0264568525721183,5.848,-41.624,-5.78,-13.444,1.62,-0.016,0.068
27,-0.1248857421875,-0.04167578125,0.0534765625,-0.0900263671875,0.06433203125,-0.0613564453125,0.143458984375,-0.8911477296796338,-0.2779981958386395,0.40522321799780514,-0.610921138118444,0.3780864718420036,-0.4042930316381963,1.0264568525721183,7.068,-39.952,-4.416,-12.736,1.92,-0.504,0.096
28,-0.1331376953125,-0.044455078125,0.0557685546875,-0.09393359375,0.06741796875,-0.064455078125,0.1500302734375,-0.8911477296796338,-0.2779981958386395,0.40522321799780514,-0.610921138118444,0.3780864718420036,-0.4042930316381963,1.0264568525721183,5.74,-39.196,-3.932,-13.056,1.976,-0.26,0.076
29,-0.140869140625,-0.0466162109375,0.0577890625,-0.0988701171875,0.0709296875,-0.0667265625,0.1570146484375,-0.8911477296796338,-0.2779981958386395,0.40522321799780514,-0.610921138118444,0.3780864718420036,-0.4042930316381963,1.0264568525721183,6.38,-38.924,-3.976,-13.104,1.956,-0.384,0.012
30,-0.14839453125,-0.0485712890625,0.0599462890625,-0.104076171875,0.0742216796875,-0.0696064453125,0.1639873046875,-0.8911477296796338,-0.2779981958386395,0.40522321799780514,-0.610921138118444,0.3780864718420036,-0.4042930316381963,1.0264568525721183,11.536,-39.68,-4.044,-11.96,1.904,-0.524,0.004
31,-0.15570703125,-0.0506357421875,0.062544921875,-0.1085703125,0.077720703125,-0.0731181640625,0.1701455078125,-0.8911477296796338,-0.2779981958386395,0.40522321799780514,-0.610921138118444,0.3780864718420036,-0.4042930316381963,1.0264568525721183,12.068,-40.328,-5.016,-11.708,1.672,-0.024,0.052
32,-0.162814453125,-0.0526943359375,0.064701171875,-0.112765625,0.08061328125,-0.0751708984375,0.17609765625,-0.8911477296796338,-0.2779981958386395,0.40522321799780514,-0.610921138118444,0.3780864718420036,-0.4042930316381963,1.0264568525721183,9.036,-40.06,-5.248,-11.16,1.328,-0.14,0.088
33,-0.169619140625,-0.054751953125,0.0665693359375,-0.116826171875,0.08183984375,-0.0778564453125,0.181236328125,-0.8911477296796338,-0.2779981958386395,0.40522321799780514,-0.610921138118444,0.3780864718420036,-0.4042930316381963,1.0264568525721183,9.78,-38.764,-4.276,-11.02,1.796,-0.324,0.172
34,-0.1760126953125,-0.056810546875,0.068734375,-0.1203095703125,0.0839052734375,-0.0797158203125,0.1867744140625,-0.8911477296796338,-0.2779981958386395,0.40522321799780514,-0.610921138118444,0.3780864718420036,-0.4042930316381963,1.0264568525721183,13.236,-37.52,-4.208,-12.096,2.08,-0.452,0.22
35,-0.182302734375,-0.058462890625,0.0711806640625,-0.1245048828125,0.085544921875,-0.081974609375,0.1923134765625,-0.8911477296796338,-0.2779981958386395,0.40522321799780514,-0.610921138118444,0.3780864718420036,-0.4042930316381963,1.0264568525721183,13.076,-37.844,-4.74,-12.164,1.936,-0.78,0.2
36,-0.188380859375,-0.0596982421875,0.073490234375,-0.128845703125,0.0867841796875,-0.0850732421875,0.197865234375,-0.8911477296796338,-0.2779981958386395,0.40522321799780514,-0.610921138118444,0.3780864718420036,-0.4042930316381963,1.0264568525721183,9.78,-39.304,-4.624,-11.204,1.872,-0.356,0.076
37,-0.1940537109375,-0.061138671875,0.076080078125,-0.13290625,0.0886435546875,-0.0869326171875,0.20423046875,-0.8911477296796338,-0.2779981958386395,0.40522321799780514,-0.610921138118444,0.3780864718420036,-0.4042930316381963,1.0264568525721183,8.932,-40.436,-5.388,-11.388,1.704,-0.244,0.084
38,-0.1994111328125,-0.0624765625,0.078380859375,-0.1368134765625,0.089056640625,-0.088779296875,0.2101826171875,-0.8911477296796338,-0.2779981958386395,0.40522321799780514,-0.610921138118444,0.3780864718420036,-0.4042930316381963,1.0264568525721183,10.42,-41.032,-5.456,-12.552,1.716,-0.576,0.036
39,-0.2044599609375,-0.063814453125,0.0806904296875,-0.140142578125,0.0898828125,-0.09146484375,0.215927734375,-0.8911477296796338,-0.2779981958386395,0.40522321799780514,-0.610921138118444,0.3780864718420036,-0.4042930316381963,1.0264568525721183,10.632,-41.788,-4.764,-12.508,2.016,-0.384,0.068
40,-0.20940625,-0.0653583984375,0.0831357421875,-0.1431923828125,0.09131640625,-0.0931171875,0.221466796875,-0.8911477296796338,-0.2779981958386395,0.40522321799780514,-0.610921138118444,0.3780864718420036,-0.4042930316381963,1.0264568525721183,8.504,-41.788,-5.34,-12.944,1.756,-0.436,0.088
41,-0.214146484375,-0.0667021484375,0.08529296875,-0.1462333984375,0.0917294921875,-0.0953759765625,0.2270185546875,-0.8911477296796338,-0.2779981958386395,0.40522321799780514,-0.610921138118444,0.3780864718420036,-0.4042930316381963,1.0264568525721183,6.324,-41.732,-5.248,-13.308,1.84,-0.48,0.076
42,-0.2187841796875,-0.0680400390625,0.0877470703125,-0.148986328125,0.0923486328125,-0.0974423828125,0.232763671875,-0.8911477296796338,-0.2779981958386395,0.40522321799780514,-0.610921138118444,0.3780864718420036,-0.4042930316381963,1.0264568525721183,5.528,-42.112,-4.556,-13.012,2.14,-0.384,0.136
43,-0.223009765625,-0.069275390625,0.0901923828125,-0.15173828125,0.0935888671875,-0.0993017578125,0.23912890625,-0.8911477296796338,-0.2779981958386395,0.40522321799780514,-0.610921138118444,0.3780864718420036,-0.4042930316381963,1.0264568525721183,5.9,-41.84,-4.856,-14.064,1.92,-0.556,0.052
44,-0.227337890625,-0.0703037109375,0.0926376953125,-0.1549228515625,0.0942080078125,-0.1019736328125,0.2459072265625,-0.8911477296796338,-0.2779981958386395,0.40522321799780514,-0.610921138118444,0.3780864718420036,-0.4042930316381963,1.0264568525721183,5.476,-42.652,-4.948,-13.744,2.14,-0.532,0.024
45,-0.231357421875,-0.07123046875,0.095236328125,-0.1579638671875,0.0954345703125,-0.1048662109375,0.2522724609375,-0.8911477296796338,-0.2779981958386395,0.40522321799780514,-0.610921138118444,0.3780864718420036,-0.4042930316381963,1.0264568525721183,4.304,-43.836,-4.856,-13.216,2.184,-0.344,0.024
46,-0.2352744140625,-0.0723623046875,0.097826171875,-0.1607158203125,0.0970869140625,-0.107138671875,0.25863671875,-0.8911477296796338,-0.2779981958386395,0.40522321799780514,-0.610921138118444,0.3780864718420036,-0.4042930316381963,1.0264568525721183,2.552,-44.268,-5.736,-13.904,2.036,-0.348,0.084
47,-0.239294921875,-0.0732880859375,0.100126953125,-0.1640458984375,0.0975,-0.1096044921875,0.2643828125,-0.8911477296796338,-0.2779981958386395,0.40522321799780514,-0.610921138118444,0.3780864718420036,-0.4042930316381963,1.0264568525721183,1.116,-45.024,-5.736,-14.084,2.284,-0.492,0.14
48,-0.2432119140625,-0.0744267578125,0.102572265625,-0.166951171875,0.0989462890625,-0.1120830078125,0.2699345703125,-0.8911477296796338,-0.2779981958386395,0.40522321799780514,-0.610921138118444,0.3780864718420036,-0.4042930316381963,1.0264568525721183,0.156,-45.62,-5.132,-14.36,2.64,-0.504,0.2
49,-0.2469228515625,-0.075662109375,0.1054599609375,-0.1695498046875,0.1012060546875,-0.11435546875,0.2756923828125,-0.8911477296796338,-0.2779981958386395,0.40522321799780514,-0.610921138118444,0.3780864718420036,-0.4042930316381963,1.0264568525721183,-0.744,-45.564,-6.312,-15.412,2.348,-0.624,0.232
50,-0.25083984375,-0.076587890625,0.1077607421875,-0.1728798828125,0.1024453125,-0.11684765625,0.28164453125,-0.8911477296796338,-0.2779981958386395,0.40522321799780514,-0.610921138118444,0.3780864718420036,-0.4042930316381963,1.0264568525721183,-1.168,-46.104,-6.268,-14.612,2.38,-0.624,0.12
51,-0.2547568359375,-0.0778232421875,0.1103505859375,-0.1756318359375,0.1042919921875,-0.11951953125,0.288009765625,-0.8911477296796338,-0.2779981958386395,0.40522321799780514,-0.610921138118444,0.3780864718420036,-0.4042930316381963,1.0264568525721183,-1.648,-46.752,-5.64,-14.292,2.512,-0.428,0.064
52,-0.258673828125,-0.079263671875,0.1129404296875,-0.1785283203125,0.1065634765625,-0.1211728515625,0.29416796875,-0.8911477296796338,-0.2779981958386395,0.40522321799780514,-0.610921138118444,0.3780864718420036,-0.4042930316381963,1.0264568525721183,-2.868,-46.592,-6.22,-15.548,2.336,-0.7,-0.004
53,-0.262892578125,-0.0804990234375,0.1149619140625,-0.1817138671875,0.1082041015625,-0.1236513671875,0.300326171875,-0.8911477296796338,-0.2779981958386395,0.40522321799780514,-0.610921138118444,0.3780864718420036,-0.4042930316381963,1.0264568525721183,-3.668,-46.536,-5.432,-14.908,2.524,-0.8,0.068
54,-0.2669130859375,-0.081939453125,0.1175517578125,-0.1847548828125,0.11026953125,-0.1259111328125,0.3062783203125,-0.8911477296796338,-0.2779981958386395,0.40522321799780514,-0.610921138118444,0.3780864718420036,-0.4042930316381963,1.0264568525721183,-3.984,-46.536,-4.808,-14.888,2.636,-0.564,0.104
55,-0.271029296875,-0.08338671875,0.1199970703125,-0.1877958984375,0.1135615234375,-0.1273564453125,0.311830078125,-0.8911477296796338,-0.2779981958386395,0.40522321799780514,-0.610921138118444,0.3780864718420036,-0.4042930316381963,1.0264568525721183,-4.944,-46.32,-5.04,-15.024,2.4,-0.832,0.084
56,-0.2753642578125,-0.08462109375,0.1218740234375,-0.1914228515625,0.1154208984375,-0.1298359375,0.317369140625,-0.8911477296796338,-0.2779981958386395,0.40522321799780514,-0.610921138118444,0.3780864718420036,-0.4042930316381963,1.0264568525721183,-5.26,-46.536,-4.88,-14.476,2.444,-0.728,0.128
57,-0.2797958984375,-0.0861650390625,0.1241748046875,-0.1948974609375,0.11788671875,-0.1316953125,0.323126953125,-0.8911477296796338,-0.2779981958386395,0.40522321799780514,-0.610921138118444,0.3780864718420036,-0.4042930316381963,1.0264568525721183,-4.836,-47.132,-4.252,-14.428,2.724,-0.556,0.148
58,-0.2844326171875,-0.0878115234375,0.1267646484375,-0.1982265625,0.1211787109375,-0.1333349609375,0.3294921875,-0.8911477296796338,-0.2779981958386395,0.40522321799780514,-0.610921138118444,0.3780864718420036,-0.4042930316381963,1.0264568525721183,-4.888,-46.86,-5.064,-15.892,2.48,-0.884,-0.004
59,-0.2891728515625,-0.089251953125,0.1287763671875,-0.2018447265625,0.1232451171875,-0.1360205078125,0.335857421875,-0.8911477296796338,-0.2779981958386395,0.40522321799780514,-0.610921138118444,0.3780864718420036,-0.4042930316381963,1.0264568525721183,-5.156,-46.592,-4.924,-15.412,2.536,-0.688,0.044
60,-0.2940166015625,-0.0908984375,0.1309423828125,-0.20518359375,0.1263310546875,-0.1382919921875,0.342015625,-0.8911477296796338,-0.2779981958386395,0.40522321799780514,-0.610921138118444,0.3780864718420036,-0.4042930316381963,1.0264568525721183,-5.26,-46.644,-4.9,-14.568,2.616,-0.472,0.036
61,-0.298859375,-0.0928603515625,0.1335322265625,-0.208369140625,0.129015625,-0.1401513671875,0.3479677734375,-0.8911477296796338,-0.2779981958386395,0.40522321799780514,-0.610921138118444,0.3780864718420036,-0.4042930316381963,1.0264568525721183,-5.26,-45.564,-5.62,-15.344,2.336,-0.696,0.064
62,-0.30401171875,-0.0946103515625,0.1353994140625,-0.2118427734375,0.1310693359375,-0.1426171875,0.35351953125,-0.8911477296796338,-0.2779981958386395,0.40522321799780514,-0.610921138118444,0.3780864718420036,-0.4042930316381963,1.0264568525721183,-5.104,-44.808,-4.972,-15.252,2.544,-0.656,0.136
63,-0.309259765625,-0.0965654296875,0.1377099609375,-0.215326171875,0.1333408203125,-0.1450966796875,0.35905859375,-0.8911477296796338,-0.2779981958386395,0.40522321799780514,-0.610921138118444,0.3780864718420036,-0.4042930316381963,1.0264568525721183,-4.304,-44.648,-4.44,-14.704,2.568,-0.556,0.232
64,-0.3145205078125,-0.0985205078125,0.1401552734375,-0.21851171875,0.136220703125,-0.1475751953125,0.36481640625,-0.8911477296796338,-0.2779981958386395,0.40522321799780514,-0.610921138118444,0.3780864718420036,-0.4042930316381963,1.0264568525721183,-4.04,-44.324,-5.224,-14.864,2.34,-0.644,0.24
65,-0.3199814453125,-0.1002763671875,0.1421669921875,-0.2225625,0.1384794921875,-0.1506611328125,0.3709755859375,-0.8911477296796338,-0.2779981958386395,0.40522321799780514,-0.610921138118444,0.3780864718420036,-0.4042930316381963,1.0264568525721183,-3.984,-44.324,-5.016,-14.452,2.232,-0.488,0.096
66,-0.3254423828125,-0.1021220703125,0.14432421875,-0.2264697265625,0.140751953125,-0.1531396484375,0.3773408203125,-0.8911477296796338,-0.2779981958386395,0.40522321799780514,-0.610921138118444,0.3780864718420036,-0.4042930316381963,1.0264568525721183,-3.508,-44.916,-4.972,-13.836,2.516,-0.468,0.088
67,-0.331005859375,-0.1040771484375,0.1467783203125,-0.230087890625,0.143630859375,-0.155619140625,0.383705078125,-0.8911477296796338,-0.2779981958386395,0.40522321799780514,-0.610921138118444,0.3780864718420036,-0.4042930316381963,1.0264568525721183,-2.868,-44.7,-5.48,-14.408,2.2,-0.616,0.056
68,-0.336671875,-0.1059296875,0.1490791015625,-0.2341484375,0.1459033203125,-0.1585107421875,0.389876953125,-0.8911477296796338,-0.2779981958386395,0.40522321799780514,-0.610921138118444,0.3780864718420036,-0.4042930316381963,1.0264568525721183,-2.656,-44.16,-5.78,-14.084,2.2,-0.54,0.084
69,-0.342447265625,-0.1076796875,0.151236328125,-0.238208984375,0.148369140625,-0.16118359375,0.3956220703125,-0.8911477296796338,-0.2779981958386395,0.40522321799780514,-0.610921138118444,0.3780864718420036,-0.4042930316381963,1.0264568525721183,-1.804,-43.728,-4.948,-13.032,2.172,-0.544,0.116
70,-0.348107421875,-0.109744140625,0.1538251953125,-0.24197265625,0.1510419921875,-0.163662109375,0.401380859375,-0.8911477296796338,-0.2779981958386395,0.40522321799780514,-0.610921138118444,0.3780864718420036,-0.4042930316381963,1.0264568525721183,-0.9,-43.136,-5.296,-13.172,1.976,-0.524,0.128
71,-0.353876953125,-0.1115966796875,0.156271484375,-0.24587890625,0.1537275390625,-0.16634765625,0.4071259765625,-0.8911477296796338,-0.2779981958386395,0.40522321799780514,-0.610921138118444,0.3780864718420036,-0.4042930316381963,1.0264568525721183,-0.9,-42.652,-5.572,-13.012,1.852,-0.532,0.108
72,-0.359646484375,-0.1134482421875,0.1585810546875,-0.2500751953125,0.1557802734375,-0.168607421875,0.413078125,-0.8911477296796338,-0.2779981958386395,0.40522321799780514,-0.610921138118444,0.3780864718420036,-0.4042930316381963,1.0264568525721183,-0.212,-42.76,-5.412,-12.324,2.036,-0.524,0.076
73,-0.365421875,-0.11530078125,0.1611708984375,-0.2538466796875,0.1586591796875,-0.1706728515625,0.4196494140625,-0.8911477296796338,-0.2779981958386395,0.40522321799780514,-0.610921138118444,0.3780864718420036,-0.4042930316381963,1.0264568525721183,0.156,-42.328,-5.364,-12.44,2.004,-0.54,0.056
74,-0.3712939453125,-0.1169541015625,0.1636162109375,-0.25804296875,0.161138671875,-0.17273828125,0.4258212890625,-0.8911477296796338,-0.2779981958386395,0.40522321799780514,-0.610921138118444,0.3780864718420036,-0.4042930316381963,1.0264568525721183,0.156,-41.84,-5.964,-12.92,1.884,-0.628,0.068
75,-0.3770634765625,-0.1184970703125,0.1660615234375,-0.262248046875,0.1633974609375,-0.1752177734375,0.4319794921875,-0.8911477296796338,-0.2779981958386395,0.40522321799780514,-0.610921138118444,0.3780864718420036,-0.4042930316381963,1.0264568525721183,0.584,-42.164,-5.872,-12.736,2.108,-0.544,0.116
76,-0.3827294921875,-0.120349609375,0.168939453125,-0.2658662109375,0.1666904296875,-0.177490234375,0.4377373046875,-0.8911477296796338,-0.2779981958386395,0.40522321799780514,-0.610921138118444,0.3780864718420036,-0.4042930316381963,1.0264568525721183,0.9,-42.22,-6.288,-12.644,1.868,-0.388,0.156
77,-0.3883896484375,-0.1222021484375,0.171529296875,-0.269484375,0.1691689453125,-0.1797490234375,0.4432763671875,-0.8911477296796338,-0.2779981958386395,0.40522321799780514,-0.610921138118444,0.3780864718420036,-0.4042930316381963,1.0264568525721183,0.9,-41.948,-7.144,-13.056,1.728,-0.348,0.224
78,-0.3942685546875,-0.1239521484375,0.1738310546875,-0.2731123046875,0.171015625,-0.1818154296875,0.44903515625,-0.8911477296796338,-0.2779981958386395,0.40522321799780514,-0.610921138118444,0.3780864718420036,-0.4042930316381963,1.0264568525721183,1.648,-41.948,-6.96,-13.012,1.904,-0.376,0.232
79,-0.4000380859375,-0.125810546875,0.1762763671875,-0.276296875,0.172875,-0.183880859375,0.4547802734375,-0.8911477296796338,-0.2779981958386395,0.40522321799780514,-0.610921138118444,0.3780864718420036,-0.4042930316381963,1.0264568525721183,1.964,-41.84,-6.244,-12.872,2.112,-0.388,0.2
80,-0.4056015625,-0.127765625,0.178865234375,-0.2794736328125,0.1753408203125,-0.1859462890625,0.460951171875,-0.8911477296796338,-0.2779981958386395,0.40522321799780514,-0.610921138118444,0.3780864718420036,-0.4042930316381963,1.0264568525721183,1.752,-41.3,-6.172,-13.628,1.952,-0.408,0.064
81,-0.4111650390625,-0.1293095703125,0.1813203125,-0.2832451171875,0.1769931640625,-0.1884130859375,0.4671103515625,-0.8911477296796338,-0.2779981958386395,0.40522321799780514,-0.610921138118444,0.3780864718420036,-0.4042930316381963,1.0264568525721183,2.604,-41.408,-5.528,-12.804,2.024,-0.448,0.084
82,-0.416728515625,-0.13075,0.183765625,-0.2870078125,0.179458984375,-0.19151171875,0.4732685546875,-0.8911477296796338,-0.2779981958386395,0.40522321799780514,-0.610921138118444,0.3780864718420036,-0.4042930316381963,1.0264568525721183,2.496,-42.112,-5.504,-12.256,1.736,-0.2,0.064
83,-0.422080078125,-0.1322939453125,0.1862109375,-0.2907802734375,0.1817314453125,-0.1941962890625,0.4792333984375,-0.8911477296796338,-0.2779981958386395,0.40522321799780514,-0.610921138118444,0.3780864718420036,-0.4042930316381963,1.0264568525721183,2.444,-42.38,-5.964,-12.14,1.664,0.016,0.108
84,-0.4275400390625,-0.1337412109375,0.18865625,-0.2943984375,0.183578125,-0.19646875,0.485185546875,-0.8911477296796338,-0.2779981958386395,0.40522321799780514,-0.610921138118444,0.3780864718420036,-0.4042930316381963,1.0264568525721183,2.392,-42.544,-5.848,-12.072,1.604,-0.232,0.12
85,-0.4328974609375,-0.1350791015625,0.1908125,-0.2980166015625,0.1854365234375,-0.19976171875,0.4907373046875,-0.8911477296796338,-0.2779981958386395,0.40522321799780514,-0.610921138118444,0.3780864718420036,-0.4042930316381963,1.0264568525721183,1.912,-42.652,-5.088,-12.164,1.8,-0.136,0.18
86,-0.43815234375,-0.13651953125,0.19311328125,-0.301490234375,0.1876962890625,-0.202033203125,0.4967021484375,-0.8911477296796338,-0.2779981958386395,0.40522321799780514,-0.610921138118444,0.3780864718420036,-0.4042930316381963,1.0264568525721183,1.912,-42.76,-5.412,-12.28,1.788,-0.108,0.14
87,-0.4434072265625,-0.1379599609375,0.1954150390625,-0.305109375,0.1897490234375,-0.2045126953125,0.5028603515625,-0.8911477296796338,-0.2779981958386395,0.40522321799780514,-0.610921138118444,0.3780864718420036,-0.4042930316381963,1.0264568525721183,1.964,-42.812,-5.944,-12.324,1.66,-0.408,0.076
88,-0.448662109375,-0.139400390625,0.197580078125,-0.3084384765625,0.191814453125,-0.2078173828125,0.50923828125,-0.8911477296796338,-0.2779981958386395,0.40522321799780514,-0.610921138118444,0.3780864718420036,-0.4042930316381963,1.0264568525721183,1.648,-42.868,-5.712,-12.072,1.788,-0.084,0.088
89,-0.453814453125,-0.140841796875,0.200025390625,-0.3119130859375,0.1938681640625,-0.2096640625,0.5156162109375,-0.8911477296796338,-0.2779981958386395,0.40522321799780514,-0.610921138118444,0.3780864718420036,-0.4042930316381963,1.0264568525721183,1.592,-42.596,-5.944,-12.232,1.756,-0.208,0.128
90,-0.4589599609375,-0.1422890625,0.2021826171875,-0.3155400390625,0.19593359375,-0.212142578125,0.521775390625,-0.8911477296796338,-0.2779981958386395,0.40522321799780514,-0.610921138118444,0.3780864718420036,-0.4042930316381963,1.0264568525721183,1.54,-42.704,-6.012,-12.256,1.716,-0.42,0.14
91,-0.4640087890625,-0.143626953125,0.2043388671875,-0.319013671875,0.1973662109375,-0.214828125,0.5273271484375,-0.8911477296796338,-0.2779981958386395,0.40522321799780514,-0.610921138118444,0.3780864718420036,-0.4042930316381963,1.0264568525721183,1.008,-42.92,-5.848,-12.668,1.924,-0.16,0.188
92,-0.4690576171875,-0.145169921875,0.2067841796875,-0.32248828125,0.1994326171875,-0.216068359375,0.5330849609375,-0.8911477296796338,-0.2779981958386395,0.40522321799780514,-0.610921138118444,0.3780864718420036,-0.4042930316381963,1.0264568525721183,1.168,-43.404,-6.012,-13.012,1.972,-0.436,0.312
93,-0.47400390625,-0.1467138671875,0.2090849609375,-0.325673828125,0.20169140625,-0.218546875,0.5384296875,-0.8911477296796338,-0.2779981958386395,0.40522321799780514,-0.610921138118444,0.3780864718420036,-0.4042930316381963,1.0264568525721183,1.168,-43.404,-6.568,-13.376,1.86,-0.48,0.22
94,-0.479052734375,-0.1483603515625,0.2113857421875,-0.3291474609375,0.20355078125,-0.2208193359375,0.5445888671875,-0.8911477296796338,-0.2779981958386395,0.40522321799780514,-0.610921138118444,0.3780864718420036,-0.4042930316381963,1.0264568525721183,0.584,-43.352,-6.984,-13.516,1.912,-0.12,0.172
95,-0.4840947265625,-0.150109375,0.2138310546875,-0.3323330078125,0.205810546875,-0.222251953125,0.550966796875,-0.8911477296796338,-0.2779981958386395,0.40522321799780514,-0.610921138118444,0.3780864718420036,-0.4042930316381963,1.0264568525721183,0.636,-43.244,-6.592,-12.988,1.924,-0.448,0.104
96,-0.4890341796875,-0.15196875,0.2162763671875,-0.3352294921875,0.2078759765625,-0.2249375,0.557125,-0.8911477296796338,-0.2779981958386395,0.40522321799780514,-0.610921138118444,0.3780864718420036,-0.4042930316381963,1.0264568525721183,0.636,-42.652,-6.612,-13.376,1.884,-0.292,0.096
97,-0.49398046875,-0.153615234375,0.218578125,-0.33855859375,0.2099287109375,-0.22658984375,0.563296875,-0.8911477296796338,-0.2779981958386395,0.40522321799780514,-0.610921138118444,0.3780864718420036,-0.4042930316381963,1.0264568525721183,0.0,-42.164,-6.66,-13.124,1.936,-0.224,0.168
98,-0.499029296875,-0.15526171875,0.2211669921875,-0.3420419921875,0.2117880859375,-0.22844921875,0.5692490234375,-0.8911477296796338,-0.2779981958386395,0.40522321799780514,-0.610921138118444,0.3780864718420036,-0.4042930316381963,1.0264568525721183,-0.052,-42.056,-6.568,-12.644,1.976,-0.472,0.148
99,-0.5039755859375,-0.1570107421875,0.2237568359375,-0.34537109375,0.2140478515625,-0.231341796875,0.5747998046875,-0.8911477296796338,-0.2779981958386395,0.40522321799780514,-0.610921138118444,0.3780864718420036,-0.4042930316381963,1.0264568525721183,-0.212,-41.948,-6.636,-12.416,1.996,-0.108,0.192
100,-0.508921875,-0.1585546875,0.2263466796875,-0.348990234375,0.216306640625,-0.233201171875,0.58055859375,-0.8911477296796338,-0.2779981958386395,0.40522321799780514,-0.610921138118444,0.3780864718420036,-0.4042930316381963,1.0264568525721183,-0.636,-41.732,-7.144,-12.28,1.724,-0.2,0.188
101,-0.5138671875,-0.1601044921875,0.2287919921875,-0.35290625,0.2179599609375,-0.235873046875,0.5865234375,-0.8911477296796338,-0.2779981958386395,0.40522321799780514,-0.610921138118444,0.3780864718420036,-0.4042930316381963,1.0264568525721183,-0.796,-42.328,-7.124,-11.776,1.912,-0.232,0.084
102,-0.51880078125,-0.1616484375,0.2313818359375,-0.3563798828125,0.22021875,-0.23855859375,0.592888671875,-0.8911477296796338,-0.2779981958386395,0.40522321799780514,-0.610921138118444,0.3780864718420036,-0.4042930316381963,1.0264568525721183,-0.688,-42.812,-7.028,-11.868,1.796,0.004,0.12
103,-0.523849609375,-0.1631923828125,0.2338271484375,-0.360142578125,0.2224912109375,-0.2408310546875,0.5992666015625,-0.8911477296796338,-0.2779981958386395,0.40522321799780514,-0.610921138118444,0.3780864718420036,-0.4042930316381963,1.0264568525721183,-1.168,-42.544,-7.516,-11.844,1.64,-0.212,0.104
104,-0.529001953125,-0.1646328125,0.2361279296875,-0.36376171875,0.224337890625,-0.24372265625,0.6054248046875,-0.8911477296796338,-0.2779981958386395,0.40522321799780514,-0.610921138118444,0.3780864718420036,-0.4042930316381963,1.0264568525721183,-1.168,-42.488,-7.516,-11.844,1.592,-0.232,0.14
105,-0.53405078125,-0.1661767578125,0.2385732421875,-0.3673798828125,0.2261962890625,-0.2459951171875,0.61118359375,-0.8911477296796338,-0.2779981958386395,0.40522321799780514,-0.610921138118444,0.3780864718420036,-0.4042930316381963,1.0264568525721183,-0.476,-42.544,-7.144,-11.912,1.828,-0.14,0.232
106,-0.539099609375,-0.1678291015625,0.2410185546875,-0.3708623046875,0.229076171875,-0.2482548828125,0.61694140625,-0.8911477296796338,-0.2779981958386395,0.40522321799780514,-0.610921138118444,0.3780864718420036,-0.4042930316381963,1.0264568525721183,-0.744,-42.488,-7.124,-11.96,1.624,-0.42,0.296
107,-0.5442451171875,-0.1694755859375,0.2436083984375,-0.3743369140625,0.230921875,-0.2509404296875,0.6224931640625,-0.8911477296796338,-0.2779981958386395,0.40522321799780514,-0.610921138118444,0.3780864718420036,-0.4042930316381963,1.0264568525721183,-0.848,-42.164,-6.936,-12.348,1.612,-0.26,0.332
108,-0.549390625,-0.17101953125,0.245765625,-0.377955078125,0.2334013671875,-0.2527998046875,0.628251953125,-0.8911477296796338,-0.2779981958386395,0.40522321799780514,-0.610921138118444,0.3780864718420036,-0.4042930316381963,1.0264568525721183,-0.372,-42.488,-6.452,-12.004,1.696,-0.384,0.26
109,-0.5546455078125,-0.1725634765625,0.247921875,-0.3817177734375,0.2354541015625,-0.255072265625,0.63441015625,-0.8911477296796338,-0.2779981958386395,0.40522321799780514,-0.610921138118444,0.3780864718420036,-0.4042930316381963,1.0264568525721183,-0.476,-42.812,-6.22,-11.96,1.672,-0.44,0.16
110,-0.559900390625,-0.1743125,0.2502314453125,-0.3851923828125,0.2377265625,-0.25734375,0.6405810546875,-0.8911477296796338,-0.2779981958386395,0.40522321799780514,-0.610921138118444,0.3780864718420036,-0.4042930316381963,1.0264568525721183,-0.9,-42.704,-6.268,-12.624,1.716,-0.244,0.172
111,-0.565154296875,-0.1759658203125,0.252533203125,-0.388955078125,0.2399853515625,-0.2589970703125,0.6467529296875,-0.8911477296796338,-0.2779981958386395,0.40522321799780514,-0.610921138118444,0.3780864718420036,-0.4042930316381963,1.0264568525721183,-0.424,-42.38,-6.152,-12.324,1.664,-0.52,0.14
112,-0.5704033203125,-0.17771484375,0.254689453125,-0.3922841796875,0.242451171875,-0.2616826171875,0.6529248046875,-0.8911477296796338,-0.2779981958386395,0.40522321799780514,-0.610921138118444,0.3780864718420036,-0.4042930316381963,1.0264568525721183,-0.528,-42.272,-5.872,-12.232,1.644,-0.344,0.168
113,-0.57575390625,-0.179361328125,0.2567021484375,-0.3957587890625,0.2451240234375,-0.2635283203125,0.6588759765625,-0.8911477296796338,-0.2779981958386395,0.40522321799780514,-0.610921138118444,0.3780864718420036,-0.4042930316381963,1.0264568525721183,-0.424,-41.732,-6.104,-12.14,1.464,-0.12,0.22
114,-0.5810087890625,-0.181111328125,0.2590029296875,-0.3993857421875,0.247189453125,-0.2653876953125,0.664427734375,-0.8911477296796338,-0.2779981958386395,0.40522321799780514,-0.610921138118444,0.3780864718420036,-0.4042930316381963,1.0264568525721183,0.0,-41.464,-6.268,-11.548,1.528,-0.364,0.18
115,-0.5863671875,-0.1828603515625,0.2611591796875,-0.4025712890625,0.2498623046875,-0.2680732421875,0.6701865234375,-0.8911477296796338,-0.2779981958386395,0.40522321799780514,-0.610921138118444,0.3780864718420036,-0.4042930316381963,1.0264568525721183,-0.104,-41.084,-6.012,-11.64,1.528,-0.12,0.168
116,-0.5917177734375,-0.184513671875,0.2633154296875,-0.406044921875,0.252328125,-0.2699326171875,0.676357421875,-0.8911477296796338,-0.2779981958386395,0.40522321799780514,-0.610921138118444,0.3780864718420036,-0.4042930316381963,1.0264568525721183,-0.104,-40.816,-5.964,-11.592,1.548,-0.084,0.156
117,-0.597076171875,-0.18616015625,0.265328125,-0.4096630859375,0.2548076171875,-0.272205078125,0.682529296875,-0.8911477296796338,-0.2779981958386395,0.40522321799780514,-0.610921138118444,0.3780864718420036,-0.4042930316381963,1.0264568525721183,0.372,-41.192,-6.012,-11.16,1.476,-0.292,0.148
118,-0.6024267578125,-0.1876005859375,0.26762890625,-0.4132822265625,0.2568603515625,-0.2753037109375,0.6889072265625,-0.8911477296796338,-0.2779981958386395,0.40522321799780514,-0.610921138118444,0.3780864718420036,-0.4042930316381963,1.0264568525721183,0.316,-41.192,-6.128,-11.16,1.552,0.14,0.2
119,-0.607681640625,-0.18914453125,0.2697861328125,-0.417044921875,0.2591455078125,-0.277162109375,0.6950791015625,-0.8911477296796338,-0.2779981958386395,0.40522321799780514,-0.610921138118444,0.3780864718420036,-0.4042930316381963,1.0264568525721183,0.476,-41.192,-6.496,-11.204,1.604,-0.032,0.244
120,-0.6129296875,-0.190791015625,0.2722314453125,-0.4205185546875,0.2614052734375,-0.280248046875,0.7008369140625,-0.8911477296796338,-0.2779981958386395,0.40522321799780514,-0.610921138118444,0.3780864718420036,-0.4042930316381963,1.0264568525721183,0.584,-41.408,-7.124,-11.112,1.416,-0.076,0.296
121,-0.6182880859375,-0.192443359375,0.2746767578125,-0.42413671875,0.263044921875,-0.283140625,0.706388671875,-0.8911477296796338,-0.2779981958386395,0.40522321799780514,-0.610921138118444,0.3780864718420036,-0.4042930316381963,1.0264568525721183,0.104,-41.248,-7.376,-11.044,1.6,0.244,0.368
122,-0.6236455078125,-0.194083984375,0.2771220703125,-0.4277646484375,0.26531640625,-0.2852060546875,0.7119404296875,-0.8911477296796338,-0.2779981958386395,0.40522321799780514,-0.610921138118444,0.3780864718420036,-0.4042930316381963,1.0264568525721183,0.104,-41.3,-7.236,-11.32,1.476,-0.104,0.292
123,-0.6288935546875,-0.19573046875,0.2795576171875,-0.43123828125,0.26695703125,-0.2883173828125,0.7179052734375,-0.8911477296796338,-0.2779981958386395,0.40522321799780514,-0.610921138118444,0.3780864718420036,-0.4042930316381963,1.0264568525721183,0.584,-41.3,-7.492,-11.296,1.456,-0.012,0.212
124,-0.6342451171875,-0.1974794921875,0.2822919921875,-0.434712890625,0.269435546875,-0.2910029296875,0.7238701171875,-0.8911477296796338,-0.2779981958386395,0.40522321799780514,-0.610921138118444,0.3780864718420036,-0.4042930316381963,1.0264568525721183,0.264,-41.248,-7.676,-11.296,1.38,0.16,0.208
125,-0.639396484375,-0.1992294921875,0.285017578125,-0.4383310546875,0.27128125,-0.293275390625,0.7302353515625,-0.8911477296796338,-0.2779981958386395,0.40522321799780514,-0.610921138118444,0.3780864718420036,-0.4042930316381963,1.0264568525721183,0.264,-40.868,-7.768,-10.884,1.308,-0.116,0.18
126,-0.644748046875,-0.2009853515625,0.2876064453125,-0.44194921875,0.273541015625,-0.2961669921875,0.73640625,-0.8911477296796338,-0.2779981958386395,0.40522321799780514,-0.610921138118444,0.3780864718420036,-0.4042930316381963,1.0264568525721183,0.372,-40.6,-7.792,-11.044,1.32,-0.012,0.208
127,-0.6500029296875,-0.2026318359375,0.2901962890625,-0.4457119140625,0.2756064453125,-0.2986337890625,0.742578125,-0.8911477296796338,-0.2779981958386395,0.40522321799780514,-0.610921138118444,0.3780864718420036,-0.4042930316381963,1.0264568525721183,0.156,-40.544,-7.7,-10.976,1.328,0.068,0.232
128,-0.6551484375,-0.2042783203125,0.2929306640625,-0.449619140625,0.2778662109375,-0.30069921875,0.7483359375,-0.8911477296796338,-0.2779981958386395,0.40522321799780514,-0.610921138118444,0.3780864718420036,-0.4042930316381963,1.0264568525721183,0.156,-40.6,-7.768,-10.54,1.272,-0.088,0.284
129,-0.660396484375,-0.2059248046875,0.2955205078125,-0.4530927734375,0.2805390625,-0.3035908203125,0.7539013671875,-0.8911477296796338,-0.2779981958386395,0.40522321799780514,-0.610921138118444,0.3780864718420036,-0.4042930316381963,1.0264568525721183,0.476,-40.384,-8.048,-10.54,1.08,0.16,0.2
130,-0.6656513671875,-0.20746875,0.2981015625,-0.456865234375,0.2828115234375,-0.3054501953125,0.760072265625,-0.8911477296796338,-0.2779981958386395,0.40522321799780514,-0.610921138118444,0.3780864718420036,-0.4042930316381963,1.0264568525721183,0.372,-40.276,-8.556,-10.404,1.04,0.252,0.16
131,-0.67090625,-0.20912109375,0.30040234375,-0.4603388671875,0.2850703125,-0.3073095703125,0.766037109375,-0.8911477296796338,-0.2779981958386395,0.40522321799780514,-0.610921138118444,0.3780864718420036,-0.4042930316381963,1.0264568525721183,0.744,-40.652,-8.072,-10.22,0.98,0.064,0.148
132,-0.6762578125,-0.21087109375,0.30284765625,-0.4638125,0.287123046875,-0.3097880859375,0.7724150390625,-0.8911477296796338,-0.2779981958386395,0.40522321799780514,-0.610921138118444,0.3780864718420036,-0.4042930316381963,1.0264568525721183,1.008,-40.112,-7.768,-10.52,1.236,0.224,0.188
133,-0.681505859375,-0.212517578125,0.30529296875,-0.467142578125,0.2896025390625,-0.31144140625,0.77879296875,-0.8911477296796338,-0.2779981958386395,0.40522321799780514,-0.610921138118444,0.3780864718420036,-0.4042930316381963,1.0264568525721183,0.316,-39.68,-7.492,-10.816,1.152,0.084,0.192
134,-0.68675390625,-0.2140615234375,0.30759375,-0.4706162109375,0.2916552734375,-0.313712890625,0.7847578125,-0.8911477296796338,-0.2779981958386395,0.40522321799780514,-0.610921138118444,0.3780864718420036,-0.4042930316381963,1.0264568525721183,0.372,-39.464,-7.076,-10.496,1.268,-0.016,0.224
135,-0.6920087890625,-0.215501953125,0.30975,-0.4740908203125,0.294328125,-0.3161923828125,0.7905166015625,-0.8911477296796338,-0.2779981958386395,0.40522321799780514,-0.610921138118444,0.3780864718420036,-0.4042930316381963,1.0264568525721183,0.744,-39.952,-7.008,-10.2,1.204,0.192,0.368
136,-0.6972568359375,-0.2169423828125,0.3120517578125,-0.477564453125,0.296806640625,-0.3182578125,0.796068359375,-0.8911477296796338,-0.2779981958386395,0.40522321799780514,-0.610921138118444,0.3780864718420036,-0.4042930316381963,1.0264568525721183,0.264,-40.436,-7.308,-10.36,1.176,0.18,0.364
137,-0.70251171875,-0.2184921875,0.3142080078125,-0.4810390625,0.2986533203125,-0.320517578125,0.801826171875,-0.8911477296796338,-0.2779981958386395,0.40522321799780514,-0.610921138118444,0.3780864718420036,-0.4042930316381963,1.0264568525721183,0.264,-40.816,-7.656,-10.52,1.3,0.12,0.276
138,-0.7077607421875,-0.220138671875,0.3165087890625,-0.4845126953125,0.3007060546875,-0.32299609375,0.8078037109375,-0.8911477296796338,-0.2779981958386395,0.40522321799780514,-0.610921138118444,0.3780864718420036,-0.4042930316381963,1.0264568525721183,0.796,-40.976,-6.984,-10.38,1.392,0.232,0.272
139,-0.71290625,-0.2216826171875,0.3188095703125,-0.48799609375,0.302771484375,-0.3252685546875,0.8137685546875,-0.8911477296796338,-0.2779981958386395,0.40522321799780514,-0.610921138118444,0.3780864718420036,-0.4042930316381963,1.0264568525721183,0.316,-40.868,-7.308,-10.2,1.332,0.116,0.212
140,-0.71816015625,-0.2232265625,0.320966796875,-0.4914697265625,0.30482421875,-0.3279541015625,0.820146484375,-0.8911477296796338,-0.2779981958386395,0.40522321799780514,-0.610921138118444,0.3780864718420036,-0.4042930316381963,1.0264568525721183,0.372,-40.868,-7.284,-10.428,1.188,0.128,0.212
141,-0.7234091796875,-0.22476953125,0.323123046875,-0.495087890625,0.3064765625,-0.3304326171875,0.826318359375,-0.8911477296796338,-0.2779981958386395,0.40522321799780514,-0.610921138118444,0.3780864718420036,-0.4042930316381963,1.0264568525721183,0.796,-40.976,-7.352,-9.948,1.34,0.2,0.272
142,-0.728560546875,-0.2264228515625,0.3254150390625,-0.4987060546875,0.308943359375,-0.332705078125,0.832283203125,-0.8911477296796338,-0.2779981958386395,0.40522321799780514,-0.610921138118444,0.3780864718420036,-0.4042930316381963,1.0264568525721183,0.744,-40.544,-7.144,-9.764,0.968,0.108,0.272
143,-0.7337001953125,-0.2280693359375,0.3277158203125,-0.5021806640625,0.3107890625,-0.335390625,0.8378349609375,-0.8911477296796338,-0.2779981958386395,0.40522321799780514,-0.610921138118444,0.3780864718420036,-0.4042930316381963,1.0264568525721183,0.636,-40.112,-7.468,-9.74,0.928,0.16,0.264
144,-0.7389541015625,-0.229509765625,0.329728515625,-0.505943359375,0.3128544921875,-0.3376630859375,0.8438125,-0.8911477296796338,1.0528265279897562,0.40522321799780514,-0.610921138118444,0.3780864718420036,-0.4042930316381963,1.0264568525721183,0.528,-40.328,-7.352,-9.74,0.864,0.136,0.212
145,-0.7492451171875,-0.2327001953125,0.334041015625,-0.5131796875,0.31675390625,-0.3420009765625,0.85594921875,-0.8911477296796338,1.0528265279897562,0.40522321799780514,-0.610921138118444,0.3780864718420036,-0.4042930316381963,1.0264568525721183,0.584,-39.952,-7.144,-9.672,1.072,0.068,0.232
146,-0.7492451171875,-0.2327001953125,0.334041015625,-0.5131796875,0.31675390625,-0.3420009765625,0.85594921875,-0.8911477296796338,1.0528265279897562,0.40522321799780514,-0.610921138118444,0.3780864718420036,-0.4042930316381963,1.0264568525721183,0.584,-39.952,-7.144,-9.672,1.072,0.068,0.232
147,-0.7539794921875,-0.2337294921875,0.3356201171875,-0.516654296875,0.3202529296875,-0.3440673828125,0.861513671875,-0.8911477296796338,1.0528265279897562,0.40522321799780514,-0.610921138118444,0.3780864718420036,-0.4042930316381963,1.0264568525721183,6.112,-33.472,-7.376,-8.736,0.5,0.156,0.224
148,-0.7581982421875,-0.233935546875,0.337064453125,-0.52071484375,0.3239580078125,-0.3463388671875,0.865619140625,-0.8911477296796338,1.0528265279897562,0.40522321799780514,-0.610921138118444,0.3780864718420036,-0.4042930316381963,1.0264568525721183,16.428,-22.836,-5.804,-3.52,-0.42,0.42,0.26
149,-0.7620126953125,-0.2333173828125,0.3386435546875,-0.5243330078125,0.3289033203125,-0.350044921875,0.8687177734375,-0.8911477296796338,1.0528265279897562,0.40522321799780514,-0.610921138118444,0.3780864718420036,-0.4042930316381963,1.0264568525721183,22.168,-16.14,-6.012,2.652,-1.54,1.384,0.296
150,-0.765099609375,-0.2323916015625,0.340078125,-0.526931640625,0.334455078125,-0.3531435546875,0.8707705078125,-0.8911477296796338,1.0528265279897562,0.40522321799780514,-0.610921138118444,-0.25031361733675517,-0.4042930316381963,1.0264568525721183,24.724,-13.548,-8.164,7.292,-2.844,2.7,0.384
151,-0.7678779296875,-0.2310537109375,0.3409443359375,-0.528529296875,0.339193359375,-0.35417578125,0.872009765625,-0.8911477296796338,1.0528265279897562,0.40522321799780514,-0.610921138118444,-0.25031361733675517,-0.4042930316381963,1.0264568525721183,26.796,-11.172,-10.636,8.344,-3.812,2.844,0.4
152,-0.7702451171875,-0.2286865234375,0.3405107421875,-0.5295400390625,0.3410400390625,-0.355208984375,0.8724228515625,-0.8911477296796338,1.0528265279897562,0.40522321799780514,-0.610921138118444,-0.25031361733675517,-0.4042930316381963,1.0264568525721183,28.284,-10.58,-9.944,7.248,-3.636,2.564,0.348
153,-0.771994140625,-0.2257021484375,0.339365234375,-0.52997265625,0.342279296875,-0.3556220703125,0.8724228515625,-0.8911477296796338,1.0528265279897562,0.40522321799780514,-0.610921138118444,-0.25031361733675517,0.753587457974178,1.0264568525721183,28.496,-11.984,-7.492,6.012,-2.324,2.264,0.368
154,-0.7726123046875,-0.2224033203125,0.3387880859375,-0.5295400390625,0.3437119140625,-0.3556220703125,0.872216796875,-0.8911477296796338,1.0528265279897562,0.40522321799780514,-0.610921138118444,-0.25031361733675517,0.753587457974178,1.0264568525721183,26.904,-13.388,-5.78,4.136,-1.8,1.66,0.292
155,-0.7723037109375,-0.2184921875,0.338931640625,-0.528529296875,0.3455712890625,-0.3564482421875,0.8715966796875,-0.8911477296796338,1.0528265279897562,0.40522321799780514,-0.610921138118444,-0.25031361733675517,0.753587457974178,1.0264568525721183,23.552,-14.304,-6.312,1.828,-1.56,1.508,0.2
156,-0.77148046875,-0.213443359375,0.339220703125,-0.528095703125,0.346384765625,-0.3566552734375,0.8707705078125,-0.8911477296796338,1.0528265279897562,0.40522321799780514,-0.610921138118444,-0.25031361733675517,0.753587457974178,1.0264568525721183,19.776,-16.628,-6.82,0.296,-1.64,1.508,0.148
157,-0.770142578125,-0.2075712890625,0.339509765625,-0.5276630859375,0.3455712890625,-0.3562421875,0.86973828125,-0.8911477296796338,1.0528265279897562,0.40522321799780514,-0.610921138118444,-0.25031361733675517,0.753587457974178,1.0264568525721183,16.268,-21.648,-7.444,-0.16,-1.28,1.488,0.136
158,-0.768392578125,-0.2015,0.33993359375,-0.5264990234375,0.34433203125,-0.3550029296875,0.8687177734375,-0.8911477296796338,1.0528265279897562,0.40522321799780514,-0.610921138118444,-0.25031361733675517,0.753587457974178,1.0264568525721183,12.44,-28.344,-8.28,-1.692,-0.936,1.54,0.128
159,-0.7663349609375,-0.1955244140625,0.3406552734375,-0.5247666015625,0.3426796875,-0.3521103515625,0.8678916015625,-0.8911477296796338,1.0528265279897562,0.40522321799780514,-0.610921138118444,-0.25031361733675517,0.753587457974178,1.0264568525721183,7.972,-33.04,-9.668,-4.732,-0.584,1.168,0.116
160,-0.7642763671875,-0.1892470703125,0.3409443359375,-0.5228798828125,0.339193359375,-0.348611328125,0.867271484375,-0.8911477296796338,1.0528265279897562,0.40522321799780514,-0.610921138118444,-0.25031361733675517,0.753587457974178,1.0264568525721183,4.944,-36.28,-9.92,-8.256,-0.22,0.552,0.052
161,-0.76221875,-0.182654296875,0.3405107421875,-0.5217255859375,0.33362890625,-0.34448046875,0.8668583984375,-0.8911477296796338,1.0528265279897562,0.40522321799780514,-0.610921138118444,-0.25031361733675517,0.753587457974178,1.0264568525721183,2.284,-39.088,-8.856,-9.696,0.624,0.252,0.084
162,-0.7601533203125,-0.1759658203125,0.340078125,-0.520859375,0.3289033203125,-0.3395224609375,0.86665234375,-0.8911477296796338,1.0528265279897562,0.40522321799780514,-0.610921138118444,-0.25031361733675517,0.753587457974178,1.0264568525721183,-0.372,-39.68,-7.076,-9.672,1.176,0.14,0.096
163,-0.7578896484375,-0.1698876953125,0.3406552734375,-0.519685546875,0.3233388671875,-0.3339443359375,0.8668583984375,-0.8911477296796338,1.0528265279897562,0.40522321799780514,-0.610921138118444,-0.25031361733675517,0.753587457974178,1.0264568525721183,-2.976,-41.948,-7.076,-10.448,1.32,0.088,0.096
164,-0.755728515625,-0.163912109375,0.3413779296875,-0.5182421875,0.3179931640625,-0.3277470703125,0.8668583984375,-0.8911477296796338,1.0528265279897562,0.40522321799780514,-0.610921138118444,-0.25031361733675517,0.753587457974178,1.0264568525721183,-6.272,-44.216,-8.88,-12.736,1.432,0.18,0.12
165,-0.75408203125,-0.15762890625,0.3413779296875,-0.5173759765625,0.311822265625,-0.32113671875,0.8668583984375,-0.8911477296796338,1.0528265279897562,0.40522321799780514,-0.610921138118444,-0.25031361733675517,0.753587457974178,1.0264568525721183,-8.612,-44.54,-9.18,-13.924,1.188,-0.024,0.084
166,-0.75284765625,-0.1511455078125,0.3407998046875,-0.5175205078125,0.303791015625,-0.31474609375,0.8668583984375,-0.8911477296796338,1.0528265279897562,0.40522321799780514,-0.610921138118444,-0.25031361733675517,0.753587457974178,1.0264568525721183,-9.408,-45.188,-7.7,-13.604,2.1,-0.244,0.104
167,-0.7517216796875,-0.145169921875,0.3407998046875,-0.5172314453125,0.2961865234375,-0.3083427734375,0.8668583984375,-0.8911477296796338,1.0528265279897562,0.40522321799780514,-0.610921138118444,-0.25031361733675517,0.753587457974178,1.0264568525721183,-9.464,-48.588,-6.22,-13.72,2.608,-0.332,0.084
168,-0.75058984375,-0.1400185546875,0.3419462890625,-0.516220703125,0.2896025390625,-0.301732421875,0.8668583984375,-0.8911477296796338,1.0528265279897562,0.40522321799780514,-0.610921138118444,-0.25031361733675517,0.753587457974178,1.0264568525721183,-10.952,-50.048,-8.072,-15.62,2.584,-0.572,0.108
169,-0.74986328125,-0.1346669921875,0.34237890625,-0.515779296875,0.283625,-0.295134765625,0.8670654296875,-0.8911477296796338,1.0528265279897562,0.40522321799780514,-0.610921138118444,-0.25031361733675517,0.753587457974178,1.0264568525721183,-11.96,-49.128,-9.596,-17.632,2.024,-0.596,0.14
170,-0.74986328125,-0.128794921875,0.3418017578125,-0.516798828125,0.2762265625,-0.28873046875,0.867271484375,-0.8911477296796338,1.0528265279897562,0.40522321799780514,-0.610921138118444,-0.25031361733675517,0.753587457974178,1.0264568525721183,-11.484,-49.776,-8.024,-15.688,2.432,-0.472,0.212
171,-0.7500751953125,-0.123642578125,0.3416572265625,-0.5173759765625,0.2698359375,-0.28293359375,0.8676845703125,-0.8911477296796338,1.0528265279897562,0.40522321799780514,-0.610921138118444,-0.25031361733675517,0.753587457974178,1.0264568525721183,-10.844,-51.612,-6.452,-13.836,2.732,-0.348,0.244
172,-0.750177734375,-0.1195263671875,0.3428125,-0.516654296875,0.2649033203125,-0.277369140625,0.8680986328125,-0.8911477296796338,1.0528265279897562,0.40522321799780514,-0.610921138118444,-0.25031361733675517,0.753587457974178,1.0264568525721183,-10.58,-50.696,-7.748,-15.32,2.496,-0.172,0.24
173,-0.75058984375,-0.1155068359375,0.3435341796875,-0.516220703125,0.26078515625,-0.2713779296875,0.8687177734375,-0.8911477296796338,1.0528265279897562,0.40522321799780514,-0.610921138118444,-0.25031361733675517,0.753587457974178,1.0264568525721183,-10.1,-47.832,-9.712,-17.06,2.06,-0.668,0.22
174,-0.7517216796875,-0.1107734375,0.34266796875,-0.5170869140625,0.2556337890625,-0.26766015625,0.8691181640625,-0.8911477296796338,1.0528265279897562,0.40522321799780514,-0.610921138118444,-0.25031361733675517,0.753587457974178,1.0264568525721183,-8.188,-47.348,-8.3,-15.572,2.284,-0.824,0.22
175,-0.7529501953125,-0.106341796875,0.342234375,-0.51809765625,0.2515146484375,-0.2641484375,0.86953125,-0.8911477296796338,1.0528265279897562,0.40522321799780514,-0.610921138118444,-0.25031361733675517,0.753587457974178,1.0264568525721183,-6.112,-48.588,-6.012,-13.492,2.88,-0.388,0.292
176,-0.7537734375,-0.1029453125,0.3433896484375,-0.517953125,0.2498623046875,-0.2598232421875,0.8701513671875,-0.8911477296796338,1.0528265279897562,0.40522321799780514,-0.610921138118444,-0.25031361733675517,0.753587457974178,1.0264568525721183,-5.316,-48.536,-7.216,-14.292,2.42,-0.74,0.26
177,-0.754802734375,-0.0995498046875,0.3445361328125,-0.5178095703125,0.248623046875,-0.2571376953125,0.870564453125,-0.8911477296796338,1.0528265279897562,0.40522321799780514,-0.610921138118444,-0.25031361733675517,0.753587457974178,1.0264568525721183,-5.104,-46.268,-10.06,-16.008,2.008,-0.804,0.284
178,-0.7562431640625,-0.09543359375,0.3441025390625,-0.5189638671875,0.2478095703125,-0.254658203125,0.87118359375,-0.8911477296796338,1.0528265279897562,0.40522321799780514,-0.610921138118444,-0.25031361733675517,0.753587457974178,1.0264568525721183,-3.772,-45.888,-9.388,-14.728,1.788,-0.428,0.296
179,-0.757787109375,-0.091419921875,0.3436689453125,-0.5205703125,0.2469833984375,-0.2517666015625,0.8715966796875,-0.8911477296796338,1.0528265279897562,0.40522321799780514,-0.610921138118444,-0.25031361733675517,0.753587457974178,1.0264568525721183,-2.124,-46.916,-7.4,-12.304,2.16,-0.44,0.364
180,-0.759021484375,-0.088326171875,0.3445361328125,-0.5205703125,0.2480166015625,-0.2499072265625,0.872216796875,-0.8911477296796338,1.0528265279897562,0.40522321799780514,-0.610921138118444,-0.25031361733675517,0.753587457974178,1.0264568525721183,-1.06,-46.32,-7.932,-12.944,2.096,-0.304,0.336
181,-0.7602568359375,-0.085341796875,0.3455458984375,-0.52071484375,0.24965625,-0.247634765625,0.8728232421875,-0.8911477296796338,1.0528265279897562,0.40522321799780514,-0.610921138118444,-0.25031361733675517,0.753587457974178,1.0264568525721183,-0.848,-44.216,-9.944,-14.04,1.56,-0.284,0.344
182,-0.7617041015625,-0.0818359375,0.3455458984375,-0.522013671875,0.2506884765625,-0.2462021484375,0.873236328125,-0.8911477296796338,1.0528265279897562,0.40522321799780514,-0.610921138118444,-0.25031361733675517,0.753587457974178,1.0264568525721183,0.052,-43.784,-9.944,-12.988,1.5,-0.224,0.344
183,-0.76314453125,-0.078337890625,0.34540234375,-0.5233134765625,0.2517216796875,-0.2451689453125,0.8736494140625,-0.8911477296796338,1.0528265279897562,0.40522321799780514,-0.610921138118444,-0.25031361733675517,0.753587457974178,1.0264568525721183,1.7,-44.0,-8.28,-11.296,1.712,0.148,0.384
184,-0.764173828125,-0.075353515625,0.345970703125,-0.523755859375,0.2539814453125,-0.2435166015625,0.87426953125,-0.8911477296796338,1.0528265279897562,0.40522321799780514,-0.610921138118444,-0.25031361733675517,0.753587457974178,1.0264568525721183,2.392,-43.028,-8.928,-11.296,1.484,0.16,0.408
185,-0.7652021484375,-0.07246484375,0.3466923828125,-0.523900390625,0.256240234375,-0.2420703125,0.8746826171875,-0.8911477296796338,1.0528265279897562,0.40522321799780514,-0.610921138118444,-0.25031361733675517,0.753587457974178,1.0264568525721183,2.284,-40.6,-9.944,-12.12,1.064,0.096,0.384
186,-0.7664375,-0.0690693359375,0.3464033203125,-0.5250546875,0.2572734375,-0.241244140625,0.875095703125,-0.8911477296796338,1.0528265279897562,0.40522321799780514,-0.610921138118444,-0.25031361733675517,0.753587457974178,1.0264568525721183,2.868,-39.464,-9.272,-11.088,1.104,0.296,0.4
187,-0.7675693359375,-0.0655634765625,0.346115234375,-0.5262099609375,0.258306640625,-0.2397978515625,0.8757158203125,-0.8911477296796338,1.0528265279897562,0.40522321799780514,-0.610921138118444,-0.25031361733675517,0.753587457974178,1.0264568525721183,3.932,-40.22,-8.164,-9.628,1.248,0.384,0.428
188,-0.768392578125,-0.0625791015625,0.3466923828125,-0.526642578125,0.259751953125,-0.2383525390625,0.87612890625,-0.8911477296796338,1.0528265279897562,0.40522321799780514,-0.610921138118444,-0.25031361733675517,0.753587457974178,1.0264568525721183,4.252,-39.896,-8.672,-9.788,1.124,0.4,0.42
189,-0.76911328125,-0.059595703125,0.34755859375,-0.526642578125,0.26078515625,-0.23690625,0.876529296875,-0.8911477296796338,1.0528265279897562,0.40522321799780514,-0.610921138118444,-0.25031361733675517,0.753587457974178,1.0264568525721183,3.828,-38.656,-10.084,-10.608,0.78,0.48,0.416
190,-0.7699365234375,-0.0561923828125,0.3474140625,-0.5275185546875,0.2609921875,-0.2348408203125,0.8769423828125,-0.8911477296796338,1.0528265279897562,0.40522321799780514,-0.610921138118444,-0.25031361733675517,0.753587457974178,1.0264568525721183,3.772,-37.9,-9.92,-10.2,0.748,0.472,0.44
191,-0.7706572265625,-0.0525908203125,0.347125,-0.528529296875,0.2603720703125,-0.232787109375,0.87735546875,-0.8911477296796338,1.0528265279897562,0.40522321799780514,-0.610921138118444,-0.25031361733675517,0.753587457974178,1.0264568525721183,4.252,-38.6,-8.464,-8.896,0.96,0.504,0.44
192,-0.771068359375,-0.049400390625,0.34726953125,-0.5288173828125,0.2603720703125,-0.23030859375,0.877974609375,-0.8911477296796338,1.0528265279897562,0.40522321799780514,-0.610921138118444,-0.25031361733675517,0.753587457974178,1.0264568525721183,4.412,-38.224,-8.256,-9.1,1.0,0.448,0.46
193,-0.77148046875,-0.0461015625,0.347837890625,-0.5286728515625,0.2603720703125,-0.227623046875,0.878388671875,-0.8911477296796338,1.0528265279897562,0.40522321799780514,-0.610921138118444,-0.25031361733675517,0.753587457974178,1.0264568525721183,3.828,-37.252,-9.204,-10.016,0.768,0.348,0.42
194,-0.7718916015625,-0.042396484375,0.3476943359375,-0.5292509765625,0.2595458984375,-0.2247314453125,0.8790078125,-0.8911477296796338,1.0528265279897562,0.40522321799780514,-0.610921138118444,-0.25031361733675517,0.753587457974178,1.0264568525721183,3.4,-36.928,-9.156,-9.9,0.752,0.316,0.436
195,-0.7722001953125,-0.0384794921875,0.3474140625,-0.52997265625,0.258099609375,-0.22142578125,0.8796279296875,-0.8911477296796338,1.0528265279897562,0.40522321799780514,-0.610921138118444,-0.25031361733675517,0.753587457974178,1.0264568525721183,3.136,-37.844,-7.908,-9.032,1.04,0.332,0.44
196,-0.7723037109375,-0.034775390625,0.347837890625,-0.5301171875,0.2572734375,-0.2179267578125,0.8800283203125,-0.8911477296796338,1.0528265279897562,0.40522321799780514,-0.610921138118444,-0.25031361733675517,0.753587457974178,1.0264568525721183,2.656,-38.168,-8.024,-9.42,1.04,0.232,0.436
197,-0.7723037109375,-0.0310634765625,0.348416015625,-0.52997265625,0.2560341796875,-0.214001953125,0.8806474609375,-0.8911477296796338,1.0528265279897562,0.40522321799780514,-0.610921138118444,-0.25031361733675517,0.753587457974178,1.0264568525721183,1.964,-37.36,-9.136,-10.288,0.836,0.16,0.42
198,-0.77240625,-0.026947265625,0.348271484375,-0.5305498046875,0.2537744140625,-0.2100771484375,0.881267578125,-0.8911477296796338,1.0528265279897562,0.40522321799780514,-0.610921138118444,-0.25031361733675517,0.753587457974178,1.0264568525721183,1.488,-37.952,-9.112,-10.108,0.876,0.272,0.428
199,-0.7725087890625,-0.0227216796875,0.348126953125,-0.53113671875,0.2511015625,-0.2053388671875,0.88188671875,-0.8911477296796338,1.0528265279897562,0.40522321799780514,-0.610921138118444,-0.25031361733675517,0.753587457974178,1.0264568525721183,1.008,-39.032,-8.092,-9.42,1.156,0.252,0.428
200,-0.7725087890625,-0.0188115234375,0.348416015625,-0.5309833984375,0.248623046875,-0.2010009765625,0.882712890625,-0.8911477296796338,1.0528265279897562,0.40522321799780514,-0.610921138118444,-0.25031361733675517,0.753587457974178,1.0264568525721183,0.476,-39.628,-8.024,-9.924,1.168,0.292,0.396
201,-0.77240625,-0.014900390625,0.3489931640625,-0.5306943359375,0.2459501953125,-0.1962626953125,0.8835263671875,-0.8911477296796338,1.0528265279897562,0.40522321799780514,-0.610921138118444,-0.25031361733675517,0.753587457974178,1.0264568525721183,0.0,-39.032,-8.856,-11.18,1.168,0.244,0.364
202,-0.7725087890625,-0.0106748046875,0.3491376953125,-0.5309833984375,0.242865234375,-0.19151171875,0.884146484375,-0.8911477296796338,1.0528265279897562,0.40522321799780514,-0.610921138118444,-0.25031361733675517,0.753587457974178,1.0264568525721183,-0.424,-39.356,-8.556,-11.34,1.268,0.032,0.336
203,-0.7726123046875,-0.00625,0.3489931640625,-0.53128125,0.239572265625,-0.187392578125,0.88497265625,-0.8911477296796338,1.0528265279897562,0.40522321799780514,-0.610921138118444,-0.25031361733675517,0.753587457974178,1.0264568525721183,-1.008,-40.112,-7.816,-11.088,1.484,0.016,0.356
204,-0.7725087890625,-0.0020244140625,0.3492822265625,-0.53128125,0.236693359375,-0.1830546875,0.8855927734375,-0.8911477296796338,1.0528265279897562,0.40522321799780514,-0.610921138118444,-0.25031361733675517,0.753587457974178,1.0264568525721183,-1.432,-40.976,-7.84,-11.32,1.484,-0.064,0.364
205,-0.7725087890625,0.0021953125,0.3497060546875,-0.53128125,0.233607421875,-0.178716796875,0.8862119140625,-0.8911477296796338,1.0528265279897562,0.40522321799780514,-0.610921138118444,-0.25031361733675517,0.753587457974178,1.0264568525721183,-1.964,-41.248,-8.764,-11.82,1.432,-0.272,0.344
206,-0.77271484375,0.0067294921875,0.3497060546875,-0.5315693359375,0.2303154296875,-0.1748046875,0.88683203125,-0.8911477296796338,1.0528265279897562,0.40522321799780514,-0.610921138118444,-0.25031361733675517,0.753587457974178,1.0264568525721183,-2.336,-42.004,-8.672,-11.708,1.496,-0.26,0.336
207,-0.7729208984375,0.0110517578125,0.3498505859375,-0.5318583984375,0.22681640625,-0.170466796875,0.8874384765625,-0.8911477296796338,1.0528265279897562,0.40522321799780514,-0.610921138118444,-0.25031361733675517,0.753587457974178,1.0264568525721183,-2.552,-42.652,-8.048,-11.616,1.62,-0.336,0.316
208,-0.7730234375,0.0153798828125,0.3501396484375,-0.5318583984375,0.2233173828125,-0.1659345703125,0.88805859375,-0.8911477296796338,1.0528265279897562,0.40522321799780514,-0.610921138118444,-0.25031361733675517,0.753587457974178,1.0264568525721183,-2.496,-42.652,-8.208,-11.96,1.696,-0.376,0.324
209,-0.77333203125,0.019599609375,0.350572265625,-0.5320029296875,0.22042578125,-0.1615966796875,0.888677734375,-0.8911477296796338,1.0528265279897562,0.40522321799780514,-0.610921138118444,-0.25031361733675517,0.753587457974178,1.0264568525721183,-2.604,-42.436,-8.532,-12.76,1.724,-0.336,0.332
210,-0.7736416015625,0.02403125,0.350572265625,-0.5324365234375,0.2171328125,-0.1574775390625,0.889091796875,-0.8911477296796338,1.0528265279897562,0.40522321799780514,-0.610921138118444,-0.25031361733675517,0.753587457974178,1.0264568525721183,-2.816,-42.544,-8.416,-12.484,1.868,-0.26,0.316
211,-0.7739560546875,0.0284560546875,0.350716796875,-0.532724609375,0.2140478515625,-0.153552734375,0.8897109375,-0.8911477296796338,1.0528265279897562,0.40522321799780514,-0.610921138118444,-0.25031361733675517,0.753587457974178,1.0264568525721183,-2.816,-43.352,-8.024,-12.232,1.892,-0.096,0.296
212,-0.7743681640625,0.032681640625,0.3511494140625,-0.533013671875,0.211375,-0.1494345703125,0.8901240234375,-0.8911477296796338,1.0528265279897562,0.40522321799780514,-0.610921138118444,-0.25031361733675517,0.753587457974178,1.0264568525721183,-2.868,-43.62,-8.416,-12.416,1.88,-0.056,0.304
213,-0.774779296875,0.0367978515625,0.35171875,-0.533013671875,0.208689453125,-0.145509765625,0.890537109375,-0.8911477296796338,1.0528265279897562,0.40522321799780514,-0.610921138118444,-0.25031361733675517,0.753587457974178,1.0264568525721183,-2.816,-43.46,-9.204,-12.784,1.8,-0.224,0.304
214,-0.7752939453125,0.0410234375,0.3518623046875,-0.533302734375,0.205603515625,-0.1422041015625,0.8909375,-0.8911477296796338,1.0528265279897562,0.40522321799780514,-0.610921138118444,-0.25031361733675517,0.753587457974178,1.0264568525721183,-2.604,-43.404,-8.948,-12.852,1.868,-0.172,0.316
215,-0.7759052734375,0.0452431640625,0.3518623046875,-0.5337353515625,0.202931640625,-0.138705078125,0.8915576171875,-0.8911477296796338,1.0528265279897562,0.40522321799780514,-0.610921138118444,-0.25031361733675517,0.753587457974178,1.0264568525721183,-2.284,-43.892,-8.556,-12.6,1.936,-0.292,0.292
216,-0.7765224609375,0.049365234375,0.3522958984375,-0.5338798828125,0.200671875,-0.1356064453125,0.8921767578125,-0.8911477296796338,1.0528265279897562,0.40522321799780514,-0.610921138118444,-0.25031361733675517,0.753587457974178,1.0264568525721183,-1.86,-43.944,-8.58,-12.804,1.872,-0.388,0.312
217,-0.777037109375,0.05337890625,0.3525849609375,-0.5340244140625,0.1988125,-0.132521484375,0.89258984375,-0.8911477296796338,1.0528265279897562,0.40522321799780514,-0.610921138118444,-0.25031361733675517,0.753587457974178,1.0264568525721183,-1.752,-44.16,-8.972,-13.08,1.868,-0.348,0.332
218,-0.777654296875,0.0576044921875,0.352728515625,-0.5346015625,0.1971728515625,-0.12962890625,0.8932099609375,-0.8911477296796338,1.0528265279897562,0.40522321799780514,-0.610921138118444,-0.25031361733675517,0.753587457974178,1.0264568525721183,-1.488,-43.728,-9.156,-12.736,1.768,-0.376,0.296
219,-0.778375,0.061720703125,0.352873046875,-0.5351884765625,0.1955205078125,-0.1267373046875,0.893623046875,-0.8911477296796338,1.0528265279897562,0.40522321799780514,-0.610921138118444,-0.25031361733675517,0.753587457974178,1.0264568525721183,-1.168,-44.108,-8.696,-12.256,1.848,-0.284,0.296
220,-0.7789921875,0.0656376953125,0.353306640625,-0.5353330078125,0.1944873046875,-0.1236513671875,0.8942431640625,-0.8911477296796338,1.0528265279897562,0.40522321799780514,-0.610921138118444,-0.25031361733675517,0.753587457974178,1.0264568525721183,-0.9,-43.728,-9.04,-12.644,1.716,-0.232,0.284
221,-0.779609375,0.069548828125,0.3535859375,-0.53562109375,0.1930546875,-0.120552734375,0.894849609375,-0.8911477296796338,1.0528265279897562,0.40522321799780514,-0.610921138118444,-0.25031361733675517,0.753587457974178,1.0264568525721183,-0.584,-43.352,-9.644,-12.76,1.692,-0.24,0.296
222,-0.780330078125,0.0735625,0.3535859375,-0.5360546875,0.192021484375,-0.1176611328125,0.89567578125,-0.8911477296796338,1.0528265279897562,0.40522321799780514,-0.610921138118444,-0.25031361733675517,0.753587457974178,1.0264568525721183,-0.212,-43.136,-9.064,-12.464,1.776,-0.148,0.272
223,-0.78105078125,0.07758203125,0.35373046875,-0.5364873046875,0.19098828125,-0.1147685546875,0.8962958984375,-0.8911477296796338,1.0528265279897562,0.40522321799780514,-0.610921138118444,-0.25031361733675517,0.753587457974178,1.0264568525721183,0.156,-43.728,-8.696,-12.304,1.82,-0.104,0.284
224,-0.78166796875,0.081287109375,0.3541640625,-0.5367763671875,0.190162109375,-0.111876953125,0.8969150390625,-0.8911477296796338,1.0528265279897562,0.40522321799780514,-0.610921138118444,-0.25031361733675517,0.753587457974178,1.0264568525721183,0.156,-43.028,-9.112,-12.668,1.78,-0.16,0.276
225,-0.78228515625,0.085203125,0.3544521484375,-0.537208984375,0.189142578125,-0.1089970703125,0.897328125,-0.8911477296796338,1.0528265279897562,0.40522321799780514,-0.610921138118444,-0.25031361733675517,0.753587457974178,1.0264568525721183,0.264,-42.76,-9.46,-12.76,1.684,-0.016,0.252
226,-0.7829033203125,0.0891142578125,0.3545966796875,-0.537787109375,0.18831640625,-0.1058984375,0.8979482421875,-0.8911477296796338,1.0528265279897562,0.40522321799780514,-0.610921138118444,-0.25031361733675517,0.753587457974178,1.0264568525721183,0.424,-42.652,-9.064,-12.12,1.728,-0.068,0.244
227,-0.7835205078125,0.0928251953125,0.3548857421875,-0.538076171875,0.1876962890625,-0.1030068359375,0.89876171875,-0.8911477296796338,1.0528265279897562,0.40522321799780514,-0.610921138118444,-0.25031361733675517,0.753587457974178,1.0264568525721183,0.584,-42.812,-9.04,-12.096,1.66,-0.136,0.26
228,-0.78403515625,0.0966328125,0.355173828125,-0.5383642578125,0.1866630859375,-0.1001279296875,0.8993818359375,-0.8911477296796338,1.0528265279897562,0.40522321799780514,-0.610921138118444,-0.25031361733675517,0.753587457974178,1.0264568525721183,0.636,-42.164,-9.228,-12.44,1.66,-0.056,0.244
229,-0.7845498046875,0.1004404296875,0.355173828125,-0.538806640625,0.1858369140625,-0.097029296875,0.899794921875,-0.8911477296796338,1.0528265279897562,0.40522321799780514,-0.610921138118444,-0.25031361733675517,0.753587457974178,1.0264568525721183,0.636,-42.596,-9.088,-12.232,1.64,-0.276,0.252
230,-0.7851669921875,0.1042548828125,0.355173828125,-0.539095703125,0.1848173828125,-0.0941494140625,0.9004140625,-0.8911477296796338,1.0528265279897562,0.40522321799780514,-0.610921138118444,-0.25031361733675517,0.753587457974178,1.0264568525721183,0.9,-42.22,-8.416,-12.164,1.704,-0.252,0.24
231,-0.785578125,0.1080556640625,0.355318359375,-0.5395283203125,0.184197265625,-0.09105078125,0.9008271484375,-0.8911477296796338,1.0528265279897562,0.40522321799780514,-0.610921138118444,-0.25031361733675517,0.753587457974178,1.0264568525721183,0.796,-41.84,-8.788,-12.072,1.692,-0.276,0.284
232,-0.785990234375,0.1118701171875,0.3555986328125,-0.5398173828125,0.18337109375,-0.08774609375,0.901447265625,-0.8911477296796338,1.0528265279897562,-0.9788297728076423,-0.610921138118444,-0.25031361733675517,0.753587457974178,1.0264568525721183,0.584,-41.248,-9.064,-12.14,1.568,-0.368,0.24
233,-0.7865048828125,0.1157802734375,0.3555986328125,-0.54039453125,0.182337890625,-0.0844541015625,0.9018603515625,-0.8911477296796338,1.0528265279897562,-0.9788297728076423,-0.610921138118444,-0.25031361733675517,0.753587457974178,1.0264568525721183,0.528,-41.464,-8.812,-11.912,1.612,-0.316,0.276
234,-0.786916015625,0.119697265625,0.3557431640625,-0.54068359375,0.1815244140625,-0.0807353515625,0.902466796875,-0.8911477296796338,1.0528265279897562,-0.9788297728076423,-0.610921138118444,-0.25031361733675517,0.753587457974178,1.0264568525721183,0.424,-41.408,-8.624,-11.8,1.548,-0.364,0.26
235,-0.787333984375,0.1237109375,0.3547412109375,-0.54097265625,0.181111328125,-0.077443359375,0.9030869140625,-0.8911477296796338,1.0528265279897562,-0.9788297728076423,-0.610921138118444,-0.25031361733675517,0.753587457974178,1.0264568525721183,0.372,-42.164,-10.592,-11.912,1.34,-0.22,0.252
236,-0.7881572265625,0.1284443359375,0.3514384765625,-0.5415498046875,0.1806982421875,-0.0743447265625,0.9035,-0.8911477296796338,1.0528265279897562,-0.9788297728076423,-0.610921138118444,-0.25031361733675517,0.753587457974178,1.0264568525721183,0.9,-43.568,-11.888,-11.684,0.856,0.22,0.24
237,-0.789083984375,0.1331845703125,0.3469814453125,-0.542271484375,0.17842578125,-0.0702255859375,0.9041201171875,-0.8911477296796338,1.0528265279897562,-0.9788297728076423,-0.610921138118444,-0.25031361733675517,0.753587457974178,1.0264568525721183,2.552,-45.944,-10.012,-10.7,1.228,0.292,0.272
238,-0.790009765625,0.1371982421875,0.34266796875,-0.5416943359375,0.176580078125,-0.0656943359375,0.904533203125,-0.8911477296796338,1.0528265279897562,-0.9788297728076423,-0.610921138118444,-0.25031361733675517,0.753587457974178,1.0264568525721183,3.508,-46.16,-9.344,-12.12,1.78,-0.188,0.276
239,-0.7908330078125,0.141115234375,0.33777734375,-0.54097265625,0.174720703125,-0.0619755859375,0.90515234375,-0.8911477296796338,1.0528265279897562,-0.9788297728076423,-0.610921138118444,-0.25031361733675517,0.753587457974178,1.0264568525721183,3.72,-45.188,-10.452,-14.772,1.944,-0.284,0.252
240,-0.7918623046875,0.1456494140625,0.33131640625,-0.5414052734375,0.17266796875,-0.0580634765625,0.905759765625,-0.8911477296796338,1.0528265279897562,-0.9788297728076423,-0.610921138118444,-0.25031361733675517,0.753587457974178,1.0264568525721183,4.2,-45.728,-9.552,-14.384,2.152,-0.232,0.296
241,-0.792685546875,0.15018359375,0.3248466796875,-0.542126953125,0.17080859375,-0.054345703125,0.9061728515625,-0.8911477296796338,1.0528265279897562,-0.9788297728076423,-0.610921138118444,-0.25031361733675517,0.753587457974178,1.0264568525721183,4.784,-47.724,-8.072,-12.872,2.164,-0.492,0.272
242,-0.7932001953125,0.1540947265625,0.3189541015625,-0.5418388671875,0.168962890625,-0.0516728515625,0.9067919921875,-0.8911477296796338,1.0528265279897562,-0.9788297728076423,-0.610921138118444,-0.25031361733675517,0.753587457974178,1.0264568525721183,4.572,-46.86,-9.272,-13.652,2.08,-0.24,0.276
243,-0.7938173828125,0.1583203125,0.3121953125,-0.542126953125,0.166896484375,-0.0479541015625,0.907412109375,-0.8911477296796338,1.0528265279897562,-0.9788297728076423,-0.610921138118444,-0.25031361733675517,0.753587457974178,1.0264568525721183,4.304,-45.404,-9.92,-13.924,1.756,-0.12,0.264
244,-0.794640625,0.1625390625,0.3045712890625,-0.5430029296875,0.162984375,-0.0440419921875,0.9078251953125,-0.8911477296796338,1.0528265279897562,-0.9788297728076423,-0.610921138118444,-0.25031361733675517,0.753587457974178,1.0264568525721183,4.464,-45.296,-8.116,-12.76,1.952,-0.396,0.272
245,-0.795052734375,0.166353515625,0.2976767578125,-0.5430029296875,0.16010546875,-0.0403369140625,0.9084453125,-0.8911477296796338,1.0528265279897562,-0.9788297728076423,-0.610921138118444,-0.25031361733675517,0.753587457974178,1.0264568525721183,4.516,-45.132,-7.792,-13.192,2.252,-0.396,0.296
246,-0.7952587890625,0.1698525390625,0.29120703125,-0.5428583984375,0.1574326171875,-0.036412109375,0.909271484375,-0.8911477296796338,1.0528265279897562,-0.9788297728076423,-0.610921138118444,-0.25031361733675517,0.753587457974178,1.0264568525721183,3.932,-43.892,-9.504,-14.428,2.14,-0.468,0.26
247,-0.7955673828125,0.1738662109375,0.284015625,-0.543724609375,0.154541015625,-0.03270703125,0.9098779296875,-0.8911477296796338,1.0528265279897562,-0.9788297728076423,-0.610921138118444,-0.25031361733675517,0.753587457974178,1.0264568525721183,3.296,-43.62,-8.556,-13.812,2.08,-0.408,0.292
248,-0.795669921875,0.177783203125,0.2771220703125,-0.5444462890625,0.151662109375,-0.02898828125,0.910291015625,-0.8911477296796338,1.0528265279897562,-0.9788297728076423,-0.610921138118444,-0.25031361733675517,0.753587457974178,1.0264568525721183,2.816,-43.46,-6.52,-12.6,2.06,-0.188,0.296
249,-0.7955673828125,0.18128125,0.2709404296875,-0.5445908203125,0.14940234375,-0.025283203125,0.9109111328125,-0.8911477296796338,1.0528265279897562,-0.9788297728076423,-0.610921138118444,-0.25031361733675517,0.753587457974178,1.0264568525721183,1.912,-42.488,-7.84,-12.896,1.996,-0.252,0.276
250,-0.7955673828125,0.1849931640625,0.2643173828125,-0.5450234375,0.146923828125,-0.021990234375,0.9115302734375,-0.8911477296796338,1.0528265279897562,-0.9788297728076423,-0.610921138118444,-0.25031361733675517,0.753587457974178,1.0264568525721183,0.848,-41.68,-8.508,-13.424,1.78,-0.076,0.292
251,-0.795669921875,0.1889033203125,0.257279296875,-0.5458896484375,0.143630859375,-0.0180654296875,0.911943359375,-0.8911477296796338,1.0528265279897562,-0.9788297728076423,-0.610921138118444,-0.25031361733675517,0.753587457974178,1.0264568525721183,0.848,-42.544,-6.288,-12.552,1.956,-0.096,0.292
252,-0.7955673828125,0.192298828125,0.2509443359375,-0.5461787109375,0.1411650390625,-0.013947265625,0.9125634765625,-0.8911477296796338,1.0528265279897562,-0.9788297728076423,-0.610921138118444,-0.25031361733675517,0.753587457974178,1.0264568525721183,0.372,-42.38,-4.88,-12.532,2.108,-0.468,0.304
253,-0.795361328125,0.1957021484375,0.245052734375,-0.5461787109375,0.138892578125,-0.0110546875,0.9129765625,-0.8911477296796338,1.0528265279897562,-0.9788297728076423,-0.610921138118444,-0.25031361733675517,0.753587457974178,1.0264568525721183,-0.528,-41.624,-6.82,-13.744,2.128,-0.492,0.284
254,-0.795361328125,0.1996123046875,0.23828515625,-0.5469091796875,0.13683984375,-0.0079697265625,0.9135830078125,-0.8911477296796338,1.0528265279897562,-0.9788297728076423,-0.610921138118444,-0.25031361733675517,0.753587457974178,1.0264568525721183,-1.008,-40.868,-7.216,-13.192,2.036,-0.4,0.312
255,-0.795361328125,0.203419921875,0.2318154296875,-0.5477763671875,0.1347744140625,-0.0046767578125,0.91399609375,-0.8911477296796338,1.0528265279897562,-0.9788297728076423,-0.610921138118444,-0.25031361733675517,0.753587457974178,1.0264568525721183,-1.488,-41.464,-5.988,-11.8,1.964,-0.488,0.296
256,-0.7951552734375,0.206822265625,0.2264912109375,-0.5477763671875,0.132927734375,-0.0013720703125,0.91441015625,-0.8911477296796338,1.0528265279897562,-0.9788297728076423,-0.610921138118444,-0.25031361733675517,0.753587457974178,1.0264568525721183,-2.232,-40.6,-6.288,-12.392,2.06,-0.46,0.296
257,-0.7951552734375,0.210423828125,0.2208876953125,-0.547919921875,0.131275390625,0.0021259765625,0.915029296875,-0.8911477296796338,1.0528265279897562,-0.9788297728076423,-0.610921138118444,-0.25031361733675517,0.753587457974178,1.0264568525721183,-3.028,-39.736,-7.236,-13.376,2.036,-0.564,0.276
258,-0.795361328125,0.214546875,0.2142646484375,-0.548642578125,0.129623046875,0.005431640625,0.9154423828125,-0.8911477296796338,1.0528265279897562,-0.9788297728076423,-0.610921138118444,-0.25031361733675517,0.753587457974178,1.0264568525721183,-2.924,-40.436,-5.596,-12.736,2.08,-0.628,0.292
259,-0.7955673828125,0.2183544921875,0.2085078125,-0.5489306640625,0.1279833984375,0.0087236328125,0.9160625,-0.8911477296796338,1.0528265279897562,-0.9788297728076423,-0.610921138118444,-0.25031361733675517,0.753587457974178,1.0264568525721183,-2.708,-41.732,-4.948,-12.212,2.2,-0.452,0.312
260,-0.795669921875,0.221853515625,0.203328125,-0.5487861328125,0.126744140625,0.0124287109375,0.916681640625,-0.8911477296796338,1.0528265279897562,-0.9788297728076423,-0.610921138118444,-0.25031361733675517,0.753587457974178,1.0264568525721183,-3.296,-40.76,-6.268,-13.284,2.016,-0.488,0.292
261,-0.79608203125,0.2259765625,0.197291015625,-0.5492197265625,0.1250908203125,0.015734375,0.91708203125,-0.8911477296796338,1.0528265279897562,-0.9788297728076423,-0.610921138118444,-0.25031361733675517,0.753587457974178,1.0264568525721183,-3.4,-40.328,-6.104,-13.332,2.12,-0.388,0.304
262,-0.796595703125,0.2300927734375,0.19124609375,-0.549796875,0.123658203125,0.019439453125,0.9174951171875,-0.8911477296796338,1.0528265279897562,-0.9788297728076423,-0.610921138118444,-0.25031361733675517,0.753587457974178,1.0264568525721183,-2.868,-41.084,-4.672,-12.624,2.18,-0.292,0.324
263,-0.7970078125,0.2338037109375,0.18577734375,-0.549796875,0.122625,0.0229384765625,0.918115234375,-0.8911477296796338,1.0528265279897562,-0.9788297728076423,-0.610921138118444,-0.25031361733675517,0.753587457974178,1.0264568525721183,-2.764,-41.464,-5.088,-12.988,2.08,-0.276,0.304
264,-0.7975224609375,0.2377138671875,0.1801650390625,-0.549796875,0.1211787109375,0.026037109375,0.9187353515625,-0.8911477296796338,1.0528265279897562,-0.9788297728076423,-0.610921138118444,-0.25031361733675517,0.753587457974178,1.0264568525721183,-2.604,-41.084,-6.452,-13.676,2.06,-0.26,0.312
265,-0.798345703125,0.24193359375,0.1738310546875,-0.5503837890625,0.11974609375,0.0297421875,0.9191484375,-0.8911477296796338,1.0528265279897562,-0.9788297728076423,-0.610921138118444,-0.25031361733675517,0.753587457974178,1.0264568525721183,-2.072,-42.112,-6.128,-13.104,2.2,-0.312,0.276
266,-0.79895703125,0.2458505859375,0.1686513671875,-0.5505283203125,0.11809375,0.0332412109375,0.919767578125,-0.8911477296796338,1.0528265279897562,-0.9788297728076423,-0.610921138118444,-0.25031361733675517,0.753587457974178,1.0264568525721183,-1.488,-42.272,-5.364,-13.308,2.296,-0.616,0.316
267,-0.7994716796875,0.249658203125,0.1639052734375,-0.5503837890625,0.1166474609375,0.0361337890625,0.9201806640625,-0.8911477296796338,1.0528265279897562,-0.9788297728076423,-0.610921138118444,-0.25031361733675517,0.753587457974178,1.0264568525721183,-1.592,-41.084,-6.568,-14.108,2.284,-0.512,0.332
268,-0.80019140625,0.25408984375,0.1581474609375,-0.55110546875,0.115833984375,0.03921875,0.92059375,-0.8911477296796338,1.0528265279897562,-0.9788297728076423,-0.610921138118444,-0.25031361733675517,0.753587457974178,1.0264568525721183,-1.38,-40.868,-6.892,-13.584,1.956,-0.348,0.304
269,-0.8011240234375,0.2585146484375,0.152390625,-0.5518271484375,0.1145947265625,0.0423173828125,0.920994140625,-0.8911477296796338,1.0528265279897562,-0.9788297728076423,-0.610921138118444,-0.25031361733675517,0.753587457974178,1.0264568525721183,-0.528,-42.436,-5.688,-12.212,1.9,-0.384,0.296
270,-0.801638671875,0.262328125,0.1474912109375,-0.5516826171875,0.1129423828125,0.0456103515625,0.9214072265625,-0.8911477296796338,1.0528265279897562,-0.9788297728076423,-0.610921138118444,-0.25031361733675517,0.753587457974178,1.0264568525721183,-0.052,-42.596,-6.404,-13.124,1.964,-0.292,0.316
271,-0.8024619140625,0.2662392578125,0.1421669921875,-0.5516826171875,0.110888671875,0.0493154296875,0.9218203125,-0.8911477296796338,1.0528265279897562,-0.9788297728076423,-0.610921138118444,-0.25031361733675517,0.753587457974178,1.0264568525721183,-0.052,-41.948,-6.844,-14.292,2.16,-0.436,0.292
272,-0.8033876953125,0.2705615234375,0.1359775390625,-0.5522607421875,0.109236328125,0.0530341796875,0.9224404296875,-0.8911477296796338,1.0528265279897562,-0.9788297728076423,-0.610921138118444,-0.25031361733675517,0.753587457974178,1.0264568525721183,0.688,-42.112,-5.108,-13.788,2.296,-0.54,0.292
273,-0.8041083984375,0.2745810546875,0.1307978515625,-0.552548828125,0.1078037109375,0.056326171875,0.9230595703125,-0.8911477296796338,1.0528265279897562,-0.9788297728076423,-0.610921138118444,-0.25031361733675517,0.753587457974178,1.0264568525721183,1.328,-42.38,-4.764,-13.996,2.308,-0.44,0.292
274,-0.804623046875,0.2785947265625,0.12575390625,-0.552693359375,0.1065634765625,0.0596181640625,0.9234736328125,-0.8911477296796338,1.0528265279897562,-0.9788297728076423,-0.610921138118444,-0.25031361733675517,0.753587457974178,1.0264568525721183,0.956,-41.948,-6.38,-14.268,2.112,-0.284,0.292
275,-0.805548828125,0.2829228515625,0.1197080078125,-0.553271484375,0.1049111328125,0.0631298828125,0.9240927734375,-0.8911477296796338,1.0528265279897562,-0.9788297728076423,-0.610921138118444,-0.25031361733675517,0.753587457974178,1.0264568525721183,1.168,-42.544,-6.52,-13.744,1.996,-0.16,0.276
276,-0.80626953125,0.2870390625,0.113806640625,-0.5537041015625,0.1028583984375,0.0670419921875,0.924712890625,-0.8911477296796338,1.0528265279897562,-0.9788297728076423,-0.610921138118444,-0.25031361733675517,0.753587457974178,1.0264568525721183,1.964,-43.192,-5.528,-13.24,2.18,-0.26,0.292
277,-0.806681640625,0.2906416015625,0.1091962890625,-0.5534150390625,0.1005859375,0.070748046875,0.9253193359375,-0.8911477296796338,1.0528265279897562,-0.9788297728076423,-0.610921138118444,-0.25031361733675517,0.753587457974178,1.0264568525721183,1.804,-43.028,-6.684,-14.476,2.392,-0.52,0.264
278,-0.8071953125,0.2946611328125,0.1038720703125,-0.5537041015625,0.098533203125,0.0742470703125,0.925939453125,-0.8911477296796338,1.0528265279897562,-0.9788297728076423,-0.610921138118444,-0.25031361733675517,0.753587457974178,1.0264568525721183,1.328,-41.896,-7.352,-15.0,2.412,-0.576,0.252
279,-0.807916015625,0.299189453125,0.097681640625,-0.5545888671875,0.0970869140625,0.0775517578125,0.92655859375,-0.8911477296796338,1.0528265279897562,-0.9788297728076423,-0.610921138118444,-0.25031361733675517,0.753587457974178,1.0264568525721183,1.7,-42.38,-6.172,-13.604,2.212,-0.584,0.24
280,-0.808328125,0.303208984375,0.0926376953125,-0.554876953125,0.0954345703125,0.0806376953125,0.9271787109375,-0.8911477296796338,1.0528265279897562,-0.9788297728076423,-0.610921138118444,-0.25031361733675517,0.753587457974178,1.0264568525721183,1.912,-42.704,-6.152,-13.264,2.128,-0.488,0.252
281,-0.808533203125,0.3069140625,0.0876025390625,-0.554876953125,0.0933818359375,0.08413671875,0.927591796875,-0.8911477296796338,1.0528265279897562,-0.9788297728076423,-0.610921138118444,-0.25031361733675517,0.753587457974178,1.0264568525721183,1.22,-42.328,-7.1,-14.132,2.088,-0.416,0.22
282,-0.8091513671875,0.3111328125,0.0814033203125,-0.555455078125,0.091109375,0.088048828125,0.9282119140625,-0.8911477296796338,1.0528265279897562,-0.9788297728076423,-0.610921138118444,-0.25031361733675517,0.753587457974178,1.0264568525721183,1.22,-41.948,-6.06,-14.084,2.148,-0.668,0.208
283,-0.8095625,0.3150498046875,0.075646484375,-0.555599609375,0.089056640625,0.091560546875,0.928625,-0.8911477296796338,1.0528265279897562,-0.9788297728076423,-0.610921138118444,-0.25031361733675517,0.753587457974178,1.0264568525721183,1.432,-42.76,-4.16,-13.744,2.388,-0.78,0.264
284,-0.809666015625,0.318857421875,0.0706025390625,-0.555599609375,0.0869912109375,0.095265625,0.9290244140625,-0.8911477296796338,1.0528265279897562,-0.9788297728076423,-0.610921138118444,-0.25031361733675517,0.753587457974178,1.0264568525721183,1.06,-42.112,-5.548,-14.796,2.388,-0.68,0.212
285,-0.8100771484375,0.3230830078125,0.064701171875,-0.5561767578125,0.08514453125,0.0987646484375,0.92964453125,-0.8911477296796338,1.0528265279897562,-0.9788297728076423,-0.610921138118444,-0.25031361733675517,0.753587457974178,1.0264568525721183,0.424,-42.112,-5.828,-14.428,2.304,-0.564,0.208
286,-0.810591796875,0.3274052734375,0.058078125,-0.5568984375,0.0834921875,0.1024697265625,0.9300576171875,-0.8911477296796338,1.0528265279897562,-0.9788297728076423,-0.610921138118444,-0.25031361733675517,0.753587457974178,1.0264568525721183,0.848,-42.76,-4.232,-13.468,2.132,-0.44,0.22
287,-0.8107978515625,0.3311103515625,0.05275390625,-0.55675390625,0.0810126953125,0.1063818359375,0.930470703125,-0.8911477296796338,1.0528265279897562,-0.9788297728076423,-0.610921138118444,-0.25031361733675517,0.753587457974178,1.0264568525721183,0.688,-42.868,-5.296,-14.04,2.316,-0.4,0.212
288,-0.810900390625,0.3348212890625,0.047421875,-0.55675390625,0.078546875,0.110306640625,0.9308837890625,-0.8911477296796338,1.0528265279897562,-0.9788297728076423,-0.610921138118444,-0.25031361733675517,0.753587457974178,1.0264568525721183,0.052,-42.004,-6.288,-14.796,2.472,-0.46,0.188
289,-0.8113125,0.339041015625,0.0412314453125,-0.55733203125,0.0766884765625,0.11421875,0.93150390625,-0.8911477296796338,1.0528265279897562,-0.9788297728076423,-0.610921138118444,-0.25031361733675517,0.753587457974178,1.0264568525721183,-0.052,-42.704,-6.036,-14.476,2.412,-0.52,0.232
290,-0.811517578125,0.3430537109375,0.035609375,-0.5577734375,0.0750478515625,0.1175107421875,0.932123046875,-0.8911477296796338,1.0528265279897562,-0.9788297728076423,-0.610921138118444,-0.25031361733675517,0.753587457974178,1.0264568525721183,-0.212,-42.76,-5.156,-13.904,2.256,-0.532,0.212
291,-0.81162109375,0.3468681640625,0.03027734375,-0.5580625,0.073189453125,0.1205966796875,0.93273046875,-0.8911477296796338,1.0528265279897562,-0.9788297728076423,-0.610921138118444,-0.25031361733675517,0.753587457974178,1.0264568525721183,-0.636,-42.38,-5.756,-14.2,2.224,-0.4,0.232
292,-0.8120322265625,0.3509912109375,0.0243759765625,-0.5586396484375,0.0713427734375,0.124302734375,0.933349609375,-0.8911477296796338,1.0528265279897562,-0.9788297728076423,-0.610921138118444,-0.25031361733675517,0.753587457974178,1.0264568525721183,-1.008,-41.948,-5.316,-13.948,2.172,-0.428,0.212
293,-0.8123408203125,0.3550107421875,0.0181767578125,-0.5590732421875,0.0696904296875,0.127814453125,0.9339697265625,-0.8911477296796338,1.0528265279897562,-0.9788297728076423,-0.610921138118444,-0.25031361733675517,0.753587457974178,1.0264568525721183,-0.744,-42.328,-4.184,-13.652,2.252,-0.564,0.208
294,-0.812546875,0.358818359375,0.01298828125,-0.5590732421875,0.0678310546875,0.1311064453125,0.9343828125,-0.8911477296796338,1.0528265279897562,-0.9788297728076423,-0.610921138118444,-0.25031361733675517,0.753587457974178,1.0264568525721183,-1.008,-41.896,-4.184,-14.04,2.376,-0.54,0.212
295,-0.81285546875,0.36283203125,0.0073662109375,-0.5593623046875,0.06619140625,0.1343984375,0.9350029296875,-0.8911477296796338,1.0528265279897562,-0.9788297728076423,-0.610921138118444,-0.25031361733675517,0.753587457974178,1.0264568525721183,-1.38,-42.272,-4.948,-14.36,2.308,-0.54,0.192
296,-0.8133701171875,0.3670576171875,0.0010322265625,-0.559939453125,0.0647451171875,0.1378974609375,0.935416015625,-0.8911477296796338,1.0528265279897562,-0.9788297728076423,-0.610921138118444,-0.25031361733675517,0.753587457974178,1.0264568525721183,-1.168,-42.596,-4.116,-13.676,2.212,-0.492,0.208
297,-0.8136787109375,0.3709677734375,-0.005021484375,-0.560228515625,0.0632998046875,0.141203125,0.93603515625,-0.8911477296796338,1.0528265279897562,-0.9788297728076423,-0.610921138118444,-0.25031361733675517,0.753587457974178,1.0264568525721183,-1.008,-42.596,-3.86,-13.812,2.192,-0.344,0.188
298,-0.8139873046875,0.374775390625,-0.0104990234375,-0.560373046875,0.06124609375,0.145115234375,0.9364482421875,-0.8911477296796338,1.0528265279897562,-0.9788297728076423,-0.610921138118444,-0.25031361733675517,0.753587457974178,1.0264568525721183,-1.116,-41.624,-4.808,-14.336,2.4,-0.428,0.22
299,-0.814501953125,0.3786923828125,-0.0164091796875,-0.5606611328125,0.05959375,0.1484072265625,0.9368486328125,-0.8911477296796338,1.0528265279897562,-0.9788297728076423,-0.610921138118444,-0.25031361733675517,0.753587457974178,1.0264568525721183,-1.38,-41.624,-4.784,-14.108,2.48,-0.5,0.208
300,-0.8149140625,0.3827060546875,-0.0221748046875,-0.5610947265625,0.0583544921875,0.15190625,0.93746875,-0.8911477296796338,1.0528265279897562,-0.9788297728076423,-0.610921138118444,-0.25031361733675517,0.753587457974178,1.0264568525721183,-1.008,-41.896,-4.532,-13.924,2.328,-0.332,0.224
301,-0.81522265625,0.386513671875,-0.02736328125,-0.56152734375,0.05671484375,0.1551982421875,0.9378818359375,-0.8911477296796338,1.0528265279897562,-0.9788297728076423,0.7724034896238304,-0.25031361733675517,0.753587457974178,1.0264568525721183,-1.22,-42.596,-5.388,-13.72,2.328,-0.4,0.244
302,-0.8157431640625,0.390533203125,-0.0331298828125,-0.5619697265625,0.05485546875,0.158490234375,0.938294921875,-0.8911477296796338,1.0528265279897562,-0.9788297728076423,0.7724034896238304,-0.25031361733675517,0.753587457974178,1.0264568525721183,-1.22,-42.056,-5.18,-13.744,2.236,-0.356,0.232
303,-0.816361328125,0.3946494140625,-0.0391845703125,-0.5624033203125,0.05299609375,0.162001953125,0.9389150390625,-0.8911477296796338,1.0528265279897562,-0.9788297728076423,0.7724034896238304,-0.25031361733675517,0.753587457974178,1.0264568525721183,-0.848,-41.732,-3.7,-13.264,2.224,-0.472,0.2
304,-0.816669921875,0.3980517578125,-0.044228515625,-0.5616806640625,0.05176953125,0.165294921875,0.9395341796875,-0.8911477296796338,1.0528265279897562,-0.9788297728076423,0.7724034896238304,-0.25031361733675517,0.753587457974178,1.0264568525721183,-0.584,-42.112,-3.744,-12.372,2.252,-0.644,0.244
305,-0.8167724609375,0.4008310546875,-0.048126953125,-0.5593623046875,0.0507373046875,0.16734765625,0.939947265625,-0.8911477296796338,1.0528265279897562,-0.9788297728076423,0.7724034896238304,-0.25031361733675517,0.753587457974178,1.0264568525721183,-1.008,-42.596,-4.692,-12.324,1.86,-0.324,0.208
306,-0.8170810546875,0.40330078125,-0.0525927734375,-0.5563212890625,0.049083984375,0.1704462890625,0.9403603515625,-0.8911477296796338,1.0528265279897562,-0.9788297728076423,0.7724034896238304,-0.25031361733675517,0.753587457974178,1.0264568525721183,-1.592,-41.032,-5.224,-12.256,1.632,-0.108,0.212
307,-0.8174931640625,0.4056669921875,-0.05778125,-0.552548828125,0.047857421875,0.1741513671875,0.9407607421875,-0.8911477296796338,1.0528265279897562,-0.9788297728076423,0.7724034896238304,-0.25031361733675517,0.753587457974178,1.0264568525721183,-1.488,-39.736,-3.512,-11.228,1.768,-0.52,0.24
308,-0.817595703125,0.4074169921875,-0.062103515625,-0.5474873046875,0.046412109375,0.17682421875,0.9409677734375,-0.8911477296796338,1.0528265279897562,-0.9788297728076423,0.7724034896238304,-0.25031361733675517,0.753587457974178,1.0264568525721183,-1.276,-38.384,-2.728,-11.64,1.768,-0.5,0.208
309,-0.81769921875,0.40937890625,-0.0664345703125,-0.5424248046875,0.0447587890625,0.1794970703125,0.941380859375,-0.8911477296796338,1.0528265279897562,-0.9788297728076423,0.7724034896238304,-0.25031361733675517,0.753587457974178,1.0264568525721183,-1.86,-36.116,-3.076,-11.912,2.06,-0.388,0.244
310,-0.8181103515625,0.4115400390625,-0.0710458984375,-0.537208984375,0.044552734375,0.182388671875,0.9417939453125,-0.8911477296796338,1.0528265279897562,-0.9788297728076423,0.7724034896238304,-0.25031361733675517,0.753587457974178,1.0264568525721183,-1.86,-35.524,-2.844,-10.976,1.748,-0.428,0.244
311,-0.81831640625,0.4134951171875,-0.0749443359375,-0.53113671875,0.0441396484375,0.1840283203125,0.94220703125,-0.8911477296796338,1.0528265279897562,-0.9788297728076423,0.7724034896238304,-0.25031361733675517,0.753587457974178,1.0264568525721183,-1.804,-35.36,-3.284,-10.7,1.28,-0.032,0.22
312,-0.8182138671875,0.41534765625,-0.078255859375,-0.5246220703125,0.0425,0.1865068359375,0.9424130859375,-0.8911477296796338,1.0528265279897562,-0.9788297728076423,0.7724034896238304,-0.25031361733675517,0.753587457974178,1.0264568525721183,-2.392,-33.904,-4.348,-11.388,1.5,0.14,0.224
313,-0.8185224609375,0.4175087890625,-0.0822978515625,-0.517953125,0.041673828125,0.1895927734375,0.9428271484375,-0.8911477296796338,1.0528265279897562,-0.9788297728076423,0.7724034896238304,-0.25031361733675517,0.753587457974178,1.0264568525721183,-2.496,-33.148,-4.044,-11.708,1.644,-0.148,0.22
314,-0.81893359375,0.419978515625,-0.0864755859375,-0.5111494140625,0.04084765625,0.1916455078125,0.943240234375,-0.8911477296796338,1.0528265279897562,-0.9788297728076423,0.7724034896238304,-0.25031361733675517,0.753587457974178,1.0264568525721183,-2.444,-33.688,-3.212,-11.296,1.652,-0.136,0.232
315,-0.819037109375,0.4224541015625,-0.08994140625,-0.5040576171875,0.0400205078125,0.1937119140625,0.9434462890625,-0.8911477296796338,1.0528265279897562,-0.9788297728076423,0.7724034896238304,-0.25031361733675517,0.753587457974178,1.0264568525721183,-2.392,-34.28,-3.492,-11.068,1.704,0.044,0.26
316,-0.819345703125,0.4252333984375,-0.093830078125,-0.49696484375,0.0394013671875,0.1957646484375,0.943859375,-0.8911477296796338,1.0528265279897562,-0.9788297728076423,0.7724034896238304,-0.25031361733675517,0.753587457974178,1.0264568525721183,-2.444,-35.036,-4.024,-11.044,1.5,0.004,0.232
317,-0.819962890625,0.4283203125,-0.09844140625,-0.490314453125,0.038162109375,0.197830078125,0.9442724609375,-0.8911477296796338,1.0528265279897562,-0.9788297728076423,0.7724034896238304,-0.25031361733675517,0.753587457974178,1.0264568525721183,-2.124,-36.496,-3.144,-11.5,1.62,0.056,0.244
318,-0.820271484375,0.4313046875,-0.102330078125,-0.483212890625,0.0365224609375,0.2005029296875,0.9446728515625,-0.8911477296796338,1.0528265279897562,-0.9788297728076423,0.7724034896238304,-0.25031361733675517,0.753587457974178,1.0264568525721183,-1.648,-37.792,-2.936,-12.072,1.952,-0.168,0.26
319,-0.82068359375,0.4346044921875,-0.106228515625,-0.476265625,0.034869140625,0.2025556640625,0.9450859375,-0.8911477296796338,1.0528265279897562,-0.9788297728076423,0.7724034896238304,-0.25031361733675517,0.753587457974178,1.0264568525721183,-1.7,-37.9,-3.328,-13.24,2.14,-0.44,0.232
320,-0.82119140625,0.4382060546875,-0.1104150390625,-0.4696064453125,0.0338369140625,0.2042080078125,0.9454990234375,-0.8911477296796338,1.0528265279897562,-0.9788297728076423,0.7724034896238304,-0.25031361733675517,0.753587457974178,1.0264568525721183,-1.54,-38.816,-2.612,-12.828,2.148,-0.244,0.244
321,-0.8217060546875,0.44191015625,-0.11416015625,-0.462802734375,0.03281640625,0.2064677734375,0.946119140625,-0.8911477296796338,1.0528265279897562,-0.9788297728076423,0.7724034896238304,-0.25031361733675517,0.753587457974178,1.0264568525721183,-1.22,-39.52,-3.236,-13.652,1.776,-0.2,0.24
322,-0.8221171875,0.4456279296875,-0.1180576171875,-0.456287109375,0.030337890625,0.208740234375,0.9463251953125,-0.8911477296796338,1.0528265279897562,-0.9788297728076423,0.7724034896238304,-0.25031361733675517,0.753587457974178,1.0264568525721183,-1.168,-40.168,-4.024,-14.064,2.028,-0.264,0.24
323,-0.8227353515625,0.4492294921875,-0.1223798828125,-0.449474609375,0.028685546875,0.2109990234375,0.94673828125,-0.8911477296796338,1.0528265279897562,-0.9788297728076423,0.7724034896238304,-0.25031361733675517,0.753587457974178,1.0264568525721183,-0.688,-41.68,-3.26,-14.016,2.252,-0.292,0.26
324,-0.82325,0.452728515625,-0.1265673828125,-0.4425263671875,0.0266318359375,0.2138916015625,0.94715234375,-0.8911477296796338,1.0528265279897562,-0.9788297728076423,0.7724034896238304,-0.25031361733675517,0.753587457974178,1.0264568525721183,-0.424,-42.112,-3.168,-14.52,2.212,-0.504,0.2
325,-0.8236611328125,0.4563369140625,-0.13075390625,-0.43572265625,0.0243603515625,0.216150390625,0.9473583984375,-0.8911477296796338,1.0528265279897562,-0.9788297728076423,0.7724034896238304,-0.25031361733675517,0.753587457974178,1.0264568525721183,-0.316,-42.812,-3.652,-14.176,2.472,-0.46,0.272
326,-0.8242783203125,0.4600419921875,-0.134931640625,-0.429361328125,0.022513671875,0.219236328125,0.947771484375,-0.8911477296796338,1.0528265279897562,-0.9788297728076423,0.7724034896238304,-0.25031361733675517,0.753587457974178,1.0264568525721183,0.0,-43.46,-3.932,-15.184,2.524,-0.472,0.26
327,-0.8246904296875,0.4636435546875,-0.138830078125,-0.4231259765625,0.02003515625,0.222322265625,0.947978515625,-0.8911477296796338,1.0528265279897562,-0.9788297728076423,0.7724034896238304,-0.25031361733675517,0.753587457974178,1.0264568525721183,0.0,-43.62,-4.208,-14.84,2.68,-0.784,0.252
328,-0.8251015625,0.4671484375,-0.142294921875,-0.416611328125,0.0185888671875,0.2243876953125,0.9483916015625,-0.8911477296796338,1.0528265279897562,-0.9788297728076423,0.7724034896238304,-0.25031361733675517,0.753587457974178,1.0264568525721183,0.104,-43.46,-4.508,-14.68,2.492,-0.436,0.26
329,-0.82541015625,0.4707509765625,-0.146048828125,-0.410529296875,0.0167421875,0.2276806640625,0.9487919921875,-0.8911477296796338,1.0528265279897562,-0.9788297728076423,0.7724034896238304,-0.25031361733675517,0.753587457974178,1.0264568525721183,-0.104,-43.836,-5.364,-14.496,2.296,-0.22,0.26
330,-0.825822265625,0.4740439453125,-0.1499375,-0.4041591796875,0.0146767578125,0.23097265625,0.949205078125,-0.8911477296796338,1.0528265279897562,-0.9788297728076423,0.7724034896238304,-0.25031361733675517,0.753587457974178,1.0264568525721183,-0.104,-44.592,-4.924,-14.476,2.44,-0.428,0.264
331,-0.8262333984375,0.477130859375,-0.15398046875,-0.3977978515625,0.0122109375,0.23405859375,0.94982421875,-0.8911477296796338,1.0528265279897562,-0.9788297728076423,0.7724034896238304,-0.25031361733675517,0.753587457974178,1.0264568525721183,0.052,-44.324,-4.416,-16.6,2.556,-0.292,0.244
332,-0.82654296875,0.4804306640625,-0.1580224609375,-0.3918515625,0.0097314453125,0.237970703125,0.95003125,-0.8911477296796338,1.0528265279897562,-0.9788297728076423,0.7724034896238304,-0.25031361733675517,0.753587457974178,1.0264568525721183,0.156,-44.648,-3.86,-16.168,2.9,-0.52,0.284
333,-0.8269541015625,0.483517578125,-0.1620654296875,-0.3853359375,0.0089052734375,0.240642578125,0.950650390625,-0.8911477296796338,1.0528265279897562,-0.9788297728076423,0.7724034896238304,-0.25031361733675517,0.753587457974178,1.0264568525721183,0.104,-44.808,-3.836,-15.8,2.512,-0.572,0.244
334,-0.8272626953125,0.486810546875,-0.1662431640625,-0.37954296875,0.0070595703125,0.243328125,0.950857421875,-0.8911477296796338,1.0528265279897562,-0.9788297728076423,0.7724034896238304,-0.25031361733675517,0.753587457974178,1.0264568525721183,-0.104,-44.052,-3.86,-14.568,2.324,-0.168,0.232
335,-0.8275712890625,0.489794921875,-0.17028515625,-0.373615234375,0.00540625,0.2470341796875,0.9512705078125,-0.8911477296796338,1.0528265279897562,-0.9788297728076423,0.7724034896238304,-0.25031361733675517,0.753587457974178,1.0264568525721183,-0.052,-43.784,-3.652,-13.788,2.392,-0.452,0.284
336,-0.82777734375,0.4926826171875,-0.17418359375,-0.3675244140625,0.00375390625,0.250119140625,0.9514765625,-0.8911477296796338,1.0528265279897562,-0.9788297728076423,0.7724034896238304,-0.25031361733675517,0.753587457974178,1.0264568525721183,-0.264,-42.92,-3.468,-15.068,2.316,-0.628,0.244
337,-0.8280859375,0.4957705078125,-0.1786591796875,-0.361875,0.001701171875,0.2525849609375,0.95168359375,-0.8911477296796338,1.0528265279897562,-0.9788297728076423,0.7724034896238304,-0.25031361733675517,0.753587457974178,1.0264568525721183,-0.316,-43.296,-3.304,-14.336,2.672,-0.54,0.276
338,-0.82839453125,0.498548828125,-0.1827021484375,-0.3557939453125,0.0014951171875,0.25546484375,0.9520966796875,-0.8911477296796338,1.0528265279897562,-0.9788297728076423,0.7724034896238304,-0.25031361733675517,0.753587457974178,1.0264568525721183,-0.316,-43.404,-3.284,-14.384,2.316,-0.556,0.264
