EmanuelSamir/lab201_ws_projsamir/sawyer_dev/data/sawyer/temp/training_data_all_mul_false.csv
,j1,j2,j3,j4,j5,j6,j7,v1,v2,v3,v4,v5,v6,v7,jd1,jd2,jd3,jd4,jd5,jd6,jd7,e1,e2,e3,e4,e5,e6,e7
0,0.0,0.0,0.0,0.0,0.0,0.0,0.0,0.0,0.0,0.0,0.0,0.0,0.0,0.0,0.0,0.0,0.0,0.0,0.0,0.0,0.0,0.0,0.0,0.0,0.0,0.0,0.0,0.0
1,-0.00230859375,0.0021953125,-0.00401171875,-0.004990234375,0.0033408203125,-0.000751953125,0.0014130859375,-0.001,-0.001,-0.001,-0.001,-0.001,-0.001,-0.001,0.0001290895159238317,3.0148479790688594e-05,6.691982288502005e-06,5.308095317014301e-06,2.4109572729108275e-05,2.4901020074083767e-05,3.820482781128922e-05,0.476,-44.052,-4.88,-13.56,2.324,-0.708,0.068
2,-0.00230859375,0.0021953125,-0.00401171875,-0.004990234375,0.0033408203125,-0.000751953125,0.0014130859375,-0.001,-0.001,-0.001,-0.001,-0.001,-0.001,-0.001,0.007639114654314957,0.006525533071073732,0.0017843901000639342,0.0014097292083097028,0.006376896921372901,0.006558855112533375,0.007888018070258095,0.476,-44.108,-4.88,-13.676,2.328,-0.708,0.088
3,-0.00230859375,0.0021953125,-0.00401171875,-0.004990234375,0.0033408203125,-0.000751953125,0.0014130859375,-0.001,-0.001,-0.001,-0.001,-0.001,-0.001,-0.001,0.017335650888035535,0.014964603840628862,0.004104964209386939,0.0032506226635969,0.014734701658256341,0.015192509927255318,0.018311891654148902,0.528,-44.052,-4.832,-13.584,2.296,-0.7,0.088
4,-0.0022060546875,0.0021953125,-0.0038671875,-0.004990234375,0.0033408203125,-0.000751953125,0.0014130859375,-0.001,-0.001,0.001,-0.001,-0.001,-0.001,-0.001,0.02693832357005766,0.023317371976397622,0.0064023148120493515,0.005071904485935827,0.022986281609757776,0.02372383729750991,0.02859952462595062,1.86,-44.0,-4.832,-13.536,2.308,-0.688,0.096
5,-0.001794921875,0.00250390625,-0.0041552734375,-0.004990234375,0.00375390625,-0.000751953125,0.0016201171875,0.02,0.008,0.003,0.006,0.006,-0.001,0.004,0.03650389733634056,0.03163610679617033,0.008698083608646323,0.006896044164705887,0.031244970703880003,0.03224279742770822,0.038874826808659245,8.4,-40.6,-4.208,-13.172,2.34,-0.676,0.136
6,-0.00107421875,0.0034365234375,-0.0042998046875,-0.005865234375,0.0052001953125,-0.0001328125,0.004279296875,0.057,0.056,-0.028,-0.038,0.073,0.015,0.123,0.04602013617744088,0.03992457207610522,0.010989724885675857,0.008711752545981272,0.03943374876444973,0.04069063741451637,0.049035367355241895,15.844,-34.228,-2.656,-11.204,2.236,-0.368,0.148
7,-4.4921875e-05,0.0049794921875,-0.0037236328125,-0.0070205078125,0.0089052734375,0.00130078125,0.008591796875,0.088,0.124,0.007,-0.107,0.244,0.107,0.326,0.055570889368953366,0.04827474144419083,0.013307082252316763,0.010550491490374465,0.04769984851876773,0.049223918315639624,0.05928654803969847,20.364,-29.26,-2.148,-8.14,1.34,-0.084,0.276
8,0.00150390625,0.00683203125,-0.0024326171875,-0.0077421875,0.0134375,0.0031591796875,0.0143369140625,0.121,0.164,0.095,-0.098,0.417,0.159,0.509,0.0649853990788735,0.05651099818015002,0.015603705121868344,0.012373488099858191,0.0558648815687146,0.057650960684180436,0.06939183569839907,22.596,-25.644,-3.12,-5.692,0.252,0.552,0.284
9,0.0033564453125,0.008890625,-0.00156640625,-0.0083193359375,0.017568359375,0.00727734375,0.021322265625,0.167,0.196,0.109,-0.072,0.439,0.271,0.628,0.07430807068747486,0.06463703249959755,0.017877838047449638,0.014177295750782748,0.06389554919644838,0.06592907840385398,0.07928385451183287,23.82,-23.644,-3.028,-3.864,0.012,1.0,0.224
10,0.0058330078125,0.011154296875,-0.0008447265625,-0.00788671875,0.0216875,0.0132548828125,0.02993359375,0.211,0.214,0.081,-0.018,0.418,0.495,0.769,0.08366232493627755,0.07287129249213893,0.020201892326723515,0.01602429756961092,0.07208054559101859,0.07437032468177016,0.08934760247884646,23.976,-22.672,-2.796,-4.252,0.128,0.772,0.128
11,0.0088232421875,0.0141455078125,-0.000123046875,-0.0073095703125,0.0258056640625,0.019646484375,0.0379384765625,0.271,0.254,0.076,0.06,0.413,0.613,0.844,0.09287960094379998,0.08094994983939792,0.022487972434357843,0.017837378215191088,0.08005567756490707,0.08258741556508042,0.09910515334228916,23.232,-21.056,-1.896,-5.716,0.7,0.584,0.064
12,0.012431640625,0.0180556640625,0.0008876953125,-0.0070205078125,0.03095703125,0.026037109375,0.0453369140625,0.325,0.339,0.074,0.042,0.445,0.655,0.777,0.10196027671774703,0.08897473658794204,0.02478061180431358,0.019657967382123064,0.08800983234312498,0.09077943201083541,0.10880013591016087,21.852,-21.108,-1.224,-5.852,1.132,0.284,0.16
13,0.0165546875,0.02258984375,0.002611328125,-0.006443359375,0.038162109375,0.0311884765625,0.0512880859375,0.382,0.421,0.129,0.037,0.606,0.6,0.682,0.11101782670003203,0.0969571375151811,0.027077913283158925,0.021482733637164284,0.09591744621414723,0.09892109926953488,0.11839180071551805,20.52,-24.456,-2.172,-5.92,0.824,0.396,0.172
14,0.021095703125,0.027529296875,0.00448828125,-0.005279296875,0.0447587890625,0.03633984375,0.0570341796875,0.433,0.47,0.184,0.081,0.71,0.496,0.597,0.11996211172992431,0.10492701253861689,0.02939883486258688,0.023331469791167493,0.10387498826909417,0.1071240547835169,0.12802833948846692,18.82,-29.532,-4.044,-6.448,0.524,0.852,0.172
15,0.02614453125,0.0324755859375,0.005787109375,-0.0036904296875,0.05032421875,0.0429375,0.0621591796875,0.478,0.495,0.17,0.123,0.627,0.575,0.542,0.12858304999523362,0.11255987465904038,0.03163081706418388,0.02510023370442216,0.11137793338049373,0.11481809929986588,0.13697818335118803,17.12,-33.148,-4.6,-7.432,0.852,0.416,0.18
16,0.0317138671875,0.0373125,0.00722265625,-0.0010830078125,0.0554755859375,0.049109375,0.06669140625,0.531,0.493,0.134,0.207,0.539,0.659,0.497,0.1372829413214949,0.12041943515340746,0.03396251048597284,0.026954613177677576,0.11918460036954046,0.12283799169214199,0.14627694614158565,16.588,-35.36,-4.16,-10.128,1.652,-0.172,0.12
17,0.0375927734375,0.04246484375,0.008810546875,0.0015234375,0.0608330078125,0.05529296875,0.0710029296875,0.571,0.493,0.152,0.274,0.52,0.622,0.453,0.14578215404684453,0.12798252247101619,0.03622798514772714,0.028755985025391558,0.1266807562104403,0.13053327380642107,0.15514261598864745,14.832,-37.684,-3.952,-12.896,2.392,-0.408,0.064
18,0.0436708984375,0.0482333984375,0.01054296875,0.003400390625,0.06619140625,0.0606513671875,0.0746962890625,0.598,0.543,0.168,0.226,0.533,0.603,0.409,0.15411153522922205,0.13554594809946202,0.038524874700821006,0.030583752166450855,0.13419462863262246,0.13823942737077213,0.16395772263865696,10.844,-40.22,-4.044,-13.056,2.524,-0.616,0.068
19,0.050064453125,0.0542021484375,0.01269921875,0.0052861328125,0.07236328125,0.064150390625,0.0779755859375,0.626,0.591,0.189,0.181,0.579,0.454,0.361,0.1622632203108495,0.14286359249369496,0.04077159436827169,0.03237062183443726,0.14143880553806962,0.14565644964712832,0.17237272828824615,7.656,-42.868,-4.88,-12.624,2.212,-0.14,0.036
20,0.056869140625,0.060177734375,0.014576171875,0.0070283203125,0.077927734375,0.0682822265625,0.081267578125,0.657,0.604,0.205,0.185,0.602,0.365,0.327,0.17192670254899636,0.15169349665126614,0.04353049416135746,0.034568198677400505,0.15022240099129633,0.15465000292387,0.18249492426231573,8.08,-45.348,-5.756,-12.576,1.972,0.064,0.096
21,0.0637763671875,0.0657412109375,0.0162998046875,0.009337890625,0.0820458984375,0.0728134765625,0.08475390625,0.686,0.589,0.182,0.193,0.499,0.447,0.335,0.17823279298752118,0.15747919051907625,0.045365068204527056,0.03603014046657987,0.1559730604991073,0.16052614394900708,0.18903894318655784,9.144,-47.292,-6.08,-13.148,2.328,-0.332,0.088
22,0.070787109375,0.0709892578125,0.0175986328125,0.01208984375,0.0849384765625,0.0763125,0.0884462890625,0.703,0.545,0.159,0.257,0.368,0.403,0.358,0.18579537147487338,0.164445302476306,0.04760386154438324,0.03781218915706414,0.16287541019558344,0.16756570903501458,0.19681056039692466,8.028,-47.724,-5.92,-15.46,2.764,-0.556,0.16
23,0.0776953125,0.0764501953125,0.018609375,0.0139853515625,0.087404296875,0.0806376953125,0.0923447265625,0.704,0.536,0.113,0.242,0.266,0.395,0.376,0.19324979740880657,0.17136589357732349,0.049867578355254315,0.03961656047070212,0.16975342200583923,0.17457723504698225,0.2044729169219129,0.584,-47.4,-4.784,-16.12,3.248,-1.072,0.2
24,0.08480859375,0.0820068359375,0.0201982421875,0.0157177734375,0.091109375,0.083310546875,0.0966572265625,0.702,0.558,0.121,0.182,0.293,0.376,0.408,0.20053449857022612,0.17819673113172005,0.05214317968063196,0.04143158328384273,0.17654670485445886,0.18149261944614406,0.21194272589752133,-4.464,-47.78,-4.972,-15.732,3.156,-1.208,0.22
25,0.0919287109375,0.087673828125,0.02177734375,0.0168818359375,0.094001953125,0.0851689453125,0.1013828125,0.716,0.559,0.161,0.154,0.353,0.218,0.452,0.2075744699449877,0.18483895064016267,0.054398915336878115,0.043231542195582194,0.18315571197964509,0.1882103296231942,0.21910609780940046,-4.304,-49.128,-6.172,-15.116,2.7,-0.616,0.304
26,0.0990419921875,0.092927734375,0.023365234375,0.017892578125,0.096673828125,0.0884619140625,0.1065087890625,0.715,0.552,0.166,0.099,0.28,0.25,0.484,0.21442400281314358,0.19136004961871433,0.05665912416965346,0.04503606451351648,0.18964768784195382,0.19479731155118915,0.22603439335945547,-2.02,-51.18,-6.868,-14.384,2.516,-0.608,0.224
27,0.1058466796875,0.0978681640625,0.0246640625,0.0194892578125,0.0983271484375,0.0921796875,0.11225390625,0.704,0.514,0.146,0.133,0.227,0.352,0.539,0.22106781009502274,0.19776502285269723,0.05892891098335208,0.0468502238291275,0.19603897406444473,0.20127406281875004,0.23274779507197094,-2.656,-50.748,-6.728,-15.732,2.712,-0.888,0.108
28,0.1124462890625,0.1027109375,0.025666015625,0.02035546875,0.0989462890625,0.096298828125,0.11801171875,0.673,0.492,0.109,0.131,0.109,0.373,0.589,0.22746984017445337,0.20398657430662895,0.06118413243084882,0.048652754188331905,0.2022406601533373,0.2075425254740098,0.23913431659746204,-8.344,-49.884,-5.156,-16.028,3.22,-1.052,0.12
29,0.1189423828125,0.1074384765625,0.0268212890625,0.0215107421875,0.101619140625,0.10000390625,0.12355078125,0.659,0.483,0.109,0.098,0.14,0.413,0.568,0.23363582319881965,0.21004977959462376,0.06343548386705444,0.050453139349112205,0.20828724782820557,0.21364067954779759,0.24523603152037649,-10.896,-49.616,-5.18,-15.8,3.092,-1.184,0.056
30,0.1254384765625,0.11197265625,0.0282646484375,0.022087890625,0.10346484375,0.1026767578125,0.1286767578125,0.655,0.466,0.133,0.091,0.249,0.314,0.542,0.2395827572346573,0.21610958581927742,0.06574646957182836,0.05230251144940975,0.21433710954878413,0.21972798258171775,0.2512035396292468,-8.08,-49.616,-6.06,-15.388,2.76,-0.532,0.128
31,0.1315224609375,0.1165009765625,0.029275390625,0.0228193359375,0.1057373046875,0.1065888671875,0.13340234375,0.639,0.462,0.119,0.059,0.209,0.313,0.506,0.24522268413532544,0.22166383340805676,0.06792135058210792,0.05404408758769113,0.21988498995134928,0.22529904578578602,0.25654687848089053,-5.848,-49.4,-5.944,-14.384,2.64,-0.252,0.128
32,0.1374013671875,0.1207265625,0.030421875,0.023830078125,0.1079970703125,0.1113271484375,0.1377138671875,0.606,0.435,0.116,0.084,0.233,0.449,0.453,0.2506376816017011,0.227207662207099,0.07015514145773348,0.05583418495990516,0.22542535378332096,0.23084407984058042,0.26173795870114225,-8.292,-48.048,-6.012,-14.976,2.556,-0.552,0.12
33,0.1428681640625,0.124740234375,0.031431640625,0.0245517578125,0.1096494140625,0.1158583984375,0.1420263671875,0.568,0.415,0.104,0.094,0.179,0.455,0.438,0.2558035852487661,0.23258469453340014,0.07238881762102697,0.057625086193291195,0.23080460563486493,0.2362142742741041,0.2666313333454389,-12.388,-47.348,-5.364,-15.32,3.056,-0.648,0.156
34,0.1483349609375,0.1286572265625,0.0327314453125,0.0255712890625,0.1127353515625,0.12018359375,0.1461318359375,0.551,0.4,0.108,0.086,0.228,0.454,0.421,0.26071451512981697,0.23779903513658618,0.07462668813154791,0.05942097974854355,0.23602887138324583,0.24141268053293963,0.27122611860375334,-12.068,-47.24,-5.156,-15.388,2.92,-0.916,0.212
35,0.1534873046875,0.1325673828125,0.03403125,0.0264375,0.1164541015625,0.1232822265625,0.15023828125,0.536,0.39,0.137,0.097,0.348,0.382,0.413,0.2653401945665014,0.2428058013403585,0.07685038477863032,0.06120665204099368,0.24104900243708938,0.24639066348880626,0.2754777479010317,-8.876,-47.4,-5.64,-15.436,2.712,-0.572,0.136
36,0.1583369140625,0.1362724609375,0.0353212890625,0.0273037109375,0.1203662109375,0.1274013671875,0.1547568359375,0.508,0.387,0.133,0.084,0.36,0.344,0.425,0.2696937084463534,0.2476195151260964,0.07906756093771096,0.06298844800310939,0.2458807833912174,0.2511633263774135,0.2793987660795764,-7.336,-47.672,-6.08,-14.748,2.784,-0.376,0.088
37,0.1629736328125,0.13977734375,0.0366201171875,0.0284677734375,0.12427734375,0.1319326171875,0.1590693359375,0.481,0.363,0.125,0.105,0.416,0.441,0.452,0.2737842244665794,0.25226970446124053,0.08129409769817617,0.0647791804739391,0.2505553396241903,0.2557622484774246,0.2830125537092196,-8.188,-46.808,-6.172,-15.344,2.668,-0.584,0.032
38,0.1673095703125,0.1432763671875,0.037486328125,0.029478515625,0.1279833984375,0.13646484375,0.1631748046875,0.448,0.356,0.116,0.108,0.375,0.453,0.424,0.2775723297747986,0.2566881591759055,0.0834985315663647,0.06655357994612174,0.25500239541264313,0.2601170863286899,0.2862628547912042,-10.208,-45.348,-5.388,-15.344,2.948,-0.728,0.068
39,0.17153515625,0.14678125,0.0390654296875,0.0304892578125,0.1325146484375,0.1405830078125,0.1670732421875,0.434,0.352,0.114,0.094,0.394,0.436,0.399,0.2810909745897972,0.2609348746248234,0.08571264995681568,0.06833743864753702,0.2592841011348622,0.2642886411934665,0.2891933769211413,-10.1,-44.7,-5.316,-15.16,2.94,-0.648,0.056
40,0.1753486328125,0.150287109375,0.040654296875,0.03135546875,0.1378603515625,0.1444951171875,0.1707666015625,0.408,0.348,0.16,0.103,0.506,0.409,0.384,0.28431173826881084,0.2649648472396342,0.08791508820073655,0.07011308376942665,0.26335394100075654,0.26823100639436115,0.29177063300134043,-8.344,-44.808,-5.848,-15.024,2.504,-0.324,0.108
41,0.17906640625,0.153888671875,0.04209765625,0.0320859375,0.14301171875,0.14861328125,0.174458984375,0.381,0.356,0.153,0.078,0.529,0.4,0.375,0.28722652087220085,0.268764246544798,0.09009655444827498,0.07187249046493954,0.2671914925430495,0.27192354460760887,0.2939824227384584,-6.696,-44.864,-6.06,-14.132,2.36,-0.172,0.14
42,0.1826748046875,0.157291015625,0.0436767578125,0.03325,0.148369140625,0.152732421875,0.1779443359375,0.369,0.352,0.152,0.087,0.527,0.414,0.359,0.2898567757187078,0.27237686356600466,0.0922866280913465,0.0736413413968059,0.2708548065654745,0.27542500845110934,0.29586622702646737,-5.208,-44.108,-5.964,-14.176,2.324,-0.156,0.18
43,0.185974609375,0.1606875,0.0449765625,0.0342607421875,0.153107421875,0.1570576171875,0.181443359375,0.348,0.341,0.143,0.115,0.509,0.421,0.351,0.29219965653696206,0.2757964596791891,0.09448372536784931,0.07541783173361329,0.2743315844449631,0.2787219861477924,0.2974072920980048,-4.888,-42.544,-5.736,-14.384,2.36,-0.276,0.232
44,0.1892734375,0.16398046875,0.046419921875,0.0354248046875,0.158453125,0.16117578125,0.1851357421875,0.332,0.342,0.131,0.101,0.489,0.437,0.359,0.29422714510705616,0.2789780570175109,0.09666036015199854,0.0771793947785115,0.27757512104215826,0.281769096667544,0.29858489714248765,-4.996,-42.704,-5.272,-14.2,2.532,-0.544,0.284
45,0.1922646484375,0.1674853515625,0.0478544921875,0.036724609375,0.1644306640625,0.1644677734375,0.1888291015625,0.317,0.341,0.147,0.128,0.57,0.376,0.375,0.29595961862477327,0.2819536878983471,0.09883915213320402,0.07894440907601881,0.28061820877995813,0.28459739900639314,0.2994114148228881,-4.572,-41.788,-5.48,-14.864,2.408,-0.448,0.304
46,0.19515234375,0.1711904296875,0.049298828125,0.0374462890625,0.1699951171875,0.167966796875,0.192521484375,0.298,0.363,0.136,0.097,0.589,0.343,0.375,0.2973787742911198,0.28469518739657906,0.10100131670217544,0.08069773414441857,0.2834326959199928,0.2871808469304572,0.2998798412079201,-4.04,-42.164,-5.296,-13.948,2.46,-0.42,0.272
47,0.1980400390625,0.1747919921875,0.0508779296875,0.0387548828125,0.1759599609375,0.171052734375,0.196626953125,0.29,0.366,0.155,0.094,0.58,0.334,0.389,0.2985000675448593,0.2872373445896033,0.10317632872928942,0.08246332011759515,0.28605406852788623,0.289551491044469,0.29999395964125863,-2.764,-42.544,-5.364,-13.628,2.2,-0.296,0.168
48,0.20072265625,0.178296875,0.0523212890625,0.0397646484375,0.181111328125,0.1747578125,0.200939453125,0.279,0.355,0.165,0.128,0.57,0.327,0.427,0.2993067329444173,0.28953623744425616,0.10532933702639234,0.08421412915316258,0.28844125059036585,0.29167316105406793,0.2997499164081421,-1.648,-41.948,-5.688,-13.856,2.06,-0.264,0.108
49,0.2035068359375,0.1818994140625,0.0537646484375,0.0410732421875,0.1860439453125,0.178876953125,0.205044921875,0.276,0.361,0.13,0.111,0.503,0.395,0.423,0.29980588511286627,0.2916069595605983,0.10746967132835979,0.08595411838286758,0.29059611219898135,0.2935445765985209,0.2991561217541901,-0.688,-41.572,-4.624,-13.584,2.276,-0.604,0.12
50,0.2060859375,0.185404296875,0.05534375,0.0426611328125,0.1914013671875,0.182181640625,0.2089443359375,0.27,0.353,0.154,0.146,0.516,0.374,0.401,0.29999784053668327,0.2934666848998392,0.10962258934676447,0.08770752336302391,0.29255099502581494,0.29519703027420613,0.29819938921002553,0.156,-40.492,-4.624,-14.268,2.268,-0.384,0.084
51,0.208865234375,0.1892119140625,0.0569228515625,0.04352734375,0.1961396484375,0.1858876953125,0.2126494140625,0.268,0.361,0.165,0.131,0.501,0.351,0.376,0.2998792716973276,0.2950912338030679,0.111762444735137,0.0894520932997145,0.2942756745293703,0.296603146898831,0.29689069615356567,0.848,-40.384,-4.464,-13.264,2.2,-0.232,0.12
52,0.211546875,0.19301953125,0.05851171875,0.04469140625,0.201072265625,0.1891796875,0.2159287109375,0.271,0.384,0.145,0.093,0.49,0.365,0.362,0.2994537355306954,0.29647914264057346,0.11388460441938013,0.09118468621283606,0.295768516054312,0.297762142325504,0.29523836834814154,1.38,-40.868,-4.368,-12.256,1.976,-0.024,0.156
53,0.2141259765625,0.19673046875,0.0600908203125,0.0461357421875,0.205810546875,0.192884765625,0.2192080078125,0.264,0.379,0.167,0.134,0.492,0.335,0.331,0.29871616343949026,0.29764689911662906,0.11602010768853081,0.09293143377334344,0.29705025245202354,0.29869048148643373,0.29321047424810065,1.488,-41.248,-4.672,-12.552,1.932,0.244,0.172
54,0.21680859375,0.2006416015625,0.0615341796875,0.0471552734375,0.209515625,0.1974169921875,0.221880859375,0.266,0.382,0.154,0.131,0.439,0.413,0.297,0.29766872313722775,0.29857940580446246,0.11814085495376647,0.09466570301739184,0.298095952323619,0.29936710259045934,0.29085538056787735,1.752,-40.924,-4.232,-12.392,2.268,-0.096,0.16
55,0.219490234375,0.204455078125,0.0632578125,0.0485986328125,0.213634765625,0.200916015625,0.224759765625,0.27,0.392,0.151,0.115,0.386,0.425,0.28,0.29632031016137644,0.2992755905474316,0.12024725039080303,0.09639143924760657,0.2989127434083879,0.29980018947471415,0.2881570480572938,1.964,-40.276,-3.836,-12.164,2.44,-0.192,0.188
56,0.22228125,0.20846875,0.065134765625,0.0499072265625,0.217546875,0.2042080078125,0.2272255859375,0.275,0.389,0.185,0.138,0.411,0.333,0.271,0.294667438039713,0.2997394534760191,0.12234495378754058,0.09811243352017412,0.2995021350876603,0.2999902686395202,0.2851204193829344,2.124,-40.004,-4.348,-12.348,2.212,-0.004,0.188
57,0.22506640625,0.2125849609375,0.067001953125,0.05091796875,0.221251953125,0.2079140625,0.2298857421875,0.281,0.407,0.191,0.109,0.38,0.351,0.257,0.2926981369737921,0.2999723294623316,0.12445771646086042,0.09984963678524426,0.2998673974763473,0.2999352972418801,0.28169827452385116,2.02,-40.976,-4.648,-11.48,2.1,-0.032,0.212
58,0.2278515625,0.216501953125,0.06916796875,0.052505859375,0.22495703125,0.2112060546875,0.23214453125,0.282,0.406,0.195,0.129,0.381,0.358,0.251,0.2904412087312567,0.29996977249371437,0.12653529807279051,0.10155712729344335,0.2999991964805493,0.29963891069893656,0.2780110082531828,2.124,-41.14,-4.832,-11.48,1.86,0.012,0.208
59,0.2307392578125,0.2203095703125,0.0711806640625,0.0542568359375,0.2278359375,0.2151181640625,0.234611328125,0.284,0.388,0.211,0.168,0.336,0.353,0.239,0.2878827742495573,0.2997342942336783,0.12861588112186492,0.10327100007749669,0.299904045033522,0.29909759640172306,0.2739650932569838,2.072,-41.14,-4.672,-12.004,2.068,0.032,0.2
60,0.2335244140625,0.224330078125,0.073201171875,0.0558447265625,0.230921875,0.219443359375,0.2366640625,0.285,0.395,0.202,0.161,0.291,0.415,0.225,0.2850177713951669,0.2992630273579775,0.13070012008529705,0.10499149174105761,0.29957730479646283,0.2983061558035755,0.26955621274142205,1.912,-40.76,-4.14,-12.028,2.356,-0.276,0.172
61,0.236515625,0.2283427734375,0.075646484375,0.05773046875,0.2344208984375,0.2227353515625,0.2389228515625,0.289,0.4,0.226,0.173,0.325,0.394,0.22,0.28185394492887944,0.2985584254185677,0.1327696167810798,0.10670024975267499,0.29902311035897605,0.29727708077870063,0.2648646269396464,1.752,-40.276,-4.44,-12.12,2.088,-0.192,0.104
62,0.2394033203125,0.2323564453125,0.078091796875,0.05947265625,0.2373134765625,0.226234375,0.2409755859375,0.294,0.401,0.247,0.183,0.331,0.328,0.213,0.27841252625847585,0.29762182229462414,0.13483040405563324,0.10840570302678552,0.2982383765665325,0.29600135327643107,0.25983803589991517,1.38,-40.436,-4.624,-12.096,2.056,0.188,0.096
63,0.2423935546875,0.2363759765625,0.080546875,0.061205078125,0.24060546875,0.2305595703125,0.242822265625,0.296,0.407,0.245,0.169,0.308,0.39,0.201,0.2746725965574301,0.2964503201447722,0.13688656827840032,0.11010920029582964,0.2972267096857658,0.29448651181121827,0.2545114896579184,1.22,-41.084,-4.6,-11.5,2.024,0.088,0.084
64,0.24528125,0.240287109375,0.0829921875,0.06337890625,0.24369140625,0.2344716796875,0.2444619140625,0.296,0.4,0.246,0.2,0.324,0.421,0.175,0.27065105058329514,0.2950475377731482,0.1389356640658034,0.11181110756848142,0.29598262825990385,0.29272279337309853,0.2488526114419798,0.212,-40.76,-4.88,-12.052,2.044,0.076,0.064
65,0.2482724609375,0.244306640625,0.08558203125,0.0656982421875,0.24636328125,0.23858984375,0.2454951171875,0.292,0.394,0.249,0.226,0.288,0.385,0.14,0.2663225025960867,0.293403289793,0.14098971087671713,0.11352052558339015,0.2944989680745239,0.29070140816716883,0.24284363264572773,-0.848,-40.816,-4.44,-12.096,2.392,0.108,0.096
66,0.2510576171875,0.248216796875,0.0887490234375,0.0680087890625,0.250275390625,0.2431220703125,0.2463212890625,0.289,0.402,0.282,0.23,0.318,0.437,0.103,0.26180602330761593,0.291569771660908,0.14298414913785065,0.1151771234021468,0.2928432998302194,0.288521242216636,0.23678548549520925,-1.912,-40.544,-4.368,-12.188,2.368,-0.172,0.076
67,0.2537333984375,0.25233984375,0.0919248046875,0.0704716796875,0.2539814453125,0.2464140625,0.2467216796875,0.277,0.401,0.316,0.244,0.389,0.412,0.063,0.25693281140547425,0.28946622991123416,0.14502000041442503,0.11687497459688315,0.2909136565564313,0.2860349702797662,0.2302365918711355,-2.976,-40.06,-4.624,-12.14,2.224,-0.192,0.064
68,0.2563125,0.256353515625,0.095525390625,0.0730791015625,0.2574794921875,0.2499130859375,0.2467216796875,0.271,0.412,0.34,0.244,0.345,0.34,0.015,0.2518580827858428,0.2871720352794704,0.14701408723345216,0.11853976714710844,0.2887974595679589,0.2833620734484545,0.22353598917388146,-4.624,-40.112,-5.04,-11.572,2.392,-0.016,0.068
69,0.2585830078125,0.2601611328125,0.0999833984375,0.0762734375,0.2614052734375,0.25403125,0.2465146484375,0.248,0.395,0.397,0.293,0.389,0.374,-0.005,0.24649025440480643,0.28463411574505115,0.14901903848260126,0.12021782482099334,0.28643789520893087,0.2804274785819149,0.21648843112956567,-6.752,-39.736,-5.456,-11.592,2.12,-0.104,0.036
70,0.2606474609375,0.2638720703125,0.10459375,0.079748046875,0.264697265625,0.2577373046875,0.2461142578125,0.216,0.38,0.452,0.332,0.365,0.395,-0.026,0.24085290383519004,0.2818672349766619,0.15101813072707226,0.12189272545686113,0.2838565635036345,0.2772630669351276,0.20918651499622845,-9.728,-38.872,-5.248,-11.02,2.14,-0.276,-0.052
71,0.2622939453125,0.2674736328125,0.1097734375,0.08380859375,0.2688154296875,0.2612353515625,0.244875,0.19,0.37,0.491,0.374,0.354,0.372,-0.077,0.23501945976865427,0.27891213850806446,0.1529877565827207,0.12354643572533208,0.2810858825653613,0.27390511119521305,0.20170398565098802,-14.196,-38.168,-5.388,-11.388,2.236,-0.316,-0.068
72,0.2633291015625,0.27097265625,0.1158193359375,0.08829296875,0.2727275390625,0.2651474609375,0.242615234375,0.141,0.358,0.557,0.42,0.412,0.366,-0.162,0.22890777115127742,0.27571561953735196,0.15496462045794082,0.12520876432331518,0.2780796772729935,0.27029890657376576,0.193927371973281,-17.332,-38.384,-5.78,-11.64,2.112,-0.448,-0.096
73,0.2640498046875,0.27406640625,0.1222978515625,0.0935087890625,0.27643359375,0.26802734375,0.2391298828125,0.096,0.338,0.628,0.482,0.396,0.35,-0.275,0.22255266316631953,0.2722988919724256,0.15693571474715406,0.12687011728502826,0.2748524380834837,0.2664609060481044,0.18589442539508386,-18.928,-40.492,-5.48,-12.828,2.12,-0.384,-0.12
74,0.26415234375,0.27705078125,0.1289208984375,0.099021484375,0.27910546875,0.2711123046875,0.234611328125,0.045,0.306,0.655,0.543,0.335,0.295,-0.394,0.2159652057595022,0.26867449299363777,0.15889338473349207,0.12852242091475194,0.27142457185109253,0.2624192684378738,0.17767219301507645,-19.832,-42.76,-4.832,-14.408,2.412,-0.188,-0.108
75,0.2633291015625,0.2795205078125,0.1359775390625,0.1052392578125,0.2809521484375,0.274611328125,0.228865234375,-0.028,0.282,0.68,0.568,0.22,0.336,-0.509,0.2091485505172291,0.26482688184004183,0.16085243723631878,0.13018211503904098,0.2677549578497012,0.25811586812084103,0.16912972298654153,-24.296,-47.076,-5.988,-15.664,2.776,-0.576,-0.032
76,0.261779296875,0.2812705078125,0.1428896484375,0.1127646484375,0.2826044921875,0.276470703125,0.221880859375,-0.113,0.214,0.716,0.686,0.195,0.279,-0.629,0.20215709610720553,0.2608117241022491,0.16277615422026695,0.13180940002467623,0.26395547598972907,0.25370233676606696,0.16060931490775973,-28.02,-51.936,-7.956,-17.928,2.948,-0.752,-0.16
77,0.259611328125,0.2827177734375,0.148357421875,0.1198662109375,0.2815712890625,0.2772841796875,0.2136689453125,-0.184,0.161,0.638,0.744,0.06,0.146,-0.742,0.19492267315391257,0.2565558806501938,0.16471124618264113,0.13345266297821237,0.2598999305958608,0.24901219755541282,0.15174914558173921,-29.508,-56.58,-8.788,-20.1,3.612,-1.052,-0.088
78,0.25662109375,0.2836435546875,0.153681640625,0.1269677734375,0.2797255859375,0.2770771484375,0.2042314453125,-0.249,0.127,0.542,0.708,-0.16,0.051,-0.882,0.18756379853984873,0.2521649361763366,0.1666082052445793,0.1350666685128952,0.2557093751628901,0.24419220111621506,0.14284351947174906,-30.2,-61.224,-8.072,-22.824,4.64,-1.588,-0.128
79,0.252806640625,0.2842607421875,0.1590048828125,0.133337890625,0.2780732421875,0.2754375,0.1941611328125,-0.334,0.08,0.537,0.703,-0.153,-0.09,-0.972,0.17982527367610981,0.24744872287381495,0.16855098933369997,0.1367243135876279,0.2511889668020176,0.23901551798149295,0.13347497843724432,-29.56,-64.516,-9.18,-26.824,4.756,-2.004,-0.14
80,0.2485810546875,0.285083984375,0.16289453125,0.13783203125,0.2758134765625,0.271732421875,0.18472265625,-0.399,0.073,0.477,0.554,-0.208,-0.232,-0.998,0.17205000329665135,0.2426458576166625,0.17043678139380025,0.13833366126307667,0.24660142787508169,0.23379069556714738,0.12422554721463659,-29.028,-69.644,-10.012,-27.1,5.16,-2.316,0.0
81,0.24362890625,0.285083984375,0.166638671875,0.1424697265625,0.273748046875,0.265767578125,0.17528515625,-0.449,0.052,0.376,0.45,-0.226,-0.479,-0.955,0.16410893739030896,0.23762436159597133,0.17233014755881507,0.1399580193230269,0.24175533435022867,0.22828830409180167,0.11464683793700803,-28.816,-72.4,-10.66,-26.344,4.912,-1.82,-0.032
82,0.23775,0.2843642578125,0.1699501953125,0.146376953125,0.2710751953125,0.260822265625,0.1654208984375,-0.541,-0.031,0.367,0.45,-0.202,-0.577,-0.963,0.15591961261804912,0.23241118570043234,0.1742088583899861,0.14156759801450441,0.2367704535943796,0.22266702706501254,0.10509015812158719,-27.86,-72.128,-11.564,-26.412,4.412,-1.5,-0.208
83,0.2315625,0.28312890625,0.171673828125,0.148984375,0.2659365234375,0.256083984375,0.1551572265625,-0.609,-0.093,0.271,0.34,-0.379,-0.462,-1.011,0.14766187172609577,0.22706104076517208,0.17606479327986577,0.14316365409864393,0.231624470456218,0.21687801623748704,0.09540820732827705,-25.52,-71.804,-11.076,-25.66,4.692,-2.056,-0.24
84,0.2249638671875,0.2811669921875,0.1728291015625,0.1511591796875,0.2601650390625,0.2497060546875,0.14592578125,-0.641,-0.156,0.15,0.246,-0.563,-0.556,-1.009,0.1391786624846696,0.22147873677892937,0.17792923164586327,0.14477060005448303,0.2262482792415343,0.2108531168200322,0.08551634638629163,-19.988,-70.94,-9.688,-26.552,5.244,-1.756,-0.116
85,0.2179404296875,0.2789033203125,0.1738310546875,0.151736328125,0.255220703125,0.244154296875,0.1377138671875,-0.678,-0.212,0.103,0.158,-0.538,-0.618,-0.878,0.1306396898451697,0.21580440072775517,0.17975642885356122,0.14634826017854669,0.22078625895065987,0.20475522627330198,0.07568536136529591,-14.248,-69.428,-9.02,-26.0,4.996,-1.62,-0.16
86,0.21062109375,0.276125,0.174552734375,0.151736328125,0.2506884765625,0.2371435546875,0.1303291015625,-0.719,-0.245,0.085,0.024,-0.491,-0.603,-0.782,0.12184652223644268,0.20985423732123792,0.1816092153226154,0.14795317863838453,0.21503488556489747,0.19835169982805934,0.06553372218804121,-11.856,-68.944,-9.388,-23.508,4.432,-1.416,-0.064
87,0.202677734375,0.2726259765625,0.1751298828125,0.1514482421875,0.2453310546875,0.2305595703125,0.122724609375,-0.762,-0.312,0.075,-0.005,-0.482,-0.717,-0.751,0.11298040482240028,0.2037809230221651,0.18343815446047382,0.1495414321934133,0.20915895868574158,0.19182877704994142,0.0553726516685569,-13.768,-64.84,-10.128,-22.548,3.8,-0.564,-0.128
88,0.19453515625,0.268400390625,0.1752744140625,0.1504375,0.2391591796875,0.227060546875,0.1157529296875,-0.807,-0.382,0.04,-0.065,-0.587,-0.521,-0.741,0.10403330172671851,0.19759559964430426,0.1852416424360112,0.1511102964180565,0.20317943243482137,0.18521741492196342,0.04525477597978796,-14.884,-61.548,-9.668,-20.328,3.772,-0.904,-0.104
89,0.18648828125,0.2634609375,0.1749853515625,0.1502841796875,0.2342275390625,0.222115234375,0.108974609375,-0.819,-0.452,-0.003,-0.068,-0.569,-0.398,-0.696,0.09495860025459046,0.19123237748352515,0.1870408077937371,0.1526786237707024,0.19702859306756618,0.1784386692537742,0.035061168855468235,-9.196,-57.12,-8.532,-19.644,3.532,-1.144,-0.076
90,0.17833984375,0.258412109375,0.174408203125,0.1492734375,0.2292822265625,0.217390625,0.103435546875,-0.814,-0.508,-0.048,-0.043,-0.488,-0.522,-0.632,0.085734544007963,0.18461727272752657,0.1888610857543229,0.15427205166533664,0.19059105216771022,0.1713530927212093,0.02456595807823167,-3.08,-52.424,-6.612,-18.364,3.376,-0.428,0.036
91,0.169888671875,0.2532666015625,0.174552734375,0.147685546875,0.2255771484375,0.2142919921875,0.09850390625,-0.834,-0.511,-0.041,-0.138,-0.455,-0.391,-0.536,0.07646777252198976,0.17800873412626003,0.19062477098992,0.15581727574581294,0.18419463033474184,0.164345428566082,0.014387285625841843,-2.124,-48.804,-5.64,-14.84,2.968,-0.532,0.076
92,0.1613271484375,0.247703125,0.1749853515625,0.146521484375,0.222904296875,0.2099794921875,0.0939853515625,-0.861,-0.536,0.042,-0.14,-0.322,-0.355,-0.473,0.06716750715596052,0.17124901048529959,0.19238168391802432,0.15736078598270944,0.17764209010211712,0.15718670365509424,0.004157723040604432,-2.02,-45.188,-7.028,-13.676,2.044,-0.276,-0.036
93,0.1531787109375,0.2417275390625,0.174697265625,0.1445,0.2185791015625,0.206673828125,0.089478515625,-0.844,-0.549,0.01,-0.158,-0.355,-0.41,-0.461,0.05772505939082613,0.16428276811163314,0.19414782655521792,0.15891746554412065,0.1708697865432127,0.14980232580060723,-0.006222319099911625,0.848,-41.896,-6.268,-11.616,2.016,0.244,0.016
94,0.1450361328125,0.236685546875,0.174552734375,0.1433359375,0.216513671875,0.204001953125,0.0851669921875,-0.817,-0.553,-0.04,-0.17,-0.332,-0.289,-0.439,0.048198123222709194,0.15716908810460653,0.19590703609739676,0.16047248410728748,0.16394537029091263,0.1422723502957047,-0.01662592116724014,6.272,-39.088,-4.556,-10.06,1.8,0.012,-0.032
95,0.1366806640625,0.2310185546875,0.1751298828125,0.1426142578125,0.213634765625,0.20008984375,0.0806474609375,-0.829,-0.572,0.015,-0.09,-0.245,-0.332,-0.443,0.03869641225901486,0.1500120302361985,0.19763687506331648,0.16200680227227812,0.15696046449245749,0.13469840161596414,-0.026910569051396376,6.592,-36.496,-4.532,-10.152,1.652,0.368,-0.096
96,0.128634765625,0.2253583984375,0.17570703125,0.141892578125,0.2119951171875,0.198037109375,0.0763359375,-0.834,-0.571,0.068,-0.078,-0.255,-0.316,-0.452,0.029091954746524356,0.1426795454441246,0.1993646498039658,0.1635401586374864,0.14983993376177177,0.12700147461876976,-0.037176874489940843,4.996,-36.332,-4.996,-9.808,1.724,0.264,-0.128
97,0.1209033203125,0.2196923828125,0.176419921875,0.141748046875,0.2101357421875,0.1943310546875,0.0714169921875,-0.798,-0.566,0.064,-0.051,-0.149,-0.254,-0.462,0.019487778998152044,0.13523448778379063,0.2010846106063762,0.16507389060161815,0.14255971683287966,0.11913761708154895,-0.04750014309144782,7.44,-37.36,-5.04,-9.764,1.488,-0.068,-0.156
98,0.113578125,0.214134765625,0.176708984375,0.141748046875,0.20849609375,0.1897998046875,0.0662783203125,-0.76,-0.568,0.048,-0.01,-0.192,-0.443,-0.508,0.009889669793441278,0.12774987050760625,0.20277551307087835,0.16658445275997705,0.13527241160092485,0.11130726142521688,-0.05757009529938061,11.856,-38.924,-4.232,-10.016,1.684,0.544,-0.108
99,0.1059501953125,0.2082626953125,0.1780087890625,0.1421806640625,0.2070498046875,0.1869072265625,0.061345703125,-0.743,-0.572,0.071,0.016,-0.155,-0.382,-0.503,0.00024764782786957875,0.12011486581473688,0.20446760256794955,0.16810161837548432,0.12780912644446354,0.10329559228520191,-0.06770424441000063,9.676,-41.192,-4.392,-10.2,1.724,0.344,-0.064
100,0.098630859375,0.20208203125,0.1797314453125,0.14348046875,0.205603515625,0.1838212890625,0.0566201171875,-0.761,-0.606,0.161,0.077,-0.154,-0.277,-0.486,-0.009406109220213139,0.11236420505430436,0.20615181508775993,0.16961724396351824,0.12021767312754247,0.09515957084566412,-0.07782045797943327,7.176,-43.676,-6.288,-12.028,1.86,-0.272,-0.056
101,0.092134765625,0.196525390625,0.179587890625,0.1437685546875,0.2031376953125,0.17991015625,0.0512880859375,-0.705,-0.603,0.093,0.1,-0.164,-0.358,-0.503,-0.019020552808431946,0.10457488479508222,0.20781300641112152,0.17111406051655986,0.11261543489270001,0.08705298085678066,-0.08767954586325774,10.58,-39.736,-4.184,-12.644,2.08,-0.46,-0.076
102,0.0860498046875,0.1914755859375,0.1801650390625,0.14348046875,0.2023115234375,0.175171875,0.0463564453125,-0.631,-0.53,0.001,-0.015,-0.209,-0.424,-0.537,-0.028570143837910934,0.09673602326249256,0.20945563613099938,0.1726004260707696,0.10493972018623088,0.07887912352664439,-0.09744965853339618,13.236,-38.872,-1.548,-9.9,2.392,-0.296,0.044
103,0.0795537109375,0.18581640625,0.1827548828125,0.14464453125,0.2037578125,0.170033203125,0.0408173828125,-0.636,-0.537,0.153,0.035,0.024,-0.497,-0.509,-0.038162369897778985,0.08875465001756992,0.2111004472750333,0.17409356029426315,0.09711516772871963,0.07056608070777991,-0.10719555416743035,11.376,-40.004,-4.464,-9.9,1.216,0.276,-0.088
104,0.0734697265625,0.1802529296875,0.18391015625,0.1450771484375,0.2018984375,0.16612109375,0.0346591796875,-0.646,-0.564,0.216,0.095,0.024,-0.464,-0.576,-0.047808973673736856,0.08060170028716468,0.21275618181112546,0.17560375046129456,0.08907835362721482,0.062033524999730055,-0.11701136155384359,7.44,-39.952,-6.752,-9.924,0.716,0.336,-0.148
105,0.068001953125,0.1751005859375,0.18333203125,0.1456552734375,0.1983994140625,0.162208984375,0.027880859375,-0.585,-0.539,0.018,0.044,-0.273,-0.384,-0.653,-0.05716520789550432,0.07263728361829284,0.21434310897091488,0.17705104310455574,0.08130203010974044,0.053833177844510076,-0.12621754097635624,8.824,-34.228,-2.752,-8.804,1.496,-0.004,-0.052
106,0.0628505859375,0.1701611328125,0.183765625,0.1468095703125,0.1975732421875,0.1576767578125,0.021322265625,-0.533,-0.521,-0.014,0.084,-0.255,-0.418,-0.684,-0.06662758511614543,0.06444319752779848,0.21595416615272467,0.17852816234032926,0.0732524393560872,0.04533038897311661,-0.135591367030201,13.132,-31.636,-0.992,-9.604,1.756,-0.044,-0.044
107,0.0628505859375,0.1701611328125,0.183765625,0.1468095703125,0.1975732421875,0.1576767578125,0.021322265625,-0.533,-0.521,-0.014,0.084,-0.255,-0.418,-0.684,-0.07608760999057142,0.05614248994926487,0.21756456142343958,0.18001072323368048,0.06507594961817012,0.03674174939863864,-0.14485887042390358,13.132,-31.636,-0.992,-9.604,1.756,-0.044,-0.044
108,0.0528427734375,0.16099609375,0.187068359375,0.1478291015625,0.195107421875,0.1467548828125,0.009625,-0.508,-0.457,0.161,0.041,-0.106,-0.556,-0.591,-0.08518292649058003,0.04808967422968709,0.21910369750610498,0.1814301785114746,0.057175519615446244,0.028465824450859326,-0.1535621581046002,7.176,-36.28,-4.092,-8.576,0.768,0.636,0.016
109,0.0479990234375,0.1563583984375,0.1877900390625,0.14912890625,0.1926416015625,0.1420166015625,0.0038662109375,-0.487,-0.466,0.135,0.093,-0.18,-0.542,-0.588,-0.09446030072944842,0.039698952678811614,0.2206921482975408,0.1829048932989471,0.04887148404838311,0.019772685369749902,-0.16252694682245164,3.668,-36.28,-4.948,-9.488,0.732,0.708,-0.032
110,0.043568359375,0.1522421875,0.1879345703125,0.1499951171875,0.18831640625,0.1387236328125,-0.0020859375,-0.473,-0.442,0.043,0.112,-0.338,-0.416,-0.588,-0.1035369087291167,0.031401394638758594,0.22224022171288108,0.1843435342780718,0.0406948346554341,0.011237226311938235,-0.17110400435705816,5.048,-33.308,-3.096,-9.876,1.56,0.076,-0.032
111,0.0394453125,0.1480224609375,0.18865625,0.1513037109375,0.1858369140625,0.1339853515625,-0.008037109375,-0.432,-0.402,0.026,0.101,-0.359,-0.373,-0.598,-0.11251801442373668,0.023079472520732707,0.22377477805105403,0.18577512297141258,0.03249944579702461,0.0027148931978257782,-0.17945447900385733,7.656,-33.956,-1.616,-10.176,1.664,-0.296,-0.148
112,0.0351162109375,0.144517578125,0.1903798828125,0.152314453125,0.1827509765625,0.1284208984375,-0.0139892578125,-0.425,-0.395,0.122,0.123,-0.285,-0.539,-0.592,-0.12136644579862384,0.014751209448350806,0.2252941469785499,0.18719757071149284,0.02429519474922845,-0.005789021098751806,-0.18757189247828746,7.336,-37.844,-3.376,-10.816,1.52,0.472,-0.128
113,0.030994140625,0.14039453125,0.1921123046875,0.1533251953125,0.179458984375,0.1253349609375,-0.01994140625,-0.432,-0.382,0.174,0.099,-0.299,-0.441,-0.611,-0.13012410833217258,0.00637320694558999,0.2268088143151626,0.18862242996630577,0.01601064562734774,-0.0143610666808678,-0.19554386009610314,4.888,-40.544,-5.108,-10.84,1.1,0.148,-0.136
114,0.0270771484375,0.1369921875,0.1923916015625,0.154921875,0.174720703125,0.1205966796875,-0.02548046875,-0.402,-0.382,0.113,0.124,-0.393,-0.386,-0.583,-0.13885842272614524,-0.002145337263935932,0.22833561638792088,0.19006466010985232,0.00757198676351695,-0.023067288020480334,-0.20341095151819996,2.604,-40.06,-4.764,-11.616,1.436,0.148,-0.12
115,0.02305078125,0.1334931640625,0.1929697265625,0.1560859375,0.168962890625,0.117923828125,-0.0308125,-0.402,-0.367,0.042,0.154,-0.549,-0.411,-0.548,-0.14718689543575064,-0.010346086020592426,0.22978816290496923,0.19144033644212835,-0.0005187371165579065,-0.031385406340369335,-0.210704997340541,1.38,-36.332,-3.236,-12.348,2.288,0.004,-0.004
116,0.019236328125,0.13009765625,0.1942685546875,0.15725,0.16484375,0.1148388671875,-0.0353310546875,-0.396,-0.342,0.087,0.111,-0.495,-0.239,-0.496,-0.1556832179463708,-0.01891751284551035,0.23129753150553692,0.19287787939666237,-0.0090248928589564,-0.040112711058393626,-0.21814203109835006,1.22,-36.98,-2.936,-12.304,2.172,-0.832,-0.084
117,0.015525390625,0.1269013671875,0.195703125,0.1584052734375,0.1596923828125,0.108447265625,-0.0396435546875,-0.38,-0.337,0.14,0.115,-0.45,-0.479,-0.454,-0.16367061096479935,-0.02708156259270675,0.23272293697888516,0.19423991406051172,-0.017109285112744173,-0.04837556591305391,-0.22492985367090942,2.02,-40.436,-4.208,-12.624,1.716,0.12,-0.052
118,0.011814453125,0.1238134765625,0.1971474609375,0.159271484375,0.1549541015625,0.1051552734375,-0.0441494140625,-0.376,-0.319,0.142,0.096,-0.512,-0.543,-0.442,-0.17166850933089012,-0.03542410421417447,0.23417093201834266,0.19563038647761238,-0.025399412007314083,-0.05682879109855321,-0.2316567776000549,2.604,-44.268,-5.18,-12.052,1.692,0.552,-0.044
119,0.008,0.120314453125,0.1981484375,0.1610126953125,0.1489892578125,0.102263671875,-0.04866796875,-0.372,-0.328,0.127,0.125,-0.5,-0.273,-0.445,-0.1794740417167866,-0.04371327290233904,0.23559952824336944,0.19700751486899762,-0.03362861084726868,-0.06518784953352573,-0.23806847576690127,1.964,-45.404,-5.34,-13.284,1.588,-0.44,-0.104
120,0.0042890625,0.1167060546875,0.19858203125,0.16275390625,0.14178515625,0.0983515625,-0.0531865234375,-0.383,-0.361,0.084,0.183,-0.681,-0.354,-0.457,-0.1871121790343519,-0.05200485587940934,0.23702238885230556,0.19838642337022727,-0.041895661001506546,-0.07356871494643855,-0.24425924579284813,0.584,-43.404,-4.024,-15.32,2.62,-0.364,-0.068
121,0.000681640625,0.1131044921875,0.1993037109375,0.1637646484375,0.136013671875,0.096298828125,-0.0574990234375,-0.372,-0.346,0.046,0.142,-0.673,-0.304,-0.444,-0.19454730516074822,-0.060220468442186745,0.23842364340359506,0.1997496131690802,-0.05007387940658493,-0.08182392427779477,-0.2501050800386306,-1.22,-41.732,-3.052,-15.48,2.836,-1.032,-0.096
122,-0.003138671875,0.1101142578125,0.2008828125,0.164630859375,0.1310693359375,0.0911474609375,-0.0622119140625,-0.371,-0.313,0.106,0.088,-0.535,-0.326,-0.455,-0.2017759079115468,-0.06839725095661016,0.2398117418635125,0.20110530474663083,-0.05820739864781062,-0.09000045420889027,-0.25564467582916456,-2.072,-43.028,-4.252,-14.316,2.496,-0.896,-0.032
123,-0.0067470703125,0.1071298828125,0.2018935546875,0.1654970703125,0.1261240234375,0.086615234375,-0.0663173828125,-0.373,-0.306,0.134,0.095,-0.498,-0.528,-0.452,-0.2087912020600082,-0.07651768539432294,0.24118592521603266,0.20245454188239,-0.06630729241686477,-0.0981218993756688,-0.2608967024752172,-2.496,-45.404,-5.456,-13.972,2.004,0.104,0.012
124,-0.010560546875,0.103740234375,0.202615234375,0.166228515625,0.11974609375,0.0845498046875,-0.070216796875,-0.371,-0.315,0.089,0.072,-0.555,-0.323,-0.407,-0.215618414629804,-0.08460099515008758,0.24254998141997863,0.203800419637926,-0.07438251950683485,-0.10618840926074916,-0.2658553154244828,-2.232,-47.456,-5.412,-13.308,1.848,-0.504,0.056
125,-0.014375,0.100234375,0.20318359375,0.16810546875,0.112322265625,0.0806376953125,-0.0739091796875,-0.388,-0.362,0.073,0.129,-0.694,-0.29,-0.388,-0.22220587596274885,-0.09261089409629185,0.24389945467472562,0.20513938981148314,-0.08241002755413353,-0.11418241953162289,-0.27050756314359053,-1.432,-47.292,-5.064,-15.436,2.48,-0.608,0.064
126,-0.018189453125,0.0965302734375,0.2036171875,0.1694130859375,0.106150390625,0.078365234375,-0.0776142578125,-0.385,-0.385,0.053,0.174,-0.689,-0.334,-0.373,-0.2285318201272077,-0.10049014599669324,0.2452234042999894,0.2064588279371796,-0.09029769395622905,-0.12200290732103834,-0.274790894884018,-1.06,-45.78,-3.836,-17.38,3.044,-0.876,0.024
127,-0.0220029296875,0.0932373046875,0.2046279296875,0.1699912109375,0.101412109375,0.07466015625,-0.081306640625,-0.379,-0.352,0.058,0.085,-0.569,-0.248,-0.37,-0.23467710856739588,-0.10838274015960093,0.24654842974822178,0.20778572406466503,-0.09820581427387108,-0.12981103608628577,-0.27879305085159195,-1.592,-45.188,-3.492,-16.076,3.044,-1.384,0.012
128,-0.025919921875,0.0898349609375,0.20591796875,0.170712890625,0.0975,0.0684755859375,-0.08479296875,-0.389,-0.343,0.125,0.076,-0.43,-0.503,-0.352,-0.24055097160290412,-0.11613658635786853,0.24784999369948515,0.20909621080033514,-0.10598775007157414,-0.13746362517134386,-0.28243911405904004,-2.336,-45.404,-5.064,-15.412,2.452,-0.324,-0.044
129,-0.029734375,0.08664453125,0.2067841796875,0.170712890625,0.09296875,0.06476953125,-0.0884853515625,-0.392,-0.332,0.11,0.038,-0.425,-0.529,-0.363,-0.24618606691175315,-0.12381403711074904,0.24913934724038064,0.21040134075831537,-0.11370365603737706,-0.14501891372350412,-0.2857574768353563,-2.924,-46.86,-5.988,-13.696,2.044,-0.044,-0.044
130,-0.0337607421875,0.082830078125,0.207361328125,0.1717236328125,0.0878173828125,0.0604443359375,-0.092177734375,-0.393,-0.345,0.07,0.034,-0.485,-0.39,-0.373,-0.2515671143254597,-0.13140393185330654,0.25041618399880194,0.211700468510023,-0.12134101282777088,-0.15246551620132845,-0.28874039862006234,-2.868,-47.832,-5.64,-13.676,2.172,-0.42,-0.104
131,-0.0378828125,0.0784052734375,0.208083984375,0.1728876953125,0.08183984375,0.056326171875,-0.0960771484375,-0.411,-0.402,0.064,0.121,-0.549,-0.44,-0.387,-0.25668081150026933,-0.1388651188697487,0.2516718455545534,0.2129853323178867,-0.12884656486038576,-0.15974194438710457,-0.29136799689363363,-2.232,-47.672,-5.248,-15.78,2.732,-0.384,-0.116
132,-0.0417998046875,0.0744951171875,0.20865234375,0.17346484375,0.0775146484375,0.053240234375,-0.0999765625,-0.408,-0.401,0.06,0.086,-0.54,-0.345,-0.392,-0.2615605611775386,-0.1462734543918515,0.2529235651689593,0.2142735734222293,-0.13632156583955302,-0.16696140307997917,-0.2936619350537281,-1.752,-46.968,-4.324,-15.78,3.084,-1.124,-0.12
133,-0.0458203125,0.071091796875,0.209806640625,0.17375390625,0.0736025390625,0.0474697265625,-0.1040947265625,-0.402,-0.388,0.082,0.045,-0.417,-0.428,-0.4,-0.2661155584093344,-0.1534765051770598,0.25414470910256226,0.21553785041283177,-0.1435997809138102,-0.17395478930028718,-0.295588299016595,-1.488,-46.052,-4.692,-15.16,2.856,-0.888,-0.148
134,-0.0499423828125,0.0673876953125,0.210953125,0.17375390625,0.0707236328125,0.0427314453125,-0.107994140625,-0.408,-0.373,0.119,0.017,-0.345,-0.559,-0.415,-0.27042409393116323,-0.16061476721338755,0.25536041714720853,0.21680394811366302,-0.15082872410852208,-0.18086930902980428,-0.2971827123721353,-0.9,-46.16,-5.664,-13.812,2.428,-0.208,-0.116
135,-0.053962890625,0.063470703125,0.2118193359375,0.1738984375,0.0680380859375,0.0388056640625,-0.1116865234375,-0.409,-0.381,0.108,0.003,-0.27,-0.416,-0.379,-0.2744512474922431,-0.16762494480152865,0.25656086164901476,0.21806177488047515,-0.15794028945350652,-0.1876280926887931,-0.2984191569477549,-1.008,-46.484,-6.172,-12.644,1.944,-0.52,-0.084
136,-0.0582978515625,0.0592509765625,0.212541015625,0.1747646484375,0.0641259765625,0.0340673828125,-0.115185546875,-0.419,-0.413,0.086,0.05,-0.342,-0.454,-0.361,-0.27819956029575954,-0.1744978325566826,0.25774491394181165,0.21931114029914786,-0.16492683090347532,-0.19423270138751272,-0.2993023275013195,-1.008,-45.996,-5.848,-13.08,2.244,-0.172,-0.044
137,-0.0623173828125,0.0545107421875,0.2131181640625,0.1753505859375,0.0608330078125,0.0313955078125,-0.118271484375,-0.421,-0.431,0.054,0.078,-0.373,-0.381,-0.336,-0.2816762490264442,-0.18127556853181095,0.2589211431757018,0.2205592020120711,-0.17182617465021155,-0.20071455605304514,-0.2998311950835855,-0.796,-45.672,-4.924,-13.72,2.516,-0.624,-0.044
138,-0.06654296875,0.0502919921875,0.2136875,0.1759375,0.057541015625,0.0270703125,-0.12134375,-0.419,-0.428,0.05,0.056,-0.329,-0.311,-0.306,-0.28483016432999636,-0.18783229320081815,0.2600665804014234,0.22178154921215718,-0.17849167276004557,-0.20693087474600705,-0.29999995789125844,-0.316,-45.24,-4.556,-13.764,2.648,-0.968,-0.076
139,-0.070666015625,0.0465810546875,0.2144091796875,0.1765146484375,0.05485546875,0.021505859375,-0.12422265625,-0.419,-0.422,0.072,0.06,-0.313,-0.521,-0.31,-0.2877023882391699,-0.19427203565494833,0.26120286964613304,0.22300316481087998,-0.18506780263324374,-0.21302899880000822,-0.299817271812827,0.264,-44.16,-4.856,-13.788,2.636,-0.284,-0.052
140,-0.0747890625,0.0425673828125,0.215275390625,0.17637109375,0.0527900390625,0.017787109375,-0.1271025390625,-0.413,-0.411,0.085,0.023,-0.235,-0.472,-0.29,-0.29028346759986867,-0.20058477399825467,0.2623284541990825,0.22422154343395162,-0.1915295622926034,-0.21897796926323554,-0.29927755400028144,0.636,-44.108,-5.108,-12.508,2.172,-0.448,-0.052
141,-0.07880859375,0.03823828125,0.21598828125,0.1769482421875,0.0501171875,0.0126357421875,-0.12996875,-0.41,-0.413,0.081,0.009,-0.238,-0.434,-0.285,-0.2925688676741245,-0.20673850768717564,0.2634378033277817,0.2254307678063704,-0.19784022690957698,-0.22474404334219905,-0.29838200273345594,1.276,-44.268,-5.504,-11.82,1.972,-0.368,-0.032
142,-0.082931640625,0.0338134765625,0.2165654296875,0.177669921875,0.04703125,0.0087236328125,-0.132640625,-0.412,-0.44,0.065,0.067,-0.288,-0.496,-0.284,-0.2945457613503416,-0.2127160850776971,0.2645290209168269,0.22662875778840647,-0.2039851477050953,-0.23031375139457502,-0.29713520788650133,1.912,-44.0,-5.48,-12.256,1.996,-0.168,-0.044
143,-0.0868486328125,0.028970703125,0.217142578125,0.1782568359375,0.0439326171875,0.0056376953125,-0.1355068359375,-0.404,-0.442,0.052,0.061,-0.308,-0.329,-0.283,-0.29622598920008303,-0.2185485593833763,0.26560835198804206,0.22782240839886803,-0.20999504178619197,-0.23571457944626598,-0.29553059380615276,1.804,-44.108,-4.972,-11.892,2.192,-0.844,-0.088
144,-0.0909716796875,0.0245458984375,0.2180087890625,0.179267578125,0.04084765625,0.00109375,-0.13838671875,-0.406,-0.451,0.071,0.081,-0.317,-0.37,-0.288,-0.2975943974708885,-0.2241977623976513,0.266670021170721,0.2290053784342226,-0.21583308024249723,-0.24091304890938114,-0.293577608194257,1.912,-42.976,-5.04,-12.712,2.324,-0.664,-0.104
145,-0.09478515625,0.0207314453125,0.2187216796875,0.1794111328125,0.0379677734375,-0.0019912109375,-0.1412529296875,-0.404,-0.442,0.08,0.07,-0.299,-0.403,-0.283,-0.2986587251128231,-0.22967187452181598,0.2677155892015873,0.2301794019173849,-0.22150413409296604,-0.24591340318210028,-0.29127749602895203,2.444,-41.948,-4.924,-12.644,2.296,-0.596,-0.116
146,-0.098599609375,0.016615234375,0.219587890625,0.1797001953125,0.0354892578125,-0.0059033203125,-0.1441318359375,-0.389,-0.418,0.078,0.015,-0.267,-0.329,-0.285,-0.2994144493402309,-0.23496730525807508,0.2687454281670964,0.23134502747860577,-0.2270062780525057,-0.2507137211365325,-0.2886316566686521,3.08,-42.436,-5.224,-11.572,2.024,-0.7,-0.064
147,-0.1024130859375,0.0119775390625,0.2205986328125,0.18027734375,0.0324033203125,-0.0104482421875,-0.1468046875,-0.386,-0.42,0.093,0.046,-0.286,-0.456,-0.285,-0.2998627226181528,-0.24010924810892711,0.269765837286745,0.23250916580849446,-0.23236881835372505,-0.25533881764294114,-0.2856228574840936,3.456,-42.704,-5.34,-11.616,1.82,-0.088,-0.052
148,-0.106021484375,0.008169921875,0.2211669921875,0.1807109375,0.0290986328125,-0.01312109375,-0.1494638671875,-0.377,-0.426,0.085,0.043,-0.318,-0.367,-0.282,-0.2999995055517544,-0.24502058378129812,0.2707611500526428,0.23365425960824007,-0.23750493419498725,-0.2597138142427436,-0.28230377398263445,3.72,-43.028,-5.62,-11.18,1.796,-0.364,-0.064
149,-0.1096298828125,0.00384765625,0.2218896484375,0.1815859375,0.025599609375,-0.0174462890625,-0.1519296875,-0.36,-0.43,0.064,0.063,-0.33,-0.324,-0.259,-0.299828245715227,-0.24974274448120706,0.27174106258142355,0.23479125229107767,-0.24246331006580596,-0.26388070831917043,-0.27864974821084726,3.772,-42.92,-5.132,-11.64,1.92,-0.46,-0.024
150,-0.113134765625,-0.0003779296875,0.222611328125,0.1824521484375,0.0216875,-0.0215771484375,-0.154189453125,-0.359,-0.435,0.069,0.097,-0.38,-0.446,-0.232,-0.29934107355370165,-0.2543415919358703,0.27272039990323743,0.23593796250727114,-0.24731567449159303,-0.2678999708678596,-0.27459066294624473,4.144,-41.788,-4.9,-12.392,2.264,-0.148,0.004
151,-0.116537109375,-0.0049052734375,0.2234775390625,0.1830302734375,0.019001953125,-0.025076171875,-0.15603515625,-0.348,-0.417,0.072,0.067,-0.337,-0.368,-0.212,-0.29855111208468416,-0.2586666986821448,0.27366765935230125,0.23705712259209327,-0.2518992647869709,-0.27163302444591003,-0.2702798523361491,4.2,-41.516,-4.924,-11.892,2.108,-0.596,0.036
152,-0.1199404296875,-0.00892578125,0.2244794921875,0.183751953125,0.015296875,-0.030640625,-0.1578818359375,-0.34,-0.41,0.089,0.067,-0.311,-0.453,-0.191,-0.29745437111101736,-0.26279709470366497,0.27459937756054154,0.23816738211687088,-0.25628789091927234,-0.27514109801135656,-0.26565738904377734,3.772,-42.164,-5.528,-11.732,1.952,-0.172,0.056
153,-0.12313671875,-0.01252734375,0.225201171875,0.184482421875,0.0117978515625,-0.034359375,-0.159728515625,-0.338,-0.403,0.095,0.073,-0.366,-0.494,-0.183,-0.2960489662286204,-0.2667364569558747,0.27551868921914907,0.2392739275589853,-0.26050334406244113,-0.2784455188696024,-0.26068840563233137,3.88,-42.652,-5.688,-11.684,1.964,-0.052,0.044
154,-0.12623046875,-0.016546875,0.2259228515625,0.1852041015625,0.0080791015625,-0.038064453125,-0.1611611328125,-0.318,-0.405,0.077,0.067,-0.358,-0.347,-0.167,-0.2943390849671597,-0.2704643697924889,0.27642086940105376,0.24037029643367352,-0.2645146725228012,-0.28151865283673133,-0.2554172994746678,3.932,-43.244,-5.156,-11.524,1.828,-0.552,0.032
155,-0.12921484375,-0.021177734375,0.2267802734375,0.186359375,0.0033408203125,-0.0425966796875,-0.1628134765625,-0.307,-0.415,0.074,0.097,-0.426,-0.43,-0.155,-0.2923207665952303,-0.27398329642306096,0.27730696020510803,0.24145800335859602,-0.26832405240288926,-0.28436253579976434,-0.24984236465986956,4.464,-42.976,-5.108,-12.12,2.12,-0.232,0.024
156,-0.1321025390625,-0.02468359375,0.227357421875,0.1869375,-0.0005712890625,-0.04548828125,-0.1640400390625,-0.301,-0.414,0.077,0.091,-0.44,-0.376,-0.147,-0.2900050858077264,-0.2772894883173805,0.27817770116259494,0.2425384619454688,-0.2719359199458751,-0.2869801881140704,-0.2439559593113611,4.572,-42.328,-5.132,-12.28,2.128,-0.564,-0.016
157,-0.1348876953125,-0.028697265625,0.2280791015625,0.18766796875,-0.0048955078125,-0.0500205078125,-0.1652666015625,-0.287,-0.399,0.072,0.068,-0.411,-0.351,-0.131,-0.28739785532512785,-0.28036831962315006,0.27902780805846567,0.24360323547881074,-0.27531497132860433,-0.2893445644078395,-0.2378364488745598,4.412,-42.328,-5.108,-11.868,2.068,-0.576,-0.012
158,-0.1376728515625,-0.033025390625,0.2290810546875,0.1885341796875,-0.009220703125,-0.054138671875,-0.166505859375,-0.278,-0.398,0.076,0.079,-0.444,-0.474,-0.124,-0.2844801434418334,-0.2832458033317933,0.27986749367969144,0.24466801398825333,-0.2785169014771241,-0.2914987518124043,-0.2313545759831096,4.516,-42.976,-5.432,-12.12,2.036,-0.088,0.0
159,-0.140142578125,-0.0368330078125,0.229658203125,0.189111328125,-0.01355859375,-0.0572373046875,-0.1675263671875,-0.267,-0.389,0.075,0.071,-0.423,-0.341,-0.113,-0.2812877758667616,-0.2858802747970629,0.2806827467747602,0.2457122844741441,-0.28146857161580774,-0.29338869801812006,-0.22469797866129096,4.252,-43.296,-5.48,-11.66,1.848,-0.54,-0.068
160,-0.1426181640625,-0.04075,0.230236328125,0.190275390625,-0.018296875,-0.0619755859375,-0.1685595703125,-0.253,-0.389,0.058,0.08,-0.46,-0.38,-0.107,-0.2777805949551029,-0.2883224736036607,0.2814921903518571,0.24676231129781628,-0.2842494929736071,-0.29506904058003913,-0.2176534666541566,4.252,-43.62,-5.064,-11.98,2.06,-0.356,-0.128
161,-0.1450947265625,-0.0445576171875,0.23094921875,0.1912861328125,-0.0226220703125,-0.06528125,-0.1695791015625,-0.247,-0.396,0.068,0.115,-0.458,-0.429,-0.097,-0.2739871811142153,-0.29052441014913005,0.282279408511986,0.24779527463070905,-0.2867891727811637,-0.29649303871239757,-0.21042325422155422,4.572,-43.512,-5.064,-12.92,2.164,-0.316,-0.156
162,-0.147255859375,-0.0479541015625,0.2315263671875,0.1920078125,-0.0273603515625,-0.068986328125,-0.1704052734375,-0.236,-0.38,0.068,0.08,-0.452,-0.325,-0.096,-0.2699136850771306,-0.29250521057827855,0.2830533909838883,0.2488245673104236,-0.2891257378605488,-0.29768495986769195,-0.2028679538780671,4.464,-43.296,-4.924,-12.44,2.276,-0.852,-0.128
163,-0.1494228515625,-0.0521796875,0.232537109375,0.1931630859375,-0.031685546875,-0.073724609375,-0.17121875,-0.221,-0.38,0.077,0.092,-0.451,-0.444,-0.089,-0.2655942266052032,-0.2942413779223072,0.283802369241448,0.24983191357074686,-0.29121020353168947,-0.29861770976045493,-0.19521059269643878,4.2,-43.676,-5.316,-12.872,2.244,-0.4,-0.168
164,-0.1514814453125,-0.05578125,0.2335380859375,0.19389453125,-0.0360234375,-0.0766171875,-0.1718388671875,-0.216,-0.38,0.101,0.097,-0.442,-0.395,-0.08,-0.2609843463914547,-0.295758495067247,0.2845391035612249,0.25083647680300697,-0.2930880382904665,-0.29931596151528156,-0.18726072401183513,4.144,-44.484,-5.848,-12.828,2.148,-0.716,-0.212
165,-0.1534365234375,-0.059595703125,0.2341162109375,0.195048828125,-0.04076171875,-0.0803349609375,-0.1724580078125,-0.201,-0.374,0.08,0.087,-0.457,-0.313,-0.056,-0.2560805450422485,-0.29705143911993664,0.28526334538223963,0.2518382336838465,-0.2947542304455014,-0.29977394071644936,-0.17901612807606385,3.772,-45.08,-5.456,-12.896,2.108,-0.936,-0.284
166,-0.1552890625,-0.0632998046875,0.234982421875,0.196212890625,-0.0459130859375,-0.083833984375,-0.1726650390625,-0.193,-0.378,0.07,0.119,-0.504,-0.387,-0.043,-0.2508995834499224,-0.29811420778430897,0.2859734103273861,0.25283516092804553,-0.29619927492399345,-0.2999851648075421,-0.17050507370794774,3.984,-45.404,-5.296,-13.584,2.368,-0.732,-0.312
167,-0.157044921875,-0.066599609375,0.23583984375,0.197376953125,-0.0504453125,-0.0861064453125,-0.17287109375,-0.187,-0.371,0.092,0.115,-0.493,-0.284,-0.029,-0.2455430418461685,-0.2989270327503078,0.2866509697701514,0.2537979553077468,-0.2973830749818869,-0.29995101123530726,-0.16207156536243092,4.2,-45.728,-5.316,-13.744,2.408,-1.208,-0.376
168,-0.1587939453125,-0.070509765625,0.236994140625,0.1986767578125,-0.0555966796875,-0.0900185546875,-0.1730654296875,-0.174,-0.363,0.094,0.127,-0.468,-0.299,-0.021,-0.23984106772009375,-0.2995219998037374,0.2873276079911638,0.2547765004124458,-0.2983718651249759,-0.2996691307982887,-0.15315462485153988,4.252,-45.888,-5.04,-14.224,2.296,-1.104,-0.396
169,-0.1603447265625,-0.073494140625,0.237716796875,0.1998408203125,-0.0605546875,-0.0931171875,-0.173271484375,-0.166,-0.351,0.097,0.118,-0.527,-0.38,-0.011,-0.23394015915712335,-0.2998771457262497,0.28797856524134796,0.25573165565344275,-0.2991175341488117,-0.2991483779216698,-0.14422500208979683,4.516,-46.7,-5.156,-14.156,2.648,-0.82,-0.332
170,-0.1616826171875,-0.07730859375,0.2387177734375,0.2011396484375,-0.0648798828125,-0.0955830078125,-0.1730654296875,-0.146,-0.344,0.093,0.122,-0.456,-0.268,-0.002,-0.2278050099240036,-0.29999991563777473,0.28861352454342915,0.25667865893050135,-0.2996374474943625,-0.2983848304604378,-0.1351092461916144,4.252,-48.048,-5.412,-14.728,2.472,-1.168,-0.344
171,-0.1629169921875,-0.0806015625,0.239439453125,0.2024482421875,-0.0702373046875,-0.0990947265625,-0.1730654296875,-0.131,-0.342,0.081,0.135,-0.484,-0.304,0.006,-0.22140558829193377,-0.2998889578475077,0.28923383848984946,0.25762024738030626,-0.2999307496227334,-0.2973740612685015,-0.12577983675483378,3.932,-49.02,-5.016,-15.344,2.824,-0.988,-0.348
172,-0.163953125,-0.0839013671875,0.2403056640625,0.2038916015625,-0.07476953125,-0.1019736328125,-0.1730654296875,-0.119,-0.334,0.078,0.136,-0.509,-0.328,-0.001,-0.2148044293555156,-0.29954534107824615,0.28983483672502597,0.25854845097691226,-0.2999944568166882,-0.2961260696398539,-0.11634403960699419,3.508,-50.1,-4.924,-15.868,3.056,-1.012,-0.348
173,-0.16487890625,-0.0866796875,0.2411630859375,0.20519140625,-0.080140625,-0.1058984375,-0.1730654296875,-0.098,-0.323,0.088,0.14,-0.48,-0.318,-0.001,-0.20795396578195383,-0.2989660939010882,0.29042157288951725,0.25947165251416465,-0.299828879589126,-0.2946303715295925,-0.10672352841068418,3.348,-51.128,-4.692,-16.028,3.144,-1.084,-0.376
174,-0.165599609375,-0.0897666015625,0.242029296875,0.2067880859375,-0.085498046875,-0.109810546875,-0.1730654296875,-0.086,-0.311,0.084,0.142,-0.543,-0.407,-0.001,-0.2008990232230014,-0.2981543077740504,0.2909901292547198,0.26038327928465577,-0.2994343568247532,-0.29289759559583745,-0.0969992135837738,2.764,-51.668,-4.784,-16.556,3.404,-0.824,-0.316
175,-0.1661142578125,-0.0931689453125,0.2430400390625,0.208232421875,-0.0908564453125,-0.11249609375,-0.17287109375,-0.066,-0.312,0.09,0.155,-0.531,-0.336,0.004,-0.1936725875640036,-0.29711715770739683,0.2915381982319807,0.26127970280329116,-0.2988156667090718,-0.2909391262998757,-0.08721889408070882,2.124,-52.532,-4.74,-17.036,3.46,-1.164,-0.26
176,-0.1663193359375,-0.0962568359375,0.2436083984375,0.2101181640625,-0.0966279296875,-0.1162275390625,-0.1724580078125,-0.042,-0.312,0.08,0.163,-0.564,-0.319,0.031,-0.18623532135090307,-0.2958460512069435,0.2920714010611996,0.26217073475797337,-0.2979663874591686,-0.288733133916534,-0.07727358886946616,1.488,-54.204,-4.556,-17.996,3.72,-1.292,-0.18
177,-0.1664228515625,-0.09903515625,0.2443310546875,0.2121484375,-0.1021923828125,-0.1193134765625,-0.17142578125,-0.019,-0.311,0.068,0.194,-0.57,-0.356,0.067,-0.1785301841906666,-0.2943273188682581,0.2925929182379701,0.2630610376535724,-0.2968782330503152,-0.2862676868166387,-0.06714661430896082,0.9,-55.284,-4.508,-19.368,3.924,-1.372,-0.212
178,-0.166216796875,-0.1021220703125,0.245052734375,0.214025390625,-0.1075634765625,-0.122412109375,-0.17019921875,0.004,-0.311,0.077,0.191,-0.563,-0.296,0.103,-0.17071678671694135,-0.29260091017674117,0.2930898880055523,0.2639300510232195,-0.2955779791101847,-0.2836027576997321,-0.05707538595199017,0.156,-56.092,-4.464,-19.736,4.02,-1.728,-0.224
179,-0.1658046875,-0.1053125,0.2460537109375,0.216064453125,-0.11271484375,-0.1259111328125,-0.168765625,0.026,-0.304,0.079,0.198,-0.524,-0.337,0.13,-0.1627330482639701,-0.290644148009157,0.29357098210039756,0.2647892108858905,-0.2940548433270746,-0.2807100609567346,-0.046943038487720606,-0.796,-56.796,-4.392,-20.56,4.092,-1.624,-0.212
180,-0.1653935546875,-0.108193359375,0.247208984375,0.2178056640625,-0.1178662109375,-0.128802734375,-0.16711328125,0.04,-0.294,0.104,0.191,-0.515,-0.332,0.151,-0.15450418012574466,-0.28843494273633896,0.29404055873775375,0.26565062177820215,-0.2922821674989134,-0.27754318786064075,-0.036602586572915936,-1.86,-58.036,-4.672,-21.128,4.244,-1.644,-0.172
181,-0.1646728515625,-0.1111845703125,0.24835546875,0.2199716796875,-0.1230302734375,-0.1321083984375,-0.165060546875,0.055,-0.292,0.116,0.193,-0.515,-0.298,0.187,-0.14623750328915738,-0.2860509331569705,0.2944824430165297,0.26648228331276663,-0.2903314757420286,-0.2742293985453595,-0.02646822997282378,-3.4,-58.792,-5.132,-21.932,4.308,-1.728,-0.128
182,-0.163953125,-0.114271484375,0.249509765625,0.222146484375,-0.12921484375,-0.1349873046875,-0.162607421875,0.071,-0.303,0.11,0.216,-0.572,-0.324,0.218,-0.13774212513543227,-0.2834098629678569,0.29491404922124054,0.2673178778775214,-0.288126424517312,-0.270634263060244,-0.01611947747931437,-4.676,-59.28,-4.948,-23.028,4.556,-1.62,-0.064
183,-0.1630205078125,-0.11746875,0.25065625,0.224609375,-0.134986328125,-0.137052734375,-0.1599345703125,0.082,-0.311,0.118,0.228,-0.605,-0.244,0.257,-0.12901564588229275,-0.2805093477748688,0.2953332368637467,0.2681534167250103,-0.2856704593370442,-0.26677264178462,-0.005635620213457531,-5.104,-60.36,-5.224,-24.124,4.732,-2.004,-0.052
184,-0.1618876953125,-0.1202470703125,0.2516669921875,0.226919921875,-0.1409638671875,-0.13973828125,-0.1568623046875,0.1,-0.319,0.115,0.243,-0.597,-0.238,0.286,-0.12020340035753242,-0.2774268116057285,0.29572919571943945,0.2689674240127755,-0.2830267777477089,-0.26273984647371074,0.004728945467399824,-5.476,-61.116,-4.996,-25.176,4.96,-2.056,0.004
185,-0.1606533203125,-0.1235400390625,0.25295703125,0.2290947265625,-0.1463349609375,-0.1426171875,-0.15315625,0.116,-0.311,0.115,0.231,-0.576,-0.28,0.33,-0.11144560750104077,-0.27417778479910415,0.29610241150614997,0.26976011583075216,-0.28021206937785487,-0.2585664565746157,1.3365766650471798e-05,-5.42,-62.196,-4.88,-25.84,4.944,-2.008,-0.064
186,-0.1593154296875,-0.12653125,0.254255859375,0.231125,-0.1510732421875,-0.1459228515625,-0.1490634765625,0.127,-0.3,0.123,0.215,-0.504,-0.295,0.385,-0.10243588101635111,-0.2706713284199369,0.2964635614431319,0.27055420040089706,-0.27714184663799235,-0.25411472573546234,0.002192905983018187,-4.624,-62.896,-5.204,-25.452,4.692,-2.028,-0.12
187,-0.1578681640625,-0.1296181640625,0.255546875,0.2332998046875,-0.1553984375,-0.1494345703125,-0.144337890625,0.141,-0.304,0.126,0.203,-0.473,-0.363,0.443,-0.09320023589260214,-0.26689460804171483,0.2968128474858391,0.271351823122974,-0.27380040008626916,-0.24937320224456988,0.004424430456932871,-4.252,-63.6,-5.34,-24.584,4.508,-1.684,-0.16
188,-0.156427734375,-0.133013671875,0.256990234375,0.2356181640625,-0.159736328125,-0.152107421875,-0.13940625,0.141,-0.326,0.139,0.23,-0.425,-0.322,0.492,-0.08412859671251038,-0.263029483271089,0.2971330333019685,0.2721106840664255,-0.27037809841072546,-0.24461092291862818,0.006569010312064312,-2.976,-63.112,-5.848,-24.676,4.404,-1.852,-0.172
189,-0.1547744140625,-0.13651953125,0.25813671875,0.23779296875,-0.1648876953125,-0.1549990234375,-0.1344873046875,0.153,-0.345,0.129,0.224,-0.471,-0.273,0.495,-0.07477025744589552,-0.25886042847118973,0.29744486578610324,0.2728831180899032,-0.2666338670624715,-0.23948155381772002,0.008792736378912999,-1.54,-62.952,-5.272,-24.72,4.684,-2.016,-0.156
190,-0.1531279296875,-0.1402236328125,0.259435546875,0.2398232421875,-0.1694326171875,-0.1578916015625,-0.1295556640625,0.168,-0.361,0.121,0.21,-0.5,-0.291,0.498,-0.06547736398935183,-0.2545665106352182,0.297732983309402,0.2736284639428182,-0.2627780027937742,-0.23429169276324108,0.01095336900280981,-0.264,-63.76,-4.832,-24.4,4.768,-2.14,-0.148
191,-0.15137890625,-0.1440380859375,0.2608701171875,0.2418447265625,-0.1739638671875,-0.1607705078125,-0.1244296875,0.168,-0.377,0.137,0.21,-0.455,-0.286,0.503,-0.05606701485193064,-0.25003514058007115,0.29800710832045957,0.2743728159506922,-0.258672552184844,-0.22884018943944273,0.013151718278960932,1.38,-63.976,-4.9,-24.196,4.684,-2.212,-0.148
192,-0.1494228515625,-0.1476396484375,0.261880859375,0.2431533203125,-0.1783017578125,-0.163869140625,-0.11909765625,0.184,-0.375,0.127,0.172,-0.448,-0.298,0.519,-0.046534240744092646,-0.2452885658379115,0.2982639541392467,0.2751088030518637,-0.2543564369979705,-0.22316512230626237,0.015351550152798791,3.296,-63.708,-4.3,-23.096,4.536,-2.12,-0.096
193,-0.1473583984375,-0.1514541015625,0.26302734375,0.2444521484375,-0.1820078125,-0.1667607421875,-0.1133388671875,0.204,-0.372,0.104,0.127,-0.417,-0.298,0.552,-0.03706042573588526,-0.24043678311185748,0.29849913765724556,0.2758210417281401,-0.24993463344359712,-0.21746879451536574,0.017493951422357767,5.58,-63.168,-3.628,-21.52,4.384,-2.076,-0.004
194,-0.1450947265625,-0.1553642578125,0.2643173828125,0.246193359375,-0.1853125,-0.1696396484375,-0.1069736328125,0.212,-0.386,0.128,0.148,-0.351,-0.297,0.604,-0.027402989584947874,-0.2352793846780037,0.29872253511022523,0.27654169025503395,-0.24520045578116548,-0.21141275397927137,0.0197053729214389,8.24,-62.464,-3.952,-21.06,4.08,-1.936,-0.064
195,-0.1426181640625,-0.159384765625,0.265328125,0.2474931640625,-0.1894443359375,-0.172119140625,-0.09976953125,0.234,-0.403,0.12,0.152,-0.372,-0.282,0.671,-0.017781026690958684,-0.22998533320617556,0.2989261728523655,0.27724532495374943,-0.24032139872882616,-0.20523992078338313,0.0218956202733325,10.524,-61.276,-3.7,-20.58,4.08,-1.884,-0.148
196,-0.139833984375,-0.1633974609375,0.2661943359375,0.2489462890625,-0.1933564453125,-0.17459765625,-0.09300390625,0.264,-0.404,0.094,0.138,-0.411,-0.239,0.708,-0.00820656673650537,-0.22454310646831477,0.2991113895117143,0.2779363853125462,-0.23526891906370562,-0.1989030555543626,0.024086204109509634,13.292,-60.36,-2.752,-20.512,4.228,-2.016,-0.16
197,-0.1369521484375,-0.167205078125,0.2670517578125,0.2502451171875,-0.1974873046875,-0.177283203125,-0.0866396484375,0.282,-0.396,0.08,0.145,-0.4,-0.252,0.67,0.0014488511406260493,-0.2188908360538037,0.2992797136874232,0.27861820649841784,-0.23004154672105837,-0.19242736005303185,0.026260725422666716,15.628,-59.224,-1.94,-21.016,4.484,-1.972,-0.036
198,-0.1338583984375,-0.1705048828125,0.26762890625,0.251111328125,-0.20079296875,-0.1799560546875,-0.0811005859375,0.3,-0.363,0.072,0.115,-0.393,-0.273,0.61,3.655968455389449e-05,-0.21304958819050904,0.2994308371905895,0.2792919876584548,-0.2246181916718025,-0.18576724010444381,0.0284449278837665,17.012,-58.416,-1.34,-20.468,4.828,-1.768,0.128
199,-0.13055859375,-0.1731806640625,0.2684951171875,0.2518427734375,-0.2034658203125,-0.182228515625,-0.0755615234375,0.315,-0.308,0.072,0.077,-0.307,-0.259,0.569,0.00422042824832997,-0.20715822679908588,0.29956191789169034,0.2799439451119415,-0.2191174391412863,-0.17906525206852042,0.030594473750676168,17.704,-57.876,-1.108,-19.828,4.82,-1.664,0.272
200,-0.1270537109375,-0.1754443359375,0.2692080078125,0.252275390625,-0.20553125,-0.1842939453125,-0.0698037109375,0.339,-0.256,0.081,0.058,-0.239,-0.233,0.56,0.008501975770809644,-0.20094524019270327,0.2996788992119566,0.28060474893326587,-0.21327455972130605,-0.1719955995768407,0.032813429278628695,18.608,-57.984,-1.272,-19.164,4.764,-1.548,0.44
201,-0.1234453125,-0.1772001953125,0.2699296875,0.252853515625,-0.2075966796875,-0.185740234375,-0.064470703125,0.361,-0.206,0.071,0.046,-0.208,-0.184,0.555,0.012701148749016292,-0.19474518266787882,0.29977496387293207,0.28123299618938513,-0.20748910316223687,-0.16507394772700923,0.03493837328810061,19.14,-57.984,-1.084,-18.796,4.652,-1.568,0.276
202,-0.119734375,-0.1786416015625,0.2709404296875,0.2537197265625,-0.20925,-0.18656640625,-0.0587255859375,0.371,-0.166,0.082,0.064,-0.199,-0.12,0.556,0.01697285517835229,-0.18823688798506677,0.29985597798456187,0.2818697939161448,-0.20135526663060274,-0.15777571713415242,0.03713801222896294,19.564,-58.036,-1.292,-18.66,4.608,-1.612,0.168
203,-0.1158173828125,-0.179669921875,0.2717978515625,0.254748046875,-0.2104892578125,-0.1869794921875,-0.0536005859375,0.38,-0.129,0.095,0.099,-0.15,-0.071,0.557,0.02119797651056351,-0.18168045027613827,0.29991813948636536,0.2824859190084797,-0.19517009612074712,-0.15047178675418274,0.03929804784117941,19.936,-58.036,-1.5,-19.14,4.632,-1.54,0.14
204,-0.1116943359375,-0.1802880859375,0.27280859375,0.2557587890625,-0.211302734375,-0.1867724609375,-0.0490810546875,0.4,-0.083,0.092,0.099,-0.107,-0.004,0.482,0.025462468598416468,-0.1748933406534147,0.29996333255845525,0.28309944035374257,-0.18875713732582874,-0.14295660156205434,0.041481194765340165,20.576,-58.632,-1.224,-18.98,4.664,-1.56,0.116
205,-0.1075712890625,-0.1804931640625,0.273810546875,0.2570576171875,-0.2115087890625,-0.18656640625,-0.0447685546875,0.414,-0.047,0.098,0.124,-0.049,0.017,0.446,0.029675225826220522,-0.1680533396320378,0.2999904023237338,0.2836956292714489,-0.18226968704861277,-0.13540127587075135,0.043641545976172993,21.744,-58.9,-1.176,-19.276,4.608,-1.432,0.088
206,-0.103236328125,-0.1802880859375,0.2746767578125,0.2583662109375,-0.2115087890625,-0.185740234375,-0.041076171875,0.421,-0.007,0.095,0.128,-0.015,0.049,0.408,0.03394537409122031,-0.16096481111848,0.29999999186506315,0.2842913843725378,-0.1755267593328481,-0.127600201779987,0.04583761494858616,22.488,-58.684,-1.084,-19.596,4.7,-1.392,0.108
207,-0.0987021484375,-0.1795673828125,0.2753984375,0.259521484375,-0.211302734375,-0.1845009765625,-0.0375908203125,0.444,0.044,0.078,0.116,-0.003,0.097,0.361,0.03812187796826404,-0.15391026062714228,0.29999188921082465,0.2848624282411964,-0.16881957401701098,-0.1198987217544321,0.04797262537514664,22.276,-57.984,-0.416,-19.164,4.744,-1.448,0.068
208,-0.09416796875,-0.178435546875,0.2763994140625,0.260974609375,-0.2104892578125,-0.1832607421875,-0.034091796875,0.454,0.088,0.087,0.133,0.053,0.124,0.345,0.042310937476087676,-0.14670097873062513,0.29996633379832527,0.28542653092413667,-0.16193830825120606,-0.11203613196020407,0.05012542692256383,22.544,-57.496,-0.528,-18.752,4.56,-1.484,0.016
209,-0.0896337890625,-0.176685546875,0.277265625,0.26241796875,-0.20925,-0.18140234375,-0.03060546875,0.458,0.138,0.1,0.145,0.111,0.148,0.354,0.046526113102118315,-0.1393193464020282,0.2999228855516077,0.2859850474208088,-0.154876588415193,-0.10402754616495656,0.05228853195357156,22.276,-56.904,-0.808,-18.728,4.42,-1.508,-0.024
210,-0.0847841796875,-0.1743125,0.278123046875,0.2635732421875,-0.2075966796875,-0.1791298828125,-0.0271201171875,0.472,0.198,0.089,0.13,0.141,0.199,0.35,0.05073099937526179,-0.1318095446303567,0.2998615272037046,0.28653393855712905,-0.14768073138710963,-0.09591211803971293,0.054455306161446414,21.852,-56.904,-1.016,-18.476,4.28,-1.624,-0.056
211,-0.0800439453125,-0.1715341796875,0.27926953125,0.2647373046875,-0.2053251953125,-0.1768701171875,-0.0236337890625,0.481,0.255,0.093,0.119,0.179,0.234,0.359,0.0548810460786255,-0.12431425257997802,0.2997837436715932,0.2870634685114172,-0.14049159831982144,-0.0878566967790174,0.056581923075308065,22.224,-56.904,-1.176,-18.064,4.1,-1.672,-0.12
212,-0.0752001953125,-0.1682412109375,0.2804150390625,0.2658916015625,-0.203052734375,-0.173978515625,-0.01994140625,0.484,0.303,0.111,0.116,0.225,0.25,0.36,0.05905927671946787,-0.11662142772012207,0.2996872207705435,0.2875902365325789,-0.13308619891246262,-0.0796018920309091,0.0587406167371151,23.232,-57.172,-1.456,-18.02,3.976,-1.672,-0.18
213,-0.0701513671875,-0.1646328125,0.2815703125,0.26690234375,-0.2005859375,-0.1706728515625,-0.0160419921875,0.494,0.345,0.116,0.106,0.243,0.304,0.38,0.06323572065570922,-0.10882396219066869,0.2995726417170975,0.28810801657923196,-0.12554323815745105,-0.07123334902696388,0.060910926792782004,23.288,-59.116,-1.872,-17.86,3.876,-1.712,-0.212
214,-0.0651025390625,-0.1611337890625,0.2827158203125,0.26835546875,-0.198107421875,-0.1669677734375,-0.0121435546875,0.504,0.356,0.121,0.122,0.249,0.349,0.391,0.0673728313894358,-0.10099673033934171,0.2994415407244446,0.28860925856820663,-0.11800854655576162,-0.06294314271789321,0.0630372351858304,23.128,-61.06,-2.448,-18.408,3.872,-1.736,-0.232
215,-0.059841796875,-0.157525390625,0.28387109375,0.269654296875,-0.19562890625,-0.162216796875,-0.008244140625,0.514,0.358,0.115,0.145,0.251,0.42,0.389,0.07148203386911856,-0.09313349099860617,0.2992937620714557,0.2890974720358136,-0.11042092624688507,-0.0546392676736829,0.06515192861552106,22.7,-62.248,-2.844,-19.116,4.028,-1.808,-0.224
216,-0.0544833984375,-0.1537177734375,0.284728515625,0.271107421875,-0.192943359375,-0.157064453125,-0.0047451171875,0.534,0.37,0.098,0.135,0.251,0.499,0.365,0.07566262296975294,-0.08498913838195728,0.2991236628701182,0.28958991657503086,-0.10249294615303912,-0.04599236611388014,0.06734346641077904,21.424,-62.736,-2.796,-19.508,4.216,-1.852,-0.172
217,-0.0489140625,-0.14980078125,0.2854501953125,0.2722626953125,-0.1894443359375,-0.1523134765625,-0.0012587890625,0.551,0.381,0.084,0.136,0.308,0.496,0.353,0.07974401071051826,-0.07696541922151946,0.2989401138738486,0.2900586963099525,-0.09470812011062411,-0.03756273154729816,0.06946347263939899,20.416,-61.008,-2.612,-19.62,4.152,-1.588,-0.156
218,-0.04303515625,-0.1453759765625,0.286171875,0.2726953125,-0.1851064453125,-0.1469560546875,0.0020205078125,0.568,0.417,0.074,0.087,0.38,0.505,0.343,0.0838205657275259,-0.06887512658213864,0.29873900857466185,0.2905172125278722,-0.08684460728482109,-0.029096758678976275,0.07158068169465392,20.148,-56.632,-2.428,-17.86,3.956,-1.26,-0.068
219,-0.0370595703125,-0.1409443359375,0.287318359375,0.27283984375,-0.179955078125,-0.141998046875,0.0053125,0.594,0.452,0.075,0.026,0.479,0.523,0.331,0.08786248700373028,-0.0607685521058549,0.29852158324452766,0.29096272067635437,-0.07896021669342167,-0.020657008701671486,0.0736815656216765,18.448,-55.392,-2.656,-15.708,3.5,-1.028,-0.016
220,-0.03138671875,-0.13713671875,0.28890625,0.2740126953125,-0.1747900390625,-0.137052734375,0.0083857421875,0.591,0.421,0.14,0.054,0.511,0.495,0.312,0.09192714078152504,-0.05250810443025004,0.2982835522464889,0.29140387590266875,-0.07089753815939856,-0.012070683275627292,0.075812103362244,16.268,-58.956,-4.508,-15.916,3.124,-0.836,0.016
221,-0.0255087890625,-0.13342578125,0.289474609375,0.2750234375,-0.171291015625,-0.1308681640625,0.011470703125,0.577,0.374,0.129,0.122,0.45,0.539,0.312,0.09595675082892062,-0.04425692921278493,0.29802947422615833,0.2918314870172254,-0.0628304852425284,-0.0035258718301912437,0.07792545581977334,14.3,-59.064,-5.34,-18.224,3.292,-1.028,0.096
222,-0.0192177734375,-0.129412109375,0.289185546875,0.27545703125,-0.167779296875,-0.124064453125,0.014130859375,0.611,0.383,0.011,0.075,0.341,0.671,0.288,0.0999707945770267,-0.03595889316445507,0.2977574793601917,0.29224895518854127,-0.05470591020753076,0.0050311895555396014,0.08003738664589741,10.792,-56.688,-3.284,-18.408,3.812,-1.672,0.128
223,-0.013140625,-0.1252958984375,0.289763671875,0.2758896484375,-0.162421875,-0.118900390625,0.0168037109375,0.624,0.41,-0.004,0.043,0.433,0.608,0.279,0.10395796448876742,-0.02765948525554735,0.2974689290496711,0.29265435999181494,-0.04656245217026025,5.354595422964884e-05,0.08214952463950685,8.028,-53.288,-2.68,-17.768,3.704,-1.32,0.168
224,-0.0070556640625,-0.1211728515625,0.2909189453125,0.2757451171875,-0.156017578125,-0.1139423828125,0.019669921875,0.609,0.414,0.083,0.021,0.586,0.498,0.276,0.10794544452569542,-0.01926952979925034,0.29716041707908664,0.2930522940884057,-0.03831547132207714,0.01054712972735603,0.08425346139002833,6.912,-53.34,-4.392,-16.6,2.936,-0.608,0.116
225,-0.00107421875,-0.117673828125,0.291775390625,0.2761787109375,-0.1502470703125,-0.1083779296875,0.022341796875,0.608,0.39,0.116,0.002,0.635,0.54,0.268,0.11189290733671318,-0.010921874171879115,0.2968364822769611,0.2934366217860584,-0.030096555156653382,0.02100808662846174,0.08634935889552056,4.888,-56.904,-6.36,-15.572,2.38,-0.416,0.004
226,0.00459765625,-0.1145810546875,0.291919921875,0.2770537109375,-0.146541015625,-0.1021806640625,0.0248076171875,0.59,0.334,0.054,0.055,0.494,0.581,0.259,0.11582322457343477,-0.0025441783405473926,0.29649424942362973,0.2938110819879946,-0.021832677431220096,0.031468312331745775,0.0884452609213864,2.708,-55.932,-6.196,-16.648,2.824,-0.608,0.0
227,0.010263671875,-0.111390625,0.2914873046875,0.277775390625,-0.14241015625,-0.0955830078125,0.0272744140625,0.572,0.312,-0.018,0.09,0.381,0.647,0.252,0.11976801596666858,0.005915151132933039,0.2961310840846124,0.29417812756924744,-0.013474127640779232,0.041990823168148526,0.09055690326182211,0.528,-52.1,-4.392,-18.088,3.448,-1.424,-0.036
228,0.0157314453125,-0.1077822265625,0.2913427734375,0.278064453125,-0.1372578125,-0.0916708984375,0.0293271484375,0.558,0.335,-0.034,0.059,0.447,0.559,0.23,0.1236264109417103,5.711269577000888e-05,0.2957541925932123,0.29453035579715076,-0.0051904408119475155,0.05235347192947923,0.09264196989195589,-1.22,-49.128,-3.816,-17.884,3.656,-1.62,-0.064
229,0.02068359375,-0.1040771484375,0.292208984375,0.277919921875,-0.131060546875,-0.0883662109375,0.0311728515625,0.53,0.371,0.032,0.013,0.57,0.346,0.206,0.127475729994135,0.009337087005262552,0.2953631072233696,0.2948689999971534,0.0030284392590381364,0.06256691312152048,0.09470501007935073,-1.7,-48.968,-4.808,-16.396,3.148,-0.836,-0.012
230,0.0255263671875,-0.1005849609375,0.2930751953125,0.277919921875,-0.1242568359375,-0.0842470703125,0.0332255859375,0.492,0.37,0.091,-0.011,0.658,0.372,0.191,0.13143244411477398,0.01898642087620338,0.2949377808218756,0.2952102342034565,2.963756145776077e-05,0.07317932126818331,0.09685974700652333,-1.22,-51.452,-6.592,-14.704,2.324,-0.656,-0.044
231,0.0299580078125,-0.097388671875,0.2929306640625,0.278498046875,-0.120138671875,-0.08012890625,0.0344521484375,0.471,0.337,0.043,0.022,0.576,0.415,0.165,0.13510595440697082,0.027978858532693773,0.29452409811319924,0.29551816896039645,0.00518631489401159,0.08288754425840815,0.09884286273656769,-0.956,-52.044,-6.8,-14.956,2.108,-0.608,-0.016
232,0.03429296875,-0.0946103515625,0.292498046875,0.2793642578125,-0.1162138671875,-0.07455078125,0.0358857421875,0.442,0.301,-0.027,0.068,0.384,0.464,0.133,0.13889086824365884,0.03731194569285803,0.2940761489667371,0.295828176750124,0.010589314898048097,0.09296906664271846,0.10091791228324082,-1.168,-49.776,-5.248,-16.236,2.836,-0.98,0.036
233,0.038416015625,-0.0916259765625,0.292208984375,0.2799501953125,-0.1120947265625,-0.07001953125,0.03733203125,0.424,0.287,-0.044,0.08,0.408,0.539,0.148,0.14263778142287392,0.04655294914620723,0.2936142072320278,0.296124717842674,0.015936861307732718,0.1028261996662433,0.10296301278044816,-2.02,-47.292,-4.14,-17.22,2.98,-1.416,0.004
234,0.0422236328125,-0.088326171875,0.292353515625,0.2799501953125,-0.1073564453125,-0.0675400390625,0.0387646484375,0.403,0.312,-0.013,0.03,0.433,0.364,0.141,0.14636615156951632,0.05579208450763019,0.29313238713727185,0.29641223433770725,0.021319518973522137,0.11264165199521693,0.10502163080280995,-2.124,-46.428,-4.3,-16.188,2.928,-0.792,0.024
235,0.0457294921875,-0.0848271484375,0.2929306640625,0.279662109375,-0.10137890625,-0.0640419921875,0.0399912109375,0.373,0.34,0.038,-0.012,0.545,0.29,0.14,0.150059911285629,0.06495842158162969,0.2926342697654273,0.2966881603310329,0.026684168907834597,0.12229855901076242,0.10707150682652893,-2.02,-46.32,-5.48,-14.656,2.244,-0.26,0.024
236,0.0490283203125,-0.0814248046875,0.2930751953125,0.2793642578125,-0.0966279296875,-0.060736328125,0.0414375,0.342,0.35,0.043,-0.038,0.557,0.353,0.133,0.15371922790557926,0.07404339439371382,0.2921199879166494,0.29695258639841143,0.032028877506988546,0.13178690545842772,0.1091089584134932,-1.648,-46.808,-6.152,-13.148,1.788,-0.188,0.076
237,0.0521220703125,-0.0784404296875,0.2927861328125,0.2799501953125,-0.0925087890625,-0.0572373046875,0.0428701171875,0.32,0.322,-0.008,0.008,0.444,0.321,0.139,0.15734416789272063,0.08307483355988655,0.2915871210281448,0.297206866013867,0.03738470854870562,0.14115545238208269,0.11115221682218028,-1.328,-46.212,-5.804,-13.492,2.044,-0.036,0.096
238,0.0549072265625,-0.07555859375,0.292498046875,0.2803837890625,-0.0896171875,-0.0524990234375,0.0443037109375,0.299,0.295,-0.033,0.051,0.359,0.416,0.144,0.16094845929313703,0.09202607470725756,0.2910378094851718,0.29744957021003515,0.04270928658235071,0.15030861739599846,0.11317795997158181,-0.956,-44.7,-4.948,-14.268,2.512,-0.772,0.096
239,0.0576923828125,-0.0723623046875,0.292353515625,0.280671875,-0.0861181640625,-0.0498134765625,0.045736328125,0.282,0.301,-0.025,0.044,0.314,0.396,0.15,0.16452965063778577,0.100919482985671,0.29046851831854026,0.2976825370224624,0.048053094419827413,0.15933735759305093,0.11521206970303527,-1.22,-43.352,-4.464,-15.048,2.824,-0.896,0.104
240,0.060271484375,-0.06886328125,0.292353515625,0.2805283203125,-0.082193359375,-0.0469345703125,0.0473896484375,0.271,0.335,-0.007,0.018,0.364,0.266,0.15,0.16805052368003548,0.10964274561827583,0.2898876816719935,0.29790231991503274,0.05332928096119151,0.16808585005231588,0.11722042530738544,-1.488,-42.76,-4.252,-14.336,2.656,-0.544,0.108
241,0.062638671875,-0.0652548828125,0.2927861328125,0.2803837890625,-0.0778681640625,-0.0438359375,0.048822265625,0.252,0.363,0.025,-0.026,0.42,0.307,0.154,0.17156174392477166,0.11832301717138397,0.28928466726281166,0.2981130924599686,0.05864095767782199,0.1767191281769991,0.11924506934178182,-1.54,-43.352,-5.18,-13.056,2.008,-0.472,0.136
242,0.064703125,-0.061755859375,0.2929306640625,0.2805283203125,-0.0745625,-0.04095703125,0.0504619140625,0.223,0.355,0.03,-0.005,0.403,0.288,0.155,0.17501897201497088,0.12683312951771852,0.2886694002713897,0.29831100359666196,0.06388031138695116,0.1850403221261004,0.12123811621190819,-1.008,-43.244,-5.78,-12.644,1.632,-0.136,0.172
243,0.066767578125,-0.0583603515625,0.2926416015625,0.280671875,-0.0714765625,-0.036619140625,0.05230859375,0.207,0.347,-0.003,0.016,0.306,0.347,0.166,0.17845743594785834,0.13526911192583035,0.2880330654053077,0.298499273165142,0.0691402837171299,0.1932053819698379,0.12324268622138602,-0.424,-43.244,-5.548,-12.804,1.848,-0.336,0.172
244,0.06872265625,-0.0549580078125,0.292498046875,0.28110546875,-0.069205078125,-0.03270703125,0.0539482421875,0.206,0.342,-0.028,0.032,0.284,0.438,0.172,0.18185483904760674,0.14355409488400872,0.2873813470799508,0.2986760385690408,0.07436485142946414,0.2011132061479497,0.1252357241658045,0.0,-42.812,-4.832,-13.216,1.976,-0.592,0.18
245,0.0705810546875,-0.051458984375,0.292353515625,0.2815380859375,-0.0669453125,-0.0291953125,0.05539453125,0.192,0.347,-0.017,0.043,0.221,0.363,0.163,0.18521082453799184,0.15169057362186075,0.2867134086014257,0.29884160912608365,0.07956079555894942,0.20876762918951172,0.12722010466177094,0.636,-42.488,-4.764,-13.628,2.4,-0.252,0.212
246,0.0724404296875,-0.047748046875,0.292353515625,0.2816826171875,-0.0636396484375,-0.0246630859375,0.0570341796875,0.189,0.358,-0.005,0.032,0.283,0.407,0.165,0.18852575075392672,0.1596616784225621,0.2860297534225925,0.2989959945121224,0.08472959180788624,0.2161714906513915,0.12920007745847725,1.008,-42.164,-4.74,-13.536,2.06,-0.408,0.208
247,0.07429296875,-0.0439404296875,0.292208984375,0.2816826171875,-0.061173828125,-0.02137109375,0.058466796875,0.184,0.378,-0.007,0.004,0.288,0.408,0.156,0.19181785925580172,0.16752885555597793,0.2853257407592175,0.2991398577400736,0.08988307088018456,0.2233167790027934,0.13117222577914422,1.168,-42.272,-4.808,-12.532,2.024,-0.14,0.208
248,0.076048828125,-0.0402353515625,0.291919921875,0.2819716796875,-0.0580751953125,-0.0174462890625,0.0601064453125,0.179,0.378,-0.021,0.016,0.269,0.341,0.146,0.19505449925332663,0.17517952980158671,0.28460939362499144,0.2992719442429979,0.09498311014175838,0.23016039226233298,0.13313065291601703,1.328,-42.164,-4.972,-12.416,1.944,0.104,0.224
249,0.0777978515625,-0.0365244140625,0.291775390625,0.2822607421875,-0.055802734375,-0.0125009765625,0.061552734375,0.176,0.376,-0.017,0.028,0.282,0.455,0.148,0.19827203915877234,0.18271700504801233,0.283870917828552,0.2993938737096754,0.10008983085919604,0.2367728087178407,0.13509635205713558,1.752,-41.732,-4.88,-12.164,1.9,-0.332,0.192
250,0.07965625,-0.032716796875,0.291630859375,0.2829912109375,-0.0535439453125,-0.009001953125,0.062779296875,0.178,0.375,-0.015,0.042,0.225,0.435,0.136,0.20143442436401038,0.19003691410549206,0.2831195089034193,0.2995041320370151,0.10513936768264948,0.24306261284330122,0.13704523504880015,1.964,-41.464,-4.648,-12.712,2.14,-0.332,0.156
251,0.0815087890625,-0.0287998046875,0.2914873046875,0.2831357421875,-0.051271484375,-0.004263671875,0.0640185546875,0.186,0.382,-0.018,0.052,0.235,0.396,0.125,0.2045557506901032,0.19715841961759564,0.28235311181312156,0.29960313327361915,0.11014419117212634,0.24904243700782275,0.13898262600738803,1.964,-41.732,-4.532,-13.376,2.308,-0.376,0.16
252,0.083470703125,-0.0247861328125,0.2913427734375,0.2832802734375,-0.048392578125,0.00028125,0.0652578125,0.19,0.403,-0.018,0.012,0.248,0.48,0.131,0.20764193240371312,0.20411681191994188,0.2815671609253185,0.29969144381018514,0.11513278641424905,0.25474184027184504,0.1409199470369422,2.02,-42.164,-4.74,-13.032,2.256,-0.732,0.116
253,0.0854326171875,-0.0206640625,0.2910625,0.283568359375,-0.0461201171875,0.0039853515625,0.066484375,0.198,0.407,-0.022,0.019,0.264,0.401,0.122,0.21069111115500858,0.21088473772865793,0.2807635008948386,0.29976876611289693,0.12009161072227298,0.2601368279335121,0.14285264906877473,1.964,-42.272,-4.648,-13.012,2.244,-0.332,0.076
254,0.0873876953125,-0.016650390625,0.2910625,0.283712890625,-0.0434345703125,0.00913671875,0.0677236328125,0.196,0.407,-0.014,0.016,0.248,0.439,0.123,0.2136931704281672,0.21744023855000286,0.27994416008539097,0.2998348922049177,0.12500629893179788,0.2652069079613324,0.14477583895528925,2.02,-42.544,-5.064,-12.484,2.264,-0.376,0.076
255,0.0894521484375,-0.0126298828125,0.2909189453125,0.284001953125,-0.0411748046875,0.013875,0.0689501953125,0.2,0.405,-0.004,0.021,0.257,0.514,0.134,0.21664974396649972,0.2237665746630522,0.27911080846580455,0.2998897677229675,0.12986672344639352,0.2699383258516981,0.14668533767806446,2.124,-42.596,-5.064,-12.804,2.06,-0.376,0.052
256,0.0915107421875,-0.0086171875,0.2906298828125,0.284291015625,-0.0393154296875,0.0184072265625,0.0701767578125,0.207,0.408,-0.02,0.035,0.198,0.452,0.118,0.2195710540810859,0.2299012668669828,0.27825740702607626,0.2999337619281492,0.13470618926373945,0.27436015475314995,0.14859544911162714,1.752,-42.92,-4.74,-13.172,2.356,-0.064,0.088
257,0.0935751953125,-0.0045966796875,0.2906298828125,0.2848681640625,-0.0364365234375,0.024177734375,0.0714169921875,0.207,0.403,-0.017,0.04,0.232,0.518,0.124,0.22244622602181294,0.2358110098317141,0.27738757516231416,0.29996661588579476,0.13950259321018904,0.27844494532604386,0.1504979726248646,1.54,-43.028,-4.692,-13.584,2.252,-0.344,0.036
258,0.0957421875,-0.00048046875,0.2901962890625,0.2851572265625,-0.0345771484375,0.0285029296875,0.0726435546875,0.214,0.408,-0.017,0.038,0.247,0.519,0.12,0.22526494248395262,0.2414565880025456,0.27650689702380177,0.2999882205542603,0.14422366078361035,0.28216428935094706,0.1523798496435272,1.86,-43.192,-4.808,-13.744,2.328,-0.376,0.084
259,0.0980126953125,0.0037451171875,0.289908203125,0.2853017578125,-0.0318916015625,0.0328408203125,0.07367578125,0.221,0.419,-0.04,0.025,0.221,0.426,0.112,0.22805615860495296,0.2469128402797555,0.2756027268476088,0.29999886201863574,0.14893714864115778,0.28556878549215287,0.15426980051624634,1.328,-43.296,-4.484,-13.492,2.4,-0.232,0.096
260,0.100173828125,0.0079638671875,0.289908203125,0.2854453125,-0.0290126953125,0.037373046875,0.07490234375,0.22,0.42,-0.018,0.016,0.284,0.457,0.123,0.23078862542414208,0.25209806638557225,0.2746872271574113,0.2999983471548384,0.15357776256846625,0.2886049267735491,0.15614098756976993,1.54,-43.676,-4.832,-13.192,2.18,-0.468,0.064
261,0.102341796875,0.0120869140625,0.289763671875,0.2857431640625,-0.02612109375,0.041078125,0.07612890625,0.219,0.421,-0.008,0.022,0.283,0.414,0.12,0.2334845751989419,0.2570523380605775,0.273753175484924,0.29998672193068104,0.15818011185183953,0.2912950206975554,0.15800854012615886,1.54,-43.836,-5.088,-13.356,2.148,-0.2,0.076
262,0.1046123046875,0.016306640625,0.289619140625,0.2860322265625,-0.0234482421875,0.04581640625,0.0773681640625,0.226,0.422,-0.016,0.03,0.279,0.409,0.117,0.23612409679744312,0.26174455287365744,0.2728055672983294,0.2999640476160845,0.16271971509085276,0.29362284279183665,0.15986284120006858,1.008,-43.836,-4.948,-13.356,2.148,-0.24,0.088
263,0.1068759765625,0.0203193359375,0.289330078125,0.2864658203125,-0.0207626953125,0.0501416015625,0.0785947265625,0.224,0.416,-0.017,0.032,0.275,0.477,0.122,0.23871925408097097,0.26618635510107075,0.2718408988797263,0.2999302661233237,0.1672120296325482,0.295594245706361,0.1617108504029725,0.9,-43.944,-5.132,-13.628,2.2,-0.492,0.064
264,0.109146484375,0.0244423828125,0.28890625,0.2868984375,-0.0185029296875,0.0542607421875,0.0798212890625,0.225,0.407,-0.033,0.046,0.251,0.416,0.119,0.2412744265180528,0.270386530642316,0.27085620277637057,0.29988518578513473,0.1716692208879935,0.29721030102131074,0.16355777848371258,0.528,-43.512,-4.832,-14.248,2.44,-0.224,0.116
265,0.11151953125,0.028662109375,0.2886171875,0.2868984375,-0.0151982421875,0.0589990234375,0.081060546875,0.235,0.42,-0.044,0.021,0.268,0.448,0.123,0.24376415486995312,0.2742861815639557,0.26986480753462705,0.29982947428245976,0.17603450894291223,0.29845191925236925,0.16538316445351453,0.264,-43.728,-4.508,-13.88,2.452,-0.368,0.12
266,0.1137900390625,0.0328876953125,0.2884736328125,0.2871875,-0.01190625,0.0625107421875,0.082287109375,0.234,0.424,-0.027,0.014,0.338,0.43,0.134,0.24622746871310583,0.27796356535568006,0.2688458930260191,0.2997620215561495,0.18038366138121667,0.2993366015898064,0.16721176057909498,0.104,-44.16,-5.156,-13.788,2.288,-0.252,0.096
267,0.1161572265625,0.03700390625,0.2881845703125,0.28733203125,-0.00861328125,0.0664228515625,0.0837333984375,0.229,0.421,-0.02,0.024,0.324,0.344,0.132,0.24862246167249133,0.28134174837172216,0.26781842043238774,0.29968385254591107,0.18465430846196848,0.2998510698537391,0.16902742023979617,0.104,-44.432,-5.432,-13.836,2.348,0.056,0.156
268,0.118427734375,0.041126953125,0.2880400390625,0.2876201171875,-0.00530859375,0.070748046875,0.0849599609375,0.235,0.414,-0.025,0.019,0.343,0.426,0.137,0.2509864852099511,0.2844671160186289,0.2667688391158713,0.2995940851648477,0.1888864750435431,0.29999799807827965,0.17084182207133344,-0.052,-44.376,-5.224,-13.788,2.276,-0.368,0.116
269,0.1206982421875,0.045037109375,0.2877509765625,0.2880537109375,-0.00263671875,0.0738330078125,0.0863935546875,0.229,0.406,-0.021,0.036,0.299,0.387,0.128,0.25328350550601225,0.2872956273982279,0.26571034486698103,0.29949384563625636,0.19302838250814894,0.2997769692274512,0.17263318790596063,-0.052,-44.376,-5.108,-14.248,2.532,-0.356,0.14
270,0.123064453125,0.04916015625,0.287318359375,0.288341796875,0.00066796875,0.0775517578125,0.0876328125,0.231,0.403,-0.037,0.038,0.293,0.342,0.134,0.25553753921211847,0.28985308145842814,0.26463291773701747,0.2993821784028741,0.19712226142686232,0.2991879529206371,0.17442202470626159,-0.104,-44.052,-5.04,-14.612,2.556,-0.468,0.168
271,0.1253349609375,0.0531728515625,0.286884765625,0.288341796875,0.00375390625,0.08084375,0.088859375,0.234,0.409,-0.039,0.014,0.325,0.359,0.132,0.25773149256668343,0.29211644438731493,0.2635458324028171,0.29926008322516096,0.2011313090594284,0.29823795639400097,0.17619216084354186,-0.476,-44.592,-5.016,-14.064,2.46,-0.604,0.168
272,0.12760546875,0.0572958984375,0.28660546875,0.288486328125,0.0074599609375,0.0835166015625,0.0902919921875,0.228,0.408,-0.032,0.004,0.334,0.286,0.126,0.259880167579018,0.2941063920393379,0.26243800326742467,0.29912635747117083,0.2050942190926719,0.2969187522039834,0.1779612202301444,-0.476,-44.376,-5.108,-13.88,2.276,-0.324,0.188
273,0.1298759765625,0.0613095703125,0.28631640625,0.288341796875,0.0107646484375,0.0870283203125,0.0915322265625,0.228,0.413,-0.03,0.008,0.355,0.313,0.126,0.26220413029119516,0.2959813061497072,0.26118874051282337,0.2989646999806969,0.2094223241630674,0.29502508236413383,0.17991695248504205,-0.476,-44.324,-5.456,-13.604,2.068,-0.44,0.192
274,0.1321396484375,0.0652265625,0.2858837890625,0.288630859375,0.0138505859375,0.0901142578125,0.0927587890625,0.226,0.4,-0.039,0.002,0.324,0.34,0.13,0.26401493844897844,0.29722031846558156,0.2601812213189247,0.2988264390035036,0.21280019215123103,0.2932046491666639,0.18145878003663712,-0.316,-43.836,-5.224,-13.516,2.14,-0.512,0.2
275,0.1343076171875,0.06913671875,0.2853056640625,0.2889287109375,0.01694921875,0.09340625,0.09419140625,0.224,0.391,-0.049,0.036,0.317,0.299,0.132,0.26600771879050916,0.29834670173308947,0.2590278634947069,0.29865962075567426,0.21655961914139596,0.2908041034782821,0.18319814143262117,-0.104,-43.568,-5.064,-14.064,2.296,-0.428,0.24
276,0.136578125,0.0730478515625,0.284873046875,0.2889287109375,0.0202412109375,0.0969052734375,0.0956376953125,0.225,0.397,-0.055,0.011,0.315,0.353,0.136,0.26794363813774025,0.2991828029862573,0.257859038065401,0.2984816902593293,0.22025047279238336,0.28804644321330036,0.1849283952072438,-0.212,-43.192,-4.74,-13.72,2.368,-0.604,0.24
277,0.1387451171875,0.0770673828125,0.2844482421875,0.2890732421875,0.023740234375,0.0993837890625,0.0968642578125,0.224,0.396,-0.048,0.004,0.343,0.31,0.14,0.26983144870844716,0.2997287146074687,0.25667085812506796,0.2982919067374102,0.22388798184759975,0.284918116658496,0.1866588796906238,-0.156,-43.512,-4.924,-13.584,2.252,-0.272,0.26
278,0.141009765625,0.0810810546875,0.28387109375,0.2890732421875,0.027251953125,0.1026767578125,0.098296875,0.222,0.402,-0.045,0.01,0.348,0.276,0.141,0.2716607922729027,0.29998046940962747,0.25547591590253194,0.2980926447416437,0.22741820094687035,0.2814769592436436,0.18835872790682404,-0.052,-43.568,-5.156,-13.332,2.18,-0.084,0.284
279,0.1431767578125,0.08489453125,0.2834384765625,0.2892177734375,0.03095703125,0.1059814453125,0.0999501953125,0.222,0.396,-0.049,-0.001,0.363,0.338,0.146,0.2734372579331565,0.29994075519873886,0.2542576254863242,0.2978806794427829,0.23090996853815404,0.27764991342323625,0.19007010178578695,0.104,-43.352,-5.18,-13.192,2.088,-0.188,0.312
280,0.1453447265625,0.0888056640625,0.2827158203125,0.2893623046875,0.03425,0.1088603515625,0.10117578125,0.22,0.387,-0.059,0.016,0.35,0.308,0.145,0.27515218897196286,0.29961080243213545,0.2530347561228826,0.29765986865014404,0.23428727796224053,0.2734891158271597,0.19176502120520988,0.264,-42.976,-4.88,-13.492,2.316,-0.052,0.348
281,0.1476083984375,0.092619140625,0.2821474609375,0.289505859375,0.038162109375,0.1121533203125,0.10281640625,0.222,0.385,-0.06,0.019,0.353,0.313,0.142,0.2768165451297739,0.29898972264325135,0.25179323555326083,0.2974272301425137,0.2376055672118502,0.2690672178134712,0.19342267578753156,0.584,-43.136,-4.648,-13.72,2.452,-0.192,0.312
282,0.14987890625,0.0965302734375,0.2815703125,0.289505859375,0.041673828125,0.115044921875,0.1044560546875,0.223,0.393,-0.058,0.007,0.386,0.32,0.156,0.27842926018714514,0.29807344124812785,0.2505295277032963,0.29718189394570454,0.24087042861873315,0.2642339003116049,0.19510094448062662,0.744,-42.976,-4.856,-13.584,2.356,-0.244,0.276
283,0.1521494140625,0.10054296875,0.2809931640625,0.289505859375,0.0455859375,0.1173046875,0.1059013671875,0.227,0.396,-0.06,-0.001,0.367,0.248,0.156,0.2799813504627416,0.29687349575028504,0.24926118202782638,0.2969280508343927,0.24402438303823043,0.25912917737188895,0.19675112063676395,0.796,-43.46,-4.88,-13.24,2.288,-0.076,0.264
284,0.154419921875,0.1044599609375,0.2804150390625,0.289505859375,0.049291015625,0.12018359375,0.107748046875,0.229,0.395,-0.061,-0.001,0.382,0.252,0.165,0.2814847803542589,0.29537124673159004,0.24796454390113562,0.29666006571486186,0.24713898083506375,0.2536380185199172,0.1984129644024474,0.848,-43.192,-4.672,-13.056,2.088,-0.084,0.208
285,0.15668359375,0.10826171875,0.2797021484375,0.289650390625,0.053203125,0.1226630859375,0.10959375,0.225,0.39,-0.063,0.008,0.381,0.284,0.18,0.28292398520420703,0.2935969924959641,0.24666713598524267,0.29638409985824743,0.250137759298443,0.24790361278870596,0.20004327937463645,1.116,-42.704,-4.6,-12.944,2.044,-0.18,0.156
286,0.159056640625,0.1121787109375,0.2788447265625,0.289794921875,0.0569208984375,0.12512890625,0.1114404296875,0.232,0.389,-0.079,0.017,0.389,0.248,0.199,0.2843075435256046,0.29153154418151744,0.24535043569422024,0.2960961376744644,0.2530685498245996,0.2418421382127818,0.2016702149482035,1.54,-42.004,-4.252,-13.148,2.08,-0.128,0.128
287,0.1614306640625,0.1160888671875,0.277978515625,0.289794921875,0.0610400390625,0.127814453125,0.1134931640625,0.242,0.395,-0.095,0.003,0.392,0.249,0.191,0.2856402616348466,0.2891680011563458,0.24401113718688175,0.29579533203820946,0.25593537081439316,0.23544326541370553,0.20329653675559792,1.7,-42.22,-4.0,-12.896,2.16,-0.14,0.12
288,0.1638037109375,0.120109375,0.277265625,0.289939453125,0.065158203125,0.1300732421875,0.1155458984375,0.24,0.397,-0.079,0.007,0.414,0.256,0.203,0.286904464067471,0.2865543004656502,0.24267517937970812,0.29548773123564015,0.25868034044605825,0.22885223360960522,0.2048878598388471,2.072,-42.112,-4.14,-12.828,2.044,-0.188,0.104
289,0.166376953125,0.12401953125,0.276255859375,0.289939453125,0.06927734375,0.132552734375,0.117392578125,0.243,0.402,-0.081,0.008,0.412,0.239,0.193,0.2881214566337373,0.2836316532552045,0.24130859685563266,0.2951652196878418,0.26137902092559734,0.22188540074560587,0.2064921615388449,2.176,-42.76,-4.276,-12.784,2.056,-0.108,0.12
290,0.1689560546875,0.128033203125,0.27525390625,0.289939453125,0.0736025390625,0.1350185546875,0.11923828125,0.257,0.397,-0.095,-0.001,0.417,0.243,0.186,0.2892788004802767,0.2804332897987504,0.23992962287790257,0.29483227340535134,0.263986728217122,0.21466371252525435,0.20808024200678926,2.072,-42.596,-4.024,-12.944,2.108,-0.136,0.116
291,0.17153515625,0.132052734375,0.2743876953125,0.289939453125,0.0781337890625,0.13769140625,0.1210849609375,0.259,0.4,-0.095,-0.001,0.436,0.253,0.183,0.2903715495353455,0.2769910412607513,0.2385483115991263,0.2944912627788957,0.26648847612501997,0.2072389587858491,0.20964446728062208,2.124,-42.488,-3.908,-12.872,2.244,-0.116,0.128
292,0.174216796875,0.135962890625,0.273521484375,0.290083984375,0.0830791015625,0.140169921875,0.122931640625,0.264,0.398,-0.091,0.01,0.477,0.256,0.187,0.2914140617952526,0.2732401741396393,0.2371377213549209,0.29413552413336325,0.26893153324889374,0.19947615274406513,0.2112166528666909,2.392,-42.436,-4.324,-13.104,2.2,-0.064,0.084
