EmanuelSamir/lab201_ws_projsamir/sawyer_dev/data/sawyer/temp/training_data.csv
,j1,j2,j3,j4,j5,j6,j7,jd1,jd2,jd3,jd4,jd5,jd6,jd7,e1,e2,e3,e4,e5,e6,e7
0,0.0,0.0,0.0,0.0,0.0,0.0,0.0,0.0,0.0,0.0,0.0,0.0,0.0,0.0,0.0,0.0,0.0,0.0,0.0,0.0,0.0
1,0.0,0.0,0.0,0.0,0.0,0.0,0.003671875,0.0,0.0,0.0,0.0,0.0,0.0,0.2688230611923408,0.0,0.0,0.0,0.0,0.0,0.0,-0.024
2,0.0,0.0,0.0,0.0,0.0,0.0,0.003671875,0.0,0.0,0.0,0.0,0.0,0.0,0.2688230611923408,0.0,0.0,0.0,0.0,0.0,0.0,-0.016
3,0.0,0.0,0.0,0.0,0.0,0.0,0.003671875,0.0,0.0,0.0,0.0,0.0,0.0,0.2688230611923408,0.0,0.0,0.0,0.0,0.0,0.0,0.0
4,0.0,0.0,0.0,0.0,0.0,0.0,0.0055185546875,0.0,0.0,0.0,0.0,0.0,0.0,0.2688230611923408,0.0,0.0,0.0,0.0,0.0,0.0,0.2
5,0.0,0.0,0.0,0.0,0.0,0.0,0.0129033203125,0.0,0.0,0.0,0.0,0.0,0.0,0.2688230611923408,0.0,0.0,0.0,0.0,0.0,0.0,0.276
6,0.0,0.0,0.0,0.0,0.0,0.0,0.0243935546875,0.0,0.0,0.0,0.0,0.0,0.0,0.2688230611923408,0.0,0.0,0.0,0.0,0.0,0.0,0.156
7,0.0,0.0,0.0,0.0,0.0,0.0,0.039990234375,0.0,0.0,0.0,0.0,0.0,0.0,0.2688230611923408,0.0,0.0,0.0,0.0,0.0,0.0,0.064
8,0.0,0.0,0.0,0.0,0.0,0.0,0.0574462890625,0.0,0.0,0.0,0.0,0.0,0.0,0.2688230611923408,0.0,0.0,0.0,0.0,0.0,0.0,0.276
9,0.0,0.0,0.0,0.0,0.0,0.0,0.07859375,0.0,0.0,0.0,0.0,0.0,0.0,0.2688230611923408,0.0,0.0,0.0,0.0,0.0,0.0,0.068
10,0.0,0.0,0.0,0.0,0.0,0.0,0.0993291015625,0.0,0.0,0.0,0.0,0.0,0.0,0.2688230611923408,0.0,0.0,0.0,0.0,0.0,0.0,0.056
11,0.0,0.0,0.0,0.0,0.0,0.0,0.1225166015625,0.0,0.0,0.0,0.0,0.0,0.0,0.2688230611923408,0.0,0.0,0.0,0.0,0.0,0.0,0.224
12,0.0,0.0,0.0,0.0,0.0,0.0,0.1424384765625,0.0,0.0,0.0,0.0,0.0,0.0,0.2688230611923408,0.0,0.0,0.0,0.0,0.0,0.0,-0.024
13,0.0,0.0,0.0,0.0,0.0,0.0,0.1619345703125,0.0,0.0,0.0,0.0,0.0,0.0,0.2688230611923408,0.0,0.0,0.0,0.0,0.0,0.0,0.036
14,0.0,0.0,0.0,0.0,0.0,0.0,0.1783564453125,0.0,0.0,0.0,0.0,0.0,0.0,0.2688230611923408,0.0,0.0,0.0,0.0,0.0,0.0,0.172
15,0.0,0.0,0.0,0.0,0.0,0.0,0.190880859375,0.0,0.0,0.0,0.0,0.0,0.0,0.2688230611923408,0.0,0.0,0.0,0.0,0.0,0.0,0.136
16,0.0,0.0,0.0,0.0,0.0,0.0,0.203197265625,0.0,0.0,0.0,0.0,0.0,0.0,0.2688230611923408,0.0,0.0,0.0,0.0,0.0,0.0,0.12
17,0.0,0.0,0.0,0.0,0.0,0.0,0.2132548828125,0.0,0.0,0.0,0.0,0.0,0.0,0.2688230611923408,0.0,0.0,0.0,0.0,0.0,0.0,0.088
18,0.0,0.0,0.0,0.0,0.0,0.0,0.2216728515625,0.0,0.0,0.0,0.0,0.0,0.0,0.2688230611923408,0.0,0.0,0.0,0.0,0.0,0.0,0.052
19,0.0,0.0,0.0,0.0,0.0,0.0,0.229677734375,0.0,0.0,0.0,0.0,0.0,0.0,-0.3549361392366065,0.0,0.0,0.0,0.0,0.0,0.0,0.156
20,0.0,0.0,0.0,0.0,0.0,0.0,0.2387158203125,0.0,0.0,0.0,0.0,0.0,0.0,-0.3549361392366065,0.0,0.0,0.0,0.0,0.0,0.0,0.14
21,0.0,0.0,0.0,0.0,0.0,0.0,0.248166015625,0.0,0.0,0.0,0.0,0.0,0.0,-0.3549361392366065,0.0,0.0,0.0,0.0,0.0,0.0,0.0
22,0.0,0.0,0.0,0.0,0.0,0.0,0.2510322265625,0.0,0.0,0.0,0.0,0.0,0.0,-0.3549361392366065,0.0,0.0,0.0,0.0,0.0,0.0,-0.044
23,0.0,0.0,0.0,0.0,0.0,0.0,0.2471337890625,0.0,0.0,0.0,0.0,0.0,0.0,-0.3549361392366065,0.0,0.0,0.0,0.0,0.0,0.0,-0.104
24,0.0,0.0,0.0,0.0,0.0,0.0,0.239748046875,0.0,0.0,0.0,0.0,0.0,0.0,-0.3549361392366065,0.0,0.0,0.0,0.0,0.0,0.0,-0.188
25,0.0,0.0,0.0,0.0,0.0,0.0,0.229677734375,0.0,0.0,0.0,0.0,0.0,0.0,-0.3549361392366065,0.0,0.0,0.0,0.0,0.0,0.0,-0.136
26,0.0,0.0,0.0,0.0,0.0,0.0,0.21675390625,0.0,0.0,0.0,0.0,0.0,0.0,-0.3549361392366065,0.0,0.0,0.0,0.0,0.0,0.0,-0.056
27,0.0,0.0,0.0,0.0,0.0,0.0,0.1988857421875,0.0,0.0,0.0,0.0,0.0,0.0,-0.3549361392366065,0.0,0.0,0.0,0.0,0.0,0.0,-0.136
28,0.0,0.0,0.0,0.0,0.0,0.0,0.1789765625,0.0,0.0,0.0,0.0,0.0,0.0,-0.3549361392366065,0.0,0.0,0.0,0.0,0.0,0.0,-0.044
29,0.0,0.0,0.0,0.0,0.0,0.0,0.1563955078125,0.0,0.0,0.0,0.0,0.0,0.0,-0.3549361392366065,0.0,0.0,0.0,0.0,0.0,0.0,-0.272
30,0.0,0.0,0.0,0.0,0.0,0.0,0.1319677734375,0.0,0.0,0.0,0.0,0.0,0.0,-0.3549361392366065,0.0,0.0,0.0,0.0,0.0,0.0,-0.056
31,0.0,0.0,0.0,0.0,0.0,0.0,0.1036416015625,0.0,0.0,0.0,0.0,0.0,0.0,-0.3549361392366065,0.0,0.0,0.0,0.0,0.0,0.0,-0.2
32,0.0,0.0,0.0,0.0,0.0,0.0,0.0781806640625,0.0,0.0,0.0,0.0,0.0,0.0,-0.3549361392366065,0.0,0.0,0.0,0.0,0.0,0.0,-0.032
33,0.0,0.0,0.0,0.0,0.0,0.0,0.0529267578125,0.0,0.0,0.0,0.0,0.0,0.0,-0.3549361392366065,0.0,0.0,0.0,0.0,0.0,0.0,0.064
34,0.0,0.0,0.0,0.0,0.0,0.0,0.030345703125,0.0,0.0,0.0,0.0,0.0,0.0,-0.3549361392366065,0.0,0.0,0.0,0.0,0.0,0.0,-0.244
35,0.0,0.0,0.0,0.0,0.0,0.0,-0.0033125,0.0,0.0,0.0,0.0,0.0,0.0,-0.3549361392366065,0.0,0.0,0.0,0.0,0.0,0.0,0.016
36,0.0,0.0,0.0,0.0,0.0,0.0,-0.016443359375,0.0,0.0,0.0,0.0,0.0,0.0,-0.3549361392366065,0.0,0.0,0.0,0.0,0.0,0.0,-0.272
37,0.0,0.0,0.0,0.0,0.0,0.0,-0.0265009765625,0.0,0.0,0.0,0.0,0.0,0.0,-0.3549361392366065,0.0,0.0,0.0,0.0,0.0,0.0,-0.056
38,0.0,0.0,0.0,0.0,0.0,0.0,-0.0338994140625,0.0,0.0,0.0,0.0,0.0,0.0,-0.3549361392366065,0.0,0.0,0.0,0.0,0.0,0.0,-0.064
39,0.0,0.0,0.0,0.0,0.0,0.0,-0.0338994140625,0.0,0.0,0.0,0.0,0.0,0.0,-0.3549361392366065,0.0,0.0,0.0,0.0,0.0,0.0,-0.064
40,0.0,0.0,0.0,0.0,0.0,0.0,-0.0402509765625,0.0,0.0,0.0,0.0,0.0,0.0,-0.3549361392366065,0.0,0.0,0.0,0.0,0.0,0.0,-0.128
41,0.0,0.0,0.0,0.0,0.0,0.0,-0.046203125,0.0,0.0,0.0,0.0,0.0,0.0,-0.3549361392366065,0.0,0.0,0.0,0.0,0.0,0.0,-0.084
42,0.0,0.0,0.0,0.0,0.0,0.0,-0.05339453125,0.0,0.0,0.0,0.0,0.0,0.0,-0.3549361392366065,0.0,0.0,0.0,0.0,0.0,0.0,-0.128
43,0.0,0.0,0.0,0.0,0.0,0.0,-0.0624189453125,0.0,0.0,0.0,0.0,0.0,0.0,-0.3549361392366065,0.0,0.0,0.0,0.0,0.0,0.0,-0.096
44,0.0,0.0,0.0,0.0,0.0,0.0,-0.0722705078125,0.0,0.0,0.0,0.0,0.0,0.0,-0.3549361392366065,0.0,0.0,0.0,0.0,0.0,0.0,-0.012
45,0.0,0.0,0.0,0.0,0.0,0.0,-0.0827412109375,0.0,0.0,0.0,0.0,0.0,0.0,-0.3549361392366065,0.0,0.0,0.0,0.0,0.0,0.0,0.004
46,0.0,0.0,0.0,0.0,0.0,0.0,-0.09505859375,0.0,0.0,0.0,0.0,0.0,0.0,-0.3549361392366065,0.0,0.0,0.0,0.0,0.0,0.0,-0.168
47,0.0,0.0,0.0,0.0,0.0,0.0,-0.1104609375,0.0,0.0,0.0,0.0,0.0,0.0,-0.3549361392366065,0.0,0.0,0.0,0.0,0.0,0.0,-0.148
48,0.0,0.0,0.0,0.0,0.0,0.0,-0.1250498046875,0.0,0.0,0.0,0.0,0.0,0.0,-0.3549361392366065,0.0,0.0,0.0,0.0,0.0,0.0,-0.084
49,0.0,0.0,0.0,0.0,0.0,0.0,-0.1410595703125,0.0,0.0,0.0,0.0,0.0,0.0,-0.3549361392366065,0.0,0.0,0.0,0.0,0.0,0.0,-0.18
50,0.0,0.0,0.0,0.0,0.0,0.0,-0.1582958984375,0.0,0.0,0.0,0.0,0.0,0.0,-0.3549361392366065,0.0,0.0,0.0,0.0,0.0,0.0,0.108
51,0.0,0.0,0.0,0.0,0.0,0.0,-0.1740986328125,0.0,0.0,0.0,0.0,0.0,0.0,-0.3549361392366065,0.0,0.0,0.0,0.0,0.0,0.0,-0.104
52,0.0,0.0,0.0,0.0,0.0,0.0,-0.1913349609375,0.0,0.0,0.0,0.0,0.0,0.0,-0.3549361392366065,0.0,0.0,0.0,0.0,0.0,0.0,-0.224
53,0.0,0.0,0.0,0.0,0.0,0.0,-0.20755078125,0.0,0.0,0.0,0.0,0.0,0.0,-0.3549361392366065,0.0,0.0,0.0,0.0,0.0,0.0,-0.076
54,0.0,0.0,0.0,0.0,0.0,0.0,-0.222333984375,0.0,0.0,0.0,0.0,0.0,0.0,-0.3549361392366065,0.0,0.0,0.0,0.0,0.0,0.0,-0.108
55,0.0,0.0,0.0,0.0,0.0,0.0,-0.238744140625,0.0,0.0,0.0,0.0,0.0,0.0,-0.3549361392366065,0.0,0.0,0.0,0.0,0.0,0.0,-0.16
56,0.0,0.0,0.0,0.0,0.0,0.0,-0.25230078125,0.0,0.0,0.0,0.0,0.0,0.0,-0.3549361392366065,0.0,0.0,0.0,0.0,0.0,0.0,0.036
57,0.0,0.0,0.0,0.0,0.0,0.0,-0.265017578125,0.0,0.0,0.0,0.0,0.0,0.0,-0.3549361392366065,0.0,0.0,0.0,0.0,0.0,0.0,-0.168
58,0.0,0.0,0.0,0.0,0.0,0.0,-0.278974609375,0.0,0.0,0.0,0.0,0.0,0.0,-0.3549361392366065,0.0,0.0,0.0,0.0,0.0,0.0,-0.188
59,0.0,0.0,0.0,0.0,0.0,0.0,-0.2917177734375,0.0,0.0,0.0,0.0,0.0,0.0,-0.3549361392366065,0.0,0.0,0.0,0.0,0.0,0.0,-0.044
60,0.0,0.0,0.0,0.0,0.0,0.0,-0.303001953125,0.0,0.0,0.0,0.0,0.0,0.0,-0.3549361392366065,0.0,0.0,0.0,0.0,0.0,0.0,-0.108
61,0.0,0.0,0.0,0.0,0.0,0.0,-0.3151123046875,0.0,0.0,0.0,0.0,0.0,0.0,-0.3549361392366065,0.0,0.0,0.0,0.0,0.0,0.0,-0.148
62,0.0,0.0,0.0,0.0,0.0,0.0,-0.328048828125,0.0,0.0,0.0,0.0,0.0,0.0,0.2982181253289613,0.0,0.0,0.0,0.0,0.0,0.0,-0.016
63,0.0,0.0,0.0,0.0,0.0,0.0,-0.33974609375,0.0,0.0,0.0,0.0,0.0,0.0,0.2982181253289613,0.0,0.0,0.0,0.0,0.0,0.0,-0.036
64,0.0,0.0,0.0,0.0,0.0,0.0,-0.350423828125,0.0,0.0,0.0,0.0,0.0,0.0,0.2982181253289613,0.0,0.0,0.0,0.0,0.0,0.0,-0.16
65,0.0,0.0,0.0,0.0,0.0,0.0,-0.3557685546875,0.0,0.0,0.0,0.0,0.0,0.0,0.2982181253289613,0.0,0.0,0.0,0.0,0.0,0.0,-0.108
66,0.0,0.0,0.0,0.0,0.0,0.0,-0.354736328125,0.0,0.0,0.0,0.0,0.0,0.0,0.2982181253289613,0.0,0.0,0.0,0.0,0.0,0.0,-0.024
67,0.0,0.0,0.0,0.0,0.0,0.0,-0.3506298828125,0.0,0.0,0.0,0.0,0.0,0.0,0.2982181253289613,0.0,0.0,0.0,0.0,0.0,0.0,0.004
68,0.0,0.0,0.0,0.0,0.0,0.0,-0.3432451171875,0.0,0.0,0.0,0.0,0.0,0.0,0.2982181253289613,0.0,0.0,0.0,0.0,0.0,0.0,0.096
69,0.0,0.0,0.0,0.0,0.0,0.0,-0.3325673828125,0.0,0.0,0.0,0.0,0.0,0.0,0.2982181253289613,0.0,0.0,0.0,0.0,0.0,0.0,0.232
70,0.0,0.0,0.0,0.0,0.0,0.0,-0.3167646484375,0.0,0.0,0.0,0.0,0.0,0.0,0.2982181253289613,0.0,0.0,0.0,0.0,0.0,0.0,0.128
71,0.0,0.0,0.0,0.0,0.0,0.0,-0.29849609375,0.0,0.0,0.0,0.0,0.0,0.0,0.2982181253289613,0.0,0.0,0.0,0.0,0.0,0.0,0.156
72,0.0,0.0,0.0,0.0,0.0,0.0,-0.2781611328125,0.0,0.0,0.0,0.0,0.0,0.0,0.2982181253289613,0.0,0.0,0.0,0.0,0.0,0.0,0.208
73,0.0,0.0,0.0,0.0,0.0,0.0,-0.254353515625,0.0,0.0,0.0,0.0,0.0,0.0,0.2982181253289613,0.0,0.0,0.0,0.0,0.0,0.0,0.076
74,0.0,0.0,0.0,0.0,0.0,0.0,-0.2280791015625,0.0,0.0,0.0,0.0,0.0,0.0,0.2982181253289613,0.0,0.0,0.0,0.0,0.0,0.0,0.296
75,0.0,0.0,0.0,0.0,0.0,0.0,-0.2018056640625,0.0,0.0,0.0,0.0,0.0,0.0,0.2982181253289613,0.0,0.0,0.0,0.0,0.0,0.0,0.128
76,0.0,0.0,0.0,0.0,0.0,0.0,-0.1740986328125,0.0,0.0,0.0,0.0,0.0,0.0,0.2982181253289613,0.0,0.0,0.0,0.0,0.0,0.0,-0.068
77,0.0,0.0,0.0,0.0,0.0,0.0,-0.14946484375,0.0,0.0,0.0,0.0,0.0,0.0,0.2982181253289613,0.0,0.0,0.0,0.0,0.0,0.0,0.292
78,0.0,0.0,0.0,0.0,0.0,0.0,-0.1244306640625,0.0,0.0,0.0,0.0,0.0,0.0,0.2982181253289613,0.0,0.0,0.0,0.0,0.0,0.0,0.168
79,0.0,0.0,0.0,0.0,0.0,0.0,-0.1030625,0.0,0.0,0.0,0.0,0.0,0.0,0.2982181253289613,0.0,0.0,0.0,0.0,0.0,0.0,0.116
80,0.0,0.0,0.0,0.0,0.0,0.0,-0.0833603515625,0.0,0.0,0.0,0.0,0.0,0.0,0.2982181253289613,0.0,0.0,0.0,0.0,0.0,0.0,0.056
81,0.0,0.0,0.0,0.0,0.0,0.0,-0.0675576171875,0.0,0.0,0.0,0.0,0.0,0.0,0.2982181253289613,0.0,0.0,0.0,0.0,0.0,0.0,0.384
82,0.0,0.0,0.0,0.0,0.0,0.0,-0.052568359375,0.0,0.0,0.0,0.0,0.0,0.0,0.2982181253289613,0.0,0.0,0.0,0.0,0.0,0.0,0.084
83,0.0,0.0,0.0,0.0,0.0,0.0,-0.04087109375,0.0,0.0,0.0,0.0,0.0,0.0,0.2982181253289613,0.0,0.0,0.0,0.0,0.0,0.0,0.084
84,0.0,0.0,0.0,0.0,0.0,0.0,-0.0316396484375,0.0,0.0,0.0,0.0,0.0,0.0,0.2982181253289613,0.0,0.0,0.0,0.0,0.0,0.0,0.18
85,0.0,0.0,0.0,0.0,0.0,0.0,-0.023634765625,0.0,0.0,0.0,0.0,0.0,0.0,0.2982181253289613,0.0,0.0,0.0,0.0,0.0,0.0,0.168
86,0.0,0.0,0.0,0.0,0.0,0.0,-0.01604296875,0.0,0.0,0.0,0.0,0.0,0.0,0.2982181253289613,0.0,0.0,0.0,0.0,0.0,0.0,0.068
87,0.0,0.0,0.0,0.0,0.0,0.0,-0.0086455078125,0.0,0.0,0.0,0.0,0.0,0.0,0.2982181253289613,0.0,0.0,0.0,0.0,0.0,0.0,0.088
88,0.0,0.0,0.0,0.0,0.0,0.0,-0.0018798828125,0.0,0.0,0.0,0.0,0.0,0.0,0.2982181253289613,0.0,0.0,0.0,0.0,0.0,0.0,0.088
89,0.0,0.0,0.0,0.0,0.0,0.0,0.0051044921875,0.0,0.0,0.0,0.0,0.0,0.0,0.2982181253289613,0.0,0.0,0.0,0.0,0.0,0.0,0.136
90,0.0,0.0,0.0,0.0,0.0,0.0,0.01331640625,0.0,0.0,0.0,0.0,0.0,0.0,0.2982181253289613,0.0,0.0,0.0,0.0,0.0,0.0,0.252
91,0.0,0.0,0.0,0.0,0.0,0.0,0.0223408203125,0.0,0.0,0.0,0.0,0.0,0.0,0.2982181253289613,0.0,0.0,0.0,0.0,0.0,0.0,0.168
92,0.0,0.0,0.0,0.0,0.0,0.0,0.03383203125,0.0,0.0,0.0,0.0,0.0,0.0,0.2982181253289613,0.0,0.0,0.0,0.0,0.0,0.0,0.024
93,0.0,0.0,0.0,0.0,0.0,0.0,0.0461484375,0.0,0.0,0.0,0.0,0.0,0.0,0.2982181253289613,0.0,0.0,0.0,0.0,0.0,0.0,0.116
94,0.0,0.0,0.0,0.0,0.0,0.0,0.058259765625,0.0,0.0,0.0,0.0,0.0,0.0,0.2982181253289613,0.0,0.0,0.0,0.0,0.0,0.0,0.14
95,0.0,0.0,0.0,0.0,0.0,0.0,0.0730556640625,0.0,0.0,0.0,0.0,0.0,0.0,0.2982181253289613,0.0,0.0,0.0,0.0,0.0,0.0,0.056
96,0.0,0.0,0.0,0.0,0.0,0.0,0.0886513671875,0.0,0.0,0.0,0.0,0.0,0.0,0.2982181253289613,0.0,0.0,0.0,0.0,0.0,0.0,0.18
97,0.0,0.0,0.0,0.0,0.0,0.0,0.1034345703125,0.0,0.0,0.0,0.0,0.0,0.0,0.2982181253289613,0.0,0.0,0.0,0.0,0.0,0.0,0.224
98,0.0,0.0,0.0,0.0,0.0,0.0,0.1202705078125,0.0,0.0,0.0,0.0,0.0,0.0,0.2982181253289613,0.0,0.0,0.0,0.0,0.0,0.0,0.064
99,0.0,0.0,0.0,0.0,0.0,0.0,0.1366806640625,0.0,0.0,0.0,0.0,0.0,0.0,0.2982181253289613,0.0,0.0,0.0,0.0,0.0,0.0,0.108
100,0.0,0.0,0.0,0.0,0.0,0.0,0.15249609375,0.0,0.0,0.0,0.0,0.0,0.0,0.2982181253289613,0.0,0.0,0.0,0.0,0.0,0.0,0.14
101,0.0,0.0,0.0,0.0,0.0,0.0,0.169732421875,0.0,0.0,0.0,0.0,0.0,0.0,0.2982181253289613,0.0,0.0,0.0,0.0,0.0,0.0,0.024
102,0.0,0.0,0.0,0.0,0.0,0.0,0.185134765625,0.0,0.0,0.0,0.0,0.0,0.0,0.2982181253289613,0.0,0.0,0.0,0.0,0.0,0.0,0.14
103,0.0,0.0,0.0,0.0,0.0,0.0,0.2007314453125,0.0,0.0,0.0,0.0,0.0,0.0,0.2982181253289613,0.0,0.0,0.0,0.0,0.0,0.0,0.2
104,0.0,0.0,0.0,0.0,0.0,0.0,0.2163408203125,0.0,0.0,0.0,0.0,0.0,0.0,0.2982181253289613,0.0,0.0,0.0,0.0,0.0,0.0,0.064
105,0.0,0.0,0.0,0.0,0.0,0.0,0.23050390625,0.0,0.0,0.0,0.0,0.0,0.0,0.2982181253289613,0.0,0.0,0.0,0.0,0.0,0.0,0.2
106,0.0,0.0,0.0,0.0,0.0,0.0,0.24466796875,0.0,0.0,0.0,0.0,0.0,0.0,0.2982181253289613,0.0,0.0,0.0,0.0,0.0,0.0,0.084
107,0.0,0.0,0.0,0.0,0.0,0.0,0.25863671875,0.0,0.0,0.0,0.0,0.0,0.0,0.2982181253289613,0.0,0.0,0.0,0.0,0.0,0.0,0.056
108,0.0,0.0,0.0,0.0,0.0,0.0,0.271173828125,0.0,0.0,0.0,0.0,0.0,0.0,-0.23839607531757365,0.0,0.0,0.0,0.0,0.0,0.0,0.244
109,0.0,0.0,0.0,0.0,0.0,0.0,0.283490234375,0.0,0.0,0.0,0.0,0.0,0.0,-0.23839607531757365,0.0,0.0,0.0,0.0,0.0,0.0,0.208
110,0.0,0.0,0.0,0.0,0.0,0.0,0.2958076171875,0.0,0.0,0.0,0.0,0.0,0.0,-0.23839607531757365,0.0,0.0,0.0,0.0,0.0,0.0,0.044
111,0.0,0.0,0.0,0.0,0.0,0.0,0.3017724609375,0.0,0.0,0.0,0.0,0.0,0.0,-0.23839607531757365,0.0,0.0,0.0,0.0,0.0,0.0,0.064
112,0.0,0.0,0.0,0.0,0.0,0.0,0.301359375,0.0,0.0,0.0,0.0,0.0,0.0,-0.23839607531757365,0.0,0.0,0.0,0.0,0.0,0.0,0.012
113,0.0,0.0,0.0,0.0,0.0,0.0,0.29725390625,0.0,0.0,0.0,0.0,0.0,0.0,-0.23839607531757365,0.0,0.0,0.0,0.0,0.0,0.0,-0.064
114,0.0,0.0,0.0,0.0,0.0,0.0,0.2894423828125,0.0,0.0,0.0,0.0,0.0,0.0,-0.23839607531757365,0.0,0.0,0.0,0.0,0.0,0.0,-0.084
115,0.0,0.0,0.0,0.0,0.0,0.0,0.2777451171875,0.0,0.0,0.0,0.0,0.0,0.0,-0.23839607531757365,0.0,0.0,0.0,0.0,0.0,0.0,-0.052
116,0.0,0.0,0.0,0.0,0.0,0.0,0.2633623046875,0.0,0.0,0.0,0.0,0.0,0.0,-0.23839607531757365,0.0,0.0,0.0,0.0,0.0,0.0,-0.004
117,0.0,0.0,0.0,0.0,0.0,0.0,0.245287109375,0.0,0.0,0.0,0.0,0.0,0.0,-0.23839607531757365,0.0,0.0,0.0,0.0,0.0,0.0,-0.128
118,0.0,0.0,0.0,0.0,0.0,0.0,0.224552734375,0.0,0.0,0.0,0.0,0.0,0.0,-0.23839607531757365,0.0,0.0,0.0,0.0,0.0,0.0,-0.004
119,0.0,0.0,0.0,0.0,0.0,0.0,0.2003310546875,0.0,0.0,0.0,0.0,0.0,0.0,-0.23839607531757365,0.0,0.0,0.0,0.0,0.0,0.0,-0.292
120,0.0,0.0,0.0,0.0,0.0,0.0,0.1756845703125,0.0,0.0,0.0,0.0,0.0,0.0,-0.23839607531757365,0.0,0.0,0.0,0.0,0.0,0.0,0.128
121,0.0,0.0,0.0,0.0,0.0,0.0,0.14818359375,0.0,0.0,0.0,0.0,0.0,0.0,-0.23839607531757365,0.0,0.0,0.0,0.0,0.0,0.0,-0.208
122,0.0,0.0,0.0,0.0,0.0,0.0,0.1227236328125,0.0,0.0,0.0,0.0,0.0,0.0,-0.23839607531757365,0.0,0.0,0.0,0.0,0.0,0.0,-0.128
123,0.0,0.0,0.0,0.0,0.0,0.0,0.09686328125,0.0,0.0,0.0,0.0,0.0,0.0,-0.23839607531757365,0.0,0.0,0.0,0.0,0.0,0.0,0.088
124,0.0,0.0,0.0,0.0,0.0,0.0,0.072435546875,0.0,0.0,0.0,0.0,0.0,0.0,-0.23839607531757365,0.0,0.0,0.0,0.0,0.0,0.0,-0.22
125,0.0,0.0,0.0,0.0,0.0,0.0,0.049234375,0.0,0.0,0.0,0.0,0.0,0.0,-0.23839607531757365,0.0,0.0,0.0,0.0,0.0,0.0,-0.032
126,0.0,0.0,0.0,0.0,0.0,0.0,0.0278798828125,0.0,0.0,0.0,0.0,0.0,0.0,-0.23839607531757365,0.0,0.0,0.0,0.0,0.0,0.0,-0.12
127,0.0,0.0,0.0,0.0,0.0,0.0,0.00900390625,0.0,0.0,0.0,0.0,0.0,0.0,-0.23839607531757365,0.0,0.0,0.0,0.0,0.0,0.0,0.2
128,0.0,0.0,0.0,0.0,0.0,0.0,-0.007625,0.0,0.0,0.0,0.0,0.0,0.0,-0.23839607531757365,0.0,0.0,0.0,0.0,0.0,0.0,-0.212
129,0.0,0.0,0.0,0.0,0.0,0.0,-0.0232216796875,0.0,0.0,0.0,0.0,0.0,0.0,-0.23839607531757365,0.0,0.0,0.0,0.0,0.0,0.0,-0.172
130,0.0,0.0,0.0,0.0,0.0,0.0,-0.0351259765625,0.0,0.0,0.0,0.0,0.0,0.0,-0.23839607531757365,0.0,0.0,0.0,0.0,0.0,0.0,0.052
131,0.0,0.0,0.0,0.0,0.0,0.0,-0.04599609375,0.0,0.0,0.0,0.0,0.0,0.0,-0.23839607531757365,0.0,0.0,0.0,0.0,0.0,0.0,-0.156
132,0.0,0.0,0.0,0.0,0.0,0.0,-0.055447265625,0.0,0.0,0.0,0.0,0.0,0.0,-0.23839607531757365,0.0,0.0,0.0,0.0,0.0,0.0,-0.136
133,0.0,0.0,0.0,0.0,0.0,0.0,-0.0644716796875,0.0,0.0,0.0,0.0,0.0,0.0,-0.23839607531757365,0.0,0.0,0.0,0.0,0.0,0.0,-0.012
134,0.0,0.0,0.0,0.0,0.0,0.0,-0.0720634765625,0.0,0.0,0.0,0.0,0.0,0.0,-0.23839607531757365,0.0,0.0,0.0,0.0,0.0,0.0,0.064
135,0.0,0.0,0.0,0.0,0.0,0.0,-0.078841796875,0.0,0.0,0.0,0.0,0.0,0.0,-0.23839607531757365,0.0,0.0,0.0,0.0,0.0,0.0,0.004
136,0.0,0.0,0.0,0.0,0.0,0.0,-0.0856201171875,0.0,0.0,0.0,0.0,0.0,0.0,-0.23839607531757365,0.0,0.0,0.0,0.0,0.0,0.0,-0.056
137,0.0,0.0,0.0,0.0,0.0,0.0,-0.09341796875,0.0,0.0,0.0,0.0,0.0,0.0,-0.23839607531757365,0.0,0.0,0.0,0.0,0.0,0.0,-0.14
138,0.0,0.0,0.0,0.0,0.0,0.0,-0.102236328125,0.0,0.0,0.0,0.0,0.0,0.0,-0.23839607531757365,0.0,0.0,0.0,0.0,0.0,0.0,-0.16
139,0.0,0.0,0.0,0.0,0.0,0.0,-0.1116875,0.0,0.0,0.0,0.0,0.0,0.0,-0.23839607531757365,0.0,0.0,0.0,0.0,0.0,0.0,-0.036
140,0.0,0.0,0.0,0.0,0.0,0.0,-0.1215517578125,0.0,0.0,0.0,0.0,0.0,0.0,-0.23839607531757365,0.0,0.0,0.0,0.0,0.0,0.0,-0.128
141,0.0,0.0,0.0,0.0,0.0,0.0,-0.1320224609375,0.0,0.0,0.0,0.0,0.0,0.0,-0.23839607531757365,0.0,0.0,0.0,0.0,0.0,0.0,-0.056
142,0.0,0.0,0.0,0.0,0.0,0.0,-0.1445458984375,0.0,0.0,0.0,0.0,0.0,0.0,-0.23839607531757365,0.0,0.0,0.0,0.0,0.0,0.0,-0.116
143,0.0,0.0,0.0,0.0,0.0,0.0,-0.1582958984375,0.0,0.0,0.0,0.0,0.0,0.0,-0.23839607531757365,0.0,0.0,0.0,0.0,0.0,0.0,0.0
144,0.0,0.0,0.0,0.0,0.0,0.0,-0.1714267578125,0.0,0.0,0.0,0.0,0.0,0.0,-0.23839607531757365,0.0,0.0,0.0,0.0,0.0,0.0,-0.056
145,0.0,0.0,0.0,0.0,0.0,0.0,-0.1857958984375,0.0,0.0,0.0,0.0,0.0,0.0,-0.23839607531757365,0.0,0.0,0.0,0.0,0.0,0.0,-0.128
146,0.0,0.0,0.0,0.0,0.0,0.0,-0.2020126953125,0.0,0.0,0.0,0.0,0.0,0.0,-0.23839607531757365,0.0,0.0,0.0,0.0,0.0,0.0,-0.076
147,0.0,0.0,0.0,0.0,0.0,0.0,-0.2169892578125,0.0,0.0,0.0,0.0,0.0,0.0,0.3065598180836996,0.0,0.0,0.0,0.0,0.0,0.0,-0.128
148,0.0,0.0,0.0,0.0,0.0,0.0,-0.2329990234375,0.0,0.0,0.0,0.0,0.0,0.0,0.3065598180836996,0.0,0.0,0.0,0.0,0.0,0.0,-0.088
149,0.0,0.0,0.0,0.0,0.0,0.0,-0.247162109375,0.0,0.0,0.0,0.0,0.0,0.0,0.3065598180836996,0.0,0.0,0.0,0.0,0.0,0.0,-0.012
150,0.0,0.0,0.0,0.0,0.0,0.0,-0.25475390625,0.0,0.0,0.0,0.0,0.0,0.0,0.3065598180836996,0.0,0.0,0.0,0.0,0.0,0.0,0.024
151,0.0,0.0,0.0,0.0,0.0,0.0,-0.256806640625,0.0,0.0,0.0,0.0,0.0,0.0,0.3065598180836996,0.0,0.0,0.0,0.0,0.0,0.0,-0.016
152,0.0,0.0,0.0,0.0,0.0,0.0,-0.255580078125,0.0,0.0,0.0,0.0,0.0,0.0,0.3065598180836996,0.0,0.0,0.0,0.0,0.0,0.0,0.084
153,0.0,0.0,0.0,0.0,0.0,0.0,-0.2510615234375,0.0,0.0,0.0,0.0,0.0,0.0,0.3065598180836996,0.0,0.0,0.0,0.0,0.0,0.0,0.16
154,0.0,0.0,0.0,0.0,0.0,0.0,-0.242849609375,0.0,0.0,0.0,0.0,0.0,0.0,0.3065598180836996,0.0,0.0,0.0,0.0,0.0,0.0,0.26
155,0.0,0.0,0.0,0.0,0.0,0.0,-0.2297197265625,0.0,0.0,0.0,0.0,0.0,0.0,0.3065598180836996,0.0,0.0,0.0,0.0,0.0,0.0,0.168
156,0.0,0.0,0.0,0.0,0.0,0.0,-0.213916015625,0.0,0.0,0.0,0.0,0.0,0.0,0.3065598180836996,0.0,0.0,0.0,0.0,0.0,0.0,0.14
157,0.0,0.0,0.0,0.0,0.0,0.0,-0.196060546875,0.0,0.0,0.0,0.0,0.0,0.0,0.3065598180836996,0.0,0.0,0.0,0.0,0.0,0.0,0.168
158,0.0,0.0,0.0,0.0,0.0,0.0,-0.173685546875,0.0,0.0,0.0,0.0,0.0,0.0,0.3065598180836996,0.0,0.0,0.0,0.0,0.0,0.0,0.016
159,0.0,0.0,0.0,0.0,0.0,0.0,-0.150498046875,0.0,0.0,0.0,0.0,0.0,0.0,0.3065598180836996,0.0,0.0,0.0,0.0,0.0,0.0,0.336
160,0.0,0.0,0.0,0.0,0.0,0.0,-0.124017578125,0.0,0.0,0.0,0.0,0.0,0.0,0.3065598180836996,0.0,0.0,0.0,0.0,0.0,0.0,0.076
161,0.0,0.0,0.0,0.0,0.0,0.0,-0.0966982421875,0.0,0.0,0.0,0.0,0.0,0.0,0.3065598180836996,0.0,0.0,0.0,0.0,0.0,0.0,0.156
162,0.0,0.0,0.0,0.0,0.0,0.0,-0.0708369140625,0.0,0.0,0.0,0.0,0.0,0.0,0.3065598180836996,0.0,0.0,0.0,0.0,0.0,0.0,0.244
163,0.0,0.0,0.0,0.0,0.0,0.0,-0.0435439453125,0.0,0.0,0.0,0.0,0.0,0.0,0.3065598180836996,0.0,0.0,0.0,0.0,0.0,0.0,-0.052
164,0.0,0.0,0.0,0.0,0.0,0.0,-0.0182900390625,0.0,0.0,0.0,0.0,0.0,0.0,0.3065598180836996,0.0,0.0,0.0,0.0,0.0,0.0,0.276
165,0.0,0.0,0.0,0.0,0.0,0.0,0.0065380859375,0.0,0.0,0.0,0.0,0.0,0.0,0.3065598180836996,0.0,0.0,0.0,0.0,0.0,0.0,0.16
166,0.0,0.0,0.0,0.0,0.0,0.0,0.0287060546875,0.0,0.0,0.0,0.0,0.0,0.0,0.3065598180836996,0.0,0.0,0.0,0.0,0.0,0.0,0.096
167,0.0,0.0,0.0,0.0,0.0,0.0,0.0496474609375,0.0,0.0,0.0,0.0,0.0,0.0,0.3065598180836996,0.0,0.0,0.0,0.0,0.0,0.0,0.116
168,0.0,0.0,0.0,0.0,0.0,0.0,0.0673095703125,0.0,0.0,0.0,0.0,0.0,0.0,0.3065598180836996,0.0,0.0,0.0,0.0,0.0,0.0,0.104
169,0.0,0.0,0.0,0.0,0.0,0.0,0.08433984375,0.0,0.0,0.0,0.0,0.0,0.0,0.3065598180836996,0.0,0.0,0.0,0.0,0.0,0.0,0.032
170,0.0,0.0,0.0,0.0,0.0,0.0,0.09808984375,0.0,0.0,0.0,0.0,0.0,0.0,0.3065598180836996,0.0,0.0,0.0,0.0,0.0,0.0,0.26
171,0.0,0.0,0.0,0.0,0.0,0.0,0.1095927734375,0.0,0.0,0.0,0.0,0.0,0.0,0.3065598180836996,0.0,0.0,0.0,0.0,0.0,0.0,0.136
172,0.0,0.0,0.0,0.0,0.0,0.0,0.1206708984375,0.0,0.0,0.0,0.0,0.0,0.0,0.3065598180836996,0.0,0.0,0.0,0.0,0.0,0.0,0.024
173,0.0,0.0,0.0,0.0,0.0,0.0,0.1301220703125,0.0,0.0,0.0,0.0,0.0,0.0,0.3065598180836996,0.0,0.0,0.0,0.0,0.0,0.0,0.188
174,0.0,0.0,0.0,0.0,0.0,0.0,0.1372998046875,0.0,0.0,0.0,0.0,0.0,0.0,0.3065598180836996,0.0,0.0,0.0,0.0,0.0,0.0,0.076
175,0.0,0.0,0.0,0.0,0.0,0.0,0.144078125,0.0,0.0,0.0,0.0,0.0,0.0,0.3065598180836996,0.0,0.0,0.0,0.0,0.0,0.0,0.16
176,0.0,0.0,0.0,0.0,0.0,0.0,0.1510498046875,0.0,0.0,0.0,0.0,0.0,0.0,0.3065598180836996,0.0,0.0,0.0,0.0,0.0,0.0,0.136
177,0.0,0.0,0.0,0.0,0.0,0.0,0.1584482421875,0.0,0.0,0.0,0.0,0.0,0.0,0.3065598180836996,0.0,0.0,0.0,0.0,0.0,0.0,0.032
178,0.0,0.0,0.0,0.0,0.0,0.0,0.16624609375,0.0,0.0,0.0,0.0,0.0,0.0,0.3065598180836996,0.0,0.0,0.0,0.0,0.0,0.0,0.076
179,0.0,0.0,0.0,0.0,0.0,0.0,0.1744580078125,0.0,0.0,0.0,0.0,0.0,0.0,0.3065598180836996,0.0,0.0,0.0,0.0,0.0,0.0,0.136
180,0.0,0.0,0.0,0.0,0.0,0.0,0.1826689453125,0.0,0.0,0.0,0.0,0.0,0.0,0.3065598180836996,0.0,0.0,0.0,0.0,0.0,0.0,0.18
181,0.0,0.0,0.0,0.0,0.0,0.0,0.1923134765625,0.0,0.0,0.0,0.0,0.0,0.0,0.3065598180836996,0.0,0.0,0.0,0.0,0.0,0.0,0.312
182,0.0,0.0,0.0,0.0,0.0,0.0,0.2038173828125,0.0,0.0,0.0,0.0,0.0,0.0,0.3065598180836996,0.0,0.0,0.0,0.0,0.0,0.0,0.068
183,0.0,0.0,0.0,0.0,0.0,0.0,0.216134765625,0.0,0.0,0.0,0.0,0.0,0.0,0.3065598180836996,0.0,0.0,0.0,0.0,0.0,0.0,0.108
184,0.0,0.0,0.0,0.0,0.0,0.0,0.2288642578125,0.0,0.0,0.0,0.0,0.0,0.0,0.3065598180836996,0.0,0.0,0.0,0.0,0.0,0.0,0.18
185,0.0,0.0,0.0,0.0,0.0,0.0,0.2428212890625,0.0,0.0,0.0,0.0,0.0,0.0,0.3065598180836996,0.0,0.0,0.0,0.0,0.0,0.0,0.104
186,0.0,0.0,0.0,0.0,0.0,0.0,0.2582236328125,0.0,0.0,0.0,0.0,0.0,0.0,0.3065598180836996,0.0,0.0,0.0,0.0,0.0,0.0,0.056
187,0.0,0.0,0.0,0.0,0.0,0.0,0.2732265625,0.0,0.0,0.0,0.0,0.0,0.0,-0.5939279343859386,0.0,0.0,0.0,0.0,0.0,0.0,0.316
188,0.0,0.0,0.0,0.0,0.0,0.0,0.2894423828125,0.0,0.0,0.0,0.0,0.0,0.0,-0.5939279343859386,0.0,0.0,0.0,0.0,0.0,0.0,0.18
189,0.0,0.0,0.0,0.0,0.0,0.0,0.304638671875,0.0,0.0,0.0,0.0,0.0,0.0,-0.5939279343859386,0.0,0.0,0.0,0.0,0.0,0.0,0.076
190,0.0,0.0,0.0,0.0,0.0,0.0,0.3142958984375,0.0,0.0,0.0,0.0,0.0,0.0,-0.5939279343859386,0.0,0.0,0.0,0.0,0.0,0.0,0.156
191,0.0,0.0,0.0,0.0,0.0,0.0,0.31840234375,0.0,0.0,0.0,0.0,0.0,0.0,-0.5939279343859386,0.0,0.0,0.0,0.0,0.0,0.0,0.108
192,0.0,0.0,0.0,0.0,0.0,0.0,0.31840234375,0.0,0.0,0.0,0.0,0.0,0.0,-0.5939279343859386,0.0,0.0,0.0,0.0,0.0,0.0,0.096
193,0.0,0.0,0.0,0.0,0.0,0.0,0.314708984375,0.0,0.0,0.0,0.0,0.0,0.0,-0.5939279343859386,0.0,0.0,0.0,0.0,0.0,0.0,-0.044
194,0.0,0.0,0.0,0.0,0.0,0.0,0.307517578125,0.0,0.0,0.0,0.0,0.0,0.0,-0.5939279343859386,0.0,0.0,0.0,0.0,0.0,0.0,-0.116
195,0.0,0.0,0.0,0.0,0.0,0.0,0.296220703125,0.0,0.0,0.0,0.0,0.0,0.0,-0.5939279343859386,0.0,0.0,0.0,0.0,0.0,0.0,-0.104
196,0.0,0.0,0.0,0.0,0.0,0.0,0.28041796875,0.0,0.0,0.0,0.0,0.0,0.0,-0.5939279343859386,0.0,0.0,0.0,0.0,0.0,0.0,-0.12
197,0.0,0.0,0.0,0.0,0.0,0.0,0.26294921875,0.0,0.0,0.0,0.0,0.0,0.0,-0.5939279343859386,0.0,0.0,0.0,0.0,0.0,0.0,-0.068
198,0.0,0.0,0.0,0.0,0.0,0.0,0.24180078125,0.0,0.0,0.0,0.0,0.0,0.0,-0.5939279343859386,0.0,0.0,0.0,0.0,0.0,0.0,-0.108
199,0.0,0.0,0.0,0.0,0.0,0.0,0.2186005859375,0.0,0.0,0.0,0.0,0.0,0.0,-0.5939279343859386,0.0,0.0,0.0,0.0,0.0,0.0,-0.188
200,0.0,0.0,0.0,0.0,0.0,0.0,0.1919130859375,0.0,0.0,0.0,0.0,0.0,0.0,-0.5939279343859386,0.0,0.0,0.0,0.0,0.0,0.0,-0.12
201,0.0,0.0,0.0,0.0,0.0,0.0,0.1666591796875,0.0,0.0,0.0,0.0,0.0,0.0,-0.5939279343859386,0.0,0.0,0.0,0.0,0.0,0.0,-0.044
202,0.0,0.0,0.0,0.0,0.0,0.0,0.1393525390625,0.0,0.0,0.0,0.0,0.0,0.0,-0.5939279343859386,0.0,0.0,0.0,0.0,0.0,0.0,-0.012
203,0.0,0.0,0.0,0.0,0.0,0.0,0.1122529296875,0.0,0.0,0.0,0.0,0.0,0.0,-0.5939279343859386,0.0,0.0,0.0,0.0,0.0,0.0,-0.2
204,0.0,0.0,0.0,0.0,0.0,0.0,0.08721875,0.0,0.0,0.0,0.0,0.0,0.0,-0.5939279343859386,0.0,0.0,0.0,0.0,0.0,0.0,-0.024
205,0.0,0.0,0.0,0.0,0.0,0.0,0.0617451171875,0.0,0.0,0.0,0.0,0.0,0.0,-0.5939279343859386,0.0,0.0,0.0,0.0,0.0,0.0,-0.188
206,0.0,0.0,0.0,0.0,0.0,0.0,0.0404033203125,0.0,0.0,0.0,0.0,0.0,0.0,-0.5939279343859386,0.0,0.0,0.0,0.0,0.0,0.0,-0.032
207,0.0,0.0,0.0,0.0,0.0,0.0,0.018029296875,0.0,0.0,0.0,0.0,0.0,0.0,-0.5939279343859386,0.0,0.0,0.0,0.0,0.0,0.0,-0.172
208,0.0,0.0,0.0,0.0,0.0,0.0,0.0003798828125,0.0,0.0,0.0,0.0,0.0,0.0,-0.5939279343859386,0.0,0.0,0.0,0.0,0.0,0.0,-0.064
209,0.0,0.0,0.0,0.0,0.0,0.0,-0.01604296875,0.0,0.0,0.0,0.0,0.0,0.0,-0.5939279343859386,0.0,0.0,0.0,0.0,0.0,0.0,-0.064
210,0.0,0.0,0.0,0.0,0.0,0.0,-0.0312265625,0.0,0.0,0.0,0.0,0.0,0.0,-0.5939279343859386,0.0,0.0,0.0,0.0,0.0,0.0,-0.156
211,0.0,0.0,0.0,0.0,0.0,0.0,-0.042716796875,0.0,0.0,0.0,0.0,0.0,0.0,-0.5939279343859386,0.0,0.0,0.0,0.0,0.0,0.0,-0.032
212,0.0,0.0,0.0,0.0,0.0,0.0,-0.0531875,0.0,0.0,0.0,0.0,0.0,0.0,-0.5939279343859386,0.0,0.0,0.0,0.0,0.0,0.0,-0.004
213,0.0,0.0,0.0,0.0,0.0,0.0,-0.0632451171875,0.0,0.0,0.0,0.0,0.0,0.0,-0.5939279343859386,0.0,0.0,0.0,0.0,0.0,0.0,-0.068
214,0.0,0.0,0.0,0.0,0.0,0.0,-0.0716630859375,0.0,0.0,0.0,0.0,0.0,0.0,-0.5939279343859386,0.0,0.0,0.0,0.0,0.0,0.0,0.0
215,0.0,0.0,0.0,0.0,0.0,0.0,-0.07822265625,0.0,0.0,0.0,0.0,0.0,0.0,-0.5939279343859386,0.0,0.0,0.0,0.0,0.0,0.0,0.056
216,0.0,0.0,0.0,0.0,0.0,0.0,-0.0847939453125,0.0,0.0,0.0,0.0,0.0,0.0,-0.5939279343859386,0.0,0.0,0.0,0.0,0.0,0.0,-0.084
217,0.0,0.0,0.0,0.0,0.0,0.0,-0.091765625,0.0,0.0,0.0,0.0,0.0,0.0,-0.5939279343859386,0.0,0.0,0.0,0.0,0.0,0.0,-0.116
218,0.0,0.0,0.0,0.0,0.0,0.0,-0.0993701171875,0.0,0.0,0.0,0.0,0.0,0.0,-0.5939279343859386,0.0,0.0,0.0,0.0,0.0,0.0,-0.128
219,0.0,0.0,0.0,0.0,0.0,0.0,-0.108201171875,0.0,0.0,0.0,0.0,0.0,0.0,-0.5939279343859386,0.0,0.0,0.0,0.0,0.0,0.0,-0.128
220,0.0,0.0,0.0,0.0,0.0,0.0,-0.116826171875,0.0,0.0,0.0,0.0,0.0,0.0,-0.5939279343859386,0.0,0.0,0.0,0.0,0.0,0.0,-0.052
221,0.0,0.0,0.0,0.0,0.0,0.0,-0.1262763671875,0.0,0.0,0.0,0.0,0.0,0.0,-0.5939279343859386,0.0,0.0,0.0,0.0,0.0,0.0,-0.108
222,0.0,0.0,0.0,0.0,0.0,0.0,-0.1369541015625,0.0,0.0,0.0,0.0,0.0,0.0,-0.5939279343859386,0.0,0.0,0.0,0.0,0.0,0.0,-0.128
223,0.0,0.0,0.0,0.0,0.0,0.0,-0.1498779296875,0.0,0.0,0.0,0.0,0.0,0.0,-0.5939279343859386,0.0,0.0,0.0,0.0,0.0,0.0,-0.14
224,0.0,0.0,0.0,0.0,0.0,0.0,-0.162814453125,0.0,0.0,0.0,0.0,0.0,0.0,-0.5939279343859386,0.0,0.0,0.0,0.0,0.0,0.0,0.024
225,0.0,0.0,0.0,0.0,0.0,0.0,-0.1755322265625,0.0,0.0,0.0,0.0,0.0,0.0,-0.5939279343859386,0.0,0.0,0.0,0.0,0.0,0.0,-0.096
226,0.0,0.0,0.0,0.0,0.0,0.0,-0.19112890625,0.0,0.0,0.0,0.0,0.0,0.0,-0.5939279343859386,0.0,0.0,0.0,0.0,0.0,0.0,-0.232
227,0.0,0.0,0.0,0.0,0.0,0.0,-0.206724609375,0.0,0.0,0.0,0.0,0.0,0.0,-0.5939279343859386,0.0,0.0,0.0,0.0,0.0,0.0,-0.128
228,0.0,0.0,0.0,0.0,0.0,0.0,-0.2215078125,0.0,0.0,0.0,0.0,0.0,0.0,-0.5939279343859386,0.0,0.0,0.0,0.0,0.0,0.0,-0.016
229,0.0,0.0,0.0,0.0,0.0,0.0,-0.2391572265625,0.0,0.0,0.0,0.0,0.0,0.0,-0.5939279343859386,0.0,0.0,0.0,0.0,0.0,0.0,-0.148
230,0.0,0.0,0.0,0.0,0.0,0.0,-0.2545595703125,0.0,0.0,0.0,0.0,0.0,0.0,-0.5939279343859386,0.0,0.0,0.0,0.0,0.0,0.0,0.012
231,0.0,0.0,0.0,0.0,0.0,0.0,-0.2705693359375,0.0,0.0,0.0,0.0,0.0,0.0,-0.5939279343859386,0.0,0.0,0.0,0.0,0.0,0.0,-0.168
232,0.0,0.0,0.0,0.0,0.0,0.0,-0.28801171875,0.0,0.0,0.0,0.0,0.0,0.0,-0.5939279343859386,0.0,0.0,0.0,0.0,0.0,0.0,-0.084
233,0.0,0.0,0.0,0.0,0.0,0.0,-0.3032080078125,0.0,0.0,0.0,0.0,0.0,0.0,-0.5939279343859386,0.0,0.0,0.0,0.0,0.0,0.0,-0.136
234,0.0,0.0,0.0,0.0,0.0,0.0,-0.3192177734375,0.0,0.0,0.0,0.0,0.0,0.0,-0.5939279343859386,0.0,0.0,0.0,0.0,0.0,0.0,-0.108
235,0.0,0.0,0.0,0.0,0.0,0.0,-0.335240234375,0.0,0.0,0.0,0.0,0.0,0.0,-0.5939279343859386,0.0,0.0,0.0,0.0,0.0,0.0,0.024
236,0.0,0.0,0.0,0.0,0.0,0.0,-0.348990234375,0.0,0.0,0.0,0.0,0.0,0.0,-0.5939279343859386,0.0,0.0,0.0,0.0,0.0,0.0,-0.108
237,0.0,0.0,0.0,0.0,0.0,0.0,-0.3637734375,0.0,0.0,0.0,0.0,0.0,0.0,-0.5939279343859386,0.0,0.0,0.0,0.0,0.0,0.0,-0.168
238,0.0,0.0,0.0,0.0,0.0,0.0,-0.378349609375,0.0,0.0,0.0,0.0,0.0,0.0,-0.5939279343859386,0.0,0.0,0.0,0.0,0.0,0.0,-0.104
239,0.0,0.0,0.0,0.0,0.0,0.0,-0.3908603515625,0.0,0.0,0.0,0.0,0.0,0.0,-0.5939279343859386,0.0,0.0,0.0,0.0,0.0,0.0,-0.108
240,0.0,0.0,0.0,0.0,0.0,0.0,-0.4042109375,0.0,0.0,0.0,0.0,0.0,0.0,-0.5939279343859386,0.0,0.0,0.0,0.0,0.0,0.0,-0.12
241,0.0,0.0,0.0,0.0,0.0,0.0,-0.4179609375,0.0,0.0,0.0,0.0,0.0,0.0,-0.5939279343859386,0.0,0.0,0.0,0.0,0.0,0.0,-0.052
242,0.0,0.0,0.0,0.0,0.0,0.0,-0.4296708984375,0.0,0.0,0.0,0.0,0.0,0.0,-0.5939279343859386,0.0,0.0,0.0,0.0,0.0,0.0,-0.104
243,0.0,0.0,0.0,0.0,0.0,0.0,-0.4413681640625,0.0,0.0,0.0,0.0,0.0,0.0,-0.5939279343859386,0.0,0.0,0.0,0.0,0.0,0.0,-0.14
244,0.0,0.0,0.0,0.0,0.0,0.0,-0.4547177734375,0.0,0.0,0.0,0.0,0.0,0.0,-0.5939279343859386,0.0,0.0,0.0,0.0,0.0,0.0,-0.136
245,0.0,0.0,0.0,0.0,0.0,0.0,-0.46703515625,0.0,0.0,0.0,0.0,0.0,0.0,-0.5939279343859386,0.0,0.0,0.0,0.0,0.0,0.0,-0.108
246,0.0,0.0,0.0,0.0,0.0,0.0,-0.4785390625,0.0,0.0,0.0,0.0,0.0,0.0,-0.5939279343859386,0.0,0.0,0.0,0.0,0.0,0.0,-0.064
247,0.0,0.0,0.0,0.0,0.0,0.0,-0.4914755859375,0.0,0.0,0.0,0.0,0.0,0.0,-0.5939279343859386,0.0,0.0,0.0,0.0,0.0,0.0,-0.16
248,0.0,0.0,0.0,0.0,0.0,0.0,-0.5048125,0.0,0.0,0.0,0.0,0.0,0.0,-0.5939279343859386,0.0,0.0,0.0,0.0,0.0,0.0,-0.032
249,0.0,0.0,0.0,0.0,0.0,0.0,-0.5167294921875,0.0,0.0,0.0,0.0,0.0,0.0,-0.5939279343859386,0.0,0.0,0.0,0.0,0.0,0.0,-0.076
250,0.0,0.0,0.0,0.0,0.0,0.0,-0.529046875,0.0,0.0,0.0,0.0,0.0,0.0,-0.5939279343859386,0.0,0.0,0.0,0.0,0.0,0.0,-0.22
251,0.0,0.0,0.0,0.0,0.0,0.0,-0.5434296875,0.0,0.0,0.0,0.0,0.0,0.0,-0.5939279343859386,0.0,0.0,0.0,0.0,0.0,0.0,-0.128
252,0.0,0.0,0.0,0.0,0.0,0.0,-0.5563662109375,0.0,0.0,0.0,0.0,0.0,0.0,-0.5939279343859386,0.0,0.0,0.0,0.0,0.0,0.0,-0.108
253,0.0,0.0,0.0,0.0,0.0,0.0,-0.5690966796875,0.0,0.0,0.0,0.0,0.0,0.0,0.4428130334428798,0.0,0.0,0.0,0.0,0.0,0.0,-0.116
254,0.0,0.0,0.0,0.0,0.0,0.0,-0.5840859375,0.0,0.0,0.0,0.0,0.0,0.0,0.4428130334428798,0.0,0.0,0.0,0.0,0.0,0.0,-0.076
255,0.0,0.0,0.0,0.0,0.0,0.0,-0.59703515625,0.0,0.0,0.0,0.0,0.0,0.0,0.4428130334428798,0.0,0.0,0.0,0.0,0.0,0.0,0.052
256,0.0,0.0,0.0,0.0,0.0,0.0,-0.6050400390625,0.0,0.0,0.0,0.0,0.0,0.0,0.4428130334428798,0.0,0.0,0.0,0.0,0.0,0.0,-0.052
257,0.0,0.0,0.0,0.0,0.0,0.0,-0.607505859375,0.0,0.0,0.0,0.0,0.0,0.0,0.4428130334428798,0.0,0.0,0.0,0.0,0.0,0.0,-0.16
258,0.0,0.0,0.0,0.0,0.0,0.0,-0.6058662109375,0.0,0.0,0.0,0.0,0.0,0.0,0.4428130334428798,0.0,0.0,0.0,0.0,0.0,0.0,-0.024
259,0.0,0.0,0.0,0.0,0.0,0.0,-0.6009345703125,0.0,0.0,0.0,0.0,0.0,0.0,0.4428130334428798,0.0,0.0,0.0,0.0,0.0,0.0,0.076
260,0.0,0.0,0.0,0.0,0.0,0.0,-0.5925166015625,0.0,0.0,0.0,0.0,0.0,0.0,0.4428130334428798,0.0,0.0,0.0,0.0,0.0,0.0,0.18
261,0.0,0.0,0.0,0.0,0.0,0.0,-0.579154296875,0.0,0.0,0.0,0.0,0.0,0.0,0.4428130334428798,0.0,0.0,0.0,0.0,0.0,0.0,0.16
262,0.0,0.0,0.0,0.0,0.0,0.0,-0.5627314453125,0.0,0.0,0.0,0.0,0.0,0.0,0.4428130334428798,0.0,0.0,0.0,0.0,0.0,0.0,0.024
263,0.0,0.0,0.0,0.0,0.0,0.0,-0.54444921875,0.0,0.0,0.0,0.0,0.0,0.0,0.4428130334428798,0.0,0.0,0.0,0.0,0.0,0.0,0.096
264,0.0,0.0,0.0,0.0,0.0,0.0,-0.521248046875,0.0,0.0,0.0,0.0,0.0,0.0,0.4428130334428798,0.0,0.0,0.0,0.0,0.0,0.0,0.044
265,0.0,0.0,0.0,0.0,0.0,0.0,-0.4990673828125,0.0,0.0,0.0,0.0,0.0,0.0,0.4428130334428798,0.0,0.0,0.0,0.0,0.0,0.0,0.096
266,0.0,0.0,0.0,0.0,0.0,0.0,-0.4729873046875,0.0,0.0,0.0,0.0,0.0,0.0,0.4428130334428798,0.0,0.0,0.0,0.0,0.0,0.0,0.004
267,0.0,0.0,0.0,0.0,0.0,0.0,-0.44711328125,0.0,0.0,0.0,0.0,0.0,0.0,0.4428130334428798,0.0,0.0,0.0,0.0,0.0,0.0,0.272
268,0.0,0.0,0.0,0.0,0.0,0.0,-0.4222734375,0.0,0.0,0.0,0.0,0.0,0.0,0.4428130334428798,0.0,0.0,0.0,0.0,0.0,0.0,0.12
269,0.0,0.0,0.0,0.0,0.0,0.0,-0.3962060546875,0.0,0.0,0.0,0.0,0.0,0.0,0.4428130334428798,0.0,0.0,0.0,0.0,0.0,0.0,0.12
270,0.0,0.0,0.0,0.0,0.0,0.0,-0.373625,0.0,0.0,0.0,0.0,0.0,0.0,0.4428130334428798,0.0,0.0,0.0,0.0,0.0,0.0,0.076
271,0.0,0.0,0.0,0.0,0.0,0.0,-0.3498037109375,0.0,0.0,0.0,0.0,0.0,0.0,0.4428130334428798,0.0,0.0,0.0,0.0,0.0,0.0,-0.004
272,0.0,0.0,0.0,0.0,0.0,0.0,-0.3301015625,0.0,0.0,0.0,0.0,0.0,0.0,0.4428130334428798,0.0,0.0,0.0,0.0,0.0,0.0,0.16
273,0.0,0.0,0.0,0.0,0.0,0.0,-0.3097802734375,0.0,0.0,0.0,0.0,0.0,0.0,0.4428130334428798,0.0,0.0,0.0,0.0,0.0,0.0,0.084
274,0.0,0.0,0.0,0.0,0.0,0.0,-0.2935634765625,0.0,0.0,0.0,0.0,0.0,0.0,0.4428130334428798,0.0,0.0,0.0,0.0,0.0,0.0,0.064
275,0.0,0.0,0.0,0.0,0.0,0.0,-0.27857421875,0.0,0.0,0.0,0.0,0.0,0.0,0.4428130334428798,0.0,0.0,0.0,0.0,0.0,0.0,0.148
276,0.0,0.0,0.0,0.0,0.0,0.0,-0.2648115234375,0.0,0.0,0.0,0.0,0.0,0.0,0.4428130334428798,0.0,0.0,0.0,0.0,0.0,0.0,-0.024
277,0.0,0.0,0.0,0.0,0.0,0.0,-0.2537333984375,0.0,0.0,0.0,0.0,0.0,0.0,0.4428130334428798,0.0,0.0,0.0,0.0,0.0,0.0,0.116
278,0.0,0.0,0.0,0.0,0.0,0.0,-0.2442958984375,0.0,0.0,0.0,0.0,0.0,0.0,0.4428130334428798,0.0,0.0,0.0,0.0,0.0,0.0,0.224
279,0.0,0.0,0.0,0.0,0.0,0.0,-0.2352578125,0.0,0.0,0.0,0.0,0.0,0.0,0.4428130334428798,0.0,0.0,0.0,0.0,0.0,0.0,0.088
280,0.0,0.0,0.0,0.0,0.0,0.0,-0.226439453125,0.0,0.0,0.0,0.0,0.0,0.0,0.4428130334428798,0.0,0.0,0.0,0.0,0.0,0.0,0.096
281,0.0,0.0,0.0,0.0,0.0,0.0,-0.2188349609375,0.0,0.0,0.0,0.0,0.0,0.0,0.4428130334428798,0.0,0.0,0.0,0.0,0.0,0.0,0.14
282,0.0,0.0,0.0,0.0,0.0,0.0,-0.21186328125,0.0,0.0,0.0,0.0,0.0,0.0,0.4428130334428798,0.0,0.0,0.0,0.0,0.0,0.0,0.104
283,0.0,0.0,0.0,0.0,0.0,0.0,-0.204478515625,0.0,0.0,0.0,0.0,0.0,0.0,0.4428130334428798,0.0,0.0,0.0,0.0,0.0,0.0,0.116
284,0.0,0.0,0.0,0.0,0.0,0.0,-0.1962666015625,0.0,0.0,0.0,0.0,0.0,0.0,0.4428130334428798,0.0,0.0,0.0,0.0,0.0,0.0,0.208
285,0.0,0.0,0.0,0.0,0.0,0.0,-0.186416015625,0.0,0.0,0.0,0.0,0.0,0.0,0.4428130334428798,0.0,0.0,0.0,0.0,0.0,0.0,0.088
286,0.0,0.0,0.0,0.0,0.0,0.0,-0.176564453125,0.0,0.0,0.0,0.0,0.0,0.0,0.4428130334428798,0.0,0.0,0.0,0.0,0.0,0.0,0.036
287,0.0,0.0,0.0,0.0,0.0,0.0,-0.1665068359375,0.0,0.0,0.0,0.0,0.0,0.0,0.4428130334428798,0.0,0.0,0.0,0.0,0.0,0.0,0.156
288,0.0,0.0,0.0,0.0,0.0,0.0,-0.1554169921875,0.0,0.0,0.0,0.0,0.0,0.0,0.4428130334428798,0.0,0.0,0.0,0.0,0.0,0.0,0.316
289,0.0,0.0,0.0,0.0,0.0,0.0,-0.1416669921875,0.0,0.0,0.0,0.0,0.0,0.0,0.4428130334428798,0.0,0.0,0.0,0.0,0.0,0.0,0.168
290,0.0,0.0,0.0,0.0,0.0,0.0,-0.128123046875,0.0,0.0,0.0,0.0,0.0,0.0,0.4428130334428798,0.0,0.0,0.0,0.0,0.0,0.0,0.14
291,0.0,0.0,0.0,0.0,0.0,0.0,-0.1147734375,0.0,0.0,0.0,0.0,0.0,0.0,0.4428130334428798,0.0,0.0,0.0,0.0,0.0,0.0,0.128
292,0.0,0.0,0.0,0.0,0.0,0.0,-0.09895703125,0.0,0.0,0.0,0.0,0.0,0.0,0.4428130334428798,0.0,0.0,0.0,0.0,0.0,0.0,0.116
293,0.0,0.0,0.0,0.0,0.0,0.0,-0.0833603515625,0.0,0.0,0.0,0.0,0.0,0.0,0.4428130334428798,0.0,0.0,0.0,0.0,0.0,0.0,0.16
294,0.0,0.0,0.0,0.0,0.0,0.0,-0.0687841796875,0.0,0.0,0.0,0.0,0.0,0.0,0.4428130334428798,0.0,0.0,0.0,0.0,0.0,0.0,0.264
295,0.0,0.0,0.0,0.0,0.0,0.0,-0.0515478515625,0.0,0.0,0.0,0.0,0.0,0.0,0.4428130334428798,0.0,0.0,0.0,0.0,0.0,0.0,0.188
296,0.0,0.0,0.0,0.0,0.0,0.0,-0.0359521484375,0.0,0.0,0.0,0.0,0.0,0.0,0.4428130334428798,0.0,0.0,0.0,0.0,0.0,0.0,0.128
297,0.0,0.0,0.0,0.0,0.0,0.0,-0.0199423828125,0.0,0.0,0.0,0.0,0.0,0.0,0.4428130334428798,0.0,0.0,0.0,0.0,0.0,0.0,0.192
298,0.0,0.0,0.0,0.0,0.0,0.0,-0.0031064453125,0.0,0.0,0.0,0.0,0.0,0.0,0.4428130334428798,0.0,0.0,0.0,0.0,0.0,0.0,0.016
299,0.0,0.0,0.0,0.0,0.0,0.0,0.0118701171875,0.0,0.0,0.0,0.0,0.0,0.0,0.4428130334428798,0.0,0.0,0.0,0.0,0.0,0.0,0.14
300,0.0,0.0,0.0,0.0,0.0,0.0,0.0272734375,0.0,0.0,0.0,0.0,0.0,0.0,0.4428130334428798,0.0,0.0,0.0,0.0,0.0,0.0,0.14
301,0.0,0.0,0.0,0.0,0.0,0.0,0.043076171875,0.0,0.0,0.0,0.0,0.0,0.0,0.4428130334428798,0.0,0.0,0.0,0.0,0.0,0.0,0.12
302,0.0,0.0,0.0,0.0,0.0,0.0,0.056826171875,0.0,0.0,0.0,0.0,0.0,0.0,0.4428130334428798,0.0,0.0,0.0,0.0,0.0,0.0,0.192
303,0.0,0.0,0.0,0.0,0.0,0.0,0.071208984375,0.0,0.0,0.0,0.0,0.0,0.0,0.4428130334428798,0.0,0.0,0.0,0.0,0.0,0.0,0.052
304,0.0,0.0,0.0,0.0,0.0,0.0,0.0853720703125,0.0,0.0,0.0,0.0,0.0,0.0,0.4428130334428798,0.0,0.0,0.0,0.0,0.0,0.0,0.116
305,0.0,0.0,0.0,0.0,0.0,0.0,0.09808984375,0.0,0.0,0.0,0.0,0.0,0.0,0.4428130334428798,0.0,0.0,0.0,0.0,0.0,0.0,0.24
306,0.0,0.0,0.0,0.0,0.0,0.0,0.1108193359375,0.0,0.0,0.0,0.0,0.0,0.0,0.4428130334428798,0.0,0.0,0.0,0.0,0.0,0.0,0.2
307,0.0,0.0,0.0,0.0,0.0,0.0,0.12436328125,0.0,0.0,0.0,0.0,0.0,0.0,0.4428130334428798,0.0,0.0,0.0,0.0,0.0,0.0,0.068
308,0.0,0.0,0.0,0.0,0.0,0.0,0.1366806640625,0.0,0.0,0.0,0.0,0.0,0.0,0.4428130334428798,0.0,0.0,0.0,0.0,0.0,0.0,0.128
309,0.0,0.0,0.0,0.0,0.0,0.0,0.148390625,0.0,0.0,0.0,0.0,0.0,0.0,0.4428130334428798,0.0,0.0,0.0,0.0,0.0,0.0,0.128
310,0.0,0.0,0.0,0.0,0.0,0.0,0.1617275390625,0.0,0.0,0.0,0.0,0.0,0.0,0.4428130334428798,0.0,0.0,0.0,0.0,0.0,0.0,0.084
311,0.0,0.0,0.0,0.0,0.0,0.0,0.1742509765625,0.0,0.0,0.0,0.0,0.0,0.0,0.4428130334428798,0.0,0.0,0.0,0.0,0.0,0.0,0.128
312,0.0,0.0,0.0,0.0,0.0,0.0,0.1857548828125,0.0,0.0,0.0,0.0,0.0,0.0,0.4428130334428798,0.0,0.0,0.0,0.0,0.0,0.0,0.212
313,0.0,0.0,0.0,0.0,0.0,0.0,0.1982783203125,0.0,0.0,0.0,0.0,0.0,0.0,0.4428130334428798,0.0,0.0,0.0,0.0,0.0,0.0,0.212
314,0.0,0.0,0.0,0.0,0.0,0.0,0.211615234375,0.0,0.0,0.0,0.0,0.0,0.0,0.4428130334428798,0.0,0.0,0.0,0.0,0.0,0.0,0.108
315,0.0,0.0,0.0,0.0,0.0,0.0,0.224345703125,0.0,0.0,0.0,0.0,0.0,0.0,0.4428130334428798,0.0,0.0,0.0,0.0,0.0,0.0,0.116
316,0.0,0.0,0.0,0.0,0.0,0.0,0.236869140625,0.0,0.0,0.0,0.0,0.0,0.0,0.4428130334428798,0.0,0.0,0.0,0.0,0.0,0.0,0.172
317,0.0,0.0,0.0,0.0,0.0,0.0,0.2510322265625,0.0,0.0,0.0,0.0,0.0,0.0,0.4428130334428798,0.0,0.0,0.0,0.0,0.0,0.0,0.084
318,0.0,0.0,0.0,0.0,0.0,0.0,0.2643828125,0.0,0.0,0.0,0.0,0.0,0.0,0.4428130334428798,0.0,0.0,0.0,0.0,0.0,0.0,0.088
319,0.0,0.0,0.0,0.0,0.0,0.0,0.27733203125,0.0,0.0,0.0,0.0,0.0,0.0,0.4428130334428798,0.0,0.0,0.0,0.0,0.0,0.0,0.284
320,0.0,0.0,0.0,0.0,0.0,0.0,0.291908203125,0.0,0.0,0.0,0.0,0.0,0.0,0.4428130334428798,0.0,0.0,0.0,0.0,0.0,0.0,0.148
321,0.0,0.0,0.0,0.0,0.0,0.0,0.3060849609375,0.0,0.0,0.0,0.0,0.0,0.0,0.4428130334428798,0.0,0.0,0.0,0.0,0.0,0.0,0.104
322,0.0,0.0,0.0,0.0,0.0,0.0,0.319228515625,0.0,0.0,0.0,0.0,0.0,0.0,0.4428130334428798,0.0,0.0,0.0,0.0,0.0,0.0,0.18
323,0.0,0.0,0.0,0.0,0.0,0.0,0.3338046875,0.0,0.0,0.0,0.0,0.0,0.0,0.4428130334428798,0.0,0.0,0.0,0.0,0.0,0.0,0.068
324,0.0,0.0,0.0,0.0,0.0,0.0,0.348380859375,0.0,0.0,0.0,0.0,0.0,0.0,0.4428130334428798,0.0,0.0,0.0,0.0,0.0,0.0,0.12
325,0.0,0.0,0.0,0.0,0.0,0.0,0.3617314453125,0.0,0.0,0.0,0.0,0.0,0.0,0.4428130334428798,0.0,0.0,0.0,0.0,0.0,0.0,0.312
326,0.0,0.0,0.0,0.0,0.0,0.0,0.3761142578125,0.0,0.0,0.0,0.0,0.0,0.0,0.4428130334428798,0.0,0.0,0.0,0.0,0.0,0.0,0.156
327,0.0,0.0,0.0,0.0,0.0,0.0,0.3906904296875,0.0,0.0,0.0,0.0,0.0,0.0,0.4428130334428798,0.0,0.0,0.0,0.0,0.0,0.0,0.116
328,0.0,0.0,0.0,0.0,0.0,0.0,0.4042470703125,0.0,0.0,0.0,0.0,0.0,0.0,0.4428130334428798,0.0,0.0,0.0,0.0,0.0,0.0,0.22
329,0.0,0.0,0.0,0.0,0.0,0.0,0.418216796875,0.0,0.0,0.0,0.0,0.0,0.0,-0.15124831683589088,0.0,0.0,0.0,0.0,0.0,0.0,0.088
330,0.0,0.0,0.0,0.0,0.0,0.0,0.432599609375,0.0,0.0,0.0,0.0,0.0,0.0,-0.15124831683589088,0.0,0.0,0.0,0.0,0.0,0.0,0.068
331,0.0,0.0,0.0,0.0,0.0,0.0,0.4449287109375,0.0,0.0,0.0,0.0,0.0,0.0,-0.15124831683589088,0.0,0.0,0.0,0.0,0.0,0.0,0.26
332,0.0,0.0,0.0,0.0,0.0,0.0,0.452314453125,0.0,0.0,0.0,0.0,0.0,0.0,-0.15124831683589088,0.0,0.0,0.0,0.0,0.0,0.0,0.212
333,0.0,0.0,0.0,0.0,0.0,0.0,0.454173828125,0.0,0.0,0.0,0.0,0.0,0.0,-0.15124831683589088,0.0,0.0,0.0,0.0,0.0,0.0,0.116
334,0.0,0.0,0.0,0.0,0.0,0.0,0.4515009765625,0.0,0.0,0.0,0.0,0.0,0.0,-0.15124831683589088,0.0,0.0,0.0,0.0,0.0,0.0,0.068
335,0.0,0.0,0.0,0.0,0.0,0.0,0.4457421875,0.0,0.0,0.0,0.0,0.0,0.0,-0.15124831683589088,0.0,0.0,0.0,0.0,0.0,0.0,0.056
336,0.0,0.0,0.0,0.0,0.0,0.0,0.4362919921875,0.0,0.0,0.0,0.0,0.0,0.0,-0.15124831683589088,0.0,0.0,0.0,0.0,0.0,0.0,0.016
337,0.0,0.0,0.0,0.0,0.0,0.0,0.4225283203125,0.0,0.0,0.0,0.0,0.0,0.0,-0.15124831683589088,0.0,0.0,0.0,0.0,0.0,0.0,-0.076
338,0.0,0.0,0.0,0.0,0.0,0.0,0.4048662109375,0.0,0.0,0.0,0.0,0.0,0.0,-0.15124831683589088,0.0,0.0,0.0,0.0,0.0,0.0,-0.116
339,0.0,0.0,0.0,0.0,0.0,0.0,0.385564453125,0.0,0.0,0.0,0.0,0.0,0.0,-0.15124831683589088,0.0,0.0,0.0,0.0,0.0,0.0,-0.056
340,0.0,0.0,0.0,0.0,0.0,0.0,0.3617314453125,0.0,0.0,0.0,0.0,0.0,0.0,-0.15124831683589088,0.0,0.0,0.0,0.0,0.0,0.0,-0.108
341,0.0,0.0,0.0,0.0,0.0,0.0,0.3383232421875,0.0,0.0,0.0,0.0,0.0,0.0,-0.15124831683589088,0.0,0.0,0.0,0.0,0.0,0.0,0.024
342,0.0,0.0,0.0,0.0,0.0,0.0,0.3122431640625,0.0,0.0,0.0,0.0,0.0,0.0,-0.15124831683589088,0.0,0.0,0.0,0.0,0.0,0.0,-0.056
343,0.0,0.0,0.0,0.0,0.0,0.0,0.28575,0.0,0.0,0.0,0.0,0.0,0.0,-0.15124831683589088,0.0,0.0,0.0,0.0,0.0,0.0,-0.2
344,0.0,0.0,0.0,0.0,0.0,0.0,0.260896484375,0.0,0.0,0.0,0.0,0.0,0.0,-0.15124831683589088,0.0,0.0,0.0,0.0,0.0,0.0,0.036
345,0.0,0.0,0.0,0.0,0.0,0.0,0.23481640625,0.0,0.0,0.0,0.0,0.0,0.0,-0.15124831683589088,0.0,0.0,0.0,0.0,0.0,0.0,-0.148
346,0.0,0.0,0.0,0.0,0.0,0.0,0.211822265625,0.0,0.0,0.0,0.0,0.0,0.0,-0.15124831683589088,0.0,0.0,0.0,0.0,0.0,0.0,-0.096
347,0.0,0.0,0.0,0.0,0.0,0.0,0.1884140625,0.0,0.0,0.0,0.0,0.0,0.0,-0.15124831683589088,0.0,0.0,0.0,0.0,0.0,0.0,-0.104
348,0.0,0.0,0.0,0.0,0.0,0.0,0.1691259765625,0.0,0.0,0.0,0.0,0.0,0.0,-0.15124831683589088,0.0,0.0,0.0,0.0,0.0,0.0,-0.004
349,0.0,0.0,0.0,0.0,0.0,0.0,0.1488037109375,0.0,0.0,0.0,0.0,0.0,0.0,-0.15124831683589088,0.0,0.0,0.0,0.0,0.0,0.0,-0.24
350,0.0,0.0,0.0,0.0,0.0,0.0,0.1334013671875,0.0,0.0,0.0,0.0,0.0,0.0,-0.15124831683589088,0.0,0.0,0.0,0.0,0.0,0.0,-0.044
351,0.0,0.0,0.0,0.0,0.0,0.0,0.11882421875,0.0,0.0,0.0,0.0,0.0,0.0,-0.15124831683589088,0.0,0.0,0.0,0.0,0.0,0.0,-0.032
352,0.0,0.0,0.0,0.0,0.0,0.0,0.10528125,0.0,0.0,0.0,0.0,0.0,0.0,-0.15124831683589088,0.0,0.0,0.0,0.0,0.0,0.0,-0.068
353,0.0,0.0,0.0,0.0,0.0,0.0,0.0950166015625,0.0,0.0,0.0,0.0,0.0,0.0,-0.15124831683589088,0.0,0.0,0.0,0.0,0.0,0.0,0.044
354,0.0,0.0,0.0,0.0,0.0,0.0,0.0859794921875,0.0,0.0,0.0,0.0,0.0,0.0,-0.15124831683589088,0.0,0.0,0.0,0.0,0.0,0.0,-0.068
355,0.0,0.0,0.0,0.0,0.0,0.0,0.0773671875,0.0,0.0,0.0,0.0,0.0,0.0,-0.15124831683589088,0.0,0.0,0.0,0.0,0.0,0.0,-0.12
356,0.0,0.0,0.0,0.0,0.0,0.0,0.06915625,0.0,0.0,0.0,0.0,0.0,0.0,-0.15124831683589088,0.0,0.0,0.0,0.0,0.0,0.0,-0.136
357,0.0,0.0,0.0,0.0,0.0,0.0,0.0615517578125,0.0,0.0,0.0,0.0,0.0,0.0,-0.15124831683589088,0.0,0.0,0.0,0.0,0.0,0.0,-0.108
358,0.0,0.0,0.0,0.0,0.0,0.0,0.0543603515625,0.0,0.0,0.0,0.0,0.0,0.0,-0.15124831683589088,0.0,0.0,0.0,0.0,0.0,0.0,-0.068
359,0.0,0.0,0.0,0.0,0.0,0.0,0.047388671875,0.0,0.0,0.0,0.0,0.0,0.0,-0.15124831683589088,0.0,0.0,0.0,0.0,0.0,0.0,-0.088
360,0.0,0.0,0.0,0.0,0.0,0.0,0.0391767578125,0.0,0.0,0.0,0.0,0.0,0.0,-0.15124831683589088,0.0,0.0,0.0,0.0,0.0,0.0,-0.104
361,0.0,0.0,0.0,0.0,0.0,0.0,0.0297265625,0.0,0.0,0.0,0.0,0.0,0.0,-0.15124831683589088,0.0,0.0,0.0,0.0,0.0,0.0,-0.168
362,0.0,0.0,0.0,0.0,0.0,0.0,0.0190615234375,0.0,0.0,0.0,0.0,0.0,0.0,-0.15124831683589088,0.0,0.0,0.0,0.0,0.0,0.0,-0.076
363,0.0,0.0,0.0,0.0,0.0,0.0,0.0087978515625,0.0,0.0,0.0,0.0,0.0,0.0,-0.15124831683589088,0.0,0.0,0.0,0.0,0.0,0.0,0.012
364,0.0,0.0,0.0,0.0,0.0,0.0,-0.002693359375,0.0,0.0,0.0,0.0,0.0,0.0,-0.15124831683589088,0.0,0.0,0.0,0.0,0.0,0.0,-0.168
365,0.0,0.0,0.0,0.0,0.0,0.0,-0.01604296875,0.0,0.0,0.0,0.0,0.0,0.0,-0.15124831683589088,0.0,0.0,0.0,0.0,0.0,0.0,-0.224
366,0.0,0.0,0.0,0.0,0.0,0.0,-0.030193359375,0.0,0.0,0.0,0.0,0.0,0.0,-0.15124831683589088,0.0,0.0,0.0,0.0,0.0,0.0,-0.096
367,0.0,0.0,0.0,0.0,0.0,0.0,-0.04375,0.0,0.0,0.0,0.0,0.0,0.0,-0.15124831683589088,0.0,0.0,0.0,0.0,0.0,0.0,-0.064
368,0.0,0.0,0.0,0.0,0.0,0.0,-0.0593466796875,0.0,0.0,0.0,0.0,0.0,0.0,-0.15124831683589088,0.0,0.0,0.0,0.0,0.0,0.0,-0.116
369,0.0,0.0,0.0,0.0,0.0,0.0,-0.0755625,0.0,0.0,0.0,0.0,0.0,0.0,-0.15124831683589088,0.0,0.0,0.0,0.0,0.0,0.0,-0.012
370,0.0,0.0,0.0,0.0,0.0,0.0,-0.0905390625,0.0,0.0,0.0,0.0,0.0,0.0,-0.15124831683589088,0.0,0.0,0.0,0.0,0.0,0.0,-0.068
371,0.0,0.0,0.0,0.0,0.0,0.0,-0.1079951171875,0.0,0.0,0.0,0.0,0.0,0.0,-0.15124831683589088,0.0,0.0,0.0,0.0,0.0,0.0,-0.168
372,0.0,0.0,0.0,0.0,0.0,0.0,-0.123810546875,0.0,0.0,0.0,0.0,0.0,0.0,0.294231255715801,0.0,0.0,0.0,0.0,0.0,0.0,-0.096
373,0.0,0.0,0.0,0.0,0.0,0.0,-0.1396142578125,0.0,0.0,0.0,0.0,0.0,0.0,0.294231255715801,0.0,0.0,0.0,0.0,0.0,0.0,-0.068
374,0.0,0.0,0.0,0.0,0.0,0.0,-0.1560361328125,0.0,0.0,0.0,0.0,0.0,0.0,0.294231255715801,0.0,0.0,0.0,0.0,0.0,0.0,0.052
375,0.0,0.0,0.0,0.0,0.0,0.0,-0.1665068359375,0.0,0.0,0.0,0.0,0.0,0.0,0.294231255715801,0.0,0.0,0.0,0.0,0.0,0.0,0.012
376,0.0,0.0,0.0,0.0,0.0,0.0,-0.1708193359375,0.0,0.0,0.0,0.0,0.0,0.0,0.294231255715801,0.0,0.0,0.0,0.0,0.0,0.0,-0.012
377,0.0,0.0,0.0,0.0,0.0,0.0,-0.171013671875,0.0,0.0,0.0,0.0,0.0,0.0,0.294231255715801,0.0,0.0,0.0,0.0,0.0,0.0,0.004
378,0.0,0.0,0.0,0.0,0.0,0.0,-0.168146484375,0.0,0.0,0.0,0.0,0.0,0.0,0.294231255715801,0.0,0.0,0.0,0.0,0.0,0.0,0.104
379,0.0,0.0,0.0,0.0,0.0,0.0,-0.1615751953125,0.0,0.0,0.0,0.0,0.0,0.0,0.294231255715801,0.0,0.0,0.0,0.0,0.0,0.0,0.192
380,0.0,0.0,0.0,0.0,0.0,0.0,-0.1511044921875,0.0,0.0,0.0,0.0,0.0,0.0,0.294231255715801,0.0,0.0,0.0,0.0,0.0,0.0,0.208
381,0.0,0.0,0.0,0.0,0.0,0.0,-0.1359208984375,0.0,0.0,0.0,0.0,0.0,0.0,0.294231255715801,0.0,0.0,0.0,0.0,0.0,0.0,0.044
382,0.0,0.0,0.0,0.0,0.0,0.0,-0.1193046875,0.0,0.0,0.0,0.0,0.0,0.0,0.294231255715801,0.0,0.0,0.0,0.0,0.0,0.0,0.128
383,0.0,0.0,0.0,0.0,0.0,0.0,-0.098130859375,0.0,0.0,0.0,0.0,0.0,0.0,0.294231255715801,0.0,0.0,0.0,0.0,0.0,0.0,0.18
384,0.0,0.0,0.0,0.0,0.0,0.0,-0.075962890625,0.0,0.0,0.0,0.0,0.0,0.0,0.294231255715801,0.0,0.0,0.0,0.0,0.0,0.0,0.108
385,0.0,0.0,0.0,0.0,0.0,0.0,-0.0497021484375,0.0,0.0,0.0,0.0,0.0,0.0,0.294231255715801,0.0,0.0,0.0,0.0,0.0,0.0,0.2
386,0.0,0.0,0.0,0.0,0.0,0.0,-0.023634765625,0.0,0.0,0.0,0.0,0.0,0.0,0.294231255715801,0.0,0.0,0.0,0.0,0.0,0.0,0.244
387,0.0,0.0,0.0,0.0,0.0,0.0,0.00469140625,0.0,0.0,0.0,0.0,0.0,0.0,0.294231255715801,0.0,0.0,0.0,0.0,0.0,0.0,-0.024
388,0.0,0.0,0.0,0.0,0.0,0.0,0.0328115234375,0.0,0.0,0.0,0.0,0.0,0.0,0.294231255715801,0.0,0.0,0.0,0.0,0.0,0.0,0.252
389,0.0,0.0,0.0,0.0,0.0,0.0,0.05887890625,0.0,0.0,0.0,0.0,0.0,0.0,0.294231255715801,0.0,0.0,0.0,0.0,0.0,0.0,0.056
390,0.0,0.0,0.0,0.0,0.0,0.0,0.0853720703125,0.0,0.0,0.0,0.0,0.0,0.0,0.294231255715801,0.0,0.0,0.0,0.0,0.0,0.0,-0.064
391,0.0,0.0,0.0,0.0,0.0,0.0,0.1089736328125,0.0,0.0,0.0,0.0,0.0,0.0,0.294231255715801,0.0,0.0,0.0,0.0,0.0,0.0,0.364
392,0.0,0.0,0.0,0.0,0.0,0.0,0.132380859375,0.0,0.0,0.0,0.0,0.0,0.0,0.294231255715801,0.0,0.0,0.0,0.0,0.0,0.0,0.064
393,0.0,0.0,0.0,0.0,0.0,0.0,0.151669921875,0.0,0.0,0.0,0.0,0.0,0.0,0.294231255715801,0.0,0.0,0.0,0.0,0.0,0.0,0.136
394,0.0,0.0,0.0,0.0,0.0,0.0,0.1703525390625,0.0,0.0,0.0,0.0,0.0,0.0,0.294231255715801,0.0,0.0,0.0,0.0,0.0,0.0,-0.036
395,0.0,0.0,0.0,0.0,0.0,0.0,0.1855478515625,0.0,0.0,0.0,0.0,0.0,0.0,0.294231255715801,0.0,0.0,0.0,0.0,0.0,0.0,0.296
396,0.0,0.0,0.0,0.0,0.0,0.0,0.1988857421875,0.0,0.0,0.0,0.0,0.0,0.0,0.294231255715801,0.0,0.0,0.0,0.0,0.0,0.0,0.148
397,0.0,0.0,0.0,0.0,0.0,0.0,0.210595703125,0.0,0.0,0.0,0.0,0.0,0.0,0.294231255715801,0.0,0.0,0.0,0.0,0.0,0.0,0.032
398,0.0,0.0,0.0,0.0,0.0,0.0,0.220240234375,0.0,0.0,0.0,0.0,0.0,0.0,0.294231255715801,0.0,0.0,0.0,0.0,0.0,0.0,0.14
399,0.0,0.0,0.0,0.0,0.0,0.0,0.2280380859375,0.0,0.0,0.0,0.0,0.0,0.0,0.294231255715801,0.0,0.0,0.0,0.0,0.0,0.0,0.18
400,0.0,0.0,0.0,0.0,0.0,0.0,0.23481640625,0.0,0.0,0.0,0.0,0.0,0.0,0.294231255715801,0.0,0.0,0.0,0.0,0.0,0.0,0.14
401,0.0,0.0,0.0,0.0,0.0,0.0,0.24180078125,0.0,0.0,0.0,0.0,0.0,0.0,0.294231255715801,0.0,0.0,0.0,0.0,0.0,0.0,0.068
402,0.0,0.0,0.0,0.0,0.0,0.0,0.24856640625,0.0,0.0,0.0,0.0,0.0,0.0,0.294231255715801,0.0,0.0,0.0,0.0,0.0,0.0,0.056
403,0.0,0.0,0.0,0.0,0.0,0.0,0.2555517578125,0.0,0.0,0.0,0.0,0.0,0.0,-0.41440625745838866,0.0,0.0,0.0,0.0,0.0,0.0,0.064
404,0.0,0.0,0.0,0.0,0.0,0.0,0.2625361328125,0.0,0.0,0.0,0.0,0.0,0.0,-0.41440625745838866,0.0,0.0,0.0,0.0,0.0,0.0,0.168
405,0.0,0.0,0.0,0.0,0.0,0.0,0.270140625,0.0,0.0,0.0,0.0,0.0,0.0,-0.41440625745838866,0.0,0.0,0.0,0.0,0.0,0.0,0.224
406,0.0,0.0,0.0,0.0,0.0,0.0,0.2756923828125,0.0,0.0,0.0,0.0,0.0,0.0,-0.41440625745838866,0.0,0.0,0.0,0.0,0.0,0.0,0.244
407,0.0,0.0,0.0,0.0,0.0,0.0,0.276712890625,0.0,0.0,0.0,0.0,0.0,0.0,-0.41440625745838866,0.0,0.0,0.0,0.0,0.0,0.0,0.22
408,0.0,0.0,0.0,0.0,0.0,0.0,0.274453125,0.0,0.0,0.0,0.0,0.0,0.0,-0.41440625745838866,0.0,0.0,0.0,0.0,0.0,0.0,0.104
409,0.0,0.0,0.0,0.0,0.0,0.0,0.26912109375,0.0,0.0,0.0,0.0,0.0,0.0,-0.41440625745838866,0.0,0.0,0.0,0.0,0.0,0.0,0.024
410,0.0,0.0,0.0,0.0,0.0,0.0,0.2606904296875,0.0,0.0,0.0,0.0,0.0,0.0,-0.41440625745838866,0.0,0.0,0.0,0.0,0.0,0.0,-0.068
411,0.0,0.0,0.0,0.0,0.0,0.0,0.248166015625,0.0,0.0,0.0,0.0,0.0,0.0,-0.41440625745838866,0.0,0.0,0.0,0.0,0.0,0.0,-0.148
412,0.0,0.0,0.0,0.0,0.0,0.0,0.232556640625,0.0,0.0,0.0,0.0,0.0,0.0,-0.41440625745838866,0.0,0.0,0.0,0.0,0.0,0.0,-0.12
413,0.0,0.0,0.0,0.0,0.0,0.0,0.216134765625,0.0,0.0,0.0,0.0,0.0,0.0,-0.41440625745838866,0.0,0.0,0.0,0.0,0.0,0.0,-0.084
414,0.0,0.0,0.0,0.0,0.0,0.0,0.1958125,0.0,0.0,0.0,0.0,0.0,0.0,-0.41440625745838866,0.0,0.0,0.0,0.0,0.0,0.0,-0.14
415,0.0,0.0,0.0,0.0,0.0,0.0,0.175490234375,0.0,0.0,0.0,0.0,0.0,0.0,-0.41440625745838866,0.0,0.0,0.0,0.0,0.0,0.0,-0.12
416,0.0,0.0,0.0,0.0,0.0,0.0,0.1533095703125,0.0,0.0,0.0,0.0,0.0,0.0,-0.41440625745838866,0.0,0.0,0.0,0.0,0.0,0.0,-0.096
417,0.0,0.0,0.0,0.0,0.0,0.0,0.1311416015625,0.0,0.0,0.0,0.0,0.0,0.0,-0.41440625745838866,0.0,0.0,0.0,0.0,0.0,0.0,-0.244
418,0.0,0.0,0.0,0.0,0.0,0.0,0.107953125,0.0,0.0,0.0,0.0,0.0,0.0,-0.41440625745838866,0.0,0.0,0.0,0.0,0.0,0.0,-0.104
419,0.0,0.0,0.0,0.0,0.0,0.0,0.0865986328125,0.0,0.0,0.0,0.0,0.0,0.0,-0.41440625745838866,0.0,0.0,0.0,0.0,0.0,0.0,-0.064
420,0.0,0.0,0.0,0.0,0.0,0.0,0.0644306640625,0.0,0.0,0.0,0.0,0.0,0.0,-0.41440625745838866,0.0,0.0,0.0,0.0,0.0,0.0,-0.156
421,0.0,0.0,0.0,0.0,0.0,0.0,0.0447158203125,0.0,0.0,0.0,0.0,0.0,0.0,-0.41440625745838866,0.0,0.0,0.0,0.0,0.0,0.0,-0.14
422,0.0,0.0,0.0,0.0,0.0,0.0,0.0254267578125,0.0,0.0,0.0,0.0,0.0,0.0,-0.41440625745838866,0.0,0.0,0.0,0.0,0.0,0.0,-0.052
423,0.0,0.0,0.0,0.0,0.0,0.0,0.0075712890625,0.0,0.0,0.0,0.0,0.0,0.0,-0.41440625745838866,0.0,0.0,0.0,0.0,0.0,0.0,-0.064
424,0.0,0.0,0.0,0.0,0.0,0.0,-0.0082451171875,0.0,0.0,0.0,0.0,0.0,0.0,-0.41440625745838866,0.0,0.0,0.0,0.0,0.0,0.0,-0.18
425,0.0,0.0,0.0,0.0,0.0,0.0,-0.023634765625,0.0,0.0,0.0,0.0,0.0,0.0,-0.41440625745838866,0.0,0.0,0.0,0.0,0.0,0.0,-0.096
426,0.0,0.0,0.0,0.0,0.0,0.0,-0.036765625,0.0,0.0,0.0,0.0,0.0,0.0,-0.41440625745838866,0.0,0.0,0.0,0.0,0.0,0.0,-0.068
427,0.0,0.0,0.0,0.0,0.0,0.0,-0.0486689453125,0.0,0.0,0.0,0.0,0.0,0.0,-0.41440625745838866,0.0,0.0,0.0,0.0,0.0,0.0,-0.14
428,0.0,0.0,0.0,0.0,0.0,0.0,-0.06016015625,0.0,0.0,0.0,0.0,0.0,0.0,-0.41440625745838866,0.0,0.0,0.0,0.0,0.0,0.0,-0.104
429,0.0,0.0,0.0,0.0,0.0,0.0,-0.070630859375,0.0,0.0,0.0,0.0,0.0,0.0,-0.41440625745838866,0.0,0.0,0.0,0.0,0.0,0.0,0.064
430,0.0,0.0,0.0,0.0,0.0,0.0,-0.0798623046875,0.0,0.0,0.0,0.0,0.0,0.0,-0.41440625745838866,0.0,0.0,0.0,0.0,0.0,0.0,-0.044
431,0.0,0.0,0.0,0.0,0.0,0.0,-0.088486328125,0.0,0.0,0.0,0.0,0.0,0.0,-0.41440625745838866,0.0,0.0,0.0,0.0,0.0,0.0,-0.044
432,0.0,0.0,0.0,0.0,0.0,0.0,-0.0977177734375,0.0,0.0,0.0,0.0,0.0,0.0,-0.41440625745838866,0.0,0.0,0.0,0.0,0.0,0.0,-0.116
433,0.0,0.0,0.0,0.0,0.0,0.0,-0.1079951171875,0.0,0.0,0.0,0.0,0.0,0.0,-0.41440625745838866,0.0,0.0,0.0,0.0,0.0,0.0,-0.16
434,0.0,0.0,0.0,0.0,0.0,0.0,-0.1176396484375,0.0,0.0,0.0,0.0,0.0,0.0,-0.41440625745838866,0.0,0.0,0.0,0.0,0.0,0.0,-0.056
435,0.0,0.0,0.0,0.0,0.0,0.0,-0.126896484375,0.0,0.0,0.0,0.0,0.0,0.0,-0.41440625745838866,0.0,0.0,0.0,0.0,0.0,0.0,-0.032
436,0.0,0.0,0.0,0.0,0.0,0.0,-0.137560546875,0.0,0.0,0.0,0.0,0.0,0.0,-0.41440625745838866,0.0,0.0,0.0,0.0,0.0,0.0,-0.128
437,0.0,0.0,0.0,0.0,0.0,0.0,-0.1500849609375,0.0,0.0,0.0,0.0,0.0,0.0,-0.41440625745838866,0.0,0.0,0.0,0.0,0.0,0.0,-0.116
438,0.0,0.0,0.0,0.0,0.0,0.0,-0.16198828125,0.0,0.0,0.0,0.0,0.0,0.0,-0.41440625745838866,0.0,0.0,0.0,0.0,0.0,0.0,0.076
439,0.0,0.0,0.0,0.0,0.0,0.0,-0.173892578125,0.0,0.0,0.0,0.0,0.0,0.0,-0.41440625745838866,0.0,0.0,0.0,0.0,0.0,0.0,-0.052
440,0.0,0.0,0.0,0.0,0.0,0.0,-0.187642578125,0.0,0.0,0.0,0.0,0.0,0.0,-0.41440625745838866,0.0,0.0,0.0,0.0,0.0,0.0,-0.2
441,0.0,0.0,0.0,0.0,0.0,0.0,-0.20242578125,0.0,0.0,0.0,0.0,0.0,0.0,-0.41440625745838866,0.0,0.0,0.0,0.0,0.0,0.0,-0.024
442,0.0,0.0,0.0,0.0,0.0,0.0,-0.21617578125,0.0,0.0,0.0,0.0,0.0,0.0,-0.41440625745838866,0.0,0.0,0.0,0.0,0.0,0.0,-0.116
443,0.0,0.0,0.0,0.0,0.0,0.0,-0.231359375,0.0,0.0,0.0,0.0,0.0,0.0,-0.41440625745838866,0.0,0.0,0.0,0.0,0.0,0.0,-0.128
444,0.0,0.0,0.0,0.0,0.0,0.0,-0.247162109375,0.0,0.0,0.0,0.0,0.0,0.0,-0.41440625745838866,0.0,0.0,0.0,0.0,0.0,0.0,0.016
445,0.0,0.0,0.0,0.0,0.0,0.0,-0.26173828125,0.0,0.0,0.0,0.0,0.0,0.0,-0.41440625745838866,0.0,0.0,0.0,0.0,0.0,0.0,-0.14
446,0.0,0.0,0.0,0.0,0.0,0.0,-0.277748046875,0.0,0.0,0.0,0.0,0.0,0.0,-0.41440625745838866,0.0,0.0,0.0,0.0,0.0,0.0,-0.156
447,0.0,0.0,0.0,0.0,0.0,0.0,-0.2935634765625,0.0,0.0,0.0,0.0,0.0,0.0,-0.41440625745838866,0.0,0.0,0.0,0.0,0.0,0.0,-0.104
448,0.0,0.0,0.0,0.0,0.0,0.0,-0.30793359375,0.0,0.0,0.0,0.0,0.0,0.0,-0.41440625745838866,0.0,0.0,0.0,0.0,0.0,0.0,-0.064
449,0.0,0.0,0.0,0.0,0.0,0.0,-0.3243564453125,0.0,0.0,0.0,0.0,0.0,0.0,-0.41440625745838866,0.0,0.0,0.0,0.0,0.0,0.0,-0.068
450,0.0,0.0,0.0,0.0,0.0,0.0,-0.3387265625,0.0,0.0,0.0,0.0,0.0,0.0,-0.41440625745838866,0.0,0.0,0.0,0.0,0.0,0.0,0.036
451,0.0,0.0,0.0,0.0,0.0,0.0,-0.3524765625,0.0,0.0,0.0,0.0,0.0,0.0,-0.41440625745838866,0.0,0.0,0.0,0.0,0.0,0.0,-0.116
452,0.0,0.0,0.0,0.0,0.0,0.0,-0.36787890625,0.0,0.0,0.0,0.0,0.0,0.0,-0.41440625745838866,0.0,0.0,0.0,0.0,0.0,0.0,-0.168
453,0.0,0.0,0.0,0.0,0.0,0.0,-0.3816298828125,0.0,0.0,0.0,0.0,0.0,0.0,0.42407755824939275,0.0,0.0,0.0,0.0,0.0,0.0,-0.052
454,0.0,0.0,0.0,0.0,0.0,0.0,-0.394359375,0.0,0.0,0.0,0.0,0.0,0.0,0.42407755824939275,0.0,0.0,0.0,0.0,0.0,0.0,-0.076
455,0.0,0.0,0.0,0.0,0.0,0.0,-0.4079033203125,0.0,0.0,0.0,0.0,0.0,0.0,0.42407755824939275,0.0,0.0,0.0,0.0,0.0,0.0,-0.116
456,0.0,0.0,0.0,0.0,0.0,0.0,-0.415701171875,0.0,0.0,0.0,0.0,0.0,0.0,0.42407755824939275,0.0,0.0,0.0,0.0,0.0,0.0,-0.012
457,0.0,0.0,0.0,0.0,0.0,0.0,-0.416734375,0.0,0.0,0.0,0.0,0.0,0.0,0.42407755824939275,0.0,0.0,0.0,0.0,0.0,0.0,0.104
458,0.0,0.0,0.0,0.0,0.0,0.0,-0.4142685546875,0.0,0.0,0.0,0.0,0.0,0.0,0.42407755824939275,0.0,0.0,0.0,0.0,0.0,0.0,0.136
459,0.0,0.0,0.0,0.0,0.0,0.0,-0.4079033203125,0.0,0.0,0.0,0.0,0.0,0.0,0.42407755824939275,0.0,0.0,0.0,0.0,0.0,0.0,0.116
460,0.0,0.0,0.0,0.0,0.0,0.0,-0.3972255859375,0.0,0.0,0.0,0.0,0.0,0.0,0.42407755824939275,0.0,0.0,0.0,0.0,0.0,0.0,0.052
461,0.0,0.0,0.0,0.0,0.0,0.0,-0.384095703125,0.0,0.0,0.0,0.0,0.0,0.0,0.42407755824939275,0.0,0.0,0.0,0.0,0.0,0.0,0.096
462,0.0,0.0,0.0,0.0,0.0,0.0,-0.3676728515625,0.0,0.0,0.0,0.0,0.0,0.0,0.42407755824939275,0.0,0.0,0.0,0.0,0.0,0.0,0.24
463,0.0,0.0,0.0,0.0,0.0,0.0,-0.34714453125,0.0,0.0,0.0,0.0,0.0,0.0,0.42407755824939275,0.0,0.0,0.0,0.0,0.0,0.0,-0.052
464,0.0,0.0,0.0,0.0,0.0,0.0,-0.3253759765625,0.0,0.0,0.0,0.0,0.0,0.0,0.42407755824939275,0.0,0.0,0.0,0.0,0.0,0.0,0.244
465,0.0,0.0,0.0,0.0,0.0,0.0,-0.2999287109375,0.0,0.0,0.0,0.0,0.0,0.0,0.42407755824939275,0.0,0.0,0.0,0.0,0.0,0.0,0.032
466,0.0,0.0,0.0,0.0,0.0,0.0,-0.2740556640625,0.0,0.0,0.0,0.0,0.0,0.0,0.42407755824939275,0.0,0.0,0.0,0.0,0.0,0.0,0.208
467,0.0,0.0,0.0,0.0,0.0,0.0,-0.2481943359375,0.0,0.0,0.0,0.0,0.0,0.0,0.42407755824939275,0.0,0.0,0.0,0.0,0.0,0.0,0.212
468,0.0,0.0,0.0,0.0,0.0,0.0,-0.2208876953125,0.0,0.0,0.0,0.0,0.0,0.0,0.42407755824939275,0.0,0.0,0.0,0.0,0.0,0.0,0.108
469,0.0,0.0,0.0,0.0,0.0,0.0,-0.1968740234375,0.0,0.0,0.0,0.0,0.0,0.0,0.42407755824939275,0.0,0.0,0.0,0.0,0.0,0.0,0.036
470,0.0,0.0,0.0,0.0,0.0,0.0,-0.1716328125,0.0,0.0,0.0,0.0,0.0,0.0,0.42407755824939275,0.0,0.0,0.0,0.0,0.0,0.0,-0.012
471,0.0,0.0,0.0,0.0,0.0,0.0,-0.1492578125,0.0,0.0,0.0,0.0,0.0,0.0,0.42407755824939275,0.0,0.0,0.0,0.0,0.0,0.0,0.324
472,0.0,0.0,0.0,0.0,0.0,0.0,-0.1277099609375,0.0,0.0,0.0,0.0,0.0,0.0,0.42407755824939275,0.0,0.0,0.0,0.0,0.0,0.0,-0.016
473,0.0,0.0,0.0,0.0,0.0,0.0,-0.109234375,0.0,0.0,0.0,0.0,0.0,0.0,0.42407755824939275,0.0,0.0,0.0,0.0,0.0,0.0,0.188
474,0.0,0.0,0.0,0.0,0.0,0.0,-0.091365234375,0.0,0.0,0.0,0.0,0.0,0.0,0.42407755824939275,0.0,0.0,0.0,0.0,0.0,0.0,-0.032
475,0.0,0.0,0.0,0.0,0.0,0.0,-0.0774091796875,0.0,0.0,0.0,0.0,0.0,0.0,0.42407755824939275,0.0,0.0,0.0,0.0,0.0,0.0,0.084
476,0.0,0.0,0.0,0.0,0.0,0.0,-0.0646787109375,0.0,0.0,0.0,0.0,0.0,0.0,0.42407755824939275,0.0,0.0,0.0,0.0,0.0,0.0,0.348
477,0.0,0.0,0.0,0.0,0.0,0.0,-0.0529814453125,0.0,0.0,0.0,0.0,0.0,0.0,0.42407755824939275,0.0,0.0,0.0,0.0,0.0,0.0,0.088
478,0.0,0.0,0.0,0.0,0.0,0.0,-0.0431298828125,0.0,0.0,0.0,0.0,0.0,0.0,0.42407755824939275,0.0,0.0,0.0,0.0,0.0,0.0,0.156
479,0.0,0.0,0.0,0.0,0.0,0.0,-0.0351259765625,0.0,0.0,0.0,0.0,0.0,0.0,0.42407755824939275,0.0,0.0,0.0,0.0,0.0,0.0,0.2
480,0.0,0.0,0.0,0.0,0.0,0.0,-0.027947265625,0.0,0.0,0.0,0.0,0.0,0.0,0.42407755824939275,0.0,0.0,0.0,0.0,0.0,0.0,0.172
481,0.0,0.0,0.0,0.0,0.0,0.0,-0.020548828125,0.0,0.0,0.0,0.0,0.0,0.0,0.42407755824939275,0.0,0.0,0.0,0.0,0.0,0.0,0.156
482,0.0,0.0,0.0,0.0,0.0,0.0,-0.0127509765625,0.0,0.0,0.0,0.0,0.0,0.0,0.42407755824939275,0.0,0.0,0.0,0.0,0.0,0.0,0.064
483,0.0,0.0,0.0,0.0,0.0,0.0,-0.0051591796875,0.0,0.0,0.0,0.0,0.0,0.0,0.42407755824939275,0.0,0.0,0.0,0.0,0.0,0.0,0.088
484,0.0,0.0,0.0,0.0,0.0,0.0,0.002845703125,0.0,0.0,0.0,0.0,0.0,0.0,0.42407755824939275,0.0,0.0,0.0,0.0,0.0,0.0,0.14
485,0.0,0.0,0.0,0.0,0.0,0.0,0.011056640625,0.0,0.0,0.0,0.0,0.0,0.0,0.42407755824939275,0.0,0.0,0.0,0.0,0.0,0.0,0.232
486,0.0,0.0,0.0,0.0,0.0,0.0,0.0202880859375,0.0,0.0,0.0,0.0,0.0,0.0,0.42407755824939275,0.0,0.0,0.0,0.0,0.0,0.0,0.312
487,0.0,0.0,0.0,0.0,0.0,0.0,0.031779296875,0.0,0.0,0.0,0.0,0.0,0.0,0.42407755824939275,0.0,0.0,0.0,0.0,0.0,0.0,0.088
488,0.0,0.0,0.0,0.0,0.0,0.0,0.0438896484375,0.0,0.0,0.0,0.0,0.0,0.0,0.42407755824939275,0.0,0.0,0.0,0.0,0.0,0.0,0.104
489,0.0,0.0,0.0,0.0,0.0,0.0,0.056,0.0,0.0,0.0,0.0,0.0,0.0,0.42407755824939275,0.0,0.0,0.0,0.0,0.0,0.0,0.2
490,0.0,0.0,0.0,0.0,0.0,0.0,0.0695693359375,0.0,0.0,0.0,0.0,0.0,0.0,0.42407755824939275,0.0,0.0,0.0,0.0,0.0,0.0,0.128
491,0.0,0.0,0.0,0.0,0.0,0.0,0.0847529296875,0.0,0.0,0.0,0.0,0.0,0.0,0.42407755824939275,0.0,0.0,0.0,0.0,0.0,0.0,0.052
492,0.0,0.0,0.0,0.0,0.0,0.0,0.09953515625,0.0,0.0,0.0,0.0,0.0,0.0,0.42407755824939275,0.0,0.0,0.0,0.0,0.0,0.0,0.244
493,0.0,0.0,0.0,0.0,0.0,0.0,0.1153388671875,0.0,0.0,0.0,0.0,0.0,0.0,0.42407755824939275,0.0,0.0,0.0,0.0,0.0,0.0,0.156
494,0.0,0.0,0.0,0.0,0.0,0.0,0.1319677734375,0.0,0.0,0.0,0.0,0.0,0.0,0.42407755824939275,0.0,0.0,0.0,0.0,0.0,0.0,0.096
495,0.0,0.0,0.0,0.0,0.0,0.0,0.147357421875,0.0,0.0,0.0,0.0,0.0,0.0,0.42407755824939275,0.0,0.0,0.0,0.0,0.0,0.0,0.22
496,0.0,0.0,0.0,0.0,0.0,0.0,0.1646064453125,0.0,0.0,0.0,0.0,0.0,0.0,0.42407755824939275,0.0,0.0,0.0,0.0,0.0,0.0,0.036
497,0.0,0.0,0.0,0.0,0.0,0.0,0.18041015625,0.0,0.0,0.0,0.0,0.0,0.0,0.42407755824939275,0.0,0.0,0.0,0.0,0.0,0.0,0.116
498,0.0,0.0,0.0,0.0,0.0,0.0,0.1958125,0.0,0.0,0.0,0.0,0.0,0.0,0.42407755824939275,0.0,0.0,0.0,0.0,0.0,0.0,0.212
499,0.0,0.0,0.0,0.0,0.0,0.0,0.2126484375,0.0,0.0,0.0,0.0,0.0,0.0,0.42407755824939275,0.0,0.0,0.0,0.0,0.0,0.0,0.104
500,0.0,0.0,0.0,0.0,0.0,0.0,0.227431640625,0.0,0.0,0.0,0.0,0.0,0.0,0.42407755824939275,0.0,0.0,0.0,0.0,0.0,0.0,0.116
501,0.0,0.0,0.0,0.0,0.0,0.0,0.242408203125,0.0,0.0,0.0,0.0,0.0,0.0,0.42407755824939275,0.0,0.0,0.0,0.0,0.0,0.0,0.14
502,0.0,0.0,0.0,0.0,0.0,0.0,0.2576044921875,0.0,0.0,0.0,0.0,0.0,0.0,0.42407755824939275,0.0,0.0,0.0,0.0,0.0,0.0,0.036
503,0.0,0.0,0.0,0.0,0.0,0.0,0.271173828125,0.0,0.0,0.0,0.0,0.0,0.0,0.42407755824939275,0.0,0.0,0.0,0.0,0.0,0.0,0.252
504,0.0,0.0,0.0,0.0,0.0,0.0,0.2845234375,0.0,0.0,0.0,0.0,0.0,0.0,0.42407755824939275,0.0,0.0,0.0,0.0,0.0,0.0,0.252
505,0.0,0.0,0.0,0.0,0.0,0.0,0.29848046875,0.0,0.0,0.0,0.0,0.0,0.0,0.42407755824939275,0.0,0.0,0.0,0.0,0.0,0.0,0.108
506,0.0,0.0,0.0,0.0,0.0,0.0,0.31100390625,0.0,0.0,0.0,0.0,0.0,0.0,0.42407755824939275,0.0,0.0,0.0,0.0,0.0,0.0,0.156
507,0.0,0.0,0.0,0.0,0.0,0.0,0.323126953125,0.0,0.0,0.0,0.0,0.0,0.0,0.42407755824939275,0.0,0.0,0.0,0.0,0.0,0.0,0.188
508,0.0,0.0,0.0,0.0,0.0,0.0,0.3362705078125,0.0,0.0,0.0,0.0,0.0,0.0,0.42407755824939275,0.0,0.0,0.0,0.0,0.0,0.0,0.084
509,0.0,0.0,0.0,0.0,0.0,0.0,0.3487939453125,0.0,0.0,0.0,0.0,0.0,0.0,0.42407755824939275,0.0,0.0,0.0,0.0,0.0,0.0,0.148
510,0.0,0.0,0.0,0.0,0.0,0.0,0.3605048828125,0.0,0.0,0.0,0.0,0.0,0.0,0.42407755824939275,0.0,0.0,0.0,0.0,0.0,0.0,0.24
511,0.0,0.0,0.0,0.0,0.0,0.0,0.372615234375,0.0,0.0,0.0,0.0,0.0,0.0,0.42407755824939275,0.0,0.0,0.0,0.0,0.0,0.0,0.212
512,0.0,0.0,0.0,0.0,0.0,0.0,0.3857578125,0.0,0.0,0.0,0.0,0.0,0.0,0.42407755824939275,0.0,0.0,0.0,0.0,0.0,0.0,0.148
513,0.0,0.0,0.0,0.0,0.0,0.0,0.3978818359375,0.0,0.0,0.0,0.0,0.0,0.0,-0.4183416949750429,0.0,0.0,0.0,0.0,0.0,0.0,0.136
514,0.0,0.0,0.0,0.0,0.0,0.0,0.4100048828125,0.0,0.0,0.0,0.0,0.0,0.0,-0.4183416949750429,0.0,0.0,0.0,0.0,0.0,0.0,0.18
515,0.0,0.0,0.0,0.0,0.0,0.0,0.42294140625,0.0,0.0,0.0,0.0,0.0,0.0,-0.4183416949750429,0.0,0.0,0.0,0.0,0.0,0.0,0.056
516,0.0,0.0,0.0,0.0,0.0,0.0,0.431359375,0.0,0.0,0.0,0.0,0.0,0.0,-0.4183416949750429,0.0,0.0,0.0,0.0,0.0,0.0,0.064
517,0.0,0.0,0.0,0.0,0.0,0.0,0.433619140625,0.0,0.0,0.0,0.0,0.0,0.0,-0.4183416949750429,0.0,0.0,0.0,0.0,0.0,0.0,0.14
518,0.0,0.0,0.0,0.0,0.0,0.0,0.43156640625,0.0,0.0,0.0,0.0,0.0,0.0,-0.4183416949750429,0.0,0.0,0.0,0.0,0.0,0.0,-0.024
519,0.0,0.0,0.0,0.0,0.0,0.0,0.425408203125,0.0,0.0,0.0,0.0,0.0,0.0,-0.4183416949750429,0.0,0.0,0.0,0.0,0.0,0.0,-0.12
520,0.0,0.0,0.0,0.0,0.0,0.0,0.4155439453125,0.0,0.0,0.0,0.0,0.0,0.0,-0.4183416949750429,0.0,0.0,0.0,0.0,0.0,0.0,-0.148
521,0.0,0.0,0.0,0.0,0.0,0.0,0.402400390625,0.0,0.0,0.0,0.0,0.0,0.0,-0.4183416949750429,0.0,0.0,0.0,0.0,0.0,0.0,-0.088
522,0.0,0.0,0.0,0.0,0.0,0.0,0.386171875,0.0,0.0,0.0,0.0,0.0,0.0,-0.4183416949750429,0.0,0.0,0.0,0.0,0.0,0.0,-0.104
523,0.0,0.0,0.0,0.0,0.0,0.0,0.3654365234375,0.0,0.0,0.0,0.0,0.0,0.0,-0.4183416949750429,0.0,0.0,0.0,0.0,0.0,0.0,-0.16
524,0.0,0.0,0.0,0.0,0.0,0.0,0.3446884765625,0.0,0.0,0.0,0.0,0.0,0.0,-0.4183416949750429,0.0,0.0,0.0,0.0,0.0,0.0,0.016
525,0.0,0.0,0.0,0.0,0.0,0.0,0.3200419921875,0.0,0.0,0.0,0.0,0.0,0.0,-0.4183416949750429,0.0,0.0,0.0,0.0,0.0,0.0,-0.168
526,0.0,0.0,0.0,0.0,0.0,0.0,0.2958076171875,0.0,0.0,0.0,0.0,0.0,0.0,-0.4183416949750429,0.0,0.0,0.0,0.0,0.0,0.0,-0.116
527,0.0,0.0,0.0,0.0,0.0,0.0,0.2705537109375,0.0,0.0,0.0,0.0,0.0,0.0,-0.4183416949750429,0.0,0.0,0.0,0.0,0.0,0.0,0.088
528,0.0,0.0,0.0,0.0,0.0,0.0,0.2459072265625,0.0,0.0,0.0,0.0,0.0,0.0,-0.4183416949750429,0.0,0.0,0.0,0.0,0.0,0.0,-0.232
529,0.0,0.0,0.0,0.0,0.0,0.0,0.2218798828125,0.0,0.0,0.0,0.0,0.0,0.0,-0.4183416949750429,0.0,0.0,0.0,0.0,0.0,0.0,-0.088
530,0.0,0.0,0.0,0.0,0.0,0.0,0.198072265625,0.0,0.0,0.0,0.0,0.0,0.0,-0.4183416949750429,0.0,0.0,0.0,0.0,0.0,0.0,-0.064
531,0.0,0.0,0.0,0.0,0.0,0.0,0.176923828125,0.0,0.0,0.0,0.0,0.0,0.0,-0.4183416949750429,0.0,0.0,0.0,0.0,0.0,0.0,-0.104
532,0.0,0.0,0.0,0.0,0.0,0.0,0.1563955078125,0.0,0.0,0.0,0.0,0.0,0.0,-0.4183416949750429,0.0,0.0,0.0,0.0,0.0,0.0,-0.148
533,0.0,0.0,0.0,0.0,0.0,0.0,0.1383330078125,0.0,0.0,0.0,0.0,0.0,0.0,-0.4183416949750429,0.0,0.0,0.0,0.0,0.0,0.0,-0.088
534,0.0,0.0,0.0,0.0,0.0,0.0,0.1217041015625,0.0,0.0,0.0,0.0,0.0,0.0,-0.4183416949750429,0.0,0.0,0.0,0.0,0.0,0.0,-0.22
535,0.0,0.0,0.0,0.0,0.0,0.0,0.1065078125,0.0,0.0,0.0,0.0,0.0,0.0,-0.4183416949750429,0.0,0.0,0.0,0.0,0.0,0.0,-0.012
536,0.0,0.0,0.0,0.0,0.0,0.0,0.0943974609375,0.0,0.0,0.0,0.0,0.0,0.0,-0.4183416949750429,0.0,0.0,0.0,0.0,0.0,0.0,0.032
537,0.0,0.0,0.0,0.0,0.0,0.0,0.0835263671875,0.0,0.0,0.0,0.0,0.0,0.0,-0.4183416949750429,0.0,0.0,0.0,0.0,0.0,0.0,-0.168
538,0.0,0.0,0.0,0.0,0.0,0.0,0.07346875,0.0,0.0,0.0,0.0,0.0,0.0,-0.4183416949750429,0.0,0.0,0.0,0.0,0.0,0.0,-0.14
539,0.0,0.0,0.0,0.0,0.0,0.0,0.063810546875,0.0,0.0,0.0,0.0,0.0,0.0,-0.4183416949750429,0.0,0.0,0.0,0.0,0.0,0.0,-0.108
540,0.0,0.0,0.0,0.0,0.0,0.0,0.05579296875,0.0,0.0,0.0,0.0,0.0,0.0,-0.4183416949750429,0.0,0.0,0.0,0.0,0.0,0.0,-0.084
541,0.0,0.0,0.0,0.0,0.0,0.0,0.048615234375,0.0,0.0,0.0,0.0,0.0,0.0,-0.4183416949750429,0.0,0.0,0.0,0.0,0.0,0.0,-0.068
542,0.0,0.0,0.0,0.0,0.0,0.0,0.0412294921875,0.0,0.0,0.0,0.0,0.0,0.0,-0.4183416949750429,0.0,0.0,0.0,0.0,0.0,0.0,-0.076
543,0.0,0.0,0.0,0.0,0.0,0.0,0.0328115234375,0.0,0.0,0.0,0.0,0.0,0.0,-0.4183416949750429,0.0,0.0,0.0,0.0,0.0,0.0,-0.108
544,0.0,0.0,0.0,0.0,0.0,0.0,0.0233740234375,0.0,0.0,0.0,0.0,0.0,0.0,-0.4183416949750429,0.0,0.0,0.0,0.0,0.0,0.0,-0.14
545,0.0,0.0,0.0,0.0,0.0,0.0,0.0141298828125,0.0,0.0,0.0,0.0,0.0,0.0,-0.4183416949750429,0.0,0.0,0.0,0.0,0.0,0.0,-0.056
546,0.0,0.0,0.0,0.0,0.0,0.0,0.00469140625,0.0,0.0,0.0,0.0,0.0,0.0,-0.4183416949750429,0.0,0.0,0.0,0.0,0.0,0.0,-0.012
547,0.0,0.0,0.0,0.0,0.0,0.0,-0.0059853515625,0.0,0.0,0.0,0.0,0.0,0.0,-0.4183416949750429,0.0,0.0,0.0,0.0,0.0,0.0,-0.168
548,0.0,0.0,0.0,0.0,0.0,0.0,-0.0189091796875,0.0,0.0,0.0,0.0,0.0,0.0,-0.4183416949750429,0.0,0.0,0.0,0.0,0.0,0.0,-0.212
549,0.0,0.0,0.0,0.0,0.0,0.0,-0.031845703125,0.0,0.0,0.0,0.0,0.0,0.0,-0.4183416949750429,0.0,0.0,0.0,0.0,0.0,0.0,-0.088
550,0.0,0.0,0.0,0.0,0.0,0.0,-0.0445634765625,0.0,0.0,0.0,0.0,0.0,0.0,-0.4183416949750429,0.0,0.0,0.0,0.0,0.0,0.0,-0.036
551,0.0,0.0,0.0,0.0,0.0,0.0,-0.059759765625,0.0,0.0,0.0,0.0,0.0,0.0,-0.4183416949750429,0.0,0.0,0.0,0.0,0.0,0.0,-0.18
552,0.0,0.0,0.0,0.0,0.0,0.0,-0.0751494140625,0.0,0.0,0.0,0.0,0.0,0.0,-0.4183416949750429,0.0,0.0,0.0,0.0,0.0,0.0,0.016
553,0.0,0.0,0.0,0.0,0.0,0.0,-0.089712890625,0.0,0.0,0.0,0.0,0.0,0.0,-0.4183416949750429,0.0,0.0,0.0,0.0,0.0,0.0,-0.084
554,0.0,0.0,0.0,0.0,0.0,0.0,-0.1065615234375,0.0,0.0,0.0,0.0,0.0,0.0,-0.4183416949750429,0.0,0.0,0.0,0.0,0.0,0.0,-0.22
555,0.0,0.0,0.0,0.0,0.0,0.0,-0.1223779296875,0.0,0.0,0.0,0.0,0.0,0.0,-0.4183416949750429,0.0,0.0,0.0,0.0,0.0,0.0,-0.156
556,0.0,0.0,0.0,0.0,0.0,0.0,-0.1379736328125,0.0,0.0,0.0,0.0,0.0,0.0,-0.4183416949750429,0.0,0.0,0.0,0.0,0.0,0.0,-0.104
557,0.0,0.0,0.0,0.0,0.0,0.0,-0.1552099609375,0.0,0.0,0.0,0.0,0.0,0.0,-0.4183416949750429,0.0,0.0,0.0,0.0,0.0,0.0,-0.084
558,0.0,0.0,0.0,0.0,0.0,0.0,-0.1699931640625,0.0,0.0,0.0,0.0,0.0,0.0,-0.4183416949750429,0.0,0.0,0.0,0.0,0.0,0.0,-0.016
559,0.0,0.0,0.0,0.0,0.0,0.0,-0.1853828125,0.0,0.0,0.0,0.0,0.0,0.0,-0.4183416949750429,0.0,0.0,0.0,0.0,0.0,0.0,-0.2
560,0.0,0.0,0.0,0.0,0.0,0.0,-0.2011865234375,0.0,0.0,0.0,0.0,0.0,0.0,-0.4183416949750429,0.0,0.0,0.0,0.0,0.0,0.0,0.004
561,0.0,0.0,0.0,0.0,0.0,0.0,-0.215349609375,0.0,0.0,0.0,0.0,0.0,0.0,-0.4183416949750429,0.0,0.0,0.0,0.0,0.0,0.0,-0.14
562,0.0,0.0,0.0,0.0,0.0,0.0,-0.2297197265625,0.0,0.0,0.0,0.0,0.0,0.0,-0.4183416949750429,0.0,0.0,0.0,0.0,0.0,0.0,-0.108
563,0.0,0.0,0.0,0.0,0.0,0.0,-0.2442958984375,0.0,0.0,0.0,0.0,0.0,0.0,-0.4183416949750429,0.0,0.0,0.0,0.0,0.0,0.0,0.044
564,0.0,0.0,0.0,0.0,0.0,0.0,-0.2572197265625,0.0,0.0,0.0,0.0,0.0,0.0,-0.4183416949750429,0.0,0.0,0.0,0.0,0.0,0.0,-0.148
565,0.0,0.0,0.0,0.0,0.0,0.0,-0.2699501953125,0.0,0.0,0.0,0.0,0.0,0.0,-0.4183416949750429,0.0,0.0,0.0,0.0,0.0,0.0,-0.136
566,0.0,0.0,0.0,0.0,0.0,0.0,-0.28390625,0.0,0.0,0.0,0.0,0.0,0.0,-0.4183416949750429,0.0,0.0,0.0,0.0,0.0,0.0,-0.108
567,0.0,0.0,0.0,0.0,0.0,0.0,-0.296236328125,0.0,0.0,0.0,0.0,0.0,0.0,-0.4183416949750429,0.0,0.0,0.0,0.0,0.0,0.0,-0.14
568,0.0,0.0,0.0,0.0,0.0,0.0,-0.308140625,0.0,0.0,0.0,0.0,0.0,0.0,-0.4183416949750429,0.0,0.0,0.0,0.0,0.0,0.0,-0.12
569,0.0,0.0,0.0,0.0,0.0,0.0,-0.3214775390625,0.0,0.0,0.0,0.0,0.0,0.0,-0.4183416949750429,0.0,0.0,0.0,0.0,0.0,0.0,-0.116
570,0.0,0.0,0.0,0.0,0.0,0.0,-0.33420703125,0.0,0.0,0.0,0.0,0.0,0.0,-0.4183416949750429,0.0,0.0,0.0,0.0,0.0,0.0,0.0
571,0.0,0.0,0.0,0.0,0.0,0.0,-0.3456982421875,0.0,0.0,0.0,0.0,0.0,0.0,-0.4183416949750429,0.0,0.0,0.0,0.0,0.0,0.0,-0.116
572,0.0,0.0,0.0,0.0,0.0,0.0,-0.358015625,0.0,0.0,0.0,0.0,0.0,0.0,-0.4183416949750429,0.0,0.0,0.0,0.0,0.0,0.0,-0.208
573,0.0,0.0,0.0,0.0,0.0,0.0,-0.3717783203125,0.0,0.0,0.0,0.0,0.0,0.0,-0.4183416949750429,0.0,0.0,0.0,0.0,0.0,0.0,-0.128
574,0.0,0.0,0.0,0.0,0.0,0.0,-0.383888671875,0.0,0.0,0.0,0.0,0.0,0.0,0.5998653281738938,0.0,0.0,0.0,0.0,0.0,0.0,-0.104
575,0.0,0.0,0.0,0.0,0.0,0.0,-0.396412109375,0.0,0.0,0.0,0.0,0.0,0.0,0.5998653281738938,0.0,0.0,0.0,0.0,0.0,0.0,-0.168
576,0.0,0.0,0.0,0.0,0.0,0.0,-0.4099560546875,0.0,0.0,0.0,0.0,0.0,0.0,0.5998653281738938,0.0,0.0,0.0,0.0,0.0,0.0,-0.084
577,0.0,0.0,0.0,0.0,0.0,0.0,-0.417560546875,0.0,0.0,0.0,0.0,0.0,0.0,0.5998653281738938,0.0,0.0,0.0,0.0,0.0,0.0,0.084
578,0.0,0.0,0.0,0.0,0.0,0.0,-0.4194072265625,0.0,0.0,0.0,0.0,0.0,0.0,0.5998653281738938,0.0,0.0,0.0,0.0,0.0,0.0,0.056
579,0.0,0.0,0.0,0.0,0.0,0.0,-0.4171474609375,0.0,0.0,0.0,0.0,0.0,0.0,0.5998653281738938,0.0,0.0,0.0,0.0,0.0,0.0,0.16
580,0.0,0.0,0.0,0.0,0.0,0.0,-0.4109892578125,0.0,0.0,0.0,0.0,0.0,0.0,0.5998653281738938,0.0,0.0,0.0,0.0,0.0,0.0,0.156
581,0.0,0.0,0.0,0.0,0.0,0.0,-0.4003115234375,0.0,0.0,0.0,0.0,0.0,0.0,0.5998653281738938,0.0,0.0,0.0,0.0,0.0,0.0,0.156
582,0.0,0.0,0.0,0.0,0.0,0.0,-0.387375,0.0,0.0,0.0,0.0,0.0,0.0,0.5998653281738938,0.0,0.0,0.0,0.0,0.0,0.0,0.044
583,0.0,0.0,0.0,0.0,0.0,0.0,-0.371365234375,0.0,0.0,0.0,0.0,0.0,0.0,0.5998653281738938,0.0,0.0,0.0,0.0,0.0,0.0,0.192
584,0.0,0.0,0.0,0.0,0.0,0.0,-0.350423828125,0.0,0.0,0.0,0.0,0.0,0.0,0.5998653281738938,0.0,0.0,0.0,0.0,0.0,0.0,0.056
585,0.0,0.0,0.0,0.0,0.0,0.0,-0.3298955078125,0.0,0.0,0.0,0.0,0.0,0.0,0.5998653281738938,0.0,0.0,0.0,0.0,0.0,0.0,0.108
586,0.0,0.0,0.0,0.0,0.0,0.0,-0.304861328125,0.0,0.0,0.0,0.0,0.0,0.0,0.5998653281738938,0.0,0.0,0.0,0.0,0.0,0.0,0.064
587,0.0,0.0,0.0,0.0,0.0,0.0,-0.2808203125,0.0,0.0,0.0,0.0,0.0,0.0,0.5998653281738938,0.0,0.0,0.0,0.0,0.0,0.0,0.172
588,0.0,0.0,0.0,0.0,0.0,0.0,-0.2551669921875,0.0,0.0,0.0,0.0,0.0,0.0,0.5998653281738938,0.0,0.0,0.0,0.0,0.0,0.0,-0.044
589,0.0,0.0,0.0,0.0,0.0,0.0,-0.22992578125,0.0,0.0,0.0,0.0,0.0,0.0,0.5998653281738938,0.0,0.0,0.0,0.0,0.0,0.0,0.296
590,0.0,0.0,0.0,0.0,0.0,0.0,-0.205705078125,0.0,0.0,0.0,0.0,0.0,0.0,0.5998653281738938,0.0,0.0,0.0,0.0,0.0,0.0,0.168
591,0.0,0.0,0.0,0.0,0.0,0.0,-0.181484375,0.0,0.0,0.0,0.0,0.0,0.0,0.5998653281738938,0.0,0.0,0.0,0.0,0.0,0.0,0.068
592,0.0,0.0,0.0,0.0,0.0,0.0,-0.1605556640625,0.0,0.0,0.0,0.0,0.0,0.0,0.5998653281738938,0.0,0.0,0.0,0.0,0.0,0.0,0.148
593,0.0,0.0,0.0,0.0,0.0,0.0,-0.1392001953125,0.0,0.0,0.0,0.0,0.0,0.0,0.5998653281738938,0.0,0.0,0.0,0.0,0.0,0.0,0.136
594,0.0,0.0,0.0,0.0,0.0,0.0,-0.1213447265625,0.0,0.0,0.0,0.0,0.0,0.0,0.5998653281738938,0.0,0.0,0.0,0.0,0.0,0.0,0.068
595,0.0,0.0,0.0,0.0,0.0,0.0,-0.10512890625,0.0,0.0,0.0,0.0,0.0,0.0,0.5998653281738938,0.0,0.0,0.0,0.0,0.0,0.0,0.148
596,0.0,0.0,0.0,0.0,0.0,0.0,-0.089712890625,0.0,0.0,0.0,0.0,0.0,0.0,0.5998653281738938,0.0,0.0,0.0,0.0,0.0,0.0,0.052
597,0.0,0.0,0.0,0.0,0.0,0.0,-0.0778095703125,0.0,0.0,0.0,0.0,0.0,0.0,0.5998653281738938,0.0,0.0,0.0,0.0,0.0,0.0,0.148
598,0.0,0.0,0.0,0.0,0.0,0.0,-0.06714453125,0.0,0.0,0.0,0.0,0.0,0.0,0.5998653281738938,0.0,0.0,0.0,0.0,0.0,0.0,0.332
599,0.0,0.0,0.0,0.0,0.0,0.0,-0.0564677734375,0.0,0.0,0.0,0.0,0.0,0.0,0.5998653281738938,0.0,0.0,0.0,0.0,0.0,0.0,0.168
600,0.0,0.0,0.0,0.0,0.0,0.0,-0.0476494140625,0.0,0.0,0.0,0.0,0.0,0.0,0.5998653281738938,0.0,0.0,0.0,0.0,0.0,0.0,0.128
601,0.0,0.0,0.0,0.0,0.0,0.0,-0.0398505859375,0.0,0.0,0.0,0.0,0.0,0.0,0.5998653281738938,0.0,0.0,0.0,0.0,0.0,0.0,0.22
602,0.0,0.0,0.0,0.0,0.0,0.0,-0.0326591796875,0.0,0.0,0.0,0.0,0.0,0.0,0.5998653281738938,0.0,0.0,0.0,0.0,0.0,0.0,0.16
603,0.0,0.0,0.0,0.0,0.0,0.0,-0.025068359375,0.0,0.0,0.0,0.0,0.0,0.0,0.5998653281738938,0.0,0.0,0.0,0.0,0.0,0.0,0.232
604,0.0,0.0,0.0,0.0,0.0,0.0,-0.016650390625,0.0,0.0,0.0,0.0,0.0,0.0,0.5998653281738938,0.0,0.0,0.0,0.0,0.0,0.0,0.148
605,0.0,0.0,0.0,0.0,0.0,0.0,-0.007625,0.0,0.0,0.0,0.0,0.0,0.0,0.5998653281738938,0.0,0.0,0.0,0.0,0.0,0.0,0.104
606,0.0,0.0,0.0,0.0,0.0,0.0,0.001412109375,0.0,0.0,0.0,0.0,0.0,0.0,0.5998653281738938,0.0,0.0,0.0,0.0,0.0,0.0,0.116
607,0.0,0.0,0.0,0.0,0.0,0.0,0.011056640625,0.0,0.0,0.0,0.0,0.0,0.0,0.5998653281738938,0.0,0.0,0.0,0.0,0.0,0.0,0.232
608,0.0,0.0,0.0,0.0,0.0,0.0,0.0217216796875,0.0,0.0,0.0,0.0,0.0,0.0,0.5998653281738938,0.0,0.0,0.0,0.0,0.0,0.0,0.272
609,0.0,0.0,0.0,0.0,0.0,0.0,0.034451171875,0.0,0.0,0.0,0.0,0.0,0.0,0.5998653281738938,0.0,0.0,0.0,0.0,0.0,0.0,0.032
610,0.0,0.0,0.0,0.0,0.0,0.0,0.047388671875,0.0,0.0,0.0,0.0,0.0,0.0,0.5998653281738938,0.0,0.0,0.0,0.0,0.0,0.0,0.096
611,0.0,0.0,0.0,0.0,0.0,0.0,0.0603125,0.0,0.0,0.0,0.0,0.0,0.0,0.5998653281738938,0.0,0.0,0.0,0.0,0.0,0.0,0.188
612,0.0,0.0,0.0,0.0,0.0,0.0,0.0603125,0.0,0.0,0.0,0.0,0.0,0.0,0.5998653281738938,0.0,0.0,0.0,0.0,0.0,0.0,0.188
613,0.0,0.0,0.0,0.0,0.0,0.0,0.0909111328125,0.0,0.0,0.0,0.0,0.0,0.0,0.5998653281738938,0.0,0.0,0.0,0.0,0.0,0.0,0.14
614,0.0,0.0,0.0,0.0,0.0,0.0,0.1054873046875,0.0,0.0,0.0,0.0,0.0,0.0,0.5998653281738938,0.0,0.0,0.0,0.0,0.0,0.0,0.212
615,0.0,0.0,0.0,0.0,0.0,0.0,0.122310546875,0.0,0.0,0.0,0.0,0.0,0.0,0.5998653281738938,0.0,0.0,0.0,0.0,0.0,0.0,0.076
616,0.0,0.0,0.0,0.0,0.0,0.0,0.1381259765625,0.0,0.0,0.0,0.0,0.0,0.0,0.5998653281738938,0.0,0.0,0.0,0.0,0.0,0.0,0.088
617,0.0,0.0,0.0,0.0,0.0,0.0,0.1541357421875,0.0,0.0,0.0,0.0,0.0,0.0,0.5998653281738938,0.0,0.0,0.0,0.0,0.0,0.0,0.18
618,0.0,0.0,0.0,0.0,0.0,0.0,0.186361328125,0.0,0.0,0.0,0.0,0.0,0.0,0.5998653281738938,0.0,0.0,0.0,0.0,0.0,0.0,0.224
619,0.0,0.0,0.0,0.0,0.0,0.0,0.202177734375,0.0,0.0,0.0,0.0,0.0,0.0,0.5998653281738938,0.0,0.0,0.0,0.0,0.0,0.0,0.208
620,0.0,0.0,0.0,0.0,0.0,0.0,0.2177744140625,0.0,0.0,0.0,0.0,0.0,0.0,0.5998653281738938,0.0,0.0,0.0,0.0,0.0,0.0,0.104
621,0.0,0.0,0.0,0.0,0.0,0.0,0.2319375,0.0,0.0,0.0,0.0,0.0,0.0,0.5998653281738938,0.0,0.0,0.0,0.0,0.0,0.0,0.212
622,0.0,0.0,0.0,0.0,0.0,0.0,0.2319375,0.0,0.0,0.0,0.0,0.0,0.0,0.5998653281738938,0.0,0.0,0.0,0.0,0.0,0.0,0.212
623,0.0,0.0,0.0,0.0,0.0,0.0,0.246720703125,0.0,0.0,0.0,0.0,0.0,0.0,0.5998653281738938,0.0,0.0,0.0,0.0,0.0,0.0,0.056
624,0.0,0.0,0.0,0.0,0.0,0.0,0.261296875,0.0,0.0,0.0,0.0,0.0,0.0,0.5998653281738938,0.0,0.0,0.0,0.0,0.0,0.0,0.136
625,0.0,0.0,0.0,0.0,0.0,0.0,0.2740400390625,0.0,0.0,0.0,0.0,0.0,0.0,0.5998653281738938,0.0,0.0,0.0,0.0,0.0,0.0,0.272
626,0.0,0.0,0.0,0.0,0.0,0.0,0.2873896484375,0.0,0.0,0.0,0.0,0.0,0.0,0.5998653281738938,0.0,0.0,0.0,0.0,0.0,0.0,0.16
627,0.0,0.0,0.0,0.0,0.0,0.0,0.3007392578125,0.0,0.0,0.0,0.0,0.0,0.0,0.5998653281738938,0.0,0.0,0.0,0.0,0.0,0.0,0.12
628,0.0,0.0,0.0,0.0,0.0,0.0,0.3128505859375,0.0,0.0,0.0,0.0,0.0,0.0,0.5998653281738938,0.0,0.0,0.0,0.0,0.0,0.0,0.14
629,0.0,0.0,0.0,0.0,0.0,0.0,0.3249736328125,0.0,0.0,0.0,0.0,0.0,0.0,0.5998653281738938,0.0,0.0,0.0,0.0,0.0,0.0,0.188
630,0.0,0.0,0.0,0.0,0.0,0.0,0.3381171875,0.0,0.0,0.0,0.0,0.0,0.0,0.5998653281738938,0.0,0.0,0.0,0.0,0.0,0.0,0.076
631,0.0,0.0,0.0,0.0,0.0,0.0,0.35043359375,0.0,0.0,0.0,0.0,0.0,0.0,0.5998653281738938,0.0,0.0,0.0,0.0,0.0,0.0,0.168
632,0.0,0.0,0.0,0.0,0.0,0.0,0.36214453125,0.0,0.0,0.0,0.0,0.0,0.0,0.5998653281738938,0.0,0.0,0.0,0.0,0.0,0.0,0.296
633,0.0,0.0,0.0,0.0,0.0,0.0,0.3748740234375,0.0,0.0,0.0,0.0,0.0,0.0,0.5998653281738938,0.0,0.0,0.0,0.0,0.0,0.0,0.188
634,0.0,0.0,0.0,0.0,0.0,0.0,0.388017578125,0.0,0.0,0.0,0.0,0.0,0.0,0.5998653281738938,0.0,0.0,0.0,0.0,0.0,0.0,0.128
635,0.0,0.0,0.0,0.0,0.0,0.0,0.40034765625,0.0,0.0,0.0,0.0,0.0,0.0,0.5998653281738938,0.0,0.0,0.0,0.0,0.0,0.0,0.156
636,0.0,0.0,0.0,0.0,0.0,0.0,0.413078125,0.0,0.0,0.0,0.0,0.0,0.0,0.5998653281738938,0.0,0.0,0.0,0.0,0.0,0.0,0.156
637,0.0,0.0,0.0,0.0,0.0,0.0,0.4268408203125,0.0,0.0,0.0,0.0,0.0,0.0,0.5998653281738938,0.0,0.0,0.0,0.0,0.0,0.0,0.064
638,0.0,0.0,0.0,0.0,0.0,0.0,0.4399970703125,0.0,0.0,0.0,0.0,0.0,0.0,0.5998653281738938,0.0,0.0,0.0,0.0,0.0,0.0,0.14
639,0.0,0.0,0.0,0.0,0.0,0.0,0.45293359375,0.0,0.0,0.0,0.0,0.0,0.0,0.5998653281738938,0.0,0.0,0.0,0.0,0.0,0.0,0.296
640,0.0,0.0,0.0,0.0,0.0,0.0,0.4671103515625,0.0,0.0,0.0,0.0,0.0,0.0,0.5998653281738938,0.0,0.0,0.0,0.0,0.0,0.0,0.12
641,0.0,0.0,0.0,0.0,0.0,0.0,0.4814931640625,0.0,0.0,0.0,0.0,0.0,0.0,0.5998653281738938,0.0,0.0,0.0,0.0,0.0,0.0,0.148
642,0.0,0.0,0.0,0.0,0.0,0.0,0.4948427734375,0.0,0.0,0.0,0.0,0.0,0.0,0.5998653281738938,0.0,0.0,0.0,0.0,0.0,0.0,0.188
643,0.0,0.0,0.0,0.0,0.0,0.0,0.50923828125,0.0,0.0,0.0,0.0,0.0,0.0,0.5998653281738938,0.0,0.0,0.0,0.0,0.0,0.0,0.052
644,0.0,0.0,0.0,0.0,0.0,0.0,0.5238408203125,0.0,0.0,0.0,0.0,0.0,0.0,0.5998653281738938,0.0,0.0,0.0,0.0,0.0,0.0,0.148
645,0.0,0.0,0.0,0.0,0.0,0.0,0.5373974609375,0.0,0.0,0.0,0.0,0.0,0.0,0.5998653281738938,0.0,0.0,0.0,0.0,0.0,0.0,0.324
646,0.0,0.0,0.0,0.0,0.0,0.0,0.5515732421875,0.0,0.0,0.0,0.0,0.0,0.0,0.5998653281738938,0.0,0.0,0.0,0.0,0.0,0.0,0.116
647,0.0,0.0,0.0,0.0,0.0,0.0,0.56617578125,0.0,0.0,0.0,0.0,0.0,0.0,-0.17295475679425723,0.0,0.0,0.0,0.0,0.0,0.0,0.14
648,0.0,0.0,0.0,0.0,0.0,0.0,0.579732421875,0.0,0.0,0.0,0.0,0.0,0.0,-0.17295475679425723,0.0,0.0,0.0,0.0,0.0,0.0,0.24
649,0.0,0.0,0.0,0.0,0.0,0.0,0.592888671875,0.0,0.0,0.0,0.0,0.0,0.0,-0.17295475679425723,0.0,0.0,0.0,0.0,0.0,0.0,0.056
650,0.0,0.0,0.0,0.0,0.0,0.0,0.601732421875,0.0,0.0,0.0,0.0,0.0,0.0,-0.17295475679425723,0.0,0.0,0.0,0.0,0.0,0.0,0.052
651,0.0,0.0,0.0,0.0,0.0,0.0,0.60378515625,0.0,0.0,0.0,0.0,0.0,0.0,-0.17295475679425723,0.0,0.0,0.0,0.0,0.0,0.0,0.128
652,0.0,0.0,0.0,0.0,0.0,0.0,0.60378515625,0.0,0.0,0.0,0.0,0.0,0.0,-0.17295475679425723,0.0,0.0,0.0,0.0,0.0,0.0,0.128
653,0.0,0.0,0.0,0.0,0.0,0.0,0.5955615234375,0.0,0.0,0.0,0.0,0.0,0.0,-0.17295475679425723,0.0,0.0,0.0,0.0,0.0,0.0,-0.076
654,0.0,0.0,0.0,0.0,0.0,0.0,0.585697265625,0.0,0.0,0.0,0.0,0.0,0.0,-0.17295475679425723,0.0,0.0,0.0,0.0,0.0,0.0,-0.116
655,0.0,0.0,0.0,0.0,0.0,0.0,0.585697265625,0.0,0.0,0.0,0.0,0.0,0.0,-0.17295475679425723,0.0,0.0,0.0,0.0,0.0,0.0,-0.116
656,0.0,0.0,0.0,0.0,0.0,0.0,0.55610546875,0.0,0.0,0.0,0.0,0.0,0.0,-0.17295475679425723,0.0,0.0,0.0,0.0,0.0,0.0,-0.088
657,0.0,0.0,0.0,0.0,0.0,0.0,0.5357578125,0.0,0.0,0.0,0.0,0.0,0.0,-0.17295475679425723,0.0,0.0,0.0,0.0,0.0,0.0,-0.032
658,0.0,0.0,0.0,0.0,0.0,0.0,0.4886845703125,0.0,0.0,0.0,0.0,0.0,0.0,-0.17295475679425723,0.0,0.0,0.0,0.0,0.0,0.0,-0.14
659,0.0,0.0,0.0,0.0,0.0,0.0,0.4886845703125,0.0,0.0,0.0,0.0,0.0,0.0,-0.17295475679425723,0.0,0.0,0.0,0.0,0.0,0.0,-0.14
660,0.0,0.0,0.0,0.0,0.0,0.0,0.4630048828125,0.0,0.0,0.0,0.0,0.0,0.0,-0.17295475679425723,0.0,0.0,0.0,0.0,0.0,0.0,-0.104
661,0.0,0.0,0.0,0.0,0.0,0.0,0.43732421875,0.0,0.0,0.0,0.0,0.0,0.0,-0.17295475679425723,0.0,0.0,0.0,0.0,0.0,0.0,0.128
662,0.0,0.0,0.0,0.0,0.0,0.0,0.41041796875,0.0,0.0,0.0,0.0,0.0,0.0,-0.17295475679425723,0.0,0.0,0.0,0.0,0.0,0.0,-0.16
663,0.0,0.0,0.0,0.0,0.0,0.0,0.3857578125,0.0,0.0,0.0,0.0,0.0,0.0,-0.17295475679425723,0.0,0.0,0.0,0.0,0.0,0.0,-0.084
664,0.0,0.0,0.0,0.0,0.0,0.0,0.3607109375,0.0,0.0,0.0,0.0,0.0,0.0,-0.17295475679425723,0.0,0.0,0.0,0.0,0.0,0.0,-0.016
665,0.0,0.0,0.0,0.0,0.0,0.0,0.338736328125,0.0,0.0,0.0,0.0,0.0,0.0,-0.17295475679425723,0.0,0.0,0.0,0.0,0.0,0.0,-0.012
666,0.0,0.0,0.0,0.0,0.0,0.0,0.31696875,0.0,0.0,0.0,0.0,0.0,0.0,-0.17295475679425723,0.0,0.0,0.0,0.0,0.0,0.0,-0.14
667,0.0,0.0,0.0,0.0,0.0,0.0,0.299099609375,0.0,0.0,0.0,0.0,0.0,0.0,-0.17295475679425723,0.0,0.0,0.0,0.0,0.0,0.0,0.052
668,0.0,0.0,0.0,0.0,0.0,0.0,0.280818359375,0.0,0.0,0.0,0.0,0.0,0.0,-0.17295475679425723,0.0,0.0,0.0,0.0,0.0,0.0,-0.172
669,0.0,0.0,0.0,0.0,0.0,0.0,0.266861328125,0.0,0.0,0.0,0.0,0.0,0.0,-0.17295475679425723,0.0,0.0,0.0,0.0,0.0,0.0,0.024
670,0.0,0.0,0.0,0.0,0.0,0.0,0.25453125,0.0,0.0,0.0,0.0,0.0,0.0,-0.17295475679425723,0.0,0.0,0.0,0.0,0.0,0.0,-0.052
671,0.0,0.0,0.0,0.0,0.0,0.0,0.242408203125,0.0,0.0,0.0,0.0,0.0,0.0,-0.17295475679425723,0.0,0.0,0.0,0.0,0.0,0.0,-0.2
672,0.0,0.0,0.0,0.0,0.0,0.0,0.232763671875,0.0,0.0,0.0,0.0,0.0,0.0,-0.17295475679425723,0.0,0.0,0.0,0.0,0.0,0.0,-0.116
673,0.0,0.0,0.0,0.0,0.0,0.0,0.2247587890625,0.0,0.0,0.0,0.0,0.0,0.0,-0.17295475679425723,0.0,0.0,0.0,0.0,0.0,0.0,-0.096
674,0.0,0.0,0.0,0.0,0.0,0.0,0.2175673828125,0.0,0.0,0.0,0.0,0.0,0.0,-0.17295475679425723,0.0,0.0,0.0,0.0,0.0,0.0,-0.056
675,0.0,0.0,0.0,0.0,0.0,0.0,0.2099755859375,0.0,0.0,0.0,0.0,0.0,0.0,-0.17295475679425723,0.0,0.0,0.0,0.0,0.0,0.0,-0.104
676,0.0,0.0,0.0,0.0,0.0,0.0,0.202578125,0.0,0.0,0.0,0.0,0.0,0.0,-0.17295475679425723,0.0,0.0,0.0,0.0,0.0,0.0,-0.088
677,0.0,0.0,0.0,0.0,0.0,0.0,0.1945732421875,0.0,0.0,0.0,0.0,0.0,0.0,-0.17295475679425723,0.0,0.0,0.0,0.0,0.0,0.0,-0.076
678,0.0,0.0,0.0,0.0,0.0,0.0,0.1867744140625,0.0,0.0,0.0,0.0,0.0,0.0,-0.17295475679425723,0.0,0.0,0.0,0.0,0.0,0.0,0.004
679,0.0,0.0,0.0,0.0,0.0,0.0,0.1785634765625,0.0,0.0,0.0,0.0,0.0,0.0,-0.17295475679425723,0.0,0.0,0.0,0.0,0.0,0.0,-0.012
680,0.0,0.0,0.0,0.0,0.0,0.0,0.1691259765625,0.0,0.0,0.0,0.0,0.0,0.0,-0.17295475679425723,0.0,0.0,0.0,0.0,0.0,0.0,-0.084
681,0.0,0.0,0.0,0.0,0.0,0.0,0.157828125,0.0,0.0,0.0,0.0,0.0,0.0,-0.17295475679425723,0.0,0.0,0.0,0.0,0.0,0.0,-0.2
682,0.0,0.0,0.0,0.0,0.0,0.0,0.1457177734375,0.0,0.0,0.0,0.0,0.0,0.0,-0.17295475679425723,0.0,0.0,0.0,0.0,0.0,0.0,-0.084
683,0.0,0.0,0.0,0.0,0.0,0.0,0.133814453125,0.0,0.0,0.0,0.0,0.0,0.0,-0.17295475679425723,0.0,0.0,0.0,0.0,0.0,0.0,-0.108
684,0.0,0.0,0.0,0.0,0.0,0.0,0.120064453125,0.0,0.0,0.0,0.0,0.0,0.0,-0.17295475679425723,0.0,0.0,0.0,0.0,0.0,0.0,-0.064
685,0.0,0.0,0.0,0.0,0.0,0.0,0.1048681640625,0.0,0.0,0.0,0.0,0.0,0.0,-0.17295475679425723,0.0,0.0,0.0,0.0,0.0,0.0,-0.024
686,0.0,0.0,0.0,0.0,0.0,0.0,0.090498046875,0.0,0.0,0.0,0.0,0.0,0.0,-0.17295475679425723,0.0,0.0,0.0,0.0,0.0,0.0,-0.036
687,0.0,0.0,0.0,0.0,0.0,0.0,0.0749013671875,0.0,0.0,0.0,0.0,0.0,0.0,-0.17295475679425723,0.0,0.0,0.0,0.0,0.0,0.0,-0.12
688,0.0,0.0,0.0,0.0,0.0,0.0,0.058259765625,0.0,0.0,0.0,0.0,0.0,0.0,-0.17295475679425723,0.0,0.0,0.0,0.0,0.0,0.0,0.004
689,0.0,0.0,0.0,0.0,0.0,0.0,0.042869140625,0.0,0.0,0.0,0.0,0.0,0.0,-0.17295475679425723,0.0,0.0,0.0,0.0,0.0,0.0,-0.076
690,0.0,0.0,0.0,0.0,0.0,0.0,0.0258271484375,0.0,0.0,0.0,0.0,0.0,0.0,-0.17295475679425723,0.0,0.0,0.0,0.0,0.0,0.0,-0.14
691,0.0,0.0,0.0,0.0,0.0,0.0,0.0096240234375,0.0,0.0,0.0,0.0,0.0,0.0,-0.17295475679425723,0.0,0.0,0.0,0.0,0.0,0.0,-0.012
692,0.0,0.0,0.0,0.0,0.0,0.0,-0.005779296875,0.0,0.0,0.0,0.0,0.0,0.0,-0.17295475679425723,0.0,0.0,0.0,0.0,0.0,0.0,-0.172
693,0.0,0.0,0.0,0.0,0.0,0.0,-0.02280859375,0.0,0.0,0.0,0.0,0.0,0.0,-0.17295475679425723,0.0,0.0,0.0,0.0,0.0,0.0,-0.2
694,0.0,0.0,0.0,0.0,0.0,0.0,-0.037384765625,0.0,0.0,0.0,0.0,0.0,0.0,-0.17295475679425723,0.0,0.0,0.0,0.0,0.0,0.0,-0.084
695,0.0,0.0,0.0,0.0,0.0,0.0,-0.0521552734375,0.0,0.0,0.0,0.0,0.0,0.0,-0.17295475679425723,0.0,0.0,0.0,0.0,0.0,0.0,-0.172
696,0.0,0.0,0.0,0.0,0.0,0.0,-0.0677646484375,0.0,0.0,0.0,0.0,0.0,0.0,-0.17295475679425723,0.0,0.0,0.0,0.0,0.0,0.0,-0.036
697,0.0,0.0,0.0,0.0,0.0,0.0,-0.08089453125,0.0,0.0,0.0,0.0,0.0,0.0,-0.17295475679425723,0.0,0.0,0.0,0.0,0.0,0.0,0.024
698,0.0,0.0,0.0,0.0,0.0,0.0,-0.0942314453125,0.0,0.0,0.0,0.0,0.0,0.0,-0.17295475679425723,0.0,0.0,0.0,0.0,0.0,0.0,-0.168
699,0.0,0.0,0.0,0.0,0.0,0.0,-0.108408203125,0.0,0.0,0.0,0.0,0.0,0.0,-0.17295475679425723,0.0,0.0,0.0,0.0,0.0,0.0,-0.104
700,0.0,0.0,0.0,0.0,0.0,0.0,-0.12073828125,0.0,0.0,0.0,0.0,0.0,0.0,-0.17295475679425723,0.0,0.0,0.0,0.0,0.0,0.0,-0.052
701,0.0,0.0,0.0,0.0,0.0,0.0,-0.1328486328125,0.0,0.0,0.0,0.0,0.0,0.0,-0.17295475679425723,0.0,0.0,0.0,0.0,0.0,0.0,-0.128
702,0.0,0.0,0.0,0.0,0.0,0.0,-0.1457724609375,0.0,0.0,0.0,0.0,0.0,0.0,0.4205899879375402,0.0,0.0,0.0,0.0,0.0,0.0,-0.16
703,0.0,0.0,0.0,0.0,0.0,0.0,-0.158708984375,0.0,0.0,0.0,0.0,0.0,0.0,0.4205899879375402,0.0,0.0,0.0,0.0,0.0,0.0,0.004
704,0.0,0.0,0.0,0.0,0.0,0.0,-0.1699931640625,0.0,0.0,0.0,0.0,0.0,0.0,0.4205899879375402,0.0,0.0,0.0,0.0,0.0,0.0,-0.064
705,0.0,0.0,0.0,0.0,0.0,0.0,-0.177998046875,0.0,0.0,0.0,0.0,0.0,0.0,0.4205899879375402,0.0,0.0,0.0,0.0,0.0,0.0,-0.056
706,0.0,0.0,0.0,0.0,0.0,0.0,-0.1802578125,0.0,0.0,0.0,0.0,0.0,0.0,0.4205899879375402,0.0,0.0,0.0,0.0,0.0,0.0,-0.096
707,0.0,0.0,0.0,0.0,0.0,0.0,-0.178205078125,0.0,0.0,0.0,0.0,0.0,0.0,0.4205899879375402,0.0,0.0,0.0,0.0,0.0,0.0,0.052
708,0.0,0.0,0.0,0.0,0.0,0.0,-0.172666015625,0.0,0.0,0.0,0.0,0.0,0.0,0.4205899879375402,0.0,0.0,0.0,0.0,0.0,0.0,0.116
709,0.0,0.0,0.0,0.0,0.0,0.0,-0.1638349609375,0.0,0.0,0.0,0.0,0.0,0.0,0.4205899879375402,0.0,0.0,0.0,0.0,0.0,0.0,0.224
710,0.0,0.0,0.0,0.0,0.0,0.0,-0.1509111328125,0.0,0.0,0.0,0.0,0.0,0.0,0.4205899879375402,0.0,0.0,0.0,0.0,0.0,0.0,0.284
711,0.0,0.0,0.0,0.0,0.0,0.0,-0.1338681640625,0.0,0.0,0.0,0.0,0.0,0.0,0.4205899879375402,0.0,0.0,0.0,0.0,0.0,0.0,0.016
712,0.0,0.0,0.0,0.0,0.0,0.0,-0.1151865234375,0.0,0.0,0.0,0.0,0.0,0.0,0.4205899879375402,0.0,0.0,0.0,0.0,0.0,0.0,0.192
713,0.0,0.0,0.0,0.0,0.0,0.0,-0.09197265625,0.0,0.0,0.0,0.0,0.0,0.0,0.4205899879375402,0.0,0.0,0.0,0.0,0.0,0.0,0.14
714,0.0,0.0,0.0,0.0,0.0,0.0,-0.0700107421875,0.0,0.0,0.0,0.0,0.0,0.0,0.4205899879375402,0.0,0.0,0.0,0.0,0.0,0.0,0.172
715,0.0,0.0,0.0,0.0,0.0,0.0,-0.044150390625,0.0,0.0,0.0,0.0,0.0,0.0,0.4205899879375402,0.0,0.0,0.0,0.0,0.0,0.0,0.116
716,0.0,0.0,0.0,0.0,0.0,0.0,-0.019529296875,0.0,0.0,0.0,0.0,0.0,0.0,0.4205899879375402,0.0,0.0,0.0,0.0,0.0,0.0,0.276
717,0.0,0.0,0.0,0.0,0.0,0.0,0.00591796875,0.0,0.0,0.0,0.0,0.0,0.0,0.4205899879375402,0.0,0.0,0.0,0.0,0.0,0.0,0.036
718,0.0,0.0,0.0,0.0,0.0,0.0,0.0307587890625,0.0,0.0,0.0,0.0,0.0,0.0,0.4205899879375402,0.0,0.0,0.0,0.0,0.0,0.0,0.22
719,0.0,0.0,0.0,0.0,0.0,0.0,0.053740234375,0.0,0.0,0.0,0.0,0.0,0.0,0.4205899879375402,0.0,0.0,0.0,0.0,0.0,0.0,0.096
720,0.0,0.0,0.0,0.0,0.0,0.0,0.0763349609375,0.0,0.0,0.0,0.0,0.0,0.0,0.4205899879375402,0.0,0.0,0.0,0.0,0.0,0.0,0.068
721,0.0,0.0,0.0,0.0,0.0,0.0,0.09665625,0.0,0.0,0.0,0.0,0.0,0.0,0.4205899879375402,0.0,0.0,0.0,0.0,0.0,0.0,0.192
722,0.0,0.0,0.0,0.0,0.0,0.0,0.1151318359375,0.0,0.0,0.0,0.0,0.0,0.0,0.4205899879375402,0.0,0.0,0.0,0.0,0.0,0.0,0.116
723,0.0,0.0,0.0,0.0,0.0,0.0,0.13257421875,0.0,0.0,0.0,0.0,0.0,0.0,0.4205899879375402,0.0,0.0,0.0,0.0,0.0,0.0,0.2
724,0.0,0.0,0.0,0.0,0.0,0.0,0.146337890625,0.0,0.0,0.0,0.0,0.0,0.0,0.4205899879375402,0.0,0.0,0.0,0.0,0.0,0.0,0.116
725,0.0,0.0,0.0,0.0,0.0,0.0,0.159880859375,0.0,0.0,0.0,0.0,0.0,0.0,0.4205899879375402,0.0,0.0,0.0,0.0,0.0,0.0,0.004
726,0.0,0.0,0.0,0.0,0.0,0.0,0.17178515625,0.0,0.0,0.0,0.0,0.0,0.0,0.4205899879375402,0.0,0.0,0.0,0.0,0.0,0.0,0.104
727,0.0,0.0,0.0,0.0,0.0,0.0,0.181236328125,0.0,0.0,0.0,0.0,0.0,0.0,0.4205899879375402,0.0,0.0,0.0,0.0,0.0,0.0,0.148
728,0.0,0.0,0.0,0.0,0.0,0.0,0.189654296875,0.0,0.0,0.0,0.0,0.0,0.0,0.4205899879375402,0.0,0.0,0.0,0.0,0.0,0.0,0.24
729,0.0,0.0,0.0,0.0,0.0,0.0,0.198072265625,0.0,0.0,0.0,0.0,0.0,0.0,0.4205899879375402,0.0,0.0,0.0,0.0,0.0,0.0,0.192
730,0.0,0.0,0.0,0.0,0.0,0.0,0.2060771484375,0.0,0.0,0.0,0.0,0.0,0.0,0.4205899879375402,0.0,0.0,0.0,0.0,0.0,0.0,0.064
731,0.0,0.0,0.0,0.0,0.0,0.0,0.213875,0.0,0.0,0.0,0.0,0.0,0.0,0.4205899879375402,0.0,0.0,0.0,0.0,0.0,0.0,0.052
732,0.0,0.0,0.0,0.0,0.0,0.0,0.2218798828125,0.0,0.0,0.0,0.0,0.0,0.0,0.4205899879375402,0.0,0.0,0.0,0.0,0.0,0.0,0.188
733,0.0,0.0,0.0,0.0,0.0,0.0,0.229884765625,0.0,0.0,0.0,0.0,0.0,0.0,0.4205899879375402,0.0,0.0,0.0,0.0,0.0,0.0,0.128
734,0.0,0.0,0.0,0.0,0.0,0.0,0.238921875,0.0,0.0,0.0,0.0,0.0,0.0,0.4205899879375402,0.0,0.0,0.0,0.0,0.0,0.0,0.104
735,0.0,0.0,0.0,0.0,0.0,0.0,0.2498056640625,0.0,0.0,0.0,0.0,0.0,0.0,0.4205899879375402,0.0,0.0,0.0,0.0,0.0,0.0,0.084
736,0.0,0.0,0.0,0.0,0.0,0.0,0.260896484375,0.0,0.0,0.0,0.0,0.0,0.0,0.4205899879375402,0.0,0.0,0.0,0.0,0.0,0.0,0.096
737,0.0,0.0,0.0,0.0,0.0,0.0,0.2719873046875,0.0,0.0,0.0,0.0,0.0,0.0,0.4205899879375402,0.0,0.0,0.0,0.0,0.0,0.0,0.26
738,0.0,0.0,0.0,0.0,0.0,0.0,0.2845234375,0.0,0.0,0.0,0.0,0.0,0.0,0.4205899879375402,0.0,0.0,0.0,0.0,0.0,0.0,0.2
739,0.0,0.0,0.0,0.0,0.0,0.0,0.2988935546875,0.0,0.0,0.0,0.0,0.0,0.0,0.4205899879375402,0.0,0.0,0.0,0.0,0.0,0.0,0.108
740,0.0,0.0,0.0,0.0,0.0,0.0,0.31265625,0.0,0.0,0.0,0.0,0.0,0.0,0.4205899879375402,0.0,0.0,0.0,0.0,0.0,0.0,0.108
741,0.0,0.0,0.0,0.0,0.0,0.0,0.327646484375,0.0,0.0,0.0,0.0,0.0,0.0,0.4205899879375402,0.0,0.0,0.0,0.0,0.0,0.0,0.188
742,0.0,0.0,0.0,0.0,0.0,0.0,0.3436552734375,0.0,0.0,0.0,0.0,0.0,0.0,0.4205899879375402,0.0,0.0,0.0,0.0,0.0,0.0,0.076
743,0.0,0.0,0.0,0.0,0.0,0.0,0.3588515625,0.0,0.0,0.0,0.0,0.0,0.0,0.4205899879375402,0.0,0.0,0.0,0.0,0.0,0.0,0.2
744,0.0,0.0,0.0,0.0,0.0,0.0,0.3750810546875,0.0,0.0,0.0,0.0,0.0,0.0,0.4205899879375402,0.0,0.0,0.0,0.0,0.0,0.0,0.26
745,0.0,0.0,0.0,0.0,0.0,0.0,0.39172265625,0.0,0.0,0.0,0.0,0.0,0.0,-0.5547724603083833,0.0,0.0,0.0,0.0,0.0,0.0,0.136
746,0.0,0.0,0.0,0.0,0.0,0.0,0.4069189453125,0.0,0.0,0.0,0.0,0.0,0.0,-0.5547724603083833,0.0,0.0,0.0,0.0,0.0,0.0,0.192
747,0.0,0.0,0.0,0.0,0.0,0.0,0.4231484375,0.0,0.0,0.0,0.0,0.0,0.0,-0.5547724603083833,0.0,0.0,0.0,0.0,0.0,0.0,0.044
748,0.0,0.0,0.0,0.0,0.0,0.0,0.435271484375,0.0,0.0,0.0,0.0,0.0,0.0,-0.5547724603083833,0.0,0.0,0.0,0.0,0.0,0.0,0.088
749,0.0,0.0,0.0,0.0,0.0,0.0,0.4402041015625,0.0,0.0,0.0,0.0,0.0,0.0,-0.5547724603083833,0.0,0.0,0.0,0.0,0.0,0.0,0.12
750,0.0,0.0,0.0,0.0,0.0,0.0,0.440810546875,0.0,0.0,0.0,0.0,0.0,0.0,-0.5547724603083833,0.0,0.0,0.0,0.0,0.0,0.0,0.188
751,0.0,0.0,0.0,0.0,0.0,0.0,0.4377373046875,0.0,0.0,0.0,0.0,0.0,0.0,-0.5547724603083833,0.0,0.0,0.0,0.0,0.0,0.0,0.068
752,0.0,0.0,0.0,0.0,0.0,0.0,0.4311533203125,0.0,0.0,0.0,0.0,0.0,0.0,-0.5547724603083833,0.0,0.0,0.0,0.0,0.0,0.0,-0.016
753,0.0,0.0,0.0,0.0,0.0,0.0,0.4200625,0.0,0.0,0.0,0.0,0.0,0.0,-0.5547724603083833,0.0,0.0,0.0,0.0,0.0,0.0,-0.168
754,0.0,0.0,0.0,0.0,0.0,0.0,0.4056923828125,0.0,0.0,0.0,0.0,0.0,0.0,-0.5547724603083833,0.0,0.0,0.0,0.0,0.0,0.0,-0.096
755,0.0,0.0,0.0,0.0,0.0,0.0,0.38884375,0.0,0.0,0.0,0.0,0.0,0.0,-0.5547724603083833,0.0,0.0,0.0,0.0,0.0,0.0,-0.012
756,0.0,0.0,0.0,0.0,0.0,0.0,0.367283203125,0.0,0.0,0.0,0.0,0.0,0.0,-0.5547724603083833,0.0,0.0,0.0,0.0,0.0,0.0,-0.104
757,0.0,0.0,0.0,0.0,0.0,0.0,0.3448955078125,0.0,0.0,0.0,0.0,0.0,0.0,-0.5547724603083833,0.0,0.0,0.0,0.0,0.0,0.0,-0.116
758,0.0,0.0,0.0,0.0,0.0,0.0,0.31840234375,0.0,0.0,0.0,0.0,0.0,0.0,-0.5547724603083833,0.0,0.0,0.0,0.0,0.0,0.0,-0.096
759,0.0,0.0,0.0,0.0,0.0,0.0,0.2917021484375,0.0,0.0,0.0,0.0,0.0,0.0,-0.5547724603083833,0.0,0.0,0.0,0.0,0.0,0.0,-0.156
760,0.0,0.0,0.0,0.0,0.0,0.0,0.2643828125,0.0,0.0,0.0,0.0,0.0,0.0,-0.5547724603083833,0.0,0.0,0.0,0.0,0.0,0.0,0.116
761,0.0,0.0,0.0,0.0,0.0,0.0,0.23625,0.0,0.0,0.0,0.0,0.0,0.0,-0.5547724603083833,0.0,0.0,0.0,0.0,0.0,0.0,-0.148
762,0.0,0.0,0.0,0.0,0.0,0.0,0.210388671875,0.0,0.0,0.0,0.0,0.0,0.0,-0.5547724603083833,0.0,0.0,0.0,0.0,0.0,0.0,-0.108
763,0.0,0.0,0.0,0.0,0.0,0.0,0.18430859375,0.0,0.0,0.0,0.0,0.0,0.0,-0.5547724603083833,0.0,0.0,0.0,0.0,0.0,0.0,0.016
764,0.0,0.0,0.0,0.0,0.0,0.0,0.1609140625,0.0,0.0,0.0,0.0,0.0,0.0,-0.5547724603083833,0.0,0.0,0.0,0.0,0.0,0.0,-0.16
765,0.0,0.0,0.0,0.0,0.0,0.0,0.1387333984375,0.0,0.0,0.0,0.0,0.0,0.0,-0.5547724603083833,0.0,0.0,0.0,0.0,0.0,0.0,-0.016
766,0.0,0.0,0.0,0.0,0.0,0.0,0.11903125,0.0,0.0,0.0,0.0,0.0,0.0,-0.5547724603083833,0.0,0.0,0.0,0.0,0.0,0.0,-0.168
767,0.0,0.0,0.0,0.0,0.0,0.0,0.1013818359375,0.0,0.0,0.0,0.0,0.0,0.0,-0.5547724603083833,0.0,0.0,0.0,0.0,0.0,0.0,0.136
768,0.0,0.0,0.0,0.0,0.0,0.0,0.08721875,0.0,0.0,0.0,0.0,0.0,0.0,-0.5547724603083833,0.0,0.0,0.0,0.0,0.0,0.0,-0.024
769,0.0,0.0,0.0,0.0,0.0,0.0,0.0738681640625,0.0,0.0,0.0,0.0,0.0,0.0,-0.5547724603083833,0.0,0.0,0.0,0.0,0.0,0.0,-0.156
770,0.0,0.0,0.0,0.0,0.0,0.0,0.062158203125,0.0,0.0,0.0,0.0,0.0,0.0,-0.5547724603083833,0.0,0.0,0.0,0.0,0.0,0.0,-0.056
771,0.0,0.0,0.0,0.0,0.0,0.0,0.05333984375,0.0,0.0,0.0,0.0,0.0,0.0,-0.5547724603083833,0.0,0.0,0.0,0.0,0.0,0.0,-0.044
772,0.0,0.0,0.0,0.0,0.0,0.0,0.0457353515625,0.0,0.0,0.0,0.0,0.0,0.0,-0.5547724603083833,0.0,0.0,0.0,0.0,0.0,0.0,-0.104
773,0.0,0.0,0.0,0.0,0.0,0.0,0.038763671875,0.0,0.0,0.0,0.0,0.0,0.0,-0.5547724603083833,0.0,0.0,0.0,0.0,0.0,0.0,-0.108
774,0.0,0.0,0.0,0.0,0.0,0.0,0.0319853515625,0.0,0.0,0.0,0.0,0.0,0.0,-0.5547724603083833,0.0,0.0,0.0,0.0,0.0,0.0,-0.128
775,0.0,0.0,0.0,0.0,0.0,0.0,0.024806640625,0.0,0.0,0.0,0.0,0.0,0.0,-0.5547724603083833,0.0,0.0,0.0,0.0,0.0,0.0,-0.12
776,0.0,0.0,0.0,0.0,0.0,0.0,0.017822265625,0.0,0.0,0.0,0.0,0.0,0.0,-0.5547724603083833,0.0,0.0,0.0,0.0,0.0,0.0,-0.036
777,0.0,0.0,0.0,0.0,0.0,0.0,0.011056640625,0.0,0.0,0.0,0.0,0.0,0.0,-0.5547724603083833,0.0,0.0,0.0,0.0,0.0,0.0,0.0
778,0.0,0.0,0.0,0.0,0.0,0.0,0.0032587890625,0.0,0.0,0.0,0.0,0.0,0.0,-0.5547724603083833,0.0,0.0,0.0,0.0,0.0,0.0,-0.088
779,0.0,0.0,0.0,0.0,0.0,0.0,-0.0059853515625,0.0,0.0,0.0,0.0,0.0,0.0,-0.5547724603083833,0.0,0.0,0.0,0.0,0.0,0.0,-0.16
780,0.0,0.0,0.0,0.0,0.0,0.0,-0.0168564453125,0.0,0.0,0.0,0.0,0.0,0.0,-0.5547724603083833,0.0,0.0,0.0,0.0,0.0,0.0,-0.24
781,0.0,0.0,0.0,0.0,0.0,0.0,-0.0287607421875,0.0,0.0,0.0,0.0,0.0,0.0,-0.5547724603083833,0.0,0.0,0.0,0.0,0.0,0.0,-0.088
782,0.0,0.0,0.0,0.0,0.0,0.0,-0.0404580078125,0.0,0.0,0.0,0.0,0.0,0.0,-0.5547724603083833,0.0,0.0,0.0,0.0,0.0,0.0,-0.128
783,0.0,0.0,0.0,0.0,0.0,0.0,-0.0540009765625,0.0,0.0,0.0,0.0,0.0,0.0,-0.5547724603083833,0.0,0.0,0.0,0.0,0.0,0.0,-0.096
784,0.0,0.0,0.0,0.0,0.0,0.0,-0.0696103515625,0.0,0.0,0.0,0.0,0.0,0.0,-0.5547724603083833,0.0,0.0,0.0,0.0,0.0,0.0,0.012
785,0.0,0.0,0.0,0.0,0.0,0.0,-0.084173828125,0.0,0.0,0.0,0.0,0.0,0.0,-0.5547724603083833,0.0,0.0,0.0,0.0,0.0,0.0,-0.068
786,0.0,0.0,0.0,0.0,0.0,0.0,-0.10018359375,0.0,0.0,0.0,0.0,0.0,0.0,-0.5547724603083833,0.0,0.0,0.0,0.0,0.0,0.0,-0.148
787,0.0,0.0,0.0,0.0,0.0,0.0,-0.1170322265625,0.0,0.0,0.0,0.0,0.0,0.0,-0.5547724603083833,0.0,0.0,0.0,0.0,0.0,0.0,-0.012
788,0.0,0.0,0.0,0.0,0.0,0.0,-0.1330546875,0.0,0.0,0.0,0.0,0.0,0.0,-0.5547724603083833,0.0,0.0,0.0,0.0,0.0,0.0,-0.14
789,0.0,0.0,0.0,0.0,0.0,0.0,-0.150498046875,0.0,0.0,0.0,0.0,0.0,0.0,-0.5547724603083833,0.0,0.0,0.0,0.0,0.0,0.0,-0.148
790,0.0,0.0,0.0,0.0,0.0,0.0,-0.1667138671875,0.0,0.0,0.0,0.0,0.0,0.0,-0.5547724603083833,0.0,0.0,0.0,0.0,0.0,0.0,0.004
791,0.0,0.0,0.0,0.0,0.0,0.0,-0.1825166015625,0.0,0.0,0.0,0.0,0.0,0.0,-0.5547724603083833,0.0,0.0,0.0,0.0,0.0,0.0,-0.168
792,0.0,0.0,0.0,0.0,0.0,0.0,-0.1995458984375,0.0,0.0,0.0,0.0,0.0,0.0,-0.5547724603083833,0.0,0.0,0.0,0.0,0.0,0.0,-0.088
793,0.0,0.0,0.0,0.0,0.0,0.0,-0.214123046875,0.0,0.0,0.0,0.0,0.0,0.0,-0.5547724603083833,0.0,0.0,0.0,0.0,0.0,0.0,-0.128
794,0.0,0.0,0.0,0.0,0.0,0.0,-0.2293056640625,0.0,0.0,0.0,0.0,0.0,0.0,-0.5547724603083833,0.0,0.0,0.0,0.0,0.0,0.0,-0.136
795,0.0,0.0,0.0,0.0,0.0,0.0,-0.244501953125,0.0,0.0,0.0,0.0,0.0,0.0,-0.5547724603083833,0.0,0.0,0.0,0.0,0.0,0.0,0.064
796,0.0,0.0,0.0,0.0,0.0,0.0,-0.2578388671875,0.0,0.0,0.0,0.0,0.0,0.0,-0.5547724603083833,0.0,0.0,0.0,0.0,0.0,0.0,-0.128
797,0.0,0.0,0.0,0.0,0.0,0.0,-0.2711767578125,0.0,0.0,0.0,0.0,0.0,0.0,-0.5547724603083833,0.0,0.0,0.0,0.0,0.0,0.0,-0.18
798,0.0,0.0,0.0,0.0,0.0,0.0,-0.28533984375,0.0,0.0,0.0,0.0,0.0,0.0,-0.5547724603083833,0.0,0.0,0.0,0.0,0.0,0.0,-0.068
799,0.0,0.0,0.0,0.0,0.0,0.0,-0.297669921875,0.0,0.0,0.0,0.0,0.0,0.0,-0.5547724603083833,0.0,0.0,0.0,0.0,0.0,0.0,-0.188
800,0.0,0.0,0.0,0.0,0.0,0.0,-0.3095732421875,0.0,0.0,0.0,0.0,0.0,0.0,-0.5547724603083833,0.0,0.0,0.0,0.0,0.0,0.0,-0.136
801,0.0,0.0,0.0,0.0,0.0,0.0,-0.322923828125,0.0,0.0,0.0,0.0,0.0,0.0,-0.5547724603083833,0.0,0.0,0.0,0.0,0.0,0.0,-0.084
802,0.0,0.0,0.0,0.0,0.0,0.0,-0.335240234375,0.0,0.0,0.0,0.0,0.0,0.0,-0.5547724603083833,0.0,0.0,0.0,0.0,0.0,0.0,0.0
803,0.0,0.0,0.0,0.0,0.0,0.0,-0.346318359375,0.0,0.0,0.0,0.0,0.0,0.0,-0.5547724603083833,0.0,0.0,0.0,0.0,0.0,0.0,-0.108
804,0.0,0.0,0.0,0.0,0.0,0.0,-0.3584287109375,0.0,0.0,0.0,0.0,0.0,0.0,-0.5547724603083833,0.0,0.0,0.0,0.0,0.0,0.0,-0.192
805,0.0,0.0,0.0,0.0,0.0,0.0,-0.3717783203125,0.0,0.0,0.0,0.0,0.0,0.0,-0.5547724603083833,0.0,0.0,0.0,0.0,0.0,0.0,-0.128
806,0.0,0.0,0.0,0.0,0.0,0.0,-0.3836826171875,0.0,0.0,0.0,0.0,0.0,0.0,-0.5547724603083833,0.0,0.0,0.0,0.0,0.0,0.0,-0.136
807,0.0,0.0,0.0,0.0,0.0,0.0,-0.39579296875,0.0,0.0,0.0,0.0,0.0,0.0,-0.5547724603083833,0.0,0.0,0.0,0.0,0.0,0.0,-0.168
808,0.0,0.0,0.0,0.0,0.0,0.0,-0.4097490234375,0.0,0.0,0.0,0.0,0.0,0.0,-0.5547724603083833,0.0,0.0,0.0,0.0,0.0,0.0,-0.136
809,0.0,0.0,0.0,0.0,0.0,0.0,-0.4226865234375,0.0,0.0,0.0,0.0,0.0,0.0,-0.5547724603083833,0.0,0.0,0.0,0.0,0.0,0.0,0.036
810,0.0,0.0,0.0,0.0,0.0,0.0,-0.4352099609375,0.0,0.0,0.0,0.0,0.0,0.0,-0.5547724603083833,0.0,0.0,0.0,0.0,0.0,0.0,-0.168
811,0.0,0.0,0.0,0.0,0.0,0.0,-0.4491796875,0.0,0.0,0.0,0.0,0.0,0.0,-0.5547724603083833,0.0,0.0,0.0,0.0,0.0,0.0,-0.292
812,0.0,0.0,0.0,0.0,0.0,0.0,-0.464982421875,0.0,0.0,0.0,0.0,0.0,0.0,-0.5547724603083833,0.0,0.0,0.0,0.0,0.0,0.0,-0.068
813,0.0,0.0,0.0,0.0,0.0,0.0,-0.4766923828125,0.0,0.0,0.0,0.0,0.0,0.0,-0.5547724603083833,0.0,0.0,0.0,0.0,0.0,0.0,-0.16
814,0.0,0.0,0.0,0.0,0.0,0.0,-0.4908564453125,0.0,0.0,0.0,0.0,0.0,0.0,-0.5547724603083833,0.0,0.0,0.0,0.0,0.0,0.0,-0.2
815,0.0,0.0,0.0,0.0,0.0,0.0,-0.505845703125,0.0,0.0,0.0,0.0,0.0,0.0,-0.5547724603083833,0.0,0.0,0.0,0.0,0.0,0.0,-0.036
816,0.0,0.0,0.0,0.0,0.0,0.0,-0.5191953125,0.0,0.0,0.0,0.0,0.0,0.0,0.14813945138474818,0.0,0.0,0.0,0.0,0.0,0.0,-0.16
817,0.0,0.0,0.0,0.0,0.0,0.0,-0.53315234375,0.0,0.0,0.0,0.0,0.0,0.0,0.14813945138474818,0.0,0.0,0.0,0.0,0.0,0.0,-0.224
818,0.0,0.0,0.0,0.0,0.0,0.0,-0.5479482421875,0.0,0.0,0.0,0.0,0.0,0.0,0.14813945138474818,0.0,0.0,0.0,0.0,0.0,0.0,-0.104
819,0.0,0.0,0.0,0.0,0.0,0.0,-0.5561591796875,0.0,0.0,0.0,0.0,0.0,0.0,0.14813945138474818,0.0,0.0,0.0,0.0,0.0,0.0,-0.088
820,0.0,0.0,0.0,0.0,0.0,0.0,-0.55883203125,0.0,0.0,0.0,0.0,0.0,0.0,0.14813945138474818,0.0,0.0,0.0,0.0,0.0,0.0,-0.044
821,0.0,0.0,0.0,0.0,0.0,0.0,-0.5573857421875,0.0,0.0,0.0,0.0,0.0,0.0,0.14813945138474818,0.0,0.0,0.0,0.0,0.0,0.0,0.056
822,0.0,0.0,0.0,0.0,0.0,0.0,-0.5526611328125,0.0,0.0,0.0,0.0,0.0,0.0,0.14813945138474818,0.0,0.0,0.0,0.0,0.0,0.0,0.084
823,0.0,0.0,0.0,0.0,0.0,0.0,-0.5436357421875,0.0,0.0,0.0,0.0,0.0,0.0,0.14813945138474818,0.0,0.0,0.0,0.0,0.0,0.0,0.2
824,0.0,0.0,0.0,0.0,0.0,0.0,-0.5436357421875,0.0,0.0,0.0,0.0,0.0,0.0,0.14813945138474818,0.0,0.0,0.0,0.0,0.0,0.0,0.2
825,0.0,0.0,0.0,0.0,0.0,0.0,-0.5144697265625,0.0,0.0,0.0,0.0,0.0,0.0,0.14813945138474818,0.0,0.0,0.0,0.0,0.0,0.0,0.044
826,0.0,0.0,0.0,0.0,0.0,0.0,-0.4955810546875,0.0,0.0,0.0,0.0,0.0,0.0,0.14813945138474818,0.0,0.0,0.0,0.0,0.0,0.0,0.316
827,0.0,0.0,0.0,0.0,0.0,0.0,-0.473400390625,0.0,0.0,0.0,0.0,0.0,0.0,0.14813945138474818,0.0,0.0,0.0,0.0,0.0,0.0,-0.012
828,0.0,0.0,0.0,0.0,0.0,0.0,-0.449373046875,0.0,0.0,0.0,0.0,0.0,0.0,0.14813945138474818,0.0,0.0,0.0,0.0,0.0,0.0,0.244
829,0.0,0.0,0.0,0.0,0.0,0.0,-0.42392578125,0.0,0.0,0.0,0.0,0.0,0.0,0.14813945138474818,0.0,0.0,0.0,0.0,0.0,0.0,0.14
830,0.0,0.0,0.0,0.0,0.0,0.0,-0.3968251953125,0.0,0.0,0.0,0.0,0.0,0.0,0.14813945138474818,0.0,0.0,0.0,0.0,0.0,0.0,0.148
831,0.0,0.0,0.0,0.0,0.0,0.0,-0.37219140625,0.0,0.0,0.0,0.0,0.0,0.0,0.14813945138474818,0.0,0.0,0.0,0.0,0.0,0.0,0.104
832,0.0,0.0,0.0,0.0,0.0,0.0,-0.3456982421875,0.0,0.0,0.0,0.0,0.0,0.0,0.14813945138474818,0.0,0.0,0.0,0.0,0.0,0.0,-0.056
833,0.0,0.0,0.0,0.0,0.0,0.0,-0.32168359375,0.0,0.0,0.0,0.0,0.0,0.0,0.14813945138474818,0.0,0.0,0.0,0.0,0.0,0.0,0.292
834,0.0,0.0,0.0,0.0,0.0,0.0,-0.2980830078125,0.0,0.0,0.0,0.0,0.0,0.0,0.14813945138474818,0.0,0.0,0.0,0.0,0.0,0.0,0.084
835,0.0,0.0,0.0,0.0,0.0,0.0,-0.27671484375,0.0,0.0,0.0,0.0,0.0,0.0,0.14813945138474818,0.0,0.0,0.0,0.0,0.0,0.0,0.188
836,0.0,0.0,0.0,0.0,0.0,0.0,-0.2570126953125,0.0,0.0,0.0,0.0,0.0,0.0,0.14813945138474818,0.0,0.0,0.0,0.0,0.0,0.0,0.004
837,0.0,0.0,0.0,0.0,0.0,0.0,-0.240396484375,0.0,0.0,0.0,0.0,0.0,0.0,0.14813945138474818,0.0,0.0,0.0,0.0,0.0,0.0,0.292
838,0.0,0.0,0.0,0.0,0.0,0.0,-0.2239736328125,0.0,0.0,0.0,0.0,0.0,0.0,0.14813945138474818,0.0,0.0,0.0,0.0,0.0,0.0,0.068
839,0.0,0.0,0.0,0.0,0.0,0.0,-0.2114501953125,0.0,0.0,0.0,0.0,0.0,0.0,0.14813945138474818,0.0,0.0,0.0,0.0,0.0,0.0,0.044
840,0.0,0.0,0.0,0.0,0.0,0.0,-0.2114501953125,0.0,0.0,0.0,0.0,0.0,0.0,0.14813945138474818,0.0,0.0,0.0,0.0,0.0,0.0,0.044
841,0.0,0.0,0.0,0.0,0.0,0.0,-0.200373046875,0.0,0.0,0.0,0.0,0.0,0.0,0.14813945138474818,0.0,0.0,0.0,0.0,0.0,0.0,0.208
842,0.0,0.0,0.0,0.0,0.0,0.0,-0.1806708984375,0.0,0.0,0.0,0.0,0.0,0.0,0.14813945138474818,0.0,0.0,0.0,0.0,0.0,0.0,0.056
843,0.0,0.0,0.0,0.0,0.0,0.0,-0.17306640625,0.0,0.0,0.0,0.0,0.0,0.0,0.14813945138474818,0.0,0.0,0.0,0.0,0.0,0.0,0.076
844,0.0,0.0,0.0,0.0,0.0,0.0,-0.16630078125,0.0,0.0,0.0,0.0,0.0,0.0,0.14813945138474818,0.0,0.0,0.0,0.0,0.0,0.0,0.172
845,0.0,0.0,0.0,0.0,0.0,0.0,-0.1595224609375,0.0,0.0,0.0,0.0,0.0,0.0,0.14813945138474818,0.0,0.0,0.0,0.0,0.0,0.0,0.252
846,0.0,0.0,0.0,0.0,0.0,0.0,-0.1521376953125,0.0,0.0,0.0,0.0,0.0,0.0,0.14813945138474818,0.0,0.0,0.0,0.0,0.0,0.0,0.212
847,0.0,0.0,0.0,0.0,0.0,0.0,-0.1435126953125,0.0,0.0,0.0,0.0,0.0,0.0,0.14813945138474818,0.0,0.0,0.0,0.0,0.0,0.0,0.128
848,0.0,0.0,0.0,0.0,0.0,0.0,-0.1349013671875,0.0,0.0,0.0,0.0,0.0,0.0,0.14813945138474818,0.0,0.0,0.0,0.0,0.0,0.0,0.084
849,0.0,0.0,0.0,0.0,0.0,0.0,-0.1256572265625,0.0,0.0,0.0,0.0,0.0,0.0,0.14813945138474818,0.0,0.0,0.0,0.0,0.0,0.0,0.128
850,0.0,0.0,0.0,0.0,0.0,0.0,-0.11579296875,0.0,0.0,0.0,0.0,0.0,0.0,0.14813945138474818,0.0,0.0,0.0,0.0,0.0,0.0,0.168
