EmanuelSamir/lab201_ws_projsamir/sawyer_dev/data/sawyer/temp/training_data_all_mul.csv
,j1,j2,j3,j4,j5,j6,j7,v1,v2,v3,v4,v5,v6,v7,jd1,jd2,jd3,jd4,jd5,jd6,jd7,e1,e2,e3,e4,e5,e6,e7
0,0.0,0.0,0.0,0.0,0.0,0.0,0.0,0.0,0.0,0.0,0.0,0.0,0.0,0.0,0.0,0.0,0.0,0.0,0.0,0.0,0.0,0.0,0.0,0.0,0.0,0.0,0.0,0.0
1,-0.84075,-0.0609326171875,0.6275556640625,1.00234765625,2.0580009765625,0.716953125,1.89921875,-0.001,-0.001,-0.001,-0.001,-0.001,-0.001,-0.001,5.2387402528815135e-05,2.5742330733016523e-05,3.939768670323843e-05,5.907920227261381e-06,2.6841080589029244e-05,1.6376704791000388e-06,2.96189695005993e-05,-0.156,-40.816,-0.576,-8.736,-2.08,2.516,0.388
2,-0.84075,-0.0609326171875,0.6275556640625,1.00234765625,2.0580009765625,0.716953125,1.89921875,-0.001,-0.001,-0.001,-0.001,-0.001,-0.001,-0.001,0.0023350963933479966,0.0033772144508373136,0.00530556404214481,0.0007879358462000104,0.003651098053730278,0.00021422626794474683,0.004201995129180898,-0.104,-40.76,-0.484,-8.78,-2.1,2.524,0.408
3,-0.84075,-0.0609326171875,0.6275556640625,1.00234765625,2.0580009765625,0.716953125,1.89921875,-0.001,-0.001,-0.001,-0.001,-0.001,-0.001,-0.001,0.007495469231003103,0.011058055866609904,0.017488077591725732,0.00261726108103025,0.012211520323257175,0.0007219271722625269,0.014258510884486998,-0.156,-40.76,-0.716,-8.848,-2.1,2.524,0.436
4,-0.84075,-0.0609326171875,0.6275556640625,1.00234765625,2.0580009765625,0.716953125,1.89921875,-0.001,-0.001,-0.001,-0.001,-0.001,-0.001,-0.001,0.012582381716009566,0.01859904984871615,0.029417836901494337,0.004410788499375177,0.020586741413274334,0.0012185184234053245,0.02407100928152874,-0.156,-40.76,-0.576,-8.736,-2.076,2.532,0.436
5,-0.84075,-0.0609326171875,0.6275556640625,1.00234765625,2.0580009765625,0.716953125,1.89921875,-0.001,-0.001,-0.001,-0.001,-0.001,-0.001,-0.001,0.01765405101870209,0.02611481327052209,0.04128665226052766,0.006202916993611589,0.02894407513344697,0.0017153674093690573,0.03386652574396783,-0.156,-40.76,-0.668,-8.78,-2.096,2.536,0.408
6,-0.84075,-0.0609326171875,0.6275556640625,1.00234765625,2.0580009765625,0.716953125,1.89921875,-0.001,-0.001,-0.001,-0.001,-0.001,-0.001,-0.001,0.022714011437829373,0.03360282506637301,0.05307195190760554,0.007992085130063468,0.03726567467544509,0.0022114640783237184,0.043609781005659425,-0.156,-40.76,-0.576,-8.688,-2.108,2.516,0.428
7,-0.84075,-0.0609326171875,0.6275556640625,1.00234765625,2.0580009765625,0.716953125,1.89921875,-0.001,-0.001,-0.001,-0.001,-0.001,-0.001,-0.001,0.02777013721390155,0.04107843042646633,0.06478748645128088,0.00978315104543255,0.045568938299551574,0.002708136167605048,0.05331990538600618,-0.156,-40.76,-0.436,-8.756,-2.08,2.536,0.42
8,-0.84075,-0.0609326171875,0.6275556640625,1.00234765625,2.0580009765625,0.716953125,1.89921875,-0.001,-0.001,-0.001,-0.001,-0.001,-0.001,-0.001,0.03288943594225752,0.0486379086346284,0.07657057695801651,0.011600433751884633,0.05395878496220174,0.003212181795762635,0.06311447325843371,-0.156,-40.76,-0.624,-8.712,-2.076,2.532,0.416
9,-0.84075,-0.0609326171875,0.6275556640625,1.00234765625,2.0580009765625,0.716953125,1.89921875,-0.001,-0.001,-0.001,-0.001,-0.001,-0.001,-0.001,0.03788514083739751,0.05597586710292347,0.0879344038422226,0.013370972146487166,0.06209340947106935,0.0037033315861037547,0.07259031710245271,-0.156,-40.76,-0.668,-8.712,-2.076,2.524,0.408
10,-0.84075,-0.0609326171875,0.6275556640625,1.00234765625,2.0580009765625,0.716953125,1.89921875,-0.001,-0.001,-0.001,-0.001,-0.001,-0.001,-0.001,0.04293668333857911,0.06340386417530934,0.09936277809985145,0.01517392363005423,0.07033658885534538,0.004204367705271393,0.0821851835539177,-0.212,-40.76,-0.668,-8.756,-2.096,2.516,0.42
11,-0.84075,-0.0609326171875,0.6275556640625,1.00234765625,2.0580009765625,0.716953125,1.89921875,-0.001,-0.001,-0.001,-0.001,-0.001,-0.001,-0.001,0.04797774212660142,0.07078491606286678,0.11061121396919955,0.016972137057678693,0.07849707178239392,0.004703351191616284,0.09164701267954463,-0.212,-40.76,-0.576,-8.824,-2.1,2.532,0.42
12,-0.84075,-0.0609326171875,0.6275556640625,1.00234765625,2.0580009765625,0.716953125,1.89921875,-0.001,-0.001,-0.001,-0.001,-0.001,-0.001,-0.001,0.05299144796281225,0.07809392287812585,0.1216432897808373,0.018763329869536483,0.08656843033804378,0.00520073170056898,0.10097855376051469,-0.104,-40.816,-0.6,-8.712,-2.088,2.532,0.416
13,-0.84075,-0.0609326171875,0.6275556640625,1.00234765625,2.0580009765625,0.716953125,1.89921875,-0.001,-0.001,-0.001,-0.001,-0.001,-0.001,-0.001,0.057966482512765566,0.0853172916927168,0.13242909342623113,0.0205448822167433,0.09453112290815568,0.005695404546584779,0.11014978331494071,-0.156,-40.76,-0.624,-8.712,-2.088,2.532,0.416
14,-0.84075,-0.0609326171875,0.6275556640625,1.00234765625,2.0580009765625,0.716953125,1.89921875,-0.001,-0.001,-0.001,-0.001,-0.001,-0.001,-0.001,0.0629503847774459,0.09253244305198853,0.14306954066100408,0.022336806891145793,0.10247137382683928,0.00619339586877181,0.1192667200181325,-0.104,-40.76,-0.644,-8.804,-2.088,2.532,0.4
15,-0.84075,-0.0609326171875,0.6275556640625,1.00234765625,2.0580009765625,0.716953125,1.89921875,-0.001,-0.001,-0.001,-0.001,-0.001,-0.001,-0.001,0.06791960313847605,0.09969672474982826,0.15349514649520435,0.02413006416383052,0.11034029197865161,0.006691975193795085,0.12826462992993942,-0.104,-40.816,-0.624,-8.804,-2.076,2.532,0.416
16,-0.84075,-0.0609326171875,0.6275556640625,1.00234765625,2.0580009765625,0.716953125,1.89921875,-0.001,-0.001,-0.001,-0.001,-0.001,-0.001,-0.001,0.07285890365062886,0.10677661650150398,0.16364550560457586,0.02591695207786324,0.11809788000353061,0.007188839507997306,0.13709358208094158,-0.156,-40.816,-0.716,-8.78,-2.088,2.512,0.42
17,-0.84075,-0.0609326171875,0.6275556640625,1.00234765625,2.0580009765625,0.716953125,1.89921875,-0.001,-0.001,-0.001,-0.001,-0.001,-0.001,-0.001,0.07779651091294827,0.11382669265456909,0.17358848301169405,0.02771288904194277,0.12580566194067574,0.007688519416460123,0.14582401417446694,-0.156,-40.816,-0.668,-8.804,-2.08,2.524,0.4
18,-0.84075,-0.0609326171875,0.6275556640625,1.00234765625,2.0580009765625,0.716953125,1.89921875,-0.001,-0.001,-0.001,-0.001,-0.001,-0.001,-0.001,0.08269740452248271,0.12077573646693633,0.18321469376069718,0.029500667458517354,0.13338381318177212,0.008186244352694017,0.15436277354614694,-0.212,-40.76,-0.624,-8.78,-2.088,2.532,0.408
19,-0.84075,-0.0609326171875,0.6275556640625,1.00234765625,2.0580009765625,0.716953125,1.89921875,-0.001,-0.001,-0.001,-0.001,-0.001,-0.001,-0.001,0.08755747732370132,0.12761341776726917,0.19250126669999898,0.031277595754976795,0.1408159364377048,0.008681052361715317,0.16268652474796275,-0.104,-40.816,-0.668,-8.848,-2.076,2.524,0.408
20,-0.84075,-0.0609326171875,0.6275556640625,1.00234765625,2.0580009765625,0.716953125,1.89921875,-0.001,-0.001,-0.001,-0.001,-0.001,-0.001,-0.001,0.09243662974420075,0.13445815804938013,0.20159618412300825,0.03307537126648053,0.1482255501667619,0.009181565899495219,0.17092498945326967,-0.104,-40.76,-0.668,-8.78,-2.108,2.524,0.44
21,-0.84075,-0.0609326171875,0.6275556640625,1.00234765625,2.0580009765625,0.716953125,1.89921875,-0.001,-0.001,-0.001,-0.001,-0.001,-0.001,-0.001,0.09729040457401174,0.14120845832391588,0.21035983585202686,0.034872625515844066,0.15552700204190878,0.009683097625379927,0.17902098886292697,-0.156,-40.76,-0.508,-8.78,-2.068,2.524,0.4
22,-0.84075,-0.0609326171875,0.6275556640625,1.00234765625,2.0580009765625,0.716953125,1.89921875,-0.001,-0.001,-0.001,-0.001,-0.001,-0.001,-0.001,0.10208133167456367,0.14782349032833908,0.21873804752588086,0.03666134611387617,0.16267259535112594,0.010182657166479129,0.18684930571657452,-0.156,-40.816,-0.576,-8.804,-2.088,2.512,0.448
23,-0.84075,-0.0609326171875,0.6275556640625,1.00234765625,2.0580009765625,0.716953125,1.89921875,-0.001,-0.001,-0.001,-0.001,-0.001,-0.001,-0.001,0.1068397069080235,0.15431312665277477,0.22670409271441566,0.03842713339556549,0.16960535755224748,0.010675226822686222,0.1943855393163949,-0.264,-40.76,-0.6,-8.736,-2.08,2.532,0.408
24,-0.84075,-0.0609326171875,0.6275556640625,1.00234765625,2.0580009765625,0.716953125,1.89921875,-0.001,-0.001,-0.001,-0.001,-0.001,-0.001,-0.001,0.11160486668990176,0.16080161810570923,0.23445068900465005,0.040230938328252544,0.1765691200079866,0.011180848078836857,0.20191968237119962,-0.104,-40.76,-0.552,-8.688,-2.08,2.516,0.42
25,-0.84075,-0.0609326171875,0.6275556640625,1.00234765625,2.0580009765625,0.716953125,1.89921875,-0.001,-0.001,-0.001,-0.001,-0.001,-0.001,-0.001,0.1162906176399155,0.16707471047202557,0.24166107577310994,0.041987949352498756,0.18319727393379945,0.011670274830076535,0.20897620538113387,-0.104,-40.76,-0.576,-8.78,-2.08,2.544,0.42
26,-0.84075,-0.0609326171875,0.6275556640625,1.00234765625,2.0580009765625,0.716953125,1.89921875,-0.001,-0.001,-0.001,-0.001,-0.001,-0.001,-0.001,0.1209636344549649,0.17330462717107023,0.24857819394149766,0.04377025980103695,0.18979858418018888,0.012169417272476312,0.21596200664958434,-0.104,-40.816,-0.508,-8.644,-2.088,2.516,0.416
27,-0.84075,-0.0609326171875,0.6275556640625,1.00234765625,2.0580009765625,0.716953125,1.89921875,-0.001,-0.001,-0.001,-0.001,-0.001,-0.001,-0.001,0.12559415222263332,0.17940196998453561,0.25507143518246533,0.045542868689928094,0.19622009165886448,0.012665941236076074,0.22267782368630598,-0.156,-40.76,-0.576,-8.804,-2.088,2.524,0.42
28,-0.84075,-0.0609326171875,0.6275556640625,1.00234765625,2.0580009765625,0.716953125,1.89921875,-0.001,-0.001,-0.001,-0.001,-0.001,-0.001,-0.001,0.1302371749364186,0.1854572460489883,0.2612329187704407,0.047336172715275925,0.2025656143169081,0.013168796979097274,0.22923667882966486,-0.104,-40.76,-0.576,-8.756,-2.08,2.532,0.428
29,-0.84075,-0.0609326171875,0.6275556640625,1.00234765625,2.0580009765625,0.716953125,1.89921875,-0.001,-0.001,-0.001,-0.001,-0.001,-0.001,-0.001,0.13478248637146573,0.19130250226545617,0.266886831971679,0.04910899217923979,0.20869150549213886,0.013667181939698254,0.23549023424484433,-0.156,-40.816,-0.624,-8.78,-2.088,2.516,0.408
30,-0.84075,-0.0609326171875,0.6275556640625,1.00234765625,2.0580009765625,0.716953125,1.89921875,-0.001,-0.001,-0.001,-0.001,-0.001,-0.001,-0.001,0.13928312838700754,0.19702892995411184,0.27211271847730234,0.050861444974227954,0.21457864573385632,0.014158535276350673,0.2413977911200448,-0.156,-40.816,-0.552,-8.736,-2.096,2.516,0.42
31,-0.84075,-0.0609326171875,0.6275556640625,1.00234765625,2.0580009765625,0.716953125,1.89921875,-0.001,-0.001,-0.001,-0.001,-0.001,-0.001,-0.001,0.1437726822429919,0.20266698158972526,0.27694267783783266,0.05263263837394494,0.22037371422968968,0.01465650009067457,0.24714050431733942,-0.156,-40.76,-0.624,-8.664,-2.088,2.516,0.416
32,-0.84075,-0.0609326171875,0.6275556640625,1.00234765625,2.0580009765625,0.716953125,1.89921875,-0.001,-0.001,-0.001,-0.001,-0.001,-0.001,-0.001,0.14820806140357665,0.2081533832695189,0.2813100306940427,0.054392383892794105,0.22596237337386052,0.015151141417585138,0.2525557757160283,-0.156,-40.76,-0.552,-8.756,-2.096,2.524,0.42
33,-0.84075,-0.0609326171875,0.6275556640625,1.00234765625,2.0580009765625,0.716953125,1.89921875,-0.001,-0.001,-0.001,-0.001,-0.001,-0.001,-0.001,0.1526420211213552,0.21356813405821726,0.2852760566682962,0.05617210660245879,0.2314624722797535,0.01565429788901035,0.25780178218536065,-0.156,-40.708,-0.576,-8.736,-2.076,2.524,0.436
34,-0.84075,-0.0609326171875,0.6275556640625,1.00234765625,2.0580009765625,0.716953125,1.89921875,-0.001,-0.001,-0.001,-0.001,-0.001,-0.001,-0.001,0.15696871267327075,0.2187596391130508,0.2887264946223341,0.057920505355947886,0.23665639839598587,0.016145524693159646,0.2626482693842889,-0.156,-40.76,-0.528,-8.664,-2.096,2.532,0.416
35,-0.84075,-0.0609326171875,0.6275556640625,1.00234765625,2.0580009765625,0.716953125,1.89921875,-0.001,-0.001,-0.001,-0.001,-0.001,-0.001,-0.001,0.16131174423072778,0.22390990418102133,0.2917869985650631,0.05970839858513745,0.24180788770846628,0.016651128197708438,0.2673518572671166,-0.156,-40.76,-0.484,-8.712,-2.076,2.524,0.44
36,-0.84075,-0.0609326171875,0.6275556640625,1.00234765625,2.0580009765625,0.716953125,1.89921875,-0.001,-0.001,-0.001,-0.001,-0.001,-0.001,-0.001,0.1655640442190945,0.22884060519569652,0.2943181956070033,0.06145155521684643,0.24663969860493307,0.017143011937441856,0.2716336380398045,-0.104,-40.816,-0.552,-8.736,-2.096,2.532,0.408
37,-0.84075,-0.0609326171875,0.6275556640625,1.00234765625,2.0580009765625,0.716953125,1.89921875,-0.001,-0.001,-0.001,-0.001,-0.001,-0.001,-0.001,0.16977833760495006,0.23364465549209362,0.29640021876067607,0.06320447624606168,0.2513123764725008,0.017638225740460776,0.2756560159187632,-0.156,-40.816,-0.6,-8.712,-2.068,2.536,0.416
38,-0.84075,-0.0609326171875,0.6275556640625,1.00234765625,2.0580009765625,0.716953125,1.89921875,-0.001,-0.001,-0.001,-0.001,-0.001,-0.001,-0.001,0.17390112201171995,0.2382493120957911,0.29799516000105913,0.06493566519396467,0.2557443756359589,0.018128582053114222,0.2793496734967719,-0.156,-40.816,-0.576,-8.688,-2.068,2.524,0.408
39,-0.84075,-0.0609326171875,0.6275556640625,1.00234765625,2.0580009765625,0.716953125,1.89921875,-0.001,-0.001,-0.001,-0.001,-0.001,-0.001,-0.001,0.1781061046886393,0.24285630761695717,0.29915920288269304,0.06672623787390417,0.26012759796465607,0.018636371915104127,0.28286561088457746,-0.104,-40.76,-0.644,-8.736,-2.108,2.544,0.416
40,-0.84075,-0.0609326171875,0.6275556640625,1.00234765625,2.0580009765625,0.716953125,1.89921875,-0.001,-0.001,-0.001,-0.001,-0.001,-0.001,-0.001,0.18212275167450107,0.24715948404146545,0.29981184398032945,0.06845837797521291,0.2641771970059257,0.01913009790436304,0.28597969932609385,-0.212,-40.816,-0.552,-8.78,-2.076,2.536,0.44
41,-0.84075,-0.0609326171875,0.6275556640625,1.00234765625,2.0580009765625,0.716953125,1.89921875,-0.001,-0.001,-0.001,-0.001,-0.001,-0.001,-0.001,0.18615054930025998,0.25137674005264743,0.2999968205875819,0.07020800940351392,0.26805507355782915,0.019625915231903976,0.2888068218585881,-0.156,-40.76,-0.74,-8.736,-2.088,2.516,0.428
42,-0.84075,-0.0609326171875,0.6275556640625,1.00234765625,2.0580009765625,0.716953125,1.89921875,-0.001,-0.001,-0.001,-0.001,-0.001,-0.001,-0.001,0.19009148574147602,0.2553910976922431,0.29970632607759384,0.07194082087469264,0.27169811556044643,0.02011919223067018,0.2912949340302517,-0.156,-40.76,-0.576,-8.804,-2.088,2.532,0.4
43,-0.84075,-0.0609326171875,0.6275556640625,1.00234765625,2.0580009765625,0.716953125,1.89921875,-0.001,-0.001,-0.001,-0.001,-0.001,-0.001,-0.001,0.19404190312068692,0.25933738933521167,0.29891935027709765,0.07371653118305468,0.27522730340650886,0.02062760417692839,0.2935472444601217,-0.156,-40.76,-0.668,-8.848,-2.108,2.536,0.42
44,-0.84075,-0.0609326171875,0.6275556640625,1.00234765625,2.0580009765625,0.716953125,1.89921875,-0.001,-0.001,-0.001,-0.001,-0.001,-0.001,-0.001,0.19785582603342475,0.26298659327686236,0.29769419288083676,0.07542100543922872,0.2783906688043081,0.021112624457386448,0.2953793253120231,-0.156,-40.76,-0.552,-8.804,-2.068,2.524,0.408
45,-0.84075,-0.0609326171875,0.6275556640625,1.00234765625,2.0580009765625,0.716953125,1.89921875,-0.001,-0.001,-0.001,-0.001,-0.001,-0.001,-0.001,0.2016392970741697,0.26653223196832665,0.29597785360244333,0.077155857885502,0.28140877444032725,0.02160791059916959,0.296939657484808,-0.156,-40.76,-0.692,-8.804,-2.068,2.516,0.416
46,-0.84075,-0.0609326171875,0.6275556640625,1.00234765625,2.0580009765625,0.716953125,1.89921875,-0.001,-0.001,-0.001,-0.001,-0.001,-0.001,-0.001,0.20537691002238004,0.26991562702539074,0.2937857528183202,0.07889195827103268,0.2842136671104379,0.022105173151728868,0.29818593534325855,-0.156,-40.76,-0.668,-8.824,-2.076,2.516,0.408
47,-0.84075,-0.0609326171875,0.6275556640625,1.00234765625,2.0580009765625,0.716953125,1.89921875,-0.001,-0.001,-0.001,-0.001,-0.001,-0.001,-0.001,0.20905555319069213,0.2731244375994126,0.2911289811632639,0.0806222559392991,0.28679006594041095,0.022601238636230942,0.2991068068770911,-0.212,-40.76,-0.528,-8.824,-2.096,2.504,0.416
48,-0.84075,-0.0609326171875,0.6275556640625,1.00234765625,2.0580009765625,0.716953125,1.89921875,-0.001,-0.001,-0.001,-0.001,-0.001,-0.001,-0.001,0.21269870988626838,0.27618769952111777,0.2879729262499291,0.08236971555912562,0.28917001509606816,0.023111783421936212,0.2997182831928893,-0.156,-40.76,-0.576,-8.688,-2.076,2.516,0.408
49,-0.84075,-0.0609326171875,0.6275556640625,1.00234765625,2.0580009765625,0.716953125,1.89921875,-0.001,-0.001,-0.001,-0.001,-0.001,-0.001,-0.001,0.2162348090179429,0.2790258084141771,0.2844229161258919,0.08407741921965407,0.29127162952124414,0.023594471331090033,0.29998048781488845,-0.156,-40.76,-0.644,-8.712,-2.076,2.516,0.42
50,-0.84075,-0.0609326171875,0.6275556640625,1.00234765625,2.0580009765625,0.716953125,1.89921875,-0.001,-0.001,-0.001,-0.001,-0.001,-0.001,-0.001,0.21974099919605428,0.2817218734523919,0.2803682257780003,0.08581060029188675,0.2931830572368602,0.024095255099066973,0.29992859382705384,-0.156,-40.76,-0.576,-8.712,-2.096,2.524,0.416
51,-0.84075,-0.0609326171875,0.6275556640625,1.00234765625,2.0580009765625,0.716953125,1.89921875,-0.001,-0.001,-0.001,-0.001,-0.001,-0.001,-0.001,0.22318221724910733,0.284240379799662,0.275845041587385,0.08754492620465591,0.29486202909472525,0.024595474555401637,0.2995472962558056,-0.104,-40.816,-0.508,-8.756,-2.096,2.532,0.42
52,-0.84075,-0.0609326171875,0.6275556640625,1.00234765625,2.0580009765625,0.716953125,1.89921875,-0.001,-0.001,-0.001,-0.001,-0.001,-0.001,-0.001,0.2265398977710086,0.28655461914853725,0.2709608131134781,0.0892447108513974,0.2962811256167574,0.025086212001020708,0.29885401890235513,-0.104,-40.816,-0.552,-8.824,-2.1,2.524,0.416
53,-0.84075,-0.0609326171875,0.6275556640625,1.00234765625,2.0580009765625,0.716953125,1.89921875,-0.001,-0.001,-0.001,-0.001,-0.001,-0.001,-0.001,0.2298474632742637,0.28870139185446775,0.2655989809867546,0.09096000195126765,0.29748526945834974,0.025584957619131047,0.2978245924675389,-0.156,-40.76,-0.576,-8.688,-2.068,2.516,0.408
54,-0.84075,-0.0609326171875,0.6275556640625,1.00234765625,2.0580009765625,0.716953125,1.89921875,-0.001,-0.001,-0.001,-0.001,-0.001,-0.001,-0.001,0.23308429618307136,0.2906698559397598,0.2597961702647503,0.09267662564701112,0.2984576054418904,0.02608094836718846,0.2964790544971528,-0.156,-40.816,-0.668,-8.896,-2.068,2.532,0.44
55,-0.84075,-0.0609326171875,0.6275556640625,1.00234765625,2.0580009765625,0.716953125,1.89921875,-0.001,-0.001,-0.001,-0.001,-0.001,-0.001,-0.001,0.2362236552373618,0.2924220463069339,0.25369998972299623,0.0943558063368382,0.29918116223910435,0.02656834468835391,0.2948451983109986,-0.156,-40.76,-0.624,-8.824,-2.076,2.532,0.408
56,-0.84075,-0.0609326171875,0.6275556640625,1.00234765625,2.0580009765625,0.716953125,1.89921875,-0.001,-0.001,-0.001,-0.001,-0.001,-0.001,-0.001,0.23934360917074632,0.29402713517663276,0.24705518958014996,0.09607222959496015,0.2996871906549833,0.027068162805542157,0.2928484137282018,-0.156,-40.76,-0.668,-8.756,-2.108,2.512,0.416
57,-0.84075,-0.0609326171875,0.6275556640625,1.00234765625,2.0580009765625,0.716953125,1.89921875,-0.001,-0.001,-0.001,-0.001,-0.001,-0.001,-0.001,0.24236662551579968,0.29542749794199646,0.2400996444259908,0.09776358332462097,0.29995244969406193,0.027561264041116532,0.29056418819701463,-0.212,-40.816,-0.576,-8.736,-2.068,2.516,0.408
58,-0.84075,-0.0609326171875,0.6275556640625,1.00234765625,2.0580009765625,0.716953125,1.89921875,-0.001,-0.001,-0.001,-0.001,-0.001,-0.001,-0.001,0.24533916807445183,0.29665389686990906,0.23267499034258898,0.09947311635435202,0.2999836036797938,0.02806176919002912,0.2879242091070263,-0.156,-40.816,-0.552,-8.756,-2.088,2.524,0.436
59,-0.84075,-0.0609326171875,0.6275556640625,1.00234765625,2.0580009765625,0.716953125,1.89921875,-0.001,-0.001,-0.001,-0.001,-0.001,-0.001,-0.001,0.24821666852555646,0.2976778160311382,0.22498525967459881,0.10115573259805123,0.29977935154160246,0.028561356812604907,0.28497100573152606,-0.104,-40.816,-0.644,-8.736,-2.096,2.516,0.408
60,-0.84075,-0.0609326171875,0.6275556640625,1.00234765625,2.0580009765625,0.716953125,1.89921875,-0.001,-0.001,-0.001,-0.001,-0.001,-0.001,-0.001,0.25108062650080953,0.29853363307022984,0.21674397709403337,0.1028740976378378,0.2993302835772768,0.02905991960762541,0.28171511237359287,-0.212,-40.76,-0.716,-8.78,-2.08,2.516,0.42
61,-0.84075,-0.0609326171875,0.6275556640625,1.00234765625,2.0580009765625,0.716953125,1.89921875,-0.001,-0.001,-0.001,-0.001,-0.001,-0.001,-0.001,0.253791559303639,0.2991767683367475,0.20842727838349756,0.10453122501477188,0.2986661301785371,0.029545635370674683,0.27825154767838156,-0.156,-40.76,-0.668,-8.804,-2.06,2.532,0.428
62,-0.84075,-0.0609326171875,0.6275556640625,1.00234765625,2.0580009765625,0.716953125,1.89921875,-0.001,-0.001,-0.001,-0.001,-0.001,-0.001,-0.001,0.25646132492049933,0.29963959956155045,0.19969136572354831,0.1062035084586513,0.2977639771648231,0.03003760178850983,0.27444539260086487,-0.156,-40.76,-0.74,-8.712,-2.08,2.532,0.428
63,-0.84075,-0.0609326171875,0.6275556640625,1.00234765625,2.0580009765625,0.716953125,1.89921875,-0.001,-0.001,-0.001,-0.001,-0.001,-0.001,-0.001,0.2590843552832139,0.2999166039609859,0.19048300057640075,0.10790857871720323,0.29660072062685977,0.03054240188715117,0.27022820673056214,-0.212,-40.76,-0.528,-8.712,-2.1,2.536,0.42
64,-0.84075,-0.0609326171875,0.6275556640625,1.00234765625,2.0580009765625,0.716953125,1.89921875,-0.001,-0.001,-0.001,-0.001,-0.001,-0.001,-0.001,0.26160854187163624,0.2999996623955506,0.18112770803479858,0.10956788921265115,0.29523805060900077,0.031032171404092635,0.2658543726917445,-0.156,-40.708,-0.484,-8.78,-2.1,2.496,0.416
65,-0.84075,-0.0609326171875,0.6275556640625,1.00234765625,2.0580009765625,0.716953125,1.89921875,-0.001,-0.001,-0.001,-0.001,-0.001,-0.001,-0.001,0.26406638604849797,0.2998925570926157,0.17139803424082065,0.11125017832973945,0.2936146177158724,0.03153236063545602,0.2610908686950564,-0.104,-40.76,-0.552,-8.756,-2.076,2.536,0.408
66,-0.84075,-0.0609326171875,0.6275556640625,1.00234765625,2.0580009765625,0.716953125,1.89921875,-0.001,-0.001,-0.001,-0.001,-0.001,-0.001,-0.001,0.26643646501412804,0.29959632936656355,0.16145890530342547,0.11290712218100954,0.29178923639418575,0.032023635330162545,0.25613329459944806,-0.104,-40.816,-0.528,-8.736,-2.08,2.544,0.428
67,-0.84075,-0.0609326171875,0.6275556640625,1.00234765625,2.0580009765625,0.716953125,1.89921875,-0.001,-0.001,-0.001,-0.001,-0.001,-0.001,-0.001,0.26870725119912253,0.2991183382904848,0.15139683324313893,0.11454261393752596,0.28975888680663564,0.032510080666417286,0.2509577248066989,-0.156,-40.76,-0.668,-8.736,-2.088,2.516,0.416
68,-0.84075,-0.0609326171875,0.6275556640625,1.00234765625,2.0580009765625,0.716953125,1.89921875,-0.001,-0.001,-0.001,-0.001,-0.001,-0.001,-0.001,0.2709591324488018,0.29843316302506345,0.14076360477346628,0.1162299393814124,0.2874229109167254,0.03301489891678743,0.2452999105284125,-0.156,-40.76,-0.692,-8.804,-2.08,2.524,0.42
69,-0.84075,-0.0609326171875,0.6275556640625,1.00234765625,2.0580009765625,0.716953125,1.89921875,-0.001,-0.001,-0.001,-0.001,-0.001,-0.001,-0.001,0.2730952804786246,0.29757304260461215,0.13014579614667177,0.11787185065086306,0.2849239697531386,0.03350531776544281,0.23954757701983312,-0.156,-40.816,-0.624,-8.664,-2.06,2.516,0.42
70,-0.84075,-0.0609326171875,0.6275556640625,1.00234765625,2.0580009765625,0.716953125,1.89921875,-0.001,-0.001,-0.001,-0.001,-0.001,-0.001,-0.001,0.27515999785960965,0.29652090147985105,0.11925954069896275,0.11952063119926673,0.282182768053638,0.03399990241484577,0.23348316756900706,-0.156,-40.816,-0.528,-8.736,-2.08,2.536,0.408
71,-0.84075,-0.0609326171875,0.6275556640625,1.00234765625,2.0580009765625,0.716953125,1.89921875,-0.001,-0.001,-0.001,-0.001,-0.001,-0.001,-0.001,0.27714998745058955,0.295275752140479,0.10812404529188811,0.12117578405933897,0.27919044907686336,0.034499839737512236,0.22708791095300693,-0.156,-40.816,-0.644,-8.712,-2.1,2.532,0.416
72,-0.84075,-0.0609326171875,0.6275556640625,1.00234765625,2.0580009765625,0.716953125,1.89921875,-0.001,-0.001,-0.001,-0.001,-0.001,-0.001,-0.001,0.27904532162420476,0.2938637978976568,0.0970128995573985,0.12279263732074899,0.27606735201204613,0.034984299027469475,0.22066998373201932,-0.156,-40.76,-0.644,-8.804,-2.08,2.524,0.42
73,-0.84075,-0.0609326171875,0.6275556640625,1.00234765625,2.0580009765625,0.716953125,1.89921875,-0.001,-0.001,-0.001,-0.001,-0.001,-0.001,-0.001,0.28088339576001914,0.29223914905427567,0.0855182097182016,0.12444214698669266,0.2726412000074197,0.03548299508223137,0.21380831778159332,-0.104,-40.816,-0.576,-8.78,-2.1,2.532,0.42
74,-0.84075,-0.0609326171875,0.6275556640625,1.00234765625,2.0580009765625,0.716953125,1.89921875,-0.001,-0.001,-0.001,-0.001,-0.001,-0.001,-0.001,0.2826367541336945,0.29042722704933455,0.07389097216946525,0.1260863093124432,0.2689993248041256,0.03598134430340329,0.2067156773479327,-0.156,-40.76,-0.576,-8.712,-2.088,2.516,0.408
75,-0.84075,-0.0609326171875,0.6275556640625,1.00234765625,2.0580009765625,0.716953125,1.89921875,-0.001,-0.001,-0.001,-0.001,-0.001,-0.001,-0.001,0.2842909157854193,0.28846240647842397,0.06234315249490865,0.12769679246447038,0.26521696334572736,0.03647575281183314,0.19945172072389356,-0.156,-40.76,-0.576,-8.688,-2.076,2.532,0.416
76,-0.84075,-0.0609326171875,0.6275556640625,1.00234765625,2.0580009765625,0.716953125,1.89921875,-0.001,-0.001,-0.001,-0.001,-0.001,-0.001,-0.001,0.2858732318860967,0.28629881327317497,0.05059325819842266,0.12931770490904246,0.2611917357882361,0.03696327738450787,0.19208799497486134,-0.212,-40.816,-0.576,-8.756,-2.088,2.524,0.428
77,-0.84075,-0.0609326171875,0.6275556640625,1.00234765625,2.0580009765625,0.716953125,1.89921875,-0.001,-0.001,-0.001,-0.001,-0.001,-0.001,-0.001,0.287374359475939,0.2839504353151655,0.0387391216750161,0.13093819230542578,0.25694872460504686,0.03745826197430064,0.1843934480142581,-0.156,-40.76,-0.552,-8.736,-2.088,2.516,0.408
78,-0.84075,-0.0609326171875,0.6275556640625,1.00234765625,2.0580009765625,0.716953125,1.89921875,-0.001,-0.001,-0.001,-0.001,-0.001,-0.001,-0.001,0.288795919672103,0.2814177612078277,0.026800096289573274,0.13255704626248593,0.252493920822417,0.037954284863973495,0.17647807048682201,-0.156,-40.816,-0.576,-8.804,-2.08,2.532,0.416
79,-0.84075,-0.0609326171875,0.6275556640625,1.00234765625,2.0580009765625,0.716953125,1.89921875,-0.001,-0.001,-0.001,-0.001,-0.001,-0.001,-0.001,0.29012893630638703,0.27872260215018807,0.014902228949984194,0.1341585967684349,0.24787980357413816,0.038445565219945826,0.16845363400308228,-0.212,-40.76,-0.668,-8.78,-2.068,2.524,0.42
80,-0.84075,-0.0609326171875,0.6275556640625,1.00234765625,2.0580009765625,0.716953125,1.89921875,-0.001,-0.001,-0.001,-0.001,-0.001,-0.001,-0.001,0.29139364657162675,0.2758061834885403,0.002653936186004743,0.13580229958982,0.24292268295823252,0.03895257883375607,0.15995453916557342,-0.104,-40.76,-0.552,-8.756,-2.08,2.544,0.416
81,-0.84075,-0.0609326171875,0.6275556640625,1.00234765625,2.0580009765625,0.716953125,1.89921875,-0.001,-0.001,-0.001,-0.001,-0.001,-0.001,-0.001,0.2925593686425673,0.27274857515139633,-0.00922697328357865,0.13738707982802956,0.23794641376173709,0.03944102139662829,0.1516365647187433,-0.156,-40.76,-0.552,-8.804,-2.088,2.532,0.408
82,-0.84075,-0.0609326171875,0.6275556640625,1.00234765625,2.0580009765625,0.716953125,1.89921875,-0.001,-0.001,-0.001,-0.001,-0.001,-0.001,-0.001,0.2936312684106705,0.26957092058760307,-0.020945034419768426,0.13894710410102204,0.2328542437128064,0.039923088653182025,0.1432541775583124,-0.156,-40.76,-0.528,-8.712,-2.068,2.524,0.416
83,-0.84075,-0.0609326171875,0.6275556640625,1.00234765625,2.0580009765625,0.716953125,1.89921875,-0.001,-0.001,-0.001,-0.001,-0.001,-0.001,-0.001,0.29463227013303,0.2661652312368626,-0.032896395595348946,0.14053969204955016,0.22745271114408286,0.04041763313768612,0.1344925994727793,-0.156,-40.76,-0.552,-8.824,-2.1,2.524,0.416
84,-0.84075,-0.0609326171875,0.6275556640625,1.00234765625,2.0580009765625,0.716953125,1.89921875,-0.001,-0.001,-0.001,-0.001,-0.001,-0.001,-0.001,0.29555593398269275,0.26255663588613365,-0.04490634344993176,0.1421427170241442,0.2218152774399798,0.04091715625778393,0.12548914771996536,-0.156,-40.816,-0.624,-8.756,-2.08,2.532,0.42
85,-0.84075,-0.0609326171875,0.6275556640625,1.00234765625,2.0580009765625,0.716953125,1.89921875,-0.001,-0.001,-0.001,-0.001,-0.001,-0.001,-0.001,0.29638343327242905,0.2588416837703315,-0.05663760309079016,0.14371117711392603,0.21611332502854572,0.041406491001491796,0.11653999464501502,-0.156,-40.816,-0.644,-8.712,-2.088,2.512,0.4
86,-0.84075,-0.0609326171875,0.6275556640625,1.00234765625,2.0580009765625,0.716953125,1.89921875,-0.001,-0.001,-0.001,-0.001,-0.001,-0.001,-0.001,0.2971253302308834,0.2549586618832798,-0.06830277481917128,0.14527863831151383,0.2102262549120151,0.041897393843985005,0.10743120253681625,-0.212,-40.816,-0.668,-8.848,-2.088,2.524,0.408
87,-0.84075,-0.0609326171875,0.6275556640625,1.00234765625,2.0580009765625,0.716953125,1.89921875,-0.001,-0.001,-0.001,-0.001,-0.001,-0.001,-0.001,0.2977826773295761,0.2509086997550004,-0.07988558503334604,0.14684489270533305,0.2041577337213975,0.042389756543999874,0.09817467887297694,-0.104,-40.816,-0.668,-8.824,-2.088,2.532,0.42
88,-0.84075,-0.0609326171875,0.6275556640625,1.00234765625,2.0580009765625,0.716953125,1.89921875,-0.001,-0.001,-0.001,-0.001,-0.001,-0.001,-0.001,0.29836109880679174,0.2466524896109522,-0.09147725757001667,0.14842599163133138,0.19784349466535842,0.042889296595012026,0.08866247344698813,-0.104,-40.816,-0.624,-8.804,-2.088,2.524,0.396
89,-0.84075,-0.0609326171875,0.6275556640625,1.00234765625,2.0580009765625,0.716953125,1.89921875,-0.001,-0.001,-0.001,-0.001,-0.001,-0.001,-0.001,0.2988472990657275,0.24230754197769266,-0.10270995330932545,0.14996854082851896,0.1915210197390069,0.04337596298420574,0.07932454399396248,-0.104,-40.816,-0.644,-8.804,-2.12,2.532,0.408
90,-0.84075,-0.0609326171875,0.6275556640625,1.00234765625,2.0580009765625,0.716953125,1.89921875,-0.001,-0.001,-0.001,-0.001,-0.001,-0.001,-0.001,0.29924992131504746,0.237773579105591,-0.1138990793826473,0.15152692042839566,0.18494308752049024,0.04387201017051725,0.06969814985089944,-0.156,-40.76,-0.74,-8.62,-2.096,2.532,0.42
91,-0.84075,-0.0609326171875,0.6275556640625,1.00234765625,2.0580009765625,0.716953125,1.89921875,-0.001,-0.001,-0.001,-0.001,-0.001,-0.001,-0.001,0.29956831181176685,0.23306096799436846,-0.12495065206526172,0.15308086098894477,0.17823959678393264,0.044365974792075144,0.06004640309101845,-0.156,-40.816,-0.6,-8.756,-2.1,2.512,0.408
92,-0.84075,-0.0609326171875,0.6275556640625,1.00234765625,2.0580009765625,0.716953125,1.89921875,-0.001,-0.001,-0.001,-0.001,-0.001,-0.001,-0.001,0.29979619255578893,0.22828776950776022,-0.13561484390480036,0.15460498127064995,0.1714898198976242,0.044851344685828166,0.050492591446958945,-0.104,-40.816,-0.668,-8.824,-2.088,2.536,0.4
93,-0.84075,-0.0609326171875,0.6275556640625,1.00234765625,2.0580009765625,0.716953125,1.89921875,-0.001,-0.001,-0.001,-0.001,-0.001,-0.001,-0.001,0.2999405593764439,0.22331330869209198,-0.1461944821897174,0.15614255028286061,0.16452296563378555,0.04534397323441222,0.04073742381135553,-0.104,-40.816,-0.644,-8.712,-2.088,2.532,0.428
94,-0.84075,-0.0609326171875,0.6275556640625,1.00234765625,2.0580009765625,0.716953125,1.89921875,-0.001,-0.001,-0.001,-0.001,-0.001,-0.001,-0.001,0.2999988157276659,0.2181556635805022,-0.15662337057968465,0.1576870429742914,0.1573674882431277,0.04584061661169713,0.030852817176679474,-0.212,-40.76,-0.624,-8.736,-2.096,2.516,0.428
95,-0.84075,-0.0609326171875,0.6275556640625,1.00234765625,2.0580009765625,0.716953125,1.89921875,-0.001,-0.001,-0.001,-0.001,-0.001,-0.001,-0.001,0.29997009831626215,0.21290838618128632,-0.1667000077940857,0.1592104338674422,0.15016051944668452,0.046331902135136445,0.021015836943845664,-0.212,-40.76,-0.6,-8.756,-2.096,2.512,0.416
96,-0.84075,-0.0609326171875,0.6275556640625,1.00234765625,2.0580009765625,0.716953125,1.89921875,-0.001,-0.001,-0.001,-0.001,-0.001,-0.001,-0.001,0.2998541817018476,0.20745833703391492,-0.17665166188317843,0.16075477154173715,0.14268379127471803,0.04683413741823771,0.010957120705289538,-0.156,-40.816,-0.552,-8.78,-2.08,2.544,0.42
97,-0.84075,-0.0609326171875,0.6275556640625,1.00234765625,2.0580009765625,0.716953125,1.89921875,-0.001,-0.001,-0.001,-0.001,-0.001,-0.001,-0.001,0.2996557527049105,0.20205468970177956,-0.1859725658280049,0.16222823276720838,0.1354595542877433,0.0473102814977802,0.0014419905038327578,-0.156,-40.76,-0.624,-8.712,-2.1,2.524,0.428
98,-0.84075,-0.0609326171875,0.6275556640625,1.00234765625,2.0580009765625,0.716953125,1.89921875,-0.001,-0.001,-0.001,-0.001,-0.001,-0.001,-0.001,0.299368733264259,0.19639320958813788,-0.19524520522467706,0.16374027301087912,0.12788834554776926,0.04780320901203807,-0.008446097537270108,-0.104,-40.76,-0.624,-8.848,-2.068,2.532,0.42
99,-0.84075,-0.0609326171875,0.6275556640625,1.00234765625,2.0580009765625,0.716953125,1.89921875,-0.001,-0.001,-0.001,-0.001,-0.001,-0.001,-0.001,0.29899760001278664,0.1906559367383636,-0.20413216430926165,0.1652341202763593,0.12027790064319197,0.04829211562560393,-0.01824922185135607,-0.156,-40.76,-0.6,-8.804,-2.076,2.532,0.428
100,-0.84075,-0.0609326171875,0.6275556640625,1.00234765625,2.0580009765625,0.716953125,1.89921875,-0.001,-0.001,-0.001,-0.001,-0.001,-0.001,-0.001,0.2985373483833272,0.1847410767044075,-0.21278333530129953,0.16673808950504113,0.1124875461100662,0.048786604706285555,-0.02815054242030631,-0.104,-40.76,-0.552,-8.756,-2.088,2.516,0.408
101,-0.84075,-0.0609326171875,0.6275556640625,1.00234765625,2.0580009765625,0.716953125,1.89921875,-0.001,-0.001,-0.001,-0.001,-0.001,-0.001,-0.001,0.2979871723253154,0.17867421475585168,-0.2211256127891905,0.16824016650104973,0.10459926057046647,0.04928177709379647,-0.038028009591655206,-0.156,-40.76,-0.624,-8.824,-2.1,2.532,0.42
102,-0.84075,-0.0609326171875,0.6275556640625,1.00234765625,2.0580009765625,0.716953125,1.89921875,-0.001,-0.001,-0.001,-0.001,-0.001,-0.001,-0.001,0.2973666772883723,0.17265979407988627,-0.228904933982075,0.16969777815127932,0.0968241961461373,0.04976307252868337,-0.04759012554342318,-0.156,-40.76,-0.576,-8.804,-2.096,2.532,0.42
103,-0.84075,-0.0609326171875,0.6275556640625,1.00234765625,2.0580009765625,0.716953125,1.89921875,-0.001,-0.001,-0.001,-0.001,-0.001,-0.001,-0.001,0.2966503925425754,0.16641606076971446,-0.23647826071404696,0.1711789858197668,0.08881609001650127,0.05025508174963988,-0.05732049168322855,-0.156,-40.76,-0.552,-8.756,-2.096,2.504,0.408
104,-0.84075,-0.0609326171875,0.6275556640625,1.00234765625,2.0580009765625,0.716953125,1.89921875,-0.001,-0.001,-0.001,-0.001,-0.001,-0.001,-0.001,0.29585135518848693,0.16009016204592427,-0.24364775791734034,0.17264892015019292,0.08076635490930746,0.050745232599327644,-0.06695726240144642,-0.104,-40.76,-0.624,-8.736,-2.108,2.512,0.416
105,-0.84075,-0.0609326171875,0.6275556640625,1.00234765625,2.0580009765625,0.716953125,1.89921875,-0.001,-0.001,-0.001,-0.001,-0.001,-0.001,-0.001,0.2949631343659225,0.15363189605383212,-0.25046654208372926,0.17412115452141674,0.07260133466941265,0.05123862326288448,-0.07659298590537549,-0.156,-40.816,-0.576,-8.804,-2.088,2.524,0.416
106,-0.84075,-0.0609326171875,0.6275556640625,1.00234765625,2.0580009765625,0.716953125,1.89921875,-0.001,-0.001,-0.001,-0.001,-0.001,-0.001,-0.001,0.29399529270186386,0.1471230175538616,-0.2568283186651172,0.17557299882288904,0.06446817916127716,0.051725897913547085,-0.0860158625899009,-0.104,-40.76,-0.528,-8.736,-2.076,2.532,0.42
107,-0.84075,-0.0609326171875,0.6275556640625,1.00234765625,2.0580009765625,0.716953125,1.89921875,-0.001,-0.001,-0.001,-0.001,-0.001,-0.001,-0.001,0.2929385707712293,0.1404836253141152,-0.26282224804206167,0.17702874279137384,0.056222266861752544,0.05221709870513012,-0.09543206442111127,-0.104,-40.708,-0.74,-8.848,-2.096,2.532,0.416
108,-0.84075,-0.0609326171875,0.6275556640625,1.00234765625,2.0580009765625,0.716953125,1.89921875,-0.001,-0.001,-0.001,-0.001,-0.001,-0.001,-0.001,0.2918014555444699,0.13377584118463953,-0.26837874300200254,0.17847364586439501,0.04795779226804526,0.05270663644197036,-0.10471614684373635,-0.212,-40.76,-0.644,-8.78,-2.068,2.524,0.416
109,-0.84075,-0.0609326171875,0.6275556640625,1.00234765625,2.0580009765625,0.716953125,1.89921875,-0.001,-0.001,-0.001,-0.001,-0.001,-0.001,-0.001,0.2905797527059333,0.12698774979827507,-0.27350663122171176,0.17991141545365488,0.03965996013154092,0.05319578414563834,-0.11388368343973163,-0.156,-40.816,-0.6,-8.712,-2.088,2.532,0.436
110,-0.84075,-0.0609326171875,0.6275556640625,1.00234765625,2.0580009765625,0.716953125,1.89921875,-0.001,-0.001,-0.001,-0.001,-0.001,-0.001,-0.001,0.28927425814894053,0.12011240726303783,-0.2782066584446223,0.18134552303058615,0.03131020784765551,0.05368630371058191,-0.12296011174275343,-0.156,-40.76,-0.528,-8.756,-2.076,2.524,0.436
111,-0.84075,-0.0609326171875,0.6275556640625,1.00234765625,2.0580009765625,0.716953125,1.89921875,-0.001,-0.001,-0.001,-0.001,-0.001,-0.001,-0.001,0.2878754085042265,0.11310106952074625,-0.28249637104802583,0.18278392528109588,0.022877338440919073,0.054179803155144604,-0.13195535369101197,-0.104,-40.76,-0.528,-8.756,-2.06,2.536,0.436
112,-0.84075,-0.0609326171875,0.6275556640625,1.00234765625,2.0580009765625,0.716953125,1.89921875,-0.001,-0.001,-0.001,-0.001,-0.001,-0.001,-0.001,0.28640906649407827,0.10611496150151978,-0.28627912856704585,0.18419600955593932,0.014543486629550807,0.054666301701163975,-0.14068396302902222,-0.156,-40.76,-0.528,-8.736,-2.08,2.524,0.416
113,-0.84075,-0.0609326171875,0.6275556640625,1.00234765625,2.0580009765625,0.716953125,1.89921875,-0.001,-0.001,-0.001,-0.001,-0.001,-0.001,-0.001,0.2848570934958275,0.09902692857852154,-0.28962665750249905,0.18560846873341771,0.006155711506118166,0.05515510122364517,-0.14930529740694892,-0.156,-40.76,-0.644,-8.712,-2.096,2.532,0.408
114,-0.84075,-0.0609326171875,0.6275556640625,1.00234765625,2.0580009765625,0.716953125,1.89921875,-0.001,-0.001,-0.001,-0.001,-0.001,-0.001,-0.001,0.2832106398263888,0.09182025906733976,-0.29253505428969995,0.18702550687976002,-0.002302379767551531,0.055647667427808974,-0.15783290564315838,-0.156,-40.76,-0.624,-8.664,-2.076,2.532,0.416
115,-0.84075,-0.0609326171875,0.6275556640625,1.00234765625,2.0580009765625,0.716953125,1.89921875,-0.001,-0.001,-0.001,-0.001,-0.001,-0.001,-0.001,0.28149777995311864,0.08463650272373344,-0.2949461540956457,0.188419828618402,-0.010663756068946546,0.05613449435014594,-0.1660939288943206,-0.156,-40.76,-0.528,-8.804,-2.1,2.524,0.416
116,-0.84075,-0.0609326171875,0.6275556640625,1.00234765625,2.0580009765625,0.716953125,1.89921875,-0.001,-0.001,-0.001,-0.001,-0.001,-0.001,-0.001,0.27970099841227647,0.07737179188506062,-0.29689809451914223,0.18981276534599217,-0.019048829308791124,0.05662303275838031,-0.17420780011841056,-0.104,-40.816,-0.576,-8.824,-2.076,2.532,0.416
117,-0.84075,-0.0609326171875,0.6275556640625,1.00234765625,2.0580009765625,0.716953125,1.89921875,-0.001,-0.001,-0.001,-0.001,-0.001,-0.001,-0.001,0.27781847326124487,0.07003468615244827,-0.29838176760157764,0.19120333202792558,-0.027446511200552363,0.057113023231573364,-0.1821595577333619,-0.104,-40.76,-0.668,-8.848,-2.06,2.544,0.42
118,-0.84075,-0.0609326171875,0.6275556640625,1.00234765625,2.0580009765625,0.716953125,1.89921875,-0.001,-0.001,-0.001,-0.001,-0.001,-0.001,-0.001,0.27585758396183824,0.062661096297891,-0.29938705814573646,0.1925861938859302,-0.03581599411918113,0.05760241310510285,-0.18990591067924248,-0.156,-40.816,-0.528,-8.804,-2.088,2.536,0.42
119,-0.84075,-0.0609326171875,0.6275556640625,1.00234765625,2.0580009765625,0.716953125,1.89921875,-0.001,-0.001,-0.001,-0.001,-0.001,-0.001,-0.001,0.2738270324856303,0.05530202408942115,-0.2999117270335556,0.19395128677511608,-0.04409388654789379,0.05808803467484726,-0.19739234178803416,-0.156,-40.76,-0.6,-8.756,-2.096,2.532,0.416
120,-0.84075,-0.0609326171875,0.6275556640625,1.00234765625,2.0580009765625,0.716953125,1.89921875,-0.001,-0.001,-0.001,-0.001,-0.001,-0.001,-0.001,0.27170892341238717,0.04785822283650038,-0.2999630729271837,0.195318808215123,-0.05239065606115272,0.05857652423993236,-0.20471268751405083,-0.212,-40.76,-0.6,-8.824,-2.096,2.516,0.408
121,-0.84075,-0.0609326171875,0.6275556640625,1.00234765625,2.0580009765625,0.716953125,1.89921875,-0.001,-0.001,-0.001,-0.001,-0.001,-0.001,-0.001,0.2695026207794887,0.04034142636739402,-0.2995320587764719,0.19668662681798704,-0.060694155644440834,0.059067737848026255,-0.2118534959155682,-0.104,-40.76,-0.552,-8.712,-2.076,2.512,0.4
122,-0.84075,-0.0609326171875,0.6275556640625,1.00234765625,2.0580009765625,0.716953125,1.89921875,-0.001,-0.001,-0.001,-0.001,-0.001,-0.001,-0.001,0.2672372016983838,0.032879980269458244,-0.29863016591929176,0.19803300144595667,-0.06886015736368889,0.059553506297623286,-0.21868979780413586,-0.104,-40.868,-0.484,-8.756,-2.076,2.524,0.42
123,-0.84075,-0.0609326171875,0.6275556640625,1.00234765625,2.0580009765625,0.716953125,1.89921875,-0.001,-0.001,-0.001,-0.001,-0.001,-0.001,-0.001,0.2648895514612368,0.02536990554562472,-0.2972505902074373,0.19937746222857602,-0.07700361879072468,0.060040926078404215,-0.22531474728717502,-0.156,-40.868,-0.644,-8.804,-2.088,2.532,0.436
124,-0.84075,-0.0609326171875,0.6275556640625,1.00234765625,2.0580009765625,0.716953125,1.89921875,-0.001,-0.001,-0.001,-0.001,-0.001,-0.001,-0.001,0.2624478507780858,0.017785738049026417,-0.29538196985118853,0.2007250657996594,-0.0851503526245555,0.06053198156586472,-0.2317460019353852,-0.156,-40.76,-0.552,-8.78,-2.088,2.532,0.416
125,-0.84075,-0.0609326171875,0.6275556640625,1.00234765625,2.0580009765625,0.716953125,1.89921875,-0.001,-0.001,-0.001,-0.001,-0.001,-0.001,-0.001,0.25994601186188476,0.010240699693595024,-0.29305353049344607,0.2020564839040144,-0.0931750822552258,0.061019649557429674,-0.2378838817906886,-0.104,-40.816,-0.692,-8.756,-2.088,2.524,0.408
126,-0.84075,-0.0609326171875,0.6275556640625,1.00234765625,2.0580009765625,0.716953125,1.89921875,-0.001,-0.001,-0.001,-0.001,-0.001,-0.001,-0.001,0.2573809031616778,0.002729311630548426,-0.2902750053883578,0.20337219153743247,-0.10107199176610156,0.06150344419089926,-0.24371743815668828,-0.156,-40.816,-0.644,-8.736,-2.096,2.524,0.4
127,-0.84075,-0.0609326171875,0.6275556640625,1.00234765625,2.0580009765625,0.716953125,1.89921875,-0.001,-0.001,-0.001,-0.001,-0.001,-0.001,-0.001,0.2547400757985399,-0.004798367697107707,-0.2870281135496797,0.20468702299719807,-0.10893770011689408,0.061990578460951885,-0.24933900945566864,-0.156,-40.816,-0.716,-8.736,-2.108,2.516,0.4
128,-0.84075,-0.0609326171875,0.6275556640625,1.00234765625,2.0580009765625,0.716953125,1.89921875,-0.001,-0.001,-0.001,-0.001,-0.001,-0.001,-0.001,0.25201264274737933,-0.012354502027978985,-0.2833153966888591,0.20599544158610927,-0.1167119734032273,0.06247657867282392,-0.2546725365349513,-0.156,-40.76,-0.6,-8.78,-2.076,2.524,0.44
129,-0.84075,-0.0609326171875,0.6275556640625,1.00234765625,2.0580009765625,0.716953125,1.89921875,-0.001,-0.001,-0.001,-0.001,-0.001,-0.001,-0.001,0.2492202986822442,-0.019884830359147457,-0.27915918094370945,0.20729546653450265,-0.12439477194089416,0.06296263960526335,-0.25973843633177607,-0.212,-40.816,-0.6,-8.872,-2.096,2.536,0.428
130,-0.84075,-0.0609326171875,0.6275556640625,1.00234765625,2.0580009765625,0.716953125,1.89921875,-0.001,-0.001,-0.001,-0.001,-0.001,-0.001,-0.001,0.24635260297176104,-0.027419085896772197,-0.27454316734398587,0.20859359188329912,-0.13201732744223355,0.06345145057976143,-0.26455562800834465,-0.156,-40.76,-0.6,-8.712,-2.076,2.536,0.42
131,-0.84075,-0.0609326171875,0.6275556640625,1.00234765625,2.0580009765625,0.716953125,1.89921875,-0.001,-0.001,-0.001,-0.001,-0.001,-0.001,-0.001,0.2434078974806089,-0.03494255469932879,-0.2694933354367825,0.209880376053181,-0.13950439596961542,0.06393711707851539,-0.2690514156265053,-0.104,-40.76,-0.6,-8.736,-2.08,2.512,0.4
132,-0.84075,-0.0609326171875,0.6275556640625,1.00234765625,2.0580009765625,0.716953125,1.89921875,-0.001,-0.001,-0.001,-0.001,-0.001,-0.001,-0.001,0.2404034969574355,-0.04240816606743209,-0.26403612766469325,0.21115583996285942,-0.14686455200420678,0.0644218315488462,-0.27325420586067045,-0.156,-40.76,-0.552,-8.736,-2.088,2.524,0.408
133,-0.84075,-0.0609326171875,0.6275556640625,1.00234765625,2.0580009765625,0.716953125,1.89921875,-0.001,-0.001,-0.001,-0.001,-0.001,-0.001,-0.001,0.2373236309277243,-0.04989304641805248,-0.25811691722011626,0.2124337599884884,-0.154172260538085,0.06491108531269657,-0.27720326465874034,-0.212,-40.816,-0.6,-8.804,-2.096,2.524,0.4
134,-0.84075,-0.0609326171875,0.6275556640625,1.00234765625,2.0580009765625,0.716953125,1.89921875,-0.001,-0.001,-0.001,-0.001,-0.001,-0.001,-0.001,0.2341649636392873,-0.05734258234995091,-0.25179549911312626,0.2137002392197713,-0.1613286594981321,0.06539733207131802,-0.28082394101555846,-0.212,-40.816,-0.6,-8.804,-2.108,2.532,0.42
135,-0.84075,-0.0609326171875,0.6275556640625,1.00234765625,2.0580009765625,0.716953125,1.89921875,-0.001,-0.001,-0.001,-0.001,-0.001,-0.001,-0.001,0.23095397852763141,-0.06478793468577536,-0.24503030211831395,0.21496778310365514,-0.1684297753464931,0.06588952298901074,-0.2841834126778632,-0.156,-40.76,-0.46,-8.78,-2.088,2.516,0.42
136,-0.84075,-0.0609326171875,0.6275556640625,1.00234765625,2.0580009765625,0.716953125,1.89921875,-0.001,-0.001,-0.001,-0.001,-0.001,-0.001,-0.001,0.22766381424133564,-0.0721132025771163,-0.23795809411151966,0.21621069085195868,-0.17526612741573191,0.06637094985422493,-0.28716431318931995,-0.156,-40.816,-0.6,-8.78,-2.096,2.512,0.4
137,-0.84075,-0.0609326171875,0.6275556640625,1.00234765625,2.0580009765625,0.716953125,1.89921875,-0.001,-0.001,-0.001,-0.001,-0.001,-0.001,-0.001,0.2242725844517032,-0.07958544271903194,-0.2302989387315681,0.21748119581881967,-0.18217666838229857,0.06686816187970163,-0.28992481409196735,-0.156,-40.816,-0.552,-8.736,-2.096,2.524,0.416
138,-0.84075,-0.0609326171875,0.6275556640625,1.00234765625,2.0580009765625,0.716953125,1.89921875,-0.001,-0.001,-0.001,-0.001,-0.001,-0.001,-0.001,0.22091326199146213,-0.08666152207253937,-0.22264937442956523,0.21868155697154854,-0.18860185062671092,0.06733970468947605,-0.29223770102268415,-0.156,-40.76,-0.528,-8.78,-2.096,2.532,0.416
139,-0.84075,-0.0609326171875,0.6275556640625,1.00234765625,2.0580009765625,0.716953125,1.89921875,-0.001,-0.001,-0.001,-0.001,-0.001,-0.001,-0.001,0.21742881592428415,-0.09389911835738911,-0.2144026419420425,0.2199140998878193,-0.19510017047212955,0.06782946425766076,-0.29432826867108147,-0.156,-40.816,-0.552,-8.756,-2.08,2.532,0.416
140,-0.84075,-0.0609326171875,0.6275556640625,1.00234765625,2.0580009765625,0.716953125,1.89921875,-0.001,-0.001,-0.001,-0.001,-0.001,-0.001,-0.001,0.21389829286297918,-0.10101899011956841,-0.2058828781089902,0.2211281113212373,-0.20138806619282287,0.0683113606022771,-0.2960671069592797,-0.104,-40.816,-0.552,-8.848,-2.08,2.524,0.416
141,-0.84075,-0.0609326171875,0.6275556640625,1.00234765625,2.0580009765625,0.716953125,1.89921875,-0.001,-0.001,-0.001,-0.001,-0.001,-0.001,-0.001,0.2102915838550203,-0.10813032692866419,-0.19695946742866247,0.22234806955353031,-0.20759308111407915,0.06880074092995185,-0.2975111497827071,-0.104,-40.816,-0.552,-8.848,-2.108,2.516,0.42
142,-0.84075,-0.0609326171875,0.6275556640625,1.00234765625,2.0580009765625,0.716953125,1.89921875,-0.001,-0.001,-0.001,-0.001,-0.001,-0.001,-0.001,0.20666603525692664,-0.11505729803474071,-0.1878952077464298,0.22352991668291222,-0.21347096148936265,0.06927606089323039,-0.29859924164550916,-0.212,-40.76,-0.552,-8.736,-2.088,2.532,0.416
143,-0.84075,-0.0609326171875,0.6275556640625,1.00234765625,2.0580009765625,0.716953125,1.89921875,-0.001,-0.001,-0.001,-0.001,-0.001,-0.001,-0.001,0.2029458522137928,-0.12200435511841837,-0.1783957838634843,0.22472574201073064,-0.21930096118053574,0.06976127331815409,-0.29939088740662373,-0.156,-40.76,-0.644,-8.688,-2.108,2.532,0.428
144,-0.84075,-0.0609326171875,0.6275556640625,1.00234765625,2.0580009765625,0.716953125,1.89921875,-0.001,-0.001,-0.001,-0.001,-0.001,-0.001,-0.001,0.19916041521581748,-0.12888591334241245,-0.1685934434421523,0.22591576780116637,-0.22497061504943228,0.07024745816211851,-0.29985849815096316,-0.212,-40.76,-0.6,-8.824,-2.068,2.516,0.42
145,-0.84075,-0.0609326171875,0.6275556640625,1.00234765625,2.0580009765625,0.716953125,1.89921875,-0.001,-0.001,-0.001,-0.001,-0.001,-0.001,-0.001,0.1953281801179422,-0.13566119839342075,-0.1585601112028198,0.2270926868673289,-0.2304369573257256,0.07073097990374351,-0.2999993216007287,-0.156,-40.816,-0.576,-8.804,-2.088,2.516,0.436
146,-0.84075,-0.0609326171875,0.6275556640625,1.00234765625,2.0580009765625,0.716953125,1.89921875,-0.001,-0.001,-0.001,-0.001,-0.001,-0.001,-0.001,0.1914405461609991,-0.14235312394025387,-0.1482673959811539,0.22826264369386032,-0.23572945746257576,0.0712150334327992,-0.2998160076027892,-0.156,-40.76,-0.644,-8.848,-2.088,2.516,0.42
147,-0.84075,-0.0609326171875,0.6275556640625,1.00234765625,2.0580009765625,0.716953125,1.89921875,-0.001,-0.001,-0.001,-0.001,-0.001,-0.001,-0.001,0.187505099312367,-0.1489379725037294,-0.1377700197215103,0.22942038588711913,-0.24081685541063252,0.07169686246962026,-0.29931123048107294,-0.104,-40.76,-0.576,-8.756,-2.088,2.532,0.4
148,-0.84075,-0.0609326171875,0.6275556640625,1.00234765625,2.0580009765625,0.716953125,1.89921875,-0.001,-0.001,-0.001,-0.001,-0.001,-0.001,-0.001,0.1834910278647865,-0.15548497529354635,-0.12694258597854136,0.23058359568570214,-0.2457820903258677,0.07218568301324428,-0.29846908915104003,-0.212,-40.708,-0.576,-8.688,-2.068,2.524,0.42
149,-0.84075,-0.0609326171875,0.6275556640625,1.00234765625,2.0580009765625,0.716953125,1.89921875,-0.001,-0.001,-0.001,-0.001,-0.001,-0.001,-0.001,0.17946040735847915,-0.1618401037031272,-0.1161006930719578,0.23171571952476533,-0.2504461713059749,0.07266218773141973,-0.29733287863901925,-0.104,-40.816,-0.6,-8.804,-2.08,2.536,0.428
150,-0.84075,-0.0609326171875,0.6275556640625,1.00234765625,2.0580009765625,0.716953125,1.89921875,-0.001,-0.001,-0.001,-0.001,-0.001,-0.001,-0.001,0.1753527201844415,-0.16815701557930904,-0.10495089179414464,0.2328539749361986,-0.2549796244595616,0.0731457369940691,-0.29585829964081395,-0.156,-40.76,-0.484,-8.736,-2.06,2.516,0.416
151,-0.84075,-0.0609326171875,0.6275556640625,1.00234765625,2.0580009765625,0.716953125,1.89921875,-0.001,-0.001,-0.001,-0.001,-0.001,-0.001,-0.001,0.17111599669445596,-0.17449767227795385,-0.0933851326318698,0.23400872205749645,-0.2594079120724312,0.0736401858071541,-0.2940176741688939,-0.156,-40.816,-0.508,-8.94,-2.076,2.532,0.416
152,-0.84075,-0.0609326171875,0.6275556640625,1.00234765625,2.0580009765625,0.716953125,1.89921875,-0.001,-0.001,-0.001,-0.001,-0.001,-0.001,-0.001,0.16698184091053495,-0.18046835839342412,-0.08215899594399079,0.23510602576412892,-0.2634445810175961,0.07411275727703082,-0.29194710785821154,-0.156,-40.76,-0.6,-8.848,-2.096,2.524,0.436
153,-0.84075,-0.0609326171875,0.6275556640625,1.00234765625,2.0580009765625,0.716953125,1.89921875,-0.001,-0.001,-0.001,-0.001,-0.001,-0.001,-0.001,0.16275721467284793,-0.18641257062092667,-0.07063585531537443,0.23621197072743316,-0.26734191994900525,0.07459275384751307,-0.28953238996559705,-0.212,-40.76,-0.624,-8.664,-2.1,2.524,0.416
154,-0.84075,-0.0609326171875,0.6275556640625,1.00234765625,2.0580009765625,0.716953125,1.89921875,-0.001,-0.001,-0.001,-0.001,-0.001,-0.001,-0.001,0.15845010062048645,-0.19228838700579107,-0.058904137399110136,0.23731854202034564,-0.2710619705157428,0.07507659129928357,-0.286783432144091,-0.104,-40.816,-0.508,-8.804,-2.08,2.512,0.416
155,-0.84075,-0.0609326171875,0.6275556640625,1.00234765625,2.0580009765625,0.716953125,1.89921875,-0.001,-0.001,-0.001,-0.001,-0.001,-0.001,-0.001,0.15408763171200388,-0.1980491542303797,-0.04705622332889064,0.2384190462303513,-0.27458198715053883,0.07556264376001551,-0.2837050464209858,-0.156,-40.76,-0.576,-8.756,-2.08,2.524,0.396
156,-0.84075,-0.0609326171875,0.6275556640625,1.00234765625,2.0580009765625,0.716953125,1.89921875,-0.001,-0.001,-0.001,-0.001,-0.001,-0.001,-0.001,0.14972668520293594,-0.20362156069150253,-0.035280264732671485,0.23949665306274578,-0.27782819825351807,0.0760392204867767,-0.28038540048580834,-0.156,-40.816,-0.508,-8.824,-2.108,2.532,0.42
157,-0.84075,-0.0609326171875,0.6275556640625,1.00234765625,2.0580009765625,0.716953125,1.89921875,-0.001,-0.001,-0.001,-0.001,-0.001,-0.001,-0.001,0.14529465090250676,-0.20910524116900456,-0.023356969675095672,0.24057417022630131,-0.28088921783027604,0.07652066403840972,-0.2767280243555378,-0.156,-40.816,-0.528,-8.824,-2.088,2.516,0.408
158,-0.84075,-0.0609326171875,0.6275556640625,1.00234765625,2.0580009765625,0.716953125,1.89921875,-0.001,-0.001,-0.001,-0.001,-0.001,-0.001,-0.001,0.14079038206554592,-0.2145015971408976,-0.011288585532809866,0.24165326056494574,-0.28375992260638117,0.07700780372693898,-0.2727163612146383,-0.156,-40.816,-0.6,-8.756,-2.076,2.516,0.416
159,-0.84075,-0.0609326171875,0.6275556640625,1.00234765625,2.0580009765625,0.716953125,1.89921875,-0.001,-0.001,-0.001,-0.001,-0.001,-0.001,-0.001,0.13631061192230826,-0.21967522151570548,0.0006028529721024136,0.242705705279051,-0.2863552854493556,0.07748458008923123,-0.2684989037591908,-0.104,-40.76,-0.552,-8.736,-2.096,2.516,0.44
160,-0.84075,-0.0609326171875,0.6275556640625,1.00234765625,2.0580009765625,0.716953125,1.89921875,-0.001,-0.001,-0.001,-0.001,-0.001,-0.001,-0.001,0.1317800044171911,-0.22471119686488814,2.9998500018871546e-05,0.24375344278203695,-0.2887407594280211,0.0779638856578985,-0.2639744724556749,-0.156,-40.76,-0.6,-8.756,-2.08,2.516,0.428
161,-0.84075,-0.0609326171875,0.6275556640625,1.00234765625,2.0580009765625,0.716953125,1.89921875,-0.001,-0.001,-0.001,-0.001,-0.001,-0.001,-0.001,0.12714913047686488,-0.22970892291199663,0.005773949346910657,0.24481190481624804,-0.29094076867505425,0.07845273692956517,-0.25905811545983426,-0.156,-40.816,-0.624,-8.804,-2.08,2.532,0.4
162,-0.84075,-0.0609326171875,0.6275556640625,1.00234765625,2.0580009765625,0.716953125,1.89921875,-0.001,-0.001,-0.001,-0.001,-0.001,-0.001,-0.001,0.12250969618778784,-0.234502888907957,0.01143301024723961,0.24584351112417274,-0.2928729024774406,0.07893233143162039,-0.25395478299018703,-0.212,-40.816,-0.716,-8.78,-2.1,2.524,0.4
163,-0.84075,-0.0609326171875,0.6275556640625,1.00234765625,2.0580009765625,0.716953125,1.89921875,-0.001,-0.001,-0.001,-0.001,-0.001,-0.001,-0.001,0.11789158871002668,-0.23908893610767554,0.017031337473937997,0.24685636814512746,-0.294558511029886,0.07940613612512883,-0.24864640864783835,-0.212,-40.816,-0.436,-8.78,-2.06,2.532,0.408
164,-0.84075,-0.0609326171875,0.6275556640625,1.00234765625,2.0580009765625,0.716953125,1.89921875,-0.001,-0.001,-0.001,-0.001,-0.001,-0.001,-0.001,0.11320011120405568,-0.24356762227663886,0.02267465314039324,0.2478693641346585,-0.29603067512436276,0.07988391450703482,-0.2430249517367717,-0.156,-40.76,-0.644,-8.78,-2.108,2.532,0.396
165,-0.84075,-0.0609326171875,0.6275556640625,1.00234765625,2.0580009765625,0.716953125,1.89921875,-0.001,-0.001,-0.001,-0.001,-0.001,-0.001,-0.001,0.10846900470826573,-0.2479044005535964,0.028329685124073287,0.24887795417102193,-0.2972782701399256,0.080364253244999,-0.23710600866762221,-0.156,-40.76,-0.668,-8.78,-2.108,2.516,0.388
166,-0.84075,-0.0609326171875,0.6275556640625,1.00234765625,2.0580009765625,0.716953125,1.89921875,-0.001,-0.001,-0.001,-0.001,-0.001,-0.001,-0.001,0.10372053940935597,-0.2520648466194157,0.0339492024574506,0.24987293412526418,-0.2982878037927686,0.08084216449817214,-0.230958669022782,-0.156,-40.816,-0.576,-8.78,-2.08,2.536,0.4
167,-0.84075,-0.0609326171875,0.6275556640625,1.00234765625,2.0580009765625,0.716953125,1.89921875,-0.001,-0.001,-0.001,-0.001,-0.001,-0.001,-0.001,0.09888272662939276,-0.2561311281555389,0.03967240659038241,0.25088096995862574,-0.29908057504916274,0.0813317800464972,-0.22439942445524447,-0.156,-40.816,-0.528,-8.78,-2.08,2.524,0.428
168,-0.84075,-0.0609326171875,0.6275556640625,1.00234765625,2.0580009765625,0.716953125,1.89921875,-0.001,-0.001,-0.001,-0.001,-0.001,-0.001,-0.001,0.09410340577928517,-0.25994792854550075,0.04522185898254136,0.2518491561310743,-0.2996147495636917,0.08180383031401671,-0.21783389933690026,-0.156,-40.816,-0.552,-8.848,-2.1,2.516,0.436
169,-0.84075,-0.0609326171875,0.6275556640625,1.00234765625,2.0580009765625,0.716953125,1.89921875,-0.001,-0.001,-0.001,-0.001,-0.001,-0.001,-0.001,0.08927267020527742,-0.2636199461487812,0.05078282287324571,0.2528141160361226,-0.2999216100979534,0.08227939364564017,-0.21098724360038676,-0.156,-40.816,-0.6,-8.756,-2.096,2.512,0.4
170,-0.84075,-0.0609326171875,0.6275556640625,1.00234765625,2.0580009765625,0.716953125,1.89921875,-0.001,-0.001,-0.001,-0.001,-0.001,-0.001,-0.001,0.08440953641760586,-0.2671399954938281,0.056361581774740044,0.2537770527960526,-0.2999959886460344,0.0827585547563943,-0.20385311891061586,-0.156,-40.76,-0.624,-8.78,-2.08,2.524,0.408
171,-0.84075,-0.0609326171875,0.6275556640625,1.00234765625,2.0580009765625,0.716953125,1.89921875,-0.001,-0.001,-0.001,-0.001,-0.001,-0.001,-0.001,0.07947904510572307,-0.2705204948514488,0.06197335936458346,0.2547426191888406,-0.29983090584117683,0.0832441001641143,-0.1963929037595375,-0.156,-40.76,-0.6,-8.712,-2.076,2.536,0.416
172,-0.84075,-0.0609326171875,0.6275556640625,1.00234765625,2.0580009765625,0.716953125,1.89921875,-0.001,-0.001,-0.001,-0.001,-0.001,-0.001,-0.001,0.07459771145969683,-0.27366725588322066,0.06744394550457325,0.25567225852611336,-0.2994397845801453,0.08371382012663102,-0.18897738865268285,-0.156,-40.76,-0.508,-8.804,-2.088,2.516,0.42
173,-0.84075,-0.0609326171875,0.6275556640625,1.00234765625,2.0580009765625,0.716953125,1.89921875,-0.001,-0.001,-0.001,-0.001,-0.001,-0.001,-0.001,0.06965430464211637,-0.27668000495547007,0.07296847554916164,0.256609758021462,-0.2988069048422344,0.08419324999350646,-0.18119016485854242,-0.212,-40.76,-0.46,-8.664,-2.08,2.532,0.416
174,-0.84075,-0.0609326171875,0.6275556640625,1.00234765625,2.0580009765625,0.716953125,1.89921875,-0.001,-0.001,-0.001,-0.001,-0.001,-0.001,-0.001,0.06468727213940215,-0.2795178470450115,0.07846630530805238,0.257537637645166,-0.29793886141886655,0.08467211641111706,-0.1732153977862899,-0.104,-40.76,-0.668,-8.756,-2.088,2.524,0.416
175,-0.84075,-0.0609326171875,0.6275556640625,1.00234765625,2.0580009765625,0.716953125,1.89921875,-0.001,-0.001,-0.001,-0.001,-0.001,-0.001,-0.001,0.059709533524459804,-0.2821720978433397,0.08392612974630187,0.25845513618194577,-0.2968364432253514,0.08515070301566845,-0.16503298487808207,-0.156,-40.816,-0.668,-8.824,-2.088,2.532,0.42
176,-0.84075,-0.0609326171875,0.6275556640625,1.00234765625,2.0580009765625,0.716953125,1.89921875,-0.001,-0.001,-0.001,-0.001,-0.001,-0.001,-0.001,0.05470961008130069,-0.2846503186366716,0.08936305352006194,0.2593638250330502,-0.2955010111102302,0.08562866734517044,-0.15671328253935468,-0.212,-40.816,-0.576,-8.78,-2.068,2.524,0.436
177,-0.84075,-0.0609326171875,0.6275556640625,1.00234765625,2.0580009765625,0.716953125,1.89921875,-0.001,-0.001,-0.001,-0.001,-0.001,-0.001,-0.001,0.0497185522005952,-0.28693731715350085,0.09473846639937732,0.26025861045897275,-0.2939405125161167,0.08610458766836589,-0.14821580575446666,-0.156,-40.76,-0.576,-8.688,-2.048,2.544,0.4
178,-0.84075,-0.0609326171875,0.6275556640625,1.00234765625,2.0580009765625,0.716953125,1.89921875,-0.001,-0.001,-0.001,-0.001,-0.001,-0.001,-0.001,0.04469315762077111,-0.2890507798288017,0.10009889966727865,0.2611464516708662,-0.2921492469555791,0.08657965839804742,-0.13962540745367572,-0.212,-40.816,-0.6,-8.824,-2.08,2.524,0.42
179,-0.84075,-0.0609326171875,0.6275556640625,1.00234765625,2.0580009765625,0.716953125,1.89921875,-0.001,-0.001,-0.001,-0.001,-0.001,-0.001,-0.001,0.03966644288513878,-0.29097439341948966,0.10540652775719261,0.2620227611891673,-0.29013233624696294,0.087054583256584,-0.13085328940352547,-0.156,-40.76,-0.692,-8.896,-2.076,2.532,0.416
180,-0.84075,-0.0609326171875,0.6275556640625,1.00234765625,2.0580009765625,0.716953125,1.89921875,-0.001,-0.001,-0.001,-0.001,-0.001,-0.001,-0.001,0.03460933482327786,-0.29272378846743163,0.11070641729117757,0.26289475532924944,-0.2878749221917666,0.0875323120220403,-0.12188125137298211,-0.156,-40.76,-0.552,-8.824,-2.076,2.524,0.42
181,-0.84075,-0.0609326171875,0.6275556640625,1.00234765625,2.0580009765625,0.716953125,1.89921875,-0.001,-0.001,-0.001,-0.001,-0.001,-0.001,-0.001,0.029440385404666394,-0.2943213814971747,0.11609570244971854,0.2637791867620834,-0.2853220036137171,0.08802274287112091,-0.11251915657353852,-0.104,-40.816,-0.644,-8.78,-2.096,2.532,0.408
182,-0.84075,-0.0609326171875,0.6275556640625,1.00234765625,2.0580009765625,0.716953125,1.89921875,-0.001,-0.001,-0.001,-0.001,-0.001,-0.001,-0.001,0.024490186310915586,-0.29565589111129703,0.12115405101008633,0.26460472306075267,-0.2827016895161169,0.08848314003503463,-0.10363109861123643,-0.156,-40.76,-0.6,-8.804,-2.088,2.524,0.416
183,-0.84075,-0.0609326171875,0.6275556640625,1.00234765625,2.0580009765625,0.716953125,1.89921875,-0.001,-0.001,-0.001,-0.001,-0.001,-0.001,-0.001,0.01941346363886427,-0.2968444654228842,0.12633092520801156,0.2654488839578209,-0.27976742800138316,0.08896080801633718,-0.09427371492106741,-0.156,-40.76,-0.576,-8.78,-2.088,2.536,0.4
184,-0.84075,-0.0609326171875,0.6275556640625,1.00234765625,2.0580009765625,0.716953125,1.89921875,-0.001,-0.001,-0.001,-0.001,-0.001,-0.001,-0.001,0.014332726317530995,-0.2978430297874112,0.13144667712047303,0.26627998176298645,-0.27663061146994833,0.08943495518726144,-0.08489458255086636,-0.156,-40.76,-0.552,-8.804,-2.068,2.532,0.428
185,-0.84075,-0.0609326171875,0.6275556640625,1.00234765625,2.0580009765625,0.716953125,1.89921875,-0.001,-0.001,-0.001,-0.001,-0.001,-0.001,-0.001,0.009249925583891355,-0.2986524620840172,0.13651868113466614,0.2671023760158467,-0.2732712358137953,0.08990994417172811,-0.0753929479952383,-0.156,-40.816,-0.576,-8.688,-2.076,2.532,0.428
186,-0.84075,-0.0609326171875,0.6275556640625,1.00234765625,2.0580009765625,0.716953125,1.89921875,-0.001,-0.001,-0.001,-0.001,-0.001,-0.001,-0.001,0.004185806462160366,-0.29927084950674976,0.1415249018423704,0.26791279157234854,-0.2697075041571119,0.09038354276066765,-0.065831888174004,-0.156,-40.76,-0.624,-8.712,-2.096,2.524,0.408
187,-0.84075,-0.0609326171875,0.6275556640625,1.00234765625,2.0580009765625,0.716953125,1.89921875,-0.001,-0.001,-0.001,-0.001,-0.001,-0.001,-0.001,-0.000921706767532832,-0.29970339924661665,0.14651548426935637,0.26871891796886216,-0.2659092517245148,0.09085974381825274,-0.056143927375328244,-0.156,-40.816,-0.6,-8.712,-2.088,2.532,0.42
188,-0.84075,-0.0609326171875,0.6275556640625,1.00234765625,2.0580009765625,0.716953125,1.89921875,-0.001,-0.001,-0.001,-0.001,-0.001,-0.001,-0.001,-0.006020344600334757,-0.29994470771924425,0.1514607254157523,0.26951739572256656,-0.26188337705627257,0.09133821370187506,-0.04632754034530303,-0.156,-40.816,-0.624,-8.804,-2.088,2.524,0.42
189,-0.84075,-0.0609326171875,0.6275556640625,1.00234765625,2.0580009765625,0.716953125,1.89921875,-0.001,-0.001,-0.001,-0.001,-0.001,-0.001,-0.001,-0.011096884338919354,-0.29999481346403023,0.1563045104146354,0.27029714449821557,-0.25771123910951665,0.09180874516623318,-0.036648116172416076,-0.156,-40.816,-0.528,-8.756,-2.096,2.532,0.408
190,-0.84075,-0.0609326171875,0.6275556640625,1.00234765625,2.0580009765625,0.716953125,1.89921875,-0.001,-0.001,-0.001,-0.001,-0.001,-0.001,-0.001,-0.016182474088632066,-0.29985522200766435,0.16111682141574926,0.2710717674814325,-0.25330714615729927,0.0922827199926499,-0.026840360858874226,-0.156,-40.816,-0.6,-8.664,-2.112,2.536,0.428
191,-0.84075,-0.0609326171875,0.6275556640625,1.00234765625,2.0580009765625,0.716953125,1.89921875,-0.001,-0.001,-0.001,-0.001,-0.001,-0.001,-0.001,-0.021345536357820966,-0.2995176912394575,0.16596646548117208,0.27185224006980013,-0.24860744607270402,0.09276623646044616,-0.016780160889637293,-0.156,-40.76,-0.624,-8.756,-2.088,2.504,0.436
192,-0.84075,-0.0609326171875,0.6275556640625,1.00234765625,2.0580009765625,0.716953125,1.89921875,-0.001,-0.001,-0.001,-0.001,-0.001,-0.001,-0.001,-0.026302695472443766,-0.29901003153509625,0.170535344141899,0.2725868120267333,-0.24393842344765723,0.0932269163787286,-0.007208843092688844,-0.156,-40.76,-0.692,-8.872,-2.1,2.532,0.416
193,-0.84075,-0.0609326171875,0.6275556640625,1.00234765625,2.0580009765625,0.716953125,1.89921875,-0.001,-0.001,-0.001,-0.001,-0.001,-0.001,-0.001,-0.031365392971763044,-0.29830372116854303,0.17515700720103175,0.2733295150943361,-0.2389723056189451,0.09369776988833176,0.0025999510587481826,-0.156,-40.816,-0.668,-8.848,-2.076,2.532,0.416
194,-0.84075,-0.0609326171875,0.6275556640625,1.00234765625,2.0580009765625,0.716953125,1.89921875,-0.001,-0.001,-0.001,-0.001,-0.001,-0.001,-0.001,-0.03641955617747136,-0.2974045689402399,0.17974273222933496,0.274067588557958,-0.23377714708077973,0.09417275077728214,4.015137282730721e-05,-0.104,-40.816,-0.6,-8.804,-2.08,2.512,0.416
195,-0.84075,-0.0609326171875,0.6275556640625,1.00234765625,2.0580009765625,0.716953125,1.89921875,-0.001,-0.001,-0.001,-0.001,-0.001,-0.001,-0.001,-0.04148402659816124,-0.29631557008998477,0.18426204232757867,0.274795131563181,-0.22840561504765652,0.09464647896143676,0.005685202220233,-0.156,-40.76,-0.508,-8.736,-2.076,2.532,0.416
196,-0.84075,-0.0609326171875,0.6275556640625,1.00234765625,2.0580009765625,0.716953125,1.89921875,-0.001,-0.001,-0.001,-0.001,-0.001,-0.001,-0.001,-0.046517783084000605,-0.29504035430874404,0.18870772126090773,0.27551163575546056,-0.222861864907291,0.09511929241633137,0.011359851696428943,-0.156,-40.76,-0.692,-8.756,-2.096,2.532,0.42
197,-0.84075,-0.0609326171875,0.6275556640625,1.00234765625,2.0580009765625,0.716953125,1.89921875,-0.001,-0.001,-0.001,-0.001,-0.001,-0.001,-0.001,-0.05149801448603327,-0.2935934690545853,0.19303983348739195,0.2762106071245271,-0.21720848934009127,0.0955864102444773,0.016964296782712,-0.212,-40.816,-0.484,-8.756,-2.076,2.532,0.408
198,-0.84075,-0.0609326171875,0.6275556640625,1.00234765625,2.0580009765625,0.716953125,1.89921875,-0.001,-0.001,-0.001,-0.001,-0.001,-0.001,-0.001,-0.056522617945797105,-0.2919394016229069,0.19736873658966317,0.27691084039704345,-0.2112871980210866,0.09606166836285814,0.0226695737820858,-0.156,-40.76,-0.576,-8.736,-2.076,2.532,0.416
199,-0.84075,-0.0609326171875,0.6275556640625,1.00234765625,2.0580009765625,0.716953125,1.89921875,-0.001,-0.001,-0.001,-0.001,-0.001,-0.001,-0.001,-0.061494040519136685,-0.29011592550290327,0.20158573786038617,0.2775940947342385,-0.20526406354922036,0.09653133213584968,0.02829676604496567,-0.156,-40.76,-0.6,-8.78,-2.108,2.524,0.396
200,-0.84075,-0.0609326171875,0.6275556640625,1.00234765625,2.0580009765625,0.716953125,1.89921875,-0.001,-0.001,-0.001,-0.001,-0.001,-0.001,-0.001,-0.06645735681027143,-0.2881084248980076,0.20573172933312356,0.2782671435675095,-0.19908821740890156,0.09699983376147651,0.0339019753135096,-0.156,-40.76,-0.6,-8.824,-2.112,2.524,0.4
201,-0.84075,-0.0609326171875,0.6275556640625,1.00234765625,2.0580009765625,0.716953125,1.89921875,-0.001,-0.001,-0.001,-0.001,-0.001,-0.001,-0.001,-0.07141598525438565,-0.2859051391811894,0.20983313329853845,0.27893538352211855,-0.19270419942802366,0.09747231378231422,0.039548557657395046,-0.104,-40.816,-0.576,-8.688,-2.096,2.524,0.42
202,-0.84075,-0.0609326171875,0.6275556640625,1.00234765625,2.0580009765625,0.716953125,1.89921875,-0.001,-0.001,-0.001,-0.001,-0.001,-0.001,-0.001,-0.07632481356736016,-0.2835407452025791,0.21382503394083333,0.27958785125170993,-0.1862261376259619,0.09794032852029629,0.045131198489800496,-0.156,-40.76,-0.668,-8.712,-2.08,2.524,0.416
203,-0.84075,-0.0609326171875,0.6275556640625,1.00234765625,2.0580009765625,0.716953125,1.89921875,-0.001,-0.001,-0.001,-0.001,-0.001,-0.001,-0.001,-0.08122379492485207,-0.2809902035668643,0.217753879912267,0.280232519514366,-0.1795813073774801,0.0984096797184764,0.05071681404559077,-0.104,-40.816,-0.624,-8.78,-2.088,2.532,0.4
204,-0.84075,-0.0609326171875,0.6275556640625,1.00234765625,2.0580009765625,0.716953125,1.89921875,-0.001,-0.001,-0.001,-0.001,-0.001,-0.001,-0.001,-0.08610183576823006,-0.27825738313022785,0.2216126200106858,0.2808684542005236,-0.1727824813593823,0.09887974710925691,0.056296073235746494,-0.212,-40.76,-0.624,-8.756,-2.08,2.512,0.42
205,-0.84075,-0.0609326171875,0.6275556640625,1.00234765625,2.0580009765625,0.716953125,1.89921875,-0.001,-0.001,-0.001,-0.001,-0.001,-0.001,-0.001,-0.090982925886252,-0.27533277137407164,0.2254112888197444,0.2814973632546631,-0.1658137955431937,0.0993517930096028,0.061881810650815494,-0.156,-40.816,-0.508,-8.804,-2.08,2.532,0.436
206,-0.84075,-0.0609326171875,0.6275556640625,1.00234765625,2.0580009765625,0.716953125,1.89921875,-0.001,-0.001,-0.001,-0.001,-0.001,-0.001,-0.001,-0.09580580092267015,-0.27225843921994464,0.22909801204971778,0.2821110234455724,-0.15877381771788285,0.09981962356581013,0.06739833305353436,-0.104,-40.76,-0.576,-8.756,-2.088,2.516,0.4
207,-0.84075,-0.0609326171875,0.6275556640625,1.00234765625,2.0580009765625,0.716953125,1.89921875,-0.001,-0.001,-0.001,-0.001,-0.001,-0.001,-0.001,-0.10061074021299075,-0.26899809050211554,0.23272008449586779,0.28271741175025283,-0.15157547769388705,0.10028944057321831,0.07291849497061947,-0.156,-40.816,-0.668,-8.78,-2.076,2.532,0.416
208,-0.84075,-0.0609326171875,0.6275556640625,1.00234765625,2.0580009765625,0.716953125,1.89921875,-0.001,-0.001,-0.001,-0.001,-0.001,-0.001,-0.001,-0.10540357551853709,-0.2655588943608439,0.23626648891834867,0.2833149587789873,-0.1442425298991052,0.10075995330415714,0.07842284832349607,-0.104,-40.816,-0.576,-8.824,-2.088,2.544,0.416
209,-0.84075,-0.0609326171875,0.6275556640625,1.00234765625,2.0580009765625,0.716953125,1.89921875,-0.001,-0.001,-0.001,-0.001,-0.001,-0.001,-0.001,-0.11012992969301982,-0.2619850281979572,0.23969567465515915,0.2838967679462209,-0.13686666527985591,0.10122569601877292,0.08384734721735311,-0.156,-40.76,-0.6,-8.736,-2.1,2.524,0.4
210,-0.84075,-0.0609326171875,0.6275556640625,1.00234765625,2.0580009765625,0.716953125,1.89921875,-0.001,-0.001,-0.001,-0.001,-0.001,-0.001,-0.001,-0.11484786521555473,-0.2582206693778353,0.24306365633138943,0.28447251568284043,-0.12933238221707857,0.10169449062340061,0.08928111811904238,-0.212,-40.816,-0.644,-8.78,-2.076,2.524,0.42
211,-0.84075,-0.0609326171875,0.6275556640625,1.00234765625,2.0580009765625,0.716953125,1.89921875,-0.001,-0.001,-0.001,-0.001,-0.001,-0.001,-0.001,-0.11964474319349801,-0.2541843114236955,0.24643232148903116,0.2850532994346223,-0.12148704360049431,0.10217572469056298,0.0948289089062994,-0.156,-40.816,-0.6,-8.736,-2.08,2.524,0.42
212,-0.84075,-0.0609326171875,0.6275556640625,1.00234765625,2.0580009765625,0.716953125,1.89921875,-0.001,-0.001,-0.001,-0.001,-0.001,-0.001,-0.001,-0.12418279158773145,-0.2502013889556414,0.24953927045795993,0.285593657407659,-0.11395917261792117,0.10263150497878369,0.10005329701702372,-0.156,-40.816,-0.6,-8.804,-2.076,2.524,0.408
213,-0.84075,-0.0609326171875,0.6275556640625,1.00234765625,2.0580009765625,0.716953125,1.89921875,-0.001,-0.001,-0.001,-0.001,-0.001,-0.001,-0.001,-0.1287925028234686,-0.24596009208398975,0.2526377989155668,0.2861378170310154,-0.10615073052873564,0.1030986519618494,0.10537541331401581,-0.156,-40.76,-0.668,-8.756,-2.088,2.512,0.4
214,-0.84075,-0.0609326171875,0.6275556640625,1.00234765625,2.0580009765625,0.716953125,1.89921875,-0.001,-0.001,-0.001,-0.001,-0.001,-0.001,-0.001,-0.1333575181035559,-0.24156902110076423,0.2556427865087185,0.2866711002764465,-0.09826978796687967,0.10356491421993888,0.11065367854116649,-0.104,-40.816,-0.644,-8.804,-2.096,2.516,0.4
215,-0.84075,-0.0609326171875,0.6275556640625,1.00234765625,2.0580009765625,0.716953125,1.89921875,-0.001,-0.001,-0.001,-0.001,-0.001,-0.001,-0.001,-0.13792044671857515,-0.23698673365688044,0.25858103506217184,0.2871985120553795,-0.09024373570631772,0.10403485519871257,0.11593697776615842,-0.156,-40.76,-0.576,-8.712,-2.096,2.512,0.416
216,-0.84075,-0.0609326171875,0.6275556640625,1.00234765625,2.0580009765625,0.716953125,1.89921875,-0.001,-0.001,-0.001,-0.001,-0.001,-0.001,-0.001,-0.14239716264209043,-0.2323063303880629,0.26139473465455537,0.28770981755477104,-0.08223597941042485,0.10449933355490144,0.12112082809459444,-0.156,-40.76,-0.552,-8.804,-2.096,2.524,0.42
217,-0.84075,-0.0609326171875,0.6275556640625,1.00234765625,2.0580009765625,0.716953125,1.89921875,-0.001,-0.001,-0.001,-0.001,-0.001,-0.001,-0.001,-0.14686355875413126,-0.22744092690545298,0.26413725935660287,0.2882148969678367,-0.07409991214109227,0.10496720675374975,0.12630290450455103,-0.156,-40.816,-0.784,-8.62,-2.08,2.532,0.42
218,-0.84075,-0.0609326171875,0.6275556640625,1.00234765625,2.0580009765625,0.716953125,1.89921875,-0.001,-0.001,-0.001,-0.001,-0.001,-0.001,-0.001,-0.15127602527679687,-0.22244690246795396,0.2667778982604685,0.28870856313672155,-0.06591670732647222,0.10543446701325081,0.13143860042395777,-0.212,-40.76,-0.528,-8.78,-2.06,2.532,0.42
219,-0.84075,-0.0609326171875,0.6275556640625,1.00234765625,2.0580009765625,0.716953125,1.89921875,-0.001,-0.001,-0.001,-0.001,-0.001,-0.001,-0.001,-0.15564213270119517,-0.21732445096914169,0.269314575989995,0.2891895195938154,-0.057734507807496845,0.10589779378146673,0.13648107277602492,-0.104,-40.816,-0.6,-8.736,-2.076,2.516,0.416
220,-0.84075,-0.0609326171875,0.6275556640625,1.00234765625,2.0580009765625,0.716953125,1.89921875,-0.001,-0.001,-0.001,-0.001,-0.001,-0.001,-0.001,-0.15995999858686247,-0.2120570389230849,0.27176101207719267,0.289661556063176,-0.04947604360335132,0.10636294047988275,0.1415018475458561,-0.156,-40.76,-0.6,-8.644,-2.088,2.532,0.428
221,-0.84075,-0.0609326171875,0.6275556640625,1.00234765625,2.0580009765625,0.716953125,1.89921875,-0.001,-0.001,-0.001,-0.001,-0.001,-0.001,-0.001,-0.16425600045449207,-0.20662441442048254,0.2741233322114066,0.2901257526828565,-0.04113301617541417,0.10683034543371168,0.14649893612420525,-0.156,-40.76,-0.508,-8.804,-2.08,2.524,0.416
222,-0.84075,-0.0609326171875,0.6275556640625,1.00234765625,2.0580009765625,0.716953125,1.89921875,-0.001,-0.001,-0.001,-0.001,-0.001,-0.001,-0.001,-0.16848245402123452,-0.20110058678541923,0.2763712698755778,0.2905762468590439,-0.03282015241851817,0.10729396269516413,0.15140609561389282,-0.156,-40.816,-0.552,-8.78,-2.1,2.512,0.416
223,-0.84075,-0.0609326171875,0.6275556640625,1.00234765625,2.0580009765625,0.716953125,1.89921875,-0.001,-0.001,-0.001,-0.001,-0.001,-0.001,-0.001,-0.17267231637056593,-0.19542316219396663,0.27853056903028584,0.2910183835071388,-0.02444057415057997,0.10775952350491205,0.15628360835848656,-0.156,-40.816,-0.576,-8.756,-2.068,2.504,0.416
224,-0.84075,-0.0609326171875,0.6275556640625,1.00234765625,2.0580009765625,0.716953125,1.89921875,-0.001,-0.001,-0.001,-0.001,-0.001,-0.001,-0.001,-0.17680535178698834,-0.18962731933919835,0.28058964838996825,0.29145023777043205,-0.016034151462081044,0.10822557237682887,0.16111555936794356,-0.156,-40.816,-0.552,-8.756,-2.06,2.532,0.416
225,-0.84075,-0.0609326171875,0.6275556640625,1.00234765625,2.0580009765625,0.716953125,1.89921875,-0.001,-0.001,-0.001,-0.001,-0.001,-0.001,-0.001,-0.18091768299704805,-0.1836735524836444,0.2825595051003663,0.2918739679469943,-0.007570627389032207,0.10869358866364988,0.16591075907532937,-0.156,-40.76,-0.624,-8.62,-2.08,2.536,0.4
226,-0.84075,-0.0609326171875,0.6275556640625,1.00234765625,2.0580009765625,0.716953125,1.89921875,-0.001,-0.001,-0.001,-0.001,-0.001,-0.001,-0.001,-0.184938027653378,-0.17766499272928699,0.28440586838504717,0.2922818063859769,0.000780350483402511,0.1091542594149349,0.17057003774307766,-0.156,-40.76,-0.552,-8.872,-2.08,2.536,0.428
227,-0.84075,-0.0609326171875,0.6275556640625,1.00234765625,2.0580009765625,0.716953125,1.89921875,-0.001,-0.001,-0.001,-0.001,-0.001,-0.001,-0.001,-0.1889019192741178,-0.1715496178097178,0.28615208319117463,0.29267971080452565,1.1041239656642807e-05,0.10961889769648538,0.17521725265075289,-0.104,-40.76,-0.624,-8.848,-2.06,2.516,0.42
228,-0.84075,-0.0609326171875,0.6275556640625,1.00234765625,2.0580009765625,0.716953125,1.89921875,-0.001,-0.001,-0.001,-0.001,-0.001,-0.001,-0.001,-0.1928516626870137,-0.1652418516459148,0.28781898063487765,0.2930727832953054,0.002062555414863831,0.11008434768312417,0.17981049158207768,-0.212,-40.816,-0.644,-8.756,-2.096,2.524,0.44
229,-0.84075,-0.0609326171875,0.6275556640625,1.00234765625,2.0580009765625,0.716953125,1.89921875,-0.001,-0.001,-0.001,-0.001,-0.001,-0.001,-0.001,-0.196691036159318,-0.15895751585173526,0.28934938876644795,0.29344688552801296,0.004078663917784035,0.11054175812763274,0.18426291730387198,-0.156,-40.816,-0.668,-8.804,-2.076,2.532,0.408
230,-0.84075,-0.0609326171875,0.6275556640625,1.00234765625,2.0580009765625,0.716953125,1.89921875,-0.001,-0.001,-0.001,-0.001,-0.001,-0.001,-0.001,-0.20054173894222993,-0.15243033404821146,0.29081048312885954,0.29381898311055155,0.006141321344043926,0.11100951046170589,0.188754199418675,-0.212,-40.816,-0.692,-8.736,-2.096,2.532,0.42
231,-0.84075,-0.0609326171875,0.6275556640625,1.00234765625,2.0580009765625,0.716953125,1.89921875,-0.001,-0.001,-0.001,-0.001,-0.001,-0.001,-0.001,-0.2043071542260043,-0.14585583259842083,0.2921554371995296,0.29417778084519447,0.00819775652752869,0.11147638843399216,0.1931721755153954,-0.156,-40.816,-0.644,-8.712,-2.056,2.532,0.428
232,-0.84075,-0.0609326171875,0.6275556640625,1.00234765625,2.0580009765625,0.716953125,1.89921875,-0.001,-0.001,-0.001,-0.001,-0.001,-0.001,-0.001,-0.2079683845797417,-0.1392818792382721,0.29337842505441725,0.2945210022534115,0.01020772256341531,0.1119309963507628,0.19740745721219008,-0.104,-40.816,-0.528,-8.78,-2.076,2.532,0.42
233,-0.84075,-0.0609326171875,0.6275556640625,1.00234765625,2.0580009765625,0.716953125,1.89921875,-0.001,-0.001,-0.001,-0.001,-0.001,-0.001,-0.001,-0.21161494568257896,-0.13251527117818582,0.29451721414479304,0.2948598421564165,0.012263739506118154,0.11239819026306974,0.2016974799264381,-0.156,-40.816,-0.576,-8.78,-2.08,2.532,0.396
234,-0.84075,-0.0609326171875,0.6275556640625,1.00234765625,2.0580009765625,0.716953125,1.89921875,-0.001,-0.001,-0.001,-0.001,-0.001,-0.001,-0.001,-0.21515637374058702,-0.12579050700314126,0.29552899708817226,0.2951804325032154,0.014266951193798744,0.11284998154894799,0.20576708086866438,-0.156,-40.816,-0.576,-8.804,-2.096,2.524,0.408
235,-0.84075,-0.0609326171875,0.6275556640625,1.00234765625,2.0580009765625,0.716953125,1.89921875,-0.001,-0.001,-0.001,-0.001,-0.001,-0.001,-0.001,-0.21869489740883577,-0.11883858430962943,0.2964582609501473,0.29549825466679946,0.016321104742786065,0.11331469369268968,0.2098879513108029,-0.156,-40.76,-0.624,-8.824,-2.088,2.524,0.408
236,-0.84075,-0.0609326171875,0.6275556640625,1.00234765625,2.0580009765625,0.716953125,1.89921875,-0.001,-0.001,-0.001,-0.001,-0.001,-0.001,-0.001,-0.2221515586048852,-0.1118465359175347,0.29727637562233206,0.2958040605586374,0.018366577689004432,0.1137776175062503,0.21392233847423744,-0.212,-40.76,-0.528,-8.896,-2.08,2.524,0.428
237,-0.84075,-0.0609326171875,0.6275556640625,1.00234765625,2.0580009765625,0.716953125,1.89921875,-0.001,-0.001,-0.001,-0.001,-0.001,-0.001,-0.001,-0.2255484378059586,-0.10478032316250718,0.2979877027030717,0.29609906722322654,0.02041012634167884,0.11423973131783696,0.21788731519700869,-0.156,-40.816,-0.644,-8.78,-2.108,2.516,0.42
238,-0.84075,-0.0609326171875,0.6275556640625,1.00234765625,2.0580009765625,0.716953125,1.89921875,-0.001,-0.001,-0.001,-0.001,-0.001,-0.001,-0.001,-0.22885145251772182,-0.09772572868926103,0.298585612047055,0.29638016795759853,0.022427744639387896,0.11469577137732145,0.22169775027452573,-0.156,-40.76,-0.6,-8.756,-2.096,2.532,0.416
239,-0.84075,-0.0609326171875,0.6275556640625,1.00234765625,2.0580009765625,0.716953125,1.89921875,-0.001,-0.001,-0.001,-0.001,-0.001,-0.001,-0.001,-0.2321033152427362,-0.0905677579998071,0.29908133810597354,0.2966525802218806,0.0244591290991377,0.11515504071048746,0.22547431426471382,-0.156,-40.816,-0.644,-8.688,-2.076,2.504,0.42
240,-0.84075,-0.0609326171875,0.6275556640625,1.00234765625,2.0580009765625,0.716953125,1.89921875,-0.001,-0.001,-0.001,-0.001,-0.001,-0.001,-0.001,-0.2353040422523668,-0.08330313522478572,0.2994730924273262,0.29691634814638274,0.026505082922889733,0.11561761835864104,0.22920015236655777,-0.104,-40.76,-0.576,-8.756,-2.08,2.532,0.42
241,-0.84075,-0.0609326171875,0.6275556640625,1.00234765625,2.0580009765625,0.716953125,1.89921875,-0.001,-0.001,-0.001,-0.001,-0.001,-0.001,-0.001,-0.2384342031927093,-0.07599406724721876,0.299756469927266,0.29716907686287236,0.02855323278016476,0.11608106616322773,0.2328532593520585,-0.156,-40.816,-0.528,-8.756,-2.06,2.524,0.416
242,-0.84075,-0.0609326171875,0.6275556640625,1.00234765625,2.0580009765625,0.716953125,1.89921875,-0.001,-0.001,-0.001,-0.001,-0.001,-0.001,-0.001,-0.24147002868934558,-0.06872250979156783,0.29993022634682975,0.2974076372495896,0.030557218418599246,0.11653331881883619,0.23633360556424554,-0.156,-40.816,-0.576,-8.848,-2.088,2.504,0.416
243,-0.84075,-0.0609326171875,0.6275556640625,1.00234765625,2.0580009765625,0.716953125,1.89921875,-0.001,-0.001,-0.001,-0.001,-0.001,-0.001,-0.001,-0.24445288471668236,-0.06135328243726629,0.2999989232536274,0.2976378123444482,0.032585792345868836,0.11699172897456736,0.23978310135842687,-0.212,-40.76,-0.508,-8.78,-2.088,2.532,0.416
244,-0.84075,-0.0609326171875,0.6275556640625,1.00234765625,2.0580009765625,0.716953125,1.89921875,-0.001,-0.001,-0.001,-0.001,-0.001,-0.001,-0.001,-0.24737929124233807,-0.05390979201695996,0.29996011877542345,0.2978584368216517,0.0346235855588699,0.11745238337694788,0.24316661254742214,-0.156,-40.76,-0.668,-8.712,-2.076,2.524,0.42
245,-0.84075,-0.0609326171875,0.6275556640625,1.00234765625,2.0580009765625,0.716953125,1.89921875,-0.001,-0.001,-0.001,-0.001,-0.001,-0.001,-0.001,-0.25020021650722185,-0.046527876887725965,0.2998159143705004,0.29806544050934636,0.03663021627777915,0.11790579263418713,0.24641122698049303,-0.156,-40.76,-0.576,-8.736,-2.096,2.512,0.4
246,-0.84075,-0.0609326171875,0.6275556640625,1.00234765625,2.0580009765625,0.716953125,1.89921875,-0.001,-0.001,-0.001,-0.001,-0.001,-0.001,-0.001,-0.2529738853857771,-0.03903612539990171,0.2995630796095027,0.29826421115961277,0.03866026668065139,0.11836473930813056,0.24961136031342937,-0.156,-40.76,-0.624,-8.736,-2.076,2.532,0.408
247,-0.84075,-0.0609326171875,0.6275556640625,1.00234765625,2.0580009765625,0.716953125,1.89921875,-0.001,-0.001,-0.001,-0.001,-0.001,-0.001,-0.001,-0.2556817665937665,-0.031502159544743516,0.2992017962000489,0.29845271220370084,0.04069333753932328,0.11882454586026127,0.25273034909478137,-0.104,-40.816,-0.576,-8.824,-2.056,2.524,0.44
248,-0.84075,-0.0609326171875,0.6275556640625,1.00234765625,2.0580009765625,0.716953125,1.89921875,-0.001,-0.001,-0.001,-0.001,-0.001,-0.001,-0.001,-0.25832390602531585,-0.02391969569926427,0.29873041884583706,0.29863145762260335,0.04273726435715861,0.11928693975862668,0.25577690160691474,-0.156,-40.76,-0.528,-8.824,-2.076,2.524,0.416
249,-0.84075,-0.0609326171875,0.6275556640625,1.00234765625,2.0580009765625,0.716953125,1.89921875,-0.001,-0.001,-0.001,-0.001,-0.001,-0.001,-0.001,-0.26084276449874416,-0.016509295669778924,0.2981672315981208,0.29879422556546376,0.0447139985653647,0.11973372050617916,0.25863045643496796,-0.212,-40.816,-0.668,-8.78,-2.1,2.532,0.408
250,-0.84075,-0.0609326171875,0.6275556640625,1.00234765625,2.0580009765625,0.716953125,1.89921875,-0.001,-0.001,-0.001,-0.001,-0.001,-0.001,-0.001,-0.2633230117646118,-0.008928994066696816,0.2974831151971957,0.298950979300913,0.04674899950462563,0.12019554943383506,0.26149718016062884,-0.104,-40.76,-0.624,-8.736,-2.108,2.532,0.428
251,-0.84075,-0.0609326171875,0.6275556640625,1.00234765625,2.0580009765625,0.716953125,1.89921875,-0.001,-0.001,-0.001,-0.001,-0.001,-0.001,-0.001,-0.2657459207122447,-0.0012936574435256966,0.29668418071395947,0.2991003717768601,0.048833341358410914,0.12066628540271776,0.2643179465350799,-0.156,-40.76,-0.508,-8.756,-2.096,2.524,0.42
252,-0.84075,-0.0609326171875,0.6275556640625,1.00234765625,2.0580009765625,0.716953125,1.89921875,-0.001,-0.001,-0.001,-0.001,-0.001,-0.001,-0.001,-0.2680424361548858,0.0061422026438965795,0.2958118348307708,0.29922872536547973,0.050760621886619756,0.12110266304386419,0.26683923583652847,-0.156,-40.76,-0.576,-8.688,-2.108,2.524,0.44
253,-0.84075,-0.0609326171875,0.6275556640625,1.00234765625,2.0580009765625,0.716953125,1.89921875,-0.001,-0.001,-0.001,-0.001,-0.001,-0.001,-0.001,-0.2702881318217422,3.7809383726886675e-05,0.29480738213209706,0.2993529955926136,0.05278740243918207,0.12156193096277511,0.2694057221447368,-0.156,-40.76,-0.644,-8.736,-2.088,2.516,0.436
254,-0.84075,-0.0609326171875,0.6275556640625,1.00234765625,2.0580009765625,0.716953125,1.89921875,-0.001,-0.001,-0.001,-0.001,-0.001,-0.001,-0.001,-0.2724625301225419,0.006453273198543035,0.293705937281587,0.29946534805746017,0.05479041913831804,0.12201571951616165,0.2718451484305988,-0.212,-40.816,-0.6,-8.712,-2.1,2.532,0.428
255,-0.84075,-0.0609326171875,0.6275556640625,1.00234765625,2.0580009765625,0.716953125,1.89921875,-0.001,-0.001,-0.001,-0.001,-0.001,-0.001,-0.001,-0.27453951600925336,0.012812564407750044,0.29251078188889756,0.2995661649863314,0.056773909448452446,0.12246527380429713,0.274168492896535,-0.104,-40.708,-0.576,-8.78,-2.076,2.536,0.4
256,-0.84075,-0.0609326171875,0.6275556640625,1.00234765625,2.0580009765625,0.716953125,1.89921875,-0.001,-0.001,-0.001,-0.001,-0.001,-0.001,-0.001,-0.27655917808222674,0.019269052741891616,0.291188983377935,0.29965868606890667,0.0588096329052471,0.12292757528595893,0.276462403964373,-0.156,-40.76,-0.576,-8.756,-2.088,2.516,0.42
257,-0.84075,-0.0609326171875,0.6275556640625,1.00234765625,2.0580009765625,0.716953125,1.89921875,-0.001,-0.001,-0.001,-0.001,-0.001,-0.001,-0.001,-0.2784990518010031,0.025698289069299673,0.2897686144114514,0.29973864009935247,0.06079858177003163,0.1233787632625642,0.27860065694047825,-0.156,-40.76,-0.552,-8.78,-2.08,2.516,0.436
258,-0.84075,-0.0609326171875,0.6275556640625,1.00234765625,2.0580009765625,0.716953125,1.89921875,-0.001,-0.001,-0.001,-0.001,-0.001,-0.001,-0.001,-0.28034509860775797,0.03207273678705775,0.2882521001649472,0.299808149064863,0.06279411748123241,0.12383211249899947,0.28065292390140506,-0.156,-40.816,-0.508,-8.804,-2.096,2.512,0.396
259,-0.84075,-0.0609326171875,0.6275556640625,1.00234765625,2.0580009765625,0.716953125,1.89921875,-0.001,-0.001,-0.001,-0.001,-0.001,-0.001,-0.001,-0.28211877567244315,0.03845807311527456,0.2866285468081602,0.29986701716446945,0.06478836640179202,0.12428567197424208,0.2826081174644958,-0.104,-40.76,-0.576,-8.756,-2.108,2.532,0.4
260,-0.84075,-0.0609326171875,0.6275556640625,1.00234765625,2.0580009765625,0.716953125,1.89921875,-0.001,-0.001,-0.001,-0.001,-0.001,-0.001,-0.001,-0.28380641247507166,0.04480092016482441,0.2849094292467515,0.2999149595829312,0.06677127094517978,0.12473662229306363,0.28445181964800237,-0.156,-40.76,-0.552,-8.804,-2.12,2.524,0.416
261,-0.84075,-0.0609326171875,0.6275556640625,1.00234765625,2.0580009765625,0.716953125,1.89921875,-0.001,-0.001,-0.001,-0.001,-0.001,-0.001,-0.001,-0.28541825873149157,0.05117402705178774,0.28307118596271674,0.2999525877995943,0.06878065419930218,0.1251947381290157,0.28622559102002587,-0.156,-40.816,-0.6,-8.756,-2.108,2.524,0.44
262,-0.84075,-0.0609326171875,0.6275556640625,1.00234765625,2.0580009765625,0.716953125,1.89921875,-0.001,-0.001,-0.001,-0.001,-0.001,-0.001,-0.001,-0.286939623517487,0.057459732282710674,0.2811548376351862,0.29997899917696247,0.07074556879745621,0.12564192928401197,0.2878538148403295,-0.104,-40.76,-0.692,-8.644,-2.108,2.544,0.416
263,-0.84075,-0.0609326171875,0.6275556640625,1.00234765625,2.0580009765625,0.716953125,1.89921875,-0.001,-0.001,-0.001,-0.001,-0.001,-0.001,-0.001,-0.2883879094588591,0.06376901783469865,0.2791204419123166,0.2999949085421085,0.07273365375292973,0.12609541526234996,0.2894049419663857,-0.156,-40.76,-0.528,-8.804,-2.08,2.524,0.42
264,-0.84075,-0.0609326171875,0.6275556640625,1.00234765625,2.0580009765625,0.716953125,1.89921875,-0.001,-0.001,-0.001,-0.001,-0.001,-0.001,-0.001,-0.28974467174437696,0.07002389181606399,0.27699393128819766,0.299999996191936,0.0747115673258314,0.12654706671990631,0.2908477768566998,-0.156,-40.76,-0.576,-8.736,-2.12,2.536,0.42
265,-0.84075,-0.0609326171875,0.6275556640625,1.00234765625,2.0580009765625,0.716953125,1.89921875,-0.001,-0.001,-0.001,-0.001,-0.001,-0.001,-0.001,-0.2910180153739428,0.07621993608760276,0.27477957169661343,0.29999439694479724,0.07667403343805516,0.12699539139792188,0.2921772720900672,-0.104,-40.76,-0.576,-8.712,-2.076,2.512,0.42
266,-0.84075,-0.0609326171875,0.6275556640625,1.00234765625,2.0580009765625,0.716953125,1.89921875,-0.001,-0.001,-0.001,-0.001,-0.001,-0.001,-0.001,-0.2922138332682187,0.08242969080655062,0.272448457034307,0.29997797279010774,0.07865224037693275,0.12744809776944604,0.29341676521599996,-0.156,-40.76,-0.576,-8.756,-2.08,2.524,0.42
267,-0.84075,-0.0609326171875,0.6275556640625,1.00234765625,2.0580009765625,0.716953125,1.89921875,-0.001,-0.001,-0.001,-0.001,-0.001,-0.001,-0.001,-0.2933339495839769,0.08867927253094209,0.269985614186678,0.2999502535935462,0.08065648442057123,0.12790756730813882,0.2945691767887728,-0.104,-40.816,-0.644,-8.804,-2.088,2.512,0.396
268,-0.84075,-0.0609326171875,0.6275556640625,1.00234765625,2.0580009765625,0.716953125,1.89921875,-0.001,-0.001,-0.001,-0.001,-0.001,-0.001,-0.001,-0.29435702212106046,0.09475001311078478,0.26748911100995987,0.29991263311835026,0.08259606927069735,0.12835147160991753,0.2955750181968007,-0.104,-40.76,-0.576,-8.712,-2.108,2.532,0.416
269,-0.84075,-0.0609326171875,0.6275556640625,1.00234765625,2.0580009765625,0.716953125,1.89921875,-0.001,-0.001,-0.001,-0.001,-0.001,-0.001,-0.001,-0.2952902822988417,0.10078458635302857,0.2648863150243438,0.29986406944017546,0.08455950656613397,0.1288027061494739,0.2964962784120944,-0.156,-40.816,-0.552,-8.848,-2.1,2.532,0.44
270,-0.84075,-0.0609326171875,0.6275556640625,1.00234765625,2.0580009765625,0.716953125,1.89921875,-0.001,-0.001,-0.001,-0.001,-0.001,-0.001,-0.001,-0.2961428499573956,0.10677768203975188,0.2621966478028069,0.29980516151907055,0.08649070013080298,0.1292460015211784,0.29729641502820275,-0.156,-40.76,-0.668,-8.804,-2.08,2.524,0.428
271,-0.84075,-0.0609326171875,0.6275556640625,1.00234765625,2.0580009765625,0.716953125,1.89921875,-0.001,-0.001,-0.001,-0.001,-0.001,-0.001,-0.001,-0.29691767041637124,0.11280748074370907,0.2593656165826684,0.29973392363110196,0.08847371958144552,0.12970277617762835,0.2980148684376498,-0.156,-40.816,-0.508,-8.756,-2.076,2.524,0.428
272,-0.84075,-0.0609326171875,0.6275556640625,1.00234765625,2.0580009765625,0.716953125,1.89921875,-0.001,-0.001,-0.001,-0.001,-0.001,-0.001,-0.001,-0.29761029035204833,0.11879407608202036,0.25644039161880805,0.29965223708389815,0.0904389257243484,0.13015571708231327,0.29861821073625966,-0.156,-40.76,-0.528,-8.736,-2.076,2.532,0.408
273,-0.84075,-0.0609326171875,0.6275556640625,1.00234765625,2.0580009765625,0.716953125,1.89921875,-0.001,-0.001,-0.001,-0.001,-0.001,-0.001,-0.001,-0.2981983656691841,0.12455507291272937,0.2535104781218548,0.2995624560918676,0.09233911072153318,0.1305936562130855,0.2990979304769079,-0.104,-40.816,-0.644,-8.688,-2.088,2.532,0.436
274,-0.84075,-0.0609326171875,0.6275556640625,1.00234765625,2.0580009765625,0.716953125,1.89921875,-0.001,-0.001,-0.001,-0.001,-0.001,-0.001,-0.001,-0.29870844571972355,0.13036119388671358,0.25044012399500803,0.29946040324802475,0.0942720152034189,0.13103987789876545,0.2994823722240657,-0.156,-40.76,-0.624,-8.736,-2.088,2.532,0.428
275,-0.84075,-0.0609326171875,0.6275556640625,1.00234765625,2.0580009765625,0.716953125,1.89921875,-0.001,-0.001,-0.001,-0.001,-0.001,-0.001,-0.001,-0.2991393410494906,0.13611345832032998,0.24727494969861075,0.29934735726355893,0.09620777419894229,0.1314878109322965,0.29976205774310555,-0.212,-40.76,-0.576,-8.736,-2.068,2.532,0.42
276,-0.84075,-0.0609326171875,0.6275556640625,1.00234765625,2.0580009765625,0.716953125,1.89921875,-0.001,-0.001,-0.001,-0.001,-0.001,-0.001,-0.001,-0.2994839282602339,0.1418487053269327,0.24399509038235673,0.2992225710907674,0.09815328124649224,0.13193864274529224,0.29993524051076176,-0.156,-40.76,-0.624,-8.824,-2.096,2.536,0.428
277,-0.84075,-0.0609326171875,0.6275556640625,1.00234765625,2.0580009765625,0.716953125,1.89921875,-0.001,-0.001,-0.001,-0.001,-0.001,-0.001,-0.001,-0.2997370622143756,0.14742849475222106,0.24068094853940195,0.2990889622773188,0.10006881953755681,0.13238378085068628,0.2999994711937328,-0.156,-40.816,-0.552,-8.78,-2.088,2.524,0.408
278,-0.84075,-0.0609326171875,0.6275556640625,1.00234765625,2.0580009765625,0.716953125,1.89921875,-0.001,-0.001,-0.001,-0.001,-0.001,-0.001,-0.001,-0.2999109667082016,0.15317525695975062,0.23713194376103974,0.29893846535634716,0.10205671464599272,0.13284565644672647,0.29995343908026634,-0.156,-40.76,-0.716,-8.712,-2.108,2.524,0.42
279,-0.84075,-0.0609326171875,0.6275556640625,1.00234765625,2.0580009765625,0.716953125,1.89921875,-0.001,-0.001,-0.001,-0.001,-0.001,-0.001,-0.001,-0.29999044605950165,0.15845643986428812,0.23375567471844017,0.29878861663447703,0.10389428317716838,0.13327293900626688,0.29980879628661455,-0.156,-40.816,-0.6,-8.848,-2.076,2.532,0.42
280,-0.84075,-0.0609326171875,0.6275556640625,1.00234765625,2.0580009765625,0.716953125,1.89921875,-0.001,-0.001,-0.001,-0.001,-0.001,-0.001,-0.001,-0.29998776527542037,0.1639289133842379,0.23011627928614753,0.2986196030084028,0.10583648893040586,0.1337267617591328,0.29954669282172874,-0.156,-40.76,-0.668,-8.712,-2.108,2.524,0.416
281,-0.84075,-0.0609326171875,0.6275556640625,1.00234765625,2.0580009765625,0.716953125,1.89921875,-0.001,-0.001,-0.001,-0.001,-0.001,-0.001,-0.001,-0.29989755109720323,0.16931584972412858,0.2264030617620128,0.29844042459017134,0.10776161212130872,0.13417605283759673,0.2991783864146662,-0.212,-40.816,-0.528,-8.848,-2.112,2.544,0.42
282,-0.84075,-0.0609326171875,0.6275556640625,1.00234765625,2.0580009765625,0.716953125,1.89921875,-0.001,-0.001,-0.001,-0.001,-0.001,-0.001,-0.001,-0.2997238136905294,0.1744875139028357,0.2227156817384558,0.29825607556431044,0.10962315934985895,0.1346116265349043,0.29871668474961954,-0.156,-40.816,-0.528,-8.62,-2.088,2.524,0.408
283,-0.84075,-0.0609326171875,0.6275556640625,1.00234765625,2.0580009765625,0.716953125,1.89921875,-0.001,-0.001,-0.001,-0.001,-0.001,-0.001,-0.001,-0.2994643435429536,0.1796323641953321,0.21891112140464672,0.2980592755603773,0.11150048423983044,0.13505137002985912,0.2981468806895347,-0.156,-40.76,-0.436,-8.78,-2.08,2.524,0.448
284,-0.84075,-0.0609326171875,0.6275556640625,1.00234765625,2.0580009765625,0.716953125,1.89921875,-0.001,-0.001,-0.001,-0.001,-0.001,-0.001,-0.001,-0.2991164085675593,0.1847598223488132,0.21497440224115374,0.2978487185965182,0.11340378349061125,0.1354985743210116,0.2974593216352158,-0.156,-40.816,-0.576,-8.804,-2.108,2.532,0.396
285,-0.84075,-0.0609326171875,0.6275556640625,1.00234765625,2.0580009765625,0.716953125,1.89921875,-0.001,-0.001,-0.001,-0.001,-0.001,-0.001,-0.001,-0.29868149910376407,0.18978836668857413,0.2109733380205252,0.29762818852405754,0.11529418317832893,0.13594349648408788,0.2966679703404714,-0.156,-40.816,-0.668,-8.756,-2.096,2.532,0.416
286,-0.84075,-0.0609326171875,0.6275556640625,1.00234765625,2.0580009765625,0.716953125,1.89921875,-0.001,-0.001,-0.001,-0.001,-0.001,-0.001,-0.001,-0.2981615686676795,0.19473291252580194,0.20688477224583995,0.2973961172148228,0.11718679381804605,0.13638989241795624,0.29576573401478923,-0.156,-40.708,-0.528,-8.824,-2.06,2.532,0.416
287,-0.84075,-0.0609326171875,0.6275556640625,1.00234765625,2.0580009765625,0.716953125,1.89921875,-0.001,-0.001,-0.001,-0.001,-0.001,-0.001,-0.001,-0.2975528817727838,0.19960219641153662,0.2027090328596748,0.2971523827007805,0.11908208640122533,0.13683835811976897,0.29474980917705074,-0.212,-40.76,-0.576,-8.712,-2.088,2.516,0.42
288,-0.84075,-0.0609326171875,0.6275556640625,1.00234765625,2.0580009765625,0.716953125,1.89921875,-0.001,-0.001,-0.001,-0.001,-0.001,-0.001,-0.001,-0.2968695269985908,0.20428576652807115,0.19857017067007832,0.2969053359555778,0.12091170690573717,0.1372708002230091,0.29367005841490584,-0.212,-40.816,-0.644,-8.78,-2.076,2.524,0.436
289,-0.84075,-0.0609326171875,0.6275556640625,1.00234765625,2.0580009765625,0.716953125,1.89921875,-0.001,-0.001,-0.001,-0.001,-0.001,-0.001,-0.001,-0.296095899289888,0.20892563298108455,0.19429734581041214,0.29664323026624195,0.1227740972890593,0.13771288723993505,0.2924598903193403,-0.156,-40.76,-0.6,-8.756,-2.08,2.512,0.42
290,-0.84075,-0.0609326171875,0.6275556640625,1.00234765625,2.0580009765625,0.716953125,1.89921875,-0.001,-0.001,-0.001,-0.001,-0.001,-0.001,-0.001,-0.2952342134401889,0.2134922585723327,0.18994014630569425,0.29636996943516347,0.12463210449883427,0.13815472209488427,0.29114473828152737,-0.156,-40.76,-0.6,-8.756,-2.08,2.516,0.4
291,-0.84075,-0.0609326171875,0.6275556640625,1.00234765625,2.0580009765625,0.716953125,1.89921875,-0.001,-0.001,-0.001,-0.001,-0.001,-0.001,-0.001,-0.2942827847936737,0.21799107748348337,0.1854802922256402,0.2960835131392834,0.12650230236463356,0.13860063946146706,0.28971071125397435,-0.156,-40.76,-0.6,-8.712,-2.096,2.524,0.44
292,-0.84075,-0.0609326171875,0.6275556640625,1.00234765625,2.0580009765625,0.716953125,1.89921875,-0.001,-0.001,-0.001,-0.001,-0.001,-0.001,-0.001,-0.2932538907774614,0.22233759373779108,0.1810082470362742,0.29579009226673003,0.12834262385105988,0.13904025807801457,0.28819276778629516,-0.212,-40.76,-0.552,-8.688,-2.076,2.524,0.428
293,-0.84075,-0.0609326171875,0.6275556640625,1.00234765625,2.0580009765625,0.716953125,1.89921875,-0.001,-0.001,-0.001,-0.001,-0.001,-0.001,-0.001,-0.2921351640482146,0.22661825947364447,0.1764316035028529,0.2954832650017879,0.13019444966831142,0.13948381495091586,0.28655013131653945,-0.212,-40.76,-0.6,-8.688,-2.08,2.532,0.44
294,-0.84075,-0.0609326171875,0.6275556640625,1.00234765625,2.0580009765625,0.716953125,1.89921875,-0.001,-0.001,-0.001,-0.001,-0.001,-0.001,-0.001,-0.2909405728704283,0.23075631904112515,0.17183694479167258,0.2951690678700439,0.13202022365054167,0.1399220074332332,0.2848357622873096,-0.212,-40.816,-0.484,-8.824,-2.076,2.532,0.408
295,-0.84075,-0.0609326171875,0.6275556640625,1.00234765625,2.0580009765625,0.716953125,1.89921875,-0.001,-0.001,-0.001,-0.001,-0.001,-0.001,-0.001,-0.2896506263238445,0.23483071534109537,0.16713100189240523,0.2948407199978111,0.13386537493697753,0.1403667199254953,0.28298430567526645,-0.104,-40.76,-0.576,-8.78,-2.076,2.532,0.42
296,-0.84075,-0.0609326171875,0.6275556640625,1.00234765625,2.0580009765625,0.716953125,1.89921875,-0.001,-0.001,-0.001,-0.001,-0.001,-0.001,-0.001,-0.2882851805480917,0.23876666069786745,0.16240237487474365,0.2945044395289656,0.13568014890381777,0.14080379701085122,0.28106427660879907,-0.104,-40.76,-0.6,-8.688,-2.076,2.516,0.44
297,-0.84075,-0.0609326171875,0.6275556640625,1.00234765625,2.0580009765625,0.716953125,1.89921875,-0.001,-0.001,-0.001,-0.001,-0.001,-0.001,-0.001,-0.286843898663845,0.24258374225097168,0.1576266627366774,0.29415838398437644,0.13748982647184133,0.14124149620875573,0.2790392871165967,-0.156,-40.816,-0.6,-8.872,-2.096,2.532,0.396
298,-0.84075,-0.0609326171875,0.6275556640625,1.00234765625,2.0580009765625,0.716953125,1.89921875,-0.001,-0.001,-0.001,-0.001,-0.001,-0.001,-0.001,-0.28530376020721177,0.24633351509837825,0.15273301816316517,0.29379682170388066,0.13932046105789886,0.14168599572242474,0.27687716457428146,-0.156,-40.76,-0.552,-8.712,-2.108,2.532,0.42
