EmanuelSamir/lab201_ws_projsamir/sawyer_dev/data/sawyer/temp/training_data_all2.csv
,j1,j2,j3,j4,j5,j6,j7,jd1,jd2,jd3,jd4,jd5,jd6,jd7,e1,e2,e3,e4,e5,e6,e7
0,0.0,0.0,0.0,0.0,0.0,0.0,0.0,0.0,0.0,0.0,0.0,0.0,0.0,0.0,0.0,0.0,0.0,0.0,0.0,0.0,0.0
1,-0.001794921875,-0.0016123046875,-0.000267578125,-0.0006494140625,0.0058203125,-0.0048837890625,0.0036728515625,0.00012667569536912041,5.1152344769903166e-05,5.9577038111353756e-05,1.1480332613471816e-05,6.916130418175719e-05,3.071553583481e-05,5.7106825706295816e-05,0.104,-44.268,-4.484,-13.584,2.336,-0.628,0.004
2,-0.001794921875,-0.0016123046875,-0.000267578125,-0.0006494140625,0.0058203125,-0.0048837890625,0.0036728515625,0.008503952397363904,0.007125841474614849,0.008947980094607736,0.0012093059058270036,0.011516643433875347,0.004686347596926643,0.008770273844075643,0.104,-44.268,-4.416,-13.56,2.308,-0.624,-0.024
3,-0.001794921875,-0.0016123046875,-0.000267578125,-0.0006494140625,0.0058203125,-0.0048837890625,0.0036728515625,0.01674483234559208,0.014145307111794791,0.017835621542477247,0.0024215547314999407,0.02317446962773868,0.009471524607065846,0.017789055851083216,0.156,-44.268,-4.624,-13.696,2.308,-0.616,-0.004
4,-0.001794921875,-0.001509765625,-0.000267578125,-0.0006494140625,0.0058203125,-0.0048837890625,0.0036728515625,0.024788328280799493,0.021007068518495656,0.02651351856538976,0.003607016503899085,0.03454229262931755,0.01415010964715841,0.026601212078000556,0.104,-44.216,-4.464,-13.652,2.316,-0.628,0.0
5,-0.0015888671875,-0.0013037109375,-0.000412109375,-0.0009384765625,0.0060263671875,-0.0048837890625,0.0036728515625,0.03288034152761637,0.027912511793124907,0.03524508974047632,0.004802932372550005,0.04595443794166563,0.018862864651540946,0.03545374302224728,3.028,-41.896,-4.044,-13.516,2.304,-0.604,0.0
6,-0.0009716796875,-0.0003779296875,-0.000412109375,-0.00194921875,0.0068525390625,-0.004263671875,0.0040732421875,0.040963367693688135,0.03480978668283625,0.04404946186215608,0.006014550634222443,0.05745699213450679,0.02363925740895276,0.04441070374641175,10.632,-35.252,-2.24,-11.868,2.376,-0.552,0.096
7,-0.0002509765625,0.0010625,0.0011767578125,-0.0032578125,0.0097314453125,-0.0034375,0.0061259765625,0.048946449617997254,0.041621297227494726,0.05254089583535955,0.007185431284124893,0.06848591008355252,0.028245087302462044,0.053016262303598176,16.428,-29.748,-1.248,-9.26,2.068,-0.46,0.188
8,0.0008876953125,0.0029150390625,0.0040546875,-0.004701171875,0.0146767578125,-0.0032314453125,0.009818359375,0.056978703086652455,0.048515540704942794,0.06122856756216145,0.00839396170108877,0.07979877427319557,0.03301978440115474,0.06191605958931329,19.936,-26.236,-2.428,-7.112,0.884,0.168,0.22
9,0.002533203125,0.0052890625,0.00722265625,-0.006154296875,0.019208984375,-0.00178515625,0.0151630859375,0.06491547028796454,0.05530734820997915,0.0697444497755294,0.009579919385551569,0.09073288191516211,0.037651529141042604,0.07049106595859428,21.956,-25.104,-2.96,-4.688,0.264,0.7,0.336
10,0.0044951171875,0.007552734375,0.0111201171875,-0.006443359375,0.0243603515625,0.0008876953125,0.02172265625,0.0728067249269318,0.06207122485593987,0.07820717342453466,0.010768687980856199,0.10158157451501462,0.04230268796752345,0.07906205468099636,22.968,-23.86,-2.704,-4.824,0.324,0.596,0.224
11,0.00707421875,0.01043359375,0.014865234375,-0.006443359375,0.0299248046875,0.0046044921875,0.029533203125,0.0807048734682287,0.06888179194749207,0.08671110400930614,0.011973768243729348,0.11243769471257782,0.047015391251705625,0.0877022965726612,22.968,-21.54,-1.94,-5.9,0.72,0.212,0.068
12,0.010263671875,0.0143505859375,0.0191875,-0.0065869140625,0.036935546875,0.0078974609375,0.03733203125,0.08843841205863529,0.07553324489924179,0.09498501462140589,0.013155858782621337,0.12292285160208588,0.051625459915206826,0.09609760099406375,22.116,-20.84,-1.292,-5.58,1.136,0.096,0.108
13,0.01387890625,0.0186728515625,0.024953125,-0.006298828125,0.0459990234375,0.0112021484375,0.0451298828125,0.0961688374824585,0.08220717547946482,0.1032559287771575,0.014348728180629437,0.13332396913178698,0.05626521615347287,0.10448488104958095,21.0,-23.212,-2.448,-5.988,0.872,0.336,0.168
14,0.0181044921875,0.023310546875,0.0311435546875,-0.005720703125,0.0546494140625,0.0142880859375,0.0514951171875,0.10380201515693753,0.08881375886835469,0.11140865552392525,0.015537074452083586,0.14349290709949958,0.0608735474223511,0.11274972237154736,19.724,-28.504,-3.836,-6.288,0.52,0.664,0.188
15,0.0227421875,0.02794140625,0.037775390625,-0.0042685546875,0.0639189453125,0.0188203125,0.0576533203125,0.11142307895675027,0.09553333504815933,0.11966890661436183,0.016755354131585812,0.15370251451353195,0.06558431591659283,0.12112295635422338,18.236,-32.124,-4.74,-8.048,1.116,0.664,0.244
16,0.027900390625,0.0328876953125,0.04425390625,-0.0025361328125,0.0725693359375,0.0237646484375,0.063412109375,0.11889671062624786,0.10194691527042112,0.1275044445827893,0.0179250436841913,0.163285459043859,0.07009143479389494,0.12905711528798294,16.908,-35.036,-5.156,-10.084,1.372,0.0,0.14
17,0.0334638671875,0.03823828125,0.0494423828125,-0.000505859375,0.0820458984375,0.0270703125,0.0689501953125,0.1262822173578094,0.10839856078616796,0.13534623383660854,0.019111034148976126,0.17276314793842237,0.07464138141989679,0.13698173575567135,16.428,-38.872,-5.016,-11.616,2.112,-0.064,0.076
18,0.039341796875,0.04369921875,0.05548828125,0.0012353515625,0.09131640625,0.0311884765625,0.073869140625,0.13364868167940716,0.11487612757403783,0.14317682688406405,0.020313436841733586,0.18212326965186454,0.07924168189097755,0.14491230743977332,14.14,-40.544,-4.856,-12.944,2.376,-0.2,0.064
19,0.045419921875,0.049365234375,0.062255859375,0.0026787109375,0.1003798828125,0.0353076171875,0.0779755859375,0.14083197560855923,0.12119100749061754,0.15076199864722964,0.021496190358575865,0.1910659568566074,0.08374824998325041,0.15258169858365175,10.26,-41.788,-3.584,-13.148,2.388,-0.696,0.032
20,0.051916015625,0.055025390625,0.0697451171875,0.004564453125,0.1100625,0.0375791015625,0.0816806640625,0.14798880827496108,0.12753062909638205,0.1583258323779198,0.022695765104888372,0.19985452268608134,0.08829893250687071,0.1602296065548544,8.028,-43.728,-4.392,-13.764,2.444,-0.452,0.084
21,0.0586181640625,0.0608974609375,0.076224609375,0.0060087890625,0.1195390625,0.040251953125,0.0851669921875,0.15499007506245807,0.13374993592017653,0.16569288462941367,0.023884979355460113,0.2082770370545672,0.09279067223116129,0.1676739489732634,8.56,-46.752,-6.776,-13.856,1.904,-0.136,0.096
22,0.06562890625,0.0666669921875,0.0806904296875,0.00731640625,0.1275703125,0.04314453125,0.08865234375,0.16190004355060209,0.1399199095694279,0.17294329556317004,0.02507796058270897,0.21642090802628527,0.09727431996497934,0.17499485918167132,9.248,-49.56,-6.476,-13.4,1.984,-0.084,0.148
23,0.072646484375,0.0718125,0.0854375,0.009771484375,0.1339482421875,0.046642578125,0.0923447265625,0.16866525466176235,0.14598790546839138,0.18001870347279705,0.026266995364149184,0.22422370558335417,0.1017221731085787,0.18214355501242963,7.068,-48.48,-6.128,-15.436,2.604,-0.356,0.208
24,0.079451171875,0.0767587890625,0.0914921875,0.0115126953125,0.139099609375,0.0509677734375,0.096244140625,0.17530588749796971,0.1519791954994674,0.18693819143547172,0.02745419609353159,0.23169132233809647,0.1061449023686936,0.18913535261123313,0.104,-46.484,-4.692,-17.24,3.384,-1.124,0.244
25,0.086564453125,0.0820068359375,0.097970703125,0.0128212890625,0.1459033203125,0.053640625,0.100556640625,0.18185492037453468,0.15793463868871718,0.19374842185486557,0.02864961229222215,0.23886076102985207,0.11055992842077851,0.1959809012376971,-3.88,-46.86,-4.6,-17.08,3.272,-1.308,0.26
26,0.09378125,0.0874677734375,0.1037275390625,0.0135517578125,0.153521484375,0.0542607421875,0.1052822265625,0.1882582526994768,0.16377933973150333,0.2003569706141192,0.02983756814345681,0.24564063477227205,0.11492860601819689,0.20262799281522456,-3.24,-48.804,-7.516,-15.96,2.44,-0.264,0.244
27,0.10089453125,0.092927734375,0.1083388671875,0.0135517578125,0.158453125,0.05715234375,0.1104072265625,0.19450262310435593,0.16952113238788474,0.20678101160280768,0.03102352158053133,0.2520522426447332,0.11926281232129332,0.20908876434954132,-1.488,-49.992,-8.604,-13.744,2.024,0.16,0.18
28,0.1077060546875,0.09755859375,0.1127958984375,0.0148515625,0.1617578125,0.0606513671875,0.116359375,0.20062072307561626,0.17519574540929353,0.21305901814658115,0.03221513113312619,0.25812778238095696,0.12359563931068078,0.21541130205289855,-3.296,-49.452,-6.636,-14.292,2.348,-0.22,0.104
29,0.1142021484375,0.10178515625,0.1176962890625,0.0164482421875,0.16484375,0.0643564453125,0.1221181640625,0.20657728377418702,0.18074912825520578,0.21911990737295214,0.03339900765450029,0.26378415202847083,0.12786516640150966,0.22149011704550986,-8.24,-47.832,-5.248,-17.312,3.248,-0.676,0.064
30,0.12080078125,0.1061005859375,0.12301953125,0.0170263671875,0.16772265625,0.0678681640625,0.12765625,0.21240117552234744,0.1862361696034901,0.22502695874700868,0.03458863974698651,0.26908217631582293,0.1321270149351016,0.22740950586322992,-9.728,-47.78,-4.576,-17.356,3.688,-1.3,0.108
31,0.1273994140625,0.110634765625,0.1284970703125,0.017314453125,0.171634765625,0.068681640625,0.1327822265625,0.21807719574136866,0.19163381967654072,0.2307520472617521,0.03578023813164741,0.2739926950250105,0.13636535366880237,0.23314069315320435,-6.804,-48.212,-4.692,-16.28,3.096,-0.676,0.136
32,0.1335869140625,0.11557421875,0.132810546875,0.0171708984375,0.176580078125,0.0703349609375,0.1377138671875,0.22357771403861942,0.19690984933071445,0.2362579085125443,0.03696671266937399,0.2784797549745982,0.14055335807904049,0.23864244217000888,-5.42,-47.564,-6.336,-14.496,2.18,0.024,0.116
33,0.1394658203125,0.1199033203125,0.1371328125,0.017314453125,0.1786328125,0.073419921875,0.142439453125,0.22888685587348973,0.20204463541831938,0.24152536638071737,0.03814434964254102,0.2825290298274816,0.1446771857971131,0.24389764254110854,-8.612,-47.348,-6.8,-12.644,2.256,-0.252,0.212
34,0.1450361328125,0.123298828125,0.141734375,0.0189033203125,0.1804921875,0.0763125,0.14715234375,0.2341414516086809,0.20720007406487262,0.24671657389287385,0.03935155111491261,0.28625659784268626,0.14887100556870156,0.24906898077558334,-12.172,-46.752,-5.688,-14.864,2.452,-0.364,0.192
35,0.15049609375,0.1271064453125,0.1451904296875,0.0197783203125,0.1827509765625,0.080224609375,0.152083984375,0.23907232995444594,0.21209070346901898,0.25154091264854755,0.0405214391544703,0.2894527355490391,0.1529002690550531,0.25386461004984856,-10.74,-46.536,-4.9,-16.672,2.968,-1.104,0.096
36,0.1557578125,0.1308173828125,0.1499453125,0.02035546875,0.1850234375,0.0824970703125,0.157015625,0.24386488964313924,0.21689133603632624,0.2561752727636932,0.04169566495144991,0.29224360336088234,0.15690920089361673,0.25846042103404115,-8.028,-46.268,-4.324,-16.052,3.572,-1.22,0.088
37,0.1608134765625,0.134728515625,0.15498046875,0.02093359375,0.190162109375,0.08413671875,0.161728515625,0.2484974768191131,0.22160491880008235,0.2606168036114804,0.042874906896742025,0.29462068888538,0.16089540481747608,0.26284641795440583,-7.068,-45.78,-5.156,-15.8,2.608,-0.696,0.012
38,0.1655537109375,0.1388515625,0.1591494140625,0.0207890625,0.19407421875,0.0864091796875,0.166041015625,0.2530092666373381,0.22627420716372312,0.2649064869884662,0.0440744938917727,0.2965993853328894,0.1649185414864758,0.26708546792398047,-8.932,-45.564,-6.428,-13.172,2.148,-0.44,0.056
39,0.1699912109375,0.142349609375,0.1636162109375,0.0217998046875,0.1975732421875,0.0890810546875,0.169939453125,0.2572621598075778,0.23073396649991104,0.268887604814372,0.0452499873565995,0.2981027618892707,0.16882168468092,0.27100504239747214,-10.368,-45.512,-6.984,-12.804,2.252,-0.304,0.116
40,0.174216796875,0.145546875,0.167640625,0.023107421875,0.20046484375,0.0929931640625,0.1738388671875,0.2613497257977855,0.2351009542082539,0.27266516218466386,0.04643234106902855,0.2991765938635735,0.172706631184558,0.2747084349874114,-9.516,-44.484,-6.36,-14.704,2.388,-0.728,0.12
41,0.178236328125,0.1490517578125,0.1712412109375,0.023830078125,0.20355078125,0.0967119140625,0.177337890625,0.2652342924175461,0.2393222052675357,0.27619217951678815,0.04760793731608209,0.2998068150686337,0.17652771850525328,0.2781512946173695,-7.388,-44.756,-4.648,-15.208,3.196,-1.02,0.16
42,0.18216015625,0.1526533203125,0.1758515625,0.02483984375,0.2091025390625,0.0995908203125,0.1810302734375,0.26898198453590044,0.24350425635194578,0.2795588977896787,0.048811875665688294,0.2999983297399851,0.18041104470472538,0.28144134282337224,-5.792,-44.268,-5.016,-15.368,3.168,-0.888,0.22
43,0.185974609375,0.1564677734375,0.1804541015625,0.024984375,0.2144609375,0.1018505859375,0.18472265625,0.2724312066167162,0.2474299350100119,0.282580138509477,0.049974868131228374,0.2997449790098776,0.18410716936811297,0.28435644419559963,-5.316,-44.324,-5.64,-13.996,2.428,-0.348,0.244
44,0.18958203125,0.1603779296875,0.184333984375,0.0252734375,0.2198056640625,0.1047421875,0.1886220703125,0.27575014661061287,0.2512845521307095,0.2854094601039669,0.051154969299844665,0.2990486351287669,0.1878263823860764,0.2870804754081076,-5.42,-43.676,-5.316,-12.232,2.172,0.084,0.336
45,0.1928818359375,0.163671875,0.18851171875,0.02629296875,0.224130859375,0.108447265625,0.192521484375,0.2788469703903738,0.2549939756957571,0.28798142005533744,0.05232682239917855,0.2979208547467919,0.19144994601158902,0.2895175510980991,-5.208,-42.76,-5.548,-12.852,1.984,0.036,0.292
46,0.196078125,0.1671767578125,0.1921123046875,0.0271591796875,0.2278359375,0.1121533203125,0.1968330078125,0.2817244119615307,0.25854690382340045,0.29029971539053584,0.053494937424972674,0.2963607703883842,0.1950363924871629,0.2917098237380308,-4.516,-42.112,-4.276,-13.652,2.36,-0.272,0.14
47,0.199171875,0.17067578125,0.19584765625,0.028169921875,0.2325751953125,0.11565234375,0.20155859375,0.28443497836761983,0.2620238302023204,0.29240794690780236,0.054682774805704056,0.29433174576988275,0.1986363312242429,0.2936796513272,-3.456,-42.328,-3.908,-13.996,2.648,-0.488,0.096
48,0.202265625,0.1743798828125,0.199880859375,0.028900390625,0.237919921875,0.118130859375,0.206078125,0.28691151275979204,0.26532130915013297,0.29424147690706265,0.05585634739292517,0.2918903805186586,0.2021456440327211,0.29536707038196536,-2.444,-42.436,-4.856,-13.924,2.376,-0.408,0.088
49,0.205359375,0.178296875,0.20376171875,0.029189453125,0.2420380859375,0.1205966796875,0.21018359375,0.2891654762075957,0.2684552284811209,0.2958126795195989,0.057019274410246554,0.2890461559337296,0.20557542899628783,0.29678323578844285,-1.54,-42.812,-4.832,-12.668,2.108,-0.004,0.116
50,0.2083505859375,0.1821044921875,0.207505859375,0.0300556640625,0.247396484375,0.1234892578125,0.2144951171875,0.2912315795730939,0.2714895584265463,0.2971533092916224,0.0581996179062965,0.28572772176770467,0.20901009895175734,0.29796034381716957,-0.848,-42.112,-5.016,-12.164,1.88,0.024,0.104
51,0.21123828125,0.185712890625,0.21109765625,0.03106640625,0.2511015625,0.12657421875,0.2181884765625,0.2930651453249177,0.27434217739705363,0.2982242895824002,0.05936238341453198,0.28204141752955236,0.21234171585072142,0.29885883593337187,0.424,-40.924,-5.412,-12.896,1.972,-0.076,0.16
52,0.2141259765625,0.18941796875,0.214697265625,0.03194140625,0.25439453125,0.1298671875,0.221880859375,0.29470849246869746,0.27709942059574705,0.29905721716366596,0.060546347197709766,0.27786186853637124,0.21568696928291567,0.2995088831543241,0.796,-40.816,-4.392,-12.852,2.432,-0.208,0.208
53,0.2169111328125,0.193123046875,0.218578125,0.0329521484375,0.2578935546875,0.13274609375,0.2253798828125,0.2961345857353929,0.2797086469257741,0.2996298673242132,0.0617329528101791,0.27324589697119606,0.2189930652165331,0.29989043324778303,1.276,-41.3,-4.9,-13.172,2.204,-0.292,0.14
54,0.2199013671875,0.1970390625,0.222322265625,0.03368359375,0.2611982421875,0.135224609375,0.228865234375,0.29730834492114033,0.28209556465142943,0.29993411328678893,0.06288128212815552,0.2683846085231856,0.22213439754083117,0.2999993265718889,1.592,-41.896,-5.248,-12.828,1.984,0.012,0.18
55,0.2227958984375,0.2009501953125,0.2259228515625,0.03455859375,0.2634580078125,0.138517578125,0.23214453125,0.29828503665338807,0.28437702381728025,0.29998976941986605,0.06404779603955989,0.26305509660314014,0.22527012944540162,0.29984934867581153,1.752,-41.732,-5.64,-12.164,1.872,0.18,0.224
56,0.22568359375,0.20455859375,0.229513671875,0.0357138671875,0.26531640625,0.1420166015625,0.2354375,0.2990377485377321,0.2864838688207274,0.29979276116541054,0.0652020903549882,0.25739253104646126,0.22832531846457554,0.2994411733678809,2.232,-40.276,-5.736,-12.552,1.756,0.148,0.172
57,0.2286748046875,0.20846875,0.232826171875,0.036724609375,0.2663369140625,0.1453212890625,0.2389228515625,0.29957866661465843,0.288465242377815,0.29933759048692404,0.06637054108797502,0.2512763073538244,0.23136542122830195,0.2987639411897627,2.708,-39.412,-5.316,-12.508,1.78,0.116,0.088
58,0.231666015625,0.21237890625,0.2362724609375,0.037744140625,0.2673701171875,0.14861328125,0.2422158203125,0.2999091449874172,0.29038117570997035,0.2985813882717245,0.06766363435340898,0.24402399471195235,0.2346897603359988,0.2976946958855823,2.764,-39.844,-4.996,-12.464,1.952,0.18,0.104
59,0.2347587890625,0.216193359375,0.239873046875,0.03904296875,0.2679892578125,0.1521123046875,0.245701171875,0.2999997584023018,0.2919659033451999,0.29765756790813014,0.06870375175241965,0.2379451053294852,0.2372680898545279,0.2966194773359701,2.924,-40.492,-5.388,-12.76,1.572,0.192,0.064
60,0.2379560546875,0.22020703125,0.2430400390625,0.0400537109375,0.267576171875,0.155404296875,0.2485673828125,0.2998788553125608,0.2934830335646728,0.29643286501524885,0.06987024848316165,0.23073455443513788,0.24013778898640742,0.2951495404688119,3.08,-41.084,-4.692,-12.304,1.676,0.344,0.088
61,0.2410498046875,0.2242265625,0.24591015625,0.0415068359375,0.2673701171875,0.15931640625,0.2514462890625,0.29953996801478194,0.2948332893114521,0.2949662510959496,0.07102585927730863,0.2232473425858658,0.2429226399663021,0.29343413938845064,3.348,-40.6,-4.324,-12.736,1.764,0.084,0.104
62,0.24424609375,0.2281376953125,0.2486435546875,0.0429501953125,0.26675,0.163228515625,0.2539130859375,0.2989674327822498,0.2960569386088047,0.29320255618806157,0.07221063140153619,0.21522525997061995,0.24571900780855774,0.2914074781196533,3.028,-40.22,-4.368,-13.056,1.872,-0.088,0.088
63,0.2475458984375,0.23225390625,0.2513779296875,0.0444033203125,0.2659365234375,0.1669345703125,0.25637890625,0.2982012684245252,0.2970764703667563,0.2912654603184958,0.07334531811427177,0.207226267486631,0.24833973111792423,0.28921383536184647,2.444,-40.276,-3.976,-12.896,1.956,-0.076,0.136
64,0.2508447265625,0.2363759765625,0.2541123046875,0.0458466796875,0.2655234375,0.1708466796875,0.2586376953125,0.2971961094381612,0.29796842143898983,0.2890187131520445,0.07451490127936132,0.19866144241034792,0.25098432691836836,0.2866912691805283,1.912,-41.032,-4.252,-13.032,1.756,-0.116,0.148
65,0.2541513671875,0.2404931640625,0.2565576171875,0.0471552734375,0.26387109375,0.17496484375,0.260484375,0.2959775306579385,0.29869390939199797,0.2865430607834978,0.0756722798612673,0.18988999458791675,0.25353823033995576,0.28394358400057307,1.276,-41.788,-4.88,-12.644,1.756,-0.128,0.18
66,0.2574501953125,0.2445126953125,0.2591474609375,0.0487431640625,0.261818359375,0.1794970703125,0.2621240234375,0.29455483748619543,0.2992544172663975,0.28385517921639664,0.07681493604308312,0.1809479301640137,0.2559998400867686,0.2809839605824829,0.688,-42.272,-4.9,-12.736,1.944,-0.18,0.22
67,0.26075,0.24862890625,0.2614482421875,0.0503408203125,0.2595458984375,0.1842353515625,0.2635576171875,0.2928914072917391,0.29966579148073735,0.280862897998485,0.07798236867916566,0.1715239527199006,0.2584576762541451,0.2776981469051898,0.584,-41.516,-4.6,-13.192,1.924,-0.096,0.188
68,0.2640498046875,0.2528544921875,0.2634599609375,0.0514951171875,0.2568603515625,0.1891796875,0.2650029296875,0.2909924308935406,0.29991964801288257,0.2775120782173273,0.07918818601186209,0.16150902997563407,0.2609296444332226,0.27403849618971476,-0.156,-41.032,-4.324,-12.44,2.148,-0.084,0.224
69,0.267349609375,0.256970703125,0.2657607421875,0.0532373046875,0.2539814453125,0.1937119140625,0.2660361328125,0.2888908931648583,0.29999996458695743,0.2741339264135484,0.08031698782148608,0.1518923661597348,0.26318022699584215,0.2703733197485077,-0.848,-40.924,-4.9,-12.188,1.924,0.24,0.244
70,0.2705458984375,0.2610869140625,0.26762890625,0.054689453125,0.2500693359375,0.1986435546875,0.2670693359375,0.2866809904983066,0.2999290220091099,0.2705922173468218,0.08142594953765388,0.14221209149886133,0.2653356974143947,0.2665307188444854,-1.648,-41.3,-5.108,-12.096,1.612,0.344,0.232
71,0.2736396484375,0.2652099609375,0.2687841796875,0.056287109375,0.2447236328125,0.203794921875,0.2678828125,0.28418465189734476,0.29969902540904714,0.26669649231581183,0.0825736696049113,0.13200206713798016,0.2674982138079932,0.2623501621184351,-2.496,-41.68,-5.108,-11.66,1.86,0.068,0.276
72,0.2766298828125,0.269017578125,0.2699296875,0.0584521484375,0.238953125,0.2089462890625,0.268501953125,0.2814491875508227,0.299303401722042,0.2625108529865055,0.08373811058422277,0.12141056410560437,0.26963447293727905,0.25784098855867105,-3.828,-41.084,-5.04,-12.532,1.924,0.076,0.284
73,0.2794150390625,0.273140625,0.27036328125,0.0600498046875,0.2325751953125,0.214498046875,0.268708984375,0.27855039267004206,0.2987567171059435,0.258189166739389,0.08487503691789883,0.11089986280553715,0.27164865215152934,0.2532312648509159,-5.048,-40.816,-4.88,-12.644,2.024,-0.084,0.252
74,0.2822001953125,0.2772568359375,0.2705078125,0.0617822265625,0.2251640625,0.2198564453125,0.268708984375,0.27545056861067974,0.2980542231849823,0.2536544299818191,0.08601031223756016,0.10022280743230191,0.27359970872326583,0.248393096606954,-6.804,-40.652,-5.18,-11.892,1.868,-0.108,0.264
75,0.2845732421875,0.2811669921875,0.27036328125,0.06395703125,0.216306640625,0.2250078125,0.268501953125,0.2720919736925687,0.29717426805000774,0.24879275663748185,0.08717169635653439,0.08912599919411246,0.27553341900850564,0.24319958617598786,-9.144,-41.032,-6.012,-12.096,1.704,0.26,0.22
76,0.2866376953125,0.28487890625,0.2692080078125,0.0661318359375,0.2060166015625,0.231591796875,0.2680888671875,0.26859803738275834,0.2961580084263469,0.2438353175834328,0.08830366826480575,0.07818048603243156,0.27734717634958467,0.23793676887992776,-12.6,-42.812,-6.196,-12.304,1.86,0.232,0.136
77,0.2880791015625,0.288171875,0.26791796875,0.0691728515625,0.19407421875,0.237970703125,0.267275390625,0.26488899326883397,0.29497723414773536,0.23863141745987174,0.0894430483062723,0.0670076329738306,0.2791127472143018,0.23240445267809978,-16.692,-44.376,-6.476,-13.628,2.204,-0.088,0.104
78,0.2892109375,0.29115625,0.2661943359375,0.072646484375,0.1815244140625,0.2445546875,0.2660361328125,0.2609377467666388,0.29361968371955915,0.23313837916509667,0.09060151784920717,0.05556183798185551,0.28083676185379436,0.22656312862762018,-18.98,-45.944,-6.52,-15.984,2.668,-0.324,0.032
79,0.2899375,0.294146484375,0.2637490234375,0.0756962890625,0.1679296875,0.2509453125,0.2641767578125,0.25689813242617676,0.2921522736128866,0.2276443309162421,0.09171277388459177,0.04450205715650408,0.2824175963386274,0.22080679972272438,-19.404,-48.156,-6.428,-17.104,2.972,-0.936,0.0
80,0.29024609375,0.296822265625,0.2614482421875,0.079169921875,0.1539345703125,0.2556708984375,0.2621240234375,0.2525637486029093,0.290480101728422,0.22176008474168835,0.09286490179251101,0.03293135885347764,0.2839960129365676,0.21459308367862157,-18.66,-50.748,-6.592,-17.492,3.104,-0.82,-0.016
81,0.2900400390625,0.2992919921875,0.2587138671875,0.0825,0.13992578125,0.260822265625,0.2592451171875,0.24807965034507343,0.28867195219793373,0.21575814437450153,0.09400063805899819,0.021464691104058697,0.2854816856063402,0.20827716013145667,-18.712,-53.232,-7.352,-18.568,3.092,-0.68,-0.024
82,0.2893203125,0.3013505859375,0.255546875,0.085396484375,0.1246904296875,0.266994140625,0.2557587890625,0.24341245307953197,0.2867047092011527,0.2095522923238903,0.09513888086215648,0.00992525996991514,0.286902100269545,0.20175011858915323,-18.236,-55.608,-7.632,-18.752,3.344,-1.3,-0.084
83,0.288181640625,0.3027978515625,0.252099609375,0.0887265625,0.1086171875,0.27069921875,0.2516533203125,0.23854309407482982,0.2845762033067034,0.2031383276276058,0.09628156562498323,-0.001699428754633945,0.2882600895362348,0.19499095282562037,-17.436,-57.552,-7.192,-20.076,3.46,-1.012,-0.156
84,0.2866376953125,0.3040322265625,0.2477861328125,0.0917666015625,0.09296875,0.2754375,0.2467216796875,0.23357750879120726,0.28233677194151985,0.19668341347355486,0.09739707181473935,-0.01304080033389764,0.28951255811439,0.1882536288769486,-17.172,-58.2,-6.844,-21.244,3.884,-0.784,-0.16
85,0.2845732421875,0.3047529296875,0.2440419921875,0.09423046875,0.0773076171875,0.280783203125,0.241388671875,0.22841546724410278,0.27993008174563344,0.19000419302014662,0.09852189149732216,-0.024477041548409222,0.29070794973397807,0.18127505746077013,-16.908,-58.684,-7.168,-21.36,4.016,-1.612,-0.2
86,0.28240625,0.3051640625,0.239583984375,0.096703125,0.06166015625,0.282435546875,0.2356435546875,0.22307082024907307,0.2773714059051242,0.18314845721873907,0.0996483314965835,-0.035916537480445265,0.2918363479552969,0.17410662076802677,-17.12,-59.764,-8.324,-22.548,3.892,-1.012,-0.148
87,0.2797236328125,0.305267578125,0.234982421875,0.098291015625,0.04703125,0.2859345703125,0.230298828125,0.21755024533543016,0.2746581158088523,0.1761191255697162,0.10077587776447758,-0.04733281577573943,0.2928952229147967,0.16676703708575621,-17.704,-60.304,-8.024,-22.388,4.124,-0.832,-0.044
88,0.2766298828125,0.30485546875,0.2306689453125,0.0998876953125,0.0326103515625,0.2888134765625,0.2245537109375,0.2117534109548071,0.2716802060850571,0.1686426590365858,0.1019486015871093,-0.05916897277396871,0.29392267384561394,0.1589488962502192,-18.184,-60.412,-8.928,-22.252,3.748,-1.5,-0.136
89,0.2732275390625,0.3039296875,0.2254892578125,0.10133203125,0.0183818359375,0.2888134765625,0.21839453125,0.20546748877431167,0.26849703474816233,0.1609037839843645,0.10313401239506863,-0.07100869425404949,0.29487788176333685,0.15091365684364474,-18.236,-59.872,-9.088,-22.844,3.756,-0.96,-0.056
90,0.2695166015625,0.3027978515625,0.220166015625,0.1021982421875,0.0049931640625,0.29066015625,0.2118232421875,0.2000545026859144,0.26564472719896204,0.1541346291339342,0.10415166251628483,-0.08111867683419005,0.29563636583525416,0.14387293339548238,-18.608,-59.28,-7.608,-22.272,3.996,-0.888,-0.052
91,0.2650791015625,0.30114453125,0.214986328125,0.103208984375,-0.00716796875,0.291279296875,0.205044921875,0.19393407631817317,0.2623646875276448,0.1465800327184651,0.10526588541146133,-0.09207835165207519,0.29639733025730414,0.13604873801116413,-18.82,-58.308,-7.7,-21.772,3.656,-1.548,-0.136
92,0.2603388671875,0.299189453125,0.2096630859375,0.1039306640625,-0.019123046875,0.290052734375,0.1978662109375,0.18760764388520937,0.2588997917306049,0.1387806598474991,0.10639664701763453,-0.1030867210327506,0.2970973217609393,0.12796149014321817,-18.556,-56.796,-8.28,-22.112,3.52,-0.948,-0.088
93,0.2554892578125,0.2970283203125,0.20347265625,0.1040751953125,-0.0296328125,0.290259765625,0.1908818359375,0.1812868414337204,0.2553906738509089,0.13107220279451262,0.10749557659678001,-0.11365239566313728,0.2977063232556748,0.11997999539844453,-17.172,-56.688,-6.984,-20.352,3.512,-0.804,0.036
94,0.250125,0.2943525390625,0.197435546875,0.1048056640625,-0.0393154296875,0.2896396484375,0.1845166015625,0.17470927941977762,0.2516650426117685,0.12307227088913493,0.10861834649607671,-0.12429677557864342,0.2982557162881539,0.11170538646645266,-12.76,-55.552,-7.076,-19.916,3.18,-0.96,0.0
95,0.2445546875,0.291361328125,0.19095703125,0.1049501953125,-0.049619140625,0.2888134765625,0.1779443359375,0.1680261601627987,0.2478216104130185,0.11500603570826502,0.10973358836683289,-0.13469807821102875,0.29872759102142027,0.10338172046457038,-8.716,-54.204,-6.684,-19.644,3.22,-0.552,-0.012
96,0.238779296875,0.288171875,0.1841982421875,0.1049501953125,-0.05848828125,0.2892265625,0.171580078125,0.16129749274135588,0.2438982982388897,0.10694698248224871,0.11083310529384238,-0.14477731114197673,0.29912103904262943,0.09506560105140845,-8.716,-52.964,-5.412,-18.34,3.284,-0.732,-0.024
97,0.2323857421875,0.2843642578125,0.1780087890625,0.105671875,-0.0663251953125,0.2888134765625,0.164814453125,0.1543175039786262,0.2397561072718667,0.09861374311088672,0.11195561252886173,-0.15486859091242686,0.29944851592671834,0.08647395107216731,-10.684,-52.316,-6.8,-19.004,3.28,-0.688,-0.128
98,0.2258896484375,0.2802412109375,0.171962890625,0.10610546875,-0.0731298828125,0.2892265625,0.1580361328125,0.1473217417431802,0.2355445965469624,0.09030294407040344,0.11306324043728046,-0.16462269070257632,0.2996979487421089,0.07788316108570248,-12.28,-52.316,-7.516,-19.964,3.012,-0.728,-0.18
99,0.2192841796875,0.2763310546875,0.16505078125,0.10581640625,-0.07993359375,0.2890205078125,0.15105078125,0.14022253323569772,0.2312244112172285,0.0819719230787726,0.11415856366767604,-0.17402119915087202,0.29987091718172815,0.06936481149720408,-9.516,-49.94,-7.332,-18.5,3.024,-0.836,-0.108
100,0.212994140625,0.272728515625,0.15771484375,0.1048056640625,-0.085498046875,0.288400390625,0.14469921875,0.13296947275734194,0.22673553297023777,0.07346641625921266,0.1152680223064766,-0.1833157074088896,0.29997258426142187,0.06062104635355497,-2.708,-44.592,-5.504,-16.028,2.628,-0.428,-0.104
101,0.2062919921875,0.2689150390625,0.150947265625,0.1039306640625,-0.0906494140625,0.2877802734375,0.1389404296875,0.12556910372291125,0.22208497759088386,0.06481045601912612,0.11638818495084592,-0.1924469877518994,0.29999905183728626,0.05169192722072411,-0.264,-41.948,-4.3,-12.6,2.48,-0.224,0.0
102,0.199171875,0.264798828125,0.1449013671875,0.1039306640625,-0.09457421875,0.287173828125,0.13340234375,0.1182360239314008,0.21745207934641148,0.05638847418009345,0.1174646327808824,-0.20093130961949665,0.29995226909451334,0.0431469139354234,-1.964,-39.356,-5.34,-12.256,1.516,0.212,-0.036
103,0.1921611328125,0.260572265625,0.1387119140625,0.1037861328125,-0.09951953125,0.2873671875,0.12765625,0.11070059893817964,0.2126057516851646,0.04771420423211808,0.11856863218537275,-0.2093722384470028,0.2998301133423101,0.034265477920390024,-3.828,-38.764,-5.204,-12.028,1.344,0.188,-0.016
104,0.1853564453125,0.256044921875,0.132232421875,0.1042197265625,-0.10446484375,0.2873671875,0.121498046875,0.10310107144955243,0.20766066734079414,0.03902657903070719,0.11966689187372251,-0.21747298184016597,0.29963383986445175,0.02539051983446641,-0.848,-40.384,-5.364,-12.668,1.624,0.12,-0.084
105,0.1787578125,0.25161328125,0.124896484375,0.10465234375,-0.109822265625,0.2879873046875,0.11533984375,0.09536166914001386,0.20255027511231077,0.030211521762095458,0.1207752690893462,-0.22533772715669745,0.2993596906433951,0.016389251681933538,5.42,-42.38,-4.16,-13.604,2.264,0.168,-0.064
106,0.1720498046875,0.247599609375,0.1172626953125,0.1049501953125,-0.1143671875,0.2892265625,0.1091806640625,0.08774143144714408,0.19749003770838428,0.021646921696664535,0.1218460979915035,-0.23261871779732265,0.299022558057165,0.007685554035217685,5.792,-38.764,-2.868,-13.652,2.616,-0.304,-0.052
107,0.1651416015625,0.2438955078125,0.111216796875,0.1048056640625,-0.118072265625,0.2896396484375,0.103435546875,0.07986629442744722,0.1921649715956215,0.012787195716512796,0.12295082719904431,-0.23980550767716585,0.298598854192537,-0.0013405126571576944,1.804,-35.2,-3.512,-12.372,2.544,-0.44,0.068
108,0.15854296875,0.240287109375,0.1057490234375,0.10465234375,-0.1203447265625,0.2888134765625,0.0980908203125,0.07177913847818056,0.18663973655159816,0.0037599295481462744,0.1240725940544326,-0.24674443301180599,0.2980899810511725,-0.010519609260440465,0.264,-35.308,-4.972,-11.044,1.204,0.148,0.036
109,0.15235546875,0.236685546875,0.0998388671875,0.10436328125,-0.12405078125,0.288607421875,0.0925517578125,0.06414723630928282,0.18137127814740922,-0.004689268394434257,0.12511983260764928,-0.25288171395567666,0.2975437537944369,-0.019083600411074094,6.752,-37.952,-6.66,-9.556,0.696,0.644,0.004
110,0.1462705078125,0.232671875,0.0932158203125,0.1050947265625,-0.1308671875,0.2892265625,0.0872197265625,0.05623795168271701,0.1758554311745967,-0.013375745900924661,0.1261948210715186,-0.25882963987758306,0.29691135729253304,-0.027863466574278923,9.728,-40.22,-5.62,-9.696,1.28,0.824,-0.032
111,0.1400830078125,0.2281376953125,0.086591796875,0.107259765625,-0.1368447265625,0.2916923828125,0.081474609375,0.048158129675511245,0.1701341567218296,-0.022233829172787493,0.1272909062600515,-0.2645246609781087,0.29618994546788263,-0.0368268563597269,7.388,-39.952,-3.952,-12.164,2.324,0.408,-0.036
112,0.1339990234375,0.2244326171875,0.0796806640625,0.108423828125,-0.1417900390625,0.294572265625,0.075728515625,0.04011618791882436,0.16438505171491463,-0.030974528537162652,0.12837302793756247,-0.26976517674003464,0.2954024680451462,-0.04565858130965675,3.296,-33.364,-2.796,-14.612,2.36,-0.812,-0.172
113,0.1285322265625,0.22144140625,0.074203125,0.1081357421875,-0.1471484375,0.29396484375,0.0691572265625,0.0321175776862632,0.15860577114821406,-0.03959858964477704,0.12944126167699485,-0.27455336314686357,0.2945526256300317,-0.054340575692800104,3.08,-32.5,-2.428,-11.592,2.496,-0.872,-0.104
114,0.1229619140625,0.2189716796875,0.0685908203125,0.1078466796875,-0.1498330078125,0.291486328125,0.0629853515625,0.02403749341007767,0.1526960300865741,-0.04826209389570179,0.1305169474801905,-0.278985100519068,0.29362207812710484,-0.06306251655373984,8.028,-36.332,-3.608,-8.94,1.136,0.8,-0.108
115,0.1175009765625,0.2157822265625,0.06311328125,0.108568359375,-0.154171875,0.2925185546875,0.057240234375,0.015909063862525386,0.1466751214814306,-0.05693270034985619,0.13159732595571758,-0.2830334301816913,0.292611148273337,-0.07180014606333905,9.516,-40.76,-6.06,-8.072,0.5,0.916,-0.076
116,0.112240234375,0.21176171875,0.0567783203125,0.11058984375,-0.1626279296875,0.293345703125,0.0514951171875,0.007790589445495854,0.14060542840732393,-0.06550018224563593,0.1326673425213999,-0.2866302738480245,0.2915381020234933,-0.08038179627696716,6.112,-41.68,-5.62,-11.044,1.3,0.52,-0.084
117,0.1072880859375,0.2078515625,0.0500205078125,0.1129091796875,-0.17046484375,0.2958115234375,0.0461494140625,-0.000305707283301135,0.13448200198371676,-0.07399085374436251,0.13373335265435415,-0.2898035040161063,0.2903944829545893,-0.08887956378070955,1.7,-40.76,-4.3,-14.728,2.868,-0.26,-0.012
118,0.1024443359375,0.2048671875,0.0441103515625,0.1139287109375,-0.1770625,0.2972568359375,0.0399912109375,-0.008461996272434734,0.12822393773403798,-0.08250891351568737,0.13480929709905143,-0.29258469652552704,0.2891635970983763,-0.09741872604372445,1.168,-38.168,-3.792,-15.78,3.096,-1.372,-0.104
119,0.09780078125,0.2025966796875,0.03877734375,0.1139287109375,-0.1815947265625,0.294365234375,0.0338330078125,-0.016556910797991133,0.12195940864172532,-0.09086296408686474,0.1358698917010732,-0.2948993688656525,0.2878797640442267,-0.10573624832685762,4.412,-38.492,-4.184,-12.92,2.328,-0.656,-0.14
120,0.0929580078125,0.2003330078125,0.03359765625,0.113775390625,-0.186138671875,0.29210546875,0.02748046875,-0.024702872794115704,0.11548614891695587,-0.09934293158101164,0.13695618421697597,-0.2968317848358267,0.2864620509000149,-0.11435147012853289,5.156,-41.788,-6.152,-9.672,1.312,0.676,-0.052
121,0.0881083984375,0.197142578125,0.0285537109375,0.115380859375,-0.1914970703125,0.2923125,0.0209091796875,-0.03274813063173212,0.10918309045170246,-0.10741540432147792,0.13799683481039357,-0.2982554767904918,0.2850810926053385,-0.12221147546675801,4.04,-43.784,-7.236,-10.2,0.968,0.656,-0.032
122,0.0836767578125,0.1935341796875,0.022787109375,0.117123046875,-0.2001728515625,0.293138671875,0.01495703125,-0.040871897276861344,0.10265499223356157,-0.1156220631144187,0.13906544719498912,-0.29928193456898106,0.28356346671180177,-0.13035564090004614,1.488,-44.324,-6.012,-13.08,1.984,0.016,0.004
123,0.07934765625,0.19003515625,0.0164443359375,0.119,-0.20718359375,0.29396484375,0.009625,-0.04886089336971381,0.09616514795580805,-0.123612526725528,0.14011650210063092,-0.29985517808797035,0.2819978559588531,-0.13826700167530084,-1.54,-44.484,-3.768,-15.756,3.092,-0.656,0.004
124,0.07491015625,0.18705078125,0.0112646484375,0.1201640625,-0.2125419921875,0.2937587890625,0.0040732421875,-0.0568353671754987,0.08960364707224369,-0.13152539623550405,0.14116895634133605,-0.29999223696449295,0.28035764626116966,-0.14608609395600367,-1.276,-44.756,-4.556,-16.42,3.188,-1.104,-0.012
125,0.070478515625,0.1844716796875,0.005931640625,0.1204521484375,-0.2168798828125,0.2916923828125,-0.001671875,-0.06479449494763852,0.0829687318089488,-0.13935617983369192,0.14222317188010974,-0.29968810579433974,0.27864178611429746,-0.15380544727608927,1.06,-45.348,-5.432,-14.656,2.204,-0.544,-0.104
126,0.066046875,0.1817958984375,0.000310546875,0.1204521484375,-0.221630859375,0.2898466796875,-0.0076240234375,-0.0726949741050029,0.07630632922282735,-0.14704783923316964,0.14327239875935824,-0.29894450934320094,0.27686156559790254,-0.16136953849935903,0.9,-46.052,-5.432,-12.004,1.992,0.12,-0.12
127,0.061505859375,0.178296875,-0.004876953125,0.121751953125,-0.226369140625,0.2898466796875,-0.013576171875,-0.0805478401211401,0.06959332737775867,-0.15463078520998766,0.144322182304942,-0.2977576942447524,0.2750062704344621,-0.16882141981098314,-0.476,-45.78,-6.268,-12.6,1.892,0.12,-0.172
128,0.0569716796875,0.174689453125,-0.0103544921875,0.123060546875,-0.2315341796875,0.290259765625,-0.019734375,-0.08848825490747736,0.06270984866574747,-0.16222325759976988,0.14538933241848404,-0.2960973669093461,0.27304766433372135,-0.17625067967930028,-1.912,-45.564,-6.428,-14.336,2.044,-0.324,-0.168
129,0.05263671875,0.17129296875,-0.0159755859375,0.1237822265625,-0.236478515625,0.2898466796875,-0.02548046875,-0.0960944000962602,0.05604278511439225,-0.16940241734937808,0.1464151729225408,-0.29406859877382396,0.2710940453141037,-0.18325547533439973,-3.612,-46.752,-5.804,-14.932,2.712,-0.624,-0.088
130,0.0479990234375,0.1678974609375,-0.0210205078125,0.1246484375,-0.23937109375,0.2892265625,-0.0308125,-0.10373755341496167,0.0492471395497163,-0.17654685392108324,0.14745407821593415,-0.2915826154048242,0.2690453446285263,-0.19020438230670758,-3.456,-47.672,-6.612,-14.976,2.752,-0.616,-0.032
131,0.0432529296875,0.1642890625,-0.025919921875,0.1253701171875,-0.2416435546875,0.2879873046875,-0.035951171875,-0.1113305103665004,0.04239585487430502,-0.18357187180028406,0.14849531059380952,-0.28865529494289566,0.2669203270202054,-0.1970174160466137,-1.804,-48.104,-7.516,-15.252,2.076,-0.436,-0.104
132,0.0386220703125,0.160892578125,-0.0313974609375,0.1256591796875,-0.2447421875,0.286966796875,-0.0408701171875,-0.11885212695998697,0.03551111620610083,-0.19044954468779526,0.14953575956434717,-0.2852962315867961,0.2647257304763194,-0.2036687503449476,-1.328,-47.348,-6.776,-14.132,2.216,-0.232,-0.064
133,0.0338818359375,0.1570849609375,-0.03644140625,0.1263896484375,-0.2472080078125,0.2865537109375,-0.0462021484375,-0.1262501170594054,0.028652688621760177,-0.19711999147616957,0.15056697104217515,-0.2815401954866118,0.262480444206621,-0.21009298160327958,-2.284,-46.268,-5.896,-13.628,2.432,-0.26,-0.024
134,0.0290322265625,0.1530654296875,-0.041494140625,0.127255859375,-0.2488603515625,0.2859345703125,-0.051546875,-0.13359809581184162,0.021722663956950692,-0.20367905520239696,0.15160512661104614,-0.2773323761240453,0.26014833965786927,-0.21639582892201933,-2.604,-45.944,-6.036,-14.248,2.232,-0.396,-0.064
135,0.0240859375,0.1491552734375,-0.0468271484375,0.127833984375,-0.2505126953125,0.2849013671875,-0.0570859375,-0.14078499337832714,0.014849854480915978,-0.20999346294506402,0.1526289798864906,-0.27276905540200397,0.2577814575427731,-0.22242723429783337,-3.296,-46.592,-5.62,-14.316,2.108,-0.284,-0.104
136,0.0191337890625,0.14523828125,-0.05216015625,0.1282666015625,-0.2515458984375,0.2836748046875,-0.0628310546875,-0.14795583469781803,0.007887077086115723,-0.21620777430470609,0.1536634075841333,-0.2677442267194212,0.2553199451947371,-0.22834048429900833,-3.136,-46.968,-6.104,-13.88,2.2,-0.172,-0.044
137,0.0141875,0.1410126953125,-0.0572041015625,0.1291416015625,-0.2523720703125,0.2828486328125,-0.06795703125,-0.15491184072325015,0.0010355497326005843,-0.22213000171524566,0.1546771070186965,-0.2624172075358279,0.252840117926668,-0.23394678147346867,-2.02,-46.484,-6.104,-14.224,2.16,-0.16,0.044
138,0.0091318359375,0.13668359375,-0.062681640625,0.1298642578125,-0.2529921875,0.282435546875,-0.072888671875,-0.1618488866705825,-0.005939589888031758,-0.22797813085766633,0.15570978606298969,-0.2565842743218444,0.25024017078232796,-0.23949586849682208,-0.9,-45.188,-5.296,-14.864,2.276,-0.272,0.036
139,0.0040830078125,0.132669921875,-0.0680234375,0.13015234375,-0.2534052734375,0.281609375,-0.077408203125,-0.16861644417390073,-0.012835520028118603,-0.23355710167517996,0.15672474016819965,-0.25046826609860234,0.24762298386036297,-0.24470105672637085,-1.008,-44.324,-4.808,-14.156,2.444,-0.512,0.012
140,-0.0011767578125,0.1284443359375,-0.0729228515625,0.1305859375,-0.25278515625,0.2797626953125,-0.0819140625,-0.17524808701922948,-0.01971148947671052,-0.23893236903543355,0.1577370391887106,-0.24398437019305497,0.24494281545749833,-0.24971752826089622,-1.008,-44.756,-5.848,-13.536,2.252,-0.232,0.024
141,-0.0064384765625,0.1241220703125,-0.0773896484375,0.1310185546875,-0.251958984375,0.2785234375,-0.0862255859375,-0.1817743887656805,-0.026610931226191185,-0.24413066898804495,0.15875213150601356,-0.23710836959225698,0.24218794024074686,-0.25454153214456576,-0.688,-45.404,-6.936,-13.192,1.78,0.016,-0.084
142,-0.01158984375,0.119697265625,-0.0822978515625,0.1314521484375,-0.2515458984375,0.277490234375,-0.090951171875,-0.18821350466648923,-0.03355475237622603,-0.2491649007761994,0.15977410898413963,-0.22980994017439071,0.23934356734100384,-0.25919006497322883,-0.264,-44.756,-7.168,-13.056,1.696,-0.14,-0.096
143,-0.016748046875,0.1151630859375,-0.0870537109375,0.132029296875,-0.251958984375,0.276470703125,-0.095470703125,-0.19444234633139876,-0.04037806181210109,-0.2539111764919459,0.16077755935391438,-0.22229348297482668,0.2364877571161942,-0.26353126052696263,0.476,-43.404,-6.612,-13.264,2.152,-0.104,-0.104
144,-0.021796875,0.11073828125,-0.0919619140625,0.1326162109375,-0.2511328125,0.2758505859375,-0.1001826171875,-0.20055206376652354,-0.047222528962098304,-0.25846998642671815,0.16178484979955632,-0.2144039281824486,0.2335556179241992,-0.26766873858549084,1.328,-42.22,-5.364,-13.516,2.108,-0.296,-0.156
145,-0.02705859375,0.1064091796875,-0.0965732421875,0.133048828125,-0.250099609375,0.274611328125,-0.1051279296875,-0.20655976849516236,-0.054101933353494815,-0.26284631173809514,0.1627983086586901,-0.2061247534495592,0.23053936605625364,-0.27160379953450436,1.648,-41.84,-5.316,-13.08,2.128,-0.488,-0.128
146,-0.032107421875,0.1021962890625,-0.10088671875,0.133337890625,-0.2490673828125,0.27255859375,-0.1096337890625,-0.21233773770432843,-0.06084008352046351,-0.26692740346620897,0.16379250630286799,-0.19768227844021075,0.2275162182855492,-0.27523596502279496,1.752,-42.596,-5.504,-12.44,1.9,-0.056,-0.084
147,-0.037265625,0.0978681640625,-0.1053623046875,0.133771484375,-0.2474140625,0.271732421875,-0.1137392578125,-0.21801377849566572,-0.06762804085907771,-0.27083060430468,0.16479643088833795,-0.18884160490664842,0.22439915685587775,-0.27867085590324153,2.284,-43.028,-5.572,-11.96,1.612,0.012,-0.052
148,-0.0422119140625,0.09333984375,-0.109693359375,0.1346376953125,-0.246587890625,0.27069921875,-0.117638671875,-0.22350580206159737,-0.07433559060480499,-0.27447725847658666,0.1657910479875828,-0.1797833689687168,0.22124707774166139,-0.28183772463344064,2.444,-41.624,-5.316,-12.44,1.828,-0.212,-0.036
149,-0.0470546875,0.088908203125,-0.1143046875,0.1353681640625,-0.245568359375,0.2696669921875,-0.12134375,-0.22885496127667937,-0.0810382518796836,-0.2779076838809499,0.16678851819353135,-0.17040871390807785,0.21802243153912523,-0.2847732854447095,2.816,-40.868,-4.832,-13.056,2.076,-0.264,-0.068
150,-0.051904296875,0.0847919921875,-0.118923828125,0.135955078125,-0.2439150390625,0.268853515625,-0.1248427734375,-0.23400701201365665,-0.08765463035494529,-0.28107772498431055,0.16777628934844568,-0.16085160550406544,0.21476721954145686,-0.2874387560373668,3.4,-41.084,-4.348,-13.056,2.184,-0.48,-0.068
151,-0.056748046875,0.0807724609375,-0.1231025390625,0.1363876953125,-0.241849609375,0.2674072265625,-0.1283291015625,-0.23903959851453346,-0.0942975557410753,-0.28404246010312184,0.16877190157553748,-0.15096122439665066,0.21142880262742952,-0.2898710089487719,3.4,-41.896,-4.532,-12.668,2.12,-0.428,-0.024
152,-0.061494140625,0.0766552734375,-0.1272890625,0.1369658203125,-0.2397841796875,0.2659736328125,-0.132021484375,-0.24389808625495227,-0.10089733203383573,-0.28676361854236143,0.1697665632165295,-0.14081936916902282,0.2080266731464228,-0.2920541238307371,3.188,-42.976,-4.9,-12.44,1.768,-0.212,-0.036
153,-0.0661318359375,0.072533203125,-0.1314755859375,0.13754296875,-0.23771875,0.2651474609375,-0.1357138671875,-0.24845029519223377,-0.10725390023286421,-0.28916818354459967,0.1707299107762535,-0.13077060121441378,0.20467292073015397,-0.29392393539900175,3.456,-42.92,-5.34,-12.484,1.78,-0.324,-0.096
154,-0.0705634765625,0.0684169921875,-0.135509765625,0.13841796875,-0.2362724609375,0.263908203125,-0.13940625,-0.25294391522588267,-0.11374462777089381,-0.29139767040844433,0.17171974442883864,-0.1202217977584938,0.20116605593356338,-0.29559075146502695,3.668,-41.896,-5.64,-12.624,2.108,-0.436,-0.088
155,-0.0749951171875,0.064087890625,-0.139119140625,0.1392841796875,-0.2344130859375,0.26308203125,-0.1433056640625,-0.2572171420960083,-0.12011675077932313,-0.2933569934129217,0.17269793072242706,-0.10959270748723658,0.19764110704453783,-0.29698122180210335,3.612,-41.516,-5.548,-13.308,2.276,-0.524,-0.076
156,-0.0793232421875,0.06007421875,-0.142583984375,0.140005859375,-0.231740234375,0.2620625,-0.1470107421875,-0.261329495501753,-0.12646133487664735,-0.2950753732338421,0.17367911593195942,-0.09873707614589132,0.19404642381975623,-0.29811570072058907,3.828,-41.84,-5.896,-13.356,2.232,-0.664,-0.068
157,-0.0836513671875,0.0563701171875,-0.145904296875,0.140439453125,-0.2290546875,0.260203125,-0.15091015625,-0.2651835277833389,-0.13263604396341178,-0.2965167742932806,0.174641278021108,-0.08791707733523378,0.19046334774311094,-0.2989726639449539,4.304,-42.544,-6.38,-12.692,2.132,-0.472,-0.036
158,-0.0878779296875,0.052453125,-0.1490712890625,0.1408720703125,-0.2261630859375,0.2585634765625,-0.154189453125,-0.2688849295758511,-0.13881292594580688,-0.29772301943527135,0.17561227891130213,-0.07683914421646383,0.18679058877974317,-0.2995775238515249,4.252,-43.296,-6.104,-12.256,2.004,-0.272,0.004
159,-0.092,0.0485419921875,-0.152392578125,0.141458984375,-0.223064453125,0.25732421875,-0.15726171875,-0.27240924668144434,-0.1449562660222937,-0.29868077153108596,0.1765883190865913,-0.0655490670487971,0.183035694120516,-0.2999202523642822,3.932,-42.704,-6.404,-12.532,1.964,-0.356,0.044
160,-0.0959169921875,0.044625,-0.155568359375,0.1421806640625,-0.2208046875,0.2558779296875,-0.1601416015625,-0.2756971206279282,-0.1509377460559448,-0.2993702515386673,0.17754511241496343,-0.05437007079709574,0.17931060457767847,-0.29999401986124125,3.88,-42.328,-5.688,-13.056,2.2,-0.436,0.032
161,-0.0997314453125,0.0408173828125,-0.158744140625,0.14290234375,-0.2179130859375,0.2544443359375,-0.1628134765625,-0.27879130232134164,-0.15686159860558455,-0.29980929250472377,0.17850414852728183,-0.043044263324589445,0.17551590073346823,-0.2998065701995438,3.932,-42.76,-5.34,-13.08,2.42,-0.46,0.024
162,-0.1034423828125,0.0369013671875,-0.1616318359375,0.143625,-0.214607421875,0.2527919921875,-0.1654736328125,-0.28169632847933823,-0.16274028518346123,-0.2999939954986139,0.1794664867407026,-0.03158202900894949,0.17165291274484204,-0.2993527129267757,3.828,-43.296,-5.432,-13.284,2.316,-0.504,-0.016
163,-0.1071533203125,0.0330927734375,-0.1646552734375,0.14435546875,-0.2111083984375,0.2507392578125,-0.167939453125,-0.28438076103337784,-0.1684899478248001,-0.2999219060592393,0.18042042704186304,-0.02013375713590652,0.16776551303342233,-0.2986366891865556,3.828,-43.784,-5.848,-13.284,2.1,-0.4,-0.032
164,-0.11076171875,0.029279296875,-0.1673984375,0.1447890625,-0.208009765625,0.2490869140625,-0.1704052734375,-0.28685771723237685,-0.1741534081386649,-0.2995955441999231,0.1813693168633658,-0.008693804057821598,0.1638556296347223,-0.29766445671848385,3.772,-44.216,-5.596,-12.784,2.172,-0.336,-0.056
165,-0.1143701171875,0.0254716796875,-0.1701416015625,0.1456552734375,-0.2042919921875,0.247240234375,-0.1726650390625,-0.2891471717994823,-0.17979913438080883,-0.2990048417567546,0.18233064845588726,0.0029553172969516025,0.15983141153641903,-0.2964060860220207,3.508,-43.836,-5.272,-13.124,2.048,-0.356,-0.076
166,-0.1177724609375,0.0215615234375,-0.172884765625,0.146376953125,-0.200986328125,0.245380859375,-0.1751181640625,-0.29119902285711435,-0.18525829731001495,-0.2981699630601863,0.18327111334527066,3.2436830389165415e-05,0.15582998900520836,-0.29490635911343527,3.188,-43.244,-5.388,-13.4,2.132,-0.408,-0.088
167,-0.121072265625,0.0177470703125,-0.1754833984375,0.1469541015625,-0.19728125,0.24353515625,-0.177583984375,-0.29304369313490025,-0.19065215614735828,-0.29707579241004795,0.18421572854747245,0.006479293670892144,0.15180032564361232,-0.2931544081234927,2.444,-44.052,-5.18,-13.444,2.184,-0.356,-0.096
168,-0.12437109375,0.013939453125,-0.1782265625,0.147685546875,-0.1931494140625,0.24146875,-0.1800498046875,-0.2946810141896743,-0.19613939997408425,-0.2956478973864935,0.18520901370529913,0.013314188012343018,0.1474808921476243,-0.29101176389024375,2.284,-44.648,-5.316,-13.56,2.096,-0.316,-0.136
169,-0.1276708984375,0.010125,-0.1808251953125,0.1484072265625,-0.1894443359375,0.2392099609375,-0.182515625,-0.29609553936342076,-0.20115470530378748,-0.29411895575471536,0.1861010017287161,0.019461551362284016,0.14355939845087115,-0.2888410215262565,2.656,-44.592,-5.48,-13.332,2.112,-0.284,-0.148
170,-0.1308671875,0.0063173828125,-0.183423828125,0.148984375,-0.1853125,0.2371435546875,-0.18496875,-0.2972941473883517,-0.2062419072488875,-0.29226361918627963,0.18703781294577015,0.025929736171636197,0.13939266715343976,-0.28630472804608326,2.604,-44.808,-4.784,-13.148,2.212,-0.2,-0.156
171,-0.134064453125,0.002400390625,-0.1858779296875,0.1497060546875,-0.18078125,0.2350908203125,-0.187228515625,-0.29827126244527985,-0.21118906207919252,-0.2901716934392459,0.18796594409975229,0.032344797480723234,0.13521797072097438,-0.28353395982752005,2.336,-44.484,-4.856,-13.444,2.16,-0.26,-0.128
172,-0.1370546875,-0.001509765625,-0.1881884765625,0.1504375,-0.1766494140625,0.2330380859375,-0.189693359375,-0.29903652824807464,-0.2160858022808574,-0.2878023990817189,0.18890311780012642,0.0388288623353546,0.13095488445714262,-0.28047488984656965,2.392,-43.676,-5.18,-13.628,2.264,-0.324,-0.148
173,-0.140142578125,-0.0054267578125,-0.190353515625,0.1510146484375,-0.172517578125,0.23097265625,-0.191953125,-0.29957540011533806,-0.2208029542864475,-0.28522010269068665,0.18982473948730913,0.0452088683251938,0.12671670086379025,-0.277210346921989,2.124,-44.16,-5.224,-13.56,2.336,-0.264,-0.12
174,-0.1431328125,-0.0094404296875,-0.1922216796875,0.151736328125,-0.167986328125,0.2291259765625,-0.194005859375,-0.29989746305524784,-0.22542544723356486,-0.28238318288877273,0.1907476267227701,0.051596016003590095,0.12242758114445332,-0.27368824462763414,2.176,-44.54,-5.572,-13.836,2.296,-0.276,-0.104
175,-0.1460205078125,-0.013453125,-0.1942431640625,0.152314453125,-0.1636484375,0.2272666015625,-0.1958515625,-0.2999998468619841,-0.2299462833905888,-0.27929344592765554,0.19167053986364935,0.05797824613508081,0.11809839672679556,-0.26991775609161456,2.176,-44.376,-5.712,-13.764,2.164,-0.428,-0.116
176,-0.1489091796875,-0.0174736328125,-0.1958310546875,0.1527470703125,-0.159529296875,0.2250078125,-0.1974912109375,-0.29988278415036784,-0.23430128115172127,-0.27599673130948815,0.1925820541721549,0.0642776592343269,0.1137756191737947,-0.26594115996762024,1.964,-44.376,-5.528,-13.284,2.224,-0.312,-0.076
177,-0.1516875,-0.0214873046875,-0.1972744140625,0.1533251953125,-0.1545849609375,0.2229423828125,-0.1989248046875,-0.2995460883034698,-0.23856033884047737,-0.27244284573995653,0.19349658468903622,0.0705895389223525,0.10939563291296453,-0.2617047306540113,1.804,-43.892,-5.872,-13.264,2.036,-0.272,-0.064
178,-0.154568359375,-0.0255068359375,-0.1984296875,0.1537666015625,-0.1502470703125,0.221095703125,-0.20037109375,-0.29897983443122783,-0.24275850689477185,-0.26859064702548613,0.19442405784648867,0.07698197371594001,0.10490594839370314,-0.2571494453475023,1.752,-43.244,-6.544,-12.944,1.972,-0.408,-0.044
179,-0.1572509765625,-0.0297255859375,-0.1995849609375,0.1544892578125,-0.146541015625,0.2188232421875,-0.201390625,-0.2982104630426905,-0.2467102101859721,-0.2646257457191879,0.1953197764276473,0.08313568235039394,0.10053870711148159,-0.25252534069631316,1.964,-43.62,-6.244,-13.148,2.06,-0.24,-0.052
180,-0.1599326171875,-0.0338486328125,-0.2008837890625,0.1552109375,-0.142203125,0.217390625,-0.202423828125,-0.2972072396782559,-0.25061048862193075,-0.26035017368663105,0.1962320058446517,0.08938753576852457,0.09604628927139572,-0.24756902614760382,2.072,-43.568,-5.988,-13.24,2.164,-0.344,-0.064
181,-0.162505859375,-0.03796484375,-0.2020390625,0.15594140625,-0.1376708984375,0.21532421875,-0.2032373046875,-0.2960080639907795,-0.25430380415216325,-0.25593813269928595,0.1971234022519088,0.09549955616397711,0.0915999218039632,-0.24247366835416462,1.964,-43.192,-5.988,-13.584,2.256,-0.564,-0.088
182,-0.1650849609375,-0.0418818359375,-0.2030498046875,0.156375,-0.133126953125,0.21265234375,-0.2038564453125,-0.2945604823096152,-0.25795831135913777,-0.2511844234719638,0.19803609902611619,0.10169028925715752,0.08704178042355026,-0.23705836241728567,1.912,-43.46,-5.988,-13.148,2.288,-0.316,-0.068
183,-0.1676640625,-0.0458955078125,-0.203916015625,0.15681640625,-0.128388671875,0.2105859375,-0.2044765625,-0.29292417696887096,-0.2613920742762442,-0.24632880687513858,0.1989239797373735,0.10770619882243615,0.08255634950798749,-0.23154878803889095,2.02,-43.192,-6.476,-12.692,2.112,-0.24,-0.088
184,-0.1701337890625,-0.0499150390625,-0.2046376953125,0.1575390625,-0.1242568359375,0.2083271484375,-0.2052900390625,-0.2910700256619714,-0.26470592021423595,-0.24124059466011652,0.19981322393023432,0.1137038075971042,0.07802685185832565,-0.22580885955622576,2.072,-42.652,-6.936,-12.804,1.992,-0.232,-0.076
185,-0.1725068359375,-0.05403125,-0.20550390625,0.1584052734375,-0.120138671875,0.2062734375,-0.205703125,-0.2889695428876584,-0.26793782875106686,-0.23584608479352198,0.2007162197846996,0.11976055396082654,0.07339256049256707,-0.21975771916837178,1.964,-43.084,-6.36,-13.356,2.056,-0.332,-0.096
186,-0.1748798828125,-0.0582578125,-0.2062255859375,0.159271484375,-0.1158134765625,0.2042080078125,-0.2061162109375,-0.28669666380927444,-0.2709541157150926,-0.23037513734641005,0.2015951138993529,0.12562275020071292,0.06884655840690998,-0.21365224434863406,1.964,-43.46,-6.336,-13.744,2.276,-0.468,-0.104
187,-0.1772470703125,-0.0622705078125,-0.2068037109375,0.160001953125,-0.111681640625,0.2017421875,-0.206529296875,-0.2842046101631549,-0.2738460964425929,-0.22467640880852313,0.20247572016729617,0.13145691751892916,0.06426127686950212,-0.2073328337508655,2.02,-43.296,-6.104,-13.948,2.284,-0.544,-0.088
188,-0.179517578125,-0.0660849609375,-0.207380859375,0.160580078125,-0.107150390625,0.1986435546875,-0.2069296875,-0.2814732324776126,-0.2766335076646756,-0.21869006690189433,0.2033678989331622,0.13733058324837571,0.059577836747729714,-0.20071103148842862,1.964,-43.568,-6.06,-13.492,2.112,-0.376,-0.116
189,-0.18178125,-0.0700986328125,-0.207669921875,0.1613017578125,-0.10260546875,0.1955576171875,-0.2071357421875,-0.2785801375489368,-0.27921453785132255,-0.21264505148255938,0.20423890138193743,0.14302896312645916,0.054964620923219173,-0.1940314800290556,2.336,-43.404,-6.38,-13.192,2.028,-0.192,-0.104
190,-0.18394921875,-0.07421484375,-0.2078134765625,0.16216796875,-0.098486328125,0.192884765625,-0.2073427734375,-0.27542728802799693,-0.28169747667865047,-0.2063111584787196,0.20511917989770517,0.14872316734844016,0.05029698785139212,-0.18712589195026752,2.444,-43.084,-6.544,-13.376,2.028,-0.172,-0.096
191,-0.1860068359375,-0.078234375,-0.2082470703125,0.16304296875,-0.0941611328125,0.1904189453125,-0.2073427734375,-0.2721496803091568,-0.28397481738873703,-0.1999382208372888,0.2059791303493494,0.15425010088446375,0.045691408096445695,-0.18016456748021872,2.496,-43.404,-6.152,-13.836,2.284,-0.408,-0.088
192,-0.188072265625,-0.0823505859375,-0.2083916015625,0.1641982421875,-0.0896171875,0.18752734375,-0.2073427734375,-0.2686098296359048,-0.28614699202964566,-0.19326070186286476,0.20685382107046146,0.15982023845118806,0.04097703159590948,-0.1728923148255481,2.924,-43.352,-5.828,-14.316,2.516,-0.572,-0.108
193,-0.190033203125,-0.086267578125,-0.2083916015625,0.164775390625,-0.0850849609375,0.1848544921875,-0.2073427734375,-0.26491942043051087,-0.28813290560097904,-0.18653749406760486,0.20770877017601622,0.16520684108691813,0.03634836884610443,-0.1656206188865866,3.348,-43.136,-5.664,-14.176,2.496,-0.628,-0.104
194,-0.1919892578125,-0.0900751953125,-0.2082470703125,0.1654970703125,-0.080140625,0.1815625,-0.2073427734375,-0.2609900749304481,-0.2899933102732691,-0.17955128247206426,0.20857449720792304,0.1706086564769209,0.03163303709133187,-0.15808674055085659,3.72,-43.676,-5.712,-13.628,2.2,-0.52,-0.084
195,-0.19373828125,-0.0938896484375,-0.2081025390625,0.166228515625,-0.0749755859375,0.1784765625,-0.2073427734375,-0.25686318514728335,-0.2916983052422825,-0.17241130097693141,0.20943618172094716,0.17592466692575098,0.026913486710052434,-0.15041423632658488,3.984,-43.244,-6.52,-13.584,1.964,-0.4,-0.088
196,-0.195494140625,-0.0979033203125,-0.2081025390625,0.1669501953125,-0.070650390625,0.175998046875,-0.2073427734375,-0.252617118028285,-0.2932213449142691,-0.1652424633048253,0.2102807947220752,0.18107565117342528,0.022260254948895126,-0.14272806225385157,3.984,-43.028,-6.288,-13.676,2.08,-0.572,-0.056
197,-0.1970380859375,-0.10201953125,-0.2079580078125,0.16810546875,-0.0663251953125,0.1733251953125,-0.2071357421875,-0.2481342793454517,-0.2946087325775002,-0.1578400709918936,0.21113317371043386,0.18621012232593215,0.017540305894388993,-0.1348137597649917,3.932,-43.46,-5.944,-14.408,2.34,-0.636,-0.032
198,-0.1984853515625,-0.106033203125,-0.207669921875,0.169125,-0.0619873046875,0.1706396484375,-0.2069296875,-0.24345645335575916,-0.29584546658420613,-0.150243886394569,0.2119895664549359,0.19130614146617395,0.012762826476672427,-0.12667675430263878,3.984,-43.568,-5.736,-15.024,2.504,-0.772,0.004
199,-0.1998232421875,-0.1098466796875,-0.207091796875,0.1698466796875,-0.05704296875,0.1677607421875,-0.206322265625,-0.23867830644395083,-0.29689837999280205,-0.14273204630094893,0.21281682407586838,0.1961486101471986,0.008153731953836969,-0.11875191303493951,4.2,-43.676,-5.456,-14.656,2.556,-0.772,0.056
200,-0.20116015625,-0.1137568359375,-0.2060810546875,0.170712890625,-0.0514775390625,0.1644677734375,-0.20549609375,-0.23362669128484595,-0.2978205223961965,-0.1348756837865492,0.21366665422218245,0.2010602845370793,0.0033793551956112964,-0.11042107032285847,4.624,-44.0,-5.872,-14.224,2.444,-0.592,0.096
201,-0.20240234375,-0.1175712890625,-0.2050712890625,0.1714345703125,-0.0459130859375,0.1613828125,-0.2044765625,-0.22843099939206113,-0.2985759373654187,-0.1269637470771469,0.21450626760125235,0.20583589548926626,-0.0013542491050528608,-0.10206958546135887,4.996,-43.62,-6.38,-13.948,2.276,-0.428,0.12
202,-0.203328125,-0.1214814453125,-0.2042041015625,0.172166015625,-0.0411748046875,0.15808984375,-0.2030302734375,-0.22269388814089194,-0.2992057037736397,-0.11840053771288364,0.21539885709274956,0.210835031728674,-0.006419126940952914,-0.093026612743098,5.26,-43.62,-6.104,-13.676,2.368,-0.492,0.156
203,-0.20425390625,-0.1256044921875,-0.2031943359375,0.1733203125,-0.0360234375,0.154578125,-0.201390625,-0.2176472758957529,-0.2995988787466747,-0.11100809874159027,0.216155338161831,0.2149840196222561,-0.010700869786169196,-0.08531994081744596,5.42,-43.836,-5.92,-14.336,2.544,-0.408,0.18
204,-0.204974609375,-0.129515625,-0.2020390625,0.17404296875,-0.03128515625,0.1514931640625,-0.199337890625,-0.21194249281378894,-0.2998782865345411,-0.10275524965784665,0.21698851958484972,0.21948795188700734,-0.015455515594313846,-0.07667054856398994,5.528,-43.944,-5.756,-14.816,2.636,-0.644,0.18
205,-0.205591796875,-0.1332197265625,-0.2007392578125,0.1746201171875,-0.025513671875,0.1473740234375,-0.197078125,-0.20609858439258846,-0.29999579852289976,-0.09442940196589537,0.21781656033147317,0.22387799296586297,-0.02019347465589741,-0.06797846581633077,5.688,-44.376,-5.204,-14.064,2.532,-0.648,0.16
206,-0.20611328125,-0.13713671875,-0.1988623046875,0.1753505859375,-0.0197431640625,0.1428427734375,-0.194625,-0.20013426588825253,-0.29995317264298876,-0.08610992626952552,0.21863211405848523,0.22811436792813822,-0.024872335863760753,-0.059329432549762515,6.06,-44.54,-5.756,-13.652,2.348,-0.284,0.12
207,-0.206421875,-0.1410478515625,-0.1971298828125,0.17608203125,-0.0139716796875,0.13913671875,-0.191953125,-0.19398530651342222,-0.299749817380987,-0.07763565744721167,0.21945245263651442,0.232288568412264,-0.029595384250234107,-0.050438543894618305,6.484,-43.784,-5.756,-13.124,2.216,-0.408,0.076
208,-0.2065244140625,-0.1450673828125,-0.1953974609375,0.1769482421875,-0.00861328125,0.1350185546875,-0.1888681640625,-0.1876828593774795,-0.2993842624209206,-0.06906963716716732,0.2202718101959307,0.2363689834645488,-0.03433529083209167,-0.04163826917975596,6.592,-43.512,-5.064,-13.356,2.464,-0.488,0.056
209,-0.2065244140625,-0.14918359375,-0.193232421875,0.1781123046875,-0.00284375,0.1313125,-0.1855888671875,-0.18132738046860278,-0.2988660790099204,-0.06056493317638067,0.22107660362929207,0.24028026547604428,-0.03898665444675888,-0.03286523884820986,6.432,-43.512,-4.972,-14.36,2.764,-0.552,0.084
210,-0.2063193359375,-0.153203125,-0.1912197265625,0.178978515625,0.003134765625,0.127607421875,-0.1823095703125,-0.17479676774096886,-0.29818800674647183,-0.051997024461107634,0.22187747006523914,0.24407623198734196,-0.043624719221024615,-0.024074243067342693,6.272,-43.728,-4.416,-14.176,2.74,-0.916,0.044
211,-0.206009765625,-0.1571142578125,-0.188765625,0.1798447265625,0.009318359375,0.1224560546875,-0.1790166015625,-0.16806494144695255,-0.29733744183565225,-0.043215950559637464,0.22269240390865722,0.24790238879773424,-0.048445032509645186,-0.014877137761176454,5.74,-43.892,-4.16,-13.652,2.584,-0.5,0.088
212,-0.205701171875,-0.16103125,-0.1860224609375,0.18056640625,0.0163291015625,0.118130859375,-0.17553125,-0.16131573420581055,-0.29634677451576014,-0.03459375246463485,0.22348463366457091,0.25141052556794463,-0.052986334080508075,-0.0061879175597089045,5.528,-44.0,-4.532,-13.124,2.276,-0.416,0.096
213,-0.2050771484375,-0.1650439453125,-0.183134765625,0.18144140625,0.022306640625,0.113599609375,-0.1718388671875,-0.15444400559256902,-0.2951994921669467,-0.02593707540908259,0.22427335803190393,0.2548553160063191,-0.05757675202238238,0.002613491992813683,5.58,-43.296,-4.856,-12.828,2.244,-0.576,0.096
214,-0.204357421875,-0.1692705078125,-0.179958984375,0.1825966796875,0.0282724609375,0.1082412109375,-0.167939453125,-0.14743118366594202,-0.2938891569712268,-0.017200144647448033,0.2250642910664358,0.25820952518849477,-0.06219526160610179,3.809915027128812e-05,5.476,-42.812,-4.348,-13.4,2.524,-0.348,0.188
215,-0.2035341796875,-0.1734892578125,-0.176060546875,0.183751953125,0.0352822265625,0.103916015625,-0.163833984375,-0.14025159022147646,-0.2924081744370134,-0.008366219387630765,0.22585929306322217,0.2614747377639429,-0.06684338939537054,0.007260783079232564,5.688,-42.812,-4.368,-13.836,2.74,-0.644,0.26
216,-0.2025048828125,-0.1775087890625,-0.172017578125,0.184771484375,0.04229296875,0.0985576171875,-0.1591083984375,-0.13305223466831764,-0.2907913713543968,0.00035853693331075747,0.22664016132613235,0.2645749973826646,-0.0714133900056137,0.01441891842425269,6.38,-42.92,-4.252,-14.04,2.72,-0.948,0.276
217,-0.2013662109375,-0.18131640625,-0.1679755859375,0.1856376953125,0.049498046875,0.0923740234375,-0.153982421875,-0.1257206656386537,-0.2890116185198223,4.414923772107276e-05,0.22742610785446665,0.2675858171485453,-0.07601650092328756,0.021648429033445136,6.912,-43.136,-4.3,-13.192,2.536,-0.544,0.312
218,-0.2000283203125,-0.185439453125,-0.163076171875,0.18650390625,0.0573349609375,0.087634765625,-0.1482373046875,-0.11829845061543962,-0.28707929243714264,0.008336768732787238,0.22819895192638906,0.2704354935369341,-0.080545184505268,0.02877922686560813,7.068,-43.192,-4.948,-12.508,2.256,-0.628,0.168
219,-0.198587890625,-0.1895556640625,-0.1578779296875,0.18766796875,0.0645390625,0.081876953125,-0.1418720703125,-0.11080225092313338,-0.28499857301557974,0.016652205958161095,0.2289710532389893,0.273170528387406,-0.08507089606240939,0.0359195476827651,7.708,-42.004,-4.88,-12.804,2.216,-0.696,0.084
220,-0.1969345703125,-0.19378125,-0.152392578125,0.1888232421875,0.0713427734375,0.0763125,-0.1357138671875,-0.10319923392574193,-0.2827557645143708,0.024993868639115815,0.22974316579194765,0.2757912198119879,-0.08959680382957295,0.04307273968333926,8.132,-41.516,-4.508,-13.032,2.556,-0.472,0.16
221,-0.1950830078125,-0.19809765625,-0.145904296875,0.190419921875,0.079373046875,0.0713671875,-0.1293486328125,-0.09553312300024436,-0.2803688569168261,0.03329358269837398,0.23050948260309193,0.2782753601770078,-0.094087824832158,0.05018121504815382,8.664,-41.624,-5.064,-13.516,2.752,-0.792,0.156
222,-0.193017578125,-0.2021171875,-0.1395517578125,0.1917197265625,0.0876103515625,0.0643564453125,-0.123203125,-0.08780490517597749,-0.2778340778887745,0.04156205663157584,0.23127174583639118,0.2806291809886325,-0.09855387952281001,0.05725778634479832,9.356,-40.868,-4.972,-14.016,2.672,-0.72,0.096
223,-0.19075390625,-0.205513671875,-0.1336328125,0.192296875,0.0962607421875,0.0567392578125,-0.1166181640625,-0.08003892460447888,-0.27516521508197866,0.04975884409308065,0.23202664464085718,0.2828415045517216,-0.10297286245542957,0.06426573715757172,9.516,-40.816,-4.252,-12.6,2.356,-0.224,0.208
224,-0.18827734375,-0.20912109375,-0.12685546875,0.19331640625,0.10532421875,0.0501416015625,-0.1096337890625,-0.07218016203087713,-0.2723347609313846,0.057965019836927124,0.23278219958303434,0.28493478833424773,-0.107392821218717,0.07127896223814105,9.62,-40.168,-4.14,-11.548,1.944,-0.312,0.192
225,-0.1854931640625,-0.2126201171875,-0.1205126953125,0.1941826171875,0.1129423828125,0.04314453125,-0.102029296875,-0.06422475453527773,-0.2693364576732236,0.06618903285465966,0.23354007012358713,0.2869109313200182,-0.11182159464476012,0.07830763219804256,10.524,-38.708,-4.14,-11.572,1.716,-0.18,0.076
226,-0.1824052734375,-0.2159130859375,-0.1144482421875,0.195193359375,0.12097265625,0.0367529296875,-0.0946435546875,-0.0562904049541451,-0.2662184968153167,0.07429557201494534,0.23428796704407284,0.28873577536497547,-0.1161839683391329,0.08522810768403773,10.524,-37.252,-3.052,-10.908,2.06,-0.16,0.084
227,-0.1791064453125,-0.219212890625,-0.10752734375,0.1965107421875,0.1298291015625,0.0305693359375,-0.0878662109375,-0.048272586102129506,-0.2629646385897379,0.08232406174485996,0.23502970669902568,0.2904204154365873,-0.12050073081908327,0.09206953601282025,10.472,-35.632,-3.608,-11.776,2.096,-0.46,0.088
228,-0.175498046875,-0.22178515625,-0.1016083984375,0.1969443359375,0.137046875,0.0233515625,-0.08170703125,-0.04027295079476307,-0.2595759969639862,0.09028359069298643,0.2357677449640467,0.2919711665340844,-0.124791424207754,0.09886806115034617,9.94,-35.576,-4.092,-11.228,1.78,-0.22,0.16
229,-0.17168359375,-0.22415234375,-0.0955625,0.197666015625,0.1452841796875,0.0161474609375,-0.0755615234375,-0.03222555495493159,-0.2560490609352556,0.09817702511898377,0.2365024382707852,0.2933875720543258,-0.12905400703438571,0.10561474822253777,9.144,-35.792,-3.376,-10.22,1.744,0.032,0.264
230,-0.1676640625,-0.226525390625,-0.0890751953125,0.1986767578125,0.153107421875,0.0095498046875,-0.0694033203125,-0.024118137758145638,-0.2523624625662651,0.10604490929728429,0.23723809374940386,0.29467577458702604,-0.13331146502425872,0.11234253412620077,8.4,-34.552,-4.716,-10.884,1.432,-0.156,0.368
231,-0.1634384765625,-0.2283779296875,-0.0828759765625,0.1988212890625,0.1588662109375,0.003365234375,-0.063244140625,-0.01601828722362429,-0.2485596172618103,0.11379330964560422,0.23796631824604422,0.2958202855449734,-0.1375152276860681,0.11897198857088642,7.6,-34.228,-4.252,-9.58,1.788,-0.332,0.296
232,-0.1588974609375,-0.2301279296875,-0.0765234375,0.1999853515625,0.1666904296875,-0.002611328125,-0.0566728515625,-0.007856945186991524,-0.24458679594936478,0.12153403285170461,0.2386990292590544,0.29683886210013344,-0.1417399189495088,0.1256268721306485,6.804,-33.904,-4.16,-10.108,1.572,-0.156,0.156
233,-0.154259765625,-0.2313623046875,-0.0707568359375,0.2002734375,0.1732880859375,-0.0079697265625,-0.050720703125,0.00019632899595402716,-0.24056250996262368,0.12901810512407783,0.2394113152902854,0.2976962134920394,-0.14581910749088767,0.1320225630224722,6.592,-33.848,-4.6,-9.764,1.288,-0.208,0.108
234,-0.1492177734375,-0.2323916015625,-0.0651357421875,0.20070703125,0.17883984375,-0.013947265625,-0.0451826171875,3.1871613157555586e-05,-0.23631204583617482,0.13658768113521524,0.24013802160759073,0.29843609344794797,-0.14997400530355917,0.13852494956134173,7.812,-34.388,-3.352,-8.504,1.632,0.052,0.232
235,-0.144162109375,-0.2335234375,-0.0589365234375,0.201861328125,0.1848173828125,-0.0188916015625,-0.0400439453125,0.005232032739477657,-0.2319846572725964,0.1439705929957626,0.2408537787596583,0.29902851086595,-0.15405653117505622,0.14489455656807448,7.708,-33.796,-3.284,-9.536,1.144,0.212,0.2
236,-0.139009765625,-0.233935546875,-0.053458984375,0.202294921875,0.1887294921875,-0.0238369140625,-0.0353310546875,0.010459363426987516,-0.22753857794522117,0.15121906197964172,0.24156243904662522,0.299478518736556,-0.1580714101529577,0.15112834480293533,5.688,-33.632,-3.12,-9.236,1.432,-0.056,0.172
237,-0.133755859375,-0.23425,-0.047404296875,0.203314453125,0.1934541015625,-0.0291953125,-0.0303994140625,0.015666234711633656,-0.22297590115692298,0.15835172936610808,0.24226785792984806,0.299790051589697,-0.1620553317423842,0.1572913717796365,2.816,-33.904,-3.076,-9.056,1.796,0.036,0.312
238,-0.1283916015625,-0.23425,-0.041494140625,0.2041806640625,0.198193359375,-0.0339462890625,-0.0252734375,0.02087520857523439,-0.21828964650091426,0.1653698690647153,0.24297028229546755,0.2999624135609821,-0.16600482988792947,0.16337252145572437,1.06,-34.172,-4.6,-9.628,1.152,0.056,0.22
239,-0.123033203125,-0.233935546875,-0.0360078125,0.2047578125,0.200671875,-0.0384775390625,-0.020341796875,0.026046114382225632,-0.21352526410488765,0.172207250779259,0.24366335581232818,0.2999953233717606,-0.16988222176617365,0.16931167294779234,0.744,-35.308,-4.068,-8.596,1.436,0.056,0.188
240,-0.1174638671875,-0.23383203125,-0.0302421875,0.2065,0.204583984375,-0.0423896484375,-0.0143896484375,0.03127981270220906,-0.20856317087583504,0.17903025000904058,0.24436467629840347,0.2998875936857059,-0.17378560383131417,0.1752583697664398,1.38,-35.308,-4.116,-9.876,1.5,0.088,0.104
241,-0.1120029296875,-0.2333173828125,-0.0246201171875,0.2076552734375,0.2068427734375,-0.0452822265625,-0.009263671875,0.036438655638445956,-0.20357138153856397,0.18560284484342757,0.24505056409936538,0.29964281945937415,-0.17758054855412628,0.18100405724039986,1.912,-35.144,-4.74,-10.68,1.676,-0.384,0.036
242,-0.106638671875,-0.23259765625,-0.0184306640625,0.208818359375,0.20849609375,-0.0491943359375,-0.00433203125,0.04166216376732813,-0.19837844228443435,0.1921520939989403,0.24574520638382533,0.29925200321907325,-0.18140250830796303,0.18675210265330694,-0.264,-35.684,-4.044,-10.38,2.34,-0.324,0.16
243,-0.1013837890625,-0.231568359375,-0.0119423828125,0.2101181640625,0.2119951171875,-0.0524990234375,0.0007939453125,0.04680051613324927,-0.19316831841074358,0.198443141394088,0.246424234394781,0.298728937414847,-0.18511433660146373,0.19229536684671444,-3.136,-36.388,-5.548,-11.068,1.736,-0.188,0.136
244,-0.096123046875,-0.2301279296875,-0.0064658203125,0.2106953125,0.213427734375,-0.055791015625,0.00551953125,0.051944330237729604,-0.1878317475682481,0.20461035586906176,0.24710250487591584,0.2980648348135012,-0.18879826874594427,0.19775517370910814,-4.04,-37.952,-5.064,-10.312,1.712,-0.252,0.188
245,-0.0909716796875,-0.228892578125,-0.0005556640625,0.21229296875,0.2148740234375,-0.059302734375,0.0104384765625,0.057079781700319854,-0.182376968497866,0.21064007700572487,0.24777924680010427,0.2972587055014744,-0.192453346673518,0.20313032386209692,-3.24,-38.656,-3.72,-10.792,2.132,0.036,0.24
246,-0.0858125,-0.2274521484375,0.0054990234375,0.213736328125,0.2161005859375,-0.0615625,0.0155771484375,0.062184051302580014,-0.17685281171051734,0.21648221928027508,0.24844949016178564,0.29631799407669235,-0.19604083704446096,0.20835544016185786,-2.124,-38.224,-4.184,-12.464,1.952,-0.368,0.232
247,-0.080763671875,-0.2257021484375,0.0112646484375,0.214755859375,0.216306640625,-0.06528125,0.0209091796875,0.0672888700942404,-0.17121011054474242,0.22217418987353402,0.249117062923697,0.29523787379141553,-0.1995840017177144,0.21346422505851742,-1.648,-38.924,-3.444,-12.392,2.484,-0.492,0.272
248,-0.07582421875,-0.2239462890625,0.0175986328125,0.216353515625,0.218166015625,-0.0687802734375,0.026654296875,0.07237434141599539,-0.16546743973660183,0.22770557459710222,0.24978242132530198,0.29401627429426874,-0.20309099394585686,0.2184728215549408,-3.188,-39.412,-4.0,-13.216,2.328,-0.244,0.096
249,-0.071078125,-0.22178515625,0.023509765625,0.2169306640625,0.2189921875,-0.071671875,0.0328125,0.07741857918149461,-0.15967021504485435,0.23302979214476452,0.2504399089257412,0.2926651889716175,-0.20652708474151515,0.2233256603497147,-4.356,-40.168,-5.412,-12.896,1.972,-0.492,0.096
250,-0.0664404296875,-0.2197275390625,0.029275390625,0.2179501953125,0.2196123046875,-0.075583984375,0.0383515625,0.08246066224188363,-0.15375712054052285,0.23820592210724917,0.2510980348239792,0.2911668366831913,-0.2099403194577932,0.22809108304167847,-4.144,-41.192,-4.9,-12.212,2.388,-0.436,0.18
251,-0.061802734375,-0.2177724609375,0.03575390625,0.2195390625,0.2208388671875,-0.0784755859375,0.043890625,0.08746361941840992,-0.14778542082990243,0.2431706025654088,0.2517476720733943,0.2895454967053154,-0.21326930160060537,0.23267706318435377,-3.08,-41.192,-5.296,-13.604,2.08,-0.46,0.104
252,-0.0572626953125,-0.2152958984375,0.0415205078125,0.2204052734375,0.2208388671875,-0.0811484375,0.049029296875,0.0924773207640051,-0.14167486843114427,0.24799902305585012,0.25240074948896185,0.28776789443914025,-0.21658813980419067,0.23718955208507492,-2.176,-41.68,-5.248,-13.764,2.324,-0.924,0.128
253,-0.0527275390625,-0.2130322265625,0.0477099609375,0.221712890625,0.222078125,-0.0850732421875,0.054361328125,0.0973975243720414,-0.1355841265621768,0.25256191225204205,0.2530397047214776,0.2858847836006566,-0.21980205971456054,0.2414958597856693,-1.648,-42.436,-5.108,-14.132,2.604,-0.732,0.2
254,-0.0483994140625,-0.2105625,0.0540537109375,0.2227236328125,0.2237177734375,-0.0881591796875,0.059693359375,0.10263613949911653,-0.12896438401216181,0.25724983646882427,0.2537220677197288,0.28371301261561777,-0.2232081790213931,0.24598986059991101,-1.964,-42.868,-5.736,-14.656,2.112,-0.688,0.22
255,-0.044173828125,-0.2079833984375,0.0599462890625,0.2233017578125,0.224130859375,-0.0916708984375,0.06546484375,0.10723796504233472,-0.12306011994429322,0.2611941551188828,0.2543190889144116,0.2816783174277045,-0.22613425643208698,0.249779684988073,-2.444,-43.892,-4.576,-13.676,2.44,-0.74,0.156
256,-0.03994140625,-0.2056162109375,0.0660009765625,0.224609375,0.2261962890625,-0.0953759765625,0.071623046875,0.11205903487521875,-0.11677978203086721,0.26515644833322694,0.254944418703512,0.27940774842439353,-0.2291760926015119,0.25365472055768584,-1.964,-43.568,-4.368,-14.316,2.252,-0.5,0.056
257,-0.0357158203125,-0.202837890625,0.0717578125,0.22533203125,0.2274228515625,-0.098474609375,0.0775751953125,0.11694874846002584,-0.11027128325847971,0.2690168037984084,0.25558319602407176,0.2769383377487876,-0.23224964043821641,0.2574980089183537,-1.06,-43.784,-4.576,-14.612,2.14,-0.68,0.044
258,-0.0315927734375,-0.2002587890625,0.0778037109375,0.226486328125,0.2286630859375,-0.1027998046875,0.0831142578125,0.12173610199439756,-0.10380996483460639,0.2726017087290344,0.2562060677965767,0.27438692939586007,-0.23520255846052862,0.26110916655834365,0.052,-43.836,-4.508,-14.316,2.492,-0.524,0.156
259,-0.0273671875,-0.197685546875,0.0837138671875,0.227650390625,0.230921875,-0.107138671875,0.0884462890625,0.12655255142503455,-0.0971973094682201,0.2760265277246339,0.25683533828563493,0.27165849005813597,-0.23815210080432478,0.26463916431400386,0.744,-42.976,-5.108,-15.3,2.192,-0.344,0.172
260,-0.023134765625,-0.194701171875,0.089181640625,0.228228515625,0.231955078125,-0.1114638671875,0.0933779296875,0.13116148799972024,-0.0907938221567618,0.27910546474848213,0.2574337736187579,0.2689290708523295,-0.2409087817852492,0.26785386892023666,1.328,-42.436,-4.276,-14.336,2.284,-0.512,0.188
261,-0.019115234375,-0.1918203125,0.0949482421875,0.2290947265625,0.2342275390625,-0.1164345703125,0.09850390625,0.13586057268404245,-0.08413747729722328,0.2820718482925723,0.25804883673862467,0.26597681406264356,-0.24370878303618354,0.271038912212163,1.752,-41.572,-4.692,-14.248,2.276,-0.304,0.264
262,-0.0148896484375,-0.1886298828125,0.100705078125,0.22952734375,0.236486328125,-0.120759765625,0.103642578125,0.14052172083744244,-0.07743235593677927,0.28481769367781834,0.25865944050381084,0.2629024031610576,-0.2464433439406695,0.2740591252949546,1.752,-40.868,-5.088,-13.904,1.92,-0.468,0.316
263,-0.010560546875,-0.185439453125,0.10689453125,0.22981640625,0.237919921875,-0.1261171875,0.108767578125,0.14510505013725508,-0.07073732515319887,0.28732478696665054,0.25926265775545787,0.2597180545033642,-0.24910819074155605,0.27691462833861685,2.02,-41.732,-5.064,-12.668,2.152,-0.42,0.264
264,-0.0062255859375,-0.1822431640625,0.1130849609375,0.23069140625,0.24060546875,-0.1308681640625,0.1147197265625,0.14962656479371217,-0.06404201479558302,0.28959563344665445,0.25985669472899886,0.2564460643614335,-0.25168143663134773,0.27957647757996174,3.08,-42.544,-5.504,-13.332,1.728,-0.088,0.056
265,-0.001794921875,-0.179052734375,0.1185625,0.231125,0.2420380859375,-0.1347802734375,0.12046484375,0.15417089027613948,-0.05718336884464825,0.29168454993590043,0.2604588230144265,0.25298256527191737,-0.254249011035638,0.2821361197190127,3.772,-43.244,-4.508,-13.24,1.66,-0.46,0.088
266,0.002533203125,-0.1758623046875,0.1240302734375,0.2319912109375,0.243484375,-0.13973828125,0.125810546875,0.15860508779114088,-0.050420441960005835,0.29351044688262956,0.2610458974862686,0.2494647338244379,-0.25670666900539796,0.2844871103343855,4.516,-42.004,-3.628,-13.24,2.2,-0.344,0.18
267,0.0071767578125,-0.1722548828125,0.1294990234375,0.232568359375,0.245537109375,-0.143650390625,0.131349609375,0.16301020396590563,-0.04358794096607325,0.2951214473185857,0.26163208991694814,0.24581204032794657,-0.25911426706869445,0.28668720410404763,5.368,-39.304,-3.608,-13.284,2.016,-0.42,0.156
268,0.0119169921875,-0.1682412109375,0.135111328125,0.232423828125,0.2469833984375,-0.1486083984375,0.13607421875,0.16738201666995314,-0.036703275041977526,0.2965106672953151,0.2622173367284899,0.2420219470363914,-0.2614729520983933,0.28873611833874663,4.888,-37.792,-3.028,-11.5,1.78,-0.472,0.16
269,0.0165546875,-0.1641181640625,0.141021484375,0.232857421875,0.2492431640625,-0.1549990234375,0.1412001953125,0.17166125989982042,-0.0298762599900246,0.29765752948090873,0.2627920513468191,0.23816398176269737,-0.26373830615501126,0.2905943723884437,4.04,-37.684,-3.744,-10.792,1.488,0.272,0.172
270,0.022021484375,-0.160001953125,0.146201171875,0.2331552734375,0.25130859375,-0.1597373046875,0.146751953125,0.17593235361041779,-0.022958887040894566,0.2985844748812518,0.2633672750645724,0.2341624522104284,-0.2659583691936542,0.29230097583007264,3.508,-39.572,-4.764,-10.268,1.092,0.056,0.212
271,0.026349609375,-0.1561875,0.1515244140625,0.234021484375,0.2508955078125,-0.1640751953125,0.1512578125,0.18012836713616523,-0.016067274369362766,0.2992770206187405,0.26393609963587306,0.2300679100012419,-0.2681036658542369,0.29383332859809397,3.136,-41.624,-4.996,-10.7,1.488,-0.128,0.16
272,0.03119921875,-0.1523798828125,0.156126953125,0.235185546875,0.250482421875,-0.1677939453125,0.1566025390625,0.18429483964392626,-0.00911107019856765,0.29974213003150646,0.26450543357460427,0.22583078224901965,-0.27020039886710184,0.29520853070638026,2.552,-41.408,-4.784,-12.532,1.892,-0.26,0.064
273,0.0362490234375,-0.1480517578125,0.1603046875,0.2360517578125,0.250482421875,-0.1706728515625,0.161728515625,0.18835702157868695,-0.0022601808652028413,0.2999708557784243,0.2650614482273594,0.22155788210298907,-0.2721972993380703,0.29639344375650084,1.432,-40.492,-4.324,-12.692,2.128,-1.008,0.024
274,0.041201171875,-0.143626953125,0.1651953125,0.2367822265625,0.2500693359375,-0.175630859375,0.1662470703125,0.19248466395310318,0.00484052323122262,0.29996798232759486,0.26563423719867596,0.2170128567927096,-0.27420256534639353,0.2974484495539311,0.636,-40.112,-4.996,-12.324,2.268,-0.564,0.104
275,0.046140625,-0.1389892578125,0.1699501953125,0.2372158203125,0.2506884765625,-0.1789228515625,0.1705595703125,0.19636592229874325,3.482426384218219e-05,0.29973767374323285,0.2661756177875096,0.21258778215367732,-0.2760433355358049,0.2982829836808294,-0.744,-41.572,-6.128,-11.48,1.796,-0.276,0.128
276,0.050990234375,-0.1346669921875,0.174408203125,0.23808203125,0.250275390625,-0.182228515625,0.174251953125,0.20029850914822436,0.006346738523388346,0.2992740475867989,0.2667238964674577,0.20797162732367688,-0.2778561001251392,0.29896602146474116,-1.804,-44.324,-6.268,-11.204,1.468,-0.336,0.156
277,0.0558330078125,-0.1305439453125,0.17815234375,0.2395341796875,0.248623046875,-0.1851201171875,0.177544921875,0.20415316667506309,0.012669700000308419,0.2985786174328262,0.2672682407667265,0.2032633215162303,-0.279595941270518,0.29947532111512437,-1.7,-45.348,-5.872,-12.692,1.86,-0.052,0.16
278,0.060580078125,-0.1262216796875,0.18146484375,0.240544921875,0.2469833984375,-0.1859462890625,0.18082421875,0.20800517555666118,0.019108140103458595,0.29763100862173725,0.2678201886688658,0.1983459995562874,-0.2813089818581408,0.2998203581346844,-1.86,-44.484,-4.392,-13.584,2.356,-0.78,0.22
279,0.0654228515625,-0.121791015625,0.1847666015625,0.2417001953125,0.2453310546875,-0.1892392578125,0.183703125,0.211675647912302,0.02527127668774218,0.29649985477809665,0.2683434475745582,0.19356387491289503,-0.28287291326258346,0.2999810160323209,-2.124,-43.784,-4.116,-13.856,2.584,-0.876,0.252
280,0.0702724609375,-0.117056640625,0.188078125,0.2421328125,0.2447236328125,-0.1925439453125,0.1865693359375,0.21534519481619677,0.03157660838456285,0.2951117898261393,0.2688768198552758,0.18855531134323247,-0.28441432259691934,0.29997531655492893,-2.816,-44.108,-4.484,-13.536,2.296,-0.192,0.284
281,0.07491015625,-0.11231640625,0.191390625,0.2425751953125,0.2438974609375,-0.1946103515625,0.1892421875,0.21894655280508699,0.03785021805247205,0.2934998594946474,0.2694042270261899,0.18347689828006808,-0.28587921179325204,0.2997968028058091,-3.24,-45.78,-5.108,-12.44,1.764,-0.344,0.296
282,0.0792451171875,-0.108193359375,0.1942685546875,0.24373046875,0.241431640625,-0.1979150390625,0.1917080078125,0.22252012900260562,0.04418697532036701,0.2916358312876163,0.26993439087471793,0.17824113348424164,-0.28729182095126543,0.2994403057741638,-3.348,-47.024,-6.08,-13.08,1.852,-0.14,0.272
283,0.0836767578125,-0.1040771484375,0.1968583984375,0.2448857421875,0.23874609375,-0.1989345703125,0.1941611328125,0.2259397774765866,0.050328728103988495,0.28960584660097594,0.2704440382110087,0.1730909352512836,-0.28859004145610695,0.2989264925175974,-3.348,-46.968,-5.156,-14.156,2.36,-0.272,0.24
284,0.08790234375,-0.0998583984375,0.1997373046875,0.2457607421875,0.2362802734375,-0.1999677734375,0.1968330078125,0.2293679493329364,0.05661570646539297,0.28729043272683513,0.2709651555329685,0.1676917751280933,-0.2898594179745899,0.2982213191437603,-3.028,-45.62,-4.576,-14.816,2.584,-1.072,0.116
285,0.0922373046875,-0.09543359375,0.2021826171875,0.246337890625,0.2344208984375,-0.20306640625,0.199712890625,0.2327211783389962,0.06286344303135902,0.2847557154451291,0.27148002891254225,0.16223594694643698,-0.291049715249769,0.2973448677771267,-3.348,-45.512,-4.484,-14.796,2.62,-0.656,0.116
286,0.0965654296875,-0.091001953125,0.204916015625,0.246482421875,0.2331943359375,-0.20492578125,0.2021787109375,0.23595297108998262,0.06896967582573638,0.28204819066163184,0.2719816052414641,0.15679828884229333,-0.29214863416615355,0.2963131560078825,-4.412,-46.052,-5.156,-13.676,2.236,-0.364,0.116
287,0.100482421875,-0.0868857421875,0.207505859375,0.247060546875,0.2313349609375,-0.20678515625,0.204837890625,0.23915390898746353,0.07513024808464953,0.279088818186352,0.27248483560038356,0.1512293160617918,-0.2931860078791957,0.2951022921490108,-4.732,-46.968,-6.404,-12.872,1.852,-0.524,0.104
288,0.10440625,-0.082974609375,0.2093740234375,0.2477822265625,0.22825,-0.2088505859375,0.20709765625,0.24226715631484808,0.08123339888640183,0.27591881365783893,0.2729833921981668,0.14558512070235796,-0.29415292503794405,0.29371595911232456,-4.572,-46.86,-5.78,-13.492,2.096,-0.244,0.12
289,0.1080146484375,-0.0791611328125,0.2112421875,0.2488017578125,0.2255771484375,-0.209263671875,0.2095634765625,0.24529740107661765,0.08726067113316477,0.27256638982833714,0.2734722398046347,0.1399460666756195,-0.2950339094965639,0.292186225053433,-4.412,-46.052,-4.648,-14.176,2.392,-0.732,0.096
290,0.1117255859375,-0.0751474609375,0.2131181640625,0.2495234375,0.223111328125,-0.2109033203125,0.2118232421875,0.24827045002432535,0.09330558525875524,0.2689672091872469,0.2739626681858933,0.13416600407311077,-0.2958548870304558,0.29046420580519483,-4.356,-44.808,-5.132,-15.092,2.584,-1.048,0.076
291,0.1154365234375,-0.070818359375,0.2144091796875,0.24966796875,0.221044921875,-0.2133828125,0.2138759765625,0.2511606484781282,0.09928380593574458,0.2651746562011058,0.274446759253441,0.12834771048719693,-0.29659936832752165,0.2885818910772117,-4.944,-45.132,-4.74,-14.132,2.524,-0.616,0.136
292,0.1189423828125,-0.0667021484375,0.2161328125,0.2498125,0.2198056640625,-0.214828125,0.2159287109375,0.2540029613807073,0.10529740963537104,0.2611201421249645,0.27493348500912484,0.1223773446802001,-0.29728068459413964,0.2864989610891193,-5.104,-45.728,-5.224,-13.264,2.14,-0.592,0.156
293,0.1222412109375,-0.062888671875,0.217576171875,0.2503896484375,0.2177529296875,-0.2166875,0.2179814453125,0.25672270208423037,0.11113614220724756,0.25695949732064977,0.27540397439308734,0.11650883033338727,-0.29787048615620076,0.2843128359963325,-4.412,-45.888,-6.06,-13.284,1.92,-0.46,0.136
294,0.1254384765625,-0.0590810546875,0.2184423828125,0.250966796875,0.215080078125,-0.2181337890625,0.21962109375,0.2594087968545939,0.11706404857253738,0.2524834015643096,0.27588447611505273,0.11038384537341597,-0.29840549469758054,0.281875923422546,-4.144,-45.836,-5.248,-13.468,2.264,-0.46,0.18
295,0.1284287109375,-0.05547265625,0.219587890625,0.2518427734375,0.2128076171875,-0.219166015625,0.2212607421875,0.261956422491782,0.12274472782510432,0.24798802879582915,0.27633960338208413,0.10450870093082357,-0.2988422315501455,0.27941443298115815,-3.72,-45.348,-5.316,-14.2,2.48,-0.936,0.148
296,0.1315224609375,-0.051458984375,0.220455078125,0.252275390625,0.210548828125,-0.221232421875,0.22270703125,0.26448186694285275,0.12854032462602777,0.24315182168220562,0.2768070595466557,0.09835033663776212,-0.29922293378082326,0.2766843602084893,-3.772,-44.592,-5.316,-14.384,2.524,-0.844,0.14
297,0.1346162109375,-0.047439453125,0.2211669921875,0.252419921875,0.208896484375,-0.22328515625,0.2241396484375,0.2669177360465761,0.1342529375247701,0.23814591756516856,0.27726789465135887,0.09217516482912107,-0.2995267143290485,0.273808029229449,-3.932,-45.08,-4.948,-13.492,2.428,-0.624,0.168
298,0.137298828125,-0.0436318359375,0.2220341796875,0.252708984375,0.2072568359375,-0.2253505859375,0.2255732421875,0.26926230044709787,0.1398967786754265,0.23295710154046528,0.2777245119399236,0.08594679143598942,-0.29975606792896636,0.2707566766259787,-3.668,-45.188,-5.78,-13.216,1.972,-0.524,0.172
299,0.1400830078125,-0.0398173828125,0.222322265625,0.2529970703125,0.20477734375,-0.2274169921875,0.2268125,0.2715027921293424,0.14538468715509079,0.22769350123999238,0.27816700863119487,0.07982639687982569,-0.29990714854416867,0.26764528271517835,-3.296,-45.24,-5.688,-12.804,1.952,-0.468,0.16
300,0.142662109375,-0.0361123046875,0.222611328125,0.2535751953125,0.202724609375,-0.2290693359375,0.2278330078125,0.27370510754136196,0.15094146700397112,0.2221162845419003,0.27861685216653453,0.07349992379796864,-0.2999878693734582,0.2642834229511844,-2.976,-44.756,-5.088,-12.852,2.12,-0.46,0.212
301,0.1453447265625,-0.0323046875,0.222755859375,0.25415234375,0.200671875,-0.2309287109375,0.228865234375,0.2757921540139738,0.15635050383688615,0.21644390754924317,0.27905633921344203,0.06721781423065083,-0.29999325481283395,0.260806712310232,-2.496,-44.216,-5.34,-13.536,2.036,-0.616,0.188
302,0.1479169921875,-0.028388671875,0.222755859375,0.2544501953125,0.198193359375,-0.2334072265625,0.2296787109375,0.2778380236424695,0.16180655789690082,0.21047883647501184,0.27950050388625186,0.060774588894293054,-0.2999225793139886,0.2571076502523657,-2.284,-43.836,-4.924,-13.376,2.192,-0.52,0.208
303,0.1503935546875,-0.0245810546875,0.222900390625,0.254748046875,0.196552734375,-0.2354599609375,0.2305048828125,0.2797163323017266,0.16694561380292885,0.2046308264179115,0.27991983165778506,0.05460654272739001,-0.2997837204101005,0.25344331457677977,-2.176,-43.944,-5.088,-13.192,2.076,-0.376,0.224
304,0.1527666015625,-0.0206640625,0.222900390625,0.255037109375,0.194900390625,-0.237525390625,0.231125,0.28156388433872587,0.17217308969954545,0.1984343054225357,0.28034897124058206,0.04819454767664758,-0.2995660842384338,0.249493996968661,-1.752,-43.676,-5.456,-12.872,1.82,-0.452,0.22
305,0.155140625,-0.0168564453125,0.222755859375,0.2553251953125,0.1926416015625,-0.2400048828125,0.2315380859375,0.2833366952559189,0.1773722616445409,0.1920211422737587,0.2807777546457046,0.04170404037049511,-0.2992710788332792,0.2453695125346329,-1.38,-43.892,-5.088,-12.464,1.892,-0.336,0.232
306,0.15741015625,-0.0130419921875,0.222755859375,0.2557587890625,0.19098828125,-0.2416572265625,0.2319384765625,0.2850001483484882,0.18238140190653826,0.18561436858303607,0.2811910635493508,0.03536351957231359,-0.2989106926807118,0.24121977814181278,-1.008,-43.62,-5.548,-12.736,1.788,-0.292,0.232
307,0.15977734375,-0.0091318359375,0.222177734375,0.25619140625,0.1885224609375,-0.242896484375,0.2323515625,0.2865880303252945,0.18735895620119744,0.17899653887894224,0.2816047097955845,0.02893206616758789,-0.2984727979871921,0.2368809519963989,-0.796,-43.836,-5.548,-12.6,1.756,-0.472,0.232
308,0.1620478515625,-0.0054267578125,0.2214560546875,0.2569140625,0.1860439453125,-0.2445498046875,0.2325576171875,0.2881009606251331,0.19231456316040088,0.1721456512755611,0.2820202249877852,0.022378571028856393,-0.2979512067701265,0.23231474334365548,-0.796,-43.512,-5.088,-12.896,1.976,-0.388,0.232
309,0.1642158203125,-0.001509765625,0.2207431640625,0.2573466796875,0.1837841796875,-0.2451689453125,0.2327646484375,0.28950114706847857,0.1970671816913562,0.16533697364305355,0.28241981184774606,0.016010361774504676,-0.29737396404191624,0.2277759031188623,-0.316,-43.404,-5.132,-13.24,1.996,-0.552,0.212
310,0.1664853515625,0.002400390625,0.219732421875,0.2576357421875,0.1815244140625,-0.246408203125,0.232970703125,0.29083167839704543,0.20181166246086896,0.15828192279863196,0.28282241614554443,0.009507388660294705,-0.29671096633174393,0.22300410145453373,-0.104,-43.244,-4.972,-12.76,1.936,-0.688,0.22
311,0.1709169921875,0.0103310546875,0.217576171875,0.2583662109375,0.17740625,-0.2482548828125,0.232970703125,-0.20201745556769182,-0.14225454360448056,0.27872936410201954,0.2092916834134955,-0.16883160833829972,-0.09941933789353485,-0.23988225895340248,0.212,-43.676,-5.432,-12.232,1.54,-0.42,0.208
312,0.1709169921875,0.0103310546875,0.217576171875,0.2583662109375,0.17740625,-0.2482548828125,0.232970703125,1.0964755580919474e-05,6.65811747732389e-06,8.07834806443557e-06,6.4045060561120694e-06,6.251628338586744e-06,5.660600314158741e-06,4.978824832106017e-06,0.212,-43.676,-5.432,-12.232,1.54,-0.42,0.208
313,0.1709169921875,0.0103310546875,0.217576171875,0.2583662109375,0.17740625,-0.2482548828125,0.232970703125,0.0017680987738990773,0.004713189017603322,0.0066107215813650646,0.00523799189082055,0.0051099074362280185,0.004623972391900057,0.004064256338756223,0.212,-43.676,-5.432,-12.232,1.54,-0.42,0.208
314,0.1709169921875,0.0103310546875,0.217576171875,0.2583662109375,0.17740625,-0.2482548828125,0.232970703125,0.0035382867613698694,0.009447886150691396,0.013250672958772717,0.01050061672935001,0.010243324226320405,0.009269699705654517,0.008149040911737425,0.212,-43.676,-5.432,-12.232,1.54,-0.42,0.208
315,0.1709169921875,0.0103310546875,0.217576171875,0.2583662109375,0.17740625,-0.2482548828125,0.232970703125,0.0053060324407278175,0.01417369072055482,0.01987891033612501,0.015757876156118997,0.015375943366962876,0.013917305162051632,0.012237191214586713,0.212,-43.676,-5.432,-12.232,1.54,-0.42,0.208
316,0.1709169921875,0.0103310546875,0.217576171875,0.2583662109375,0.17740625,-0.2482548828125,0.232970703125,0.007073045761870047,0.0188939454144496,0.02649457409751998,0.021009284929445596,0.020501974610986823,0.018560679196332024,0.016322676530534652,0.212,-43.676,-5.432,-12.232,1.54,-0.42,0.208
317,0.1709169921875,0.0103310546875,0.217576171875,0.2583662109375,0.17740625,-0.2482548828125,0.232970703125,0.008837916673704403,0.0236063584010246,0.033092080844579014,0.02624947820991206,0.02561784613740194,0.023195388584842908,0.020401426683203955,0.212,-43.676,-5.432,-12.232,1.54,-0.42,0.208
318,0.1709169921875,0.0103310546875,0.217576171875,0.2583662109375,0.17740625,-0.2482548828125,0.232970703125,0.010679144350146422,0.028520076063057207,0.0399677937786172,0.03171838497651289,0.030960941550573537,0.02803969793859781,0.024667772742426135,0.212,-43.676,-5.432,-12.232,1.54,-0.42,0.208
319,0.1709169921875,0.0103310546875,0.217576171875,0.2583662109375,0.17740625,-0.2482548828125,0.232970703125,0.012381258279153205,0.033057881084379806,0.04630503206004356,0.036762161019784884,0.035885368686174764,0.032504936438733506,0.02860065278746892,0.212,-43.676,-5.432,-12.232,1.54,-0.42,0.208
320,0.1709169921875,0.0103310546875,0.217576171875,0.2583662109375,0.17740625,-0.2482548828125,0.232970703125,0.014148183216985317,0.037751946035385266,0.05284883292489543,0.04197695742965211,0.04097766756925656,0.03712183589156509,0.03266735418020513,0.212,-43.676,-5.432,-12.232,1.54,-0.42,0.208
321,0.1709169921875,0.0103310546875,0.217576171875,0.2583662109375,0.17740625,-0.2482548828125,0.232970703125,0.01594801172096651,0.04253259852591982,0.05950077149460021,0.04728587062476243,0.04616370417944892,0.041827094216819495,0.03681373530101311,0.212,-43.676,-5.432,-12.232,1.54,-0.42,0.208
322,0.1709169921875,0.0103310546875,0.217576171875,0.2583662109375,0.17740625,-0.2482548828125,0.232970703125,0.0176792755805624,0.04711814892261986,0.06586465593708499,0.05237328129354009,0.051131529795746436,0.04633513972604809,0.04078867163453429,0.212,-43.676,-5.432,-12.232,1.54,-0.42,0.208
323,0.1709169921875,0.0103310546875,0.217576171875,0.2583662109375,0.17740625,-0.2482548828125,0.232970703125,0.019448034471738557,0.051798261904453614,0.07234636322417658,0.05756463255834176,0.05620356467734252,0.05094176600211692,0.04485353021771489,0.212,-43.676,-5.432,-12.232,1.54,-0.42,0.208
324,0.1709169921875,0.0103310546875,0.217576171875,0.2583662109375,0.17740625,-0.2482548828125,0.232970703125,0.02121051987313881,0.056449567300079564,0.07877116143592248,0.06272279714945034,0.061244963356654525,0.05552362204204083,0.048899484206873546,0.212,-43.676,-5.432,-12.232,1.54,-0.42,0.208
325,0.1709169921875,0.0103310546875,0.217576171875,0.2583662109375,0.17740625,-0.2482548828125,0.232970703125,0.02297172318693425,0.061077565720486345,0.08513900627895638,0.06784096964824947,0.06624279291886968,0.060064267167837325,0.052906820897910795,0.212,-43.676,-5.432,-12.232,1.54,-0.42,0.208
326,0.1709169921875,0.0103310546875,0.217576171875,0.2583662109375,0.17740625,-0.2482548828125,0.232970703125,0.0247411245726075,0.06572513324606345,0.09152242009225615,0.0729926189494834,0.07128173857471938,0.06465348642645416,0.05696606894981109,0.212,-43.676,-5.432,-12.232,1.54,-0.42,0.208
327,0.1709169921875,0.0103310546875,0.217576171875,0.2583662109375,0.17740625,-0.2482548828125,0.232970703125,0.02649537735886473,0.07031022321749462,0.09778693986163543,0.07805443768320135,0.07622642961441481,0.06915204887152122,0.060942644862287086,0.212,-43.676,-5.432,-12.232,1.54,-0.42,0.208
328,0.1709169921875,0.0103310546875,0.217576171875,0.2583662109375,0.17740625,-0.2482548828125,0.232970703125,0.028262782387173863,0.07491733874021325,0.10406383029920667,0.08314357170783121,0.08120348200495059,0.07368793780653089,0.06495935957990549,0.212,-43.676,-5.432,-12.232,1.54,-0.42,0.208
329,0.1709169921875,0.0103310546875,0.217576171875,0.2583662109375,0.17740625,-0.2482548828125,0.232970703125,0.030017113630938154,0.07947510894515691,0.11024677705791282,0.08817366973460464,0.0861230674084021,0.0781754298473826,0.06893671982944179,0.212,-43.676,-5.432,-12.232,1.54,-0.42,0.208
330,0.1709169921875,0.0103310546875,0.217576171875,0.2583662109375,0.17740625,-0.2482548828125,0.232970703125,0.031776866600444674,0.08403013429471907,0.11639998853300877,0.09319587749474141,0.09103669532781077,0.0826621577362124,0.07291638475134493,0.212,-43.676,-5.432,-12.232,1.54,-0.42,0.208
331,0.1709169921875,0.0103310546875,0.217576171875,0.2583662109375,0.17740625,-0.2482548828125,0.232970703125,0.03353413150755217,0.08856056768714564,0.1224898628322128,0.09818423779318185,0.09591869056882317,0.08712354800401596,0.07687821213143789,0.212,-43.676,-5.432,-12.232,1.54,-0.42,0.208
332,0.1709169921875,0.0103310546875,0.217576171875,0.2583662109375,0.17740625,-0.2482548828125,0.232970703125,0.035288975651904926,0.09306715873186172,0.12851817779160954,0.10314096147397653,0.10077105196413927,0.09156314754836534,0.08082489448135821,0.212,-43.676,-5.432,-12.232,1.54,-0.42,0.208
333,0.1709169921875,0.0103310546875,0.217576171875,0.2583662109375,0.17740625,-0.2482548828125,0.232970703125,0.03704544199381201,0.09755553847812733,0.13449052665775918,0.10807193062301312,0.10560018610243876,0.09598652671625545,0.08476170089055282,0.212,-43.676,-5.432,-12.232,1.54,-0.42,0.208
334,0.1709169921875,0.0103310546875,0.217576171875,0.2583662109375,0.17740625,-0.2482548828125,0.232970703125,0.038805679663165844,0.10203607872037326,0.14042097064987838,0.11299190872918616,0.11042256282952677,0.10041135735973473,0.08870648876411459,0.212,-43.676,-5.432,-12.232,1.54,-0.42,0.208
