EmanuelSamir/lab201_ws_projsamir/sawyer_dev/data/sawyer/temp/training_data_6.csv
,j1,j2,j3,j4,j5,j6,j7,jd1,jd2,jd3,jd4,jd5,jd6,jd7,e1,e2,e3,e4,e5,e6,e7
0,0.0,0.0,0.0,0.0,0.0,0.0,0.0,0.0,0.0,0.0,0.0,0.0,0.0,0.0,0.0,0.0,0.0,0.0,0.0,0.0,0.0
1,0.0,0.0,0.0,0.0,0.0,-0.0013720703125,0.0,0.0,0.0,0.0,0.0,0.0,0.5875511274835918,0.0,0.0,0.0,0.0,0.0,0.0,-0.68,0.0
2,0.0,0.0,0.0,0.0,0.0,-0.0013720703125,0.0,0.0,0.0,0.0,0.0,0.0,0.5875511274835918,0.0,0.0,0.0,0.0,0.0,0.0,-0.68,0.0
3,0.0,0.0,0.0,0.0,0.0,-0.0013720703125,0.0,0.0,0.0,0.0,0.0,0.0,0.5875511274835918,0.0,0.0,0.0,0.0,0.0,0.0,-0.676,0.0
4,0.0,0.0,0.0,0.0,0.0,-0.0011650390625,0.0,0.0,0.0,0.0,0.0,0.0,0.5875511274835918,0.0,0.0,0.0,0.0,0.0,0.0,-0.472,0.0
5,0.0,0.0,0.0,0.0,0.0,0.00274609375,0.0,0.0,0.0,0.0,0.0,0.0,0.5875511274835918,0.0,0.0,0.0,0.0,0.0,0.0,-0.004,0.0
6,0.0,0.0,0.0,0.0,0.0,0.0107890625,0.0,0.0,0.0,0.0,0.0,0.0,0.5875511274835918,0.0,0.0,0.0,0.0,0.0,0.0,-0.26,0.0
7,0.0,0.0,0.0,0.0,0.0,0.020265625,0.0,0.0,0.0,0.0,0.0,0.0,0.5875511274835918,0.0,0.0,0.0,0.0,0.0,0.0,0.172,0.0
8,0.0,0.0,0.0,0.0,0.0,0.0340673828125,0.0,0.0,0.0,0.0,0.0,0.0,0.5875511274835918,0.0,0.0,0.0,0.0,0.0,0.0,-0.056,0.0
9,0.0,0.0,0.0,0.0,0.0,0.0482958984375,0.0,0.0,0.0,0.0,0.0,0.0,0.5875511274835918,0.0,0.0,0.0,0.0,0.0,0.0,-0.664,0.0
10,0.0,0.0,0.0,0.0,0.0,0.062716796875,0.0,0.0,0.0,0.0,0.0,0.0,0.5875511274835918,0.0,0.0,0.0,0.0,0.0,0.0,0.084,0.0
11,0.0,0.0,0.0,0.0,0.0,0.080224609375,0.0,0.0,0.0,0.0,0.0,0.0,0.5875511274835918,0.0,0.0,0.0,0.0,0.0,0.0,-0.356,0.0
12,0.0,0.0,0.0,0.0,0.0,0.095265625,0.0,0.0,0.0,0.0,0.0,0.0,0.5875511274835918,0.0,0.0,0.0,0.0,0.0,0.0,-0.572,0.0
13,0.0,0.0,0.0,0.0,0.0,0.1113271484375,0.0,0.0,0.0,0.0,0.0,0.0,0.5875511274835918,0.0,0.0,0.0,0.0,0.0,0.0,0.136,0.0
14,0.0,0.0,0.0,0.0,0.0,0.1284208984375,0.0,0.0,0.0,0.0,0.0,0.0,0.5875511274835918,0.0,0.0,0.0,0.0,0.0,0.0,-0.976,0.0
15,0.0,0.0,0.0,0.0,0.0,0.1397568359375,0.0,0.0,0.0,0.0,0.0,0.0,0.5875511274835918,0.0,0.0,0.0,0.0,0.0,0.0,-0.696,0.0
16,0.0,0.0,0.0,0.0,0.0,0.152732421875,0.0,0.0,0.0,0.0,0.0,0.0,0.5875511274835918,0.0,0.0,0.0,0.0,0.0,0.0,0.032,0.0
17,0.0,0.0,0.0,0.0,0.0,0.165294921875,0.0,0.0,0.0,0.0,0.0,0.0,0.5875511274835918,0.0,0.0,0.0,0.0,0.0,0.0,-1.168,0.0
18,0.0,0.0,0.0,0.0,0.0,0.172705078125,0.0,0.0,0.0,0.0,0.0,0.0,0.5875511274835918,0.0,0.0,0.0,0.0,0.0,0.0,-0.68,0.0
19,0.0,0.0,0.0,0.0,0.0,0.1827890625,0.0,0.0,0.0,0.0,0.0,0.0,0.5875511274835918,0.0,0.0,0.0,0.0,0.0,0.0,-0.664,0.0
20,0.0,0.0,0.0,0.0,0.0,0.1908193359375,0.0,0.0,0.0,0.0,0.0,0.0,0.5875511274835918,0.0,0.0,0.0,0.0,0.0,0.0,-1.38,0.0
21,0.0,0.0,0.0,0.0,0.0,0.1963837890625,0.0,0.0,0.0,0.0,0.0,0.0,0.5875511274835918,0.0,0.0,0.0,0.0,0.0,0.0,-0.168,0.0
22,0.0,0.0,0.0,0.0,0.0,0.205447265625,0.0,0.0,0.0,0.0,0.0,0.0,0.5875511274835918,0.0,0.0,0.0,0.0,0.0,0.0,-0.524,0.0
23,0.0,0.0,0.0,0.0,0.0,0.211619140625,0.0,0.0,0.0,0.0,0.0,0.0,0.5875511274835918,0.0,0.0,0.0,0.0,0.0,0.0,-0.908,0.0
24,0.0,0.0,0.0,0.0,0.0,0.2179970703125,0.0,0.0,0.0,0.0,0.0,0.0,0.5875511274835918,0.0,0.0,0.0,0.0,0.0,0.0,-0.116,0.0
25,0.0,0.0,0.0,0.0,0.0,0.2274736328125,0.0,0.0,0.0,0.0,0.0,0.0,0.5875511274835918,0.0,0.0,0.0,0.0,0.0,0.0,-0.928,0.0
26,0.0,0.0,0.0,0.0,0.0,0.2342646484375,0.0,0.0,0.0,0.0,0.0,0.0,0.5875511274835918,0.0,0.0,0.0,0.0,0.0,0.0,-0.48,0.0
27,0.0,0.0,0.0,0.0,0.0,0.244154296875,0.0,0.0,0.0,0.0,0.0,0.0,0.5875511274835918,0.0,0.0,0.0,0.0,0.0,0.0,0.104,0.0
28,0.0,0.0,0.0,0.0,0.0,0.2552578125,0.0,0.0,0.0,0.0,0.0,0.0,0.5875511274835918,0.0,0.0,0.0,0.0,0.0,0.0,-0.904,0.0
29,0.0,0.0,0.0,0.0,0.0,0.263908203125,0.0,0.0,0.0,0.0,0.0,0.0,0.5875511274835918,0.0,0.0,0.0,0.0,0.0,0.0,-0.468,0.0
30,0.0,0.0,0.0,0.0,0.0,0.2758505859375,0.0,0.0,0.0,0.0,0.0,0.0,0.5875511274835918,0.0,0.0,0.0,0.0,0.0,0.0,-0.356,0.0
31,0.0,0.0,0.0,0.0,0.0,0.2877802734375,0.0,0.0,0.0,0.0,0.0,0.0,0.5875511274835918,0.0,0.0,0.0,0.0,0.0,0.0,-0.628,0.0
32,0.0,0.0,0.0,0.0,0.0,0.2986904296875,0.0,0.0,0.0,0.0,0.0,0.0,0.5875511274835918,0.0,0.0,0.0,0.0,0.0,0.0,-0.22,0.0
33,0.0,0.0,0.0,0.0,0.0,0.31083984375,0.0,0.0,0.0,0.0,0.0,0.0,0.5875511274835918,0.0,0.0,0.0,0.0,0.0,0.0,-0.264,0.0
34,0.0,0.0,0.0,0.0,0.0,0.32276953125,0.0,0.0,0.0,0.0,0.0,0.0,0.5875511274835918,0.0,0.0,0.0,0.0,0.0,0.0,-0.368,0.0
35,0.0,0.0,0.0,0.0,0.0,0.3349052734375,0.0,0.0,0.0,0.0,0.0,0.0,0.5875511274835918,0.0,0.0,0.0,0.0,0.0,0.0,-0.276,0.0
36,0.0,0.0,0.0,0.0,0.0,0.3470546875,0.0,0.0,0.0,0.0,0.0,0.0,0.5875511274835918,0.0,0.0,0.0,0.0,0.0,0.0,-0.716,0.0
37,0.0,0.0,0.0,0.0,0.0,0.3577451171875,0.0,0.0,0.0,0.0,0.0,0.0,0.5875511274835918,0.0,0.0,0.0,0.0,0.0,0.0,-0.608,0.0
38,0.0,0.0,0.0,0.0,0.0,0.369068359375,0.0,0.0,0.0,0.0,0.0,0.0,0.5875511274835918,0.0,0.0,0.0,0.0,0.0,0.0,-0.192,0.0
39,0.0,0.0,0.0,0.0,0.0,0.380791015625,0.0,0.0,0.0,0.0,0.0,0.0,0.5875511274835918,0.0,0.0,0.0,0.0,0.0,0.0,-0.416,0.0
40,0.0,0.0,0.0,0.0,0.0,0.390875,0.0,0.0,0.0,0.0,0.0,0.0,0.5875511274835918,0.0,0.0,0.0,0.0,0.0,0.0,-0.524,0.0
41,0.0,0.0,0.0,0.0,0.0,0.4007509765625,0.0,0.0,0.0,0.0,0.0,0.0,0.5875511274835918,0.0,0.0,0.0,0.0,0.0,0.0,-0.336,0.0
42,0.0,0.0,0.0,0.0,0.0,0.4110283203125,0.0,0.0,0.0,0.0,0.0,0.0,0.5875511274835918,0.0,0.0,0.0,0.0,0.0,0.0,-0.332,0.0
43,0.0,0.0,0.0,0.0,0.0,0.4211123046875,0.0,0.0,0.0,0.0,0.0,0.0,0.5875511274835918,0.0,0.0,0.0,0.0,0.0,0.0,-0.448,0.0
44,0.0,0.0,0.0,0.0,0.0,0.430576171875,0.0,0.0,0.0,0.0,0.0,0.0,0.5875511274835918,0.0,0.0,0.0,0.0,0.0,0.0,-0.504,0.0
45,0.0,0.0,0.0,0.0,0.0,0.4398330078125,0.0,0.0,0.0,0.0,0.0,0.0,0.5875511274835918,0.0,0.0,0.0,0.0,0.0,0.0,-0.5,0.0
46,0.0,0.0,0.0,0.0,0.0,0.4495029296875,0.0,0.0,0.0,0.0,0.0,0.0,0.5875511274835918,0.0,0.0,0.0,0.0,0.0,0.0,-0.604,0.0
47,0.0,0.0,0.0,0.0,0.0,0.4589541015625,0.0,0.0,0.0,0.0,0.0,0.0,0.5875511274835918,0.0,0.0,0.0,0.0,0.0,0.0,-0.284,0.0
48,0.0,0.0,0.0,0.0,0.0,0.469037109375,0.0,0.0,0.0,0.0,0.0,0.0,0.5875511274835918,0.0,0.0,0.0,0.0,0.0,0.0,-0.348,0.0
49,0.0,0.0,0.0,0.0,0.0,0.478294921875,0.0,0.0,0.0,0.0,0.0,0.0,0.5875511274835918,0.0,0.0,0.0,0.0,0.0,0.0,-0.408,0.0
50,0.0,0.0,0.0,0.0,0.0,0.4875517578125,0.0,0.0,0.0,0.0,0.0,0.0,0.5875511274835918,0.0,0.0,0.0,0.0,0.0,0.0,-0.292,0.0
51,0.0,0.0,0.0,0.0,0.0,0.4976220703125,0.0,0.0,0.0,0.0,0.0,0.0,0.5875511274835918,0.0,0.0,0.0,0.0,0.0,0.0,-0.224,0.0
52,0.0,0.0,0.0,0.0,0.0,0.50810546875,0.0,0.0,0.0,0.0,0.0,0.0,0.5875511274835918,0.0,0.0,0.0,0.0,0.0,0.0,-0.376,0.0
53,0.0,0.0,0.0,0.0,0.0,0.5183955078125,0.0,0.0,0.0,0.0,0.0,0.0,0.5875511274835918,0.0,0.0,0.0,0.0,0.0,0.0,-0.5,0.0
54,0.0,0.0,0.0,0.0,0.0,0.528259765625,0.0,0.0,0.0,0.0,0.0,0.0,0.5875511274835918,0.0,0.0,0.0,0.0,0.0,0.0,-0.44,0.0
55,0.0,0.0,0.0,0.0,0.0,0.5387431640625,0.0,0.0,0.0,0.0,0.0,0.0,0.5875511274835918,0.0,0.0,0.0,0.0,0.0,0.0,-0.224,0.0
56,0.0,0.0,0.0,0.0,0.0,0.5498466796875,0.0,0.0,0.0,0.0,0.0,0.0,-0.7965338475979998,0.0,0.0,0.0,0.0,0.0,0.0,-0.148,0.0
57,0.0,0.0,0.0,0.0,0.0,0.560744140625,0.0,0.0,0.0,0.0,0.0,0.0,-0.7965338475979998,0.0,0.0,0.0,0.0,0.0,0.0,-0.312,0.0
58,0.0,0.0,0.0,0.0,0.0,0.5708271484375,0.0,0.0,0.0,0.0,0.0,0.0,-0.7965338475979998,0.0,0.0,0.0,0.0,0.0,0.0,-0.224,0.0
59,0.0,0.0,0.0,0.0,0.0,0.579658203125,0.0,0.0,0.0,0.0,0.0,0.0,-0.7965338475979998,0.0,0.0,0.0,0.0,0.0,0.0,-0.72,0.0
60,0.0,0.0,0.0,0.0,0.0,0.579658203125,0.0,0.0,0.0,0.0,0.0,0.0,-0.7965338475979998,0.0,0.0,0.0,0.0,0.0,0.0,-0.72,0.0
61,0.0,0.0,0.0,0.0,0.0,0.5811044921875,0.0,0.0,0.0,0.0,0.0,0.0,-0.7965338475979998,0.0,0.0,0.0,0.0,0.0,0.0,-0.916,0.0
62,0.0,0.0,0.0,0.0,0.0,0.57760546875,0.0,0.0,0.0,0.0,0.0,0.0,-0.7965338475979998,0.0,0.0,0.0,0.0,0.0,0.0,-0.696,0.0
63,0.0,0.0,0.0,0.0,0.0,0.5712275390625,0.0,0.0,0.0,0.0,0.0,0.0,-0.7965338475979998,0.0,0.0,0.0,0.0,0.0,0.0,-0.896,0.0
64,0.0,0.0,0.0,0.0,0.0,0.5617763671875,0.0,0.0,0.0,0.0,0.0,0.0,-0.7965338475979998,0.0,0.0,0.0,0.0,0.0,0.0,-0.572,0.0
65,0.0,0.0,0.0,0.0,0.0,0.550466796875,0.0,0.0,0.0,0.0,0.0,0.0,-0.7965338475979998,0.0,0.0,0.0,0.0,0.0,0.0,-0.852,0.0
66,0.0,0.0,0.0,0.0,0.0,0.535658203125,0.0,0.0,0.0,0.0,0.0,0.0,-0.7965338475979998,0.0,0.0,0.0,0.0,0.0,0.0,-1.188,0.0
67,0.0,0.0,0.0,0.0,0.0,0.517982421875,0.0,0.0,0.0,0.0,0.0,0.0,-0.7965338475979998,0.0,0.0,0.0,0.0,0.0,0.0,-1.012,0.0
68,0.0,0.0,0.0,0.0,0.0,0.498861328125,0.0,0.0,0.0,0.0,0.0,0.0,-0.7965338475979998,0.0,0.0,0.0,0.0,0.0,0.0,-0.856,0.0
69,0.0,0.0,0.0,0.0,0.0,0.4778818359375,0.0,0.0,0.0,0.0,0.0,0.0,-0.7965338475979998,0.0,0.0,0.0,0.0,0.0,0.0,-0.544,0.0
70,0.0,0.0,0.0,0.0,0.0,0.45793359375,0.0,0.0,0.0,0.0,0.0,0.0,-0.7965338475979998,0.0,0.0,0.0,0.0,0.0,0.0,-0.472,0.0
71,0.0,0.0,0.0,0.0,0.0,0.45793359375,0.0,0.0,0.0,0.0,0.0,0.0,-0.7965338475979998,0.0,0.0,0.0,0.0,0.0,0.0,-0.472,0.0
72,0.0,0.0,0.0,0.0,0.0,0.4167998046875,0.0,0.0,0.0,0.0,0.0,0.0,-0.7965338475979998,0.0,0.0,0.0,0.0,0.0,0.0,-0.42,0.0
73,0.0,0.0,0.0,0.0,0.0,0.3978720703125,0.0,0.0,0.0,0.0,0.0,0.0,-0.7965338475979998,0.0,0.0,0.0,0.0,0.0,0.0,-0.492,0.0
74,0.0,0.0,0.0,0.0,0.0,0.3791513671875,0.0,0.0,0.0,0.0,0.0,0.0,-0.7965338475979998,0.0,0.0,0.0,0.0,0.0,0.0,-0.148,0.0
75,0.0,0.0,0.0,0.0,0.0,0.362896484375,0.0,0.0,0.0,0.0,0.0,0.0,-0.7965338475979998,0.0,0.0,0.0,0.0,0.0,0.0,-0.128,0.0
76,0.0,0.0,0.0,0.0,0.0,0.3478681640625,0.0,0.0,0.0,0.0,0.0,0.0,-0.7965338475979998,0.0,0.0,0.0,0.0,0.0,0.0,-0.54,0.0
77,0.0,0.0,0.0,0.0,0.0,0.3345048828125,0.0,0.0,0.0,0.0,0.0,0.0,-0.7965338475979998,0.0,0.0,0.0,0.0,0.0,0.0,-0.212,0.0
78,0.0,0.0,0.0,0.0,0.0,0.3231826171875,0.0,0.0,0.0,0.0,0.0,0.0,-0.7965338475979998,0.0,0.0,0.0,0.0,0.0,0.0,-0.344,0.0
79,0.0,0.0,0.0,0.0,0.0,0.3116533203125,0.0,0.0,0.0,0.0,0.0,0.0,-0.7965338475979998,0.0,0.0,0.0,0.0,0.0,0.0,-0.036,0.0
80,0.0,0.0,0.0,0.0,0.0,0.3032216796875,0.0,0.0,0.0,0.0,0.0,0.0,-0.7965338475979998,0.0,0.0,0.0,0.0,0.0,0.0,0.22,0.0
81,0.0,0.0,0.0,0.0,0.0,0.2964306640625,0.0,0.0,0.0,0.0,0.0,0.0,-0.7965338475979998,0.0,0.0,0.0,0.0,0.0,0.0,-0.408,0.0
82,0.0,0.0,0.0,0.0,0.0,0.2890205078125,0.0,0.0,0.0,0.0,0.0,0.0,-0.7965338475979998,0.0,0.0,0.0,0.0,0.0,0.0,-0.128,0.0
83,0.0,0.0,0.0,0.0,0.0,0.2890205078125,0.0,0.0,0.0,0.0,0.0,0.0,-0.7965338475979998,0.0,0.0,0.0,0.0,0.0,0.0,-0.128,0.0
84,0.0,0.0,0.0,0.0,0.0,0.277697265625,0.0,0.0,0.0,0.0,0.0,0.0,-0.7965338475979998,0.0,0.0,0.0,0.0,0.0,0.0,-0.512,0.0
85,0.0,0.0,0.0,0.0,0.0,0.2713193359375,0.0,0.0,0.0,0.0,0.0,0.0,-0.7965338475979998,0.0,0.0,0.0,0.0,0.0,0.0,-0.128,0.0
86,0.0,0.0,0.0,0.0,0.0,0.2665810546875,0.0,0.0,0.0,0.0,0.0,0.0,-0.7965338475979998,0.0,0.0,0.0,0.0,0.0,0.0,-0.4,0.0
87,0.0,0.0,0.0,0.0,0.0,0.260822265625,0.0,0.0,0.0,0.0,0.0,0.0,-0.7965338475979998,0.0,0.0,0.0,0.0,0.0,0.0,-0.68,0.0
88,0.0,0.0,0.0,0.0,0.0,0.2544443359375,0.0,0.0,0.0,0.0,0.0,0.0,-0.7965338475979998,0.0,0.0,0.0,0.0,0.0,0.0,-0.46,0.0
89,0.0,0.0,0.0,0.0,0.0,0.2480537109375,0.0,0.0,0.0,0.0,0.0,0.0,-0.7965338475979998,0.0,0.0,0.0,0.0,0.0,0.0,-0.584,0.0
90,0.0,0.0,0.0,0.0,0.0,0.2402421875,0.0,0.0,0.0,0.0,0.0,0.0,-0.7965338475979998,0.0,0.0,0.0,0.0,0.0,0.0,-0.664,0.0
91,0.0,0.0,0.0,0.0,0.0,0.2311787109375,0.0,0.0,0.0,0.0,0.0,0.0,-0.7965338475979998,0.0,0.0,0.0,0.0,0.0,0.0,-0.364,0.0
92,0.0,0.0,0.0,0.0,0.0,0.2225283203125,0.0,0.0,0.0,0.0,0.0,0.0,-0.7965338475979998,0.0,0.0,0.0,0.0,0.0,0.0,-0.584,0.0
93,0.0,0.0,0.0,0.0,0.0,0.21265234375,0.0,0.0,0.0,0.0,0.0,0.0,-0.7965338475979998,0.0,0.0,0.0,0.0,0.0,0.0,-0.676,0.0
94,0.0,0.0,0.0,0.0,0.0,0.2023623046875,0.0,0.0,0.0,0.0,0.0,0.0,-0.7965338475979998,0.0,0.0,0.0,0.0,0.0,0.0,-0.52,0.0
95,0.0,0.0,0.0,0.0,0.0,0.1916455078125,0.0,0.0,0.0,0.0,0.0,0.0,-0.7965338475979998,0.0,0.0,0.0,0.0,0.0,0.0,-0.812,0.0
96,0.0,0.0,0.0,0.0,0.0,0.1792900390625,0.0,0.0,0.0,0.0,0.0,0.0,-0.7965338475979998,0.0,0.0,0.0,0.0,0.0,0.0,-0.82,0.0
97,0.0,0.0,0.0,0.0,0.0,0.167966796875,0.0,0.0,0.0,0.0,0.0,0.0,-0.7965338475979998,0.0,0.0,0.0,0.0,0.0,0.0,-0.708,0.0
98,0.0,0.0,0.0,0.0,0.0,0.1562314453125,0.0,0.0,0.0,0.0,0.0,0.0,-0.7965338475979998,0.0,0.0,0.0,0.0,0.0,0.0,-0.836,0.0
99,0.0,0.0,0.0,0.0,0.0,0.143048828125,0.0,0.0,0.0,0.0,0.0,0.0,-0.7965338475979998,0.0,0.0,0.0,0.0,0.0,0.0,-0.564,0.0
100,0.0,0.0,0.0,0.0,0.0,0.1308994140625,0.0,0.0,0.0,0.0,0.0,0.0,-0.7965338475979998,0.0,0.0,0.0,0.0,0.0,0.0,-0.592,0.0
101,0.0,0.0,0.0,0.0,0.0,0.11895703125,0.0,0.0,0.0,0.0,0.0,0.0,-0.7965338475979998,0.0,0.0,0.0,0.0,0.0,0.0,-0.82,0.0
102,0.0,0.0,0.0,0.0,0.0,0.10617578125,0.0,0.0,0.0,0.0,0.0,0.0,-0.7965338475979998,0.0,0.0,0.0,0.0,0.0,0.0,-0.52,0.0
103,0.0,0.0,0.0,0.0,0.0,0.10617578125,0.0,0.0,0.0,0.0,0.0,0.0,-0.7965338475979998,0.0,0.0,0.0,0.0,0.0,0.0,-0.52,0.0
104,0.0,0.0,0.0,0.0,0.0,0.0824970703125,0.0,0.0,0.0,0.0,0.0,0.0,-0.7965338475979998,0.0,0.0,0.0,0.0,0.0,0.0,-0.768,0.0
105,0.0,0.0,0.0,0.0,0.0,0.0709541015625,0.0,0.0,0.0,0.0,0.0,0.0,-0.7965338475979998,0.0,0.0,0.0,0.0,0.0,0.0,-0.628,0.0
106,0.0,0.0,0.0,0.0,0.0,0.059412109375,0.0,0.0,0.0,0.0,0.0,0.0,-0.7965338475979998,0.0,0.0,0.0,0.0,0.0,0.0,-0.608,0.0
107,0.0,0.0,0.0,0.0,0.0,0.04767578125,0.0,0.0,0.0,0.0,0.0,0.0,-0.7965338475979998,0.0,0.0,0.0,0.0,0.0,0.0,-0.472,0.0
108,0.0,0.0,0.0,0.0,0.0,0.037373046875,0.0,0.0,0.0,0.0,0.0,0.0,-0.7965338475979998,0.0,0.0,0.0,0.0,0.0,0.0,-0.448,0.0
109,0.0,0.0,0.0,0.0,0.0,0.02686328125,0.0,0.0,0.0,0.0,0.0,0.0,-0.7965338475979998,0.0,0.0,0.0,0.0,0.0,0.0,-0.54,0.0
110,0.0,0.0,0.0,0.0,0.0,0.0161474609375,0.0,0.0,0.0,0.0,0.0,0.0,-0.7965338475979998,0.0,0.0,0.0,0.0,0.0,0.0,-0.416,0.0
111,0.0,0.0,0.0,0.0,0.0,0.00605078125,0.0,0.0,0.0,0.0,0.0,0.0,-0.7965338475979998,0.0,0.0,0.0,0.0,0.0,0.0,-0.608,0.0
112,0.0,0.0,0.0,0.0,0.0,-0.00364453125,0.0,0.0,0.0,0.0,0.0,0.0,-0.7965338475979998,0.0,0.0,0.0,0.0,0.0,0.0,-0.752,0.0
113,0.0,0.0,0.0,0.0,0.0,-0.0133271484375,0.0,0.0,0.0,0.0,0.0,0.0,-0.7965338475979998,0.0,0.0,0.0,0.0,0.0,0.0,-0.488,0.0
114,0.0,0.0,0.0,0.0,0.0,-0.0226103515625,0.0,0.0,0.0,0.0,0.0,0.0,-0.7965338475979998,0.0,0.0,0.0,0.0,0.0,0.0,-0.468,0.0
115,0.0,0.0,0.0,0.0,0.0,-0.0329130859375,0.0,0.0,0.0,0.0,0.0,0.0,-0.7965338475979998,0.0,0.0,0.0,0.0,0.0,0.0,-0.468,0.0
116,0.0,0.0,0.0,0.0,0.0,-0.0423896484375,0.0,0.0,0.0,0.0,0.0,0.0,-0.7965338475979998,0.0,0.0,0.0,0.0,0.0,0.0,-0.472,0.0
117,0.0,0.0,0.0,0.0,0.0,-0.0514658203125,0.0,0.0,0.0,0.0,0.0,0.0,-0.7965338475979998,0.0,0.0,0.0,0.0,0.0,0.0,-0.624,0.0
118,0.0,0.0,0.0,0.0,0.0,-0.0611494140625,0.0,0.0,0.0,0.0,0.0,0.0,-0.7965338475979998,0.0,0.0,0.0,0.0,0.0,0.0,-0.428,0.0
119,0.0,0.0,0.0,0.0,0.0,-0.070845703125,0.0,0.0,0.0,0.0,0.0,0.0,-0.7965338475979998,0.0,0.0,0.0,0.0,0.0,0.0,-0.604,0.0
120,0.0,0.0,0.0,0.0,0.0,-0.0809423828125,0.0,0.0,0.0,0.0,0.0,0.0,-0.7965338475979998,0.0,0.0,0.0,0.0,0.0,0.0,-0.716,0.0
121,0.0,0.0,0.0,0.0,0.0,-0.090431640625,0.0,0.0,0.0,0.0,0.0,0.0,-0.7965338475979998,0.0,0.0,0.0,0.0,0.0,0.0,-0.7,0.0
122,0.0,0.0,0.0,0.0,0.0,-0.0999208984375,0.0,0.0,0.0,0.0,0.0,0.0,-0.7965338475979998,0.0,0.0,0.0,0.0,0.0,0.0,-0.664,0.0
123,0.0,0.0,0.0,0.0,0.0,-0.110017578125,0.0,0.0,0.0,0.0,0.0,0.0,-0.7965338475979998,0.0,0.0,0.0,0.0,0.0,0.0,-0.52,0.0
124,0.0,0.0,0.0,0.0,0.0,-0.110017578125,0.0,0.0,0.0,0.0,0.0,0.0,-0.7965338475979998,0.0,0.0,0.0,0.0,0.0,0.0,-0.52,0.0
125,0.0,0.0,0.0,0.0,0.0,-0.1308681640625,0.0,0.0,0.0,0.0,0.0,0.0,-0.7965338475979998,0.0,0.0,0.0,0.0,0.0,0.0,-0.664,0.0
126,0.0,0.0,0.0,0.0,0.0,-0.1409775390625,0.0,0.0,0.0,0.0,0.0,0.0,-0.7965338475979998,0.0,0.0,0.0,0.0,0.0,0.0,-0.656,0.0
127,0.0,0.0,0.0,0.0,0.0,-0.15107421875,0.0,0.0,0.0,0.0,0.0,0.0,-0.7965338475979998,0.0,0.0,0.0,0.0,0.0,0.0,-0.604,0.0
128,0.0,0.0,0.0,0.0,0.0,-0.162216796875,0.0,0.0,0.0,0.0,0.0,0.0,-0.7965338475979998,0.0,0.0,0.0,0.0,0.0,0.0,-0.708,0.0
129,0.0,0.0,0.0,0.0,0.0,-0.17273828125,0.0,0.0,0.0,0.0,0.0,0.0,-0.7965338475979998,0.0,0.0,0.0,0.0,0.0,0.0,-0.8,0.0
130,0.0,0.0,0.0,0.0,0.0,-0.18284765625,0.0,0.0,0.0,0.0,0.0,0.0,-0.7965338475979998,0.0,0.0,0.0,0.0,0.0,0.0,-0.792,0.0
131,0.0,0.0,0.0,0.0,0.0,-0.1933701171875,0.0,0.0,0.0,0.0,0.0,0.0,-0.7965338475979998,0.0,0.0,0.0,0.0,0.0,0.0,-0.524,0.0
132,0.0,0.0,0.0,0.0,0.0,-0.20471875,0.0,0.0,0.0,0.0,0.0,0.0,-0.7965338475979998,0.0,0.0,0.0,0.0,0.0,0.0,-0.552,0.0
133,0.0,0.0,0.0,0.0,0.0,-0.2154482421875,0.0,0.0,0.0,0.0,0.0,0.0,-0.7965338475979998,0.0,0.0,0.0,0.0,0.0,0.0,-0.592,0.0
134,0.0,0.0,0.0,0.0,0.0,-0.225763671875,0.0,0.0,0.0,0.0,0.0,0.0,-0.7965338475979998,0.0,0.0,0.0,0.0,0.0,0.0,-0.628,0.0
135,0.0,0.0,0.0,0.0,0.0,-0.2362861328125,0.0,0.0,0.0,0.0,0.0,0.0,-0.7965338475979998,0.0,0.0,0.0,0.0,0.0,0.0,-0.54,0.0
136,0.0,0.0,0.0,0.0,0.0,-0.247634765625,0.0,0.0,0.0,0.0,0.0,0.0,-0.7965338475979998,0.0,0.0,0.0,0.0,0.0,0.0,-0.636,0.0
137,0.0,0.0,0.0,0.0,0.0,-0.258583984375,0.0,0.0,0.0,0.0,0.0,0.0,-0.7965338475979998,0.0,0.0,0.0,0.0,0.0,0.0,-0.648,0.0
138,0.0,0.0,0.0,0.0,0.0,-0.268486328125,0.0,0.0,0.0,0.0,0.0,0.0,-0.7965338475979998,0.0,0.0,0.0,0.0,0.0,0.0,-0.708,0.0
139,0.0,0.0,0.0,0.0,0.0,-0.2788017578125,0.0,0.0,0.0,0.0,0.0,0.0,-0.7965338475979998,0.0,0.0,0.0,0.0,0.0,0.0,-0.5,0.0
140,0.0,0.0,0.0,0.0,0.0,-0.2899697265625,0.0,0.0,0.0,0.0,0.0,0.0,-0.7965338475979998,0.0,0.0,0.0,0.0,0.0,0.0,-0.488,0.0
141,0.0,0.0,0.0,0.0,0.0,-0.30069921875,0.0,0.0,0.0,0.0,0.0,0.0,-0.7965338475979998,0.0,0.0,0.0,0.0,0.0,0.0,-0.52,0.0
142,0.0,0.0,0.0,0.0,0.0,-0.3110283203125,0.0,0.0,0.0,0.0,0.0,0.0,-0.7965338475979998,0.0,0.0,0.0,0.0,0.0,0.0,-0.54,0.0
143,0.0,0.0,0.0,0.0,0.0,-0.32113671875,0.0,0.0,0.0,0.0,0.0,0.0,-0.7965338475979998,0.0,0.0,0.0,0.0,0.0,0.0,-0.428,0.0
144,0.0,0.0,0.0,0.0,0.0,-0.33187890625,0.0,0.0,0.0,0.0,0.0,0.0,-0.7965338475979998,0.0,0.0,0.0,0.0,0.0,0.0,-0.624,0.0
145,0.0,0.0,0.0,0.0,0.0,-0.34262109375,0.0,0.0,0.0,0.0,0.0,0.0,-0.7965338475979998,0.0,0.0,0.0,0.0,0.0,0.0,-0.656,0.0
146,0.0,0.0,0.0,0.0,0.0,-0.3525234375,0.0,0.0,0.0,0.0,0.0,0.0,-0.7965338475979998,0.0,0.0,0.0,0.0,0.0,0.0,-0.656,0.0
147,0.0,0.0,0.0,0.0,0.0,-0.362439453125,0.0,0.0,0.0,0.0,0.0,0.0,-0.7965338475979998,0.0,0.0,0.0,0.0,0.0,0.0,-0.54,0.0
148,0.0,0.0,0.0,0.0,0.0,-0.372974609375,0.0,0.0,0.0,0.0,0.0,0.0,-0.7965338475979998,0.0,0.0,0.0,0.0,0.0,0.0,-0.5,0.0
149,0.0,0.0,0.0,0.0,0.0,-0.383716796875,0.0,0.0,0.0,0.0,0.0,0.0,-0.7965338475979998,0.0,0.0,0.0,0.0,0.0,0.0,-0.488,0.0
150,0.0,0.0,0.0,0.0,0.0,-0.3938388671875,0.0,0.0,0.0,0.0,0.0,0.0,-0.7965338475979998,0.0,0.0,0.0,0.0,0.0,0.0,-0.572,0.0
151,0.0,0.0,0.0,0.0,0.0,-0.40375390625,0.0,0.0,0.0,0.0,0.0,0.0,-0.7965338475979998,0.0,0.0,0.0,0.0,0.0,0.0,-0.556,0.0
152,0.0,0.0,0.0,0.0,0.0,-0.4138759765625,0.0,0.0,0.0,0.0,0.0,0.0,-0.7965338475979998,0.0,0.0,0.0,0.0,0.0,0.0,-0.584,0.0
153,0.0,0.0,0.0,0.0,0.0,-0.424837890625,0.0,0.0,0.0,0.0,0.0,0.0,-0.7965338475979998,0.0,0.0,0.0,0.0,0.0,0.0,-0.644,0.0
154,0.0,0.0,0.0,0.0,0.0,-0.4349599609375,0.0,0.0,0.0,0.0,0.0,0.0,-0.7965338475979998,0.0,0.0,0.0,0.0,0.0,0.0,-0.708,0.0
155,0.0,0.0,0.0,0.0,0.0,-0.4446689453125,0.0,0.0,0.0,0.0,0.0,0.0,-0.7965338475979998,0.0,0.0,0.0,0.0,0.0,0.0,-0.628,0.0
156,0.0,0.0,0.0,0.0,0.0,-0.4545849609375,0.0,0.0,0.0,0.0,0.0,0.0,-0.7965338475979998,0.0,0.0,0.0,0.0,0.0,0.0,-0.492,0.0
157,0.0,0.0,0.0,0.0,0.0,-0.4657392578125,0.0,0.0,0.0,0.0,0.0,0.0,-0.7965338475979998,0.0,0.0,0.0,0.0,0.0,0.0,-0.472,0.0
158,0.0,0.0,0.0,0.0,0.0,-0.4762880859375,0.0,0.0,0.0,0.0,0.0,0.0,-0.7965338475979998,0.0,0.0,0.0,0.0,0.0,0.0,-0.52,0.0
159,0.0,0.0,0.0,0.0,0.0,-0.4859970703125,0.0,0.0,0.0,0.0,0.0,0.0,-0.7965338475979998,0.0,0.0,0.0,0.0,0.0,0.0,-0.532,0.0
160,0.0,0.0,0.0,0.0,0.0,-0.496119140625,0.0,0.0,0.0,0.0,0.0,0.0,-0.7965338475979998,0.0,0.0,0.0,0.0,0.0,0.0,-0.488,0.0
161,0.0,0.0,0.0,0.0,0.0,-0.507080078125,0.0,0.0,0.0,0.0,0.0,0.0,-0.7965338475979998,0.0,0.0,0.0,0.0,0.0,0.0,-0.572,0.0
162,0.0,0.0,0.0,0.0,0.0,-0.517822265625,0.0,0.0,0.0,0.0,0.0,0.0,-0.7965338475979998,0.0,0.0,0.0,0.0,0.0,0.0,-0.584,0.0
163,0.0,0.0,0.0,0.0,0.0,-0.5277509765625,0.0,0.0,0.0,0.0,0.0,0.0,-0.7965338475979998,0.0,0.0,0.0,0.0,0.0,0.0,-0.604,0.0
164,0.0,0.0,0.0,0.0,0.0,-0.5378857421875,0.0,0.0,0.0,0.0,0.0,0.0,-0.7965338475979998,0.0,0.0,0.0,0.0,0.0,0.0,-0.468,0.0
165,0.0,0.0,0.0,0.0,0.0,-0.548640625,0.0,0.0,0.0,0.0,0.0,0.0,-0.7965338475979998,0.0,0.0,0.0,0.0,0.0,0.0,-0.46,0.0
166,0.0,0.0,0.0,0.0,0.0,-0.55980859375,0.0,0.0,0.0,0.0,0.0,0.0,-0.7965338475979998,0.0,0.0,0.0,0.0,0.0,0.0,-0.408,0.0
167,0.0,0.0,0.0,0.0,0.0,-0.5699306640625,0.0,0.0,0.0,0.0,0.0,0.0,-0.7965338475979998,0.0,0.0,0.0,0.0,0.0,0.0,-0.376,0.0
168,0.0,0.0,0.0,0.0,0.0,-0.579859375,0.0,0.0,0.0,0.0,0.0,0.0,-0.7965338475979998,0.0,0.0,0.0,0.0,0.0,0.0,-0.452,0.0
169,0.0,0.0,0.0,0.0,0.0,-0.5908212890625,0.0,0.0,0.0,0.0,0.0,0.0,-0.7965338475979998,0.0,0.0,0.0,0.0,0.0,0.0,-0.584,0.0
170,0.0,0.0,0.0,0.0,0.0,-0.6019892578125,0.0,0.0,0.0,0.0,0.0,0.0,-0.7965338475979998,0.0,0.0,0.0,0.0,0.0,0.0,-0.52,0.0
171,0.0,0.0,0.0,0.0,0.0,-0.6121240234375,0.0,0.0,0.0,0.0,0.0,0.0,-0.7965338475979998,0.0,0.0,0.0,0.0,0.0,0.0,-0.504,0.0
172,0.0,0.0,0.0,0.0,0.0,-0.621845703125,0.0,0.0,0.0,0.0,0.0,0.0,-0.7965338475979998,0.0,0.0,0.0,0.0,0.0,0.0,-0.468,0.0
173,0.0,0.0,0.0,0.0,0.0,-0.63239453125,0.0,0.0,0.0,0.0,0.0,0.0,-0.7965338475979998,0.0,0.0,0.0,0.0,0.0,0.0,-0.504,0.0
174,0.0,0.0,0.0,0.0,0.0,-0.64378125,0.0,0.0,0.0,0.0,0.0,0.0,-0.7965338475979998,0.0,0.0,0.0,0.0,0.0,0.0,-0.364,0.0
175,0.0,0.0,0.0,0.0,0.0,-0.654330078125,0.0,0.0,0.0,0.0,0.0,0.0,-0.7965338475979998,0.0,0.0,0.0,0.0,0.0,0.0,-0.336,0.0
176,0.0,0.0,0.0,0.0,0.0,-0.6638447265625,0.0,0.0,0.0,0.0,0.0,0.0,-0.7965338475979998,0.0,0.0,0.0,0.0,0.0,0.0,-0.436,0.0
177,0.0,0.0,0.0,0.0,0.0,-0.6743935546875,0.0,0.0,0.0,0.0,0.0,0.0,-0.7965338475979998,0.0,0.0,0.0,0.0,0.0,0.0,-0.584,0.0
178,0.0,0.0,0.0,0.0,0.0,-0.68557421875,0.0,0.0,0.0,0.0,0.0,0.0,-0.7965338475979998,0.0,0.0,0.0,0.0,0.0,0.0,-0.448,0.0
179,0.0,0.0,0.0,0.0,0.0,-0.695916015625,0.0,0.0,0.0,0.0,0.0,0.0,-0.7965338475979998,0.0,0.0,0.0,0.0,0.0,0.0,-0.452,0.0
180,0.0,0.0,0.0,0.0,0.0,-0.705431640625,0.0,0.0,0.0,0.0,0.0,0.0,-0.7965338475979998,0.0,0.0,0.0,0.0,0.0,0.0,-0.46,0.0
181,0.0,0.0,0.0,0.0,0.0,-0.71556640625,0.0,0.0,0.0,0.0,0.0,0.0,-0.7965338475979998,0.0,0.0,0.0,0.0,0.0,0.0,-0.46,0.0
182,0.0,0.0,0.0,0.0,0.0,-0.7269541015625,0.0,0.0,0.0,0.0,0.0,0.0,-0.7965338475979998,0.0,0.0,0.0,0.0,0.0,0.0,-0.356,0.0
183,0.0,0.0,0.0,0.0,0.0,-0.737734375,0.0,0.0,0.0,0.0,0.0,0.0,-0.7965338475979998,0.0,0.0,0.0,0.0,0.0,0.0,-0.264,0.0
184,0.0,0.0,0.0,0.0,0.0,-0.74725,0.0,0.0,0.0,0.0,0.0,0.0,-0.7965338475979998,0.0,0.0,0.0,0.0,0.0,0.0,-0.324,0.0
185,0.0,0.0,0.0,0.0,0.0,-0.7571787109375,0.0,0.0,0.0,0.0,0.0,0.0,1.0414252808652955,0.0,0.0,0.0,0.0,0.0,0.0,-0.5,0.0
186,0.0,0.0,0.0,0.0,0.0,-0.768359375,0.0,0.0,0.0,0.0,0.0,0.0,1.0414252808652955,0.0,0.0,0.0,0.0,0.0,0.0,-0.488,0.0
187,0.0,0.0,0.0,0.0,0.0,-0.778919921875,0.0,0.0,0.0,0.0,0.0,0.0,1.0414252808652955,0.0,0.0,0.0,0.0,0.0,0.0,-0.16,0.0
188,0.0,0.0,0.0,0.0,0.0,-0.78595703125,0.0,0.0,0.0,0.0,0.0,0.0,1.0414252808652955,0.0,0.0,0.0,0.0,0.0,0.0,0.332,0.0
189,0.0,0.0,0.0,0.0,0.0,-0.788435546875,0.0,0.0,0.0,0.0,0.0,0.0,1.0414252808652955,0.0,0.0,0.0,0.0,0.0,0.0,0.128,0.0
190,0.0,0.0,0.0,0.0,0.0,-0.78946875,0.0,0.0,0.0,0.0,0.0,0.0,1.0414252808652955,0.0,0.0,0.0,0.0,0.0,0.0,-0.052,0.0
191,0.0,0.0,0.0,0.0,0.0,-0.788435546875,0.0,0.0,0.0,0.0,0.0,0.0,1.0414252808652955,0.0,0.0,0.0,0.0,0.0,0.0,0.304,0.0
192,0.0,0.0,0.0,0.0,0.0,-0.7834775390625,0.0,0.0,0.0,0.0,0.0,0.0,1.0414252808652955,0.0,0.0,0.0,0.0,0.0,0.0,0.212,0.0
193,0.0,0.0,0.0,0.0,0.0,-0.7762216796875,0.0,0.0,0.0,0.0,0.0,0.0,1.0414252808652955,0.0,0.0,0.0,0.0,0.0,0.0,-0.108,0.0
194,0.0,0.0,0.0,0.0,0.0,-0.7665,0.0,0.0,0.0,0.0,0.0,0.0,1.0414252808652955,0.0,0.0,0.0,0.0,0.0,0.0,0.252,0.0
195,0.0,0.0,0.0,0.0,0.0,-0.753873046875,0.0,0.0,0.0,0.0,0.0,0.0,1.0414252808652955,0.0,0.0,0.0,0.0,0.0,0.0,0.468,0.0
196,0.0,0.0,0.0,0.0,0.0,-0.73938671875,0.0,0.0,0.0,0.0,0.0,0.0,1.0414252808652955,0.0,0.0,0.0,0.0,0.0,0.0,0.012,0.0
197,0.0,0.0,0.0,0.0,0.0,-0.72385546875,0.0,0.0,0.0,0.0,0.0,0.0,1.0414252808652955,0.0,0.0,0.0,0.0,0.0,0.0,0.004,0.0
198,0.0,0.0,0.0,0.0,0.0,-0.7062578125,0.0,0.0,0.0,0.0,0.0,0.0,1.0414252808652955,0.0,0.0,0.0,0.0,0.0,0.0,0.324,0.0
199,0.0,0.0,0.0,0.0,0.0,-0.688259765625,0.0,0.0,0.0,0.0,0.0,0.0,1.0414252808652955,0.0,0.0,0.0,0.0,0.0,0.0,-0.5,0.0
200,0.0,0.0,0.0,0.0,0.0,-0.669435546875,0.0,0.0,0.0,0.0,0.0,0.0,1.0414252808652955,0.0,0.0,0.0,0.0,0.0,0.0,0.136,0.0
201,0.0,0.0,0.0,0.0,0.0,-0.649578125,0.0,0.0,0.0,0.0,0.0,0.0,1.0414252808652955,0.0,0.0,0.0,0.0,0.0,0.0,-0.336,0.0
202,0.0,0.0,0.0,0.0,0.0,-0.6307412109375,0.0,0.0,0.0,0.0,0.0,0.0,1.0414252808652955,0.0,0.0,0.0,0.0,0.0,0.0,-0.108,0.0
203,0.0,0.0,0.0,0.0,0.0,-0.6104716796875,0.0,0.0,0.0,0.0,0.0,0.0,1.0414252808652955,0.0,0.0,0.0,0.0,0.0,0.0,-0.344,0.0
204,0.0,0.0,0.0,0.0,0.0,-0.5922666015625,0.0,0.0,0.0,0.0,0.0,0.0,1.0414252808652955,0.0,0.0,0.0,0.0,0.0,0.0,-0.8,0.0
205,0.0,0.0,0.0,0.0,0.0,-0.57448828125,0.0,0.0,0.0,0.0,0.0,0.0,1.0414252808652955,0.0,0.0,0.0,0.0,0.0,0.0,0.084,0.0
206,0.0,0.0,0.0,0.0,0.0,-0.5558837890625,0.0,0.0,0.0,0.0,0.0,0.0,1.0414252808652955,0.0,0.0,0.0,0.0,0.0,0.0,-1.04,0.0
207,0.0,0.0,0.0,0.0,0.0,-0.540583984375,0.0,0.0,0.0,0.0,0.0,0.0,1.0414252808652955,0.0,0.0,0.0,0.0,0.0,0.0,-0.368,0.0
208,0.0,0.0,0.0,0.0,0.0,-0.52465234375,0.0,0.0,0.0,0.0,0.0,0.0,1.0414252808652955,0.0,0.0,0.0,0.0,0.0,0.0,-0.636,0.0
209,0.0,0.0,0.0,0.0,0.0,-0.510798828125,0.0,0.0,0.0,0.0,0.0,0.0,1.0414252808652955,0.0,0.0,0.0,0.0,0.0,0.0,-1.208,0.0
210,0.0,0.0,0.0,0.0,0.0,-0.4983916015625,0.0,0.0,0.0,0.0,0.0,0.0,1.0414252808652955,0.0,0.0,0.0,0.0,0.0,0.0,-0.304,0.0
211,0.0,0.0,0.0,0.0,0.0,-0.4851708984375,0.0,0.0,0.0,0.0,0.0,0.0,1.0414252808652955,0.0,0.0,0.0,0.0,0.0,0.0,-0.772,0.0
212,0.0,0.0,0.0,0.0,0.0,-0.475875,0.0,0.0,0.0,0.0,0.0,0.0,1.0414252808652955,0.0,0.0,0.0,0.0,0.0,0.0,-1.052,0.0
213,0.0,0.0,0.0,0.0,0.0,-0.4667724609375,0.0,0.0,0.0,0.0,0.0,0.0,1.0414252808652955,0.0,0.0,0.0,0.0,0.0,0.0,-0.312,0.0
214,0.0,0.0,0.0,0.0,0.0,-0.456650390625,0.0,0.0,0.0,0.0,0.0,0.0,1.0414252808652955,0.0,0.0,0.0,0.0,0.0,0.0,-0.832,0.0
215,0.0,0.0,0.0,0.0,0.0,-0.4498330078125,0.0,0.0,0.0,0.0,0.0,0.0,1.0414252808652955,0.0,0.0,0.0,0.0,0.0,0.0,-0.524,0.0
216,0.0,0.0,0.0,0.0,0.0,-0.4428095703125,0.0,0.0,0.0,0.0,0.0,0.0,1.0414252808652955,0.0,0.0,0.0,0.0,0.0,0.0,-0.592,0.0
217,0.0,0.0,0.0,0.0,0.0,-0.43640625,0.0,0.0,0.0,0.0,0.0,0.0,1.0414252808652955,0.0,0.0,0.0,0.0,0.0,0.0,-0.968,0.0
218,0.0,0.0,0.0,0.0,0.0,-0.430828125,0.0,0.0,0.0,0.0,0.0,0.0,1.0414252808652955,0.0,0.0,0.0,0.0,0.0,0.0,-0.844,0.0
219,0.0,0.0,0.0,0.0,0.0,-0.424630859375,0.0,0.0,0.0,0.0,0.0,0.0,1.0414252808652955,0.0,0.0,0.0,0.0,0.0,0.0,-0.82,0.0
220,0.0,0.0,0.0,0.0,0.0,-0.419041015625,0.0,0.0,0.0,0.0,0.0,0.0,1.0414252808652955,0.0,0.0,0.0,0.0,0.0,0.0,-0.52,0.0
221,0.0,0.0,0.0,0.0,0.0,-0.4124306640625,0.0,0.0,0.0,0.0,0.0,0.0,1.0414252808652955,0.0,0.0,0.0,0.0,0.0,0.0,-0.428,0.0
222,0.0,0.0,0.0,0.0,0.0,-0.4062333984375,0.0,0.0,0.0,0.0,0.0,0.0,1.0414252808652955,0.0,0.0,0.0,0.0,0.0,0.0,-0.608,0.0
223,0.0,0.0,0.0,0.0,0.0,-0.4006552734375,0.0,0.0,0.0,0.0,0.0,0.0,1.0414252808652955,0.0,0.0,0.0,0.0,0.0,0.0,-0.384,0.0
224,0.0,0.0,0.0,0.0,0.0,-0.39342578125,0.0,0.0,0.0,0.0,0.0,0.0,1.0414252808652955,0.0,0.0,0.0,0.0,0.0,0.0,-0.584,0.0
225,0.0,0.0,0.0,0.0,0.0,-0.387021484375,0.0,0.0,0.0,0.0,0.0,0.0,1.0414252808652955,0.0,0.0,0.0,0.0,0.0,0.0,-0.616,0.0
226,0.0,0.0,0.0,0.0,0.0,-0.3795849609375,0.0,0.0,0.0,0.0,0.0,0.0,1.0414252808652955,0.0,0.0,0.0,0.0,0.0,0.0,0.088,0.0
227,0.0,0.0,0.0,0.0,0.0,-0.3696689453125,0.0,0.0,0.0,0.0,0.0,0.0,1.0414252808652955,0.0,0.0,0.0,0.0,0.0,0.0,-0.304,0.0
228,0.0,0.0,0.0,0.0,0.0,-0.36140625,0.0,0.0,0.0,0.0,0.0,0.0,1.0414252808652955,0.0,0.0,0.0,0.0,0.0,0.0,-0.336,0.0
229,0.0,0.0,0.0,0.0,0.0,-0.3521103515625,0.0,0.0,0.0,0.0,0.0,0.0,1.0414252808652955,0.0,0.0,0.0,0.0,0.0,0.0,-0.344,0.0
230,0.0,0.0,0.0,0.0,0.0,-0.341794921875,0.0,0.0,0.0,0.0,0.0,0.0,1.0414252808652955,0.0,0.0,0.0,0.0,0.0,0.0,-0.836,0.0
231,0.0,0.0,0.0,0.0,0.0,-0.33187890625,0.0,0.0,0.0,0.0,0.0,0.0,1.0414252808652955,0.0,0.0,0.0,0.0,0.0,0.0,-0.252,0.0
232,0.0,0.0,0.0,0.0,0.0,-0.3201044921875,0.0,0.0,0.0,0.0,0.0,0.0,1.0414252808652955,0.0,0.0,0.0,0.0,0.0,0.0,0.032,0.0
233,0.0,0.0,0.0,0.0,0.0,-0.3083427734375,0.0,0.0,0.0,0.0,0.0,0.0,1.0414252808652955,0.0,0.0,0.0,0.0,0.0,0.0,-0.668,0.0
234,0.0,0.0,0.0,0.0,0.0,-0.2976005859375,0.0,0.0,0.0,0.0,0.0,0.0,1.0414252808652955,0.0,0.0,0.0,0.0,0.0,0.0,-0.356,0.0
235,0.0,0.0,0.0,0.0,0.0,-0.2843798828125,0.0,0.0,0.0,0.0,0.0,0.0,1.0414252808652955,0.0,0.0,0.0,0.0,0.0,0.0,-0.24,0.0
236,0.0,0.0,0.0,0.0,0.0,-0.271998046875,0.0,0.0,0.0,0.0,0.0,0.0,1.0414252808652955,0.0,0.0,0.0,0.0,0.0,0.0,-0.584,0.0
237,0.0,0.0,0.0,0.0,0.0,-0.2610625,0.0,0.0,0.0,0.0,0.0,0.0,1.0414252808652955,0.0,0.0,0.0,0.0,0.0,0.0,-0.364,0.0
238,0.0,0.0,0.0,0.0,0.0,-0.2480478515625,0.0,0.0,0.0,0.0,0.0,0.0,1.0414252808652955,0.0,0.0,0.0,0.0,0.0,0.0,-0.492,0.0
239,0.0,0.0,0.0,0.0,0.0,-0.235046875,0.0,0.0,0.0,0.0,0.0,0.0,1.0414252808652955,0.0,0.0,0.0,0.0,0.0,0.0,-0.592,0.0
240,0.0,0.0,0.0,0.0,0.0,-0.223078125,0.0,0.0,0.0,0.0,0.0,0.0,1.0414252808652955,0.0,0.0,0.0,0.0,0.0,0.0,-0.524,0.0
241,0.0,0.0,0.0,0.0,0.0,-0.2111103515625,0.0,0.0,0.0,0.0,0.0,0.0,1.0414252808652955,0.0,0.0,0.0,0.0,0.0,0.0,-0.664,0.0
242,0.0,0.0,0.0,0.0,0.0,-0.1989345703125,0.0,0.0,0.0,0.0,0.0,0.0,1.0414252808652955,0.0,0.0,0.0,0.0,0.0,0.0,-0.396,0.0
243,0.0,0.0,0.0,0.0,0.0,-0.1867724609375,0.0,0.0,0.0,0.0,0.0,0.0,1.0414252808652955,0.0,0.0,0.0,0.0,0.0,0.0,-0.448,0.0
244,0.0,0.0,0.0,0.0,0.0,-0.175423828125,0.0,0.0,0.0,0.0,0.0,0.0,1.0414252808652955,0.0,0.0,0.0,0.0,0.0,0.0,-0.856,0.0
245,0.0,0.0,0.0,0.0,0.0,-0.1642822265625,0.0,0.0,0.0,0.0,0.0,0.0,1.0414252808652955,0.0,0.0,0.0,0.0,0.0,0.0,-0.708,0.0
246,0.0,0.0,0.0,0.0,0.0,-0.1523134765625,0.0,0.0,0.0,0.0,0.0,0.0,1.0414252808652955,0.0,0.0,0.0,0.0,0.0,0.0,-0.696,0.0
247,0.0,0.0,0.0,0.0,0.0,-0.14159765625,0.0,0.0,0.0,0.0,0.0,0.0,1.0414252808652955,0.0,0.0,0.0,0.0,0.0,0.0,-0.636,0.0
248,0.0,0.0,0.0,0.0,0.0,-0.13128125,0.0,0.0,0.0,0.0,0.0,0.0,1.0414252808652955,0.0,0.0,0.0,0.0,0.0,0.0,-0.584,0.0
249,0.0,0.0,0.0,0.0,0.0,-0.120759765625,0.0,0.0,0.0,0.0,0.0,0.0,1.0414252808652955,0.0,0.0,0.0,0.0,0.0,0.0,-0.608,0.0
250,0.0,0.0,0.0,0.0,0.0,-0.1102236328125,0.0,0.0,0.0,0.0,0.0,0.0,1.0414252808652955,0.0,0.0,0.0,0.0,0.0,0.0,-0.52,0.0
251,0.0,0.0,0.0,0.0,0.0,-0.0999208984375,0.0,0.0,0.0,0.0,0.0,0.0,1.0414252808652955,0.0,0.0,0.0,0.0,0.0,0.0,-0.544,0.0
252,0.0,0.0,0.0,0.0,0.0,-0.090224609375,0.0,0.0,0.0,0.0,0.0,0.0,1.0414252808652955,0.0,0.0,0.0,0.0,0.0,0.0,-0.876,0.0
253,0.0,0.0,0.0,0.0,0.0,-0.0811484375,0.0,0.0,0.0,0.0,0.0,0.0,1.0414252808652955,0.0,0.0,0.0,0.0,0.0,0.0,-0.8,0.0
254,0.0,0.0,0.0,0.0,0.0,-0.0712587890625,0.0,0.0,0.0,0.0,0.0,0.0,1.0414252808652955,0.0,0.0,0.0,0.0,0.0,0.0,-0.592,0.0
255,0.0,0.0,0.0,0.0,0.0,-0.0615625,0.0,0.0,0.0,0.0,0.0,0.0,1.0414252808652955,0.0,0.0,0.0,0.0,0.0,0.0,-0.5,0.0
256,0.0,0.0,0.0,0.0,0.0,-0.0520859375,0.0,0.0,0.0,0.0,0.0,0.0,1.0414252808652955,0.0,0.0,0.0,0.0,0.0,0.0,-0.48,0.0
257,0.0,0.0,0.0,0.0,0.0,-0.042802734375,0.0,0.0,0.0,0.0,0.0,0.0,1.0414252808652955,0.0,0.0,0.0,0.0,0.0,0.0,-0.752,0.0
258,0.0,0.0,0.0,0.0,0.0,-0.0337392578125,0.0,0.0,0.0,0.0,0.0,0.0,1.0414252808652955,0.0,0.0,0.0,0.0,0.0,0.0,-0.532,0.0
259,0.0,0.0,0.0,0.0,0.0,-0.02404296875,0.0,0.0,0.0,0.0,0.0,0.0,1.0414252808652955,0.0,0.0,0.0,0.0,0.0,0.0,-0.344,0.0
260,0.0,0.0,0.0,0.0,0.0,-0.01456640625,0.0,0.0,0.0,0.0,0.0,0.0,1.0414252808652955,0.0,0.0,0.0,0.0,0.0,0.0,-0.452,0.0
261,0.0,0.0,0.0,0.0,0.0,-0.00508984375,0.0,0.0,0.0,0.0,0.0,0.0,1.0414252808652955,0.0,0.0,0.0,0.0,0.0,0.0,-0.544,0.0
262,0.0,0.0,0.0,0.0,0.0,0.0043984375,0.0,0.0,0.0,0.0,0.0,0.0,1.0414252808652955,0.0,0.0,0.0,0.0,0.0,0.0,-0.748,0.0
263,0.0,0.0,0.0,0.0,0.0,0.01408203125,0.0,0.0,0.0,0.0,0.0,0.0,1.0414252808652955,0.0,0.0,0.0,0.0,0.0,0.0,-0.592,0.0
264,0.0,0.0,0.0,0.0,0.0,0.024177734375,0.0,0.0,0.0,0.0,0.0,0.0,1.0414252808652955,0.0,0.0,0.0,0.0,0.0,0.0,-0.316,0.0
265,0.0,0.0,0.0,0.0,0.0,0.0342744140625,0.0,0.0,0.0,0.0,0.0,0.0,1.0414252808652955,0.0,0.0,0.0,0.0,0.0,0.0,-0.48,0.0
266,0.0,0.0,0.0,0.0,0.0,0.0439580078125,0.0,0.0,0.0,0.0,0.0,0.0,1.0414252808652955,0.0,0.0,0.0,0.0,0.0,0.0,-0.52,0.0
267,0.0,0.0,0.0,0.0,0.0,0.054466796875,0.0,0.0,0.0,0.0,0.0,0.0,1.0414252808652955,0.0,0.0,0.0,0.0,0.0,0.0,-0.42,0.0
268,0.0,0.0,0.0,0.0,0.0,0.06518359375,0.0,0.0,0.0,0.0,0.0,0.0,1.0414252808652955,0.0,0.0,0.0,0.0,0.0,0.0,-0.44,0.0
269,0.0,0.0,0.0,0.0,0.0,0.075486328125,0.0,0.0,0.0,0.0,0.0,0.0,1.0414252808652955,0.0,0.0,0.0,0.0,0.0,0.0,-0.408,0.0
270,0.0,0.0,0.0,0.0,0.0,0.0859951171875,0.0,0.0,0.0,0.0,0.0,0.0,1.0414252808652955,0.0,0.0,0.0,0.0,0.0,0.0,-0.716,0.0
271,0.0,0.0,0.0,0.0,0.0,0.096298828125,0.0,0.0,0.0,0.0,0.0,0.0,1.0414252808652955,0.0,0.0,0.0,0.0,0.0,0.0,-0.644,0.0
272,0.0,0.0,0.0,0.0,0.0,0.10762109375,0.0,0.0,0.0,0.0,0.0,0.0,1.0414252808652955,0.0,0.0,0.0,0.0,0.0,0.0,-0.364,0.0
273,0.0,0.0,0.0,0.0,0.0,0.11895703125,0.0,0.0,0.0,0.0,0.0,0.0,1.0414252808652955,0.0,0.0,0.0,0.0,0.0,0.0,-0.532,0.0
274,0.0,0.0,0.0,0.0,0.0,0.1292470703125,0.0,0.0,0.0,0.0,0.0,0.0,1.0414252808652955,0.0,0.0,0.0,0.0,0.0,0.0,-0.592,0.0
275,0.0,0.0,0.0,0.0,0.0,0.140169921875,0.0,0.0,0.0,0.0,0.0,0.0,1.0414252808652955,0.0,0.0,0.0,0.0,0.0,0.0,-0.42,0.0
276,0.0,0.0,0.0,0.0,0.0,0.1514931640625,0.0,0.0,0.0,0.0,0.0,0.0,1.0414252808652955,0.0,0.0,0.0,0.0,0.0,0.0,-0.436,0.0
277,0.0,0.0,0.0,0.0,0.0,0.16240234375,0.0,0.0,0.0,0.0,0.0,0.0,1.0414252808652955,0.0,0.0,0.0,0.0,0.0,0.0,-0.472,0.0
278,0.0,0.0,0.0,0.0,0.0,0.1733251953125,0.0,0.0,0.0,0.0,0.0,0.0,1.0414252808652955,0.0,0.0,0.0,0.0,0.0,0.0,-0.688,0.0
279,0.0,0.0,0.0,0.0,0.0,0.1842353515625,0.0,0.0,0.0,0.0,0.0,0.0,1.0414252808652955,0.0,0.0,0.0,0.0,0.0,0.0,-0.708,0.0
280,0.0,0.0,0.0,0.0,0.0,0.1949384765625,0.0,0.0,0.0,0.0,0.0,0.0,1.0414252808652955,0.0,0.0,0.0,0.0,0.0,0.0,-0.416,0.0
281,0.0,0.0,0.0,0.0,0.0,0.2064677734375,0.0,0.0,0.0,0.0,0.0,0.0,1.0414252808652955,0.0,0.0,0.0,0.0,0.0,0.0,-0.468,0.0
282,0.0,0.0,0.0,0.0,0.0,0.2167705078125,0.0,0.0,0.0,0.0,0.0,0.0,1.0414252808652955,0.0,0.0,0.0,0.0,0.0,0.0,-0.592,0.0
283,0.0,0.0,0.0,0.0,0.0,0.2272666015625,0.0,0.0,0.0,0.0,0.0,0.0,1.0414252808652955,0.0,0.0,0.0,0.0,0.0,0.0,-0.388,0.0
284,0.0,0.0,0.0,0.0,0.0,0.2381767578125,0.0,0.0,0.0,0.0,0.0,0.0,1.0414252808652955,0.0,0.0,0.0,0.0,0.0,0.0,-0.384,0.0
285,0.0,0.0,0.0,0.0,0.0,0.248673828125,0.0,0.0,0.0,0.0,0.0,0.0,1.0414252808652955,0.0,0.0,0.0,0.0,0.0,0.0,-0.524,0.0
286,0.0,0.0,0.0,0.0,0.0,0.2589638671875,0.0,0.0,0.0,0.0,0.0,0.0,1.0414252808652955,0.0,0.0,0.0,0.0,0.0,0.0,-0.592,0.0
287,0.0,0.0,0.0,0.0,0.0,0.2692666015625,0.0,0.0,0.0,0.0,0.0,0.0,1.0414252808652955,0.0,0.0,0.0,0.0,0.0,0.0,-0.648,0.0
288,0.0,0.0,0.0,0.0,0.0,0.279556640625,0.0,0.0,0.0,0.0,0.0,0.0,1.0414252808652955,0.0,0.0,0.0,0.0,0.0,0.0,-0.448,0.0
289,0.0,0.0,0.0,0.0,0.0,0.290052734375,0.0,0.0,0.0,0.0,0.0,0.0,1.0414252808652955,0.0,0.0,0.0,0.0,0.0,0.0,-0.244,0.0
290,0.0,0.0,0.0,0.0,0.0,0.3005498046875,0.0,0.0,0.0,0.0,0.0,0.0,1.0414252808652955,0.0,0.0,0.0,0.0,0.0,0.0,-0.576,0.0
291,0.0,0.0,0.0,0.0,0.0,0.3102197265625,0.0,0.0,0.0,0.0,0.0,0.0,1.0414252808652955,0.0,0.0,0.0,0.0,0.0,0.0,-0.416,0.0
292,0.0,0.0,0.0,0.0,0.0,0.320509765625,0.0,0.0,0.0,0.0,0.0,0.0,1.0414252808652955,0.0,0.0,0.0,0.0,0.0,0.0,-0.332,0.0
293,0.0,0.0,0.0,0.0,0.0,0.3310068359375,0.0,0.0,0.0,0.0,0.0,0.0,1.0414252808652955,0.0,0.0,0.0,0.0,0.0,0.0,-0.4,0.0
294,0.0,0.0,0.0,0.0,0.0,0.34108984375,0.0,0.0,0.0,0.0,0.0,0.0,1.0414252808652955,0.0,0.0,0.0,0.0,0.0,0.0,-0.504,0.0
295,0.0,0.0,0.0,0.0,0.0,0.350966796875,0.0,0.0,0.0,0.0,0.0,0.0,1.0414252808652955,0.0,0.0,0.0,0.0,0.0,0.0,-0.552,0.0
296,0.0,0.0,0.0,0.0,0.0,0.361037109375,0.0,0.0,0.0,0.0,0.0,0.0,1.0414252808652955,0.0,0.0,0.0,0.0,0.0,0.0,-0.584,0.0
297,0.0,0.0,0.0,0.0,0.0,0.3713271484375,0.0,0.0,0.0,0.0,0.0,0.0,1.0414252808652955,0.0,0.0,0.0,0.0,0.0,0.0,-0.276,0.0
298,0.0,0.0,0.0,0.0,0.0,0.3820302734375,0.0,0.0,0.0,0.0,0.0,0.0,1.0414252808652955,0.0,0.0,0.0,0.0,0.0,0.0,-0.332,0.0
299,0.0,0.0,0.0,0.0,0.0,0.3921142578125,0.0,0.0,0.0,0.0,0.0,0.0,1.0414252808652955,0.0,0.0,0.0,0.0,0.0,0.0,-0.468,0.0
300,0.0,0.0,0.0,0.0,0.0,0.4019775390625,0.0,0.0,0.0,0.0,0.0,0.0,1.0414252808652955,0.0,0.0,0.0,0.0,0.0,0.0,-0.332,0.0
301,0.0,0.0,0.0,0.0,0.0,0.412474609375,0.0,0.0,0.0,0.0,0.0,0.0,1.0414252808652955,0.0,0.0,0.0,0.0,0.0,0.0,-0.252,0.0
302,0.0,0.0,0.0,0.0,0.0,0.42337109375,0.0,0.0,0.0,0.0,0.0,0.0,1.0414252808652955,0.0,0.0,0.0,0.0,0.0,0.0,-0.436,0.0
303,0.0,0.0,0.0,0.0,0.0,0.433455078125,0.0,0.0,0.0,0.0,0.0,0.0,1.0414252808652955,0.0,0.0,0.0,0.0,0.0,0.0,-0.552,0.0
304,0.0,0.0,0.0,0.0,0.0,0.4437451171875,0.0,0.0,0.0,0.0,0.0,0.0,1.0414252808652955,0.0,0.0,0.0,0.0,0.0,0.0,-0.512,0.0
305,0.0,0.0,0.0,0.0,0.0,0.454435546875,0.0,0.0,0.0,0.0,0.0,0.0,1.0414252808652955,0.0,0.0,0.0,0.0,0.0,0.0,-0.292,0.0
306,0.0,0.0,0.0,0.0,0.0,0.46533203125,0.0,0.0,0.0,0.0,0.0,0.0,1.0414252808652955,0.0,0.0,0.0,0.0,0.0,0.0,-0.324,0.0
307,0.0,0.0,0.0,0.0,0.0,0.475828125,0.0,0.0,0.0,0.0,0.0,0.0,1.0414252808652955,0.0,0.0,0.0,0.0,0.0,0.0,-0.364,0.0
308,0.0,0.0,0.0,0.0,0.0,0.4858994140625,0.0,0.0,0.0,0.0,0.0,0.0,1.0414252808652955,0.0,0.0,0.0,0.0,0.0,0.0,-0.344,0.0
309,0.0,0.0,0.0,0.0,0.0,0.4963828125,0.0,0.0,0.0,0.0,0.0,0.0,1.0414252808652955,0.0,0.0,0.0,0.0,0.0,0.0,-0.24,0.0
310,0.0,0.0,0.0,0.0,0.0,0.5074990234375,0.0,0.0,0.0,0.0,0.0,0.0,1.0414252808652955,0.0,0.0,0.0,0.0,0.0,0.0,-0.264,0.0
311,0.0,0.0,0.0,0.0,0.0,0.518189453125,0.0,0.0,0.0,0.0,0.0,0.0,1.0414252808652955,0.0,0.0,0.0,0.0,0.0,0.0,-0.52,0.0
312,0.0,0.0,0.0,0.0,0.0,0.528259765625,0.0,0.0,0.0,0.0,0.0,0.0,1.0414252808652955,0.0,0.0,0.0,0.0,0.0,0.0,-0.468,0.0
313,0.0,0.0,0.0,0.0,0.0,0.538537109375,0.0,0.0,0.0,0.0,0.0,0.0,1.0414252808652955,0.0,0.0,0.0,0.0,0.0,0.0,-0.272,0.0
314,0.0,0.0,0.0,0.0,0.0,0.5498466796875,0.0,0.0,0.0,0.0,0.0,0.0,1.0414252808652955,0.0,0.0,0.0,0.0,0.0,0.0,-0.16,0.0
315,0.0,0.0,0.0,0.0,0.0,0.560537109375,0.0,0.0,0.0,0.0,0.0,0.0,1.0414252808652955,0.0,0.0,0.0,0.0,0.0,0.0,-0.348,0.0
316,0.0,0.0,0.0,0.0,0.0,0.57062109375,0.0,0.0,0.0,0.0,0.0,0.0,1.0414252808652955,0.0,0.0,0.0,0.0,0.0,0.0,-0.232,0.0
317,0.0,0.0,0.0,0.0,0.0,0.5808974609375,0.0,0.0,0.0,0.0,0.0,0.0,1.0414252808652955,0.0,0.0,0.0,0.0,0.0,0.0,-0.14,0.0
318,0.0,0.0,0.0,0.0,0.0,0.5920009765625,0.0,0.0,0.0,0.0,0.0,0.0,1.0414252808652955,0.0,0.0,0.0,0.0,0.0,0.0,-0.212,0.0
319,0.0,0.0,0.0,0.0,0.0,0.602884765625,0.0,0.0,0.0,0.0,0.0,0.0,1.0414252808652955,0.0,0.0,0.0,0.0,0.0,0.0,-0.448,0.0
320,0.0,0.0,0.0,0.0,0.0,0.61276171875,0.0,0.0,0.0,0.0,0.0,0.0,1.0414252808652955,0.0,0.0,0.0,0.0,0.0,0.0,-0.388,0.0
321,0.0,0.0,0.0,0.0,0.0,0.6230390625,0.0,0.0,0.0,0.0,0.0,0.0,1.0414252808652955,0.0,0.0,0.0,0.0,0.0,0.0,-0.212,0.0
322,0.0,0.0,0.0,0.0,0.0,0.633935546875,0.0,0.0,0.0,0.0,0.0,0.0,1.0414252808652955,0.0,0.0,0.0,0.0,0.0,0.0,-0.088,0.0
323,0.0,0.0,0.0,0.0,0.0,0.644806640625,0.0,0.0,0.0,0.0,0.0,0.0,1.0414252808652955,0.0,0.0,0.0,0.0,0.0,0.0,-0.276,0.0
324,0.0,0.0,0.0,0.0,0.0,0.6548779296875,0.0,0.0,0.0,0.0,0.0,0.0,1.0414252808652955,0.0,0.0,0.0,0.0,0.0,0.0,-0.224,0.0
325,0.0,0.0,0.0,0.0,0.0,0.66475390625,0.0,0.0,0.0,0.0,0.0,0.0,1.0414252808652955,0.0,0.0,0.0,0.0,0.0,0.0,-0.14,0.0
326,0.0,0.0,0.0,0.0,0.0,0.675431640625,0.0,0.0,0.0,0.0,0.0,0.0,1.0414252808652955,0.0,0.0,0.0,0.0,0.0,0.0,-0.064,0.0
327,0.0,0.0,0.0,0.0,0.0,0.68653515625,0.0,0.0,0.0,0.0,0.0,0.0,1.0414252808652955,0.0,0.0,0.0,0.0,0.0,0.0,-0.272,0.0
328,0.0,0.0,0.0,0.0,0.0,0.69660546875,0.0,0.0,0.0,0.0,0.0,0.0,1.0414252808652955,0.0,0.0,0.0,0.0,0.0,0.0,-0.408,0.0
329,0.0,0.0,0.0,0.0,0.0,0.7064697265625,0.0,0.0,0.0,0.0,0.0,0.0,1.0414252808652955,0.0,0.0,0.0,0.0,0.0,0.0,-0.252,0.0
330,0.0,0.0,0.0,0.0,0.0,0.716953125,0.0,0.0,0.0,0.0,0.0,0.0,1.0414252808652955,0.0,0.0,0.0,0.0,0.0,0.0,0.056,0.0
331,0.0,0.0,0.0,0.0,0.0,0.72825,0.0,0.0,0.0,0.0,0.0,0.0,1.0414252808652955,0.0,0.0,0.0,0.0,0.0,0.0,-0.16,0.0
332,0.0,0.0,0.0,0.0,0.0,0.73852734375,0.0,0.0,0.0,0.0,0.0,0.0,1.0414252808652955,0.0,0.0,0.0,0.0,0.0,0.0,-0.224,0.0
333,0.0,0.0,0.0,0.0,0.0,0.7481845703125,0.0,0.0,0.0,0.0,0.0,0.0,1.0414252808652955,0.0,0.0,0.0,0.0,0.0,0.0,-0.108,0.0
334,0.0,0.0,0.0,0.0,0.0,0.7584619140625,0.0,0.0,0.0,0.0,0.0,0.0,1.0414252808652955,0.0,0.0,0.0,0.0,0.0,0.0,0.052,0.0
335,0.0,0.0,0.0,0.0,0.0,0.769552734375,0.0,0.0,0.0,0.0,0.0,0.0,1.0414252808652955,0.0,0.0,0.0,0.0,0.0,0.0,-0.148,0.0
336,0.0,0.0,0.0,0.0,0.0,0.7800361328125,0.0,0.0,0.0,0.0,0.0,0.0,1.0414252808652955,0.0,0.0,0.0,0.0,0.0,0.0,-0.348,0.0
337,0.0,0.0,0.0,0.0,0.0,0.789900390625,0.0,0.0,0.0,0.0,0.0,0.0,1.0414252808652955,0.0,0.0,0.0,0.0,0.0,0.0,-0.224,0.0
338,0.0,0.0,0.0,0.0,0.0,0.799970703125,0.0,0.0,0.0,0.0,0.0,0.0,1.0414252808652955,0.0,0.0,0.0,0.0,0.0,0.0,0.156,0.0
339,0.0,0.0,0.0,0.0,0.0,0.811267578125,0.0,0.0,0.0,0.0,0.0,0.0,1.0414252808652955,0.0,0.0,0.0,0.0,0.0,0.0,0.052,0.0
340,0.0,0.0,0.0,0.0,0.0,0.822138671875,0.0,0.0,0.0,0.0,0.0,0.0,1.0414252808652955,0.0,0.0,0.0,0.0,0.0,0.0,-0.188,0.0
341,0.0,0.0,0.0,0.0,0.0,0.8317958984375,0.0,0.0,0.0,0.0,0.0,0.0,1.0414252808652955,0.0,0.0,0.0,0.0,0.0,0.0,-0.088,0.0
342,0.0,0.0,0.0,0.0,0.0,0.84166015625,0.0,0.0,0.0,0.0,0.0,0.0,1.0414252808652955,0.0,0.0,0.0,0.0,0.0,0.0,0.192,0.0
343,0.0,0.0,0.0,0.0,0.0,0.8527509765625,0.0,0.0,0.0,0.0,0.0,0.0,1.0414252808652955,0.0,0.0,0.0,0.0,0.0,0.0,0.096,0.0
344,0.0,0.0,0.0,0.0,0.0,0.8640478515625,0.0,0.0,0.0,0.0,0.0,0.0,1.0414252808652955,0.0,0.0,0.0,0.0,0.0,0.0,-0.224,0.0
345,0.0,0.0,0.0,0.0,0.0,0.873912109375,0.0,0.0,0.0,0.0,0.0,0.0,1.0414252808652955,0.0,0.0,0.0,0.0,0.0,0.0,-0.316,0.0
346,0.0,0.0,0.0,0.0,0.0,0.8835693359375,0.0,0.0,0.0,0.0,0.0,0.0,1.0414252808652955,0.0,0.0,0.0,0.0,0.0,0.0,0.16,0.0
347,0.0,0.0,0.0,0.0,0.0,0.8946591796875,0.0,0.0,0.0,0.0,0.0,0.0,1.0414252808652955,0.0,0.0,0.0,0.0,0.0,0.0,0.312,0.0
348,0.0,0.0,0.0,0.0,0.0,0.9061630859375,0.0,0.0,0.0,0.0,0.0,0.0,1.0414252808652955,0.0,0.0,0.0,0.0,0.0,0.0,-0.068,0.0
349,0.0,0.0,0.0,0.0,0.0,0.9162333984375,0.0,0.0,0.0,0.0,0.0,0.0,1.0414252808652955,0.0,0.0,0.0,0.0,0.0,0.0,-0.172,0.0
350,0.0,0.0,0.0,0.0,0.0,0.9254775390625,0.0,0.0,0.0,0.0,0.0,0.0,1.0414252808652955,0.0,0.0,0.0,0.0,0.0,0.0,0.24,0.0
351,0.0,0.0,0.0,0.0,0.0,0.9363623046875,0.0,0.0,0.0,0.0,0.0,0.0,1.0414252808652955,0.0,0.0,0.0,0.0,0.0,0.0,0.348,0.0
352,0.0,0.0,0.0,0.0,0.0,0.9478525390625,0.0,0.0,0.0,0.0,0.0,0.0,1.0414252808652955,0.0,0.0,0.0,0.0,0.0,0.0,-0.084,0.0
353,0.0,0.0,0.0,0.0,0.0,0.9583232421875,0.0,0.0,0.0,0.0,0.0,0.0,1.0414252808652955,0.0,0.0,0.0,0.0,0.0,0.0,-0.348,0.0
354,0.0,0.0,0.0,0.0,0.0,0.9675673828125,0.0,0.0,0.0,0.0,0.0,0.0,1.0414252808652955,0.0,0.0,0.0,0.0,0.0,0.0,0.068,0.0
355,0.0,0.0,0.0,0.0,0.0,0.9780517578125,0.0,0.0,0.0,0.0,0.0,0.0,1.0414252808652955,0.0,0.0,0.0,0.0,0.0,0.0,0.524,0.0
356,0.0,0.0,0.0,0.0,0.0,0.98976171875,0.0,0.0,0.0,0.0,0.0,0.0,1.0414252808652955,0.0,0.0,0.0,0.0,0.0,0.0,0.14,0.0
357,0.0,0.0,0.0,0.0,0.0,1.0006455078125,0.0,0.0,0.0,0.0,0.0,0.0,1.0414252808652955,0.0,0.0,0.0,0.0,0.0,0.0,-0.232,0.0
358,0.0,0.0,0.0,0.0,0.0,1.0096826171875,0.0,0.0,0.0,0.0,0.0,0.0,-0.6018559914595819,0.0,0.0,0.0,0.0,0.0,0.0,0.088,0.0
359,0.0,0.0,0.0,0.0,0.0,1.019740234375,0.0,0.0,0.0,0.0,0.0,0.0,-0.6018559914595819,0.0,0.0,0.0,0.0,0.0,0.0,0.596,0.0
360,0.0,0.0,0.0,0.0,0.0,1.031451171875,0.0,0.0,0.0,0.0,0.0,0.0,-0.6018559914595819,0.0,0.0,0.0,0.0,0.0,0.0,0.136,0.0
361,0.0,0.0,0.0,0.0,0.0,1.0406953125,0.0,0.0,0.0,0.0,0.0,0.0,-0.6018559914595819,0.0,0.0,0.0,0.0,0.0,0.0,-0.976,0.0
362,0.0,0.0,0.0,0.0,0.0,1.0439873046875,0.0,0.0,0.0,0.0,0.0,0.0,-0.6018559914595819,0.0,0.0,0.0,0.0,0.0,0.0,-1.06,0.0
363,0.0,0.0,0.0,0.0,0.0,1.04378125,0.0,0.0,0.0,0.0,0.0,0.0,-0.6018559914595819,0.0,0.0,0.0,0.0,0.0,0.0,-0.032,0.0
364,0.0,0.0,0.0,0.0,0.0,1.04357421875,0.0,0.0,0.0,0.0,0.0,0.0,-0.6018559914595819,0.0,0.0,0.0,0.0,0.0,0.0,-0.276,0.0
365,0.0,0.0,0.0,0.0,0.0,1.0402822265625,0.0,0.0,0.0,0.0,0.0,0.0,-0.6018559914595819,0.0,0.0,0.0,0.0,0.0,0.0,-0.864,0.0
366,0.0,0.0,0.0,0.0,0.0,1.0330908203125,0.0,0.0,0.0,0.0,0.0,0.0,-0.6018559914595819,0.0,0.0,0.0,0.0,0.0,0.0,-0.7,0.0
367,0.0,0.0,0.0,0.0,0.0,1.0224130859375,0.0,0.0,0.0,0.0,0.0,0.0,-0.6018559914595819,0.0,0.0,0.0,0.0,0.0,0.0,-0.324,0.0
368,0.0,0.0,0.0,0.0,0.0,1.010302734375,0.0,0.0,0.0,0.0,0.0,0.0,-0.6018559914595819,0.0,0.0,0.0,0.0,0.0,0.0,-0.024,0.0
369,0.0,0.0,0.0,0.0,0.0,0.9977666015625,0.0,0.0,0.0,0.0,0.0,0.0,-0.6018559914595819,0.0,0.0,0.0,0.0,0.0,0.0,-0.344,0.0
370,0.0,0.0,0.0,0.0,0.0,0.98236328125,0.0,0.0,0.0,0.0,0.0,0.0,-0.6018559914595819,0.0,0.0,0.0,0.0,0.0,0.0,-0.78,0.0
371,0.0,0.0,0.0,0.0,0.0,0.963048828125,0.0,0.0,0.0,0.0,0.0,0.0,-0.6018559914595819,0.0,0.0,0.0,0.0,0.0,0.0,-0.136,0.0
372,0.0,0.0,0.0,0.0,0.0,0.9453994140625,0.0,0.0,0.0,0.0,0.0,0.0,-0.6018559914595819,0.0,0.0,0.0,0.0,0.0,0.0,0.4,0.0
373,0.0,0.0,0.0,0.0,0.0,0.928150390625,0.0,0.0,0.0,0.0,0.0,0.0,-0.6018559914595819,0.0,0.0,0.0,0.0,0.0,0.0,-0.784,0.0
374,0.0,0.0,0.0,0.0,0.0,0.9071962890625,0.0,0.0,0.0,0.0,0.0,0.0,-0.6018559914595819,0.0,0.0,0.0,0.0,0.0,0.0,-0.316,0.0
375,0.0,0.0,0.0,0.0,0.0,0.8870546875,0.0,0.0,0.0,0.0,0.0,0.0,-0.6018559914595819,0.0,0.0,0.0,0.0,0.0,0.0,0.296,0.0
376,0.0,0.0,0.0,0.0,0.0,0.8679599609375,0.0,0.0,0.0,0.0,0.0,0.0,-0.6018559914595819,0.0,0.0,0.0,0.0,0.0,0.0,-0.012,0.0
377,0.0,0.0,0.0,0.0,0.0,0.8494716796875,0.0,0.0,0.0,0.0,0.0,0.0,-0.6018559914595819,0.0,0.0,0.0,0.0,0.0,0.0,-0.064,0.0
378,0.0,0.0,0.0,0.0,0.0,0.8313828125,0.0,0.0,0.0,0.0,0.0,0.0,-0.6018559914595819,0.0,0.0,0.0,0.0,0.0,0.0,-0.26,0.0
379,0.0,0.0,0.0,0.0,0.0,0.8131142578125,0.0,0.0,0.0,0.0,0.0,0.0,-0.6018559914595819,0.0,0.0,0.0,0.0,0.0,0.0,0.264,0.0
380,0.0,0.0,0.0,0.0,0.0,0.7966787109375,0.0,0.0,0.0,0.0,0.0,0.0,-0.6018559914595819,0.0,0.0,0.0,0.0,0.0,0.0,0.22,0.0
381,0.0,0.0,0.0,0.0,0.0,0.7818828125,0.0,0.0,0.0,0.0,0.0,0.0,-0.6018559914595819,0.0,0.0,0.0,0.0,0.0,0.0,-0.096,0.0
382,0.0,0.0,0.0,0.0,0.0,0.7675,0.0,0.0,0.0,0.0,0.0,0.0,-0.6018559914595819,0.0,0.0,0.0,0.0,0.0,0.0,-0.024,0.0
383,0.0,0.0,0.0,0.0,0.0,0.753736328125,0.0,0.0,0.0,0.0,0.0,0.0,-0.6018559914595819,0.0,0.0,0.0,0.0,0.0,0.0,0.232,0.0
384,0.0,0.0,0.0,0.0,0.0,0.7422197265625,0.0,0.0,0.0,0.0,0.0,0.0,-0.6018559914595819,0.0,0.0,0.0,0.0,0.0,0.0,0.24,0.0
385,0.0,0.0,0.0,0.0,0.0,0.7323564453125,0.0,0.0,0.0,0.0,0.0,0.0,-0.6018559914595819,0.0,0.0,0.0,0.0,0.0,0.0,-0.052,0.0
386,0.0,0.0,0.0,0.0,0.0,0.7218857421875,0.0,0.0,0.0,0.0,0.0,0.0,-0.6018559914595819,0.0,0.0,0.0,0.0,0.0,0.0,-0.068,0.0
387,0.0,0.0,0.0,0.0,0.0,0.7126279296875,0.0,0.0,0.0,0.0,0.0,0.0,-0.6018559914595819,0.0,0.0,0.0,0.0,0.0,0.0,0.244,0.0
388,0.0,0.0,0.0,0.0,0.0,0.7050361328125,0.0,0.0,0.0,0.0,0.0,0.0,-0.6018559914595819,0.0,0.0,0.0,0.0,0.0,0.0,0.156,0.0
389,0.0,0.0,0.0,0.0,0.0,0.6984521484375,0.0,0.0,0.0,0.0,0.0,0.0,-0.6018559914595819,0.0,0.0,0.0,0.0,0.0,0.0,-0.18,0.0
390,0.0,0.0,0.0,0.0,0.0,0.6920869140625,0.0,0.0,0.0,0.0,0.0,0.0,-0.6018559914595819,0.0,0.0,0.0,0.0,0.0,0.0,-0.192,0.0
391,0.0,0.0,0.0,0.0,0.0,0.6861220703125,0.0,0.0,0.0,0.0,0.0,0.0,-0.6018559914595819,0.0,0.0,0.0,0.0,0.0,0.0,-0.2,0.0
392,0.0,0.0,0.0,0.0,0.0,0.6801572265625,0.0,0.0,0.0,0.0,0.0,0.0,-0.6018559914595819,0.0,0.0,0.0,0.0,0.0,0.0,-0.2,0.0
393,0.0,0.0,0.0,0.0,0.0,0.674205078125,0.0,0.0,0.0,0.0,0.0,0.0,-0.6018559914595819,0.0,0.0,0.0,0.0,0.0,0.0,-0.276,0.0
394,0.0,0.0,0.0,0.0,0.0,0.6680341796875,0.0,0.0,0.0,0.0,0.0,0.0,-0.6018559914595819,0.0,0.0,0.0,0.0,0.0,0.0,-0.188,0.0
395,0.0,0.0,0.0,0.0,0.0,0.6616689453125,0.0,0.0,0.0,0.0,0.0,0.0,-0.6018559914595819,0.0,0.0,0.0,0.0,0.0,0.0,-0.128,0.0
396,0.0,0.0,0.0,0.0,0.0,0.6554970703125,0.0,0.0,0.0,0.0,0.0,0.0,-0.6018559914595819,0.0,0.0,0.0,0.0,0.0,0.0,-0.232,0.0
397,0.0,0.0,0.0,0.0,0.0,0.64871875,0.0,0.0,0.0,0.0,0.0,0.0,-0.6018559914595819,0.0,0.0,0.0,0.0,0.0,0.0,-0.368,0.0
398,0.0,0.0,0.0,0.0,0.0,0.6411142578125,0.0,0.0,0.0,0.0,0.0,0.0,-0.6018559914595819,0.0,0.0,0.0,0.0,0.0,0.0,-0.336,0.0
399,0.0,0.0,0.0,0.0,0.0,0.6329033203125,0.0,0.0,0.0,0.0,0.0,0.0,-0.6018559914595819,0.0,0.0,0.0,0.0,0.0,0.0,-0.368,0.0
400,0.0,0.0,0.0,0.0,0.0,0.624265625,0.0,0.0,0.0,0.0,0.0,0.0,-0.6018559914595819,0.0,0.0,0.0,0.0,0.0,0.0,-0.468,0.0
401,0.0,0.0,0.0,0.0,0.0,0.6146083984375,0.0,0.0,0.0,0.0,0.0,0.0,-0.6018559914595819,0.0,0.0,0.0,0.0,0.0,0.0,-0.488,0.0
402,0.0,0.0,0.0,0.0,0.0,0.6051572265625,0.0,0.0,0.0,0.0,0.0,0.0,-0.6018559914595819,0.0,0.0,0.0,0.0,0.0,0.0,-0.42,0.0
403,0.0,0.0,0.0,0.0,0.0,0.59507421875,0.0,0.0,0.0,0.0,0.0,0.0,-0.6018559914595819,0.0,0.0,0.0,0.0,0.0,0.0,-0.572,0.0
404,0.0,0.0,0.0,0.0,0.0,0.5841904296875,0.0,0.0,0.0,0.0,0.0,0.0,-0.6018559914595819,0.0,0.0,0.0,0.0,0.0,0.0,-0.48,0.0
405,0.0,0.0,0.0,0.0,0.0,0.5751396484375,0.0,0.0,0.0,0.0,0.0,0.0,-0.6018559914595819,0.0,0.0,0.0,0.0,0.0,0.0,-1.104,0.0
406,0.0,0.0,0.0,0.0,0.0,0.5640361328125,0.0,0.0,0.0,0.0,0.0,0.0,-0.6018559914595819,0.0,0.0,0.0,0.0,0.0,0.0,-1.624,0.0
407,0.0,0.0,0.0,0.0,0.0,0.5518994140625,0.0,0.0,0.0,0.0,0.0,0.0,-0.6018559914595819,0.0,0.0,0.0,0.0,0.0,0.0,-1.176,0.0
408,0.0,0.0,0.0,0.0,0.0,0.5399833984375,0.0,0.0,0.0,0.0,0.0,0.0,-0.6018559914595819,0.0,0.0,0.0,0.0,0.0,0.0,-1.052,0.0
409,0.0,0.0,0.0,0.0,0.0,0.5272265625,0.0,0.0,0.0,0.0,0.0,0.0,-0.6018559914595819,0.0,0.0,0.0,0.0,0.0,0.0,-0.836,0.0
410,0.0,0.0,0.0,0.0,0.0,0.5161240234375,0.0,0.0,0.0,0.0,0.0,0.0,-0.6018559914595819,0.0,0.0,0.0,0.0,0.0,0.0,-0.68,0.0
411,0.0,0.0,0.0,0.0,0.0,0.5056396484375,0.0,0.0,0.0,0.0,0.0,0.0,-0.6018559914595819,0.0,0.0,0.0,0.0,0.0,0.0,-1.3,0.0
412,0.0,0.0,0.0,0.0,0.0,0.4939169921875,0.0,0.0,0.0,0.0,0.0,0.0,-0.6018559914595819,0.0,0.0,0.0,0.0,0.0,0.0,-1.436,0.0
413,0.0,0.0,0.0,0.0,0.0,0.4826064453125,0.0,0.0,0.0,0.0,0.0,0.0,-0.6018559914595819,0.0,0.0,0.0,0.0,0.0,0.0,-1.424,0.0
414,0.0,0.0,0.0,0.0,0.0,0.471296875,0.0,0.0,0.0,0.0,0.0,0.0,-0.6018559914595819,0.0,0.0,0.0,0.0,0.0,0.0,-1.464,0.0
415,0.0,0.0,0.0,0.0,0.0,0.4599873046875,0.0,0.0,0.0,0.0,0.0,0.0,-0.6018559914595819,0.0,0.0,0.0,0.0,0.0,0.0,-1.34,0.0
416,0.0,0.0,0.0,0.0,0.0,0.449296875,0.0,0.0,0.0,0.0,0.0,0.0,-0.6018559914595819,0.0,0.0,0.0,0.0,0.0,0.0,-1.484,0.0
417,0.0,0.0,0.0,0.0,0.0,0.43859375,0.0,0.0,0.0,0.0,0.0,0.0,-0.6018559914595819,0.0,0.0,0.0,0.0,0.0,0.0,-1.652,0.0
418,0.0,0.0,0.0,0.0,0.0,0.4293359375,0.0,0.0,0.0,0.0,0.0,0.0,-0.6018559914595819,0.0,0.0,0.0,0.0,0.0,0.0,-1.88,0.0
419,0.0,0.0,0.0,0.0,0.0,0.4196787109375,0.0,0.0,0.0,0.0,0.0,0.0,-0.6018559914595819,0.0,0.0,0.0,0.0,0.0,0.0,-2.232,0.0
420,0.0,0.0,0.0,0.0,0.0,0.4091826171875,0.0,0.0,0.0,0.0,0.0,0.0,-0.6018559914595819,0.0,0.0,0.0,0.0,0.0,0.0,-1.868,0.0
421,0.0,0.0,0.0,0.0,0.0,0.4001318359375,0.0,0.0,0.0,0.0,0.0,0.0,-0.6018559914595819,0.0,0.0,0.0,0.0,0.0,0.0,-2.056,0.0
422,0.0,0.0,0.0,0.0,0.0,0.3912880859375,0.0,0.0,0.0,0.0,0.0,0.0,-0.6018559914595819,0.0,0.0,0.0,0.0,0.0,0.0,-2.432,0.0
423,0.0,0.0,0.0,0.0,0.0,0.3820302734375,0.0,0.0,0.0,0.0,0.0,0.0,-0.6018559914595819,0.0,0.0,0.0,0.0,0.0,0.0,-2.316,0.0
424,0.0,0.0,0.0,0.0,0.0,0.3735869140625,0.0,0.0,0.0,0.0,0.0,0.0,-0.6018559914595819,0.0,0.0,0.0,0.0,0.0,0.0,-2.568,0.0
425,0.0,0.0,0.0,0.0,0.0,0.364123046875,0.0,0.0,0.0,0.0,0.0,0.0,-0.6018559914595819,0.0,0.0,0.0,0.0,0.0,0.0,-2.792,0.0
426,0.0,0.0,0.0,0.0,0.0,0.355072265625,0.0,0.0,0.0,0.0,0.0,0.0,-0.6018559914595819,0.0,0.0,0.0,0.0,0.0,0.0,-2.544,0.0
427,0.0,0.0,0.0,0.0,0.0,0.34726171875,0.0,0.0,0.0,0.0,0.0,0.0,-0.6018559914595819,0.0,0.0,0.0,0.0,0.0,0.0,-2.928,0.0
428,0.0,0.0,0.0,0.0,0.0,0.3381982421875,0.0,0.0,0.0,0.0,0.0,0.0,-0.6018559914595819,0.0,0.0,0.0,0.0,0.0,0.0,-2.896,0.0
429,0.0,0.0,0.0,0.0,0.0,0.3297666015625,0.0,0.0,0.0,0.0,0.0,0.0,-0.6018559914595819,0.0,0.0,0.0,0.0,0.0,0.0,-2.752,0.0
430,0.0,0.0,0.0,0.0,0.0,0.3211298828125,0.0,0.0,0.0,0.0,0.0,0.0,-0.6018559914595819,0.0,0.0,0.0,0.0,0.0,0.0,-3.212,0.0
431,0.0,0.0,0.0,0.0,0.0,0.3114462890625,0.0,0.0,0.0,0.0,0.0,0.0,-0.6018559914595819,0.0,0.0,0.0,0.0,0.0,0.0,-3.064,0.0
432,0.0,0.0,0.0,0.0,0.0,0.303015625,0.0,0.0,0.0,0.0,0.0,0.0,-0.6018559914595819,0.0,0.0,0.0,0.0,0.0,0.0,-3.176,0.0
433,0.0,0.0,0.0,0.0,0.0,0.29396484375,0.0,0.0,0.0,0.0,0.0,0.0,-0.6018559914595819,0.0,0.0,0.0,0.0,0.0,0.0,-3.424,0.0
434,0.0,0.0,0.0,0.0,0.0,0.2842822265625,0.0,0.0,0.0,0.0,0.0,0.0,-0.6018559914595819,0.0,0.0,0.0,0.0,0.0,0.0,-3.268,0.0
435,0.0,0.0,0.0,0.0,0.0,0.2752314453125,0.0,0.0,0.0,0.0,0.0,0.0,-0.6018559914595819,0.0,0.0,0.0,0.0,0.0,0.0,-3.656,0.0
436,0.0,0.0,0.0,0.0,0.0,0.265767578125,0.0,0.0,0.0,0.0,0.0,0.0,-0.6018559914595819,0.0,0.0,0.0,0.0,0.0,0.0,-3.872,0.0
437,0.0,0.0,0.0,0.0,0.0,0.256291015625,0.0,0.0,0.0,0.0,0.0,0.0,-0.6018559914595819,0.0,0.0,0.0,0.0,0.0,0.0,-3.728,0.0
438,0.0,0.0,0.0,0.0,0.0,0.2468271484375,0.0,0.0,0.0,0.0,0.0,0.0,-0.6018559914595819,0.0,0.0,0.0,0.0,0.0,0.0,-3.696,0.0
439,0.0,0.0,0.0,0.0,0.0,0.2361240234375,0.0,0.0,0.0,0.0,0.0,0.0,-0.6018559914595819,0.0,0.0,0.0,0.0,0.0,0.0,-3.612,0.0
440,0.0,0.0,0.0,0.0,0.0,0.226234375,0.0,0.0,0.0,0.0,0.0,0.0,-0.6018559914595819,0.0,0.0,0.0,0.0,0.0,0.0,-3.644,0.0
441,0.0,0.0,0.0,0.0,0.0,0.2167705078125,0.0,0.0,0.0,0.0,0.0,0.0,-0.6018559914595819,0.0,0.0,0.0,0.0,0.0,0.0,-4.008,0.0
442,0.0,0.0,0.0,0.0,0.0,0.206880859375,0.0,0.0,0.0,0.0,0.0,0.0,-0.6018559914595819,0.0,0.0,0.0,0.0,0.0,0.0,-3.984,0.0
443,0.0,0.0,0.0,0.0,0.0,0.196796875,0.0,0.0,0.0,0.0,0.0,0.0,-0.6018559914595819,0.0,0.0,0.0,0.0,0.0,0.0,-4.216,0.0
444,0.0,0.0,0.0,0.0,0.0,0.1865068359375,0.0,0.0,0.0,0.0,0.0,0.0,-0.6018559914595819,0.0,0.0,0.0,0.0,0.0,0.0,-4.444,0.0
445,0.0,0.0,0.0,0.0,0.0,0.17682421875,0.0,0.0,0.0,0.0,0.0,0.0,-0.6018559914595819,0.0,0.0,0.0,0.0,0.0,0.0,-4.568,0.0
446,0.0,0.0,0.0,0.0,0.0,0.167140625,0.0,0.0,0.0,0.0,0.0,0.0,-0.6018559914595819,0.0,0.0,0.0,0.0,0.0,0.0,-4.612,0.0
447,0.0,0.0,0.0,0.0,0.0,0.157263671875,0.0,0.0,0.0,0.0,0.0,0.0,-0.6018559914595819,0.0,0.0,0.0,0.0,0.0,0.0,-4.608,0.0
448,0.0,0.0,0.0,0.0,0.0,0.1469609375,0.0,0.0,0.0,0.0,0.0,0.0,-0.6018559914595819,0.0,0.0,0.0,0.0,0.0,0.0,-4.756,0.0
449,0.0,0.0,0.0,0.0,0.0,0.1378974609375,0.0,0.0,0.0,0.0,0.0,0.0,-0.6018559914595819,0.0,0.0,0.0,0.0,0.0,0.0,-5.084,0.0
450,0.0,0.0,0.0,0.0,0.0,0.129041015625,0.0,0.0,0.0,0.0,0.0,0.0,-0.6018559914595819,0.0,0.0,0.0,0.0,0.0,0.0,-5.552,0.0
451,0.0,0.0,0.0,0.0,0.0,0.12018359375,0.0,0.0,0.0,0.0,0.0,0.0,-0.6018559914595819,0.0,0.0,0.0,0.0,0.0,0.0,-5.764,0.0
452,0.0,0.0,0.0,0.0,0.0,0.1109140625,0.0,0.0,0.0,0.0,0.0,0.0,-0.6018559914595819,0.0,0.0,0.0,0.0,0.0,0.0,-6.124,0.0
453,0.0,0.0,0.0,0.0,0.0,0.1016435546875,0.0,0.0,0.0,0.0,0.0,0.0,-0.6018559914595819,0.0,0.0,0.0,0.0,0.0,0.0,-6.256,0.0
454,0.0,0.0,0.0,0.0,0.0,0.092787109375,0.0,0.0,0.0,0.0,0.0,0.0,-0.6018559914595819,0.0,0.0,0.0,0.0,0.0,0.0,-6.228,0.0
455,0.0,0.0,0.0,0.0,0.0,0.0837236328125,0.0,0.0,0.0,0.0,0.0,0.0,-0.6018559914595819,0.0,0.0,0.0,0.0,0.0,0.0,-5.96,0.0
456,0.0,0.0,0.0,0.0,0.0,0.07466015625,0.0,0.0,0.0,0.0,0.0,0.0,-0.6018559914595819,0.0,0.0,0.0,0.0,0.0,0.0,-5.804,0.0
457,0.0,0.0,0.0,0.0,0.0,0.06518359375,0.0,0.0,0.0,0.0,0.0,0.0,-0.6018559914595819,0.0,0.0,0.0,0.0,0.0,0.0,-5.916,0.0
458,0.0,0.0,0.0,0.0,0.0,0.0561201171875,0.0,0.0,0.0,0.0,0.0,0.0,-0.6018559914595819,0.0,0.0,0.0,0.0,0.0,0.0,-6.096,0.0
459,0.0,0.0,0.0,0.0,0.0,0.0470556640625,0.0,0.0,0.0,0.0,0.0,0.0,-0.6018559914595819,0.0,0.0,0.0,0.0,0.0,0.0,-6.308,0.0
460,0.0,0.0,0.0,0.0,0.0,0.0379921875,0.0,0.0,0.0,0.0,0.0,0.0,-0.6018559914595819,0.0,0.0,0.0,0.0,0.0,0.0,-6.124,0.0
461,0.0,0.0,0.0,0.0,0.0,0.028296875,0.0,0.0,0.0,0.0,0.0,0.0,-0.6018559914595819,0.0,0.0,0.0,0.0,0.0,0.0,-6.36,0.0
462,0.0,0.0,0.0,0.0,0.0,0.01861328125,0.0,0.0,0.0,0.0,0.0,0.0,-0.6018559914595819,0.0,0.0,0.0,0.0,0.0,0.0,-6.488,0.0
463,0.0,0.0,0.0,0.0,0.0,0.0089296875,0.0,0.0,0.0,0.0,0.0,0.0,-0.6018559914595819,0.0,0.0,0.0,0.0,0.0,0.0,-6.604,0.0
464,0.0,0.0,0.0,0.0,0.0,-0.000751953125,0.0,0.0,0.0,0.0,0.0,0.0,-0.6018559914595819,0.0,0.0,0.0,0.0,0.0,0.0,-6.364,0.0
465,0.0,0.0,0.0,0.0,0.0,-0.01003515625,0.0,0.0,0.0,0.0,0.0,0.0,-0.6018559914595819,0.0,0.0,0.0,0.0,0.0,0.0,-6.416,0.0
466,0.0,0.0,0.0,0.0,0.0,-0.0201318359375,0.0,0.0,0.0,0.0,0.0,0.0,-0.6018559914595819,0.0,0.0,0.0,0.0,0.0,0.0,-6.716,0.0
467,0.0,0.0,0.0,0.0,0.0,-0.030021484375,0.0,0.0,0.0,0.0,0.0,0.0,-0.6018559914595819,0.0,0.0,0.0,0.0,0.0,0.0,-6.988,0.0
468,0.0,0.0,0.0,0.0,0.0,-0.0397177734375,0.0,0.0,0.0,0.0,0.0,0.0,-0.6018559914595819,0.0,0.0,0.0,0.0,0.0,0.0,-7.14,0.0
469,0.0,0.0,0.0,0.0,0.0,-0.0498134765625,0.0,0.0,0.0,0.0,0.0,0.0,-0.6018559914595819,0.0,0.0,0.0,0.0,0.0,0.0,-6.852,0.0
470,0.0,0.0,0.0,0.0,0.0,-0.060736328125,0.0,0.0,0.0,0.0,0.0,0.0,-0.6018559914595819,0.0,0.0,0.0,0.0,0.0,0.0,-6.82,0.0
471,0.0,0.0,0.0,0.0,0.0,-0.070638671875,0.0,0.0,0.0,0.0,0.0,0.0,-0.6018559914595819,0.0,0.0,0.0,0.0,0.0,0.0,-6.656,0.0
472,0.0,0.0,0.0,0.0,0.0,-0.0786826171875,0.0,0.0,0.0,0.0,0.0,0.0,-0.6018559914595819,0.0,0.0,0.0,0.0,0.0,0.0,-6.54,0.0
473,0.0,0.0,0.0,0.0,0.0,-0.0852802734375,0.0,0.0,0.0,0.0,0.0,0.0,-0.6018559914595819,0.0,0.0,0.0,0.0,0.0,0.0,-6.268,0.0
474,0.0,0.0,0.0,0.0,0.0,-0.090224609375,0.0,0.0,0.0,0.0,0.0,0.0,-0.6018559914595819,0.0,0.0,0.0,0.0,0.0,0.0,-6.176,0.0
475,0.0,0.0,0.0,0.0,0.0,-0.0941494140625,0.0,0.0,0.0,0.0,0.0,0.0,-0.6018559914595819,0.0,0.0,0.0,0.0,0.0,0.0,-6.416,0.0
476,0.0,0.0,0.0,0.0,0.0,-0.0974423828125,0.0,0.0,0.0,0.0,0.0,0.0,-0.6018559914595819,0.0,0.0,0.0,0.0,0.0,0.0,-6.3,0.0
477,0.0,0.0,0.0,0.0,0.0,-0.0993017578125,0.0,0.0,0.0,0.0,0.0,0.0,-0.6018559914595819,0.0,0.0,0.0,0.0,0.0,0.0,-6.084,0.0
478,0.0,0.0,0.0,0.0,0.0,-0.1001279296875,0.0,0.0,0.0,0.0,0.0,0.0,-0.6018559914595819,0.0,0.0,0.0,0.0,0.0,0.0,-5.824,0.0
479,0.0,0.0,0.0,0.0,0.0,-0.1001279296875,0.0,0.0,0.0,0.0,0.0,0.0,-0.6018559914595819,0.0,0.0,0.0,0.0,0.0,0.0,-5.668,0.0
480,0.0,0.0,0.0,0.0,0.0,-0.0993017578125,0.0,0.0,0.0,0.0,0.0,0.0,-0.6018559914595819,0.0,0.0,0.0,0.0,0.0,0.0,-5.52,0.0
481,0.0,0.0,0.0,0.0,0.0,-0.0974423828125,0.0,0.0,0.0,0.0,0.0,0.0,-0.6018559914595819,0.0,0.0,0.0,0.0,0.0,0.0,-5.676,0.0
482,0.0,0.0,0.0,0.0,0.0,-0.095169921875,0.0,0.0,0.0,0.0,0.0,0.0,-0.6018559914595819,0.0,0.0,0.0,0.0,0.0,0.0,-5.74,0.0
483,0.0,0.0,0.0,0.0,0.0,-0.0927041015625,0.0,0.0,0.0,0.0,0.0,0.0,-0.6018559914595819,0.0,0.0,0.0,0.0,0.0,0.0,-5.7,0.0
484,0.0,0.0,0.0,0.0,0.0,-0.0898115234375,0.0,0.0,0.0,0.0,0.0,0.0,-0.6018559914595819,0.0,0.0,0.0,0.0,0.0,0.0,-5.596,0.0
485,0.0,0.0,0.0,0.0,0.0,-0.0869326171875,0.0,0.0,0.0,0.0,0.0,0.0,-0.6018559914595819,0.0,0.0,0.0,0.0,0.0,0.0,-5.636,0.0
486,0.0,0.0,0.0,0.0,0.0,-0.0844541015625,0.0,0.0,0.0,0.0,0.0,0.0,-0.6018559914595819,0.0,0.0,0.0,0.0,0.0,0.0,-5.408,0.0
487,0.0,0.0,0.0,0.0,0.0,-0.0815615234375,0.0,0.0,0.0,0.0,0.0,0.0,-0.6018559914595819,0.0,0.0,0.0,0.0,0.0,0.0,-5.284,0.0
488,0.0,0.0,0.0,0.0,0.0,-0.0786826171875,0.0,0.0,0.0,0.0,0.0,0.0,-0.6018559914595819,0.0,0.0,0.0,0.0,0.0,0.0,-5.272,0.0
489,0.0,0.0,0.0,0.0,0.0,-0.0759970703125,0.0,0.0,0.0,0.0,0.0,0.0,-0.6018559914595819,0.0,0.0,0.0,0.0,0.0,0.0,-5.136,0.0
490,0.0,0.0,0.0,0.0,0.0,-0.073724609375,0.0,0.0,0.0,0.0,0.0,0.0,-0.6018559914595819,0.0,0.0,0.0,0.0,0.0,0.0,-4.96,0.0
491,0.0,0.0,0.0,0.0,0.0,-0.071671875,0.0,0.0,0.0,0.0,0.0,0.0,-0.6018559914595819,0.0,0.0,0.0,0.0,0.0,0.0,-4.648,0.0
492,0.0,0.0,0.0,0.0,0.0,-0.0702255859375,0.0,0.0,0.0,0.0,0.0,0.0,-0.6018559914595819,0.0,0.0,0.0,0.0,0.0,0.0,-4.32,0.0
493,0.0,0.0,0.0,0.0,0.0,-0.069193359375,0.0,0.0,0.0,0.0,0.0,0.0,-0.6018559914595819,0.0,0.0,0.0,0.0,0.0,0.0,-3.864,0.0
494,0.0,0.0,0.0,0.0,0.0,-0.0685732421875,0.0,0.0,0.0,0.0,0.0,0.0,-0.6018559914595819,0.0,0.0,0.0,0.0,0.0,0.0,-3.48,0.0
495,0.0,0.0,0.0,0.0,0.0,-0.0685732421875,0.0,0.0,0.0,0.0,0.0,0.0,-0.6018559914595819,0.0,0.0,0.0,0.0,0.0,0.0,-3.18,0.0
496,0.0,0.0,0.0,0.0,0.0,-0.0685732421875,0.0,0.0,0.0,0.0,0.0,0.0,-0.6018559914595819,0.0,0.0,0.0,0.0,0.0,0.0,-2.908,0.0
497,0.0,0.0,0.0,0.0,0.0,-0.0685732421875,0.0,0.0,0.0,0.0,0.0,0.0,-0.6018559914595819,0.0,0.0,0.0,0.0,0.0,0.0,-2.72,0.0
498,0.0,0.0,0.0,0.0,0.0,-0.068986328125,0.0,0.0,0.0,0.0,0.0,0.0,-0.6018559914595819,0.0,0.0,0.0,0.0,0.0,0.0,-2.42,0.0
499,0.0,0.0,0.0,0.0,0.0,-0.0696064453125,0.0,0.0,0.0,0.0,0.0,0.0,-0.6018559914595819,0.0,0.0,0.0,0.0,0.0,0.0,-1.944,0.0
500,0.0,0.0,0.0,0.0,0.0,-0.0702255859375,0.0,0.0,0.0,0.0,0.0,0.0,-0.6018559914595819,0.0,0.0,0.0,0.0,0.0,0.0,-1.416,0.0
501,0.0,0.0,0.0,0.0,0.0,-0.0702255859375,0.0,0.0,0.0,0.0,0.0,0.0,-0.6018559914595819,0.0,0.0,0.0,0.0,0.0,0.0,-1.012,0.0
502,0.0,0.0,0.0,0.0,0.0,-0.070638671875,0.0,0.0,0.0,0.0,0.0,0.0,-0.6018559914595819,0.0,0.0,0.0,0.0,0.0,0.0,-0.792,0.0
503,0.0,0.0,0.0,0.0,0.0,-0.0704326171875,0.0,0.0,0.0,0.0,0.0,0.0,-0.6018559914595819,0.0,0.0,0.0,0.0,0.0,0.0,-0.732,0.0
504,0.0,0.0,0.0,0.0,0.0,-0.07001953125,0.0,0.0,0.0,0.0,0.0,0.0,-0.6018559914595819,0.0,0.0,0.0,0.0,0.0,0.0,-0.98,0.0
505,0.0,0.0,0.0,0.0,0.0,-0.0704326171875,0.0,0.0,0.0,0.0,0.0,0.0,-0.6018559914595819,0.0,0.0,0.0,0.0,0.0,0.0,-0.928,0.0
506,0.0,0.0,0.0,0.0,0.0,-0.070638671875,0.0,0.0,0.0,0.0,0.0,0.0,-0.6018559914595819,0.0,0.0,0.0,0.0,0.0,0.0,-0.78,0.0
507,0.0,0.0,0.0,0.0,0.0,-0.070845703125,0.0,0.0,0.0,0.0,0.0,0.0,-0.6018559914595819,0.0,0.0,0.0,0.0,0.0,0.0,-0.784,0.0
508,0.0,0.0,0.0,0.0,0.0,-0.0710517578125,0.0,0.0,0.0,0.0,0.0,0.0,-0.6018559914595819,0.0,0.0,0.0,0.0,0.0,0.0,-0.804,0.0
509,0.0,0.0,0.0,0.0,0.0,-0.07146484375,0.0,0.0,0.0,0.0,0.0,0.0,-0.6018559914595819,0.0,0.0,0.0,0.0,0.0,0.0,-0.856,0.0
510,0.0,0.0,0.0,0.0,0.0,-0.0720849609375,0.0,0.0,0.0,0.0,0.0,0.0,-0.6018559914595819,0.0,0.0,0.0,0.0,0.0,0.0,-0.82,0.0
511,0.0,0.0,0.0,0.0,0.0,-0.072705078125,0.0,0.0,0.0,0.0,0.0,0.0,-0.6018559914595819,0.0,0.0,0.0,0.0,0.0,0.0,-0.732,0.0
512,0.0,0.0,0.0,0.0,0.0,-0.07332421875,0.0,0.0,0.0,0.0,0.0,0.0,-0.6018559914595819,0.0,0.0,0.0,0.0,0.0,0.0,-0.772,0.0
513,0.0,0.0,0.0,0.0,0.0,-0.073931640625,0.0,0.0,0.0,0.0,0.0,0.0,-0.6018559914595819,0.0,0.0,0.0,0.0,0.0,0.0,-0.8,0.0
514,0.0,0.0,0.0,0.0,0.0,-0.07455078125,0.0,0.0,0.0,0.0,0.0,0.0,-0.6018559914595819,0.0,0.0,0.0,0.0,0.0,0.0,-0.792,0.0
515,0.0,0.0,0.0,0.0,0.0,-0.075376953125,0.0,0.0,0.0,0.0,0.0,0.0,-0.6018559914595819,0.0,0.0,0.0,0.0,0.0,0.0,-0.78,0.0
516,0.0,0.0,0.0,0.0,0.0,-0.0762041015625,0.0,0.0,0.0,0.0,0.0,0.0,-0.6018559914595819,0.0,0.0,0.0,0.0,0.0,0.0,-0.716,0.0
517,0.0,0.0,0.0,0.0,0.0,-0.0770302734375,0.0,0.0,0.0,0.0,0.0,0.0,-0.6018559914595819,0.0,0.0,0.0,0.0,0.0,0.0,-0.688,0.0
518,0.0,0.0,0.0,0.0,0.0,-0.0778564453125,0.0,0.0,0.0,0.0,0.0,0.0,-0.6018559914595819,0.0,0.0,0.0,0.0,0.0,0.0,-0.708,0.0
519,0.0,0.0,0.0,0.0,0.0,-0.0786826171875,0.0,0.0,0.0,0.0,0.0,0.0,-0.6018559914595819,0.0,0.0,0.0,0.0,0.0,0.0,-0.772,0.0
520,0.0,0.0,0.0,0.0,0.0,-0.0797158203125,0.0,0.0,0.0,0.0,0.0,0.0,-0.6018559914595819,0.0,0.0,0.0,0.0,0.0,0.0,-0.772,0.0
521,0.0,0.0,0.0,0.0,0.0,-0.0805283203125,0.0,0.0,0.0,0.0,0.0,0.0,-0.6018559914595819,0.0,0.0,0.0,0.0,0.0,0.0,-0.784,0.0
522,0.0,0.0,0.0,0.0,0.0,-0.0815615234375,0.0,0.0,0.0,0.0,0.0,0.0,-0.6018559914595819,0.0,0.0,0.0,0.0,0.0,0.0,-0.752,0.0
523,0.0,0.0,0.0,0.0,0.0,-0.0825947265625,0.0,0.0,0.0,0.0,0.0,0.0,-0.6018559914595819,0.0,0.0,0.0,0.0,0.0,0.0,-0.732,0.0
524,0.0,0.0,0.0,0.0,0.0,-0.083626953125,0.0,0.0,0.0,0.0,0.0,0.0,-0.6018559914595819,0.0,0.0,0.0,0.0,0.0,0.0,-0.804,0.0
525,0.0,0.0,0.0,0.0,0.0,-0.08466015625,0.0,0.0,0.0,0.0,0.0,0.0,-0.6018559914595819,0.0,0.0,0.0,0.0,0.0,0.0,-0.772,0.0
526,0.0,0.0,0.0,0.0,0.0,-0.085693359375,0.0,0.0,0.0,0.0,0.0,0.0,-0.6018559914595819,0.0,0.0,0.0,0.0,0.0,0.0,-0.768,0.0
527,0.0,0.0,0.0,0.0,0.0,-0.0869326171875,0.0,0.0,0.0,0.0,0.0,0.0,-0.6018559914595819,0.0,0.0,0.0,0.0,0.0,0.0,-0.772,0.0
528,0.0,0.0,0.0,0.0,0.0,-0.0881591796875,0.0,0.0,0.0,0.0,0.0,0.0,-0.6018559914595819,0.0,0.0,0.0,0.0,0.0,0.0,-0.7,0.0
529,0.0,0.0,0.0,0.0,0.0,-0.0893984375,0.0,0.0,0.0,0.0,0.0,0.0,-0.6018559914595819,0.0,0.0,0.0,0.0,0.0,0.0,-0.752,0.0
530,0.0,0.0,0.0,0.0,0.0,-0.0908447265625,0.0,0.0,0.0,0.0,0.0,0.0,-0.6018559914595819,0.0,0.0,0.0,0.0,0.0,0.0,-0.74,0.0
531,0.0,0.0,0.0,0.0,0.0,-0.092083984375,0.0,0.0,0.0,0.0,0.0,0.0,-0.6018559914595819,0.0,0.0,0.0,0.0,0.0,0.0,-0.72,0.0
532,0.0,0.0,0.0,0.0,0.0,-0.0935302734375,0.0,0.0,0.0,0.0,0.0,0.0,-0.6018559914595819,0.0,0.0,0.0,0.0,0.0,0.0,-0.72,0.0
533,0.0,0.0,0.0,0.0,0.0,-0.095169921875,0.0,0.0,0.0,0.0,0.0,0.0,-0.6018559914595819,0.0,0.0,0.0,0.0,0.0,0.0,-0.696,0.0
534,0.0,0.0,0.0,0.0,0.0,-0.0966162109375,0.0,0.0,0.0,0.0,0.0,0.0,-0.6018559914595819,0.0,0.0,0.0,0.0,0.0,0.0,-0.708,0.0
535,0.0,0.0,0.0,0.0,0.0,-0.0982685546875,0.0,0.0,0.0,0.0,0.0,0.0,-0.6018559914595819,0.0,0.0,0.0,0.0,0.0,0.0,-0.668,0.0
536,0.0,0.0,0.0,0.0,0.0,-0.1001279296875,0.0,0.0,0.0,0.0,0.0,0.0,-0.6018559914595819,0.0,0.0,0.0,0.0,0.0,0.0,-0.596,0.0
537,0.0,0.0,0.0,0.0,0.0,-0.1021806640625,0.0,0.0,0.0,0.0,0.0,0.0,-0.6018559914595819,0.0,0.0,0.0,0.0,0.0,0.0,-0.584,0.0
538,0.0,0.0,0.0,0.0,0.0,-0.104453125,0.0,0.0,0.0,0.0,0.0,0.0,-0.6018559914595819,0.0,0.0,0.0,0.0,0.0,0.0,-0.524,0.0
539,0.0,0.0,0.0,0.0,0.0,-0.1063115234375,0.0,0.0,0.0,0.0,0.0,0.0,-0.6018559914595819,0.0,0.0,0.0,0.0,0.0,0.0,-0.504,0.0
540,0.0,0.0,0.0,0.0,0.0,-0.108583984375,0.0,0.0,0.0,0.0,0.0,0.0,-0.6018559914595819,0.0,0.0,0.0,0.0,0.0,0.0,-0.592,0.0
541,0.0,0.0,0.0,0.0,0.0,-0.11084375,0.0,0.0,0.0,0.0,0.0,0.0,-0.6018559914595819,0.0,0.0,0.0,0.0,0.0,0.0,-0.512,0.0
542,0.0,0.0,0.0,0.0,0.0,-0.1129091796875,0.0,0.0,0.0,0.0,0.0,0.0,-0.6018559914595819,0.0,0.0,0.0,0.0,0.0,0.0,-0.556,0.0
543,0.0,0.0,0.0,0.0,0.0,-0.11498828125,0.0,0.0,0.0,0.0,0.0,0.0,-0.6018559914595819,0.0,0.0,0.0,0.0,0.0,0.0,-0.688,0.0
544,0.0,0.0,0.0,0.0,0.0,-0.1174541015625,0.0,0.0,0.0,0.0,0.0,0.0,-0.6018559914595819,0.0,0.0,0.0,0.0,0.0,0.0,-0.596,0.0
545,0.0,0.0,0.0,0.0,0.0,-0.1197265625,0.0,0.0,0.0,0.0,0.0,0.0,-0.6018559914595819,0.0,0.0,0.0,0.0,0.0,0.0,-0.54,0.0
546,0.0,0.0,0.0,0.0,0.0,-0.1217919921875,0.0,0.0,0.0,0.0,0.0,0.0,-0.6018559914595819,0.0,0.0,0.0,0.0,0.0,0.0,-0.716,0.0
547,0.0,0.0,0.0,0.0,0.0,-0.124064453125,0.0,0.0,0.0,0.0,0.0,0.0,-0.6018559914595819,0.0,0.0,0.0,0.0,0.0,0.0,-0.636,0.0
548,0.0,0.0,0.0,0.0,0.0,-0.1259111328125,0.0,0.0,0.0,0.0,0.0,0.0,-0.6018559914595819,0.0,0.0,0.0,0.0,0.0,0.0,-0.68,0.0
549,0.0,0.0,0.0,0.0,0.0,-0.1281826171875,0.0,0.0,0.0,0.0,0.0,0.0,-0.6018559914595819,0.0,0.0,0.0,0.0,0.0,0.0,-0.784,0.0
550,0.0,0.0,0.0,0.0,0.0,-0.130455078125,0.0,0.0,0.0,0.0,0.0,0.0,-0.6018559914595819,0.0,0.0,0.0,0.0,0.0,0.0,-0.608,0.0
551,0.0,0.0,0.0,0.0,0.0,-0.132521484375,0.0,0.0,0.0,0.0,0.0,0.0,-0.6018559914595819,0.0,0.0,0.0,0.0,0.0,0.0,-0.7,0.0
552,0.0,0.0,0.0,0.0,0.0,-0.1347802734375,0.0,0.0,0.0,0.0,0.0,0.0,-0.6018559914595819,0.0,0.0,0.0,0.0,0.0,0.0,-0.676,0.0
553,0.0,0.0,0.0,0.0,0.0,-0.1368466796875,0.0,0.0,0.0,0.0,0.0,0.0,-0.6018559914595819,0.0,0.0,0.0,0.0,0.0,0.0,-0.716,0.0
554,0.0,0.0,0.0,0.0,0.0,-0.139119140625,0.0,0.0,0.0,0.0,0.0,0.0,-0.6018559914595819,0.0,0.0,0.0,0.0,0.0,0.0,-0.752,0.0
555,0.0,0.0,0.0,0.0,0.0,-0.141390625,0.0,0.0,0.0,0.0,0.0,0.0,-0.6018559914595819,0.0,0.0,0.0,0.0,0.0,0.0,-0.696,0.0
556,0.0,0.0,0.0,0.0,0.0,-0.143857421875,0.0,0.0,0.0,0.0,0.0,0.0,-0.6018559914595819,0.0,0.0,0.0,0.0,0.0,0.0,-0.676,0.0
557,0.0,0.0,0.0,0.0,0.0,-0.1469560546875,0.0,0.0,0.0,0.0,0.0,0.0,-0.6018559914595819,0.0,0.0,0.0,0.0,0.0,0.0,-0.628,0.0
558,0.0,0.0,0.0,0.0,0.0,-0.1500546875,0.0,0.0,0.0,0.0,0.0,0.0,-0.6018559914595819,0.0,0.0,0.0,0.0,0.0,0.0,-0.428,0.0
559,0.0,0.0,0.0,0.0,0.0,-0.1525205078125,0.0,0.0,0.0,0.0,0.0,0.0,-0.6018559914595819,0.0,0.0,0.0,0.0,0.0,0.0,-0.644,0.0
560,0.0,0.0,0.0,0.0,0.0,-0.1560322265625,0.0,0.0,0.0,0.0,0.0,0.0,-0.6018559914595819,0.0,0.0,0.0,0.0,0.0,0.0,-0.68,0.0
561,0.0,0.0,0.0,0.0,0.0,-0.158923828125,0.0,0.0,0.0,0.0,0.0,0.0,-0.6018559914595819,0.0,0.0,0.0,0.0,0.0,0.0,-0.644,0.0
562,0.0,0.0,0.0,0.0,0.0,-0.161802734375,0.0,0.0,0.0,0.0,0.0,0.0,-0.6018559914595819,0.0,0.0,0.0,0.0,0.0,0.0,-0.908,0.0
563,0.0,0.0,0.0,0.0,0.0,-0.1653154296875,0.0,0.0,0.0,0.0,0.0,0.0,-0.6018559914595819,0.0,0.0,0.0,0.0,0.0,0.0,-0.768,0.0
564,0.0,0.0,0.0,0.0,0.0,-0.1684140625,0.0,0.0,0.0,0.0,0.0,0.0,-0.6018559914595819,0.0,0.0,0.0,0.0,0.0,0.0,-0.74,0.0
565,0.0,0.0,0.0,0.0,0.0,-0.17129296875,0.0,0.0,0.0,0.0,0.0,0.0,-0.6018559914595819,0.0,0.0,0.0,0.0,0.0,0.0,-0.904,0.0
566,0.0,0.0,0.0,0.0,0.0,-0.17459765625,0.0,0.0,0.0,0.0,0.0,0.0,-0.6018559914595819,0.0,0.0,0.0,0.0,0.0,0.0,-0.748,0.0
567,0.0,0.0,0.0,0.0,0.0,-0.177283203125,0.0,0.0,0.0,0.0,0.0,0.0,-0.6018559914595819,0.0,0.0,0.0,0.0,0.0,0.0,-0.836,0.0
568,0.0,0.0,0.0,0.0,0.0,-0.180576171875,0.0,0.0,0.0,0.0,0.0,0.0,-0.6018559914595819,0.0,0.0,0.0,0.0,0.0,0.0,-0.864,0.0
569,0.0,0.0,0.0,0.0,0.0,-0.184087890625,0.0,0.0,0.0,0.0,0.0,0.0,-0.6018559914595819,0.0,0.0,0.0,0.0,0.0,0.0,-0.576,0.0
570,0.0,0.0,0.0,0.0,0.0,-0.1869794921875,0.0,0.0,0.0,0.0,0.0,0.0,-0.6018559914595819,0.0,0.0,0.0,0.0,0.0,0.0,-0.644,0.0
571,0.0,0.0,0.0,0.0,0.0,-0.190478515625,0.0,0.0,0.0,0.0,0.0,0.0,-0.6018559914595819,0.0,0.0,0.0,0.0,0.0,0.0,-0.708,0.0
572,0.0,0.0,0.0,0.0,0.0,-0.1946103515625,0.0,0.0,0.0,0.0,0.0,0.0,-0.6018559914595819,0.0,0.0,0.0,0.0,0.0,0.0,-0.44,0.0
573,0.0,0.0,0.0,0.0,0.0,-0.198328125,0.0,0.0,0.0,0.0,0.0,0.0,-0.6018559914595819,0.0,0.0,0.0,0.0,0.0,0.0,-0.572,0.0
574,0.0,0.0,0.0,0.0,0.0,-0.2026533203125,0.0,0.0,0.0,0.0,0.0,0.0,-0.6018559914595819,0.0,0.0,0.0,0.0,0.0,0.0,-0.504,0.0
575,0.0,0.0,0.0,0.0,0.0,-0.2061650390625,0.0,0.0,0.0,0.0,0.0,0.0,-0.6018559914595819,0.0,0.0,0.0,0.0,0.0,0.0,-0.596,0.0
576,0.0,0.0,0.0,0.0,0.0,-0.2100771484375,0.0,0.0,0.0,0.0,0.0,0.0,-0.6018559914595819,0.0,0.0,0.0,0.0,0.0,0.0,-0.82,0.0
577,0.0,0.0,0.0,0.0,0.0,-0.2144150390625,0.0,0.0,0.0,0.0,0.0,0.0,-0.6018559914595819,0.0,0.0,0.0,0.0,0.0,0.0,-0.696,0.0
578,0.0,0.0,0.0,0.0,0.0,-0.2181337890625,0.0,0.0,0.0,0.0,0.0,0.0,-0.6018559914595819,0.0,0.0,0.0,0.0,0.0,0.0,-0.592,0.0
579,0.0,0.0,0.0,0.0,0.0,-0.2218388671875,0.0,0.0,0.0,0.0,0.0,0.0,-0.6018559914595819,0.0,0.0,0.0,0.0,0.0,0.0,-0.728,0.0
580,0.0,0.0,0.0,0.0,0.0,-0.225970703125,0.0,0.0,0.0,0.0,0.0,0.0,-0.6018559914595819,0.0,0.0,0.0,0.0,0.0,0.0,-0.544,0.0
581,0.0,0.0,0.0,0.0,0.0,-0.2290693359375,0.0,0.0,0.0,0.0,0.0,0.0,-0.6018559914595819,0.0,0.0,0.0,0.0,0.0,0.0,-0.708,0.0
582,0.0,0.0,0.0,0.0,0.0,-0.2334072265625,0.0,0.0,0.0,0.0,0.0,0.0,-0.6018559914595819,0.0,0.0,0.0,0.0,0.0,0.0,-0.768,0.0
583,0.0,0.0,0.0,0.0,0.0,-0.2381455078125,0.0,0.0,0.0,0.0,0.0,0.0,-0.6018559914595819,0.0,0.0,0.0,0.0,0.0,0.0,-0.46,0.0
584,0.0,0.0,0.0,0.0,0.0,-0.2420703125,0.0,0.0,0.0,0.0,0.0,0.0,-0.6018559914595819,0.0,0.0,0.0,0.0,0.0,0.0,-0.688,0.0
585,0.0,0.0,0.0,0.0,0.0,-0.2468212890625,0.0,0.0,0.0,0.0,0.0,0.0,-0.6018559914595819,0.0,0.0,0.0,0.0,0.0,0.0,-0.636,0.0
586,0.0,0.0,0.0,0.0,0.0,-0.2509404296875,0.0,0.0,0.0,0.0,0.0,0.0,-0.6018559914595819,0.0,0.0,0.0,0.0,0.0,0.0,-0.708,0.0
587,0.0,0.0,0.0,0.0,0.0,-0.255072265625,0.0,0.0,0.0,0.0,0.0,0.0,-0.6018559914595819,0.0,0.0,0.0,0.0,0.0,0.0,-0.904,0.0
588,0.0,0.0,0.0,0.0,0.0,-0.2596162109375,0.0,0.0,0.0,0.0,0.0,0.0,-0.6018559914595819,0.0,0.0,0.0,0.0,0.0,0.0,-0.784,0.0
589,0.0,0.0,0.0,0.0,0.0,-0.263322265625,0.0,0.0,0.0,0.0,0.0,0.0,-0.6018559914595819,0.0,0.0,0.0,0.0,0.0,0.0,-0.824,0.0
590,0.0,0.0,0.0,0.0,0.0,-0.2678662109375,0.0,0.0,0.0,0.0,0.0,0.0,-0.6018559914595819,0.0,0.0,0.0,0.0,0.0,0.0,-0.784,0.0
591,0.0,0.0,0.0,0.0,0.0,-0.271998046875,0.0,0.0,0.0,0.0,0.0,0.0,-0.6018559914595819,0.0,0.0,0.0,0.0,0.0,0.0,-0.572,0.0
592,0.0,0.0,0.0,0.0,0.0,-0.2759228515625,0.0,0.0,0.0,0.0,0.0,0.0,-0.6018559914595819,0.0,0.0,0.0,0.0,0.0,0.0,-0.708,0.0
593,0.0,0.0,0.0,0.0,0.0,-0.28107421875,0.0,0.0,0.0,0.0,0.0,0.0,-0.6018559914595819,0.0,0.0,0.0,0.0,0.0,0.0,-0.54,0.0
594,0.0,0.0,0.0,0.0,0.0,-0.285826171875,0.0,0.0,0.0,0.0,0.0,0.0,-0.6018559914595819,0.0,0.0,0.0,0.0,0.0,0.0,-0.5,0.0
595,0.0,0.0,0.0,0.0,0.0,-0.29058984375,0.0,0.0,0.0,0.0,0.0,0.0,-0.6018559914595819,0.0,0.0,0.0,0.0,0.0,0.0,-0.584,0.0
596,0.0,0.0,0.0,0.0,0.0,-0.2955478515625,0.0,0.0,0.0,0.0,0.0,0.0,-0.6018559914595819,0.0,0.0,0.0,0.0,0.0,0.0,-0.604,0.0
597,0.0,0.0,0.0,0.0,0.0,-0.30069921875,0.0,0.0,0.0,0.0,0.0,0.0,-0.6018559914595819,0.0,0.0,0.0,0.0,0.0,0.0,-0.624,0.0
598,0.0,0.0,0.0,0.0,0.0,-0.305244140625,0.0,0.0,0.0,0.0,0.0,0.0,-0.6018559914595819,0.0,0.0,0.0,0.0,0.0,0.0,-0.624,0.0
599,0.0,0.0,0.0,0.0,0.0,-0.3097880859375,0.0,0.0,0.0,0.0,0.0,0.0,-0.6018559914595819,0.0,0.0,0.0,0.0,0.0,0.0,-0.82,0.0
600,0.0,0.0,0.0,0.0,0.0,-0.314953125,0.0,0.0,0.0,0.0,0.0,0.0,-0.6018559914595819,0.0,0.0,0.0,0.0,0.0,0.0,-0.616,0.0
601,0.0,0.0,0.0,0.0,0.0,-0.31969140625,0.0,0.0,0.0,0.0,0.0,0.0,-0.6018559914595819,0.0,0.0,0.0,0.0,0.0,0.0,-0.552,0.0
602,0.0,0.0,0.0,0.0,0.0,-0.32485546875,0.0,0.0,0.0,0.0,0.0,0.0,-0.6018559914595819,0.0,0.0,0.0,0.0,0.0,0.0,-0.7,0.0
603,0.0,0.0,0.0,0.0,0.0,-0.3306396484375,0.0,0.0,0.0,0.0,0.0,0.0,-0.6018559914595819,0.0,0.0,0.0,0.0,0.0,0.0,-0.52,0.0
604,0.0,0.0,0.0,0.0,0.0,-0.33559765625,0.0,0.0,0.0,0.0,0.0,0.0,-0.6018559914595819,0.0,0.0,0.0,0.0,0.0,0.0,-0.792,0.0
605,0.0,0.0,0.0,0.0,0.0,-0.3413818359375,0.0,0.0,0.0,0.0,0.0,0.0,-0.6018559914595819,0.0,0.0,0.0,0.0,0.0,0.0,-0.844,0.0
606,0.0,0.0,0.0,0.0,0.0,-0.346751953125,0.0,0.0,0.0,0.0,0.0,0.0,-0.6018559914595819,0.0,0.0,0.0,0.0,0.0,0.0,-0.628,0.0
607,0.0,0.0,0.0,0.0,0.0,-0.3512841796875,0.0,0.0,0.0,0.0,0.0,0.0,-0.6018559914595819,0.0,0.0,0.0,0.0,0.0,0.0,-0.772,0.0
608,0.0,0.0,0.0,0.0,0.0,-0.3564482421875,0.0,0.0,0.0,0.0,0.0,0.0,-0.6018559914595819,0.0,0.0,0.0,0.0,0.0,0.0,-0.792,0.0
609,0.0,0.0,0.0,0.0,0.0,-0.36161328125,0.0,0.0,0.0,0.0,0.0,0.0,-0.6018559914595819,0.0,0.0,0.0,0.0,0.0,0.0,-0.552,0.0
610,0.0,0.0,0.0,0.0,0.0,-0.3669833984375,0.0,0.0,0.0,0.0,0.0,0.0,-0.6018559914595819,0.0,0.0,0.0,0.0,0.0,0.0,-0.68,0.0
611,0.0,0.0,0.0,0.0,0.0,-0.3733876953125,0.0,0.0,0.0,0.0,0.0,0.0,-0.6018559914595819,0.0,0.0,0.0,0.0,0.0,0.0,-0.52,0.0
612,0.0,0.0,0.0,0.0,0.0,-0.379171875,0.0,0.0,0.0,0.0,0.0,0.0,-0.6018559914595819,0.0,0.0,0.0,0.0,0.0,0.0,-0.384,0.0
613,0.0,0.0,0.0,0.0,0.0,-0.3847490234375,0.0,0.0,0.0,0.0,0.0,0.0,-0.6018559914595819,0.0,0.0,0.0,0.0,0.0,0.0,-0.7,0.0
614,0.0,0.0,0.0,0.0,0.0,-0.390533203125,0.0,0.0,0.0,0.0,0.0,0.0,-0.6018559914595819,0.0,0.0,0.0,0.0,0.0,0.0,-0.668,0.0
615,0.0,0.0,0.0,0.0,0.0,-0.395904296875,0.0,0.0,0.0,0.0,0.0,0.0,-0.6018559914595819,0.0,0.0,0.0,0.0,0.0,0.0,-0.688,0.0
616,0.0,0.0,0.0,0.0,0.0,-0.4014814453125,0.0,0.0,0.0,0.0,0.0,0.0,-0.6018559914595819,0.0,0.0,0.0,0.0,0.0,0.0,-0.784,0.0
617,0.0,0.0,0.0,0.0,0.0,-0.40747265625,0.0,0.0,0.0,0.0,0.0,0.0,-0.6018559914595819,0.0,0.0,0.0,0.0,0.0,0.0,-0.492,0.0
618,0.0,0.0,0.0,0.0,0.0,-0.413462890625,0.0,0.0,0.0,0.0,0.0,0.0,-0.6018559914595819,0.0,0.0,0.0,0.0,0.0,0.0,-0.564,0.0
619,0.0,0.0,0.0,0.0,0.0,-0.41966015625,0.0,0.0,0.0,0.0,0.0,0.0,-0.6018559914595819,0.0,0.0,0.0,0.0,0.0,0.0,-0.68,0.0
620,0.0,0.0,0.0,0.0,0.0,-0.42587109375,0.0,0.0,0.0,0.0,0.0,0.0,-0.6018559914595819,0.0,0.0,0.0,0.0,0.0,0.0,-0.78,0.0
621,0.0,0.0,0.0,0.0,0.0,-0.4322744140625,0.0,0.0,0.0,0.0,0.0,0.0,-0.6018559914595819,0.0,0.0,0.0,0.0,0.0,0.0,-0.784,0.0
622,0.0,0.0,0.0,0.0,0.0,-0.43805859375,0.0,0.0,0.0,0.0,0.0,0.0,-0.6018559914595819,0.0,0.0,0.0,0.0,0.0,0.0,-0.604,0.0
623,0.0,0.0,0.0,0.0,0.0,-0.4434296875,0.0,0.0,0.0,0.0,0.0,0.0,-0.6018559914595819,0.0,0.0,0.0,0.0,0.0,0.0,-0.792,0.0
624,0.0,0.0,0.0,0.0,0.0,-0.4498330078125,0.0,0.0,0.0,0.0,0.0,0.0,-0.6018559914595819,0.0,0.0,0.0,0.0,0.0,0.0,-0.504,0.0
625,0.0,0.0,0.0,0.0,0.0,-0.45582421875,0.0,0.0,0.0,0.0,0.0,0.0,-0.6018559914595819,0.0,0.0,0.0,0.0,0.0,0.0,-0.512,0.0
626,0.0,0.0,0.0,0.0,0.0,-0.462640625,0.0,0.0,0.0,0.0,0.0,0.0,-0.6018559914595819,0.0,0.0,0.0,0.0,0.0,0.0,-0.636,0.0
627,0.0,0.0,0.0,0.0,0.0,-0.469470703125,0.0,0.0,0.0,0.0,0.0,0.0,-0.6018559914595819,0.0,0.0,0.0,0.0,0.0,0.0,-0.504,0.0
628,0.0,0.0,0.0,0.0,0.0,-0.4760810546875,0.0,0.0,0.0,0.0,0.0,0.0,-0.6018559914595819,0.0,0.0,0.0,0.0,0.0,0.0,-0.564,0.0
629,0.0,0.0,0.0,0.0,0.0,-0.4822783203125,0.0,0.0,0.0,0.0,0.0,0.0,-0.6018559914595819,0.0,0.0,0.0,0.0,0.0,0.0,-0.532,0.0
630,0.0,0.0,0.0,0.0,0.0,-0.48826953125,0.0,0.0,0.0,0.0,0.0,0.0,-0.6018559914595819,0.0,0.0,0.0,0.0,0.0,0.0,-0.592,0.0
631,0.0,0.0,0.0,0.0,0.0,-0.4946728515625,0.0,0.0,0.0,0.0,0.0,0.0,-0.6018559914595819,0.0,0.0,0.0,0.0,0.0,0.0,-0.572,0.0
632,0.0,0.0,0.0,0.0,0.0,-0.5017099609375,0.0,0.0,0.0,0.0,0.0,0.0,-0.6018559914595819,0.0,0.0,0.0,0.0,0.0,0.0,-0.668,0.0
633,0.0,0.0,0.0,0.0,0.0,-0.509146484375,0.0,0.0,0.0,0.0,0.0,0.0,-0.6018559914595819,0.0,0.0,0.0,0.0,0.0,0.0,-0.564,0.0
634,0.0,0.0,0.0,0.0,0.0,-0.515962890625,0.0,0.0,0.0,0.0,0.0,0.0,-0.6018559914595819,0.0,0.0,0.0,0.0,0.0,0.0,-0.664,0.0
635,0.0,0.0,0.0,0.0,0.0,-0.5225869140625,0.0,0.0,0.0,0.0,0.0,0.0,-0.6018559914595819,0.0,0.0,0.0,0.0,0.0,0.0,-0.628,0.0
636,0.0,0.0,0.0,0.0,0.0,-0.5287841796875,0.0,0.0,0.0,0.0,0.0,0.0,-0.6018559914595819,0.0,0.0,0.0,0.0,0.0,0.0,-0.628,0.0
637,0.0,0.0,0.0,0.0,0.0,-0.53539453125,0.0,0.0,0.0,0.0,0.0,0.0,-0.6018559914595819,0.0,0.0,0.0,0.0,0.0,0.0,-0.608,0.0
638,0.0,0.0,0.0,0.0,0.0,-0.542650390625,0.0,0.0,0.0,0.0,0.0,0.0,-0.6018559914595819,0.0,0.0,0.0,0.0,0.0,0.0,-0.512,0.0
639,0.0,0.0,0.0,0.0,0.0,-0.5498798828125,0.0,0.0,0.0,0.0,0.0,0.0,-0.6018559914595819,0.0,0.0,0.0,0.0,0.0,0.0,-0.488,0.0
640,0.0,0.0,0.0,0.0,0.0,-0.557330078125,0.0,0.0,0.0,0.0,0.0,0.0,-0.6018559914595819,0.0,0.0,0.0,0.0,0.0,0.0,-0.556,0.0
641,0.0,0.0,0.0,0.0,0.0,-0.5647666015625,0.0,0.0,0.0,0.0,0.0,0.0,0.9697159142484849,0.0,0.0,0.0,0.0,0.0,0.0,-0.492,0.0
642,0.0,0.0,0.0,0.0,0.0,-0.57118359375,0.0,0.0,0.0,0.0,0.0,0.0,0.9697159142484849,0.0,0.0,0.0,0.0,0.0,0.0,-0.492,0.0
643,0.0,0.0,0.0,0.0,0.0,-0.578,0.0,0.0,0.0,0.0,0.0,0.0,0.9697159142484849,0.0,0.0,0.0,0.0,0.0,0.0,-0.52,0.0
644,0.0,0.0,0.0,0.0,0.0,-0.5844169921875,0.0,0.0,0.0,0.0,0.0,0.0,0.9697159142484849,0.0,0.0,0.0,0.0,0.0,0.0,-0.044,0.0
645,0.0,0.0,0.0,0.0,0.0,-0.5879287109375,0.0,0.0,0.0,0.0,0.0,0.0,0.9697159142484849,0.0,0.0,0.0,0.0,0.0,0.0,0.056,0.0
646,0.0,0.0,0.0,0.0,0.0,-0.589375,0.0,0.0,0.0,0.0,0.0,0.0,0.9697159142484849,0.0,0.0,0.0,0.0,0.0,0.0,-0.104,0.0
647,0.0,0.0,0.0,0.0,0.0,-0.589375,0.0,0.0,0.0,0.0,0.0,0.0,0.9697159142484849,0.0,0.0,0.0,0.0,0.0,0.0,0.056,0.0
648,0.0,0.0,0.0,0.0,0.0,-0.5871025390625,0.0,0.0,0.0,0.0,0.0,0.0,0.9697159142484849,0.0,0.0,0.0,0.0,0.0,0.0,0.104,0.0
649,0.0,0.0,0.0,0.0,0.0,-0.5829580078125,0.0,0.0,0.0,0.0,0.0,0.0,0.9697159142484849,0.0,0.0,0.0,0.0,0.0,0.0,0.052,0.0
650,0.0,0.0,0.0,0.0,0.0,-0.5769677734375,0.0,0.0,0.0,0.0,0.0,0.0,0.9697159142484849,0.0,0.0,0.0,0.0,0.0,0.0,0.076,0.0
651,0.0,0.0,0.0,0.0,0.0,-0.569517578125,0.0,0.0,0.0,0.0,0.0,0.0,0.9697159142484849,0.0,0.0,0.0,0.0,0.0,0.0,-0.084,0.0
652,0.0,0.0,0.0,0.0,0.0,-0.560841796875,0.0,0.0,0.0,0.0,0.0,0.0,0.9697159142484849,0.0,0.0,0.0,0.0,0.0,0.0,-0.004,0.0
653,0.0,0.0,0.0,0.0,0.0,-0.549673828125,0.0,0.0,0.0,0.0,0.0,0.0,0.9697159142484849,0.0,0.0,0.0,0.0,0.0,0.0,0.104,0.0
654,0.0,0.0,0.0,0.0,0.0,-0.5370595703125,0.0,0.0,0.0,0.0,0.0,0.0,0.9697159142484849,0.0,0.0,0.0,0.0,0.0,0.0,-0.108,0.0
655,0.0,0.0,0.0,0.0,0.0,-0.5248583984375,0.0,0.0,0.0,0.0,0.0,0.0,0.9697159142484849,0.0,0.0,0.0,0.0,0.0,0.0,-0.428,0.0
656,0.0,0.0,0.0,0.0,0.0,-0.5120380859375,0.0,0.0,0.0,0.0,0.0,0.0,0.9697159142484849,0.0,0.0,0.0,0.0,0.0,0.0,-0.272,0.0
657,0.0,0.0,0.0,0.0,0.0,-0.4973583984375,0.0,0.0,0.0,0.0,0.0,0.0,0.9697159142484849,0.0,0.0,0.0,0.0,0.0,0.0,-0.044,0.0
658,0.0,0.0,0.0,0.0,0.0,-0.48269140625,0.0,0.0,0.0,0.0,0.0,0.0,0.9697159142484849,0.0,0.0,0.0,0.0,0.0,0.0,-0.564,0.0
659,0.0,0.0,0.0,0.0,0.0,-0.469677734375,0.0,0.0,0.0,0.0,0.0,0.0,0.9697159142484849,0.0,0.0,0.0,0.0,0.0,0.0,-0.376,0.0
660,0.0,0.0,0.0,0.0,0.0,-0.4545849609375,0.0,0.0,0.0,0.0,0.0,0.0,0.9697159142484849,0.0,0.0,0.0,0.0,0.0,0.0,-0.036,0.0
661,0.0,0.0,0.0,0.0,0.0,-0.4395048828125,0.0,0.0,0.0,0.0,0.0,0.0,0.9697159142484849,0.0,0.0,0.0,0.0,0.0,0.0,-1.08,0.0
662,0.0,0.0,0.0,0.0,0.0,-0.428142578125,0.0,0.0,0.0,0.0,0.0,0.0,0.9697159142484849,0.0,0.0,0.0,0.0,0.0,0.0,-0.784,0.0
663,0.0,0.0,0.0,0.0,0.0,-0.41449609375,0.0,0.0,0.0,0.0,0.0,0.0,0.9697159142484849,0.0,0.0,0.0,0.0,0.0,0.0,-0.168,0.0
664,0.0,0.0,0.0,0.0,0.0,-0.40044921875,0.0,0.0,0.0,0.0,0.0,0.0,0.9697159142484849,0.0,0.0,0.0,0.0,0.0,0.0,-1.0,0.0
665,0.0,0.0,0.0,0.0,0.0,-0.390740234375,0.0,0.0,0.0,0.0,0.0,0.0,0.9697159142484849,0.0,0.0,0.0,0.0,0.0,0.0,-0.948,0.0
666,0.0,0.0,0.0,0.0,0.0,-0.380205078125,0.0,0.0,0.0,0.0,0.0,0.0,0.9697159142484849,0.0,0.0,0.0,0.0,0.0,0.0,-0.284,0.0
667,0.0,0.0,0.0,0.0,0.0,-0.3682236328125,0.0,0.0,0.0,0.0,0.0,0.0,0.9697159142484849,0.0,0.0,0.0,0.0,0.0,0.0,-0.884,0.0
668,0.0,0.0,0.0,0.0,0.0,-0.3599599609375,0.0,0.0,0.0,0.0,0.0,0.0,0.9697159142484849,0.0,0.0,0.0,0.0,0.0,0.0,-0.876,0.0
669,0.0,0.0,0.0,0.0,0.0,-0.3523173828125,0.0,0.0,0.0,0.0,0.0,0.0,0.9697159142484849,0.0,0.0,0.0,0.0,0.0,0.0,-0.556,0.0
670,0.0,0.0,0.0,0.0,0.0,-0.3436533203125,0.0,0.0,0.0,0.0,0.0,0.0,0.9697159142484849,0.0,0.0,0.0,0.0,0.0,0.0,-1.008,0.0
671,0.0,0.0,0.0,0.0,0.0,-0.336423828125,0.0,0.0,0.0,0.0,0.0,0.0,0.9697159142484849,0.0,0.0,0.0,0.0,0.0,0.0,-1.1,0.0
672,0.0,0.0,0.0,0.0,0.0,-0.33001953125,0.0,0.0,0.0,0.0,0.0,0.0,0.9697159142484849,0.0,0.0,0.0,0.0,0.0,0.0,-0.604,0.0
673,0.0,0.0,0.0,0.0,0.0,-0.3225830078125,0.0,0.0,0.0,0.0,0.0,0.0,0.9697159142484849,0.0,0.0,0.0,0.0,0.0,0.0,-0.644,0.0
674,0.0,0.0,0.0,0.0,0.0,-0.3163984375,0.0,0.0,0.0,0.0,0.0,0.0,0.9697159142484849,0.0,0.0,0.0,0.0,0.0,0.0,-0.904,0.0
675,0.0,0.0,0.0,0.0,0.0,-0.3116474609375,0.0,0.0,0.0,0.0,0.0,0.0,0.9697159142484849,0.0,0.0,0.0,0.0,0.0,0.0,-0.592,0.0
676,0.0,0.0,0.0,0.0,0.0,-0.3054501953125,0.0,0.0,0.0,0.0,0.0,0.0,0.9697159142484849,0.0,0.0,0.0,0.0,0.0,0.0,-0.664,0.0
677,0.0,0.0,0.0,0.0,0.0,-0.299873046875,0.0,0.0,0.0,0.0,0.0,0.0,0.9697159142484849,0.0,0.0,0.0,0.0,0.0,0.0,-1.012,0.0
678,0.0,0.0,0.0,0.0,0.0,-0.2947216796875,0.0,0.0,0.0,0.0,0.0,0.0,0.9697159142484849,0.0,0.0,0.0,0.0,0.0,0.0,-0.272,0.0
679,0.0,0.0,0.0,0.0,0.0,-0.287271484375,0.0,0.0,0.0,0.0,0.0,0.0,0.9697159142484849,0.0,0.0,0.0,0.0,0.0,0.0,-0.448,0.0
680,0.0,0.0,0.0,0.0,0.0,-0.28128125,0.0,0.0,0.0,0.0,0.0,0.0,0.9697159142484849,0.0,0.0,0.0,0.0,0.0,0.0,-0.656,0.0
681,0.0,0.0,0.0,0.0,0.0,-0.2750966796875,0.0,0.0,0.0,0.0,0.0,0.0,0.9697159142484849,0.0,0.0,0.0,0.0,0.0,0.0,-0.056,0.0
682,0.0,0.0,0.0,0.0,0.0,-0.2672470703125,0.0,0.0,0.0,0.0,0.0,0.0,0.9697159142484849,0.0,0.0,0.0,0.0,0.0,0.0,-0.784,0.0
683,0.0,0.0,0.0,0.0,0.0,-0.26126953125,0.0,0.0,0.0,0.0,0.0,0.0,0.9697159142484849,0.0,0.0,0.0,0.0,0.0,0.0,-0.688,0.0
684,0.0,0.0,0.0,0.0,0.0,-0.253212890625,0.0,0.0,0.0,0.0,0.0,0.0,0.9697159142484849,0.0,0.0,0.0,0.0,0.0,0.0,-0.26,0.0
685,0.0,0.0,0.0,0.0,0.0,-0.2435166015625,0.0,0.0,0.0,0.0,0.0,0.0,0.9697159142484849,0.0,0.0,0.0,0.0,0.0,0.0,-0.668,0.0
686,0.0,0.0,0.0,0.0,0.0,-0.2354599609375,0.0,0.0,0.0,0.0,0.0,0.0,0.9697159142484849,0.0,0.0,0.0,0.0,0.0,0.0,-0.244,0.0
687,0.0,0.0,0.0,0.0,0.0,-0.2255576171875,0.0,0.0,0.0,0.0,0.0,0.0,0.9697159142484849,0.0,0.0,0.0,0.0,0.0,0.0,-0.26,0.0
688,0.0,0.0,0.0,0.0,0.0,-0.215861328125,0.0,0.0,0.0,0.0,0.0,0.0,0.9697159142484849,0.0,0.0,0.0,0.0,0.0,0.0,-0.852,0.0
689,0.0,0.0,0.0,0.0,0.0,-0.2069912109375,0.0,0.0,0.0,0.0,0.0,0.0,0.9697159142484849,0.0,0.0,0.0,0.0,0.0,0.0,-0.188,0.0
690,0.0,0.0,0.0,0.0,0.0,-0.1950234375,0.0,0.0,0.0,0.0,0.0,0.0,0.9697159142484849,0.0,0.0,0.0,0.0,0.0,0.0,-0.26,0.0
691,0.0,0.0,0.0,0.0,0.0,-0.1845009765625,0.0,0.0,0.0,0.0,0.0,0.0,0.9697159142484849,0.0,0.0,0.0,0.0,0.0,0.0,-0.584,0.0
692,0.0,0.0,0.0,0.0,0.0,-0.17459765625,0.0,0.0,0.0,0.0,0.0,0.0,0.9697159142484849,0.0,0.0,0.0,0.0,0.0,0.0,-0.436,0.0
693,0.0,0.0,0.0,0.0,0.0,-0.1626298828125,0.0,0.0,0.0,0.0,0.0,0.0,0.9697159142484849,0.0,0.0,0.0,0.0,0.0,0.0,-0.728,0.0
694,0.0,0.0,0.0,0.0,0.0,-0.1514873046875,0.0,0.0,0.0,0.0,0.0,0.0,0.9697159142484849,0.0,0.0,0.0,0.0,0.0,0.0,-0.572,0.0
695,0.0,0.0,0.0,0.0,0.0,-0.1403583984375,0.0,0.0,0.0,0.0,0.0,0.0,0.9697159142484849,0.0,0.0,0.0,0.0,0.0,0.0,-0.244,0.0
696,0.0,0.0,0.0,0.0,0.0,-0.1285966796875,0.0,0.0,0.0,0.0,0.0,0.0,0.9697159142484849,0.0,0.0,0.0,0.0,0.0,0.0,-0.732,0.0
697,0.0,0.0,0.0,0.0,0.0,-0.1178671875,0.0,0.0,0.0,0.0,0.0,0.0,0.9697159142484849,0.0,0.0,0.0,0.0,0.0,0.0,-0.468,0.0
698,0.0,0.0,0.0,0.0,0.0,-0.1054853515625,0.0,0.0,0.0,0.0,0.0,0.0,0.9697159142484849,0.0,0.0,0.0,0.0,0.0,0.0,-0.316,0.0
699,0.0,0.0,0.0,0.0,0.0,-0.093943359375,0.0,0.0,0.0,0.0,0.0,0.0,0.9697159142484849,0.0,0.0,0.0,0.0,0.0,0.0,-0.924,0.0
700,0.0,0.0,0.0,0.0,0.0,-0.084041015625,0.0,0.0,0.0,0.0,0.0,0.0,0.9697159142484849,0.0,0.0,0.0,0.0,0.0,0.0,-0.668,0.0
701,0.0,0.0,0.0,0.0,0.0,-0.07187890625,0.0,0.0,0.0,0.0,0.0,0.0,0.9697159142484849,0.0,0.0,0.0,0.0,0.0,0.0,-0.624,0.0
702,0.0,0.0,0.0,0.0,0.0,-0.060736328125,0.0,0.0,0.0,0.0,0.0,0.0,0.9697159142484849,0.0,0.0,0.0,0.0,0.0,0.0,-0.708,0.0
703,0.0,0.0,0.0,0.0,0.0,-0.05043359375,0.0,0.0,0.0,0.0,0.0,0.0,0.9697159142484849,0.0,0.0,0.0,0.0,0.0,0.0,-0.4,0.0
704,0.0,0.0,0.0,0.0,0.0,-0.03909765625,0.0,0.0,0.0,0.0,0.0,0.0,0.9697159142484849,0.0,0.0,0.0,0.0,0.0,0.0,-0.82,0.0
705,0.0,0.0,0.0,0.0,0.0,-0.02898828125,0.0,0.0,0.0,0.0,0.0,0.0,0.9697159142484849,0.0,0.0,0.0,0.0,0.0,0.0,-0.592,0.0
706,0.0,0.0,0.0,0.0,0.0,-0.017859375,0.0,0.0,0.0,0.0,0.0,0.0,0.9697159142484849,0.0,0.0,0.0,0.0,0.0,0.0,-0.296,0.0
707,0.0,0.0,0.0,0.0,0.0,-0.007142578125,0.0,0.0,0.0,0.0,0.0,0.0,0.9697159142484849,0.0,0.0,0.0,0.0,0.0,0.0,-0.916,0.0
708,0.0,0.0,0.0,0.0,0.0,0.001919921875,0.0,0.0,0.0,0.0,0.0,0.0,0.9697159142484849,0.0,0.0,0.0,0.0,0.0,0.0,-0.7,0.0
709,0.0,0.0,0.0,0.0,0.0,0.012841796875,0.0,0.0,0.0,0.0,0.0,0.0,0.9697159142484849,0.0,0.0,0.0,0.0,0.0,0.0,-0.636,0.0
710,0.0,0.0,0.0,0.0,0.0,0.0231455078125,0.0,0.0,0.0,0.0,0.0,0.0,0.9697159142484849,0.0,0.0,0.0,0.0,0.0,0.0,-0.772,0.0
711,0.0,0.0,0.0,0.0,0.0,0.0328408203125,0.0,0.0,0.0,0.0,0.0,0.0,0.9697159142484849,0.0,0.0,0.0,0.0,0.0,0.0,-0.332,0.0
712,0.0,0.0,0.0,0.0,0.0,0.04314453125,0.0,0.0,0.0,0.0,0.0,0.0,0.9697159142484849,0.0,0.0,0.0,0.0,0.0,0.0,-0.772,0.0
713,0.0,0.0,0.0,0.0,0.0,0.0522080078125,0.0,0.0,0.0,0.0,0.0,0.0,0.9697159142484849,0.0,0.0,0.0,0.0,0.0,0.0,-0.584,0.0
714,0.0,0.0,0.0,0.0,0.0,0.0625107421875,0.0,0.0,0.0,0.0,0.0,0.0,0.9697159142484849,0.0,0.0,0.0,0.0,0.0,0.0,-0.284,0.0
715,0.0,0.0,0.0,0.0,0.0,0.0730205078125,0.0,0.0,0.0,0.0,0.0,0.0,0.9697159142484849,0.0,0.0,0.0,0.0,0.0,0.0,-0.664,0.0
716,0.0,0.0,0.0,0.0,0.0,0.082896484375,0.0,0.0,0.0,0.0,0.0,0.0,0.9697159142484849,0.0,0.0,0.0,0.0,0.0,0.0,-0.616,0.0
717,0.0,0.0,0.0,0.0,0.0,0.0919736328125,0.0,0.0,0.0,0.0,0.0,0.0,0.9697159142484849,0.0,0.0,0.0,0.0,0.0,0.0,-0.628,0.0
718,0.0,0.0,0.0,0.0,0.0,0.1018505859375,0.0,0.0,0.0,0.0,0.0,0.0,0.9697159142484849,0.0,0.0,0.0,0.0,0.0,0.0,-0.708,0.0
719,0.0,0.0,0.0,0.0,0.0,0.111533203125,0.0,0.0,0.0,0.0,0.0,0.0,0.9697159142484849,0.0,0.0,0.0,0.0,0.0,0.0,-0.208,0.0
720,0.0,0.0,0.0,0.0,0.0,0.1222490234375,0.0,0.0,0.0,0.0,0.0,0.0,0.9697159142484849,0.0,0.0,0.0,0.0,0.0,0.0,-0.524,0.0
721,0.0,0.0,0.0,0.0,0.0,0.132552734375,0.0,0.0,0.0,0.0,0.0,0.0,0.9697159142484849,0.0,0.0,0.0,0.0,0.0,0.0,-0.584,0.0
722,0.0,0.0,0.0,0.0,0.0,0.1416025390625,0.0,0.0,0.0,0.0,0.0,0.0,0.9697159142484849,0.0,0.0,0.0,0.0,0.0,0.0,-0.296,0.0
723,0.0,0.0,0.0,0.0,0.0,0.152525390625,0.0,0.0,0.0,0.0,0.0,0.0,0.9697159142484849,0.0,0.0,0.0,0.0,0.0,0.0,-0.524,0.0
724,0.0,0.0,0.0,0.0,0.0,0.162208984375,0.0,0.0,0.0,0.0,0.0,0.0,0.9697159142484849,0.0,0.0,0.0,0.0,0.0,0.0,-0.46,0.0
725,0.0,0.0,0.0,0.0,0.0,0.172705078125,0.0,0.0,0.0,0.0,0.0,0.0,0.9697159142484849,0.0,0.0,0.0,0.0,0.0,0.0,-0.572,0.0
726,0.0,0.0,0.0,0.0,0.0,0.1832021484375,0.0,0.0,0.0,0.0,0.0,0.0,0.9697159142484849,0.0,0.0,0.0,0.0,0.0,0.0,-0.812,0.0
727,0.0,0.0,0.0,0.0,0.0,0.1935048828125,0.0,0.0,0.0,0.0,0.0,0.0,0.9697159142484849,0.0,0.0,0.0,0.0,0.0,0.0,-0.408,0.0
728,0.0,0.0,0.0,0.0,0.0,0.20462109375,0.0,0.0,0.0,0.0,0.0,0.0,0.9697159142484849,0.0,0.0,0.0,0.0,0.0,0.0,-0.368,0.0
729,0.0,0.0,0.0,0.0,0.0,0.2151181640625,0.0,0.0,0.0,0.0,0.0,0.0,0.9697159142484849,0.0,0.0,0.0,0.0,0.0,0.0,-0.708,0.0
730,0.0,0.0,0.0,0.0,0.0,0.226234375,0.0,0.0,0.0,0.0,0.0,0.0,0.9697159142484849,0.0,0.0,0.0,0.0,0.0,0.0,-0.376,0.0
731,0.0,0.0,0.0,0.0,0.0,0.236537109375,0.0,0.0,0.0,0.0,0.0,0.0,0.9697159142484849,0.0,0.0,0.0,0.0,0.0,0.0,-0.388,0.0
732,0.0,0.0,0.0,0.0,0.0,0.247240234375,0.0,0.0,0.0,0.0,0.0,0.0,0.9697159142484849,0.0,0.0,0.0,0.0,0.0,0.0,-0.552,0.0
733,0.0,0.0,0.0,0.0,0.0,0.2585634765625,0.0,0.0,0.0,0.0,0.0,0.0,0.9697159142484849,0.0,0.0,0.0,0.0,0.0,0.0,-0.576,0.0
734,0.0,0.0,0.0,0.0,0.0,0.2684404296875,0.0,0.0,0.0,0.0,0.0,0.0,0.9697159142484849,0.0,0.0,0.0,0.0,0.0,0.0,-0.688,0.0
735,0.0,0.0,0.0,0.0,0.0,0.2799697265625,0.0,0.0,0.0,0.0,0.0,0.0,0.9697159142484849,0.0,0.0,0.0,0.0,0.0,0.0,-0.488,0.0
736,0.0,0.0,0.0,0.0,0.0,0.2910732421875,0.0,0.0,0.0,0.0,0.0,0.0,0.9697159142484849,0.0,0.0,0.0,0.0,0.0,0.0,-0.304,0.0
737,0.0,0.0,0.0,0.0,0.0,0.300962890625,0.0,0.0,0.0,0.0,0.0,0.0,0.9697159142484849,0.0,0.0,0.0,0.0,0.0,0.0,-0.596,0.0
738,0.0,0.0,0.0,0.0,0.0,0.3110458984375,0.0,0.0,0.0,0.0,0.0,0.0,0.9697159142484849,0.0,0.0,0.0,0.0,0.0,0.0,-0.5,0.0
739,0.0,0.0,0.0,0.0,0.0,0.321736328125,0.0,0.0,0.0,0.0,0.0,0.0,0.9697159142484849,0.0,0.0,0.0,0.0,0.0,0.0,-0.292,0.0
740,0.0,0.0,0.0,0.0,0.0,0.3328525390625,0.0,0.0,0.0,0.0,0.0,0.0,0.9697159142484849,0.0,0.0,0.0,0.0,0.0,0.0,-0.436,0.0
741,0.0,0.0,0.0,0.0,0.0,0.34417578125,0.0,0.0,0.0,0.0,0.0,0.0,0.9697159142484849,0.0,0.0,0.0,0.0,0.0,0.0,-0.616,0.0
742,0.0,0.0,0.0,0.0,0.0,0.354453125,0.0,0.0,0.0,0.0,0.0,0.0,0.9697159142484849,0.0,0.0,0.0,0.0,0.0,0.0,-0.524,0.0
743,0.0,0.0,0.0,0.0,0.0,0.36515625,0.0,0.0,0.0,0.0,0.0,0.0,0.9697159142484849,0.0,0.0,0.0,0.0,0.0,0.0,-0.552,0.0
744,0.0,0.0,0.0,0.0,0.0,0.374826171875,0.0,0.0,0.0,0.0,0.0,0.0,0.9697159142484849,0.0,0.0,0.0,0.0,0.0,0.0,-0.272,0.0
745,0.0,0.0,0.0,0.0,0.0,0.385529296875,0.0,0.0,0.0,0.0,0.0,0.0,0.9697159142484849,0.0,0.0,0.0,0.0,0.0,0.0,-0.4,0.0
746,0.0,0.0,0.0,0.0,0.0,0.395599609375,0.0,0.0,0.0,0.0,0.0,0.0,0.9697159142484849,0.0,0.0,0.0,0.0,0.0,0.0,-0.42,0.0
747,0.0,0.0,0.0,0.0,0.0,0.40568359375,0.0,0.0,0.0,0.0,0.0,0.0,0.9697159142484849,0.0,0.0,0.0,0.0,0.0,0.0,-0.336,0.0
748,0.0,0.0,0.0,0.0,0.0,0.41638671875,0.0,0.0,0.0,0.0,0.0,0.0,0.9697159142484849,0.0,0.0,0.0,0.0,0.0,0.0,-0.252,0.0
749,0.0,0.0,0.0,0.0,0.0,0.4270771484375,0.0,0.0,0.0,0.0,0.0,0.0,0.9697159142484849,0.0,0.0,0.0,0.0,0.0,0.0,-0.544,0.0
750,0.0,0.0,0.0,0.0,0.0,0.4369541015625,0.0,0.0,0.0,0.0,0.0,0.0,0.9697159142484849,0.0,0.0,0.0,0.0,0.0,0.0,-0.572,0.0
751,0.0,0.0,0.0,0.0,0.0,0.4470244140625,0.0,0.0,0.0,0.0,0.0,0.0,0.9697159142484849,0.0,0.0,0.0,0.0,0.0,0.0,-0.472,0.0
752,0.0,0.0,0.0,0.0,0.0,0.4585537109375,0.0,0.0,0.0,0.0,0.0,0.0,0.9697159142484849,0.0,0.0,0.0,0.0,0.0,0.0,-0.292,0.0
753,0.0,0.0,0.0,0.0,0.0,0.469244140625,0.0,0.0,0.0,0.0,0.0,0.0,0.9697159142484849,0.0,0.0,0.0,0.0,0.0,0.0,-0.336,0.0
754,0.0,0.0,0.0,0.0,0.0,0.478294921875,0.0,0.0,0.0,0.0,0.0,0.0,0.9697159142484849,0.0,0.0,0.0,0.0,0.0,0.0,-0.376,0.0
755,0.0,0.0,0.0,0.0,0.0,0.488158203125,0.0,0.0,0.0,0.0,0.0,0.0,0.9697159142484849,0.0,0.0,0.0,0.0,0.0,0.0,-0.376,0.0
756,0.0,0.0,0.0,0.0,0.0,0.4984482421875,0.0,0.0,0.0,0.0,0.0,0.0,0.9697159142484849,0.0,0.0,0.0,0.0,0.0,0.0,-0.244,0.0
757,0.0,0.0,0.0,0.0,0.0,0.510365234375,0.0,0.0,0.0,0.0,0.0,0.0,0.9697159142484849,0.0,0.0,0.0,0.0,0.0,0.0,-0.384,0.0
758,0.0,0.0,0.0,0.0,0.0,0.52044921875,0.0,0.0,0.0,0.0,0.0,0.0,0.9697159142484849,0.0,0.0,0.0,0.0,0.0,0.0,-0.52,0.0
759,0.0,0.0,0.0,0.0,0.0,0.53051953125,0.0,0.0,0.0,0.0,0.0,0.0,0.9697159142484849,0.0,0.0,0.0,0.0,0.0,0.0,-0.5,0.0
760,0.0,0.0,0.0,0.0,0.0,0.5408095703125,0.0,0.0,0.0,0.0,0.0,0.0,0.9697159142484849,0.0,0.0,0.0,0.0,0.0,0.0,-0.26,0.0
761,0.0,0.0,0.0,0.0,0.0,0.5517060546875,0.0,0.0,0.0,0.0,0.0,0.0,0.9697159142484849,0.0,0.0,0.0,0.0,0.0,0.0,-0.22,0.0
762,0.0,0.0,0.0,0.0,0.0,0.56136328125,0.0,0.0,0.0,0.0,0.0,0.0,0.9697159142484849,0.0,0.0,0.0,0.0,0.0,0.0,-0.336,0.0
763,0.0,0.0,0.0,0.0,0.0,0.5722607421875,0.0,0.0,0.0,0.0,0.0,0.0,0.9697159142484849,0.0,0.0,0.0,0.0,0.0,0.0,-0.272,0.0
764,0.0,0.0,0.0,0.0,0.0,0.582537109375,0.0,0.0,0.0,0.0,0.0,0.0,0.9697159142484849,0.0,0.0,0.0,0.0,0.0,0.0,-0.128,0.0
765,0.0,0.0,0.0,0.0,0.0,0.5934345703125,0.0,0.0,0.0,0.0,0.0,0.0,0.9697159142484849,0.0,0.0,0.0,0.0,0.0,0.0,-0.232,0.0
766,0.0,0.0,0.0,0.0,0.0,0.604125,0.0,0.0,0.0,0.0,0.0,0.0,0.9697159142484849,0.0,0.0,0.0,0.0,0.0,0.0,-0.468,0.0
767,0.0,0.0,0.0,0.0,0.0,0.6131748046875,0.0,0.0,0.0,0.0,0.0,0.0,0.9697159142484849,0.0,0.0,0.0,0.0,0.0,0.0,-0.396,0.0
768,0.0,0.0,0.0,0.0,0.0,0.62447265625,0.0,0.0,0.0,0.0,0.0,0.0,0.9697159142484849,0.0,0.0,0.0,0.0,0.0,0.0,-0.192,0.0
769,0.0,0.0,0.0,0.0,0.0,0.6355751953125,0.0,0.0,0.0,0.0,0.0,0.0,0.9697159142484849,0.0,0.0,0.0,0.0,0.0,0.0,-0.128,0.0
770,0.0,0.0,0.0,0.0,0.0,0.6464599609375,0.0,0.0,0.0,0.0,0.0,0.0,0.9697159142484849,0.0,0.0,0.0,0.0,0.0,0.0,-0.284,0.0
771,0.0,0.0,0.0,0.0,0.0,0.6563232421875,0.0,0.0,0.0,0.0,0.0,0.0,0.9697159142484849,0.0,0.0,0.0,0.0,0.0,0.0,-0.232,0.0
772,0.0,0.0,0.0,0.0,0.0,0.6666005859375,0.0,0.0,0.0,0.0,0.0,0.0,0.9697159142484849,0.0,0.0,0.0,0.0,0.0,0.0,-0.088,0.0
773,0.0,0.0,0.0,0.0,0.0,0.677484375,0.0,0.0,0.0,0.0,0.0,0.0,0.9697159142484849,0.0,0.0,0.0,0.0,0.0,0.0,-0.104,0.0
774,0.0,0.0,0.0,0.0,0.0,0.688587890625,0.0,0.0,0.0,0.0,0.0,0.0,0.9697159142484849,0.0,0.0,0.0,0.0,0.0,0.0,-0.344,0.0
775,0.0,0.0,0.0,0.0,0.0,0.698658203125,0.0,0.0,0.0,0.0,0.0,0.0,0.9697159142484849,0.0,0.0,0.0,0.0,0.0,0.0,-0.4,0.0
776,0.0,0.0,0.0,0.0,0.0,0.7085224609375,0.0,0.0,0.0,0.0,0.0,0.0,0.9697159142484849,0.0,0.0,0.0,0.0,0.0,0.0,-0.2,0.0
777,0.0,0.0,0.0,0.0,0.0,0.7194189453125,0.0,0.0,0.0,0.0,0.0,0.0,0.9697159142484849,0.0,0.0,0.0,0.0,0.0,0.0,0.024,0.0
778,0.0,0.0,0.0,0.0,0.0,0.730716796875,0.0,0.0,0.0,0.0,0.0,0.0,0.9697159142484849,0.0,0.0,0.0,0.0,0.0,0.0,-0.232,0.0
779,0.0,0.0,0.0,0.0,0.0,0.7409931640625,0.0,0.0,0.0,0.0,0.0,0.0,0.9697159142484849,0.0,0.0,0.0,0.0,0.0,0.0,-0.24,0.0
780,0.0,0.0,0.0,0.0,0.0,0.750650390625,0.0,0.0,0.0,0.0,0.0,0.0,0.9697159142484849,0.0,0.0,0.0,0.0,0.0,0.0,-0.068,0.0
781,0.0,0.0,0.0,0.0,0.0,0.7613408203125,0.0,0.0,0.0,0.0,0.0,0.0,0.9697159142484849,0.0,0.0,0.0,0.0,0.0,0.0,0.016,0.0
782,0.0,0.0,0.0,0.0,0.0,0.77160546875,0.0,0.0,0.0,0.0,0.0,0.0,0.9697159142484849,0.0,0.0,0.0,0.0,0.0,0.0,-0.192,0.0
783,0.0,0.0,0.0,0.0,0.0,0.7831220703125,0.0,0.0,0.0,0.0,0.0,0.0,0.9697159142484849,0.0,0.0,0.0,0.0,0.0,0.0,-0.4,0.0
784,0.0,0.0,0.0,0.0,0.0,0.792779296875,0.0,0.0,0.0,0.0,0.0,0.0,0.9697159142484849,0.0,0.0,0.0,0.0,0.0,0.0,-0.192,0.0
785,0.0,0.0,0.0,0.0,0.0,0.8030439453125,0.0,0.0,0.0,0.0,0.0,0.0,0.9697159142484849,0.0,0.0,0.0,0.0,0.0,0.0,0.192,0.0
786,0.0,0.0,0.0,0.0,0.0,0.8145341796875,0.0,0.0,0.0,0.0,0.0,0.0,0.9697159142484849,0.0,0.0,0.0,0.0,0.0,0.0,-0.056,0.0
787,0.0,0.0,0.0,0.0,0.0,0.825017578125,0.0,0.0,0.0,0.0,0.0,0.0,0.9697159142484849,0.0,0.0,0.0,0.0,0.0,0.0,-0.232,0.0
788,0.0,0.0,0.0,0.0,0.0,0.83446875,0.0,0.0,0.0,0.0,0.0,0.0,0.9697159142484849,0.0,0.0,0.0,0.0,0.0,0.0,-0.052,0.0
789,0.0,0.0,0.0,0.0,0.0,0.84474609375,0.0,0.0,0.0,0.0,0.0,0.0,0.9697159142484849,0.0,0.0,0.0,0.0,0.0,0.0,0.208,0.0
790,0.0,0.0,0.0,0.0,0.0,0.8562490234375,0.0,0.0,0.0,0.0,0.0,0.0,0.9697159142484849,0.0,0.0,0.0,0.0,0.0,0.0,-0.016,0.0
791,0.0,0.0,0.0,0.0,0.0,0.8659072265625,0.0,0.0,0.0,0.0,0.0,0.0,0.9697159142484849,0.0,0.0,0.0,0.0,0.0,0.0,-0.324,0.0
792,0.0,0.0,0.0,0.0,0.0,0.876583984375,0.0,0.0,0.0,0.0,0.0,0.0,0.9697159142484849,0.0,0.0,0.0,0.0,0.0,0.0,-0.244,0.0
793,0.0,0.0,0.0,0.0,0.0,0.8864482421875,0.0,0.0,0.0,0.0,0.0,0.0,0.9697159142484849,0.0,0.0,0.0,0.0,0.0,0.0,0.292,0.0
794,0.0,0.0,0.0,0.0,0.0,0.8977451171875,0.0,0.0,0.0,0.0,0.0,0.0,0.9697159142484849,0.0,0.0,0.0,0.0,0.0,0.0,0.212,0.0
795,0.0,0.0,0.0,0.0,0.0,0.9090419921875,0.0,0.0,0.0,0.0,0.0,0.0,0.9697159142484849,0.0,0.0,0.0,0.0,0.0,0.0,-0.188,0.0
796,0.0,0.0,0.0,0.0,0.0,0.9184931640625,0.0,0.0,0.0,0.0,0.0,0.0,0.9697159142484849,0.0,0.0,0.0,0.0,0.0,0.0,-0.128,0.0
797,0.0,0.0,0.0,0.0,0.0,0.928150390625,0.0,0.0,0.0,0.0,0.0,0.0,0.9697159142484849,0.0,0.0,0.0,0.0,0.0,0.0,0.332,0.0
798,0.0,0.0,0.0,0.0,0.0,0.939447265625,0.0,0.0,0.0,0.0,0.0,0.0,-0.7129257315215657,0.0,0.0,0.0,0.0,0.0,0.0,0.26,0.0
799,0.0,0.0,0.0,0.0,0.0,0.9507314453125,0.0,0.0,0.0,0.0,0.0,0.0,-0.7129257315215657,0.0,0.0,0.0,0.0,0.0,0.0,-0.22,0.0
800,0.0,0.0,0.0,0.0,0.0,0.960595703125,0.0,0.0,0.0,0.0,0.0,0.0,-0.7129257315215657,0.0,0.0,0.0,0.0,0.0,0.0,-0.388,0.0
801,0.0,0.0,0.0,0.0,0.0,0.96798046875,0.0,0.0,0.0,0.0,0.0,0.0,-0.7129257315215657,0.0,0.0,0.0,0.0,0.0,0.0,-0.344,0.0
802,0.0,0.0,0.0,0.0,0.0,0.9729130859375,0.0,0.0,0.0,0.0,0.0,0.0,-0.7129257315215657,0.0,0.0,0.0,0.0,0.0,0.0,-0.532,0.0
803,0.0,0.0,0.0,0.0,0.0,0.9747587890625,0.0,0.0,0.0,0.0,0.0,0.0,-0.7129257315215657,0.0,0.0,0.0,0.0,0.0,0.0,-0.572,0.0
804,0.0,0.0,0.0,0.0,0.0,0.9735322265625,0.0,0.0,0.0,0.0,0.0,0.0,-0.7129257315215657,0.0,0.0,0.0,0.0,0.0,0.0,-0.592,0.0
805,0.0,0.0,0.0,0.0,0.0,0.969013671875,0.0,0.0,0.0,0.0,0.0,0.0,-0.7129257315215657,0.0,0.0,0.0,0.0,0.0,0.0,-0.468,0.0
806,0.0,0.0,0.0,0.0,0.0,0.9626484375,0.0,0.0,0.0,0.0,0.0,0.0,-0.7129257315215657,0.0,0.0,0.0,0.0,0.0,0.0,-0.388,0.0
807,0.0,0.0,0.0,0.0,0.0,0.9542177734375,0.0,0.0,0.0,0.0,0.0,0.0,-0.7129257315215657,0.0,0.0,0.0,0.0,0.0,0.0,-0.648,0.0
808,0.0,0.0,0.0,0.0,0.0,0.9427265625,0.0,0.0,0.0,0.0,0.0,0.0,-0.7129257315215657,0.0,0.0,0.0,0.0,0.0,0.0,-0.76,0.0
809,0.0,0.0,0.0,0.0,0.0,0.928150390625,0.0,0.0,0.0,0.0,0.0,0.0,-0.7129257315215657,0.0,0.0,0.0,0.0,0.0,0.0,-0.544,0.0
810,0.0,0.0,0.0,0.0,0.0,0.9125283203125,0.0,0.0,0.0,0.0,0.0,0.0,-0.7129257315215657,0.0,0.0,0.0,0.0,0.0,0.0,-0.084,0.0
811,0.0,0.0,0.0,0.0,0.0,0.8963125,0.0,0.0,0.0,0.0,0.0,0.0,-0.7129257315215657,0.0,0.0,0.0,0.0,0.0,0.0,-0.336,0.0
812,0.0,0.0,0.0,0.0,0.0,0.878017578125,0.0,0.0,0.0,0.0,0.0,0.0,-0.7129257315215657,0.0,0.0,0.0,0.0,0.0,0.0,-0.564,0.0
813,0.0,0.0,0.0,0.0,0.0,0.8587158203125,0.0,0.0,0.0,0.0,0.0,0.0,-0.7129257315215657,0.0,0.0,0.0,0.0,0.0,0.0,-0.156,0.0
814,0.0,0.0,0.0,0.0,0.0,0.839607421875,0.0,0.0,0.0,0.0,0.0,0.0,-0.7129257315215657,0.0,0.0,0.0,0.0,0.0,0.0,-0.336,0.0
815,0.0,0.0,0.0,0.0,0.0,0.8196728515625,0.0,0.0,0.0,0.0,0.0,0.0,-0.7129257315215657,0.0,0.0,0.0,0.0,0.0,0.0,-0.036,0.0
816,0.0,0.0,0.0,0.0,0.0,0.8005771484375,0.0,0.0,0.0,0.0,0.0,0.0,-0.7129257315215657,0.0,0.0,0.0,0.0,0.0,0.0,-0.244,0.0
817,0.0,0.0,0.0,0.0,0.0,0.7810556640625,0.0,0.0,0.0,0.0,0.0,0.0,-0.7129257315215657,0.0,0.0,0.0,0.0,0.0,0.0,-0.264,0.0
818,0.0,0.0,0.0,0.0,0.0,0.7627744140625,0.0,0.0,0.0,0.0,0.0,0.0,-0.7129257315215657,0.0,0.0,0.0,0.0,0.0,0.0,0.116,0.0
819,0.0,0.0,0.0,0.0,0.0,0.74571875,0.0,0.0,0.0,0.0,0.0,0.0,-0.7129257315215657,0.0,0.0,0.0,0.0,0.0,0.0,-0.292,0.0
820,0.0,0.0,0.0,0.0,0.0,0.72845703125,0.0,0.0,0.0,0.0,0.0,0.0,-0.7129257315215657,0.0,0.0,0.0,0.0,0.0,0.0,0.024,0.0
821,0.0,0.0,0.0,0.0,0.0,0.7126279296875,0.0,0.0,0.0,0.0,0.0,0.0,-0.7129257315215657,0.0,0.0,0.0,0.0,0.0,0.0,0.128,0.0
822,0.0,0.0,0.0,0.0,0.0,0.6980390625,0.0,0.0,0.0,0.0,0.0,0.0,-0.7129257315215657,0.0,0.0,0.0,0.0,0.0,0.0,-0.032,0.0
823,0.0,0.0,0.0,0.0,0.0,0.6852958984375,0.0,0.0,0.0,0.0,0.0,0.0,-0.7129257315215657,0.0,0.0,0.0,0.0,0.0,0.0,-0.004,0.0
824,0.0,0.0,0.0,0.0,0.0,0.67337890625,0.0,0.0,0.0,0.0,0.0,0.0,-0.7129257315215657,0.0,0.0,0.0,0.0,0.0,0.0,-0.22,0.0
825,0.0,0.0,0.0,0.0,0.0,0.661875,0.0,0.0,0.0,0.0,0.0,0.0,-0.7129257315215657,0.0,0.0,0.0,0.0,0.0,0.0,0.052,0.0
826,0.0,0.0,0.0,0.0,0.0,0.652205078125,0.0,0.0,0.0,0.0,0.0,0.0,-0.7129257315215657,0.0,0.0,0.0,0.0,0.0,0.0,0.136,0.0
827,0.0,0.0,0.0,0.0,0.0,0.6439931640625,0.0,0.0,0.0,0.0,0.0,0.0,-0.7129257315215657,0.0,0.0,0.0,0.0,0.0,0.0,-0.104,0.0
828,0.0,0.0,0.0,0.0,0.0,0.6355751953125,0.0,0.0,0.0,0.0,0.0,0.0,-0.7129257315215657,0.0,0.0,0.0,0.0,0.0,0.0,-0.036,0.0
829,0.0,0.0,0.0,0.0,0.0,0.6283837890625,0.0,0.0,0.0,0.0,0.0,0.0,-0.7129257315215657,0.0,0.0,0.0,0.0,0.0,0.0,-0.004,0.0
830,0.0,0.0,0.0,0.0,0.0,0.622005859375,0.0,0.0,0.0,0.0,0.0,0.0,-0.7129257315215657,0.0,0.0,0.0,0.0,0.0,0.0,-0.208,0.0
831,0.0,0.0,0.0,0.0,0.0,0.6156416015625,0.0,0.0,0.0,0.0,0.0,0.0,-0.7129257315215657,0.0,0.0,0.0,0.0,0.0,0.0,-0.252,0.0
832,0.0,0.0,0.0,0.0,0.0,0.6098828125,0.0,0.0,0.0,0.0,0.0,0.0,-0.7129257315215657,0.0,0.0,0.0,0.0,0.0,0.0,-0.264,0.0
833,0.0,0.0,0.0,0.0,0.0,0.6043310546875,0.0,0.0,0.0,0.0,0.0,0.0,-0.7129257315215657,0.0,0.0,0.0,0.0,0.0,0.0,-0.324,0.0
834,0.0,0.0,0.0,0.0,0.0,0.5985732421875,0.0,0.0,0.0,0.0,0.0,0.0,-0.7129257315215657,0.0,0.0,0.0,0.0,0.0,0.0,-0.332,0.0
835,0.0,0.0,0.0,0.0,0.0,0.592814453125,0.0,0.0,0.0,0.0,0.0,0.0,-0.7129257315215657,0.0,0.0,0.0,0.0,0.0,0.0,-0.492,0.0
836,0.0,0.0,0.0,0.0,0.0,0.5860361328125,0.0,0.0,0.0,0.0,0.0,0.0,-0.7129257315215657,0.0,0.0,0.0,0.0,0.0,0.0,-0.492,0.0
837,0.0,0.0,0.0,0.0,0.0,0.578638671875,0.0,0.0,0.0,0.0,0.0,0.0,-0.7129257315215657,0.0,0.0,0.0,0.0,0.0,0.0,-0.244,0.0
838,0.0,0.0,0.0,0.0,0.0,0.57143359375,0.0,0.0,0.0,0.0,0.0,0.0,-0.7129257315215657,0.0,0.0,0.0,0.0,0.0,0.0,-0.348,0.0
839,0.0,0.0,0.0,0.0,0.0,0.563623046875,0.0,0.0,0.0,0.0,0.0,0.0,-0.7129257315215657,0.0,0.0,0.0,0.0,0.0,0.0,-0.376,0.0
840,0.0,0.0,0.0,0.0,0.0,0.5553984375,0.0,0.0,0.0,0.0,0.0,0.0,-0.7129257315215657,0.0,0.0,0.0,0.0,0.0,0.0,-0.488,0.0
841,0.0,0.0,0.0,0.0,0.0,0.546154296875,0.0,0.0,0.0,0.0,0.0,0.0,-0.7129257315215657,0.0,0.0,0.0,0.0,0.0,0.0,-0.68,0.0
842,0.0,0.0,0.0,0.0,0.0,0.5358642578125,0.0,0.0,0.0,0.0,0.0,0.0,-0.7129257315215657,0.0,0.0,0.0,0.0,0.0,0.0,-0.5,0.0
843,0.0,0.0,0.0,0.0,0.0,0.5255869140625,0.0,0.0,0.0,0.0,0.0,0.0,-0.7129257315215657,0.0,0.0,0.0,0.0,0.0,0.0,-0.512,0.0
844,0.0,0.0,0.0,0.0,0.0,0.515310546875,0.0,0.0,0.0,0.0,0.0,0.0,-0.7129257315215657,0.0,0.0,0.0,0.0,0.0,0.0,-0.624,0.0
845,0.0,0.0,0.0,0.0,0.0,0.50420703125,0.0,0.0,0.0,0.0,0.0,0.0,-0.7129257315215657,0.0,0.0,0.0,0.0,0.0,0.0,-0.592,0.0
846,0.0,0.0,0.0,0.0,0.0,0.4924833984375,0.0,0.0,0.0,0.0,0.0,0.0,-0.7129257315215657,0.0,0.0,0.0,0.0,0.0,0.0,-0.504,0.0
847,0.0,0.0,0.0,0.0,0.0,0.4805537109375,0.0,0.0,0.0,0.0,0.0,0.0,-0.7129257315215657,0.0,0.0,0.0,0.0,0.0,0.0,-0.552,0.0
848,0.0,0.0,0.0,0.0,0.0,0.4686240234375,0.0,0.0,0.0,0.0,0.0,0.0,-0.7129257315215657,0.0,0.0,0.0,0.0,0.0,0.0,-0.504,0.0
849,0.0,0.0,0.0,0.0,0.0,0.45628125,0.0,0.0,0.0,0.0,0.0,0.0,-0.7129257315215657,0.0,0.0,0.0,0.0,0.0,0.0,-0.524,0.0
