EmanuelSamir/lab201_ws_projsamir/sawyer_dev/data/sawyer/temp/training_data_drad_new.csv
,j1,j2,j3,j4,j5,j6,j7,v1,v2,v3,v4,v5,v6,v7,jd1,jd2,jd3,jd4,jd5,jd6,jd7,e1,e2,e3,e4,e5,e6,e7
0,0.0,0.0,0.0,0.0,0.0,0.0,0.0,0.0,0.0,0.0,0.0,0.0,0.0,0.0,0.0,0.0,0.0,0.0,0.0,0.0,0.0,0.0,0.0,0.0,0.0,0.0,0.0,0.0
1,0.0,0.0,0.0,0.00224609375,0.0,0.0,0.0,0.0,0.0,0.0,-0.001,0.0,0.0,0.0,0.0,0.0,-1.61,0.0,0.0,0.0,0.0,0.0,0.0,0.0,0.48,0.0,0.0,0.0
2,0.0,0.0,0.0,0.00224609375,0.0,0.0,0.0,0.0,0.0,0.0,-0.001,0.0,0.0,0.0,0.0,0.0,-1.61,0.0028150218689749484,0.0,0.0,0.0,0.0,0.0,0.0,0.568,0.0,0.0,0.0
3,0.0,0.0,0.0,0.00224609375,0.0,0.0,0.0,0.0,0.0,0.0,-0.001,0.0,0.0,0.0,0.0,0.0,-1.61,0.005629954508286418,0.0,0.0,0.0,0.0,0.0,0.0,0.524,0.0,0.0,0.0
4,0.0,0.0,0.0,0.00224609375,0.0,0.0,0.0,0.0,0.0,0.0,-0.001,0.0,0.0,0.0,0.0,0.0,-1.61,0.008444708691099327,0.0,0.0,0.0,0.0,0.0,0.0,0.592,0.0,0.0,0.0
5,0.0,0.0,0.0,0.00224609375,0.0,0.0,0.0,0.0,0.0,0.0,-0.001,0.0,0.0,0.0,0.0,0.0,-1.61,0.011259195196235307,0.0,0.0,0.0,0.0,0.0,0.0,0.5,0.0,0.0,0.0
6,0.0,0.0,0.0,0.00224609375,0.0,0.0,0.0,0.0,0.0,0.0,-0.001,0.0,0.0,0.0,0.0,0.0,-1.61,0.01407332481100083,0.0,0.0,0.0,0.0,0.0,0.0,0.592,0.0,0.0,0.0
7,0.0,0.0,0.0,0.0029677734375,0.0,0.0,0.0,0.0,0.0,0.0,0.025,0.0,0.0,0.0,0.0,0.0,-1.61,0.01688700833401506,0.0,0.0,0.0,0.0,0.0,0.0,2.192,0.0,0.0,0.0
8,0.0,0.0,0.0,0.004708984375,0.0,0.0,0.0,0.0,0.0,0.0,0.12,0.0,0.0,0.0,0.0,0.0,-1.61,0.019700156578037385,0.0,0.0,0.0,0.0,0.0,0.0,2.856,0.0,0.0,0.0
9,0.0,0.0,0.0,0.00644140625,0.0,0.0,0.0,0.0,0.0,0.0,0.172,0.0,0.0,0.0,0.0,0.0,-1.61,0.02251268037279443,0.0,0.0,0.0,0.0,0.0,0.0,2.904,0.0,0.0,0.0
10,0.0,0.0,0.0,0.0089052734375,0.0,0.0,0.0,0.0,0.0,0.0,0.201,0.0,0.0,0.0,0.0,0.0,-1.61,0.025324490567806616,0.0,0.0,0.0,0.0,0.0,0.0,2.788,0.0,0.0,0.0
11,0.0,0.0,0.0,0.0115126953125,0.0,0.0,0.0,0.0,0.0,0.0,0.257,0.0,0.0,0.0,0.0,0.0,-1.61,0.02813549803521401,0.0,0.0,0.0,0.0,0.0,0.0,1.76,0.0,0.0,0.0
12,0.0,0.0,0.0,0.0142734375,0.0,0.0,0.0,0.0,0.0,0.0,0.271,0.0,0.0,0.0,0.0,0.0,-1.61,0.030945613672601544,0.0,0.0,0.0,0.0,0.0,0.0,1.668,0.0,0.0,0.0
13,0.0,0.0,0.0,0.0170263671875,0.0,0.0,0.0,0.0,0.0,0.0,0.271,0.0,0.0,0.0,0.0,0.0,-1.61,0.03375474840582333,0.0,0.0,0.0,0.0,0.0,0.0,1.94,0.0,0.0,0.0
14,0.0,0.0,0.0,0.0199228515625,0.0,0.0,0.0,0.0,0.0,0.0,0.285,0.0,0.0,0.0,0.0,0.0,-1.61,0.036562813191826166,0.0,0.0,0.0,0.0,0.0,0.0,2.216,0.0,0.0,0.0
15,0.0,0.0,0.0,0.023107421875,0.0,0.0,0.0,0.0,0.0,0.0,0.303,0.0,0.0,0.0,0.0,0.0,-1.61,0.03936971902147201,0.0,0.0,0.0,0.0,0.0,0.0,2.264,0.0,0.0,0.0
16,0.0,0.0,0.0,0.0267265625,0.0,0.0,0.0,0.0,0.0,0.0,0.34,0.0,0.0,0.0,0.0,0.0,-1.61,0.04217537692235938,0.0,0.0,0.0,0.0,0.0,0.0,1.804,0.0,0.0,0.0
17,0.0,0.0,0.0,0.0302001953125,0.0,0.0,0.0,0.0,0.0,0.0,0.354,0.0,0.0,0.0,0.0,0.0,-1.61,0.04497969796164362,0.0,0.0,0.0,0.0,0.0,0.0,1.348,0.0,0.0,0.0
18,0.0,0.0,0.0,0.033828125,0.0,0.0,0.0,0.0,0.0,0.0,0.355,0.0,0.0,0.0,0.0,0.0,-1.61,0.047782593248855865,0.0,0.0,0.0,0.0,0.0,0.0,0.98,0.0,0.0,0.0
19,0.0,0.0,0.0,0.0373017578125,0.0,0.0,0.0,0.0,0.0,0.0,0.357,0.0,0.0,0.0,0.0,0.0,-1.61,0.050583973938720696,0.0,0.0,0.0,0.0,0.0,0.0,0.936,0.0,0.0,0.0
20,0.0,0.0,0.0,0.040640625,0.0,0.0,0.0,0.0,0.0,0.0,0.342,0.0,0.0,0.0,0.0,0.0,-1.61,0.05338375123397238,0.0,0.0,0.0,0.0,0.0,0.0,1.46,0.0,0.0,0.0
21,0.0,0.0,0.0,0.043681640625,0.0,0.0,0.0,0.0,0.0,0.0,0.325,0.0,0.0,0.0,0.0,0.0,-1.61,0.05618183638816955,0.0,0.0,0.0,0.0,0.0,0.0,1.576,0.0,0.0,0.0
22,0.0,0.0,0.0,0.0468662109375,0.0,0.0,0.0,0.0,0.0,0.0,0.31,0.0,0.0,0.0,0.0,0.0,-1.61,0.05897814070850824,0.0,0.0,0.0,0.0,0.0,0.0,1.324,0.0,0.0,0.0
23,0.0,0.0,0.0,0.0499072265625,0.0,0.0,0.0,0.0,0.0,0.0,0.316,0.0,0.0,0.0,0.0,0.0,-1.61,0.06177257555863334,0.0,0.0,0.0,0.0,0.0,0.0,1.188,0.0,0.0,0.0
24,0.0,0.0,0.0,0.052794921875,0.0,0.0,0.0,0.0,0.0,0.0,0.301,0.0,0.0,0.0,0.0,0.0,-1.61,0.06456505236144813,0.0,0.0,0.0,0.0,0.0,0.0,0.5,0.0,0.0,0.0
25,0.0,0.0,0.0,0.055412109375,0.0,0.0,0.0,0.0,0.0,0.0,0.275,0.0,0.0,0.0,0.0,0.0,-1.61,0.06735548260192208,0.0,0.0,0.0,0.0,0.0,0.0,0.272,0.0,0.0,0.0
26,0.0,0.0,0.0,0.0584521484375,0.0,0.0,0.0,0.0,0.0,0.0,0.276,0.0,0.0,0.0,0.0,0.0,-1.61,0.07014377782989643,0.0,0.0,0.0,0.0,0.0,0.0,1.28,0.0,0.0,0.0
27,0.0,0.0,0.0,0.0617822265625,0.0,0.0,0.0,0.0,0.0,0.0,0.325,0.0,0.0,0.0,0.0,0.0,-1.61,0.07292984966288811,0.0,0.0,0.0,0.0,0.0,0.0,0.98,0.0,0.0,0.0
28,0.0,0.0,0.0,0.0646787109375,0.0,0.0,0.0,0.0,0.0,0.0,0.315,0.0,0.0,0.0,0.0,0.0,-1.61,0.0757136097888911,0.0,0.0,0.0,0.0,0.0,0.0,0.936,0.0,0.0,0.0
29,0.0,0.0,0.0,0.0680087890625,0.0,0.0,0.0,0.0,0.0,0.0,0.308,0.0,0.0,0.0,0.0,0.0,-1.61,0.07849496996917578,0.0,0.0,0.0,0.0,0.0,0.0,0.548,0.0,0.0,0.0
30,0.0,0.0,0.0,0.0713466796875,0.0,0.0,0.0,0.0,0.0,0.0,0.341,0.0,0.0,0.0,0.0,0.0,-1.61,0.08127384204108594,0.0,0.0,0.0,0.0,0.0,0.0,-0.5,0.0,0.0,0.0
31,0.0,0.0,0.0,0.0743876953125,0.0,0.0,0.0,0.0,0.0,0.0,0.322,0.0,0.0,0.0,0.0,0.0,-1.61,0.08405013792083346,0.0,0.0,0.0,0.0,0.0,0.0,-0.364,0.0,0.0,0.0
32,0.0,0.0,0.0,0.0771396484375,0.0,0.0,0.0,0.0,0.0,0.0,0.285,0.0,0.0,0.0,0.0,0.0,-1.61,0.08682376960629017,0.0,0.0,0.0,0.0,0.0,0.0,-0.408,0.0,0.0,0.0
33,0.0,0.0,0.0,0.0800361328125,0.0,0.0,0.0,0.0,0.0,0.0,0.286,0.0,0.0,0.0,0.0,0.0,-1.61,0.08959464917977752,0.0,0.0,0.0,0.0,0.0,0.0,-0.228,0.0,0.0,0.0
34,0.0,0.0,0.0,0.0829326171875,0.0,0.0,0.0,0.0,0.0,0.0,0.291,0.0,0.0,0.0,0.0,0.0,-1.61,0.0923626888108533,0.0,0.0,0.0,0.0,0.0,0.0,-0.16,0.0,0.0,0.0
35,0.0,0.0,0.0,0.085830078125,0.0,0.0,0.0,0.0,0.0,0.0,0.291,0.0,0.0,0.0,0.0,0.0,-1.61,0.09512780075909567,0.0,0.0,0.0,0.0,0.0,0.0,-0.364,0.0,0.0,0.0
36,0.0,0.0,0.0,0.0890146484375,0.0,0.0,0.0,0.0,0.0,0.0,0.3,0.0,0.0,0.0,0.0,0.0,-1.61,0.09788989737688451,0.0,0.0,0.0,0.0,0.0,0.0,-0.82,0.0,0.0,0.0
37,0.0,0.0,0.0,0.0920556640625,0.0,0.0,0.0,0.0,0.0,0.0,0.31,0.0,0.0,0.0,0.0,0.0,-1.61,0.10064889111217942,0.0,0.0,0.0,0.0,0.0,0.0,-1.256,0.0,0.0,0.0
38,0.0,0.0,0.0,0.0949521484375,0.0,0.0,0.0,0.0,0.0,0.0,0.303,0.0,0.0,0.0,0.0,0.0,-1.61,0.10340469451129522,0.0,0.0,0.0,0.0,0.0,0.0,-1.372,0.0,0.0,0.0
39,0.0,0.0,0.0,0.098001953125,0.0,0.0,0.0,0.0,0.0,0.0,0.298,0.0,0.0,0.0,0.0,0.0,-1.61,0.10615722022167376,0.0,0.0,0.0,0.0,0.0,0.0,-0.684,0.0,0.0,0.0
40,0.0,0.0,0.0,0.10104296875,0.0,0.0,0.0,0.0,0.0,0.0,0.309,0.0,0.0,0.0,0.0,0.0,-1.61,0.1089063809946531,0.0,0.0,0.0,0.0,0.0,0.0,-0.18,0.0,0.0,0.0
41,0.0,0.0,0.0,0.1037861328125,0.0,0.0,0.0,0.0,0.0,0.0,0.293,0.0,0.0,0.0,0.0,0.0,-1.61,0.1116520896882329,0.0,0.0,0.0,0.0,0.0,0.0,-0.16,0.0,0.0,0.0
42,0.0,0.0,0.0,0.1065380859375,0.0,0.0,0.0,0.0,0.0,0.0,0.279,0.0,0.0,0.0,0.0,0.0,-1.61,0.11439425926983675,0.0,0.0,0.0,0.0,0.0,0.0,-0.16,0.0,0.0,0.0
43,0.0,0.0,0.0,0.109146484375,0.0,0.0,0.0,0.0,0.0,0.0,0.274,0.0,0.0,0.0,0.0,0.0,-1.61,0.11713280281907089,0.0,0.0,0.0,0.0,0.0,0.0,-0.48,0.0,0.0,0.0
44,0.0,0.0,0.0,0.11175390625,0.0,0.0,0.0,0.0,0.0,0.0,0.258,0.0,0.0,0.0,0.0,0.0,-1.61,0.1198676335304795,0.0,0.0,0.0,0.0,0.0,0.0,0.32,0.0,0.0,0.0
45,0.0,0.0,0.0,0.1142177734375,0.0,0.0,0.0,0.0,0.0,0.0,0.258,0.0,0.0,0.0,0.0,0.0,-1.61,0.12259866471629606,0.0,0.0,0.0,0.0,0.0,0.0,0.844,0.0,0.0,0.0
46,0.0,0.0,0.0,0.1166806640625,0.0,0.0,0.0,0.0,0.0,0.0,0.248,0.0,0.0,0.0,0.0,0.0,-1.61,0.1253258098091914,0.0,0.0,0.0,0.0,0.0,0.0,0.752,0.0,0.0,0.0
47,0.0,0.0,0.0,0.119,0.0,0.0,0.0,0.0,0.0,0.0,0.234,0.0,0.0,0.0,0.0,0.0,-1.61,0.12804898236501747,0.0,0.0,0.0,0.0,0.0,0.0,0.708,0.0,0.0,0.0
48,0.0,0.0,0.0,0.121462890625,0.0,0.0,0.0,0.0,0.0,0.0,0.244,0.0,0.0,0.0,0.0,0.0,-1.61,0.1307680960655477,0.0,0.0,0.0,0.0,0.0,0.0,0.548,0.0,0.0,0.0
49,0.0,0.0,0.0,0.12421484375,0.0,0.0,0.0,0.0,0.0,0.0,0.265,0.0,0.0,0.0,0.0,0.0,-1.61,0.1334830647212129,0.0,0.0,0.0,0.0,0.0,0.0,0.524,0.0,0.0,0.0
50,0.0,0.0,0.0,0.1263896484375,0.0,0.0,0.0,0.0,0.0,0.0,0.249,0.0,0.0,0.0,0.0,0.0,-1.61,0.1361938022738335,0.0,0.0,0.0,0.0,0.0,0.0,0.272,0.0,0.0,0.0
51,0.0,0.0,0.0,0.1284111328125,0.0,0.0,0.0,0.0,0.0,0.0,0.21,0.0,0.0,0.0,0.0,0.0,-1.61,0.13890022279934708,0.0,0.0,0.0,0.0,0.0,0.0,0.456,0.0,0.0,0.0
52,0.0,0.0,0.0,0.1310185546875,0.0,0.0,0.0,0.0,0.0,0.0,0.23,0.0,0.0,0.0,0.0,0.0,-1.61,0.14160224051053236,0.0,0.0,0.0,0.0,0.0,0.0,1.052,0.0,0.0,0.0
53,0.0,0.0,0.0,0.133771484375,0.0,0.0,0.0,0.0,0.0,0.0,0.269,0.0,0.0,0.0,0.0,0.0,-1.61,0.14429976975972836,0.0,0.0,0.0,0.0,0.0,0.0,1.392,0.0,0.0,0.0
54,0.0,0.0,0.0,0.1362431640625,0.0,0.0,0.0,0.0,0.0,0.0,0.262,0.0,0.0,0.0,0.0,0.0,-1.61,0.14699272504154903,0.0,0.0,0.0,0.0,0.0,0.0,0.868,0.0,0.0,0.0
55,0.0,0.0,0.0,0.1388515625,0.0,0.0,0.0,0.0,0.0,0.0,0.247,0.0,0.0,0.0,0.0,0.0,-1.61,0.14968102099559397,0.0,0.0,0.0,0.0,0.0,0.0,0.708,0.0,0.0,0.0
56,0.0,0.0,0.0,0.141603515625,0.0,0.0,0.0,0.0,0.0,0.0,0.277,0.0,0.0,0.0,0.0,0.0,-1.61,0.15236457240915385,0.0,0.0,0.0,0.0,0.0,0.0,0.228,0.0,0.0,0.0
57,0.0,0.0,0.0,0.1440576171875,0.0,0.0,0.0,0.0,0.0,0.0,0.273,0.0,0.0,0.0,0.0,0.0,-1.61,0.15504329421991178,0.0,0.0,0.0,0.0,0.0,0.0,-0.388,0.0,0.0,0.0
58,0.0,0.0,0.0,0.1466650390625,0.0,0.0,0.0,0.0,0.0,0.0,0.243,0.0,0.0,0.0,0.0,0.0,-1.61,0.15771710151863924,0.0,0.0,0.0,0.0,0.0,0.0,0.708,0.0,0.0,0.0
59,0.0,0.0,0.0,0.1495625,0.0,0.0,0.0,0.0,0.0,0.0,0.275,0.0,0.0,0.0,0.0,0.0,-1.61,0.16038590955188786,0.0,0.0,0.0,0.0,0.0,0.0,1.096,0.0,0.0,0.0
60,0.0,0.0,0.0,0.152314453125,0.0,0.0,0.0,0.0,0.0,0.0,0.292,0.0,0.0,0.0,0.0,0.0,-1.61,0.16304963372467587,0.0,0.0,0.0,0.0,0.0,0.0,0.18,0.0,0.0,0.0
61,0.0,0.0,0.0,0.1552109375,0.0,0.0,0.0,0.0,0.0,0.0,0.279,0.0,0.0,0.0,0.0,0.0,-1.61,0.16570818960316938,0.0,0.0,0.0,0.0,0.0,0.0,0.204,0.0,0.0,0.0
62,0.0,0.0,0.0,0.1579716796875,0.0,0.0,0.0,0.0,0.0,0.0,0.285,0.0,0.0,0.0,0.0,0.0,-1.61,0.16836149291735902,0.0,0.0,0.0,0.0,0.0,0.0,-0.568,0.0,0.0,0.0
63,0.0,0.0,0.0,0.160580078125,0.0,0.0,0.0,0.0,0.0,0.0,0.266,0.0,0.0,0.0,0.0,0.0,-1.61,0.17100945956373095,0.0,0.0,0.0,0.0,0.0,0.0,-0.16,0.0,0.0,0.0
64,0.0,0.0,0.0,0.1634765625,0.0,0.0,0.0,0.0,0.0,0.0,0.276,0.0,0.0,0.0,0.0,0.0,-1.61,0.1736520056079328,0.0,0.0,0.0,0.0,0.0,0.0,0.64,0.0,0.0,0.0
65,0.0,0.0,0.0,0.166373046875,0.0,0.0,0.0,0.0,0.0,0.0,0.291,0.0,0.0,0.0,0.0,0.0,-1.61,0.17628904728743428,0.0,0.0,0.0,0.0,0.0,0.0,1.348,0.0,0.0,0.0
66,0.0,0.0,0.0,0.16926953125,0.0,0.0,0.0,0.0,0.0,0.0,0.291,0.0,0.0,0.0,0.0,0.0,-1.61,0.17892050101418228,0.0,0.0,0.0,0.0,0.0,0.0,0.96,0.0,0.0,0.0
67,0.0,0.0,0.0,0.172021484375,0.0,0.0,0.0,0.0,0.0,0.0,0.281,0.0,0.0,0.0,0.0,0.0,-1.61,0.18154628337725032,0.0,0.0,0.0,0.0,0.0,0.0,0.296,0.0,0.0,0.0
68,0.0,0.0,0.0,0.1744755859375,0.0,0.0,0.0,0.0,0.0,0.0,0.266,0.0,0.0,0.0,0.0,0.0,-1.61,0.18416631114548265,0.0,0.0,0.0,0.0,0.0,0.0,-0.432,0.0,0.0,0.0
69,0.0,0.0,0.0,0.1766591796875,0.0,0.0,0.0,0.0,0.0,0.0,0.234,0.0,0.0,0.0,0.0,0.0,-1.61,0.18678050127013238,0.0,0.0,0.0,0.0,0.0,0.0,0.16,0.0,0.0,0.0
70,0.0,0.0,0.0,0.179123046875,0.0,0.0,0.0,0.0,0.0,0.0,0.233,0.0,0.0,0.0,0.0,0.0,-1.61,0.1893887708874941,0.0,0.0,0.0,0.0,0.0,0.0,1.14,0.0,0.0,0.0
71,0.0,0.0,0.0,0.18144140625,0.0,0.0,0.0,0.0,0.0,0.0,0.242,0.0,0.0,0.0,0.0,0.0,-1.61,0.19199103732153028,0.0,0.0,0.0,0.0,0.0,0.0,1.212,0.0,0.0,0.0
72,0.0,0.0,0.0,0.183896484375,0.0,0.0,0.0,0.0,0.0,0.0,0.234,0.0,0.0,0.0,0.0,0.0,-1.61,0.19458721808649213,0.0,0.0,0.0,0.0,0.0,0.0,0.912,0.0,0.0,0.0
73,0.0,0.0,0.0,0.18650390625,0.0,0.0,0.0,0.0,0.0,0.0,0.253,0.0,0.0,0.0,0.0,0.0,-1.61,0.1971772308895342,0.0,0.0,0.0,0.0,0.0,0.0,0.568,0.0,0.0,0.0
74,0.0,0.0,0.0,0.189255859375,0.0,0.0,0.0,0.0,0.0,0.0,0.271,0.0,0.0,0.0,0.0,0.0,-1.61,0.19976099363332278,0.0,0.0,0.0,0.0,0.0,0.0,-0.136,0.0,0.0,0.0
75,0.0,0.0,0.0,0.1920078125,0.0,0.0,0.0,0.0,0.0,0.0,0.274,0.0,0.0,0.0,0.0,0.0,-1.61,0.2023384244186382,0.0,0.0,0.0,0.0,0.0,0.0,0.228,0.0,0.0,0.0
76,0.0,0.0,0.0,0.1947607421875,0.0,0.0,0.0,0.0,0.0,0.0,0.284,0.0,0.0,0.0,0.0,0.0,-1.61,0.20490944154697105,0.0,0.0,0.0,0.0,0.0,0.0,0.728,0.0,0.0,0.0
77,0.0,0.0,0.0,0.197521484375,0.0,0.0,0.0,0.0,0.0,0.0,0.275,0.0,0.0,0.0,0.0,0.0,-1.61,0.2074739635231117,0.0,0.0,0.0,0.0,0.0,0.0,0.8,0.0,0.0,0.0
78,0.0,0.0,0.0,0.2002734375,0.0,0.0,0.0,0.0,0.0,0.0,0.27,0.0,0.0,0.0,0.0,0.0,-1.61,0.21003190905773358,0.0,0.0,0.0,0.0,0.0,0.0,0.616,0.0,0.0,0.0
79,0.0,0.0,0.0,0.2028818359375,0.0,0.0,0.0,0.0,0.0,0.0,0.276,0.0,0.0,0.0,0.0,0.0,-1.61,0.21258319706996984,0.0,0.0,0.0,0.0,0.0,0.0,0.136,0.0,0.0,0.0
80,0.0,0.0,0.0,0.2056337890625,0.0,0.0,0.0,0.0,0.0,0.0,0.272,0.0,0.0,0.0,0.0,0.0,-1.61,0.21512774668998355,0.0,0.0,0.0,0.0,0.0,0.0,0.136,0.0,0.0,0.0
81,0.0,0.0,0.0,0.208232421875,0.0,0.0,0.0,0.0,0.0,0.0,0.268,0.0,0.0,0.0,0.0,0.0,-1.61,0.217665477261531,0.0,0.0,0.0,0.0,0.0,0.0,-0.088,0.0,0.0,0.0
82,0.0,0.0,0.0,0.2106953125,0.0,0.0,0.0,0.0,0.0,0.0,0.251,0.0,0.0,0.0,0.0,0.0,-1.61,0.2201963083445183,0.0,0.0,0.0,0.0,0.0,0.0,-0.16,0.0,0.0,0.0
83,0.0,0.0,0.0,0.2131591796875,0.0,0.0,0.0,0.0,0.0,0.0,0.252,0.0,0.0,0.0,0.0,0.0,-1.61,0.22272015971755138,0.0,0.0,0.0,0.0,0.0,0.0,-0.248,0.0,0.0,0.0
84,0.0,0.0,0.0,0.2154873046875,0.0,0.0,0.0,0.0,0.0,0.0,0.242,0.0,0.0,0.0,0.0,0.0,-1.61,0.22523695138047853,0.0,0.0,0.0,0.0,0.0,0.0,0.136,0.0,0.0,0.0
85,0.0,0.0,0.0,0.2180947265625,0.0,0.0,0.0,0.0,0.0,0.0,0.251,0.0,0.0,0.0,0.0,0.0,-1.61,0.2277466035569265,0.0,0.0,0.0,0.0,0.0,0.0,0.0,0.0,0.0,0.0
86,0.0,0.0,0.0,0.220548828125,0.0,0.0,0.0,0.0,0.0,0.0,0.254,0.0,0.0,0.0,0.0,0.0,-1.61,0.23024903669682914,0.0,0.0,0.0,0.0,0.0,0.0,0.0,0.0,0.0,0.0
87,0.0,0.0,0.0,0.2233017578125,0.0,0.0,0.0,0.0,0.0,0.0,0.261,0.0,0.0,0.0,0.0,0.0,-1.61,0.23274417147894894,0.0,0.0,0.0,0.0,0.0,0.0,0.204,0.0,0.0,0.0
88,0.0,0.0,0.0,0.2260537109375,0.0,0.0,0.0,0.0,0.0,0.0,0.273,0.0,0.0,0.0,0.0,0.0,-1.61,0.2352319288133914,0.0,0.0,0.0,0.0,0.0,0.0,0.112,0.0,0.0,0.0
89,0.0,0.0,0.0,0.2289501953125,0.0,0.0,0.0,0.0,0.0,0.0,0.282,0.0,0.0,0.0,0.0,0.0,-1.61,0.23771222984411194,0.0,0.0,0.0,0.0,0.0,0.0,0.524,0.0,0.0,0.0
90,0.0,0.0,0.0,0.2314130859375,0.0,0.0,0.0,0.0,0.0,0.0,0.273,0.0,0.0,0.0,0.0,0.0,-1.61,0.24018499595141565,0.0,0.0,0.0,0.0,0.0,0.0,0.364,0.0,0.0,0.0
91,0.0,0.0,0.0,0.234021484375,0.0,0.0,0.0,0.0,0.0,0.0,0.252,0.0,0.0,0.0,0.0,0.0,-1.61,0.2426501487544491,0.0,0.0,0.0,0.0,0.0,0.0,0.48,0.0,0.0,0.0
92,0.0,0.0,0.0,0.236349609375,0.0,0.0,0.0,0.0,0.0,0.0,0.253,0.0,0.0,0.0,0.0,0.0,-1.61,0.2451076101136851,0.0,0.0,0.0,0.0,0.0,0.0,0.32,0.0,0.0,0.0
93,0.0,0.0,0.0,0.2386591796875,0.0,0.0,0.0,0.0,0.0,0.0,0.232,0.0,0.0,0.0,0.0,0.0,-1.61,0.24755730213339935,0.0,0.0,0.0,0.0,0.0,0.0,0.684,0.0,0.0,0.0
94,0.0,0.0,0.0,0.241123046875,0.0,0.0,0.0,0.0,0.0,0.0,0.237,0.0,0.0,0.0,0.0,0.0,-1.61,0.24999914716413987,0.0,0.0,0.0,0.0,0.0,0.0,1.052,0.0,0.0,0.0
95,0.0,0.0,0.0,0.2435859375,0.0,0.0,0.0,0.0,0.0,0.0,0.248,0.0,0.0,0.0,0.0,0.0,-1.61,0.2524330678051878,0.0,0.0,0.0,0.0,0.0,0.0,0.96,0.0,0.0,0.0
96,0.0,0.0,0.0,0.2460498046875,0.0,0.0,0.0,0.0,0.0,0.0,0.246,0.0,0.0,0.0,0.0,0.0,-1.61,0.2548589869070115,0.0,0.0,0.0,0.0,0.0,0.0,0.456,0.0,0.0,0.0
97,0.0,0.0,0.0,0.2480703125,0.0,0.0,0.0,0.0,0.0,0.0,0.233,0.0,0.0,0.0,0.0,0.0,-1.61,0.2572768275737114,0.0,0.0,0.0,0.0,0.0,0.0,-0.432,0.0,0.0,0.0
98,0.0,0.0,0.0,0.2502451171875,0.0,0.0,0.0,0.0,0.0,0.0,0.212,0.0,0.0,0.0,0.0,0.0,-1.61,0.25968651316545804,0.0,0.0,0.0,0.0,0.0,0.0,-0.02,0.0,0.0,0.0
99,0.0,0.0,0.0,0.252708984375,0.0,0.0,0.0,0.0,0.0,0.0,0.23,0.0,0.0,0.0,0.0,0.0,-1.61,0.26208796730092077,0.0,0.0,0.0,0.0,0.0,0.0,0.592,0.0,0.0,0.0
100,0.0,0.0,0.0,0.255037109375,0.0,0.0,0.0,0.0,0.0,0.0,0.238,0.0,0.0,0.0,0.0,0.0,-1.61,0.26448111385968937,0.0,0.0,0.0,0.0,0.0,0.0,1.212,0.0,0.0,0.0
101,0.0,0.0,0.0,0.2574912109375,0.0,0.0,0.0,0.0,0.0,0.0,0.239,0.0,0.0,0.0,0.0,0.0,-1.61,0.26686587698468667,0.0,0.0,0.0,0.0,0.0,0.0,1.164,0.0,0.0,0.0
102,0.0,0.0,0.0,0.2628505859375,0.0,0.0,0.0,0.0,0.0,0.0,0.268,0.0,0.0,0.0,0.0,0.0,-1.61,0.2692421810845731,0.0,0.0,0.0,0.0,0.0,0.0,0.136,0.0,0.0,0.0
103,0.0,0.0,0.0,0.2628505859375,0.0,0.0,0.0,0.0,0.0,0.0,0.268,0.0,0.0,0.0,0.0,0.0,-1.61,0.2716099508361428,0.0,0.0,0.0,0.0,0.0,0.0,0.136,0.0,0.0,0.0
104,0.0,0.0,0.0,0.265169921875,0.0,0.0,0.0,0.0,0.0,0.0,0.258,0.0,0.0,0.0,0.0,0.0,-1.61,0.27396911118671124,0.0,0.0,0.0,0.0,0.0,0.0,-0.5,0.0,0.0,0.0
105,0.0,0.0,0.0,0.2672001953125,0.0,0.0,0.0,0.0,0.0,0.0,0.221,0.0,0.0,0.0,0.0,0.0,-1.61,0.276319587356494,0.0,0.0,0.0,0.0,0.0,0.0,-0.408,0.0,0.0,0.0
106,0.0,0.0,0.0,0.2692216796875,0.0,0.0,0.0,0.0,0.0,0.0,0.202,0.0,0.0,0.0,0.0,0.0,-1.61,0.27866130484097745,0.0,0.0,0.0,0.0,0.0,0.0,0.32,0.0,0.0,0.0
107,0.0,0.0,0.0,0.271541015625,0.0,0.0,0.0,0.0,0.0,0.0,0.223,0.0,0.0,0.0,0.0,0.0,-1.61,0.28099418941328025,0.0,0.0,0.0,0.0,0.0,0.0,0.844,0.0,0.0,0.0
108,0.0,0.0,0.0,0.273869140625,0.0,0.0,0.0,0.0,0.0,0.0,0.237,0.0,0.0,0.0,0.0,0.0,-1.61,0.28331816712650615,0.0,0.0,0.0,0.0,0.0,0.0,0.616,0.0,0.0,0.0
109,0.0,0.0,0.0,0.2761787109375,0.0,0.0,0.0,0.0,0.0,0.0,0.23,0.0,0.0,0.0,0.0,0.0,-1.61,0.285633164316088,0.0,0.0,0.0,0.0,0.0,0.0,0.0,0.0,0.0,0.0
110,0.0,0.0,0.0,0.2786416015625,0.0,0.0,0.0,0.0,0.0,0.0,0.24,0.0,0.0,0.0,0.0,0.0,-1.61,0.28793910760212255,0.0,0.0,0.0,0.0,0.0,0.0,-0.592,0.0,0.0,0.0
111,0.0,0.0,0.0,0.2809609375,0.0,0.0,0.0,0.0,0.0,0.0,0.238,0.0,0.0,0.0,0.0,0.0,-1.61,0.2902359238916969,0.0,0.0,0.0,0.0,0.0,0.0,-1.004,0.0,0.0,0.0
112,0.0,0.0,0.0,0.2831357421875,0.0,0.0,0.0,0.0,0.0,0.0,0.228,0.0,0.0,0.0,0.0,0.0,-1.61,0.2925235403812049,0.0,0.0,0.0,0.0,0.0,0.0,-0.18,0.0,0.0,0.0
113,0.0,0.0,0.0,0.2854453125,0.0,0.0,0.0,0.0,0.0,0.0,0.225,0.0,0.0,0.0,0.0,0.0,-1.61,0.29480188455865514,0.0,0.0,0.0,0.0,0.0,0.0,0.524,0.0,0.0,0.0
114,0.0,0.0,0.0,0.2877646484375,0.0,0.0,0.0,0.0,0.0,0.0,0.227,0.0,0.0,0.0,0.0,0.0,-1.61,0.2970708842059694,0.0,0.0,0.0,0.0,0.0,0.0,1.028,0.0,0.0,0.0
115,0.0,0.0,0.0,0.2905166015625,0.0,0.0,0.0,0.0,0.0,0.0,0.255,0.0,0.0,0.0,0.0,0.0,-1.61,0.29933046740127167,0.0,0.0,0.0,0.0,0.0,0.0,0.844,0.0,0.0,0.0
116,0.0,0.0,0.0,0.29298046875,0.0,0.0,0.0,0.0,0.0,0.0,0.259,0.0,0.0,0.0,0.0,0.0,-1.61,0.3015805625211681,0.0,0.0,0.0,0.0,0.0,0.0,0.592,0.0,0.0,0.0
117,0.0,0.0,0.0,0.295453125,0.0,0.0,0.0,0.0,0.0,0.0,0.254,0.0,0.0,0.0,0.0,0.0,-1.61,0.3038210982430171,0.0,0.0,0.0,0.0,0.0,0.0,0.272,0.0,0.0,0.0
118,0.0,0.0,0.0,0.2977626953125,0.0,0.0,0.0,0.0,0.0,0.0,0.244,0.0,0.0,0.0,0.0,0.0,-1.61,0.3060520035471904,0.0,0.0,0.0,0.0,0.0,0.0,0.0,0.0,0.0,0.0
119,0.0,0.0,0.0,0.29979296875,0.0,0.0,0.0,0.0,0.0,0.0,0.212,0.0,0.0,0.0,0.0,0.0,-1.61,0.308273207719324,0.0,0.0,0.0,0.0,0.0,0.0,0.296,0.0,0.0,0.0
120,0.0,0.0,0.0,0.3019677734375,0.0,0.0,0.0,0.0,0.0,0.0,0.211,0.0,0.0,0.0,0.0,0.0,-1.61,0.3104846403525595,0.0,0.0,0.0,0.0,0.0,0.0,1.164,0.0,0.0,0.0
121,0.0,0.0,0.0,0.30427734375,0.0,0.0,0.0,0.0,0.0,0.0,0.224,0.0,0.0,0.0,0.0,0.0,-1.61,0.31268623134977647,0.0,0.0,0.0,0.0,0.0,0.0,1.552,0.0,0.0,0.0
122,0.0,0.0,0.0,0.3064521484375,0.0,0.0,0.0,0.0,0.0,0.0,0.233,0.0,0.0,0.0,0.0,0.0,-1.61,0.31487791092581346,0.0,0.0,0.0,0.0,0.0,0.0,0.64,0.0,0.0,0.0
123,0.0,0.0,0.0,0.308771484375,0.0,0.0,0.0,0.0,0.0,0.0,0.226,0.0,0.0,0.0,0.0,0.0,-1.61,0.317059609609681,0.0,0.0,0.0,0.0,0.0,0.0,0.432,0.0,0.0,0.0
124,0.0,0.0,0.0,0.311234375,0.0,0.0,0.0,0.0,0.0,0.0,0.244,0.0,0.0,0.0,0.0,0.0,-1.61,0.3192312582467629,0.0,0.0,0.0,0.0,0.0,0.0,-0.112,0.0,0.0,0.0
125,0.0,0.0,0.0,0.3132646484375,0.0,0.0,0.0,0.0,0.0,0.0,0.229,0.0,0.0,0.0,0.0,0.0,-1.61,0.3213927880010088,0.0,0.0,0.0,0.0,0.0,0.0,-0.548,0.0,0.0,0.0
126,0.0,0.0,0.0,0.315439453125,0.0,0.0,0.0,0.0,0.0,0.0,0.205,0.0,0.0,0.0,0.0,0.0,-1.61,0.3235441303571158,0.0,0.0,0.0,0.0,0.0,0.0,0.34,0.0,0.0,0.0
127,0.0,0.0,0.0,0.3177587890625,0.0,0.0,0.0,0.0,0.0,0.0,0.224,0.0,0.0,0.0,0.0,0.0,-1.61,0.3256852171227006,0.0,0.0,0.0,0.0,0.0,0.0,1.072,0.0,0.0,0.0
128,0.0,0.0,0.0,0.3196357421875,0.0,0.0,0.0,0.0,0.0,0.0,0.21,0.0,0.0,0.0,0.0,0.0,-1.61,0.32781598043046056,0.0,0.0,0.0,0.0,0.0,0.0,0.18,0.0,0.0,0.0
129,0.0,0.0,0.0,0.321376953125,0.0,0.0,0.0,0.0,0.0,0.0,0.178,0.0,0.0,0.0,0.0,0.0,-1.61,0.3299363527403254,0.0,0.0,0.0,0.0,0.0,0.0,-0.18,0.0,0.0,0.0
130,0.0,0.0,0.0,0.3236962890625,0.0,0.0,0.0,0.0,0.0,0.0,0.199,0.0,0.0,0.0,0.0,0.0,-1.61,0.3320462668415979,0.0,0.0,0.0,0.0,0.0,0.0,0.616,0.0,0.0,0.0
131,0.0,0.0,0.0,0.326005859375,0.0,0.0,0.0,0.0,0.0,0.0,0.24,0.0,0.0,0.0,0.0,0.0,-1.61,0.3341456558550842,0.0,0.0,0.0,0.0,0.0,0.0,0.64,0.0,0.0,0.0
132,0.0,0.0,0.0,0.3281806640625,0.0,0.0,0.0,0.0,0.0,0.0,0.223,0.0,0.0,0.0,0.0,0.0,-1.61,0.336234453235214,0.0,0.0,0.0,0.0,0.0,0.0,0.524,0.0,0.0,0.0
133,0.0,0.0,0.0,0.33035546875,0.0,0.0,0.0,0.0,0.0,0.0,0.22,0.0,0.0,0.0,0.0,0.0,-1.61,0.3383125927721494,0.0,0.0,0.0,0.0,0.0,0.0,0.296,0.0,0.0,0.0
134,0.0,0.0,0.0,0.33268359375,0.0,0.0,0.0,0.0,0.0,0.0,0.228,0.0,0.0,0.0,0.0,0.0,-1.61,0.3403800085938846,0.0,0.0,0.0,0.0,0.0,0.0,-0.228,0.0,0.0,0.0
135,0.0,0.0,0.0,0.3349931640625,0.0,0.0,0.0,0.0,0.0,0.0,0.227,0.0,0.0,0.0,0.0,0.0,-1.61,0.3424366351683326,0.0,0.0,0.0,0.0,0.0,0.0,-0.228,0.0,0.0,0.0
136,0.0,0.0,0.0,0.33716796875,0.0,0.0,0.0,0.0,0.0,0.0,0.231,0.0,0.0,0.0,0.0,0.0,-1.61,0.3444824073054034,0.0,0.0,0.0,0.0,0.0,0.0,-0.02,0.0,0.0,0.0
137,0.0,0.0,0.0,0.3390537109375,0.0,0.0,0.0,0.0,0.0,0.0,0.211,0.0,0.0,0.0,0.0,0.0,-1.61,0.3465172601590699,0.0,0.0,0.0,0.0,0.0,0.0,-0.136,0.0,0.0,0.0
138,0.0,0.0,0.0,0.3412197265625,0.0,0.0,0.0,0.0,0.0,0.0,0.196,0.0,0.0,0.0,0.0,0.0,-1.61,0.3485411292294239,0.0,0.0,0.0,0.0,0.0,0.0,0.136,0.0,0.0,0.0
139,0.0,0.0,0.0,0.34339453125,0.0,0.0,0.0,0.0,0.0,0.0,0.215,0.0,0.0,0.0,0.0,0.0,-1.61,0.3505539503647197,0.0,0.0,0.0,0.0,0.0,0.0,0.0,0.0,0.0,0.0
140,0.0,0.0,0.0,0.3452802734375,0.0,0.0,0.0,0.0,0.0,0.0,0.207,0.0,0.0,0.0,0.0,0.0,-1.61,0.35255565976340836,0.0,0.0,0.0,0.0,0.0,0.0,-0.432,0.0,0.0,0.0
141,0.0,0.0,0.0,0.34730078125,0.0,0.0,0.0,0.0,0.0,0.0,0.192,0.0,0.0,0.0,0.0,0.0,-1.61,0.35454619397615994,0.0,0.0,0.0,0.0,0.0,0.0,0.136,0.0,0.0,0.0
142,0.0,0.0,0.0,0.3493310546875,0.0,0.0,0.0,0.0,0.0,0.0,0.21,0.0,0.0,0.0,0.0,0.0,-1.61,0.3565254899078742,0.0,0.0,0.0,0.0,0.0,0.0,0.5,0.0,0.0,0.0
143,0.0,0.0,0.0,0.35137109375,0.0,0.0,0.0,0.0,0.0,0.0,0.207,0.0,0.0,0.0,0.0,0.0,-1.61,0.35849348481968146,0.0,0.0,0.0,0.0,0.0,0.0,0.272,0.0,0.0,0.0
144,0.0,0.0,0.0,0.353248046875,0.0,0.0,0.0,0.0,0.0,0.0,0.197,0.0,0.0,0.0,0.0,0.0,-1.61,0.3604501163309302,0.0,0.0,0.0,0.0,0.0,0.0,-0.16,0.0,0.0,0.0
145,0.0,0.0,0.0,0.3552783203125,0.0,0.0,0.0,0.0,0.0,0.0,0.193,0.0,0.0,0.0,0.0,0.0,-1.61,0.36239532242116534,0.0,0.0,0.0,0.0,0.0,0.0,0.32,0.0,0.0,0.0
146,0.0,0.0,0.0,0.357298828125,0.0,0.0,0.0,0.0,0.0,0.0,0.198,0.0,0.0,0.0,0.0,0.0,-1.61,0.36432904143209355,0.0,0.0,0.0,0.0,0.0,0.0,0.296,0.0,0.0,0.0
147,0.0,0.0,0.0,0.3593291015625,0.0,0.0,0.0,0.0,0.0,0.0,0.201,0.0,0.0,0.0,0.0,0.0,-1.61,0.366251212069538,0.0,0.0,0.0,0.0,0.0,0.0,0.568,0.0,0.0,0.0
148,0.0,0.0,0.0,0.3612158203125,0.0,0.0,0.0,0.0,0.0,0.0,0.199,0.0,0.0,0.0,0.0,0.0,-1.61,0.3681617734053809,0.0,0.0,0.0,0.0,0.0,0.0,0.272,0.0,0.0,0.0
149,0.0,0.0,0.0,0.363091796875,0.0,0.0,0.0,0.0,0.0,0.0,0.187,0.0,0.0,0.0,0.0,0.0,-1.61,0.37006066487949546,0.0,0.0,0.0,0.0,0.0,0.0,0.708,0.0,0.0,0.0
150,0.0,0.0,0.0,0.3651220703125,0.0,0.0,0.0,0.0,0.0,0.0,0.203,0.0,0.0,0.0,0.0,0.0,-1.61,0.37194782630166456,0.0,0.0,0.0,0.0,0.0,0.0,0.272,0.0,0.0,0.0
151,0.0,0.0,0.0,0.3670087890625,0.0,0.0,0.0,0.0,0.0,0.0,0.201,0.0,0.0,0.0,0.0,0.0,-1.61,0.37382319785348944,0.0,0.0,0.0,0.0,0.0,0.0,0.432,0.0,0.0,0.0
152,0.0,0.0,0.0,0.3688857421875,0.0,0.0,0.0,0.0,0.0,0.0,0.187,0.0,0.0,0.0,0.0,0.0,-1.61,0.37568672009028536,0.0,0.0,0.0,0.0,0.0,0.0,0.088,0.0,0.0,0.0
153,0.0,0.0,0.0,0.3703466796875,0.0,0.0,0.0,0.0,0.0,0.0,0.167,0.0,0.0,0.0,0.0,0.0,-1.61,0.37753833394296615,0.0,0.0,0.0,0.0,0.0,0.0,0.408,0.0,0.0,0.0
154,0.0,0.0,0.0,0.3720791015625,0.0,0.0,0.0,0.0,0.0,0.0,0.163,0.0,0.0,0.0,0.0,0.0,-1.61,0.37937798071991624,0.0,0.0,0.0,0.0,0.0,0.0,0.0,0.0,0.0,0.0
155,0.0,0.0,0.0,0.3735322265625,0.0,0.0,0.0,0.0,0.0,0.0,0.158,0.0,0.0,0.0,0.0,0.0,-1.61,0.3812056021088514,0.0,0.0,0.0,0.0,0.0,0.0,0.524,0.0,0.0,0.0
156,0.0,0.0,0.0,0.3754091796875,0.0,0.0,0.0,0.0,0.0,0.0,0.167,0.0,0.0,0.0,0.0,0.0,-1.61,0.38302114017866684,0.0,0.0,0.0,0.0,0.0,0.0,1.004,0.0,0.0,0.0
157,0.0,0.0,0.0,0.377005859375,0.0,0.0,0.0,0.0,0.0,0.0,0.177,0.0,0.0,0.0,0.0,0.0,-1.61,0.38482453738127365,0.0,0.0,0.0,0.0,0.0,0.0,0.524,0.0,0.0,0.0
158,0.0,0.0,0.0,0.3787392578125,0.0,0.0,0.0,0.0,0.0,0.0,0.161,0.0,0.0,0.0,0.0,0.0,-1.61,0.38661573655342274,0.0,0.0,0.0,0.0,0.0,0.0,0.728,0.0,0.0,0.0
159,0.0,0.0,0.0,0.3809130859375,0.0,0.0,0.0,0.0,0.0,0.0,0.201,0.0,0.0,0.0,0.0,0.0,-1.61,0.38839468091851703,0.0,0.0,0.0,0.0,0.0,0.0,0.776,0.0,0.0,0.0
160,0.0,0.0,0.0,0.3827900390625,0.0,0.0,0.0,0.0,0.0,0.0,0.205,0.0,0.0,0.0,0.0,0.0,-1.61,0.3901613140884111,0.0,0.0,0.0,0.0,0.0,0.0,0.728,0.0,0.0,0.0
161,0.0,0.0,0.0,0.3845322265625,0.0,0.0,0.0,0.0,0.0,0.0,0.183,0.0,0.0,0.0,0.0,0.0,-1.61,0.3919155800651983,0.0,0.0,0.0,0.0,0.0,0.0,0.364,0.0,0.0,0.0
162,0.0,0.0,0.0,0.3862734375,0.0,0.0,0.0,0.0,0.0,0.0,0.173,0.0,0.0,0.0,0.0,0.0,-1.61,0.393657423242986,0.0,0.0,0.0,0.0,0.0,0.0,0.684,0.0,0.0,0.0
163,0.0,0.0,0.0,0.388150390625,0.0,0.0,0.0,0.0,0.0,0.0,0.182,0.0,0.0,0.0,0.0,0.0,-1.61,0.39538678840965824,0.0,0.0,0.0,0.0,0.0,0.0,0.66,0.0,0.0,0.0
164,0.0,0.0,0.0,0.389900390625,0.0,0.0,0.0,0.0,0.0,0.0,0.183,0.0,0.0,0.0,0.0,0.0,-1.61,0.39710362074862554,0.0,0.0,0.0,0.0,0.0,0.0,0.8,0.0,0.0,0.0
165,0.0,0.0,0.0,0.39177734375,0.0,0.0,0.0,0.0,0.0,0.0,0.177,0.0,0.0,0.0,0.0,0.0,-1.61,0.3988078658405627,0.0,0.0,0.0,0.0,0.0,0.0,0.66,0.0,0.0,0.0
166,0.0,0.0,0.0,0.393375,0.0,0.0,0.0,0.0,0.0,0.0,0.175,0.0,0.0,0.0,0.0,0.0,-1.61,0.40049946966513356,0.0,0.0,0.0,0.0,0.0,0.0,0.088,0.0,0.0,0.0
167,0.0,0.0,0.0,0.395107421875,0.0,0.0,0.0,0.0,0.0,0.0,0.169,0.0,0.0,0.0,0.0,0.0,-1.61,0.4021783786027035,0.0,0.0,0.0,0.0,0.0,0.0,-0.02,0.0,0.0,0.0
168,0.0,0.0,0.0,0.3971376953125,0.0,0.0,0.0,0.0,0.0,0.0,0.189,0.0,0.0,0.0,0.0,0.0,-1.61,0.40384453943603904,0.0,0.0,0.0,0.0,0.0,0.0,0.364,0.0,0.0,0.0
169,0.0,0.0,0.0,0.3990234375,0.0,0.0,0.0,0.0,0.0,0.0,0.192,0.0,0.0,0.0,0.0,0.0,-1.61,0.40549789935199454,0.0,0.0,0.0,0.0,0.0,0.0,0.296,0.0,0.0,0.0
170,0.0,0.0,0.0,0.400611328125,0.0,0.0,0.0,0.0,0.0,0.0,0.181,0.0,0.0,0.0,0.0,0.0,-1.61,0.4071384059431864,0.0,0.0,0.0,0.0,0.0,0.0,-0.364,0.0,0.0,0.0
171,0.0,0.0,0.0,0.4024970703125,0.0,0.0,0.0,0.0,0.0,0.0,0.173,0.0,0.0,0.0,0.0,0.0,-1.61,0.40876600720965417,0.0,0.0,0.0,0.0,0.0,0.0,-0.248,0.0,0.0,0.0
172,0.0,0.0,0.0,0.40423046875,0.0,0.0,0.0,0.0,0.0,0.0,0.188,0.0,0.0,0.0,0.0,0.0,-1.61,0.4103806515605089,0.0,0.0,0.0,0.0,0.0,0.0,-0.912,0.0,0.0,0.0
173,0.0,0.0,0.0,0.4061162109375,0.0,0.0,0.0,0.0,0.0,0.0,0.174,0.0,0.0,0.0,0.0,0.0,-1.61,0.4119822878155684,0.0,0.0,0.0,0.0,0.0,0.0,-0.432,0.0,0.0,0.0
174,0.0,0.0,0.0,0.4078486328125,0.0,0.0,0.0,0.0,0.0,0.0,0.18,0.0,0.0,0.0,0.0,0.0,-1.61,0.41357086520697955,0.0,0.0,0.0,0.0,0.0,0.0,-0.592,0.0,0.0,0.0
175,0.0,0.0,0.0,0.4094541015625,0.0,0.0,0.0,0.0,0.0,0.0,0.167,0.0,0.0,0.0,0.0,0.0,-1.61,0.41514633338082735,0.0,0.0,0.0,0.0,0.0,0.0,0.228,0.0,0.0,0.0
176,0.0,0.0,0.0,0.4114755859375,0.0,0.0,0.0,0.0,0.0,0.0,0.187,0.0,0.0,0.0,0.0,0.0,-1.61,0.4167086423987314,0.0,0.0,0.0,0.0,0.0,0.0,-0.136,0.0,0.0,0.0
177,0.0,0.0,0.0,0.4130732421875,0.0,0.0,0.0,0.0,0.0,0.0,0.184,0.0,0.0,0.0,0.0,0.0,-1.61,0.41825774273942845,0.0,0.0,0.0,0.0,0.0,0.0,-0.34,0.0,0.0,0.0
178,0.0,0.0,0.0,0.414814453125,0.0,0.0,0.0,0.0,0.0,0.0,0.163,0.0,0.0,0.0,0.0,0.0,-1.61,0.41979358530034216,0.0,0.0,0.0,0.0,0.0,0.0,-0.888,0.0,0.0,0.0
179,0.0,0.0,0.0,0.41640234375,0.0,0.0,0.0,0.0,0.0,0.0,0.168,0.0,0.0,0.0,0.0,0.0,-1.61,0.4213161213991399,0.0,0.0,0.0,0.0,0.0,0.0,-0.204,0.0,0.0,0.0
180,0.0,0.0,0.0,0.418,0.0,0.0,0.0,0.0,0.0,0.0,0.163,0.0,0.0,0.0,0.0,0.0,-1.61,0.42282530277527525,0.0,0.0,0.0,0.0,0.0,0.0,-0.16,0.0,0.0,0.0
181,0.0,0.0,0.0,0.419443359375,0.0,0.0,0.0,0.0,0.0,0.0,0.152,0.0,0.0,0.0,0.0,0.0,-1.61,0.4243210815915182,0.0,0.0,0.0,0.0,0.0,0.0,0.16,0.0,0.0,0.0
182,0.0,0.0,0.0,0.4207431640625,0.0,0.0,0.0,0.0,0.0,0.0,0.134,0.0,0.0,0.0,0.0,0.0,-1.61,0.42580341043547154,0.0,0.0,0.0,0.0,0.0,0.0,0.18,0.0,0.0,0.0
183,0.0,0.0,0.0,0.42205078125,0.0,0.0,0.0,0.0,0.0,0.0,0.132,0.0,0.0,0.0,0.0,0.0,-1.61,0.42727224232107314,0.0,0.0,0.0,0.0,0.0,0.0,0.616,0.0,0.0,0.0
184,0.0,0.0,0.0,0.4234951171875,0.0,0.0,0.0,0.0,0.0,0.0,0.14,0.0,0.0,0.0,0.0,0.0,-1.61,0.42872753069008596,0.0,0.0,0.0,0.0,0.0,0.0,0.388,0.0,0.0,0.0
185,0.0,0.0,0.0,0.4246591796875,0.0,0.0,0.0,0.0,0.0,0.0,0.133,0.0,0.0,0.0,0.0,0.0,-1.61,0.4301692294135735,0.0,0.0,0.0,0.0,0.0,0.0,0.02,0.0,0.0,0.0
186,0.0,0.0,0.0,0.425814453125,0.0,0.0,0.0,0.0,0.0,0.0,0.109,0.0,0.0,0.0,0.0,0.0,-1.61,0.43159729279336173,0.0,0.0,0.0,0.0,0.0,0.0,0.248,0.0,0.0,0.0
187,0.0,0.0,0.0,0.42711328125,0.0,0.0,0.0,0.0,0.0,0.0,0.125,0.0,0.0,0.0,0.0,0.0,-1.61,0.4330116755634882,0.0,0.0,0.0,0.0,0.0,0.0,0.98,0.0,0.0,0.0
188,0.0,0.0,0.0,0.4285751953125,0.0,0.0,0.0,0.0,0.0,0.0,0.138,0.0,0.0,0.0,0.0,0.0,-1.61,0.43441233289163644,0.0,0.0,0.0,0.0,0.0,0.0,1.256,0.0,0.0,0.0
189,0.0,0.0,0.0,0.42973046875,0.0,0.0,0.0,0.0,0.0,0.0,0.139,0.0,0.0,0.0,0.0,0.0,-1.61,0.43579922038055724,0.0,0.0,0.0,0.0,0.0,0.0,0.296,0.0,0.0,0.0
190,0.0,0.0,0.0,0.43089453125,0.0,0.0,0.0,0.0,0.0,0.0,0.111,0.0,0.0,0.0,0.0,0.0,-1.61,0.4371722940694755,0.0,0.0,0.0,0.0,0.0,0.0,0.388,0.0,0.0,0.0
191,0.0,0.0,0.0,0.432337890625,0.0,0.0,0.0,0.0,0.0,0.0,0.127,0.0,0.0,0.0,0.0,0.0,-1.61,0.4385315104354843,0.0,0.0,0.0,0.0,0.0,0.0,0.776,0.0,0.0,0.0
192,0.0,0.0,0.0,0.43378125,0.0,0.0,0.0,0.0,0.0,0.0,0.145,0.0,0.0,0.0,0.0,0.0,-1.61,0.4398768263949241,0.0,0.0,0.0,0.0,0.0,0.0,0.98,0.0,0.0,0.0
193,0.0,0.0,0.0,0.4349453125,0.0,0.0,0.0,0.0,0.0,0.0,0.133,0.0,0.0,0.0,0.0,0.0,-1.61,0.44120819930474836,0.0,0.0,0.0,0.0,0.0,0.0,0.936,0.0,0.0,0.0
194,0.0,0.0,0.0,0.4362451171875,0.0,0.0,0.0,0.0,0.0,0.0,0.125,0.0,0.0,0.0,0.0,0.0,-1.61,0.44252558696387545,0.0,0.0,0.0,0.0,0.0,0.0,0.96,0.0,0.0,0.0
195,0.0,0.0,0.0,0.4374091796875,0.0,0.0,0.0,0.0,0.0,0.0,0.12,0.0,0.0,0.0,0.0,0.0,-1.61,0.443828947614526,0.0,0.0,0.0,0.0,0.0,0.0,0.708,0.0,0.0,0.0
196,0.0,0.0,0.0,0.4388525390625,0.0,0.0,0.0,0.0,0.0,0.0,0.132,0.0,0.0,0.0,0.0,0.0,-1.61,0.44511823994354677,0.0,0.0,0.0,0.0,0.0,0.0,0.752,0.0,0.0,0.0
197,0.0,0.0,0.0,0.44015234375,0.0,0.0,0.0,0.0,0.0,0.0,0.145,0.0,0.0,0.0,0.0,0.0,-1.61,0.44639342308372004,0.0,0.0,0.0,0.0,0.0,0.0,0.752,0.0,0.0,0.0
198,0.0,0.0,0.0,0.4414609375,0.0,0.0,0.0,0.0,0.0,0.0,0.127,0.0,0.0,0.0,0.0,0.0,-1.61,0.44765445661505904,0.0,0.0,0.0,0.0,0.0,0.0,1.12,0.0,0.0,0.0
199,0.0,0.0,0.0,0.442904296875,0.0,0.0,0.0,0.0,0.0,0.0,0.135,0.0,0.0,0.0,0.0,0.0,-1.61,0.4489013005660892,0.0,0.0,0.0,0.0,0.0,0.0,0.936,0.0,0.0,0.0
200,0.0,0.0,0.0,0.444357421875,0.0,0.0,0.0,0.0,0.0,0.0,0.145,0.0,0.0,0.0,0.0,0.0,-1.61,0.4501339154151149,0.0,0.0,0.0,0.0,0.0,0.0,0.708,0.0,0.0,0.0
201,0.0,0.0,0.0,0.44565625,0.0,0.0,0.0,0.0,0.0,0.0,0.142,0.0,0.0,0.0,0.0,0.0,-1.61,0.45135226209147267,0.0,0.0,0.0,0.0,0.0,0.0,0.18,0.0,0.0,0.0
202,0.0,0.0,0.0,0.44696484375,0.0,0.0,0.0,0.0,0.0,0.0,0.128,0.0,0.0,0.0,0.0,0.0,-1.61,0.45255630197676916,0.0,0.0,0.0,0.0,0.0,0.0,0.272,0.0,0.0,0.0
203,0.0,0.0,0.0,0.4482646484375,0.0,0.0,0.0,0.0,0.0,0.0,0.129,0.0,0.0,0.0,0.0,0.0,-1.61,0.45374599690610545,0.0,0.0,0.0,0.0,0.0,0.0,0.776,0.0,0.0,0.0
204,0.0,0.0,0.0,0.4495634765625,0.0,0.0,0.0,0.0,0.0,0.0,0.132,0.0,0.0,0.0,0.0,0.0,-1.61,0.4549213091692868,0.0,0.0,0.0,0.0,0.0,0.0,0.248,0.0,0.0,0.0
205,0.0,0.0,0.0,0.4505830078125,0.0,0.0,0.0,0.0,0.0,0.0,0.117,0.0,0.0,0.0,0.0,0.0,-1.61,0.4560822015120179,0.0,0.0,0.0,0.0,0.0,0.0,0.112,0.0,0.0,0.0
206,0.0,0.0,0.0,0.4518828125,0.0,0.0,0.0,0.0,0.0,0.0,0.12,0.0,0.0,0.0,0.0,0.0,-1.61,0.4572286371370836,0.0,0.0,0.0,0.0,0.0,0.0,0.248,0.0,0.0,0.0
207,0.0,0.0,0.0,0.453326171875,0.0,0.0,0.0,0.0,0.0,0.0,0.133,0.0,0.0,0.0,0.0,0.0,-1.61,0.45836057970551586,0.0,0.0,0.0,0.0,0.0,0.0,0.32,0.0,0.0,0.0
208,0.0,0.0,0.0,0.454779296875,0.0,0.0,0.0,0.0,0.0,0.0,0.145,0.0,0.0,0.0,0.0,0.0,-1.61,0.45947799333774453,0.0,0.0,0.0,0.0,0.0,0.0,-0.068,0.0,0.0,0.0
209,0.0,0.0,0.0,0.45622265625,0.0,0.0,0.0,0.0,0.0,0.0,0.145,0.0,0.0,0.0,0.0,0.0,-1.61,0.4605808426147358,0.0,0.0,0.0,0.0,0.0,0.0,-0.364,0.0,0.0,0.0
210,0.0,0.0,0.0,0.45738671875,0.0,0.0,0.0,0.0,0.0,0.0,0.135,0.0,0.0,0.0,0.0,0.0,-1.61,0.4616690925791139,0.0,0.0,0.0,0.0,0.0,0.0,-0.66,0.0,0.0,0.0
211,0.0,0.0,0.0,0.4586865234375,0.0,0.0,0.0,0.0,0.0,0.0,0.125,0.0,0.0,0.0,0.0,0.0,-1.61,0.46274270873627016,0.0,0.0,0.0,0.0,0.0,0.0,-0.82,0.0,0.0,0.0
212,0.0,0.0,0.0,0.459841796875,0.0,0.0,0.0,0.0,0.0,0.0,0.119,0.0,0.0,0.0,0.0,0.0,-1.61,0.4638016570554553,0.0,0.0,0.0,0.0,0.0,0.0,-0.548,0.0,0.0,0.0
213,0.0,0.0,0.0,0.4610048828125,0.0,0.0,0.0,0.0,0.0,0.0,0.12,0.0,0.0,0.0,0.0,0.0,-1.61,0.46484590397085884,0.0,0.0,0.0,0.0,0.0,0.0,-0.228,0.0,0.0,0.0
214,0.0,0.0,0.0,0.462015625,0.0,0.0,0.0,0.0,0.0,0.0,0.111,0.0,0.0,0.0,0.0,0.0,-1.61,0.46587541638267294,0.0,0.0,0.0,0.0,0.0,0.0,0.02,0.0,0.0,0.0
215,0.0,0.0,0.0,0.4630263671875,0.0,0.0,0.0,0.0,0.0,0.0,0.104,0.0,0.0,0.0,0.0,0.0,-1.61,0.4668901616581414,0.0,0.0,0.0,0.0,0.0,0.0,-0.684,0.0,0.0,0.0
216,0.0,0.0,0.0,0.4640458984375,0.0,0.0,0.0,0.0,0.0,0.0,0.103,0.0,0.0,0.0,0.0,0.0,-1.61,0.46789010763259403,0.0,0.0,0.0,0.0,0.0,0.0,-0.708,0.0,0.0,0.0
217,0.0,0.0,0.0,0.465056640625,0.0,0.0,0.0,0.0,0.0,0.0,0.103,0.0,0.0,0.0,0.0,0.0,-1.61,0.4688752226104663,0.0,0.0,0.0,0.0,0.0,0.0,-0.728,0.0,0.0,0.0
218,0.0,0.0,0.0,0.466076171875,0.0,0.0,0.0,0.0,0.0,0.0,0.095,0.0,0.0,0.0,0.0,0.0,-1.61,0.469845475366304,0.0,0.0,0.0,0.0,0.0,0.0,-0.296,0.0,0.0,0.0
219,0.0,0.0,0.0,0.467095703125,0.0,0.0,0.0,0.0,0.0,0.0,0.097,0.0,0.0,0.0,0.0,0.0,-1.61,0.4708008351457529,0.0,0.0,0.0,0.0,0.0,0.0,-0.02,0.0,0.0,0.0
220,0.0,0.0,0.0,0.467962890625,0.0,0.0,0.0,0.0,0.0,0.0,0.099,0.0,0.0,0.0,0.0,0.0,-1.61,0.4717412716665334,0.0,0.0,0.0,0.0,0.0,0.0,-0.432,0.0,0.0,0.0
221,0.0,0.0,0.0,0.4686845703125,0.0,0.0,0.0,0.0,0.0,0.0,0.083,0.0,0.0,0.0,0.0,0.0,-1.61,0.4726667551194011,0.0,0.0,0.0,0.0,0.0,0.0,-1.028,0.0,0.0,0.0
222,0.0,0.0,0.0,0.46955078125,0.0,0.0,0.0,0.0,0.0,0.0,0.08,0.0,0.0,0.0,0.0,0.0,-1.61,0.4735772561690907,0.0,0.0,0.0,0.0,0.0,0.0,-0.708,0.0,0.0,0.0
223,0.0,0.0,0.0,0.4705703125,0.0,0.0,0.0,0.0,0.0,0.0,0.097,0.0,0.0,0.0,0.0,0.0,-1.61,0.47447274595524647,0.0,0.0,0.0,0.0,0.0,0.0,-0.16,0.0,0.0,0.0
224,0.0,0.0,0.0,0.4714365234375,0.0,0.0,0.0,0.0,0.0,0.0,0.094,0.0,0.0,0.0,0.0,0.0,-1.61,0.47535319609333687,0.0,0.0,0.0,0.0,0.0,0.0,0.112,0.0,0.0,0.0
225,0.0,0.0,0.0,0.472447265625,0.0,0.0,0.0,0.0,0.0,0.0,0.093,0.0,0.0,0.0,0.0,0.0,-1.61,0.4762185786755542,0.0,0.0,0.0,0.0,0.0,0.0,0.16,0.0,0.0,0.0
226,0.0,0.0,0.0,0.473466796875,0.0,0.0,0.0,0.0,0.0,0.0,0.1,0.0,0.0,0.0,0.0,0.0,-1.61,0.4770688662716995,0.0,0.0,0.0,0.0,0.0,0.0,0.112,0.0,0.0,0.0
227,0.0,0.0,0.0,0.4744775390625,0.0,0.0,0.0,0.0,0.0,0.0,0.099,0.0,0.0,0.0,0.0,0.0,-1.61,0.4779040319300513,0.0,0.0,0.0,0.0,0.0,0.0,-0.34,0.0,0.0,0.0
228,0.0,0.0,0.0,0.47534375,0.0,0.0,0.0,0.0,0.0,0.0,0.092,0.0,0.0,0.0,0.0,0.0,-1.61,0.47872404917822076,0.0,0.0,0.0,0.0,0.0,0.0,-0.66,0.0,0.0,0.0
229,0.0,0.0,0.0,0.4760654296875,0.0,0.0,0.0,0.0,0.0,0.0,0.079,0.0,0.0,0.0,0.0,0.0,-1.61,0.4795288920239902,0.0,0.0,0.0,0.0,0.0,0.0,-0.204,0.0,0.0,0.0
230,0.0,0.0,0.0,0.47665234375,0.0,0.0,0.0,0.0,0.0,0.0,0.073,0.0,0.0,0.0,0.0,0.0,-1.61,0.480318534956137,0.0,0.0,0.0,0.0,0.0,0.0,0.112,0.0,0.0,0.0
231,0.0,0.0,0.0,0.4773740234375,0.0,0.0,0.0,0.0,0.0,0.0,0.068,0.0,0.0,0.0,0.0,0.0,-1.61,0.4810929529452427,0.0,0.0,0.0,0.0,0.0,0.0,0.548,0.0,0.0,0.0
232,0.0,0.0,0.0,0.478240234375,0.0,0.0,0.0,0.0,0.0,0.0,0.077,0.0,0.0,0.0,0.0,0.0,-1.61,0.4818521214444856,0.0,0.0,0.0,0.0,0.0,0.0,0.456,0.0,0.0,0.0
233,0.0,0.0,0.0,0.4789619140625,0.0,0.0,0.0,0.0,0.0,0.0,0.075,0.0,0.0,0.0,0.0,0.0,-1.61,0.4825960163904194,0.0,0.0,0.0,0.0,0.0,0.0,0.228,0.0,0.0,0.0
234,0.0,0.0,0.0,0.4796923828125,0.0,0.0,0.0,0.0,0.0,0.0,0.078,0.0,0.0,0.0,0.0,0.0,-1.61,0.4833246142037359,0.0,0.0,0.0,0.0,0.0,0.0,-0.02,0.0,0.0,0.0
235,0.0,0.0,0.0,0.4804150390625,0.0,0.0,0.0,0.0,0.0,0.0,0.073,0.0,0.0,0.0,0.0,0.0,-1.61,0.48403789179001194,0.0,0.0,0.0,0.0,0.0,0.0,0.136,0.0,0.0,0.0
236,0.0,0.0,0.0,0.48113671875,0.0,0.0,0.0,0.0,0.0,0.0,0.069,0.0,0.0,0.0,0.0,0.0,-1.61,0.48473582654044195,0.0,0.0,0.0,0.0,0.0,0.0,0.0,0.0,0.0,0.0
237,0.0,0.0,0.0,0.4817138671875,0.0,0.0,0.0,0.0,0.0,0.0,0.058,0.0,0.0,0.0,0.0,0.0,-1.61,0.48541839633255424,0.0,0.0,0.0,0.0,0.0,0.0,0.364,0.0,0.0,0.0
238,0.0,0.0,0.0,0.482435546875,0.0,0.0,0.0,0.0,0.0,0.0,0.066,0.0,0.0,0.0,0.0,0.0,-1.61,0.4860855795309123,0.0,0.0,0.0,0.0,0.0,0.0,0.98,0.0,0.0,0.0
239,0.0,0.0,0.0,0.4830224609375,0.0,0.0,0.0,0.0,0.0,0.0,0.071,0.0,0.0,0.0,0.0,0.0,-1.61,0.4867373549878006,0.0,0.0,0.0,0.0,0.0,0.0,0.8,0.0,0.0,0.0
240,0.0,0.0,0.0,0.483744140625,0.0,0.0,0.0,0.0,0.0,0.0,0.065,0.0,0.0,0.0,0.0,0.0,-1.61,0.48737370204389485,0.0,0.0,0.0,0.0,0.0,0.0,0.388,0.0,0.0,0.0
241,0.0,0.0,0.0,0.4844658203125,0.0,0.0,0.0,0.0,0.0,0.0,0.07,0.0,0.0,0.0,0.0,0.0,-1.61,0.48799460052891674,0.0,0.0,0.0,0.0,0.0,0.0,0.432,0.0,0.0,0.0
242,0.0,0.0,0.0,0.4850439453125,0.0,0.0,0.0,0.0,0.0,0.0,0.068,0.0,0.0,0.0,0.0,0.0,-1.61,0.4886000307622737,0.0,0.0,0.0,0.0,0.0,0.0,0.524,0.0,0.0,0.0
243,0.0,0.0,0.0,0.4856298828125,0.0,0.0,0.0,0.0,0.0,0.0,0.058,0.0,0.0,0.0,0.0,0.0,-1.61,0.48918997355368193,0.0,0.0,0.0,0.0,0.0,0.0,0.524,0.0,0.0,0.0
244,0.0,0.0,0.0,0.4860634765625,0.0,0.0,0.0,0.0,0.0,0.0,0.048,0.0,0.0,0.0,0.0,0.0,-1.61,0.4897644102037755,0.0,0.0,0.0,0.0,0.0,0.0,0.616,0.0,0.0,0.0
245,0.0,0.0,0.0,0.486505859375,0.0,0.0,0.0,0.0,0.0,0.0,0.045,0.0,0.0,0.0,0.0,0.0,-1.61,0.4903233225046984,0.0,0.0,0.0,0.0,0.0,0.0,0.868,0.0,0.0,0.0
246,0.0,0.0,0.0,0.4870830078125,0.0,0.0,0.0,0.0,0.0,0.0,0.053,0.0,0.0,0.0,0.0,0.0,-1.61,0.49086669274068206,0.0,0.0,0.0,0.0,0.0,0.0,0.96,0.0,0.0,0.0
247,0.0,0.0,0.0,0.48766015625,0.0,0.0,0.0,0.0,0.0,0.0,0.057,0.0,0.0,0.0,0.0,0.0,-1.61,0.49139450368860665,0.0,0.0,0.0,0.0,0.0,0.0,0.936,0.0,0.0,0.0
248,0.0,0.0,0.0,0.48823828125,0.0,0.0,0.0,0.0,0.0,0.0,0.059,0.0,0.0,0.0,0.0,0.0,-1.61,0.4919067386185471,0.0,0.0,0.0,0.0,0.0,0.0,0.66,0.0,0.0,0.0
249,0.0,0.0,0.0,0.4888154296875,0.0,0.0,0.0,0.0,0.0,0.0,0.061,0.0,0.0,0.0,0.0,0.0,-1.61,0.4924033812943034,0.0,0.0,0.0,0.0,0.0,0.0,0.568,0.0,0.0,0.0
250,0.0,0.0,0.0,0.48940234375,0.0,0.0,0.0,0.0,0.0,0.0,0.055,0.0,0.0,0.0,0.0,0.0,-1.61,0.49288441597391497,0.0,0.0,0.0,0.0,0.0,0.0,0.64,0.0,0.0,0.0
251,0.0,0.0,0.0,0.4898349609375,0.0,0.0,0.0,0.0,0.0,0.0,0.052,0.0,0.0,0.0,0.0,0.0,-1.61,0.4933498274101599,0.0,0.0,0.0,0.0,0.0,0.0,0.524,0.0,0.0,0.0
252,0.0,0.0,0.0,0.4902685546875,0.0,0.0,0.0,0.0,0.0,0.0,0.041,0.0,0.0,0.0,0.0,0.0,-1.61,0.4937996008510384,0.0,0.0,0.0,0.0,0.0,0.0,0.752,0.0,0.0,0.0
253,0.0,0.0,0.0,0.490701171875,0.0,0.0,0.0,0.0,0.0,0.0,0.045,0.0,0.0,0.0,0.0,0.0,-1.61,0.4942337220402397,0.0,0.0,0.0,0.0,0.0,0.0,0.888,0.0,0.0,0.0
254,0.0,0.0,0.0,0.491279296875,0.0,0.0,0.0,0.0,0.0,0.0,0.047,0.0,0.0,0.0,0.0,0.0,-1.61,0.49465217721759447,0.0,0.0,0.0,0.0,0.0,0.0,0.752,0.0,0.0,0.0
255,0.0,0.0,0.0,0.4917119140625,0.0,0.0,0.0,0.0,0.0,0.0,0.051,0.0,0.0,0.0,0.0,0.0,-1.61,0.4950549531195108,0.0,0.0,0.0,0.0,0.0,0.0,0.708,0.0,0.0,0.0
256,0.0,0.0,0.0,0.4922890625,0.0,0.0,0.0,0.0,0.0,0.0,0.052,0.0,0.0,0.0,0.0,0.0,-1.61,0.4954420369793947,0.0,0.0,0.0,0.0,0.0,0.0,0.408,0.0,0.0,0.0
257,0.0,0.0,0.0,0.4927314453125,0.0,0.0,0.0,0.0,0.0,0.0,0.042,0.0,0.0,0.0,0.0,0.0,-1.61,0.4958134165280545,0.0,0.0,0.0,0.0,0.0,0.0,0.5,0.0,0.0,0.0
258,0.0,0.0,0.0,0.4931650390625,0.0,0.0,0.0,0.0,0.0,0.0,0.047,0.0,0.0,0.0,0.0,0.0,-1.61,0.49616907999408993,0.0,0.0,0.0,0.0,0.0,0.0,0.524,0.0,0.0,0.0
259,0.0,0.0,0.0,0.493453125,0.0,0.0,0.0,0.0,0.0,0.0,0.042,0.0,0.0,0.0,0.0,0.0,-1.61,0.4965090161042652,0.0,0.0,0.0,0.0,0.0,0.0,0.524,0.0,0.0,0.0
260,0.0,0.0,0.0,0.4937421875,0.0,0.0,0.0,0.0,0.0,0.0,0.028,0.0,0.0,0.0,0.0,0.0,-1.61,0.4968332140838661,0.0,0.0,0.0,0.0,0.0,0.0,0.32,0.0,0.0,0.0
261,0.0,0.0,0.0,0.49388671875,0.0,0.0,0.0,0.0,0.0,0.0,0.022,0.0,0.0,0.0,0.0,0.0,-1.61,0.4971416636570419,0.0,0.0,0.0,0.0,0.0,0.0,0.32,0.0,0.0,0.0
262,0.0,0.0,0.0,0.49417578125,0.0,0.0,0.0,0.0,0.0,0.0,0.023,0.0,0.0,0.0,0.0,0.0,-1.61,0.4974343550471305,0.0,0.0,0.0,0.0,0.0,0.0,0.432,0.0,0.0,0.0
263,0.0,0.0,0.0,0.4944638671875,0.0,0.0,0.0,0.0,0.0,0.0,0.026,0.0,0.0,0.0,0.0,0.0,-1.61,0.4977112789769689,0.0,0.0,0.0,0.0,0.0,0.0,0.456,0.0,0.0,0.0
264,0.0,0.0,0.0,0.4947529296875,0.0,0.0,0.0,0.0,0.0,0.0,0.029,0.0,0.0,0.0,0.0,0.0,-1.61,0.49797242666918673,0.0,0.0,0.0,0.0,0.0,0.0,0.592,0.0,0.0,0.0
265,0.0,0.0,0.0,0.4951865234375,0.0,0.0,0.0,0.0,0.0,0.0,0.034,0.0,0.0,0.0,0.0,0.0,-1.61,0.49821778984648474,0.0,0.0,0.0,0.0,0.0,0.0,0.5,0.0,0.0,0.0
266,0.0,0.0,0.0,0.495474609375,0.0,0.0,0.0,0.0,0.0,0.0,0.034,0.0,0.0,0.0,0.0,0.0,-1.61,0.49844736073189694,0.0,0.0,0.0,0.0,0.0,0.0,0.408,0.0,0.0,0.0
267,0.0,0.0,0.0,0.495763671875,0.0,0.0,0.0,0.0,0.0,0.0,0.033,0.0,0.0,0.0,0.0,0.0,-1.61,0.4986611320490373,0.0,0.0,0.0,0.0,0.0,0.0,0.296,0.0,0.0,0.0
268,0.0,0.0,0.0,0.4960615234375,0.0,0.0,0.0,0.0,0.0,0.0,0.028,0.0,0.0,0.0,0.0,0.0,-1.61,0.4988590970223301,0.0,0.0,0.0,0.0,0.0,0.0,0.16,0.0,0.0,0.0
269,0.0,0.0,0.0,0.4962060546875,0.0,0.0,0.0,0.0,0.0,0.0,0.019,0.0,0.0,0.0,0.0,0.0,-1.61,0.499041249377225,0.0,0.0,0.0,0.0,0.0,0.0,0.5,0.0,0.0,0.0
270,0.0,0.0,0.0,0.496349609375,0.0,0.0,0.0,0.0,0.0,0.0,0.013,0.0,0.0,0.0,0.0,0.0,-1.61,0.4992075833403955,0.0,0.0,0.0,0.0,0.0,0.0,0.568,0.0,0.0,0.0
271,0.0,0.0,0.0,0.496494140625,0.0,0.0,0.0,0.0,0.0,0.0,0.013,0.0,0.0,0.0,0.0,0.0,-1.61,0.49935809363992223,0.0,0.0,0.0,0.0,0.0,0.0,0.66,0.0,0.0,0.0
272,0.0,0.0,0.0,0.496783203125,0.0,0.0,0.0,0.0,0.0,0.0,0.02,0.0,0.0,0.0,0.0,0.0,-1.61,0.4994927755054599,0.0,0.0,0.0,0.0,0.0,0.0,0.936,0.0,0.0,0.0
273,0.0,0.0,0.0,0.496927734375,0.0,0.0,0.0,0.0,0.0,0.0,0.025,0.0,0.0,0.0,0.0,0.0,-1.61,0.49961162466838843,0.0,0.0,0.0,0.0,0.0,0.0,0.728,0.0,0.0,0.0
274,0.0,0.0,0.0,0.497216796875,0.0,0.0,0.0,0.0,0.0,0.0,0.02,0.0,0.0,0.0,0.0,0.0,-1.61,0.49971463736194827,0.0,0.0,0.0,0.0,0.0,0.0,0.408,0.0,0.0,0.0
275,0.0,0.0,0.0,0.4973603515625,0.0,0.0,0.0,0.0,0.0,0.0,0.021,0.0,0.0,0.0,0.0,0.0,-1.61,0.4998018103213599,0.0,0.0,0.0,0.0,0.0,0.0,0.364,0.0,0.0,0.0
276,0.0,0.0,0.0,0.4975048828125,0.0,0.0,0.0,0.0,0.0,0.0,0.016,0.0,0.0,0.0,0.0,0.0,-1.61,0.4998731407839269,0.0,0.0,0.0,0.0,0.0,0.0,0.272,0.0,0.0,0.0
277,0.0,0.0,0.0,0.4975048828125,0.0,0.0,0.0,0.0,0.0,0.0,0.008,0.0,0.0,0.0,0.0,0.0,-1.61,0.49992862648912406,0.0,0.0,0.0,0.0,0.0,0.0,0.408,0.0,0.0,0.0
278,0.0,0.0,0.0,0.4975048828125,0.0,0.0,0.0,0.0,0.0,0.0,-0.001,0.0,0.0,0.0,0.0,0.0,-1.61,0.4999682656786683,0.0,0.0,0.0,0.0,0.0,0.0,0.48,0.0,0.0,0.0
279,0.0,0.0,0.0,0.4975048828125,0.0,0.0,0.0,0.0,0.0,0.0,-0.001,0.0,0.0,0.0,0.0,0.0,-1.61,0.49999205709657507,0.0,0.0,0.0,0.0,0.0,0.0,0.48,0.0,0.0,0.0
280,0.0,0.0,0.0,0.4975048828125,0.0,0.0,0.0,0.0,0.0,0.0,-0.001,0.0,0.0,0.0,0.0,0.0,-1.61,0.4999999999891976,0.0,0.0,0.0,0.0,0.0,0.0,0.408,0.0,0.0,0.0
281,0.0,0.0,0.0,0.4976494140625,0.0,0.0,0.0,0.0,0.0,0.0,0.01,0.0,0.0,0.0,0.0,0.0,-1.61,0.499992094105251,0.0,0.0,0.0,0.0,0.0,0.0,0.524,0.0,0.0,0.0
282,0.0,0.0,0.0,0.4977939453125,0.0,0.0,0.0,0.0,0.0,0.0,0.01,0.0,0.0,0.0,0.0,0.0,-1.61,0.49996833969582005,0.0,0.0,0.0,0.0,0.0,0.0,0.456,0.0,0.0,0.0
283,0.0,0.0,0.0,0.4977939453125,0.0,0.0,0.0,0.0,0.0,0.0,0.008,0.0,0.0,0.0,0.0,0.0,-1.61,0.4999287375143515,0.0,0.0,0.0,0.0,0.0,0.0,0.408,0.0,0.0,0.0
284,0.0,0.0,0.0,0.4979384765625,0.0,0.0,0.0,0.0,0.0,0.0,0.01,0.0,0.0,0.0,0.0,0.0,-1.61,0.49987328881662985,0.0,0.0,0.0,0.0,0.0,0.0,0.248,0.0,0.0,0.0
285,0.0,0.0,0.0,0.4979384765625,0.0,0.0,0.0,0.0,0.0,0.0,0.004,0.0,0.0,0.0,0.0,0.0,-1.61,0.4998019953607375,0.0,0.0,0.0,0.0,0.0,0.0,0.112,0.0,0.0,0.0
286,0.0,0.0,0.0,0.4979384765625,0.0,0.0,0.0,0.0,0.0,0.0,-0.001,0.0,0.0,0.0,0.0,0.0,-1.61,0.4997148594069992,0.0,0.0,0.0,0.0,0.0,0.0,0.228,0.0,0.0,0.0
287,0.0,0.0,0.0,0.4979384765625,0.0,0.0,0.0,0.0,0.0,0.0,-0.001,0.0,0.0,0.0,0.0,0.0,-1.61,0.49961188371791027,0.0,0.0,0.0,0.0,0.0,0.0,0.136,0.0,0.0,0.0
288,0.0,0.0,0.0,0.4979384765625,0.0,0.0,0.0,0.0,0.0,0.0,-0.001,0.0,0.0,0.0,0.0,0.0,-1.61,0.49949307155804884,0.0,0.0,0.0,0.0,0.0,0.0,0.34,0.0,0.0,0.0
289,0.0,0.0,0.0,0.4977939453125,0.0,0.0,0.0,0.0,0.0,0.0,-0.009,0.0,0.0,0.0,0.0,0.0,-1.61,0.4993584266939727,0.0,0.0,0.0,0.0,0.0,0.0,0.408,0.0,0.0,0.0
290,0.0,0.0,0.0,0.4977939453125,0.0,0.0,0.0,0.0,0.0,0.0,-0.008,0.0,0.0,0.0,0.0,0.0,-1.61,0.49920795339409935,0.0,0.0,0.0,0.0,0.0,0.0,0.5,0.0,0.0,0.0
291,0.0,0.0,0.0,0.4977939453125,0.0,0.0,0.0,0.0,0.0,0.0,-0.001,0.0,0.0,0.0,0.0,0.0,-1.61,0.4990416564285713,0.0,0.0,0.0,0.0,0.0,0.0,0.432,0.0,0.0,0.0
292,0.0,0.0,0.0,0.4977939453125,0.0,0.0,0.0,0.0,0.0,0.0,-0.001,0.0,0.0,0.0,0.0,0.0,-1.61,0.4988595410691042,0.0,0.0,0.0,0.0,0.0,0.0,0.548,0.0,0.0,0.0
293,0.0,0.0,0.0,0.4977939453125,0.0,0.0,0.0,0.0,0.0,0.0,-0.001,0.0,0.0,0.0,0.0,0.0,-1.61,0.4986616130888201,0.0,0.0,0.0,0.0,0.0,0.0,0.48,0.0,0.0,0.0
294,0.0,0.0,0.0,0.4977939453125,0.0,0.0,0.0,0.0,0.0,0.0,-0.001,0.0,0.0,0.0,0.0,0.0,-1.61,0.4984478787620644,0.0,0.0,0.0,0.0,0.0,0.0,0.524,0.0,0.0,0.0
295,0.0,0.0,0.0,0.4977939453125,0.0,0.0,0.0,0.0,0.0,0.0,-0.001,0.0,0.0,0.0,0.0,0.0,-1.61,0.4982183448642068,0.0,0.0,0.0,0.0,0.0,0.0,0.456,0.0,0.0,0.0
296,0.0,0.0,0.0,0.4977939453125,0.0,0.0,0.0,0.0,0.0,0.0,-0.001,0.0,0.0,0.0,0.0,0.0,-1.61,0.4979730186714263,0.0,0.0,0.0,0.0,0.0,0.0,0.34,0.0,0.0,0.0
297,0.0,0.0,0.0,0.4977939453125,0.0,0.0,0.0,0.0,0.0,0.0,-0.001,0.0,0.0,0.0,0.0,0.0,-1.61,0.49771190796048104,0.0,0.0,0.0,0.0,0.0,0.0,0.432,0.0,0.0,0.0
298,0.0,0.0,0.0,0.4977939453125,0.0,0.0,0.0,0.0,0.0,0.0,-0.001,0.0,0.0,0.0,0.0,0.0,-1.61,0.4974350210084613,0.0,0.0,0.0,0.0,0.0,0.0,0.48,0.0,0.0,0.0
299,0.0,0.0,0.0,0.4977939453125,0.0,0.0,0.0,0.0,0.0,0.0,-0.001,0.0,0.0,0.0,0.0,0.0,-1.61,0.49714236659252753,0.0,0.0,0.0,0.0,0.0,0.0,0.548,0.0,0.0,0.0
300,0.0,0.0,0.0,0.4977939453125,0.0,0.0,0.0,0.0,0.0,0.0,-0.001,0.0,0.0,0.0,0.0,0.0,-1.61,0.49683395398963137,0.0,0.0,0.0,0.0,0.0,0.0,0.708,0.0,0.0,0.0
301,0.0,0.0,0.0,0.4977939453125,0.0,0.0,0.0,0.0,0.0,0.0,-0.001,0.0,0.0,0.0,0.0,0.0,-1.61,0.4965097929762225,0.0,0.0,0.0,0.0,0.0,0.0,0.64,0.0,0.0,0.0
302,0.0,0.0,0.0,0.4977939453125,0.0,0.0,0.0,0.0,0.0,0.0,-0.001,0.0,0.0,0.0,0.0,0.0,-1.61,0.49616989382793786,0.0,0.0,0.0,0.0,0.0,0.0,0.48,0.0,0.0,0.0
303,0.0,0.0,0.0,0.4977939453125,0.0,0.0,0.0,0.0,0.0,0.0,-0.001,0.0,0.0,0.0,0.0,0.0,-1.61,0.4958142673192765,0.0,0.0,0.0,0.0,0.0,0.0,0.48,0.0,0.0,0.0
304,0.0,0.0,0.0,0.4979384765625,0.0,0.0,0.0,0.0,0.0,0.0,0.003,0.0,0.0,0.0,0.0,0.0,-1.61,0.4954429247232576,0.0,0.0,0.0,0.0,0.0,0.0,0.48,0.0,0.0,0.0
305,0.0,0.0,0.0,0.4979384765625,0.0,0.0,0.0,0.0,0.0,0.0,0.01,0.0,0.0,0.0,0.0,0.0,-1.61,0.4950558778110634,0.0,0.0,0.0,0.0,0.0,0.0,0.34,0.0,0.0,0.0
306,0.0,0.0,0.0,0.4977939453125,0.0,0.0,0.0,0.0,0.0,0.0,-0.007,0.0,0.0,0.0,0.0,0.0,-1.61,0.49465313885166584,0.0,0.0,0.0,0.0,0.0,0.0,0.18,0.0,0.0,0.0
307,0.0,0.0,0.0,0.4977939453125,0.0,0.0,0.0,0.0,0.0,0.0,-0.01,0.0,0.0,0.0,0.0,0.0,-1.61,0.4942347206114377,0.0,0.0,0.0,0.0,0.0,0.0,0.364,0.0,0.0,0.0
308,0.0,0.0,0.0,0.4976494140625,0.0,0.0,0.0,0.0,0.0,0.0,-0.004,0.0,0.0,0.0,0.0,0.0,-1.61,0.49380063635374793,0.0,0.0,0.0,0.0,0.0,0.0,0.228,0.0,0.0,0.0
309,0.0,0.0,0.0,0.4975048828125,0.0,0.0,0.0,0.0,0.0,0.0,-0.013,0.0,0.0,0.0,0.0,0.0,-1.61,0.4933508998385411,0.0,0.0,0.0,0.0,0.0,0.0,0.18,0.0,0.0,0.0
310,0.0,0.0,0.0,0.4975048828125,0.0,0.0,0.0,0.0,0.0,0.0,-0.011,0.0,0.0,0.0,0.0,0.0,-1.61,0.4928855253219012,0.0,0.0,0.0,0.0,0.0,0.0,0.204,0.0,0.0,0.0
311,0.0,0.0,0.0,0.497216796875,0.0,0.0,0.0,0.0,0.0,0.0,-0.014,0.0,0.0,0.0,0.0,0.0,-1.61,0.49240452755559994,0.0,0.0,0.0,0.0,0.0,0.0,-0.296,0.0,0.0,0.0
312,0.0,0.0,0.0,0.496783203125,0.0,0.0,0.0,0.0,0.0,0.0,-0.034,0.0,0.0,0.0,0.0,0.0,-1.61,0.49190792178662873,0.0,0.0,0.0,0.0,0.0,0.0,-0.592,0.0,0.0,0.0
313,0.0,0.0,0.0,0.496349609375,0.0,0.0,0.0,0.0,0.0,0.0,-0.041,0.0,0.0,0.0,0.0,0.0,-1.61,0.49139572375671564,0.0,0.0,0.0,0.0,0.0,0.0,-0.5,0.0,0.0,0.0
314,0.0,0.0,0.0,0.495763671875,0.0,0.0,0.0,0.0,0.0,0.0,-0.047,0.0,0.0,0.0,0.0,0.0,-1.61,0.4908679497018264,0.0,0.0,0.0,0.0,0.0,0.0,-0.456,0.0,0.0,0.0
315,0.0,0.0,0.0,0.4951865234375,0.0,0.0,0.0,0.0,0.0,0.0,-0.065,0.0,0.0,0.0,0.0,0.0,-1.61,0.4903246163516493,0.0,0.0,0.0,0.0,0.0,0.0,-0.16,0.0,0.0,0.0
316,0.0,0.0,0.0,0.4946083984375,0.0,0.0,0.0,0.0,0.0,0.0,-0.062,0.0,0.0,0.0,0.0,0.0,-1.61,0.4897657409290655,0.0,0.0,0.0,0.0,0.0,0.0,-0.044,0.0,0.0,0.0
317,0.0,0.0,0.0,0.49388671875,0.0,0.0,0.0,0.0,0.0,0.0,-0.061,0.0,0.0,0.0,0.0,0.0,-1.61,0.48919134114960244,0.0,0.0,0.0,0.0,0.0,0.0,0.044,0.0,0.0,0.0
318,0.0,0.0,0.0,0.493453125,0.0,0.0,0.0,0.0,0.0,0.0,-0.06,0.0,0.0,0.0,0.0,0.0,-1.61,0.48860143522087274,0.0,0.0,0.0,0.0,0.0,0.0,-0.16,0.0,0.0,0.0
319,0.0,0.0,0.0,0.4927314453125,0.0,0.0,0.0,0.0,0.0,0.0,-0.06,0.0,0.0,0.0,0.0,0.0,-1.61,0.4879960418419967,0.0,0.0,0.0,0.0,0.0,0.0,-0.16,0.0,0.0,0.0
320,0.0,0.0,0.0,0.4920009765625,0.0,0.0,0.0,0.0,0.0,0.0,-0.068,0.0,0.0,0.0,0.0,0.0,-1.61,0.48737518020300963,0.0,0.0,0.0,0.0,0.0,0.0,0.112,0.0,0.0,0.0
321,0.0,0.0,0.0,0.491279296875,0.0,0.0,0.0,0.0,0.0,0.0,-0.073,0.0,0.0,0.0,0.0,0.0,-1.61,0.4867388699842537,0.0,0.0,0.0,0.0,0.0,0.0,0.32,0.0,0.0,0.0
322,0.0,0.0,0.0,0.490556640625,0.0,0.0,0.0,0.0,0.0,0.0,-0.073,0.0,0.0,0.0,0.0,0.0,-1.61,0.48608713135575377,0.0,0.0,0.0,0.0,0.0,0.0,0.66,0.0,0.0,0.0
323,0.0,0.0,0.0,0.4899794921875,0.0,0.0,0.0,0.0,0.0,0.0,-0.068,0.0,0.0,0.0,0.0,0.0,-1.61,0.4854199849765781,0.0,0.0,0.0,0.0,0.0,0.0,0.888,0.0,0.0,0.0
324,0.0,0.0,0.0,0.48940234375,0.0,0.0,0.0,0.0,0.0,0.0,-0.066,0.0,0.0,0.0,0.0,0.0,-1.61,0.48473745199418383,0.0,0.0,0.0,0.0,0.0,0.0,0.568,0.0,0.0,0.0
325,0.0,0.0,0.0,0.4886708984375,0.0,0.0,0.0,0.0,0.0,0.0,-0.065,0.0,0.0,0.0,0.0,0.0,-1.61,0.48403955404374593,0.0,0.0,0.0,0.0,0.0,0.0,0.34,0.0,0.0,0.0
326,0.0,0.0,0.0,0.48809375,0.0,0.0,0.0,0.0,0.0,0.0,-0.065,0.0,0.0,0.0,0.0,0.0,-1.61,0.48332631324747205,0.0,0.0,0.0,0.0,0.0,0.0,0.272,0.0,0.0,0.0
327,0.0,0.0,0.0,0.4872275390625,0.0,0.0,0.0,0.0,0.0,0.0,-0.073,0.0,0.0,0.0,0.0,0.0,-1.61,0.48259775221390067,0.0,0.0,0.0,0.0,0.0,0.0,0.364,0.0,0.0,0.0
328,0.0,0.0,0.0,0.486505859375,0.0,0.0,0.0,0.0,0.0,0.0,-0.082,0.0,0.0,0.0,0.0,0.0,-1.61,0.48185389403718487,0.0,0.0,0.0,0.0,0.0,0.0,0.228,0.0,0.0,0.0
329,0.0,0.0,0.0,0.485486328125,0.0,0.0,0.0,0.0,0.0,0.0,-0.085,0.0,0.0,0.0,0.0,0.0,-1.61,0.48109476229635995,0.0,0.0,0.0,0.0,0.0,0.0,0.48,0.0,0.0,0.0
330,0.0,0.0,0.0,0.4848994140625,0.0,0.0,0.0,0.0,0.0,0.0,-0.085,0.0,0.0,0.0,0.0,0.0,-1.61,0.4803203810545963,0.0,0.0,0.0,0.0,0.0,0.0,0.752,0.0,0.0,0.0
331,0.0,0.0,0.0,0.484033203125,0.0,0.0,0.0,0.0,0.0,0.0,-0.07,0.0,0.0,0.0,0.0,0.0,-1.61,0.47953077485843626,0.0,0.0,0.0,0.0,0.0,0.0,0.48,0.0,0.0,0.0
332,0.0,0.0,0.0,0.4833115234375,0.0,0.0,0.0,0.0,0.0,0.0,-0.079,0.0,0.0,0.0,0.0,0.0,-1.61,0.47872596873701617,0.0,0.0,0.0,0.0,0.0,0.0,0.548,0.0,0.0,0.0
333,0.0,0.0,0.0,0.482580078125,0.0,0.0,0.0,0.0,0.0,0.0,-0.073,0.0,0.0,0.0,0.0,0.0,-1.61,0.477905988201273,0.0,0.0,0.0,0.0,0.0,0.0,0.044,0.0,0.0,0.0
334,0.0,0.0,0.0,0.4818583984375,0.0,0.0,0.0,0.0,0.0,0.0,-0.078,0.0,0.0,0.0,0.0,0.0,-1.61,0.47707085924313564,0.0,0.0,0.0,0.0,0.0,0.0,0.388,0.0,0.0,0.0
335,0.0,0.0,0.0,0.48128125,0.0,0.0,0.0,0.0,0.0,0.0,-0.066,0.0,0.0,0.0,0.0,0.0,-1.61,0.47622060833470087,0.0,0.0,0.0,0.0,0.0,0.0,0.408,0.0,0.0,0.0
336,0.0,0.0,0.0,0.4804150390625,0.0,0.0,0.0,0.0,0.0,0.0,-0.07,0.0,0.0,0.0,0.0,0.0,-1.61,0.47535526242739434,0.0,0.0,0.0,0.0,0.0,0.0,0.388,0.0,0.0,0.0
337,0.0,0.0,0.0,0.4796923828125,0.0,0.0,0.0,0.0,0.0,0.0,-0.081,0.0,0.0,0.0,0.0,0.0,-1.61,0.4744748489511163,0.0,0.0,0.0,0.0,0.0,0.0,0.136,0.0,0.0,0.0
338,0.0,0.0,0.0,0.4789619140625,0.0,0.0,0.0,0.0,0.0,0.0,-0.071,0.0,0.0,0.0,0.0,0.0,-1.61,0.47357939581337166,0.0,0.0,0.0,0.0,0.0,0.0,-0.02,0.0,0.0,0.0
339,0.0,0.0,0.0,0.478240234375,0.0,0.0,0.0,0.0,0.0,0.0,-0.078,0.0,0.0,0.0,0.0,0.0,-1.61,0.472668931398386,0.0,0.0,0.0,0.0,0.0,0.0,-0.16,0.0,0.0,0.0
340,0.0,0.0,0.0,0.4773740234375,0.0,0.0,0.0,0.0,0.0,0.0,-0.079,0.0,0.0,0.0,0.0,0.0,-1.61,0.4717434845662053,0.0,0.0,0.0,0.0,0.0,0.0,-0.044,0.0,0.0,0.0
341,0.0,0.0,0.0,0.4767958984375,0.0,0.0,0.0,0.0,0.0,0.0,-0.075,0.0,0.0,0.0,0.0,0.0,-1.61,0.4708030846517812,0.0,0.0,0.0,0.0,0.0,0.0,0.776,0.0,0.0,0.0
342,0.0,0.0,0.0,0.4760654296875,0.0,0.0,0.0,0.0,0.0,0.0,-0.06,0.0,0.0,0.0,0.0,0.0,-1.61,0.4698477614640412,0.0,0.0,0.0,0.0,0.0,0.0,0.616,0.0,0.0,0.0
343,0.0,0.0,0.0,0.47519921875,0.0,0.0,0.0,0.0,0.0,0.0,-0.079,0.0,0.0,0.0,0.0,0.0,-1.61,0.4688775452849439,0.0,0.0,0.0,0.0,0.0,0.0,-0.34,0.0,0.0,0.0
344,0.0,0.0,0.0,0.4744775390625,0.0,0.0,0.0,0.0,0.0,0.0,-0.087,0.0,0.0,0.0,0.0,0.0,-1.61,0.46789246686851854,0.0,0.0,0.0,0.0,0.0,0.0,-0.752,0.0,0.0,0.0
345,0.0,0.0,0.0,0.473466796875,0.0,0.0,0.0,0.0,0.0,0.0,-0.09,0.0,0.0,0.0,0.0,0.0,-1.61,0.4668925574398908,0.0,0.0,0.0,0.0,0.0,0.0,-0.936,0.0,0.0,0.0
346,0.0,0.0,0.0,0.472302734375,0.0,0.0,0.0,0.0,0.0,0.0,-0.106,0.0,0.0,0.0,0.0,0.0,-1.61,0.4658778486942924,0.0,0.0,0.0,0.0,0.0,0.0,-0.592,0.0,0.0,0.0
347,0.0,0.0,0.0,0.4712919921875,0.0,0.0,0.0,0.0,0.0,0.0,-0.104,0.0,0.0,0.0,0.0,0.0,-1.61,0.46484837279605673,0.0,0.0,0.0,0.0,0.0,0.0,-0.02,0.0,0.0,0.0
348,0.0,0.0,0.0,0.47028125,0.0,0.0,0.0,0.0,0.0,0.0,-0.103,0.0,0.0,0.0,0.0,0.0,-1.61,0.4638041623775993,0.0,0.0,0.0,0.0,0.0,0.0,0.16,0.0,0.0,0.0
349,0.0,0.0,0.0,0.46940625,0.0,0.0,0.0,0.0,0.0,0.0,-0.1,0.0,0.0,0.0,0.0,0.0,-1.61,0.46274525053838317,0.0,0.0,0.0,0.0,0.0,0.0,-0.296,0.0,0.0,0.0
350,0.0,0.0,0.0,0.4685400390625,0.0,0.0,0.0,0.0,0.0,0.0,-0.095,0.0,0.0,0.0,0.0,0.0,-1.61,0.4616716708438697,0.0,0.0,0.0,0.0,0.0,0.0,-0.524,0.0,0.0,0.0
351,0.0,0.0,0.0,0.467673828125,0.0,0.0,0.0,0.0,0.0,0.0,-0.086,0.0,0.0,0.0,0.0,0.0,-1.61,0.4605834573244546,0.0,0.0,0.0,0.0,0.0,0.0,-0.96,0.0,0.0,0.0
352,0.0,0.0,0.0,0.4665185546875,0.0,0.0,0.0,0.0,0.0,0.0,-0.098,0.0,0.0,0.0,0.0,0.0,-1.61,0.4594806444743893,0.0,0.0,0.0,0.0,0.0,0.0,-0.8,0.0,0.0,0.0
353,0.0,0.0,0.0,0.465490234375,0.0,0.0,0.0,0.0,0.0,0.0,-0.106,0.0,0.0,0.0,0.0,0.0,-1.61,0.45836326725068743,0.0,0.0,0.0,0.0,0.0,0.0,-0.432,0.0,0.0,0.0
354,0.0,0.0,0.0,0.4644794921875,0.0,0.0,0.0,0.0,0.0,0.0,-0.106,0.0,0.0,0.0,0.0,0.0,-1.61,0.4572313610720167,0.0,0.0,0.0,0.0,0.0,0.0,-0.364,0.0,0.0,0.0
355,0.0,0.0,0.0,0.46332421875,0.0,0.0,0.0,0.0,0.0,0.0,-0.111,0.0,0.0,0.0,0.0,0.0,-1.61,0.4560849618175762,0.0,0.0,0.0,0.0,0.0,0.0,-0.524,0.0,0.0,0.0
356,0.0,0.0,0.0,0.4623046875,0.0,0.0,0.0,0.0,0.0,0.0,-0.104,0.0,0.0,0.0,0.0,0.0,-1.61,0.454924105825959,0.0,0.0,0.0,0.0,0.0,0.0,-0.432,0.0,0.0,0.0
357,0.0,0.0,0.0,0.4614384765625,0.0,0.0,0.0,0.0,0.0,0.0,-0.1,0.0,0.0,0.0,0.0,0.0,-1.61,0.4537488298940004,0.0,0.0,0.0,0.0,0.0,0.0,-0.388,0.0,0.0,0.0
358,0.0,0.0,0.0,0.460283203125,0.0,0.0,0.0,0.0,0.0,0.0,-0.106,0.0,0.0,0.0,0.0,0.0,-1.61,0.45255917127561124,0.0,0.0,0.0,0.0,0.0,0.0,-0.728,0.0,0.0,0.0
359,0.0,0.0,0.0,0.459119140625,0.0,0.0,0.0,0.0,0.0,0.0,-0.12,0.0,0.0,0.0,0.0,0.0,-1.61,0.4513551676805975,0.0,0.0,0.0,0.0,0.0,0.0,-0.568,0.0,0.0,0.0
360,0.0,0.0,0.0,0.45767578125,0.0,0.0,0.0,0.0,0.0,0.0,-0.124,0.0,0.0,0.0,0.0,0.0,-1.61,0.4501368572734644,0.0,0.0,0.0,0.0,0.0,0.0,-0.708,0.0,0.0,0.0
361,0.0,0.0,0.0,0.4563671875,0.0,0.0,0.0,0.0,0.0,0.0,-0.144,0.0,0.0,0.0,0.0,0.0,-1.61,0.44890427867220656,0.0,0.0,0.0,0.0,0.0,0.0,-0.228,0.0,0.0,0.0
362,0.0,0.0,0.0,0.455068359375,0.0,0.0,0.0,0.0,0.0,0.0,-0.13,0.0,0.0,0.0,0.0,0.0,-1.61,0.44765747094708475,0.0,0.0,0.0,0.0,0.0,0.0,-0.16,0.0,0.0,0.0
363,0.0,0.0,0.0,0.4536240234375,0.0,0.0,0.0,0.0,0.0,0.0,-0.135,0.0,0.0,0.0,0.0,0.0,-1.61,0.44639647361938606,0.0,0.0,0.0,0.0,0.0,0.0,0.068,0.0,0.0,0.0
364,0.0,0.0,0.0,0.4524599609375,0.0,0.0,0.0,0.0,0.0,0.0,-0.135,0.0,0.0,0.0,0.0,0.0,-1.61,0.44512132666017257,0.0,0.0,0.0,0.0,0.0,0.0,-0.068,0.0,0.0,0.0
365,0.0,0.0,0.0,0.4510166015625,0.0,0.0,0.0,0.0,0.0,0.0,-0.128,0.0,0.0,0.0,0.0,0.0,-1.61,0.44383207048901285,0.0,0.0,0.0,0.0,0.0,0.0,-0.364,0.0,0.0,0.0
366,0.0,0.0,0.0,0.4497080078125,0.0,0.0,0.0,0.0,0.0,0.0,-0.14,0.0,0.0,0.0,0.0,0.0,-1.61,0.4425287459727022,0.0,0.0,0.0,0.0,0.0,0.0,-0.112,0.0,0.0,0.0
367,0.0,0.0,0.0,0.448408203125,0.0,0.0,0.0,0.0,0.0,0.0,-0.127,0.0,0.0,0.0,0.0,0.0,-1.61,0.44121139442396573,0.0,0.0,0.0,0.0,0.0,0.0,-0.044,0.0,0.0,0.0
368,0.0,0.0,0.0,0.44696484375,0.0,0.0,0.0,0.0,0.0,0.0,-0.141,0.0,0.0,0.0,0.0,0.0,-1.61,0.43988005760015,0.0,0.0,0.0,0.0,0.0,0.0,0.728,0.0,0.0,0.0
369,0.0,0.0,0.0,0.44565625,0.0,0.0,0.0,0.0,0.0,0.0,-0.136,0.0,0.0,0.0,0.0,0.0,-1.61,0.4385347777018988,0.0,0.0,0.0,0.0,0.0,0.0,0.228,0.0,0.0,0.0
370,0.0,0.0,0.0,0.444212890625,0.0,0.0,0.0,0.0,0.0,0.0,-0.143,0.0,0.0,0.0,0.0,0.0,-1.61,0.4371755973718154,0.0,0.0,0.0,0.0,0.0,0.0,0.388,0.0,0.0,0.0
371,0.0,0.0,0.0,0.443048828125,0.0,0.0,0.0,0.0,0.0,0.0,-0.132,0.0,0.0,0.0,0.0,0.0,-1.61,0.43580255969311094,0.0,0.0,0.0,0.0,0.0,0.0,0.32,0.0,0.0,0.0
372,0.0,0.0,0.0,0.4414609375,0.0,0.0,0.0,0.0,0.0,0.0,-0.135,0.0,0.0,0.0,0.0,0.0,-1.61,0.434415708188239,0.0,0.0,0.0,0.0,0.0,0.0,0.204,0.0,0.0,0.0
373,0.0,0.0,0.0,0.44015234375,0.0,0.0,0.0,0.0,0.0,0.0,-0.156,0.0,0.0,0.0,0.0,0.0,-1.61,0.4330150868175154,0.0,0.0,0.0,0.0,0.0,0.0,0.16,0.0,0.0,0.0
374,0.0,0.0,0.0,0.438419921875,0.0,0.0,0.0,0.0,0.0,0.0,-0.146,0.0,0.0,0.0,0.0,0.0,-1.61,0.4316007399777256,0.0,0.0,0.0,0.0,0.0,0.0,0.408,0.0,0.0,0.0
375,0.0,0.0,0.0,0.437111328125,0.0,0.0,0.0,0.0,0.0,0.0,-0.15,0.0,0.0,0.0,0.0,0.0,-1.61,0.43017271250071615,0.0,0.0,0.0,0.0,0.0,0.0,0.844,0.0,0.0,0.0
376,0.0,0.0,0.0,0.4358115234375,0.0,0.0,0.0,0.0,0.0,0.0,-0.139,0.0,0.0,0.0,0.0,0.0,-1.61,0.4287310496519748,0.0,0.0,0.0,0.0,0.0,0.0,0.752,0.0,0.0,0.0
377,0.0,0.0,0.0,0.4342236328125,0.0,0.0,0.0,0.0,0.0,0.0,-0.138,0.0,0.0,0.0,0.0,0.0,-1.61,0.42727579712919483,0.0,0.0,0.0,0.0,0.0,0.0,0.388,0.0,0.0,0.0
378,0.0,0.0,0.0,0.4330595703125,0.0,0.0,0.0,0.0,0.0,0.0,-0.138,0.0,0.0,0.0,0.0,0.0,-1.61,0.42580700106082714,0.0,0.0,0.0,0.0,0.0,0.0,0.112,0.0,0.0,0.0
379,0.0,0.0,0.0,0.4317607421875,0.0,0.0,0.0,0.0,0.0,0.0,-0.129,0.0,0.0,0.0,0.0,0.0,-1.61,0.4243247080046169,0.0,0.0,0.0,0.0,0.0,0.0,0.0,0.0,0.0,0.0
380,0.0,0.0,0.0,0.4303076171875,0.0,0.0,0.0,0.0,0.0,0.0,-0.141,0.0,0.0,0.0,0.0,0.0,-1.61,0.42282896494612954,0.0,0.0,0.0,0.0,0.0,0.0,0.18,0.0,0.0,0.0
381,0.0,0.0,0.0,0.4288642578125,0.0,0.0,0.0,0.0,0.0,0.0,-0.146,0.0,0.0,0.0,0.0,0.0,-1.61,0.42131981929725953,0.0,0.0,0.0,0.0,0.0,0.0,0.16,0.0,0.0,0.0
382,0.0,0.0,0.0,0.42711328125,0.0,0.0,0.0,0.0,0.0,0.0,-0.161,0.0,0.0,0.0,0.0,0.0,-1.61,0.41979731889472854,0.0,0.0,0.0,0.0,0.0,0.0,0.296,0.0,0.0,0.0
383,0.0,0.0,0.0,0.425525390625,0.0,0.0,0.0,0.0,0.0,0.0,-0.172,0.0,0.0,0.0,0.0,0.0,-1.61,0.4182615119985691,0.0,0.0,0.0,0.0,0.0,0.0,0.456,0.0,0.0,0.0
384,0.0,0.0,0.0,0.423927734375,0.0,0.0,0.0,0.0,0.0,0.0,-0.149,0.0,0.0,0.0,0.0,0.0,-1.61,0.41671244729059387,0.0,0.0,0.0,0.0,0.0,0.0,0.776,0.0,0.0,0.0
385,0.0,0.0,0.0,0.42262890625,0.0,0.0,0.0,0.0,0.0,0.0,-0.146,0.0,0.0,0.0,0.0,0.0,-1.61,0.41515017387285397,0.0,0.0,0.0,0.0,0.0,0.0,0.96,0.0,0.0,0.0
386,0.0,0.0,0.0,0.4211845703125,0.0,0.0,0.0,0.0,0.0,0.0,-0.146,0.0,0.0,0.0,0.0,0.0,-1.61,0.413574741266081,0.0,0.0,0.0,0.0,0.0,0.0,0.228,0.0,0.0,0.0
387,0.0,0.0,0.0,0.419732421875,0.0,0.0,0.0,0.0,0.0,0.0,-0.146,0.0,0.0,0.0,0.0,0.0,-1.61,0.41198619940811854,0.0,0.0,0.0,0.0,0.0,0.0,0.16,0.0,0.0,0.0
388,0.0,0.0,0.0,0.4182880859375,0.0,0.0,0.0,0.0,0.0,0.0,-0.146,0.0,0.0,0.0,0.0,0.0,-1.61,0.41038459865233834,0.0,0.0,0.0,0.0,0.0,0.0,-0.388,0.0,0.0,0.0
389,0.0,0.0,0.0,0.416546875,0.0,0.0,0.0,0.0,0.0,0.0,-0.161,0.0,0.0,0.0,0.0,0.0,-1.61,0.4087699897660447,0.0,0.0,0.0,0.0,0.0,0.0,-0.388,0.0,0.0,0.0
390,0.0,0.0,0.0,0.415103515625,0.0,0.0,0.0,0.0,0.0,0.0,-0.161,0.0,0.0,0.0,0.0,0.0,-1.61,0.4071424239288649,0.0,0.0,0.0,0.0,0.0,0.0,0.18,0.0,0.0,0.0
391,0.0,0.0,0.0,0.413361328125,0.0,0.0,0.0,0.0,0.0,0.0,-0.156,0.0,0.0,0.0,0.0,0.0,-1.61,0.4055019527311272,0.0,0.0,0.0,0.0,0.0,0.0,0.592,0.0,0.0,0.0
392,0.0,0.0,0.0,0.41191796875,0.0,0.0,0.0,0.0,0.0,0.0,-0.162,0.0,0.0,0.0,0.0,0.0,-1.61,0.40384862817222494,0.0,0.0,0.0,0.0,0.0,0.0,0.068,0.0,0.0,0.0
393,0.0,0.0,0.0,0.41046484375,0.0,0.0,0.0,0.0,0.0,0.0,-0.153,0.0,0.0,0.0,0.0,0.0,-1.61,0.4021825026589689,0.0,0.0,0.0,0.0,0.0,0.0,-0.112,0.0,0.0,0.0
394,0.0,0.0,0.0,0.409021484375,0.0,0.0,0.0,0.0,0.0,0.0,-0.146,0.0,0.0,0.0,0.0,0.0,-1.61,0.4005036290039255,0.0,0.0,0.0,0.0,0.0,0.0,-0.548,0.0,0.0,0.0
395,0.0,0.0,0.0,0.4074150390625,0.0,0.0,0.0,0.0,0.0,0.0,-0.156,0.0,0.0,0.0,0.0,0.0,-1.61,0.39881206042374356,0.0,0.0,0.0,0.0,0.0,0.0,-0.616,0.0,0.0,0.0
396,0.0,0.0,0.0,0.4059716796875,0.0,0.0,0.0,0.0,0.0,0.0,-0.153,0.0,0.0,0.0,0.0,0.0,-1.61,0.3971078505374661,0.0,0.0,0.0,0.0,0.0,0.0,-0.248,0.0,0.0,0.0
397,0.0,0.0,0.0,0.40423046875,0.0,0.0,0.0,0.0,0.0,0.0,-0.159,0.0,0.0,0.0,0.0,0.0,-1.61,0.3953910533648319,0.0,0.0,0.0,0.0,0.0,0.0,-0.136,0.0,0.0,0.0
398,0.0,0.0,0.0,0.4027861328125,0.0,0.0,0.0,0.0,0.0,0.0,-0.163,0.0,0.0,0.0,0.0,0.0,-1.61,0.39366172332456256,0.0,0.0,0.0,0.0,0.0,0.0,0.136,0.0,0.0,0.0
399,0.0,0.0,0.0,0.401189453125,0.0,0.0,0.0,0.0,0.0,0.0,-0.149,0.0,0.0,0.0,0.0,0.0,-1.61,0.3919199152326377,0.0,0.0,0.0,0.0,0.0,0.0,-0.524,0.0,0.0,0.0
400,0.0,0.0,0.0,0.3996005859375,0.0,0.0,0.0,0.0,0.0,0.0,-0.167,0.0,0.0,0.0,0.0,0.0,-1.61,0.3901656843005572,0.0,0.0,0.0,0.0,0.0,0.0,-0.388,0.0,0.0,0.0
401,0.0,0.0,0.0,0.3981484375,0.0,0.0,0.0,0.0,0.0,0.0,-0.144,0.0,0.0,0.0,0.0,0.0,-1.61,0.38839908613359136,0.0,0.0,0.0,0.0,0.0,0.0,-0.64,0.0,0.0,0.0
402,0.0,0.0,0.0,0.396126953125,0.0,0.0,0.0,0.0,0.0,0.0,-0.174,0.0,0.0,0.0,0.0,0.0,-1.61,0.38662017672901783,0.0,0.0,0.0,0.0,0.0,0.0,-0.48,0.0,0.0,0.0
403,0.0,0.0,0.0,0.3945302734375,0.0,0.0,0.0,0.0,0.0,0.0,-0.185,0.0,0.0,0.0,0.0,0.0,-1.61,0.38482901247434687,0.0,0.0,0.0,0.0,0.0,0.0,-0.296,0.0,0.0,0.0
404,0.0,0.0,0.0,0.3925087890625,0.0,0.0,0.0,0.0,0.0,0.0,-0.181,0.0,0.0,0.0,0.0,0.0,-1.61,0.3830256501455345,0.0,0.0,0.0,0.0,0.0,0.0,-0.228,0.0,0.0,0.0
405,0.0,0.0,0.0,0.3909111328125,0.0,0.0,0.0,0.0,0.0,0.0,-0.192,0.0,0.0,0.0,0.0,0.0,-1.61,0.3812101469051818,0.0,0.0,0.0,0.0,0.0,0.0,0.248,0.0,0.0,0.0
406,0.0,0.0,0.0,0.3887275390625,0.0,0.0,0.0,0.0,0.0,0.0,-0.173,0.0,0.0,0.0,0.0,0.0,-1.61,0.37938256030072326,0.0,0.0,0.0,0.0,0.0,0.0,-0.204,0.0,0.0,0.0
407,0.0,0.0,0.0,0.3869951171875,0.0,0.0,0.0,0.0,0.0,0.0,-0.195,0.0,0.0,0.0,0.0,0.0,-1.61,0.37754294826260293,0.0,0.0,0.0,0.0,0.0,0.0,0.228,0.0,0.0,0.0
408,0.0,0.0,0.0,0.3853984375,0.0,0.0,0.0,0.0,0.0,0.0,-0.175,0.0,0.0,0.0,0.0,0.0,-1.61,0.37569136910243806,0.0,0.0,0.0,0.0,0.0,0.0,-0.32,0.0,0.0,0.0
409,0.0,0.0,0.0,0.383376953125,0.0,0.0,0.0,0.0,0.0,0.0,-0.194,0.0,0.0,0.0,0.0,0.0,-1.61,0.37382788151117047,0.0,0.0,0.0,0.0,0.0,0.0,-0.068,0.0,0.0,0.0
410,0.0,0.0,0.0,0.3814912109375,0.0,0.0,0.0,0.0,0.0,0.0,-0.197,0.0,0.0,0.0,0.0,0.0,-1.61,0.37195254455720606,0.0,0.0,0.0,0.0,0.0,0.0,-0.044,0.0,0.0,0.0
411,0.0,0.0,0.0,0.37931640625,0.0,0.0,0.0,0.0,0.0,0.0,-0.201,0.0,0.0,0.0,0.0,0.0,-1.61,0.3700654176845425,0.0,0.0,0.0,0.0,0.0,0.0,0.272,0.0,0.0,0.0
412,0.0,0.0,0.0,0.377439453125,0.0,0.0,0.0,0.0,0.0,0.0,-0.203,0.0,0.0,0.0,0.0,0.0,-1.61,0.3681665607108855,0.0,0.0,0.0,0.0,0.0,0.0,0.568,0.0,0.0,0.0
413,0.0,0.0,0.0,0.3755537109375,0.0,0.0,0.0,0.0,0.0,0.0,-0.191,0.0,0.0,0.0,0.0,0.0,-1.61,0.36625603382575234,0.0,0.0,0.0,0.0,0.0,0.0,0.432,0.0,0.0,0.0
414,0.0,0.0,0.0,0.3735322265625,0.0,0.0,0.0,0.0,0.0,0.0,-0.191,0.0,0.0,0.0,0.0,0.0,-1.61,0.3643338975885632,0.0,0.0,0.0,0.0,0.0,0.0,-0.044,0.0,0.0,0.0
415,0.0,0.0,0.0,0.371791015625,0.0,0.0,0.0,0.0,0.0,0.0,-0.189,0.0,0.0,0.0,0.0,0.0,-1.61,0.3624002129267228,0.0,0.0,0.0,0.0,0.0,0.0,-0.204,0.0,0.0,0.0
416,0.0,0.0,0.0,0.3698955078125,0.0,0.0,0.0,0.0,0.0,0.0,-0.192,0.0,0.0,0.0,0.0,0.0,-1.61,0.36045504113368776,0.0,0.0,0.0,0.0,0.0,0.0,0.272,0.0,0.0,0.0
417,0.0,0.0,0.0,0.3680185546875,0.0,0.0,0.0,0.0,0.0,0.0,-0.185,0.0,0.0,0.0,0.0,0.0,-1.61,0.3584984438670254,0.0,0.0,0.0,0.0,0.0,0.0,0.708,0.0,0.0,0.0
418,0.0,0.0,0.0,0.3680185546875,0.0,0.0,0.0,0.0,0.0,0.0,-0.185,0.0,0.0,0.0,0.0,0.0,-1.61,0.35653048314645736,0.0,0.0,0.0,0.0,0.0,0.0,0.708,0.0,0.0,0.0
419,0.0,0.0,0.0,0.363669921875,0.0,0.0,0.0,0.0,0.0,0.0,-0.215,0.0,0.0,0.0,0.0,0.0,-1.61,0.3545512213518955,0.0,0.0,0.0,0.0,0.0,0.0,0.524,0.0,0.0,0.0
420,0.0,0.0,0.0,0.36150390625,0.0,0.0,0.0,0.0,0.0,0.0,-0.214,0.0,0.0,0.0,0.0,0.0,-1.61,0.3525607212214629,0.0,0.0,0.0,0.0,0.0,0.0,0.296,0.0,0.0,0.0
421,0.0,0.0,0.0,0.3593291015625,0.0,0.0,0.0,0.0,0.0,0.0,-0.216,0.0,0.0,0.0,0.0,0.0,-1.61,0.3505590458495064,0.0,0.0,0.0,0.0,0.0,0.0,0.776,0.0,0.0,0.0
422,0.0,0.0,0.0,0.3571552734375,0.0,0.0,0.0,0.0,0.0,0.0,-0.211,0.0,0.0,0.0,0.0,0.0,-1.61,0.34854625868459616,0.0,0.0,0.0,0.0,0.0,0.0,0.408,0.0,0.0,0.0
423,0.0,0.0,0.0,0.3551337890625,0.0,0.0,0.0,0.0,0.0,0.0,-0.226,0.0,0.0,0.0,0.0,0.0,-1.61,0.34652242352751406,0.0,0.0,0.0,0.0,0.0,0.0,0.752,0.0,0.0,0.0
424,0.0,0.0,0.0,0.353248046875,0.0,0.0,0.0,0.0,0.0,0.0,-0.207,0.0,0.0,0.0,0.0,0.0,-1.61,0.344487604529232,0.0,0.0,0.0,0.0,0.0,0.0,0.728,0.0,0.0,0.0
425,0.0,0.0,0.0,0.3512177734375,0.0,0.0,0.0,0.0,0.0,0.0,-0.198,0.0,0.0,0.0,0.0,0.0,-1.61,0.3424418661888781,0.0,0.0,0.0,0.0,0.0,0.0,0.204,0.0,0.0,0.0
426,0.0,0.0,0.0,0.34904296875,0.0,0.0,0.0,0.0,0.0,0.0,-0.207,0.0,0.0,0.0,0.0,0.0,-1.61,0.34038527335169244,0.0,0.0,0.0,0.0,0.0,0.0,-0.044,0.0,0.0,0.0
427,0.0,0.0,0.0,0.3471572265625,0.0,0.0,0.0,0.0,0.0,0.0,-0.195,0.0,0.0,0.0,0.0,0.0,-1.61,0.33831789120697064,0.0,0.0,0.0,0.0,0.0,0.0,0.02,0.0,0.0,0.0
428,0.0,0.0,0.0,0.345568359375,0.0,0.0,0.0,0.0,0.0,0.0,-0.192,0.0,0.0,0.0,0.0,0.0,-1.61,0.3362397852859987,0.0,0.0,0.0,0.0,0.0,0.0,0.204,0.0,0.0,0.0
429,0.0,0.0,0.0,0.34339453125,0.0,0.0,0.0,0.0,0.0,0.0,-0.183,0.0,0.0,0.0,0.0,0.0,-1.61,0.33415102145997555,0.0,0.0,0.0,0.0,0.0,0.0,-0.112,0.0,0.0,0.0
430,0.0,0.0,0.0,0.3418056640625,0.0,0.0,0.0,0.0,0.0,0.0,-0.193,0.0,0.0,0.0,0.0,0.0,-1.61,0.33205166593792385,0.0,0.0,0.0,0.0,0.0,0.0,0.204,0.0,0.0,0.0
431,0.0,0.0,0.0,0.340064453125,0.0,0.0,0.0,0.0,0.0,0.0,-0.177,0.0,0.0,0.0,0.0,0.0,-1.61,0.3299417852645926,0.0,0.0,0.0,0.0,0.0,0.0,-0.548,0.0,0.0,0.0
432,0.0,0.0,0.0,0.3380341796875,0.0,0.0,0.0,0.0,0.0,0.0,-0.191,0.0,0.0,0.0,0.0,0.0,-1.61,0.32782144631834736,0.0,0.0,0.0,0.0,0.0,0.0,-0.616,0.0,0.0,0.0
433,0.0,0.0,0.0,0.3361572265625,0.0,0.0,0.0,0.0,0.0,0.0,-0.181,0.0,0.0,0.0,0.0,0.0,-1.61,0.32569071630905083,0.0,0.0,0.0,0.0,0.0,0.0,-0.64,0.0,0.0,0.0
434,0.0,0.0,0.0,0.333837890625,0.0,0.0,0.0,0.0,0.0,0.0,-0.202,0.0,0.0,0.0,0.0,0.0,-1.61,0.3235496627759306,0.0,0.0,0.0,0.0,0.0,0.0,-0.408,0.0,0.0,0.0
435,0.0,0.0,0.0,0.3320966796875,0.0,0.0,0.0,0.0,0.0,0.0,-0.217,0.0,0.0,0.0,0.0,0.0,-1.61,0.3213983535854406,0.0,0.0,0.0,0.0,0.0,0.0,-0.34,0.0,0.0,0.0
436,0.0,0.0,0.0,0.329921875,0.0,0.0,0.0,0.0,0.0,0.0,-0.203,0.0,0.0,0.0,0.0,0.0,-1.61,0.3192368569291083,0.0,0.0,0.0,0.0,0.0,0.0,0.112,0.0,0.0,0.0
437,0.0,0.0,0.0,0.3281806640625,0.0,0.0,0.0,0.0,0.0,0.0,-0.2,0.0,0.0,0.0,0.0,0.0,-1.61,0.317065241321374,0.0,0.0,0.0,0.0,0.0,0.0,0.088,0.0,0.0,0.0
438,0.0,0.0,0.0,0.325861328125,0.0,0.0,0.0,0.0,0.0,0.0,-0.204,0.0,0.0,0.0,0.0,0.0,-1.61,0.3148835755974185,0.0,0.0,0.0,0.0,0.0,0.0,-0.34,0.0,0.0,0.0
439,0.0,0.0,0.0,0.3238408203125,0.0,0.0,0.0,0.0,0.0,0.0,-0.222,0.0,0.0,0.0,0.0,0.0,-1.61,0.3126919289109814,0.0,0.0,0.0,0.0,0.0,0.0,-0.068,0.0,0.0,0.0
440,0.0,0.0,0.0,0.321376953125,0.0,0.0,0.0,0.0,0.0,0.0,-0.209,0.0,0.0,0.0,0.0,0.0,-1.61,0.31049037073216845,0.0,0.0,0.0,0.0,0.0,0.0,-0.32,0.0,0.0,0.0
441,0.0,0.0,0.0,0.3192021484375,0.0,0.0,0.0,0.0,0.0,0.0,-0.229,0.0,0.0,0.0,0.0,0.0,-1.61,0.30827897084525085,0.0,0.0,0.0,0.0,0.0,0.0,0.18,0.0,0.0,0.0
442,0.0,0.0,0.0,0.316892578125,0.0,0.0,0.0,0.0,0.0,0.0,-0.222,0.0,0.0,0.0,0.0,0.0,-1.61,0.306057799346452,0.0,0.0,0.0,0.0,0.0,0.0,0.32,0.0,0.0,0.0
443,0.0,0.0,0.0,0.3145732421875,0.0,0.0,0.0,0.0,0.0,0.0,-0.237,0.0,0.0,0.0,0.0,0.0,-1.61,0.3038269266417262,0.0,0.0,0.0,0.0,0.0,0.0,0.112,0.0,0.0,0.0
444,0.0,0.0,0.0,0.3123896484375,0.0,0.0,0.0,0.0,0.0,0.0,-0.238,0.0,0.0,0.0,0.0,0.0,-1.61,0.301586423444526,0.0,0.0,0.0,0.0,0.0,0.0,-0.204,0.0,0.0,0.0
445,0.0,0.0,0.0,0.3097822265625,0.0,0.0,0.0,0.0,0.0,0.0,-0.238,0.0,0.0,0.0,0.0,0.0,-1.61,0.2993363607735613,0.0,0.0,0.0,0.0,0.0,0.0,-0.16,0.0,0.0,0.0
446,0.0,0.0,0.0,0.3076162109375,0.0,0.0,0.0,0.0,0.0,0.0,-0.232,0.0,0.0,0.0,0.0,0.0,-1.61,0.29707680995054947,0.0,0.0,0.0,0.0,0.0,0.0,0.32,0.0,0.0,0.0
447,0.0,0.0,0.0,0.305296875,0.0,0.0,0.0,0.0,0.0,0.0,-0.226,0.0,0.0,0.0,0.0,0.0,-1.61,0.2948078425979523,0.0,0.0,0.0,0.0,0.0,0.0,0.228,0.0,0.0,0.0
448,0.0,0.0,0.0,0.303123046875,0.0,0.0,0.0,0.0,0.0,0.0,-0.246,0.0,0.0,0.0,0.0,0.0,-1.61,0.29252953063670656,0.0,0.0,0.0,0.0,0.0,0.0,0.408,0.0,0.0,0.0
449,0.0,0.0,0.0,0.3008037109375,0.0,0.0,0.0,0.0,0.0,0.0,-0.235,0.0,0.0,0.0,0.0,0.0,-1.61,0.29024194628394495,0.0,0.0,0.0,0.0,0.0,0.0,0.272,0.0,0.0,0.0
450,0.0,0.0,0.0,0.2980517578125,0.0,0.0,0.0,0.0,0.0,0.0,-0.24,0.0,0.0,0.0,0.0,0.0,-1.61,0.2879451620507065,0.0,0.0,0.0,0.0,0.0,0.0,0.16,0.0,0.0,0.0
451,0.0,0.0,0.0,0.2955966796875,0.0,0.0,0.0,0.0,0.0,0.0,-0.251,0.0,0.0,0.0,0.0,0.0,-1.61,0.28563925073963753,0.0,0.0,0.0,0.0,0.0,0.0,0.364,0.0,0.0,0.0
452,0.0,0.0,0.0,0.29298046875,0.0,0.0,0.0,0.0,0.0,0.0,-0.257,0.0,0.0,0.0,0.0,0.0,-1.61,0.2833242854426846,0.0,0.0,0.0,0.0,0.0,0.0,0.5,0.0,0.0,0.0
453,0.0,0.0,0.0,0.2905166015625,0.0,0.0,0.0,0.0,0.0,0.0,-0.26,0.0,0.0,0.0,0.0,0.0,-1.61,0.2810003395387776,0.0,0.0,0.0,0.0,0.0,0.0,0.844,0.0,0.0,0.0
454,0.0,0.0,0.0,0.2881982421875,0.0,0.0,0.0,0.0,0.0,0.0,-0.24,0.0,0.0,0.0,0.0,0.0,-1.61,0.2786674866915036,0.0,0.0,0.0,0.0,0.0,0.0,0.936,0.0,0.0,0.0
455,0.0,0.0,0.0,0.2858876953125,0.0,0.0,0.0,0.0,0.0,0.0,-0.23,0.0,0.0,0.0,0.0,0.0,-1.61,0.27632580084677155,0.0,0.0,0.0,0.0,0.0,0.0,0.296,0.0,0.0,0.0
456,0.0,0.0,0.0,0.283712890625,0.0,0.0,0.0,0.0,0.0,0.0,-0.233,0.0,0.0,0.0,0.0,0.0,-1.61,0.27397535623046876,0.0,0.0,0.0,0.0,0.0,0.0,0.272,0.0,0.0,0.0
457,0.0,0.0,0.0,0.2815380859375,0.0,0.0,0.0,0.0,0.0,0.0,-0.211,0.0,0.0,0.0,0.0,0.0,-1.61,0.2716162273461081,0.0,0.0,0.0,0.0,0.0,0.0,-0.388,0.0,0.0,0.0
458,0.0,0.0,0.0,0.279517578125,0.0,0.0,0.0,0.0,0.0,0.0,-0.218,0.0,0.0,0.0,0.0,0.0,-1.61,0.2692484889724663,0.0,0.0,0.0,0.0,0.0,0.0,-0.088,0.0,0.0,0.0
459,0.0,0.0,0.0,0.2773427734375,0.0,0.0,0.0,0.0,0.0,0.0,-0.21,0.0,0.0,0.0,0.0,0.0,-1.61,0.26687221616121354,0.0,0.0,0.0,0.0,0.0,0.0,-0.228,0.0,0.0,0.0
460,0.0,0.0,0.0,0.2753125,0.0,0.0,0.0,0.0,0.0,0.0,-0.213,0.0,0.0,0.0,0.0,0.0,-1.61,0.26448748423453355,0.0,0.0,0.0,0.0,0.0,0.0,0.432,0.0,0.0,0.0
461,0.0,0.0,0.0,0.273724609375,0.0,0.0,0.0,0.0,0.0,0.0,-0.182,0.0,0.0,0.0,0.0,0.0,-1.61,0.26209436878273845,0.0,0.0,0.0,0.0,0.0,0.0,0.456,0.0,0.0,0.0
462,0.0,0.0,0.0,0.271396484375,0.0,0.0,0.0,0.0,0.0,0.0,-0.187,0.0,0.0,0.0,0.0,0.0,-1.61,0.25969294566186996,0.0,0.0,0.0,0.0,0.0,0.0,-1.028,0.0,0.0,0.0
463,0.0,0.0,0.0,0.2689326171875,0.0,0.0,0.0,0.0,0.0,0.0,-0.245,0.0,0.0,0.0,0.0,0.0,-1.61,0.2572832909912969,0.0,0.0,0.0,0.0,0.0,0.0,-1.324,0.0,0.0,0.0
464,0.0,0.0,0.0,0.2666142578125,0.0,0.0,0.0,0.0,0.0,0.0,-0.236,0.0,0.0,0.0,0.0,0.0,-1.61,0.2548654811513008,0.0,0.0,0.0,0.0,0.0,0.0,-0.752,0.0,0.0,0.0
465,0.0,0.0,0.0,0.2640146484375,0.0,0.0,0.0,0.0,0.0,0.0,-0.247,0.0,0.0,0.0,0.0,0.0,-1.61,0.2524395927806557,0.0,0.0,0.0,0.0,0.0,0.0,-0.16,0.0,0.0,0.0
466,0.0,0.0,0.0,0.2612626953125,0.0,0.0,0.0,0.0,0.0,0.0,-0.267,0.0,0.0,0.0,0.0,0.0,-1.61,0.2500057027741992,0.0,0.0,0.0,0.0,0.0,0.0,0.548,0.0,0.0,0.0
467,0.0,0.0,0.0,0.2586552734375,0.0,0.0,0.0,0.0,0.0,0.0,-0.278,0.0,0.0,0.0,0.0,0.0,-1.61,0.24756388828039433,0.0,0.0,0.0,0.0,0.0,0.0,1.052,0.0,0.0,0.0
468,0.0,0.0,0.0,0.25648046875,0.0,0.0,0.0,0.0,0.0,0.0,-0.246,0.0,0.0,0.0,0.0,0.0,-1.61,0.24511422669888405,0.0,0.0,0.0,0.0,0.0,0.0,0.708,0.0,0.0,0.0
469,0.0,0.0,0.0,0.25415234375,0.0,0.0,0.0,0.0,0.0,0.0,-0.227,0.0,0.0,0.0,0.0,0.0,-1.61,0.24265679567803766,0.0,0.0,0.0,0.0,0.0,0.0,-0.34,0.0,0.0,0.0
470,0.0,0.0,0.0,0.2516982421875,0.0,0.0,0.0,0.0,0.0,0.0,-0.24,0.0,0.0,0.0,0.0,0.0,-1.61,0.24019167311249073,0.0,0.0,0.0,0.0,0.0,0.0,-0.248,0.0,0.0,0.0
471,0.0,0.0,0.0,0.24937890625,0.0,0.0,0.0,0.0,0.0,0.0,-0.237,0.0,0.0,0.0,0.0,0.0,-1.61,0.23771893714067505,0.0,0.0,0.0,0.0,0.0,0.0,0.044,0.0,0.0,0.0
472,0.0,0.0,0.0,0.246626953125,0.0,0.0,0.0,0.0,0.0,0.0,-0.253,0.0,0.0,0.0,0.0,0.0,-1.61,0.23523866614234162,0.0,0.0,0.0,0.0,0.0,0.0,-0.204,0.0,0.0,0.0
473,0.0,0.0,0.0,0.24401953125,0.0,0.0,0.0,0.0,0.0,0.0,-0.271,0.0,0.0,0.0,0.0,0.0,-1.61,0.23275093873607594,0.0,0.0,0.0,0.0,0.0,0.0,0.044,0.0,0.0,0.0
474,0.0,0.0,0.0,0.2412666015625,0.0,0.0,0.0,0.0,0.0,0.0,-0.27,0.0,0.0,0.0,0.0,0.0,-1.61,0.23025583377680717,0.0,0.0,0.0,0.0,0.0,0.0,0.248,0.0,0.0,0.0
475,0.0,0.0,0.0,0.2386591796875,0.0,0.0,0.0,0.0,0.0,0.0,-0.272,0.0,0.0,0.0,0.0,0.0,-1.61,0.22775343035330783,0.0,0.0,0.0,0.0,0.0,0.0,0.432,0.0,0.0,0.0
476,0.0,0.0,0.0,0.2361962890625,0.0,0.0,0.0,0.0,0.0,0.0,-0.259,0.0,0.0,0.0,0.0,0.0,-1.61,0.22524380778568634,0.0,0.0,0.0,0.0,0.0,0.0,0.524,0.0,0.0,0.0
477,0.0,0.0,0.0,0.233587890625,0.0,0.0,0.0,0.0,0.0,0.0,-0.25,0.0,0.0,0.0,0.0,0.0,-1.61,0.22272704562287401,0.0,0.0,0.0,0.0,0.0,0.0,0.272,0.0,0.0,0.0
478,0.0,0.0,0.0,0.23098046875,0.0,0.0,0.0,0.0,0.0,0.0,-0.267,0.0,0.0,0.0,0.0,0.0,-1.61,0.22020322364010156,0.0,0.0,0.0,0.0,0.0,0.0,0.02,0.0,0.0,0.0
479,0.0,0.0,0.0,0.228373046875,0.0,0.0,0.0,0.0,0.0,0.0,-0.261,0.0,0.0,0.0,0.0,0.0,-1.61,0.2176724218363733,0.0,0.0,0.0,0.0,0.0,0.0,0.204,0.0,0.0,0.0
480,0.0,0.0,0.0,0.2259091796875,0.0,0.0,0.0,0.0,0.0,0.0,-0.255,0.0,0.0,0.0,0.0,0.0,-1.61,0.21513472043192794,0.0,0.0,0.0,0.0,0.0,0.0,0.456,0.0,0.0,0.0
481,0.0,0.0,0.0,0.22358984375,0.0,0.0,0.0,0.0,0.0,0.0,-0.241,0.0,0.0,0.0,0.0,0.0,-1.61,0.21259019986569808,0.0,0.0,0.0,0.0,0.0,0.0,0.408,0.0,0.0,0.0
482,0.0,0.0,0.0,0.2211357421875,0.0,0.0,0.0,0.0,0.0,0.0,-0.245,0.0,0.0,0.0,0.0,0.0,-1.61,0.21003894079275984,0.0,0.0,0.0,0.0,0.0,0.0,0.136,0.0,0.0,0.0
483,0.0,0.0,0.0,0.2186728515625,0.0,0.0,0.0,0.0,0.0,0.0,-0.248,0.0,0.0,0.0,0.0,0.0,-1.61,0.20748102408177643,0.0,0.0,0.0,0.0,0.0,0.0,-0.272,0.0,0.0,0.0
484,0.0,0.0,0.0,0.216353515625,0.0,0.0,0.0,0.0,0.0,0.0,-0.237,0.0,0.0,0.0,0.0,0.0,-1.61,0.2049165308124339,0.0,0.0,0.0,0.0,0.0,0.0,-0.432,0.0,0.0,0.0
485,0.0,0.0,0.0,0.213880859375,0.0,0.0,0.0,0.0,0.0,0.0,-0.242,0.0,0.0,0.0,0.0,0.0,-1.61,0.2023455422728726,0.0,0.0,0.0,0.0,0.0,0.0,-0.5,0.0,0.0,0.0
486,0.0,0.0,0.0,0.2112734375,0.0,0.0,0.0,0.0,0.0,0.0,-0.256,0.0,0.0,0.0,0.0,0.0,-1.61,0.19976813995710793,0.0,0.0,0.0,0.0,0.0,0.0,0.112,0.0,0.0,0.0
487,0.0,0.0,0.0,0.208962890625,0.0,0.0,0.0,0.0,0.0,0.0,-0.25,0.0,0.0,0.0,0.0,0.0,-1.61,0.19718440556245131,0.0,0.0,0.0,0.0,0.0,0.0,0.044,0.0,0.0,0.0
488,0.0,0.0,0.0,0.20664453125,0.0,0.0,0.0,0.0,0.0,0.0,-0.238,0.0,0.0,0.0,0.0,0.0,-1.61,0.19459442098691646,0.0,0.0,0.0,0.0,0.0,0.0,-0.18,0.0,0.0,0.0
489,0.0,0.0,0.0,0.2040361328125,0.0,0.0,0.0,0.0,0.0,0.0,-0.244,0.0,0.0,0.0,0.0,0.0,-1.61,0.19199826832662498,0.0,0.0,0.0,0.0,0.0,0.0,-0.456,0.0,0.0,0.0
490,0.0,0.0,0.0,0.2014287109375,0.0,0.0,0.0,0.0,0.0,0.0,-0.261,0.0,0.0,0.0,0.0,0.0,-1.61,0.18939602987320453,0.0,0.0,0.0,0.0,0.0,0.0,-0.408,0.0,0.0,0.0
491,0.0,0.0,0.0,0.1988212890625,0.0,0.0,0.0,0.0,0.0,0.0,-0.266,0.0,0.0,0.0,0.0,0.0,-1.61,0.18678778811117988,0.0,0.0,0.0,0.0,0.0,0.0,-0.044,0.0,0.0,0.0
492,0.0,0.0,0.0,0.1959248046875,0.0,0.0,0.0,0.0,0.0,0.0,-0.275,0.0,0.0,0.0,0.0,0.0,-1.61,0.1841736257153582,0.0,0.0,0.0,0.0,0.0,0.0,0.592,0.0,0.0,0.0
493,0.0,0.0,0.0,0.19331640625,0.0,0.0,0.0,0.0,0.0,0.0,-0.286,0.0,0.0,0.0,0.0,0.0,-1.61,0.1815536255482087,0.0,0.0,0.0,0.0,0.0,0.0,1.324,0.0,0.0,0.0
494,0.0,0.0,0.0,0.190853515625,0.0,0.0,0.0,0.0,0.0,0.0,-0.253,0.0,0.0,0.0,0.0,0.0,-1.61,0.17892787065723606,0.0,0.0,0.0,0.0,0.0,0.0,0.728,0.0,0.0,0.0
495,0.0,0.0,0.0,0.18795703125,0.0,0.0,0.0,0.0,0.0,0.0,-0.266,0.0,0.0,0.0,0.0,0.0,-1.61,0.1762964442723474,0.0,0.0,0.0,0.0,0.0,0.0,-0.18,0.0,0.0,0.0
496,0.0,0.0,0.0,0.1853486328125,0.0,0.0,0.0,0.0,0.0,0.0,-0.281,0.0,0.0,0.0,0.0,0.0,-1.61,0.1736594298032149,0.0,0.0,0.0,0.0,0.0,0.0,-0.204,0.0,0.0,0.0
497,0.0,0.0,0.0,0.1827412109375,0.0,0.0,0.0,0.0,0.0,0.0,-0.254,0.0,0.0,0.0,0.0,0.0,-1.61,0.17101691083663184,0.0,0.0,0.0,0.0,0.0,0.0,-0.388,0.0,0.0,0.0
498,0.0,0.0,0.0,0.1798447265625,0.0,0.0,0.0,0.0,0.0,0.0,-0.281,0.0,0.0,0.0,0.0,0.0,-1.61,0.1683689711338619,0.0,0.0,0.0,0.0,0.0,0.0,0.136,0.0,0.0,0.0
499,0.0,0.0,0.0,0.1772373046875,0.0,0.0,0.0,0.0,0.0,0.0,-0.283,0.0,0.0,0.0,0.0,0.0,-1.61,0.1657156946279857,0.0,0.0,0.0,0.0,0.0,0.0,0.844,0.0,0.0,0.0
500,0.0,0.0,0.0,0.1744755859375,0.0,0.0,0.0,0.0,0.0,0.0,-0.275,0.0,0.0,0.0,0.0,0.0,-1.61,0.16305716542123938,0.0,0.0,0.0,0.0,0.0,0.0,0.364,0.0,0.0,0.0
501,0.0,0.0,0.0,0.1717236328125,0.0,0.0,0.0,0.0,0.0,0.0,-0.274,0.0,0.0,0.0,0.0,0.0,-1.61,0.16039346778234856,0.0,0.0,0.0,0.0,0.0,0.0,0.228,0.0,0.0,0.0
502,0.0,0.0,0.0,0.16898046875,0.0,0.0,0.0,0.0,0.0,0.0,-0.271,0.0,0.0,0.0,0.0,0.0,-1.61,0.15772468614385785,0.0,0.0,0.0,0.0,0.0,0.0,-0.044,0.0,0.0,0.0
503,0.0,0.0,0.0,0.166373046875,0.0,0.0,0.0,0.0,0.0,0.0,-0.278,0.0,0.0,0.0,0.0,0.0,-1.61,0.1550509050994538,0.0,0.0,0.0,0.0,0.0,0.0,0.456,0.0,0.0,0.0
504,0.0,0.0,0.0,0.1634765625,0.0,0.0,0.0,0.0,0.0,0.0,-0.268,0.0,0.0,0.0,0.0,0.0,-1.61,0.15237220940128451,0.0,0.0,0.0,0.0,0.0,0.0,0.0,0.0,0.0,0.0
505,0.0,0.0,0.0,0.160580078125,0.0,0.0,0.0,0.0,0.0,0.0,-0.293,0.0,0.0,0.0,0.0,0.0,-1.61,0.14968868395727228,0.0,0.0,0.0,0.0,0.0,0.0,0.16,0.0,0.0,0.0
506,0.0,0.0,0.0,0.1582607421875,0.0,0.0,0.0,0.0,0.0,0.0,-0.271,0.0,0.0,0.0,0.0,0.0,-1.61,0.14700041382842202,0.0,0.0,0.0,0.0,0.0,0.0,0.432,0.0,0.0,0.0
507,0.0,0.0,0.0,0.1556533203125,0.0,0.0,0.0,0.0,0.0,0.0,-0.246,0.0,0.0,0.0,0.0,0.0,-1.61,0.14430748422612538,0.0,0.0,0.0,0.0,0.0,0.0,0.088,0.0,0.0,0.0
508,0.0,0.0,0.0,0.1531806640625,0.0,0.0,0.0,0.0,0.0,0.0,-0.262,0.0,0.0,0.0,0.0,0.0,-1.61,0.14160998050946044,0.0,0.0,0.0,0.0,0.0,0.0,0.044,0.0,0.0,0.0
509,0.0,0.0,0.0,0.1507255859375,0.0,0.0,0.0,0.0,0.0,0.0,-0.243,0.0,0.0,0.0,0.0,0.0,-1.61,0.13890798818248506,0.0,0.0,0.0,0.0,0.0,0.0,-0.204,0.0,0.0,0.0
510,0.0,0.0,0.0,0.1484072265625,0.0,0.0,0.0,0.0,0.0,0.0,-0.242,0.0,0.0,0.0,0.0,0.0,-1.61,0.13620159289152642,0.0,0.0,0.0,0.0,0.0,0.0,-0.068,0.0,0.0,0.0
511,0.0,0.0,0.0,0.1456552734375,0.0,0.0,0.0,0.0,0.0,0.0,-0.251,0.0,0.0,0.0,0.0,0.0,-1.61,0.13349088042246668,0.0,0.0,0.0,0.0,0.0,0.0,-0.616,0.0,0.0,0.0
512,0.0,0.0,0.0,0.1427587890625,0.0,0.0,0.0,0.0,0.0,0.0,-0.284,0.0,0.0,0.0,0.0,0.0,-1.61,0.13077593669802454,0.0,0.0,0.0,0.0,0.0,0.0,-0.432,0.0,0.0,0.0
513,0.0,0.0,0.0,0.140005859375,0.0,0.0,0.0,0.0,0.0,0.0,-0.285,0.0,0.0,0.0,0.0,0.0,-1.61,0.12805684777502993,0.0,0.0,0.0,0.0,0.0,0.0,0.272,0.0,0.0,0.0
514,0.0,0.0,0.0,0.13725390625,0.0,0.0,0.0,0.0,0.0,0.0,-0.273,0.0,0.0,0.0,0.0,0.0,-1.61,0.12533369984169737,0.0,0.0,0.0,0.0,0.0,0.0,0.728,0.0,0.0,0.0
515,0.0,0.0,0.0,0.1346376953125,0.0,0.0,0.0,0.0,0.0,0.0,-0.274,0.0,0.0,0.0,0.0,0.0,-1.61,0.12260657921489371,0.0,0.0,0.0,0.0,0.0,0.0,1.096,0.0,0.0,0.0
516,0.0,0.0,0.0,0.131884765625,0.0,0.0,0.0,0.0,0.0,0.0,-0.268,0.0,0.0,0.0,0.0,0.0,-1.61,0.11987557233740206,0.0,0.0,0.0,0.0,0.0,0.0,0.408,0.0,0.0,0.0
517,0.0,0.0,0.0,0.1292861328125,0.0,0.0,0.0,0.0,0.0,0.0,-0.272,0.0,0.0,0.0,0.0,0.0,-1.61,0.117140765775182,0.0,0.0,0.0,0.0,0.0,0.0,0.068,0.0,0.0,0.0
518,0.0,0.0,0.0,0.1263896484375,0.0,0.0,0.0,0.0,0.0,0.0,-0.278,0.0,0.0,0.0,0.0,0.0,-1.61,0.11440224621462511,0.0,0.0,0.0,0.0,0.0,0.0,-0.708,0.0,0.0,0.0
519,0.0,0.0,0.0,0.123205078125,0.0,0.0,0.0,0.0,0.0,0.0,-0.302,0.0,0.0,0.0,0.0,0.0,-1.61,0.11166010045980752,0.0,0.0,0.0,0.0,0.0,0.0,-0.296,0.0,0.0,0.0
520,0.0,0.0,0.0,0.1203076171875,0.0,0.0,0.0,0.0,0.0,0.0,-0.308,0.0,0.0,0.0,0.0,0.0,-1.61,0.10891441542973769,0.0,0.0,0.0,0.0,0.0,0.0,0.48,0.0,0.0,0.0
521,0.0,0.0,0.0,0.1174111328125,0.0,0.0,0.0,0.0,0.0,0.0,-0.294,0.0,0.0,0.0,0.0,0.0,-1.61,0.10616527815560367,0.0,0.0,0.0,0.0,0.0,0.0,0.8,0.0,0.0,0.0
522,0.0,0.0,0.0,0.114650390625,0.0,0.0,0.0,0.0,0.0,0.0,-0.29,0.0,0.0,0.0,0.0,0.0,-1.61,0.10341277577801114,0.0,0.0,0.0,0.0,0.0,0.0,0.524,0.0,0.0,0.0
523,0.0,0.0,0.0,0.11204296875,0.0,0.0,0.0,0.0,0.0,0.0,-0.27,0.0,0.0,0.0,0.0,0.0,-1.61,0.100656995544223,0.0,0.0,0.0,0.0,0.0,0.0,0.18,0.0,0.0,0.0
524,0.0,0.0,0.0,0.1095791015625,0.0,0.0,0.0,0.0,0.0,0.0,-0.252,0.0,0.0,0.0,0.0,0.0,-1.61,0.0978980248053942,0.0,0.0,0.0,0.0,0.0,0.0,0.0,0.0,0.0,0.0
525,0.0,0.0,0.0,0.1071162109375,0.0,0.0,0.0,0.0,0.0,0.0,-0.256,0.0,0.0,0.0,0.0,0.0,-1.61,0.09513595101380169,0.0,0.0,0.0,0.0,0.0,0.0,0.48,0.0,0.0,0.0
526,0.0,0.0,0.0,0.1045078125,0.0,0.0,0.0,0.0,0.0,0.0,-0.249,0.0,0.0,0.0,0.0,0.0,-1.61,0.09237086172007271,0.0,0.0,0.0,0.0,0.0,0.0,0.204,0.0,0.0,0.0
527,0.0,0.0,0.0,0.1014765625,0.0,0.0,0.0,0.0,0.0,0.0,-0.278,0.0,0.0,0.0,0.0,0.0,-1.61,0.08960284457041122,0.0,0.0,0.0,0.0,0.0,0.0,-0.408,0.0,0.0,0.0
528,0.0,0.0,0.0,0.0987333984375,0.0,0.0,0.0,0.0,0.0,0.0,-0.298,0.0,0.0,0.0,0.0,0.0,-1.61,0.08683198730381664,0.0,0.0,0.0,0.0,0.0,0.0,-0.068,0.0,0.0,0.0
529,0.0,0.0,0.0,0.0959814453125,0.0,0.0,0.0,0.0,0.0,0.0,-0.273,0.0,0.0,0.0,0.0,0.0,-1.61,0.08405837774930597,0.0,0.0,0.0,0.0,0.0,0.0,0.112,0.0,0.0,0.0
530,0.0,0.0,0.0,0.0930751953125,0.0,0.0,0.0,0.0,0.0,0.0,-0.278,0.0,0.0,0.0,0.0,0.0,-1.61,0.08128210382312741,0.0,0.0,0.0,0.0,0.0,0.0,0.16,0.0,0.0,0.0
531,0.0,0.0,0.0,0.0904677734375,0.0,0.0,0.0,0.0,0.0,0.0,-0.29,0.0,0.0,0.0,0.0,0.0,-1.61,0.0785032535259743,0.0,0.0,0.0,0.0,0.0,0.0,0.5,0.0,0.0,0.0
532,0.0,0.0,0.0,0.0878603515625,0.0,0.0,0.0,0.0,0.0,0.0,-0.265,0.0,0.0,0.0,0.0,0.0,-1.61,0.07572191494019673,0.0,0.0,0.0,0.0,0.0,0.0,-0.456,0.0,0.0,0.0
533,0.0,0.0,0.0,0.085251953125,0.0,0.0,0.0,0.0,0.0,0.0,-0.265,0.0,0.0,0.0,0.0,0.0,-1.61,0.07293817622700804,0.0,0.0,0.0,0.0,0.0,0.0,-0.34,0.0,0.0,0.0
534,0.0,0.0,0.0,0.0825,0.0,0.0,0.0,0.0,0.0,0.0,-0.265,0.0,0.0,0.0,0.0,0.0,-1.61,0.07015212562369162,0.0,0.0,0.0,0.0,0.0,0.0,-0.432,0.0,0.0,0.0
535,0.0,0.0,0.0,0.079458984375,0.0,0.0,0.0,0.0,0.0,0.0,-0.282,0.0,0.0,0.0,0.0,0.0,-1.61,0.06736385144080198,0.0,0.0,0.0,0.0,0.0,0.0,-0.408,0.0,0.0,0.0
536,0.0,0.0,0.0,0.07641796875,0.0,0.0,0.0,0.0,0.0,0.0,-0.307,0.0,0.0,0.0,0.0,0.0,-1.61,0.06457344205936792,0.0,0.0,0.0,0.0,0.0,0.0,0.044,0.0,0.0,0.0
537,0.0,0.0,0.0,0.0736572265625,0.0,0.0,0.0,0.0,0.0,0.0,-0.304,0.0,0.0,0.0,0.0,0.0,-1.61,0.061780985928090434,0.0,0.0,0.0,0.0,0.0,0.0,0.752,0.0,0.0,0.0
538,0.0,0.0,0.0,0.0707607421875,0.0,0.0,0.0,0.0,0.0,0.0,-0.282,0.0,0.0,0.0,0.0,0.0,-1.61,0.05898657156053707,0.0,0.0,0.0,0.0,0.0,0.0,0.936,0.0,0.0,0.0
539,0.0,0.0,0.0,0.0678642578125,0.0,0.0,0.0,0.0,0.0,0.0,-0.29,0.0,0.0,0.0,0.0,0.0,-1.61,0.0561902875323389,0.0,0.0,0.0,0.0,0.0,0.0,0.568,0.0,0.0,0.0
540,0.0,0.0,0.0,0.06512109375,0.0,0.0,0.0,0.0,0.0,0.0,-0.292,0.0,0.0,0.0,0.0,0.0,-1.61,0.05339222247838157,0.0,0.0,0.0,0.0,0.0,0.0,0.02,0.0,0.0,0.0
541,0.0,0.0,0.0,0.062224609375,0.0,0.0,0.0,0.0,0.0,0.0,-0.281,0.0,0.0,0.0,0.0,0.0,-1.61,0.05059246508999572,0.0,0.0,0.0,0.0,0.0,0.0,-0.088,0.0,0.0,0.0
542,0.0,0.0,0.0,0.05947265625,0.0,0.0,0.0,0.0,0.0,0.0,-0.283,0.0,0.0,0.0,0.0,0.0,-1.61,0.0477911041121462,0.0,0.0,0.0,0.0,0.0,0.0,0.296,0.0,0.0,0.0
543,0.0,0.0,0.0,0.056576171875,0.0,0.0,0.0,0.0,0.0,0.0,-0.283,0.0,0.0,0.0,0.0,0.0,-1.61,0.044988228340619205,0.0,0.0,0.0,0.0,0.0,0.0,0.044,0.0,0.0,0.0
544,0.0,0.0,0.0,0.053525390625,0.0,0.0,0.0,0.0,0.0,0.0,-0.302,0.0,0.0,0.0,0.0,0.0,-1.61,0.04218392661920589,0.0,0.0,0.0,0.0,0.0,0.0,0.16,0.0,0.0,0.0
545,0.0,0.0,0.0,0.05091796875,0.0,0.0,0.0,0.0,0.0,0.0,-0.291,0.0,0.0,0.0,0.0,0.0,-1.61,0.0393782878368885,0.0,0.0,0.0,0.0,0.0,0.0,0.32,0.0,0.0,0.0
546,0.0,0.0,0.0,0.048166015625,0.0,0.0,0.0,0.0,0.0,0.0,-0.269,0.0,0.0,0.0,0.0,0.0,-1.61,0.03657140092502249,0.0,0.0,0.0,0.0,0.0,0.0,0.248,0.0,0.0,0.0
547,0.0,0.0,0.0,0.04526953125,0.0,0.0,0.0,0.0,0.0,0.0,-0.28,0.0,0.0,0.0,0.0,0.0,-1.61,0.03376335485451568,0.0,0.0,0.0,0.0,0.0,0.0,0.66,0.0,0.0,0.0
548,0.0,0.0,0.0,0.0426611328125,0.0,0.0,0.0,0.0,0.0,0.0,-0.276,0.0,0.0,0.0,0.0,0.0,-1.61,0.030954238633010032,0.0,0.0,0.0,0.0,0.0,0.0,0.456,0.0,0.0,0.0
549,0.0,0.0,0.0,0.0399091796875,0.0,0.0,0.0,0.0,0.0,0.0,-0.267,0.0,0.0,0.0,0.0,0.0,-1.61,0.028144141302059448,0.0,0.0,0.0,0.0,0.0,0.0,-0.18,0.0,0.0,0.0
550,0.0,0.0,0.0,0.0370126953125,0.0,0.0,0.0,0.0,0.0,0.0,-0.288,0.0,0.0,0.0,0.0,0.0,-1.61,0.025333151934308032,0.0,0.0,0.0,0.0,0.0,0.0,-0.18,0.0,0.0,0.0
551,0.0,0.0,0.0,0.0341162109375,0.0,0.0,0.0,0.0,0.0,0.0,-0.292,0.0,0.0,0.0,0.0,0.0,-1.61,0.022521359630665563,0.0,0.0,0.0,0.0,0.0,0.0,0.02,0.0,0.0,0.0
552,0.0,0.0,0.0,0.03135546875,0.0,0.0,0.0,0.0,0.0,0.0,-0.283,0.0,0.0,0.0,0.0,0.0,-1.61,0.01970885351748478,0.0,0.0,0.0,0.0,0.0,0.0,0.432,0.0,0.0,0.0
553,0.0,0.0,0.0,0.0286123046875,0.0,0.0,0.0,0.0,0.0,0.0,-0.276,0.0,0.0,0.0,0.0,0.0,-1.61,0.01689572274373383,0.0,0.0,0.0,0.0,0.0,0.0,0.296,0.0,0.0,0.0
554,0.0,0.0,0.0,0.02600390625,0.0,0.0,0.0,0.0,0.0,0.0,-0.279,0.0,0.0,0.0,0.0,0.0,-1.61,0.014082056478174008,0.0,0.0,0.0,0.0,0.0,0.0,0.204,0.0,0.0,0.0
555,0.0,0.0,0.0,0.023251953125,0.0,0.0,0.0,0.0,0.0,0.0,-0.263,0.0,0.0,0.0,0.0,0.0,-1.61,0.011267943906529996,0.0,0.0,0.0,0.0,0.0,0.0,-0.66,0.0,0.0,0.0
556,0.0,0.0,0.0,0.0202109375,0.0,0.0,0.0,0.0,0.0,0.0,-0.294,0.0,0.0,0.0,0.0,0.0,-1.61,0.00845347422866443,0.0,0.0,0.0,0.0,0.0,0.0,-0.66,0.0,0.0,0.0
557,0.0,0.0,0.0,0.017458984375,0.0,0.0,0.0,0.0,0.0,0.0,-0.293,0.0,0.0,0.0,0.0,0.0,-1.61,0.0056387366557502615,0.0,0.0,0.0,0.0,0.0,0.0,-0.044,0.0,0.0,0.0
558,0.0,0.0,0.0,0.0148515625,0.0,0.0,0.0,0.0,0.0,0.0,-0.273,0.0,0.0,0.0,0.0,0.0,-1.61,0.0028238204074431885,0.0,0.0,0.0,0.0,0.0,0.0,0.616,0.0,0.0,0.0
559,0.0,0.0,0.0,0.01208984375,0.0,0.0,0.0,0.0,0.0,0.0,-0.27,0.0,0.0,0.0,0.0,0.0,-1.61,8.814709053610467e-06,0.0,0.0,0.0,0.0,0.0,0.0,1.14,0.0,0.0,0.0
560,0.0,0.0,0.0,0.009337890625,0.0,0.0,0.0,0.0,0.0,0.0,-0.271,0.0,0.0,0.0,0.0,0.0,-1.61,-0.0028061912112827127,0.0,0.0,0.0,0.0,0.0,0.0,0.34,0.0,0.0,0.0
561,0.0,0.0,0.0,0.006296875,0.0,0.0,0.0,0.0,0.0,0.0,-0.291,0.0,0.0,0.0,0.0,0.0,-1.61,-0.005621108125431649,0.0,0.0,0.0,0.0,0.0,0.0,-0.18,0.0,0.0,0.0
562,0.0,0.0,0.0,0.003400390625,0.0,0.0,0.0,0.0,0.0,0.0,-0.302,0.0,0.0,0.0,0.0,0.0,-1.61,-0.008435846808088567,0.0,0.0,0.0,0.0,0.0,0.0,-0.18,0.0,0.0,0.0
563,0.0,0.0,0.0,0.000359375,0.0,0.0,0.0,0.0,0.0,0.0,-0.298,0.0,0.0,0.0,0.0,0.0,-1.61,-0.011250318039609226,0.0,0.0,0.0,0.0,0.0,0.0,0.228,0.0,0.0,0.0
564,0.0,0.0,0.0,-0.0026796875,0.0,0.0,0.0,0.0,0.0,0.0,-0.313,0.0,0.0,0.0,0.0,0.0,-1.61,-0.014064432608834504,0.0,0.0,0.0,0.0,0.0,0.0,0.888,0.0,0.0,0.0
565,0.0,0.0,0.0,-0.005576171875,0.0,0.0,0.0,0.0,0.0,0.0,-0.297,0.0,0.0,0.0,0.0,0.0,-1.61,-0.016878101315920158,0.0,0.0,0.0,0.0,0.0,0.0,0.728,0.0,0.0,0.0
566,0.0,0.0,0.0,-0.0084736328125,0.0,0.0,0.0,0.0,0.0,0.0,-0.29,0.0,0.0,0.0,0.0,0.0,-1.61,-0.01969123497516492,0.0,0.0,0.0,0.0,0.0,0.0,0.068,0.0,0.0,0.0
567,0.0,0.0,0.0,-0.0112255859375,0.0,0.0,0.0,0.0,0.0,0.0,-0.289,0.0,0.0,0.0,0.0,0.0,-1.61,-0.022503744417834586,0.0,0.0,0.0,0.0,0.0,0.0,-0.272,0.0,0.0,0.0
568,0.0,0.0,0.0,-0.0136884765625,0.0,0.0,0.0,0.0,0.0,0.0,-0.264,0.0,0.0,0.0,0.0,0.0,-1.61,-0.025315540494990876,0.0,0.0,0.0,0.0,0.0,0.0,-0.044,0.0,0.0,0.0
569,0.0,0.0,0.0,-0.016296875,0.0,0.0,0.0,0.0,0.0,0.0,-0.256,0.0,0.0,0.0,0.0,0.0,-1.61,-0.028126534080317477,0.0,0.0,0.0,0.0,0.0,0.0,0.364,0.0,0.0,0.0
570,0.0,0.0,0.0,-0.019193359375,0.0,0.0,0.0,0.0,0.0,0.0,-0.275,0.0,0.0,0.0,0.0,0.0,-1.61,-0.030936636072943554,0.0,0.0,0.0,0.0,0.0,0.0,0.408,0.0,0.0,0.0
571,0.0,0.0,0.0,-0.0222333984375,0.0,0.0,0.0,0.0,0.0,0.0,-0.303,0.0,0.0,0.0,0.0,0.0,-1.61,-0.03374575740026761,0.0,0.0,0.0,0.0,0.0,0.0,0.02,0.0,0.0,0.0
572,0.0,0.0,0.0,-0.024986328125,0.0,0.0,0.0,0.0,0.0,0.0,-0.29,0.0,0.0,0.0,0.0,0.0,-1.61,-0.03655380902078397,0.0,0.0,0.0,0.0,0.0,0.0,-0.068,0.0,0.0,0.0
573,0.0,0.0,0.0,-0.02759375,0.0,0.0,0.0,0.0,0.0,0.0,-0.273,0.0,0.0,0.0,0.0,0.0,-1.61,-0.039360701926902046,0.0,0.0,0.0,0.0,0.0,0.0,0.248,0.0,0.0,0.0
574,0.0,0.0,0.0,-0.0306435546875,0.0,0.0,0.0,0.0,0.0,0.0,-0.274,0.0,0.0,0.0,0.0,0.0,-1.61,-0.04216634714776902,0.0,0.0,0.0,0.0,0.0,0.0,0.068,0.0,0.0,0.0
575,0.0,0.0,0.0,-0.0333955078125,0.0,0.0,0.0,0.0,0.0,0.0,-0.301,0.0,0.0,0.0,0.0,0.0,-1.61,-0.04497065575208955,0.0,0.0,0.0,0.0,0.0,0.0,-0.044,0.0,0.0,0.0
576,0.0,0.0,0.0,-0.035994140625,0.0,0.0,0.0,0.0,0.0,0.0,-0.275,0.0,0.0,0.0,0.0,0.0,-1.61,-0.047773538850945096,0.0,0.0,0.0,0.0,0.0,0.0,-0.068,0.0,0.0,0.0
577,0.0,0.0,0.0,-0.0388916015625,0.0,0.0,0.0,0.0,0.0,0.0,-0.271,0.0,0.0,0.0,0.0,0.0,-1.61,-0.050574907600611514,0.0,0.0,0.0,0.0,0.0,0.0,-0.5,0.0,0.0,0.0
578,0.0,0.0,0.0,-0.0417880859375,0.0,0.0,0.0,0.0,0.0,0.0,-0.29,0.0,0.0,0.0,0.0,0.0,-1.61,-0.0533746732053747,0.0,0.0,0.0,0.0,0.0,0.0,0.068,0.0,0.0,0.0
579,0.0,0.0,0.0,-0.0443955078125,0.0,0.0,0.0,0.0,0.0,0.0,-0.279,0.0,0.0,0.0,0.0,0.0,-1.61,-0.056172746920345,0.0,0.0,0.0,0.0,0.0,0.0,0.228,0.0,0.0,0.0
580,0.0,0.0,0.0,-0.0471474609375,0.0,0.0,0.0,0.0,0.0,0.0,-0.265,0.0,0.0,0.0,0.0,0.0,-1.61,-0.05896904005427127,0.0,0.0,0.0,0.0,0.0,0.0,0.044,0.0,0.0,0.0
581,0.0,0.0,0.0,-0.049611328125,0.0,0.0,0.0,0.0,0.0,0.0,-0.278,0.0,0.0,0.0,0.0,0.0,-1.61,-0.06176346397235156,0.0,0.0,0.0,0.0,0.0,0.0,1.096,0.0,0.0,0.0
582,0.0,0.0,0.0,-0.0519296875,0.0,0.0,0.0,0.0,0.0,0.0,-0.234,0.0,0.0,0.0,0.0,0.0,-1.61,-0.06455593009904233,0.0,0.0,0.0,0.0,0.0,0.0,0.752,0.0,0.0,0.0
583,0.0,0.0,0.0,-0.0552685546875,0.0,0.0,0.0,0.0,0.0,0.0,-0.275,0.0,0.0,0.0,0.0,0.0,-1.61,-0.06734634992086612,0.0,0.0,0.0,0.0,0.0,0.0,-0.432,0.0,0.0,0.0
584,0.0,0.0,0.0,-0.0584541015625,0.0,0.0,0.0,0.0,0.0,0.0,-0.34,0.0,0.0,0.0,0.0,0.0,-1.61,-0.07013463498921742,0.0,0.0,0.0,0.0,0.0,0.0,0.408,0.0,0.0,0.0
585,0.0,0.0,0.0,-0.0612060546875,0.0,0.0,0.0,0.0,0.0,0.0,-0.291,0.0,0.0,0.0,0.0,0.0,-1.61,-0.07292069692316688,0.0,0.0,0.0,0.0,0.0,0.0,-0.136,0.0,0.0,0.0
586,0.0,0.0,0.0,-0.0646796875,0.0,0.0,0.0,0.0,0.0,0.0,-0.312,0.0,0.0,0.0,0.0,0.0,-1.61,-0.07570444741226194,0.0,0.0,0.0,0.0,0.0,0.0,0.82,0.0,0.0,0.0
587,0.0,0.0,0.0,-0.067576171875,0.0,0.0,0.0,0.0,0.0,0.0,-0.323,0.0,0.0,0.0,0.0,0.0,-1.61,-0.07848579821932535,0.0,0.0,0.0,0.0,0.0,0.0,1.188,0.0,0.0,0.0
588,0.0,0.0,0.0,-0.06988671875,0.0,0.0,0.0,0.0,0.0,0.0,-0.27,0.0,0.0,0.0,0.0,0.0,-1.61,-0.08126466118325426,0.0,0.0,0.0,0.0,0.0,0.0,0.248,0.0,0.0,0.0
589,0.0,0.0,0.0,-0.072927734375,0.0,0.0,0.0,0.0,0.0,0.0,-0.26,0.0,0.0,0.0,0.0,0.0,-1.61,-0.0840409482218121,0.0,0.0,0.0,0.0,0.0,0.0,-0.728,0.0,0.0,0.0
590,0.0,0.0,0.0,-0.0756884765625,0.0,0.0,0.0,0.0,0.0,0.0,-0.296,0.0,0.0,0.0,0.0,0.0,-1.61,-0.0868145713344234,0.0,0.0,0.0,0.0,0.0,0.0,-0.364,0.0,0.0,0.0
591,0.0,0.0,0.0,-0.0784404296875,0.0,0.0,0.0,0.0,0.0,0.0,-0.275,0.0,0.0,0.0,0.0,0.0,-1.61,-0.08958544260496006,0.0,0.0,0.0,0.0,0.0,0.0,-0.32,0.0,0.0,0.0
592,0.0,0.0,0.0,-0.0813369140625,0.0,0.0,0.0,0.0,0.0,0.0,-0.286,0.0,0.0,0.0,0.0,0.0,-1.61,-0.092353474204531,0.0,0.0,0.0,0.0,0.0,0.0,0.708,0.0,0.0,0.0
593,0.0,0.0,0.0,-0.08408984375,0.0,0.0,0.0,0.0,0.0,0.0,-0.285,0.0,0.0,0.0,0.0,0.0,-1.61,-0.0951185783942634,0.0,0.0,0.0,0.0,0.0,0.0,0.936,0.0,0.0,0.0
594,0.0,0.0,0.0,-0.086841796875,0.0,0.0,0.0,0.0,0.0,0.0,-0.277,0.0,0.0,0.0,0.0,0.0,-1.61,-0.0978806675280865,0.0,0.0,0.0,0.0,0.0,0.0,0.068,0.0,0.0,0.0
595,0.0,0.0,0.0,-0.08944921875,0.0,0.0,0.0,0.0,0.0,0.0,-0.275,0.0,0.0,0.0,0.0,0.0,-1.61,-0.1006396540555075,0.0,0.0,0.0,0.0,0.0,0.0,-0.32,0.0,0.0,0.0
596,0.0,0.0,0.0,-0.0919130859375,0.0,0.0,0.0,0.0,0.0,0.0,-0.254,0.0,0.0,0.0,0.0,0.0,-1.61,-0.10339545052438799,0.0,0.0,0.0,0.0,0.0,0.0,0.112,0.0,0.0,0.0
597,0.0,0.0,0.0,-0.09451171875,0.0,0.0,0.0,0.0,0.0,0.0,-0.246,0.0,0.0,0.0,0.0,0.0,-1.61,-0.10614796958371517,0.0,0.0,0.0,0.0,0.0,0.0,-0.432,0.0,0.0,0.0
598,0.0,0.0,0.0,-0.0975615234375,0.0,0.0,0.0,0.0,0.0,0.0,-0.291,0.0,0.0,0.0,0.0,0.0,-1.61,-0.10889712398637141,0.0,0.0,0.0,0.0,0.0,0.0,0.068,0.0,0.0,0.0
599,0.0,0.0,0.0,-0.099880859375,0.0,0.0,0.0,0.0,0.0,0.0,-0.271,0.0,0.0,0.0,0.0,0.0,-1.61,-0.11164282659189961,0.0,0.0,0.0,0.0,0.0,0.0,0.548,0.0,0.0,0.0
600,0.0,0.0,0.0,-0.10219921875,0.0,0.0,0.0,0.0,0.0,0.0,-0.233,0.0,0.0,0.0,0.0,0.0,-1.61,-0.11438499036926421,0.0,0.0,0.0,0.0,0.0,0.0,0.432,0.0,0.0,0.0
601,0.0,0.0,0.0,-0.1048076171875,0.0,0.0,0.0,0.0,0.0,0.0,-0.251,0.0,0.0,0.0,0.0,0.0,-1.61,-0.11712352839961113,0.0,0.0,0.0,0.0,0.0,0.0,0.228,0.0,0.0,0.0
602,0.0,0.0,0.0,-0.10726171875,0.0,0.0,0.0,0.0,0.0,0.0,-0.254,0.0,0.0,0.0,0.0,0.0,-1.61,-0.1198583538790231,0.0,0.0,0.0,0.0,0.0,0.0,-0.568,0.0,0.0,0.0
603,0.0,0.0,0.0,-0.1104560546875,0.0,0.0,0.0,0.0,0.0,0.0,-0.279,0.0,0.0,0.0,0.0,0.0,-1.61,-0.12258938012126988,0.0,0.0,0.0,0.0,0.0,0.0,-0.64,0.0,0.0,0.0
604,0.0,0.0,0.0,-0.1130546875,0.0,0.0,0.0,0.0,0.0,0.0,-0.297,0.0,0.0,0.0,0.0,0.0,-1.61,-0.12531652056055606,0.0,0.0,0.0,0.0,0.0,0.0,0.5,0.0,0.0,0.0
605,0.0,0.0,0.0,-0.115951171875,0.0,0.0,0.0,0.0,0.0,0.0,-0.274,0.0,0.0,0.0,0.0,0.0,-1.61,-0.12803968875426613,0.0,0.0,0.0,0.0,0.0,0.0,0.82,0.0,0.0,0.0
606,0.0,0.0,0.0,-0.1190009765625,0.0,0.0,0.0,0.0,0.0,0.0,-0.298,0.0,0.0,0.0,0.0,0.0,-1.61,-0.13075879838570434,0.0,0.0,0.0,0.0,0.0,0.0,1.14,0.0,0.0,0.0
607,0.0,0.0,0.0,-0.1216083984375,0.0,0.0,0.0,0.0,0.0,0.0,-0.289,0.0,0.0,0.0,0.0,0.0,-1.61,-0.13347376326682922,0.0,0.0,0.0,0.0,0.0,0.0,0.66,0.0,0.0,0.0
608,0.0,0.0,0.0,-0.124072265625,0.0,0.0,0.0,0.0,0.0,0.0,-0.25,0.0,0.0,0.0,0.0,0.0,-1.61,-0.13618449734098675,0.0,0.0,0.0,0.0,0.0,0.0,0.16,0.0,0.0,0.0
609,0.0,0.0,0.0,-0.12682421875,0.0,0.0,0.0,0.0,0.0,0.0,-0.261,0.0,0.0,0.0,0.0,0.0,-1.61,-0.13889091468563788,0.0,0.0,0.0,0.0,0.0,0.0,-0.524,0.0,0.0,0.0
610,0.0,0.0,0.0,-0.130154296875,0.0,0.0,0.0,0.0,0.0,0.0,-0.307,0.0,0.0,0.0,0.0,0.0,-1.61,-0.14159292951508237,0.0,0.0,0.0,0.0,0.0,0.0,-0.548,0.0,0.0,0.0
611,0.0,0.0,0.0,-0.13305078125,0.0,0.0,0.0,0.0,0.0,0.0,-0.317,0.0,0.0,0.0,0.0,0.0,-1.61,-0.14429045618317748,0.0,0.0,0.0,0.0,0.0,0.0,0.16,0.0,0.0,0.0
612,0.0,0.0,0.0,-0.136091796875,0.0,0.0,0.0,0.0,0.0,0.0,-0.294,0.0,0.0,0.0,0.0,0.0,-1.61,-0.1469834091860524,0.0,0.0,0.0,0.0,0.0,0.0,0.388,0.0,0.0,0.0
613,0.0,0.0,0.0,-0.1391318359375,0.0,0.0,0.0,0.0,0.0,0.0,-0.309,0.0,0.0,0.0,0.0,0.0,-1.61,-0.1496717031648195,0.0,0.0,0.0,0.0,0.0,0.0,0.66,0.0,0.0,0.0
614,0.0,0.0,0.0,-0.1417490234375,0.0,0.0,0.0,0.0,0.0,0.0,-0.295,0.0,0.0,0.0,0.0,0.0,-1.61,-0.15235525290827873,0.0,0.0,0.0,0.0,0.0,0.0,0.728,0.0,0.0,0.0
615,0.0,0.0,0.0,-0.144203125,0.0,0.0,0.0,0.0,0.0,0.0,-0.255,0.0,0.0,0.0,0.0,0.0,-1.61,-0.15503397335562077,0.0,0.0,0.0,0.0,0.0,0.0,0.112,0.0,0.0,0.0
616,0.0,0.0,0.0,-0.1466669921875,0.0,0.0,0.0,0.0,0.0,0.0,-0.248,0.0,0.0,0.0,0.0,0.0,-1.61,-0.15770777959911936,0.0,0.0,0.0,0.0,0.0,0.0,0.204,0.0,0.0,0.0
617,0.0,0.0,0.0,-0.1492744140625,0.0,0.0,0.0,0.0,0.0,0.0,-0.251,0.0,0.0,0.0,0.0,0.0,-1.61,-0.1603765868868274,0.0,0.0,0.0,0.0,0.0,0.0,-0.088,0.0,0.0,0.0
618,0.0,0.0,0.0,-0.1520263671875,0.0,0.0,0.0,0.0,0.0,0.0,-0.264,0.0,0.0,0.0,0.0,0.0,-1.61,-0.16304031062525914,0.0,0.0,0.0,0.0,0.0,0.0,-0.32,0.0,0.0,0.0
619,0.0,0.0,0.0,-0.154634765625,0.0,0.0,0.0,0.0,0.0,0.0,-0.279,0.0,0.0,0.0,0.0,0.0,-1.61,-0.16569886638207443,0.0,0.0,0.0,0.0,0.0,0.0,0.432,0.0,0.0,0.0
620,0.0,0.0,0.0,-0.1569443359375,0.0,0.0,0.0,0.0,0.0,0.0,-0.247,0.0,0.0,0.0,0.0,0.0,-1.61,-0.16835216988875426,0.0,0.0,0.0,0.0,0.0,0.0,0.64,0.0,0.0,0.0
621,0.0,0.0,0.0,-0.159552734375,0.0,0.0,0.0,0.0,0.0,0.0,-0.244,0.0,0.0,0.0,0.0,0.0,-1.61,-0.17100013704326975,0.0,0.0,0.0,0.0,0.0,0.0,0.228,0.0,0.0,0.0
622,0.0,0.0,0.0,-0.162015625,0.0,0.0,0.0,0.0,0.0,0.0,-0.259,0.0,0.0,0.0,0.0,0.0,-1.61,-0.1736426839127517,0.0,0.0,0.0,0.0,0.0,0.0,0.0,0.0,0.0,0.0
623,0.0,0.0,0.0,-0.164623046875,0.0,0.0,0.0,0.0,0.0,0.0,-0.25,0.0,0.0,0.0,0.0,0.0,-1.61,-0.17627972673614806,0.0,0.0,0.0,0.0,0.0,0.0,-0.868,0.0,0.0,0.0
624,0.0,0.0,0.0,-0.167384765625,0.0,0.0,0.0,0.0,0.0,0.0,-0.277,0.0,0.0,0.0,0.0,0.0,-1.61,-0.17891118192687988,0.0,0.0,0.0,0.0,0.0,0.0,-0.34,0.0,0.0,0.0
625,0.0,0.0,0.0,-0.1699833984375,0.0,0.0,0.0,0.0,0.0,0.0,-0.269,0.0,0.0,0.0,0.0,0.0,-1.61,-0.18153696607549102,0.0,0.0,0.0,0.0,0.0,0.0,0.16,0.0,0.0,0.0
626,0.0,0.0,0.0,-0.1728798828125,0.0,0.0,0.0,0.0,0.0,0.0,-0.274,0.0,0.0,0.0,0.0,0.0,-1.61,-0.1841569959522915,0.0,0.0,0.0,0.0,0.0,0.0,0.272,0.0,0.0,0.0
627,0.0,0.0,0.0,-0.17534375,0.0,0.0,0.0,0.0,0.0,0.0,-0.272,0.0,0.0,0.0,0.0,0.0,-1.61,-0.1867711885099966,0.0,0.0,0.0,0.0,0.0,0.0,1.028,0.0,0.0,0.0
628,0.0,0.0,0.0,-0.177806640625,0.0,0.0,0.0,0.0,0.0,0.0,-0.241,0.0,0.0,0.0,0.0,0.0,-1.61,-0.18937946088635804,0.0,0.0,0.0,0.0,0.0,0.0,0.16,0.0,0.0,0.0
629,0.0,0.0,0.0,-0.18055859375,0.0,0.0,0.0,0.0,0.0,0.0,-0.263,0.0,0.0,0.0,0.0,0.0,-1.61,-0.19198173040679065,0.0,0.0,0.0,0.0,0.0,0.0,0.272,0.0,0.0,0.0
630,0.0,0.0,0.0,-0.183455078125,0.0,0.0,0.0,0.0,0.0,0.0,-0.289,0.0,0.0,0.0,0.0,0.0,-1.61,-0.19457791458699356,0.0,0.0,0.0,0.0,0.0,0.0,-0.204,0.0,0.0,0.0
631,0.0,0.0,0.0,-0.1863515625,0.0,0.0,0.0,0.0,0.0,0.0,-0.292,0.0,0.0,0.0,0.0,0.0,-1.61,-0.19716793113556466,0.0,0.0,0.0,0.0,0.0,0.0,0.068,0.0,0.0,0.0
632,0.0,0.0,0.0,-0.18911328125,0.0,0.0,0.0,0.0,0.0,0.0,-0.287,0.0,0.0,0.0,0.0,0.0,-1.61,-0.19975169795660871,0.0,0.0,0.0,0.0,0.0,0.0,0.96,0.0,0.0,0.0
633,0.0,0.0,0.0,-0.1918564453125,0.0,0.0,0.0,0.0,0.0,0.0,-0.274,0.0,0.0,0.0,0.0,0.0,-1.61,-0.202329133152339,0.0,0.0,0.0,0.0,0.0,0.0,0.616,0.0,0.0,0.0
634,0.0,0.0,0.0,-0.1944638671875,0.0,0.0,0.0,0.0,0.0,0.0,-0.27,0.0,0.0,0.0,0.0,0.0,-1.61,-0.20490015502567435,0.0,0.0,0.0,0.0,0.0,0.0,0.548,0.0,0.0,0.0
635,0.0,0.0,0.0,-0.196783203125,0.0,0.0,0.0,0.0,0.0,0.0,-0.252,0.0,0.0,0.0,0.0,0.0,-1.61,-0.2074646820828279,0.0,0.0,0.0,0.0,0.0,0.0,-0.02,0.0,0.0,0.0
636,0.0,0.0,0.0,-0.19953515625,0.0,0.0,0.0,0.0,0.0,0.0,-0.252,0.0,0.0,0.0,0.0,0.0,-1.61,-0.210022633035891,0.0,0.0,0.0,0.0,0.0,0.0,-0.204,0.0,0.0,0.0
637,0.0,0.0,0.0,-0.202287109375,0.0,0.0,0.0,0.0,0.0,0.0,-0.274,0.0,0.0,0.0,0.0,0.0,-1.61,-0.2125739268054085,0.0,0.0,0.0,0.0,0.0,0.0,-0.02,0.0,0.0,0.0
638,0.0,0.0,0.0,-0.2048857421875,0.0,0.0,0.0,0.0,0.0,0.0,-0.274,0.0,0.0,0.0,0.0,0.0,-1.61,-0.21511848252295013,0.0,0.0,0.0,0.0,0.0,0.0,0.66,0.0,0.0,0.0
639,0.0,0.0,0.0,-0.207494140625,0.0,0.0,0.0,0.0,0.0,0.0,-0.257,0.0,0.0,0.0,0.0,0.0,-1.61,-0.217656219533673,0.0,0.0,0.0,0.0,0.0,0.0,0.568,0.0,0.0,0.0
640,0.0,0.0,0.0,-0.2101015625,0.0,0.0,0.0,0.0,0.0,0.0,-0.271,0.0,0.0,0.0,0.0,0.0,-1.61,-0.22018705739887895,0.0,0.0,0.0,0.0,0.0,0.0,1.096,0.0,0.0,0.0
641,0.0,0.0,0.0,-0.2124208984375,0.0,0.0,0.0,0.0,0.0,0.0,-0.247,0.0,0.0,0.0,0.0,0.0,-1.61,-0.22271091589856187,0.0,0.0,0.0,0.0,0.0,0.0,-0.16,0.0,0.0,0.0
642,0.0,0.0,0.0,-0.215181640625,0.0,0.0,0.0,0.0,0.0,0.0,-0.258,0.0,0.0,0.0,0.0,0.0,-1.61,-0.22522771503395403,0.0,0.0,0.0,0.0,0.0,0.0,-0.48,0.0,0.0,0.0
643,0.0,0.0,0.0,-0.2176357421875,0.0,0.0,0.0,0.0,0.0,0.0,-0.262,0.0,0.0,0.0,0.0,0.0,-1.61,-0.22773737503005867,0.0,0.0,0.0,0.0,0.0,0.0,0.02,0.0,0.0,0.0
644,0.0,0.0,0.0,-0.219810546875,0.0,0.0,0.0,0.0,0.0,0.0,-0.235,0.0,0.0,0.0,0.0,0.0,-1.61,-0.23023981633818055,0.0,0.0,0.0,0.0,0.0,0.0,0.456,0.0,0.0,0.0
645,0.0,0.0,0.0,-0.2222744140625,0.0,0.0,0.0,0.0,0.0,0.0,-0.237,0.0,0.0,0.0,0.0,0.0,-1.61,-0.23273495963844704,0.0,0.0,0.0,0.0,0.0,0.0,0.548,0.0,0.0,0.0
646,0.0,0.0,0.0,-0.2244482421875,0.0,0.0,0.0,0.0,0.0,0.0,-0.24,0.0,0.0,0.0,0.0,0.0,-1.61,-0.2352227258423207,0.0,0.0,0.0,0.0,0.0,0.0,0.34,0.0,0.0,0.0
647,0.0,0.0,0.0,-0.2269033203125,0.0,0.0,0.0,0.0,0.0,0.0,-0.222,0.0,0.0,0.0,0.0,0.0,-1.61,-0.23770303609510862,0.0,0.0,0.0,0.0,0.0,0.0,-0.936,0.0,0.0,0.0
648,0.0,0.0,0.0,-0.2295107421875,0.0,0.0,0.0,0.0,0.0,0.0,-0.254,0.0,0.0,0.0,0.0,0.0,-1.61,-0.24017581177846056,0.0,0.0,0.0,0.0,0.0,0.0,-0.868,0.0,0.0,0.0
649,0.0,0.0,0.0,-0.231974609375,0.0,0.0,0.0,0.0,0.0,0.0,-0.259,0.0,0.0,0.0,0.0,0.0,-1.61,-0.24264097451286085,0.0,0.0,0.0,0.0,0.0,0.0,-0.136,0.0,0.0,0.0
650,0.0,0.0,0.0,-0.2344375,0.0,0.0,0.0,0.0,0.0,0.0,-0.248,0.0,0.0,0.0,0.0,0.0,-1.61,-0.24509844616011286,0.0,0.0,0.0,0.0,0.0,0.0,0.112,0.0,0.0,0.0
651,0.0,0.0,0.0,-0.237044921875,0.0,0.0,0.0,0.0,0.0,0.0,-0.265,0.0,0.0,0.0,0.0,0.0,-1.61,-0.2475481488258166,0.0,0.0,0.0,0.0,0.0,0.0,0.888,0.0,0.0,0.0
652,0.0,0.0,0.0,-0.2392197265625,0.0,0.0,0.0,0.0,0.0,0.0,-0.239,0.0,0.0,0.0,0.0,0.0,-1.61,-0.24999000486183598,0.0,0.0,0.0,0.0,0.0,0.0,0.64,0.0,0.0,0.0
653,0.0,0.0,0.0,-0.24168359375,0.0,0.0,0.0,0.0,0.0,0.0,-0.223,0.0,0.0,0.0,0.0,0.0,-1.61,-0.25242393686876236,0.0,0.0,0.0,0.0,0.0,0.0,-0.18,0.0,0.0,0.0
654,0.0,0.0,0.0,-0.244291015625,0.0,0.0,0.0,0.0,0.0,0.0,-0.26,0.0,0.0,0.0,0.0,0.0,-1.61,-0.2548498676983656,0.0,0.0,0.0,0.0,0.0,0.0,0.18,0.0,0.0,0.0
655,0.0,0.0,0.0,-0.2466015625,0.0,0.0,0.0,0.0,0.0,0.0,-0.25,0.0,0.0,0.0,0.0,0.0,-1.61,-0.25726772045604046,0.0,0.0,0.0,0.0,0.0,0.0,-0.068,0.0,0.0,0.0
656,0.0,0.0,0.0,-0.249353515625,0.0,0.0,0.0,0.0,0.0,0.0,-0.255,0.0,0.0,0.0,0.0,0.0,-1.61,-0.25967741850324444,0.0,0.0,0.0,0.0,0.0,0.0,0.408,0.0,0.0,0.0
657,0.0,0.0,0.0,-0.25181640625,0.0,0.0,0.0,0.0,0.0,0.0,-0.265,0.0,0.0,0.0,0.0,0.0,-1.61,-0.2620788854599262,0.0,0.0,0.0,0.0,0.0,0.0,1.14,0.0,0.0,0.0
658,0.0,0.0,0.0,-0.2542802734375,0.0,0.0,0.0,0.0,0.0,0.0,-0.243,0.0,0.0,0.0,0.0,0.0,-1.61,-0.2644720452069464,0.0,0.0,0.0,0.0,0.0,0.0,0.068,0.0,0.0,0.0
659,0.0,0.0,0.0,-0.2567431640625,0.0,0.0,0.0,0.0,0.0,0.0,-0.257,0.0,0.0,0.0,0.0,0.0,-1.61,-0.26685682188849147,0.0,0.0,0.0,0.0,0.0,0.0,0.364,0.0,0.0,0.0
660,0.0,0.0,0.0,-0.2590537109375,0.0,0.0,0.0,0.0,0.0,0.0,-0.24,0.0,0.0,0.0,0.0,0.0,-1.61,-0.26923313991447667,0.0,0.0,0.0,0.0,0.0,0.0,-0.228,0.0,0.0,0.0
661,0.0,0.0,0.0,-0.2616611328125,0.0,0.0,0.0,0.0,0.0,0.0,-0.244,0.0,0.0,0.0,0.0,0.0,-1.61,-0.2716009239629439,0.0,0.0,0.0,0.0,0.0,0.0,-0.068,0.0,0.0,0.0
662,0.0,0.0,0.0,-0.2642783203125,0.0,0.0,0.0,0.0,0.0,0.0,-0.261,0.0,0.0,0.0,0.0,0.0,-1.61,-0.2739600989824462,0.0,0.0,0.0,0.0,0.0,0.0,0.34,0.0,0.0,0.0
663,0.0,0.0,0.0,-0.2668857421875,0.0,0.0,0.0,0.0,0.0,0.0,-0.265,0.0,0.0,0.0,0.0,0.0,-1.61,-0.27631059019442994,0.0,0.0,0.0,0.0,0.0,0.0,0.364,0.0,0.0,0.0
664,0.0,0.0,0.0,-0.26933984375,0.0,0.0,0.0,0.0,0.0,0.0,-0.253,0.0,0.0,0.0,0.0,0.0,-1.61,-0.2786523230956033,0.0,0.0,0.0,0.0,0.0,0.0,0.524,0.0,0.0,0.0
665,0.0,0.0,0.0,-0.2716591796875,0.0,0.0,0.0,0.0,0.0,0.0,-0.249,0.0,0.0,0.0,0.0,0.0,-1.61,-0.28098522346029825,0.0,0.0,0.0,0.0,0.0,0.0,0.524,0.0,0.0,0.0
666,0.0,0.0,0.0,-0.273978515625,0.0,0.0,0.0,0.0,0.0,0.0,-0.234,0.0,0.0,0.0,0.0,0.0,-1.61,-0.2833092173428221,0.0,0.0,0.0,0.0,0.0,0.0,0.16,0.0,0.0,0.0
667,0.0,0.0,0.0,-0.276296875,0.0,0.0,0.0,0.0,0.0,0.0,-0.226,0.0,0.0,0.0,0.0,0.0,-1.61,-0.2856242310798035,0.0,0.0,0.0,0.0,0.0,0.0,0.16,0.0,0.0,0.0
668,0.0,0.0,0.0,-0.278462890625,0.0,0.0,0.0,0.0,0.0,0.0,-0.229,0.0,0.0,0.0,0.0,0.0,-1.61,-0.2879301912925257,0.0,0.0,0.0,0.0,0.0,0.0,0.044,0.0,0.0,0.0
