EmanuelSamir/lab201_ws_projsamir/sawyer_dev/data/sawyer/temp/training_data_random.csv
,j1,j2,j3,j4,j5,j6,j7,v1,v2,v3,v4,v5,v6,v7,jd1,jd2,jd3,jd4,jd5,jd6,jd7,e1,e2,e3,e4,e5,e6,e7
0,0.0,0.0,0.0,0.0,0.0,0.0,0.0,0.0,0.0,0.0,0.0,0.0,0.0,0.0,0.0,0.0,0.0,0.0,0.0,0.0,0.0,0.0,0.0,0.0,0.0,0.0,0.0,0.0
1,0.0,0.0,0.0,-0.004556640625,0.0,0.0,0.0,0.0,0.0,0.0,-0.001,0.0,0.0,0.0,0.0,0.0,0.0,-0.004342091380051046,0.0,0.0,0.0,0.0,0.0,0.0,-13.764,0.0,0.0,0.0
2,0.0,0.0,0.0,-0.004556640625,0.0,0.0,0.0,0.0,0.0,0.0,-0.001,0.0,0.0,0.0,0.0,0.0,0.0,0.00013752090511406564,0.0,0.0,0.0,0.0,0.0,0.0,-13.812,0.0,0.0,0.0
3,0.0,0.0,0.0,-0.004556640625,0.0,0.0,0.0,0.0,0.0,0.0,-0.001,0.0,0.0,0.0,0.0,0.0,0.0,-0.0019180604013181212,0.0,0.0,0.0,0.0,0.0,0.0,-13.812,0.0,0.0,0.0
4,0.0,0.0,0.0,-0.004556640625,0.0,0.0,0.0,0.0,0.0,0.0,-0.001,0.0,0.0,0.0,0.0,0.0,0.0,-0.0024851734430577643,0.0,0.0,0.0,0.0,0.0,0.0,-13.812,0.0,0.0,0.0
5,0.0,0.0,0.0,-0.004556640625,0.0,0.0,0.0,0.0,0.0,0.0,-0.001,0.0,0.0,0.0,0.0,0.0,0.0,-0.0024761005652224784,0.0,0.0,0.0,0.0,0.0,0.0,-13.812,0.0,0.0,0.0
6,0.0,0.0,0.0,-0.004556640625,0.0,0.0,0.0,0.0,0.0,0.0,-0.001,0.0,0.0,0.0,0.0,0.0,0.0,-0.0025821154827056717,0.0,0.0,0.0,0.0,0.0,0.0,-13.856,0.0,0.0,0.0
7,0.0,0.0,0.0,-0.004556640625,0.0,0.0,0.0,0.0,0.0,0.0,-0.001,0.0,0.0,0.0,0.0,0.0,0.0,-0.00263972338921575,0.0,0.0,0.0,0.0,0.0,0.0,-13.856,0.0,0.0,0.0
8,0.0,0.0,0.0,-0.004556640625,0.0,0.0,0.0,0.0,0.0,0.0,-0.001,0.0,0.0,0.0,0.0,0.0,0.0,-0.0025451613567773756,0.0,0.0,0.0,0.0,0.0,0.0,-13.744,0.0,0.0,0.0
9,0.0,0.0,0.0,-0.004556640625,0.0,0.0,0.0,0.0,0.0,0.0,-0.001,0.0,0.0,0.0,0.0,0.0,0.0,-0.0026076378607312323,0.0,0.0,0.0,0.0,0.0,0.0,-13.744,0.0,0.0,0.0
10,0.0,0.0,0.0,-0.004556640625,0.0,0.0,0.0,0.0,0.0,0.0,-0.001,0.0,0.0,0.0,0.0,0.0,0.0,-0.0026693027380138706,0.0,0.0,0.0,0.0,0.0,0.0,-13.744,0.0,0.0,0.0
11,0.0,0.0,0.0,-0.004556640625,0.0,0.0,0.0,0.0,0.0,0.0,-0.001,0.0,0.0,0.0,0.0,0.0,0.0,-0.0028120703299752,0.0,0.0,0.0,0.0,0.0,0.0,-13.856,0.0,0.0,0.0
12,0.0,0.0,0.0,-0.004556640625,0.0,0.0,0.0,0.0,0.0,0.0,-0.001,0.0,0.0,0.0,0.0,0.0,0.0,-0.0020731374243545264,0.0,0.0,0.0,0.0,0.0,0.0,-13.856,0.0,0.0,0.0
13,0.0,0.0,0.0,-0.004556640625,0.0,0.0,0.0,0.0,0.0,0.0,-0.001,0.0,0.0,0.0,0.0,0.0,0.0,-0.002646691215225757,0.0,0.0,0.0,0.0,0.0,0.0,-13.836,0.0,0.0,0.0
14,0.0,0.0,0.0,-0.004556640625,0.0,0.0,0.0,0.0,0.0,0.0,-0.001,0.0,0.0,0.0,0.0,0.0,0.0,-0.0027453474348295426,0.0,0.0,0.0,0.0,0.0,0.0,-13.836,0.0,0.0,0.0
15,0.0,0.0,0.0,-0.004556640625,0.0,0.0,0.0,0.0,0.0,0.0,-0.001,0.0,0.0,0.0,0.0,0.0,0.0,-0.002810895603572512,0.0,0.0,0.0,0.0,0.0,0.0,-13.836,0.0,0.0,0.0
16,0.0,0.0,0.0,-0.004556640625,0.0,0.0,0.0,0.0,0.0,0.0,-0.001,0.0,0.0,0.0,0.0,0.0,0.0,-0.0025441819518279216,0.0,0.0,0.0,0.0,0.0,0.0,-13.764,0.0,0.0,0.0
17,0.0,0.0,0.0,-0.004556640625,0.0,0.0,0.0,0.0,0.0,0.0,-0.001,0.0,0.0,0.0,0.0,0.0,0.0,-0.0019037270555876777,0.0,0.0,0.0,0.0,0.0,0.0,-13.764,0.0,0.0,0.0
18,0.0,0.0,0.0,-0.004556640625,0.0,0.0,0.0,0.0,0.0,0.0,-0.001,0.0,0.0,0.0,0.0,0.0,0.0,-0.002240649643695119,0.0,0.0,0.0,0.0,0.0,0.0,-13.812,0.0,0.0,0.0
19,0.0,0.0,0.0,-0.004556640625,0.0,0.0,0.0,0.0,0.0,0.0,-0.001,0.0,0.0,0.0,0.0,0.0,0.0,-0.002798229770400406,0.0,0.0,0.0,0.0,0.0,0.0,-13.812,0.0,0.0,0.0
20,0.0,0.0,0.0,-0.004556640625,0.0,0.0,0.0,0.0,0.0,0.0,-0.001,0.0,0.0,0.0,0.0,0.0,0.0,-0.0026606440540546845,0.0,0.0,0.0,0.0,0.0,0.0,-13.856,0.0,0.0,0.0
21,0.0,0.0,0.0,-0.004556640625,0.0,0.0,0.0,0.0,0.0,0.0,-0.001,0.0,0.0,0.0,0.0,0.0,0.0,-0.0027560487741803037,0.0,0.0,0.0,0.0,0.0,0.0,-13.856,0.0,0.0,0.0
22,0.0,0.0,0.0,-0.004556640625,0.0,0.0,0.0,0.0,0.0,0.0,-0.001,0.0,0.0,0.0,0.0,0.0,0.0,-0.0026198835995115653,0.0,0.0,0.0,0.0,0.0,0.0,-13.856,0.0,0.0,0.0
23,0.0,0.0,0.0,-0.004556640625,0.0,0.0,0.0,0.0,0.0,0.0,-0.001,0.0,0.0,0.0,0.0,0.0,0.0,-0.0025689414241478713,0.0,0.0,0.0,0.0,0.0,0.0,-13.836,0.0,0.0,0.0
24,0.0,0.0,0.0,-0.004556640625,0.0,0.0,0.0,0.0,0.0,0.0,-0.001,0.0,0.0,0.0,0.0,0.0,0.0,-0.0020741214144258356,0.0,0.0,0.0,0.0,0.0,0.0,-13.836,0.0,0.0,0.0
25,0.0,0.0,0.0,-0.004556640625,0.0,0.0,0.0,0.0,0.0,0.0,-0.001,0.0,0.0,0.0,0.0,0.0,0.0,-0.0018416847082856104,0.0,0.0,0.0,0.0,0.0,0.0,-13.788,0.0,0.0,0.0
26,0.0,0.0,0.0,-0.004556640625,0.0,0.0,0.0,0.0,0.0,0.0,-0.001,0.0,0.0,0.0,0.0,0.0,0.0,-0.002269010174728619,0.0,0.0,0.0,0.0,0.0,0.0,-13.788,0.0,0.0,0.0
27,0.0,0.0,0.0,-0.004556640625,0.0,0.0,0.0,0.0,0.0,0.0,-0.001,0.0,0.0,0.0,0.0,0.0,0.0,-0.0021923185339811115,0.0,0.0,0.0,0.0,0.0,0.0,-13.812,0.0,0.0,0.0
28,0.0,0.0,0.0,-0.004556640625,0.0,0.0,0.0,0.0,0.0,0.0,-0.001,0.0,0.0,0.0,0.0,0.0,0.0,-0.0021222615877834507,0.0,0.0,0.0,0.0,0.0,0.0,-13.812,0.0,0.0,0.0
29,0.0,0.0,0.0,-0.004556640625,0.0,0.0,0.0,0.0,0.0,0.0,-0.001,0.0,0.0,0.0,0.0,0.0,0.0,-0.002280777680902544,0.0,0.0,0.0,0.0,0.0,0.0,-13.836,0.0,0.0,0.0
30,0.0,0.0,0.0,-0.004556640625,0.0,0.0,0.0,0.0,0.0,0.0,-0.001,0.0,0.0,0.0,0.0,0.0,0.0,-0.002191631509462059,0.0,0.0,0.0,0.0,0.0,0.0,-13.836,0.0,0.0,0.0
31,0.0,0.0,0.0,-0.004556640625,0.0,0.0,0.0,0.0,0.0,0.0,-0.001,0.0,0.0,0.0,0.0,0.0,0.0,-0.001982021473737914,0.0,0.0,0.0,0.0,0.0,0.0,-13.812,0.0,0.0,0.0
32,0.0,0.0,0.0,-0.004556640625,0.0,0.0,0.0,0.0,0.0,0.0,-0.001,0.0,0.0,0.0,0.0,0.0,0.0,-0.002206158144204693,0.0,0.0,0.0,0.0,0.0,0.0,-13.812,0.0,0.0,0.0
33,0.0,0.0,0.0,-0.004556640625,0.0,0.0,0.0,0.0,0.0,0.0,-0.001,0.0,0.0,0.0,0.0,0.0,0.0,-0.0022341451539711517,0.0,0.0,0.0,0.0,0.0,0.0,-13.88,0.0,0.0,0.0
34,0.0,0.0,0.0,-0.004556640625,0.0,0.0,0.0,0.0,0.0,0.0,-0.001,0.0,0.0,0.0,0.0,0.0,0.0,-0.002257429751273122,0.0,0.0,0.0,0.0,0.0,0.0,-13.88,0.0,0.0,0.0
35,0.0,0.0,0.0,-0.004556640625,0.0,0.0,0.0,0.0,0.0,0.0,-0.001,0.0,0.0,0.0,0.0,0.0,0.0,-0.002252314314450419,0.0,0.0,0.0,0.0,0.0,0.0,-13.788,0.0,0.0,0.0
36,0.0,0.0,0.0,-0.004556640625,0.0,0.0,0.0,0.0,0.0,0.0,-0.001,0.0,0.0,0.0,0.0,0.0,0.0,-0.0022981110080575497,0.0,0.0,0.0,0.0,0.0,0.0,-13.788,0.0,0.0,0.0
37,0.0,0.0,0.0,-0.004556640625,0.0,0.0,0.0,0.0,0.0,0.0,-0.001,0.0,0.0,0.0,0.0,0.0,0.0,-0.002005548647137676,0.0,0.0,0.0,0.0,0.0,0.0,-13.72,0.0,0.0,0.0
38,0.0,0.0,0.0,-0.004556640625,0.0,0.0,0.0,0.0,0.0,0.0,-0.001,0.0,0.0,0.0,0.0,0.0,0.0,-0.0021563585376763762,0.0,0.0,0.0,0.0,0.0,0.0,-13.72,0.0,0.0,0.0
39,0.0,0.0,0.0,-0.004556640625,0.0,0.0,0.0,0.0,0.0,0.0,-0.001,0.0,0.0,0.0,0.0,0.0,0.0,-0.0021762916902401293,0.0,0.0,0.0,0.0,0.0,0.0,-13.764,0.0,0.0,0.0
40,0.0,0.0,0.0,-0.004556640625,0.0,0.0,0.0,0.0,0.0,0.0,-0.001,0.0,0.0,0.0,0.0,0.0,0.0,-0.002323728423560798,0.0,0.0,0.0,0.0,0.0,0.0,-13.764,0.0,0.0,0.0
41,0.0,0.0,0.0,-0.004556640625,0.0,0.0,0.0,0.0,0.0,0.0,-0.001,0.0,0.0,0.0,0.0,0.0,0.0,-0.002267536055203915,0.0,0.0,0.0,0.0,0.0,0.0,-13.856,0.0,0.0,0.0
42,0.0,0.0,0.0,-0.004556640625,0.0,0.0,0.0,0.0,0.0,0.0,-0.001,0.0,0.0,0.0,0.0,0.0,0.0,-0.002286809928705242,0.0,0.0,0.0,0.0,0.0,0.0,-13.856,0.0,0.0,0.0
43,0.0,0.0,0.0,-0.004556640625,0.0,0.0,0.0,0.0,0.0,0.0,-0.001,0.0,0.0,0.0,0.0,0.0,0.0,-0.0018679281852910547,0.0,0.0,0.0,0.0,0.0,0.0,-13.812,0.0,0.0,0.0
44,0.0,0.0,0.0,-0.004556640625,0.0,0.0,0.0,0.0,0.0,0.0,-0.001,0.0,0.0,0.0,0.0,0.0,0.0,-0.002194194453449167,0.0,0.0,0.0,0.0,0.0,0.0,-13.812,0.0,0.0,0.0
45,0.0,0.0,0.0,-0.004556640625,0.0,0.0,0.0,0.0,0.0,0.0,-0.001,0.0,0.0,0.0,0.0,0.0,0.0,-0.0020941553595508512,0.0,0.0,0.0,0.0,0.0,0.0,-13.788,0.0,0.0,0.0
46,0.0,0.0,0.0,-0.004556640625,0.0,0.0,0.0,0.0,0.0,0.0,-0.001,0.0,0.0,0.0,0.0,0.0,0.0,-0.0021403152537272548,0.0,0.0,0.0,0.0,0.0,0.0,-13.788,0.0,0.0,0.0
47,0.0,0.0,0.0,-0.004556640625,0.0,0.0,0.0,0.0,0.0,0.0,-0.001,0.0,0.0,0.0,0.0,0.0,0.0,-0.0019815780585956157,0.0,0.0,0.0,0.0,0.0,0.0,-13.88,0.0,0.0,0.0
48,0.0,0.0,0.0,-0.004556640625,0.0,0.0,0.0,0.0,0.0,0.0,-0.001,0.0,0.0,0.0,0.0,0.0,0.0,-0.002260951348262808,0.0,0.0,0.0,0.0,0.0,0.0,-13.88,0.0,0.0,0.0
49,0.0,0.0,0.0,-0.004556640625,0.0,0.0,0.0,0.0,0.0,0.0,-0.001,0.0,0.0,0.0,0.0,0.0,0.0,-0.002055021860734047,0.0,0.0,0.0,0.0,0.0,0.0,-13.788,0.0,0.0,0.0
50,0.0,0.0,0.0,-0.004556640625,0.0,0.0,0.0,0.0,0.0,0.0,-0.001,0.0,0.0,0.0,0.0,0.0,0.0,-0.0021898313665101067,0.0,0.0,0.0,0.0,0.0,0.0,-13.788,0.0,0.0,0.0
51,0.0,0.0,0.0,-0.004556640625,0.0,0.0,0.0,0.0,0.0,0.0,-0.001,0.0,0.0,0.0,0.0,0.0,0.0,-0.002190793571921732,0.0,0.0,0.0,0.0,0.0,0.0,-13.856,0.0,0.0,0.0
52,0.0,0.0,0.0,-0.004556640625,0.0,0.0,0.0,0.0,0.0,0.0,-0.001,0.0,0.0,0.0,0.0,0.0,0.0,-0.002387103396082158,0.0,0.0,0.0,0.0,0.0,0.0,-13.856,0.0,0.0,0.0
53,0.0,0.0,0.0,-0.004556640625,0.0,0.0,0.0,0.0,0.0,0.0,-0.001,0.0,0.0,0.0,0.0,0.0,0.0,-0.0022619359235316223,0.0,0.0,0.0,0.0,0.0,0.0,-13.904,0.0,0.0,0.0
54,0.0,0.0,0.0,-0.004556640625,0.0,0.0,0.0,0.0,0.0,0.0,-0.001,0.0,0.0,0.0,0.0,0.0,0.0,-0.001500703747101182,0.0,0.0,0.0,0.0,0.0,0.0,-13.904,0.0,0.0,0.0
55,0.0,0.0,0.0,-0.004556640625,0.0,0.0,0.0,0.0,0.0,0.0,-0.001,0.0,0.0,0.0,0.0,0.0,0.0,-0.002357252135846328,0.0,0.0,0.0,0.0,0.0,0.0,-13.948,0.0,0.0,0.0
56,0.0,0.0,0.0,-0.004556640625,0.0,0.0,0.0,0.0,0.0,0.0,-0.001,0.0,0.0,0.0,0.0,0.0,0.0,-0.002853203459951565,0.0,0.0,0.0,0.0,0.0,0.0,-13.948,0.0,0.0,0.0
57,0.0,0.0,0.0,-0.004556640625,0.0,0.0,0.0,0.0,0.0,0.0,-0.001,0.0,0.0,0.0,0.0,0.0,0.0,-0.002824711196550065,0.0,0.0,0.0,0.0,0.0,0.0,-13.812,0.0,0.0,0.0
58,0.0,0.0,0.0,-0.004556640625,0.0,0.0,0.0,0.0,0.0,0.0,-0.001,0.0,0.0,0.0,0.0,0.0,0.0,-0.002689471406168934,0.0,0.0,0.0,0.0,0.0,0.0,-13.812,0.0,0.0,0.0
59,0.0,0.0,0.0,-0.004556640625,0.0,0.0,0.0,0.0,0.0,0.0,-0.001,0.0,0.0,0.0,0.0,0.0,0.0,-0.002764706608627907,0.0,0.0,0.0,0.0,0.0,0.0,-13.812,0.0,0.0,0.0
60,0.0,0.0,0.0,-0.004556640625,0.0,0.0,0.0,0.0,0.0,0.0,-0.001,0.0,0.0,0.0,0.0,0.0,0.0,-0.0029064957900136225,0.0,0.0,0.0,0.0,0.0,0.0,-13.812,0.0,0.0,0.0
61,0.0,0.0,0.0,-0.004556640625,0.0,0.0,0.0,0.0,0.0,0.0,-0.001,0.0,0.0,0.0,0.0,0.0,0.0,-0.0030874303999615417,0.0,0.0,0.0,0.0,0.0,0.0,-13.812,0.0,0.0,0.0
62,0.0,0.0,0.0,-0.004556640625,0.0,0.0,0.0,0.0,0.0,0.0,-0.001,0.0,0.0,0.0,0.0,0.0,0.0,-0.0028953853317787194,0.0,0.0,0.0,0.0,0.0,0.0,-13.812,0.0,0.0,0.0
63,0.0,0.0,0.0,-0.004556640625,0.0,0.0,0.0,0.0,0.0,0.0,-0.001,0.0,0.0,0.0,0.0,0.0,0.0,-0.002457290152741407,0.0,0.0,0.0,0.0,0.0,0.0,-13.764,0.0,0.0,0.0
64,0.0,0.0,0.0,-0.004556640625,0.0,0.0,0.0,0.0,0.0,0.0,-0.001,0.0,0.0,0.0,0.0,0.0,0.0,-0.002991332115217824,0.0,0.0,0.0,0.0,0.0,0.0,-13.764,0.0,0.0,0.0
65,0.0,0.0,0.0,-0.004556640625,0.0,0.0,0.0,0.0,0.0,0.0,-0.001,0.0,0.0,0.0,0.0,0.0,0.0,-0.003058273683865357,0.0,0.0,0.0,0.0,0.0,0.0,-13.764,0.0,0.0,0.0
66,0.0,0.0,0.0,-0.004556640625,0.0,0.0,0.0,0.0,0.0,0.0,-0.001,0.0,0.0,0.0,0.0,0.0,0.0,-0.002935417142859168,0.0,0.0,0.0,0.0,0.0,0.0,-13.764,0.0,0.0,0.0
67,0.0,0.0,0.0,-0.004556640625,0.0,0.0,0.0,0.0,0.0,0.0,-0.001,0.0,0.0,0.0,0.0,0.0,0.0,-0.0029075883809381066,0.0,0.0,0.0,0.0,0.0,0.0,-13.764,0.0,0.0,0.0
68,0.0,0.0,0.0,-0.004556640625,0.0,0.0,0.0,0.0,0.0,0.0,-0.001,0.0,0.0,0.0,0.0,0.0,0.0,-0.0030297367626487028,0.0,0.0,0.0,0.0,0.0,0.0,-13.788,0.0,0.0,0.0
69,0.0,0.0,0.0,-0.004556640625,0.0,0.0,0.0,0.0,0.0,0.0,-0.001,0.0,0.0,0.0,0.0,0.0,0.0,-0.0031072190984515503,0.0,0.0,0.0,0.0,0.0,0.0,-13.788,0.0,0.0,0.0
70,0.0,0.0,0.0,-0.004556640625,0.0,0.0,0.0,0.0,0.0,0.0,-0.001,0.0,0.0,0.0,0.0,0.0,0.0,-0.002934313301897199,0.0,0.0,0.0,0.0,0.0,0.0,-13.788,0.0,0.0,0.0
71,0.0,0.0,0.0,-0.004556640625,0.0,0.0,0.0,0.0,0.0,0.0,-0.001,0.0,0.0,0.0,0.0,0.0,0.0,-0.002296471642548096,0.0,0.0,0.0,0.0,0.0,0.0,-13.856,0.0,0.0,0.0
72,0.0,0.0,0.0,-0.004556640625,0.0,0.0,0.0,0.0,0.0,0.0,-0.001,0.0,0.0,0.0,0.0,0.0,0.0,-0.0030473876909369348,0.0,0.0,0.0,0.0,0.0,0.0,-13.856,0.0,0.0,0.0
73,0.0,0.0,0.0,-0.004556640625,0.0,0.0,0.0,0.0,0.0,0.0,-0.001,0.0,0.0,0.0,0.0,0.0,0.0,-0.002990494858223173,0.0,0.0,0.0,0.0,0.0,0.0,-13.836,0.0,0.0,0.0
74,0.0,0.0,0.0,-0.004556640625,0.0,0.0,0.0,0.0,0.0,0.0,-0.001,0.0,0.0,0.0,0.0,0.0,0.0,-0.003125681426028818,0.0,0.0,0.0,0.0,0.0,0.0,-13.836,0.0,0.0,0.0
75,0.0,0.0,0.0,-0.004556640625,0.0,0.0,0.0,0.0,0.0,0.0,-0.001,0.0,0.0,0.0,0.0,0.0,0.0,-0.003151000289164433,0.0,0.0,0.0,0.0,0.0,0.0,-13.836,0.0,0.0,0.0
76,0.0,0.0,0.0,-0.004556640625,0.0,0.0,0.0,0.0,0.0,0.0,-0.001,0.0,0.0,0.0,0.0,0.0,0.0,-0.003129142217876916,0.0,0.0,0.0,0.0,0.0,0.0,-13.836,0.0,0.0,0.0
77,0.0,0.0,0.0,-0.004556640625,0.0,0.0,0.0,0.0,0.0,0.0,-0.001,0.0,0.0,0.0,0.0,0.0,0.0,-0.0030817923333010568,0.0,0.0,0.0,0.0,0.0,0.0,-13.836,0.0,0.0,0.0
78,0.0,0.0,0.0,-0.004556640625,0.0,0.0,0.0,0.0,0.0,0.0,-0.001,0.0,0.0,0.0,0.0,0.0,0.0,-0.00314882189949112,0.0,0.0,0.0,0.0,0.0,0.0,-13.836,0.0,0.0,0.0
79,0.0,0.0,0.0,-0.004556640625,0.0,0.0,0.0,0.0,0.0,0.0,-0.001,0.0,0.0,0.0,0.0,0.0,0.0,-0.002263195880578054,0.0,0.0,0.0,0.0,0.0,0.0,-13.744,0.0,0.0,0.0
80,0.0,0.0,0.0,-0.004556640625,0.0,0.0,0.0,0.0,0.0,0.0,-0.001,0.0,0.0,0.0,0.0,0.0,0.0,-0.001617632234107328,0.0,0.0,0.0,0.0,0.0,0.0,-13.744,0.0,0.0,0.0
81,0.0,0.0,0.0,-0.004556640625,0.0,0.0,0.0,0.0,0.0,0.0,-0.001,0.0,0.0,0.0,0.0,0.0,0.0,-0.002840747275233233,0.0,0.0,0.0,0.0,0.0,0.0,-13.764,0.0,0.0,0.0
82,0.0,0.0,0.0,-0.004556640625,0.0,0.0,0.0,0.0,0.0,0.0,-0.001,0.0,0.0,0.0,0.0,0.0,0.0,-0.003083483638314014,0.0,0.0,0.0,0.0,0.0,0.0,-13.764,0.0,0.0,0.0
83,0.0,0.0,0.0,-0.004556640625,0.0,0.0,0.0,0.0,0.0,0.0,-0.001,0.0,0.0,0.0,0.0,0.0,0.0,-0.003176785912011374,0.0,0.0,0.0,0.0,0.0,0.0,-13.764,0.0,0.0,0.0
84,0.0,0.0,0.0,-0.004556640625,0.0,0.0,0.0,0.0,0.0,0.0,-0.001,0.0,0.0,0.0,0.0,0.0,0.0,-0.0026638004254633287,0.0,0.0,0.0,0.0,0.0,0.0,-13.836,0.0,0.0,0.0
85,0.0,0.0,0.0,-0.004556640625,0.0,0.0,0.0,0.0,0.0,0.0,-0.001,0.0,0.0,0.0,0.0,0.0,0.0,-0.00303993141685208,0.0,0.0,0.0,0.0,0.0,0.0,-13.836,0.0,0.0,0.0
86,0.0,0.0,0.0,-0.004556640625,0.0,0.0,0.0,0.0,0.0,0.0,-0.001,0.0,0.0,0.0,0.0,0.0,0.0,-0.003161603141277756,0.0,0.0,0.0,0.0,0.0,0.0,-13.836,0.0,0.0,0.0
87,0.0,0.0,0.0,-0.004556640625,0.0,0.0,0.0,0.0,0.0,0.0,-0.001,0.0,0.0,0.0,0.0,0.0,0.0,-0.002382503358090874,0.0,0.0,0.0,0.0,0.0,0.0,-13.836,0.0,0.0,0.0
88,0.0,0.0,0.0,-0.004556640625,0.0,0.0,0.0,0.0,0.0,0.0,-0.001,0.0,0.0,0.0,0.0,0.0,0.0,-0.002658316007080417,0.0,0.0,0.0,0.0,0.0,0.0,-13.836,0.0,0.0,0.0
89,0.0,0.0,0.0,-0.004556640625,0.0,0.0,0.0,0.0,0.0,0.0,-0.001,0.0,0.0,0.0,0.0,0.0,0.0,-0.0029023202848364217,0.0,0.0,0.0,0.0,0.0,0.0,-13.744,0.0,0.0,0.0
90,0.0,0.0,0.0,-0.004556640625,0.0,0.0,0.0,0.0,0.0,0.0,-0.001,0.0,0.0,0.0,0.0,0.0,0.0,-0.00317468251909395,0.0,0.0,0.0,0.0,0.0,0.0,-13.744,0.0,0.0,0.0
91,0.0,0.0,0.0,-0.004556640625,0.0,0.0,0.0,0.0,0.0,0.0,-0.001,0.0,0.0,0.0,0.0,0.0,0.0,-0.0031827552448331665,0.0,0.0,0.0,0.0,0.0,0.0,-13.744,0.0,0.0,0.0
92,0.0,0.0,0.0,-0.004556640625,0.0,0.0,0.0,0.0,0.0,0.0,-0.001,0.0,0.0,0.0,0.0,0.0,0.0,-0.002317427598027947,0.0,0.0,0.0,0.0,0.0,0.0,-13.696,0.0,0.0,0.0
93,0.0,0.0,0.0,-0.004556640625,0.0,0.0,0.0,0.0,0.0,0.0,-0.001,0.0,0.0,0.0,0.0,0.0,0.0,-0.0028487755448646825,0.0,0.0,0.0,0.0,0.0,0.0,-13.696,0.0,0.0,0.0
94,0.0,0.0,0.0,-0.004556640625,0.0,0.0,0.0,0.0,0.0,0.0,-0.001,0.0,0.0,0.0,0.0,0.0,0.0,-0.002629381964496861,0.0,0.0,0.0,0.0,0.0,0.0,-13.836,0.0,0.0,0.0
95,0.0,0.0,0.0,-0.004556640625,0.0,0.0,0.0,0.0,0.0,0.0,-0.001,0.0,0.0,0.0,0.0,0.0,0.0,-0.002659062045143549,0.0,0.0,0.0,0.0,0.0,0.0,-13.836,0.0,0.0,0.0
96,0.0,0.0,0.0,-0.004556640625,0.0,0.0,0.0,0.0,0.0,0.0,-0.001,0.0,0.0,0.0,0.0,0.0,0.0,-0.0029198750408101527,0.0,0.0,0.0,0.0,0.0,0.0,-13.696,0.0,0.0,0.0
97,0.0,0.0,0.0,-0.004556640625,0.0,0.0,0.0,0.0,0.0,0.0,-0.001,0.0,0.0,0.0,0.0,0.0,0.0,-0.0029552602815748376,0.0,0.0,0.0,0.0,0.0,0.0,-13.696,0.0,0.0,0.0
98,0.0,0.0,0.0,-0.004556640625,0.0,0.0,0.0,0.0,0.0,0.0,-0.001,0.0,0.0,0.0,0.0,0.0,0.0,-0.002986586270992995,0.0,0.0,0.0,0.0,0.0,0.0,-13.696,0.0,0.0,0.0
99,0.0,0.0,0.0,-0.004556640625,0.0,0.0,0.0,0.0,0.0,0.0,-0.001,0.0,0.0,0.0,0.0,0.0,0.0,-0.0030033808058577173,0.0,0.0,0.0,0.0,0.0,0.0,-13.812,0.0,0.0,0.0
100,0.0,0.0,0.0,-0.004556640625,0.0,0.0,0.0,0.0,0.0,0.0,-0.001,0.0,0.0,0.0,0.0,0.0,0.0,-0.003241241927308989,0.0,0.0,0.0,0.0,0.0,0.0,-13.812,0.0,0.0,0.0
101,0.0,0.0,0.0,-0.004556640625,0.0,0.0,0.0,0.0,0.0,0.0,-0.001,0.0,0.0,0.0,0.0,0.0,0.0,-0.0031881121679474024,0.0,0.0,0.0,0.0,0.0,0.0,-13.812,0.0,0.0,0.0
102,0.0,0.0,0.0,-0.004556640625,0.0,0.0,0.0,0.0,0.0,0.0,-0.001,0.0,0.0,0.0,0.0,0.0,0.0,-0.0031769524053744704,0.0,0.0,0.0,0.0,0.0,0.0,-13.948,0.0,0.0,0.0
103,0.0,0.0,0.0,-0.004556640625,0.0,0.0,0.0,0.0,0.0,0.0,-0.001,0.0,0.0,0.0,0.0,0.0,0.0,-0.0028573695137627843,0.0,0.0,0.0,0.0,0.0,0.0,-13.948,0.0,0.0,0.0
104,0.0,0.0,0.0,-0.004556640625,0.0,0.0,0.0,0.0,0.0,0.0,-0.001,0.0,0.0,0.0,0.0,0.0,0.0,-0.0023532411333211413,0.0,0.0,0.0,0.0,0.0,0.0,-13.812,0.0,0.0,0.0
105,0.0,0.0,0.0,-0.004556640625,0.0,0.0,0.0,0.0,0.0,0.0,-0.001,0.0,0.0,0.0,0.0,0.0,0.0,-0.002578900747463451,0.0,0.0,0.0,0.0,0.0,0.0,-13.812,0.0,0.0,0.0
106,0.0,0.0,0.0,-0.004556640625,0.0,0.0,0.0,0.0,0.0,0.0,-0.001,0.0,0.0,0.0,0.0,0.0,0.0,-0.0023403602858022322,0.0,0.0,0.0,0.0,0.0,0.0,-13.812,0.0,0.0,0.0
107,0.0,0.0,0.0,-0.004556640625,0.0,0.0,0.0,0.0,0.0,0.0,-0.001,0.0,0.0,0.0,0.0,0.0,0.0,-0.002421247998642271,0.0,0.0,0.0,0.0,0.0,0.0,-13.812,0.0,0.0,0.0
108,0.0,0.0,0.0,-0.004556640625,0.0,0.0,0.0,0.0,0.0,0.0,-0.001,0.0,0.0,0.0,0.0,0.0,0.0,-0.002941696794008023,0.0,0.0,0.0,0.0,0.0,0.0,-13.812,0.0,0.0,0.0
109,0.0,0.0,0.0,-0.004556640625,0.0,0.0,0.0,0.0,0.0,0.0,-0.001,0.0,0.0,0.0,0.0,0.0,0.0,-0.002117194331145631,0.0,0.0,0.0,0.0,0.0,0.0,-13.904,0.0,0.0,0.0
110,0.0,0.0,0.0,-0.004556640625,0.0,0.0,0.0,0.0,0.0,0.0,-0.001,0.0,0.0,0.0,0.0,0.0,0.0,-0.002859136306271829,0.0,0.0,0.0,0.0,0.0,0.0,-13.904,0.0,0.0,0.0
111,0.0,0.0,0.0,-0.004556640625,0.0,0.0,0.0,0.0,0.0,0.0,-0.001,0.0,0.0,0.0,0.0,0.0,0.0,-0.00302850473332553,0.0,0.0,0.0,0.0,0.0,0.0,-13.788,0.0,0.0,0.0
112,0.0,0.0,0.0,-0.004556640625,0.0,0.0,0.0,0.0,0.0,0.0,-0.001,0.0,0.0,0.0,0.0,0.0,0.0,-0.003112118237100229,0.0,0.0,0.0,0.0,0.0,0.0,-13.788,0.0,0.0,0.0
113,0.0,0.0,0.0,-0.004556640625,0.0,0.0,0.0,0.0,0.0,0.0,-0.001,0.0,0.0,0.0,0.0,0.0,0.0,-0.003064373327095641,0.0,0.0,0.0,0.0,0.0,0.0,-13.856,0.0,0.0,0.0
114,0.0,0.0,0.0,-0.004556640625,0.0,0.0,0.0,0.0,0.0,0.0,-0.001,0.0,0.0,0.0,0.0,0.0,0.0,-0.0031190052930738267,0.0,0.0,0.0,0.0,0.0,0.0,-13.856,0.0,0.0,0.0
115,0.0,0.0,0.0,-0.004556640625,0.0,0.0,0.0,0.0,0.0,0.0,-0.001,0.0,0.0,0.0,0.0,0.0,0.0,-0.0029916808050130285,0.0,0.0,0.0,0.0,0.0,0.0,-13.856,0.0,0.0,0.0
116,0.0,0.0,0.0,-0.004556640625,0.0,0.0,0.0,0.0,0.0,0.0,-0.001,0.0,0.0,0.0,0.0,0.0,0.0,-0.003069057677472734,0.0,0.0,0.0,0.0,0.0,0.0,-13.88,0.0,0.0,0.0
117,0.0,0.0,0.0,-0.004556640625,0.0,0.0,0.0,0.0,0.0,0.0,-0.001,0.0,0.0,0.0,0.0,0.0,0.0,-0.002777434884564809,0.0,0.0,0.0,0.0,0.0,0.0,-13.88,0.0,0.0,0.0
118,0.0,0.0,0.0,-0.004556640625,0.0,0.0,0.0,0.0,0.0,0.0,-0.001,0.0,0.0,0.0,0.0,0.0,0.0,-0.002957103996674069,0.0,0.0,0.0,0.0,0.0,0.0,-13.812,0.0,0.0,0.0
119,0.0,0.0,0.0,-0.004556640625,0.0,0.0,0.0,0.0,0.0,0.0,-0.001,0.0,0.0,0.0,0.0,0.0,0.0,-0.003274868175977722,0.0,0.0,0.0,0.0,0.0,0.0,-13.812,0.0,0.0,0.0
120,0.0,0.0,0.0,-0.004556640625,0.0,0.0,0.0,0.0,0.0,0.0,-0.001,0.0,0.0,0.0,0.0,0.0,0.0,-0.0033086369672796524,0.0,0.0,0.0,0.0,0.0,0.0,-13.812,0.0,0.0,0.0
121,0.0,0.0,0.0,-0.004556640625,0.0,0.0,0.0,0.0,0.0,0.0,-0.001,0.0,0.0,0.0,0.0,0.0,0.0,-0.0032804809891605648,0.0,0.0,0.0,0.0,0.0,0.0,-13.812,0.0,0.0,0.0
122,0.0,0.0,0.0,-0.004556640625,0.0,0.0,0.0,0.0,0.0,0.0,-0.001,0.0,0.0,0.0,0.0,0.0,0.0,-0.0029893157426342278,0.0,0.0,0.0,0.0,0.0,0.0,-13.856,0.0,0.0,0.0
123,0.0,0.0,0.0,-0.004556640625,0.0,0.0,0.0,0.0,0.0,0.0,-0.001,0.0,0.0,0.0,0.0,0.0,0.0,-0.002903517372585821,0.0,0.0,0.0,0.0,0.0,0.0,-13.856,0.0,0.0,0.0
124,0.0,0.0,0.0,-0.004556640625,0.0,0.0,0.0,0.0,0.0,0.0,-0.001,0.0,0.0,0.0,0.0,0.0,0.0,-0.003034490769688789,0.0,0.0,0.0,0.0,0.0,0.0,-13.836,0.0,0.0,0.0
125,0.0,0.0,0.0,-0.004556640625,0.0,0.0,0.0,0.0,0.0,0.0,-0.001,0.0,0.0,0.0,0.0,0.0,0.0,-0.0023923604429217406,0.0,0.0,0.0,0.0,0.0,0.0,-13.836,0.0,0.0,0.0
126,0.0,0.0,0.0,-0.004556640625,0.0,0.0,0.0,0.0,0.0,0.0,-0.001,0.0,0.0,0.0,0.0,0.0,0.0,-0.0029735063030161303,0.0,0.0,0.0,0.0,0.0,0.0,-13.696,0.0,0.0,0.0
127,0.0,0.0,0.0,-0.004556640625,0.0,0.0,0.0,0.0,0.0,0.0,-0.001,0.0,0.0,0.0,0.0,0.0,0.0,-0.0030745245511208975,0.0,0.0,0.0,0.0,0.0,0.0,-13.696,0.0,0.0,0.0
128,0.0,0.0,0.0,-0.004556640625,0.0,0.0,0.0,0.0,0.0,0.0,-0.001,0.0,0.0,0.0,0.0,0.0,0.0,-0.003205239753229925,0.0,0.0,0.0,0.0,0.0,0.0,-13.696,0.0,0.0,0.0
129,0.0,0.0,0.0,-0.004556640625,0.0,0.0,0.0,0.0,0.0,0.0,-0.001,0.0,0.0,0.0,0.0,0.0,0.0,-0.00310677713387009,0.0,0.0,0.0,0.0,0.0,0.0,-13.856,0.0,0.0,0.0
130,0.0,0.0,0.0,-0.004556640625,0.0,0.0,0.0,0.0,0.0,0.0,-0.001,0.0,0.0,0.0,0.0,0.0,0.0,-0.0033128859436581705,0.0,0.0,0.0,0.0,0.0,0.0,-13.856,0.0,0.0,0.0
131,0.0,0.0,0.0,-0.004556640625,0.0,0.0,0.0,0.0,0.0,0.0,-0.001,0.0,0.0,0.0,0.0,0.0,0.0,-0.003208788215458006,0.0,0.0,0.0,0.0,0.0,0.0,-13.856,0.0,0.0,0.0
132,0.0,0.0,0.0,-0.004556640625,0.0,0.0,0.0,0.0,0.0,0.0,-0.001,0.0,0.0,0.0,0.0,0.0,0.0,-0.0031089214641426034,0.0,0.0,0.0,0.0,0.0,0.0,-13.856,0.0,0.0,0.0
133,0.0,0.0,0.0,-0.004556640625,0.0,0.0,0.0,0.0,0.0,0.0,-0.001,0.0,0.0,0.0,0.0,0.0,0.0,-0.0028100658319503737,0.0,0.0,0.0,0.0,0.0,0.0,-13.856,0.0,0.0,0.0
134,0.0,0.0,0.0,-0.004556640625,0.0,0.0,0.0,0.0,0.0,0.0,-0.001,0.0,0.0,0.0,0.0,0.0,0.0,-0.003173038939264298,0.0,0.0,0.0,0.0,0.0,0.0,-13.764,0.0,0.0,0.0
135,0.0,0.0,0.0,-0.004556640625,0.0,0.0,0.0,0.0,0.0,0.0,-0.001,0.0,0.0,0.0,0.0,0.0,0.0,-0.0033222683560891787,0.0,0.0,0.0,0.0,0.0,0.0,-13.764,0.0,0.0,0.0
136,0.0,0.0,0.0,-0.004556640625,0.0,0.0,0.0,0.0,0.0,0.0,-0.001,0.0,0.0,0.0,0.0,0.0,0.0,-0.0034064783034616387,0.0,0.0,0.0,0.0,0.0,0.0,-13.764,0.0,0.0,0.0
137,0.0,0.0,0.0,-0.004556640625,0.0,0.0,0.0,0.0,0.0,0.0,-0.001,0.0,0.0,0.0,0.0,0.0,0.0,-0.0032895446320414003,0.0,0.0,0.0,0.0,0.0,0.0,-13.812,0.0,0.0,0.0
138,0.0,0.0,0.0,-0.004556640625,0.0,0.0,0.0,0.0,0.0,0.0,-0.001,0.0,0.0,0.0,0.0,0.0,0.0,-0.0033351537118098164,0.0,0.0,0.0,0.0,0.0,0.0,-13.812,0.0,0.0,0.0
139,0.0,0.0,0.0,-0.004556640625,0.0,0.0,0.0,0.0,0.0,0.0,-0.001,0.0,0.0,0.0,0.0,0.0,0.0,-0.003317971247654875,0.0,0.0,0.0,0.0,0.0,0.0,-13.812,0.0,0.0,0.0
140,0.0,0.0,0.0,-0.004556640625,0.0,0.0,0.0,0.0,0.0,0.0,-0.001,0.0,0.0,0.0,0.0,0.0,0.0,-0.0033057776214642266,0.0,0.0,0.0,0.0,0.0,0.0,-13.744,0.0,0.0,0.0
141,0.0,0.0,0.0,-0.004556640625,0.0,0.0,0.0,0.0,0.0,0.0,-0.001,0.0,0.0,0.0,0.0,0.0,0.0,-0.0033161769548706345,0.0,0.0,0.0,0.0,0.0,0.0,-13.744,0.0,0.0,0.0
142,0.0,0.0,0.0,-0.004556640625,0.0,0.0,0.0,0.0,0.0,0.0,-0.001,0.0,0.0,0.0,0.0,0.0,0.0,-0.0029772416588068097,0.0,0.0,0.0,0.0,0.0,0.0,-13.744,0.0,0.0,0.0
143,0.0,0.0,0.0,-0.004556640625,0.0,0.0,0.0,0.0,0.0,0.0,-0.001,0.0,0.0,0.0,0.0,0.0,0.0,-0.00298622842933877,0.0,0.0,0.0,0.0,0.0,0.0,-13.72,0.0,0.0,0.0
144,0.0,0.0,0.0,-0.004556640625,0.0,0.0,0.0,0.0,0.0,0.0,-0.001,0.0,0.0,0.0,0.0,0.0,0.0,-0.0032656965623806856,0.0,0.0,0.0,0.0,0.0,0.0,-13.72,0.0,0.0,0.0
145,0.0,0.0,0.0,-0.004556640625,0.0,0.0,0.0,0.0,0.0,0.0,-0.001,0.0,0.0,0.0,0.0,0.0,0.0,-0.003205218181265016,0.0,0.0,0.0,0.0,0.0,0.0,-13.836,0.0,0.0,0.0
146,0.0,0.0,0.0,-0.004556640625,0.0,0.0,0.0,0.0,0.0,0.0,-0.001,0.0,0.0,0.0,0.0,0.0,0.0,-0.003246492246673064,0.0,0.0,0.0,0.0,0.0,0.0,-13.836,0.0,0.0,0.0
147,0.0,0.0,0.0,-0.004556640625,0.0,0.0,0.0,0.0,0.0,0.0,-0.001,0.0,0.0,0.0,0.0,0.0,0.0,-0.0032532537881621616,0.0,0.0,0.0,0.0,0.0,0.0,-13.836,0.0,0.0,0.0
148,0.0,0.0,0.0,-0.004556640625,0.0,0.0,0.0,0.0,0.0,0.0,-0.001,0.0,0.0,0.0,0.0,0.0,0.0,-0.003228787374766843,0.0,0.0,0.0,0.0,0.0,0.0,-13.788,0.0,0.0,0.0
149,0.0,0.0,0.0,-0.004556640625,0.0,0.0,0.0,0.0,0.0,0.0,-0.001,0.0,0.0,0.0,0.0,0.0,0.0,-0.003119564744565654,0.0,0.0,0.0,0.0,0.0,0.0,-13.788,0.0,0.0,0.0
150,0.0,0.0,0.0,-0.004556640625,0.0,0.0,0.0,0.0,0.0,0.0,-0.001,0.0,0.0,0.0,0.0,0.0,0.0,-0.002949808936320634,0.0,0.0,0.0,0.0,0.0,0.0,-13.856,0.0,0.0,0.0
151,0.0,0.0,0.0,-0.004556640625,0.0,0.0,0.0,0.0,0.0,0.0,-0.001,0.0,0.0,0.0,0.0,0.0,0.0,-0.003415508678218441,0.0,0.0,0.0,0.0,0.0,0.0,-13.856,0.0,0.0,0.0
152,0.0,0.0,0.0,-0.004556640625,0.0,0.0,0.0,0.0,0.0,0.0,-0.001,0.0,0.0,0.0,0.0,0.0,0.0,-0.0034639272102417497,0.0,0.0,0.0,0.0,0.0,0.0,-13.856,0.0,0.0,0.0
153,0.0,0.0,0.0,-0.004556640625,0.0,0.0,0.0,0.0,0.0,0.0,-0.001,0.0,0.0,0.0,0.0,0.0,0.0,-0.0034453147155230103,0.0,0.0,0.0,0.0,0.0,0.0,-13.856,0.0,0.0,0.0
154,0.0,0.0,0.0,-0.004556640625,0.0,0.0,0.0,0.0,0.0,0.0,-0.001,0.0,0.0,0.0,0.0,0.0,0.0,-0.0032913779404278344,0.0,0.0,0.0,0.0,0.0,0.0,-13.788,0.0,0.0,0.0
155,0.0,0.0,0.0,-0.004556640625,0.0,0.0,0.0,0.0,0.0,0.0,-0.001,0.0,0.0,0.0,0.0,0.0,0.0,-0.00344523118731244,0.0,0.0,0.0,0.0,0.0,0.0,-13.788,0.0,0.0,0.0
156,0.0,0.0,0.0,-0.004556640625,0.0,0.0,0.0,0.0,0.0,0.0,-0.001,0.0,0.0,0.0,0.0,0.0,0.0,-0.003452960729815272,0.0,0.0,0.0,0.0,0.0,0.0,-13.788,0.0,0.0,0.0
157,0.0,0.0,0.0,-0.004556640625,0.0,0.0,0.0,0.0,0.0,0.0,-0.001,0.0,0.0,0.0,0.0,0.0,0.0,-0.003317490299035445,0.0,0.0,0.0,0.0,0.0,0.0,-13.836,0.0,0.0,0.0
158,0.0,0.0,0.0,-0.004556640625,0.0,0.0,0.0,0.0,0.0,0.0,-0.001,0.0,0.0,0.0,0.0,0.0,0.0,-0.0030741240469420207,0.0,0.0,0.0,0.0,0.0,0.0,-13.836,0.0,0.0,0.0
159,0.0,0.0,0.0,-0.004556640625,0.0,0.0,0.0,0.0,0.0,0.0,-0.001,0.0,0.0,0.0,0.0,0.0,0.0,-0.003169655050500212,0.0,0.0,0.0,0.0,0.0,0.0,-13.788,0.0,0.0,0.0
160,0.0,0.0,0.0,-0.004556640625,0.0,0.0,0.0,0.0,0.0,0.0,-0.001,0.0,0.0,0.0,0.0,0.0,0.0,-0.003448870419543896,0.0,0.0,0.0,0.0,0.0,0.0,-13.788,0.0,0.0,0.0
161,0.0,0.0,0.0,-0.004556640625,0.0,0.0,0.0,0.0,0.0,0.0,-0.001,0.0,0.0,0.0,0.0,0.0,0.0,-0.0034895060240559585,0.0,0.0,0.0,0.0,0.0,0.0,-13.788,0.0,0.0,0.0
162,0.0,0.0,0.0,-0.004556640625,0.0,0.0,0.0,0.0,0.0,0.0,-0.001,0.0,0.0,0.0,0.0,0.0,0.0,-0.0033826614531977696,0.0,0.0,0.0,0.0,0.0,0.0,-13.696,0.0,0.0,0.0
163,0.0,0.0,0.0,-0.004556640625,0.0,0.0,0.0,0.0,0.0,0.0,-0.001,0.0,0.0,0.0,0.0,0.0,0.0,-0.00338561752160527,0.0,0.0,0.0,0.0,0.0,0.0,-13.696,0.0,0.0,0.0
164,0.0,0.0,0.0,-0.004556640625,0.0,0.0,0.0,0.0,0.0,0.0,-0.001,0.0,0.0,0.0,0.0,0.0,0.0,-0.0034836189594316704,0.0,0.0,0.0,0.0,0.0,0.0,-13.696,0.0,0.0,0.0
165,0.0,0.0,0.0,-0.004556640625,0.0,0.0,0.0,0.0,0.0,0.0,-0.001,0.0,0.0,0.0,0.0,0.0,0.0,-0.0033904600442012413,0.0,0.0,0.0,0.0,0.0,0.0,-13.788,0.0,0.0,0.0
166,0.0,0.0,0.0,-0.004556640625,0.0,0.0,0.0,0.0,0.0,0.0,-0.001,0.0,0.0,0.0,0.0,0.0,0.0,-0.003505046373259383,0.0,0.0,0.0,0.0,0.0,0.0,-13.788,0.0,0.0,0.0
167,0.0,0.0,0.0,-0.004556640625,0.0,0.0,0.0,0.0,0.0,0.0,-0.001,0.0,0.0,0.0,0.0,0.0,0.0,-0.00317745697551303,0.0,0.0,0.0,0.0,0.0,0.0,-13.788,0.0,0.0,0.0
168,0.0,0.0,0.0,-0.004556640625,0.0,0.0,0.0,0.0,0.0,0.0,-0.001,0.0,0.0,0.0,0.0,0.0,0.0,-0.0031384322641184216,0.0,0.0,0.0,0.0,0.0,0.0,-13.788,0.0,0.0,0.0
169,0.0,0.0,0.0,-0.004556640625,0.0,0.0,0.0,0.0,0.0,0.0,-0.001,0.0,0.0,0.0,0.0,0.0,0.0,-0.0033929763238783085,0.0,0.0,0.0,0.0,0.0,0.0,-13.788,0.0,0.0,0.0
170,0.0,0.0,0.0,-0.004556640625,0.0,0.0,0.0,0.0,0.0,0.0,-0.001,0.0,0.0,0.0,0.0,0.0,0.0,-0.0032983353011650264,0.0,0.0,0.0,0.0,0.0,0.0,-13.788,0.0,0.0,0.0
171,0.0,0.0,0.0,-0.004556640625,0.0,0.0,0.0,0.0,0.0,0.0,-0.001,0.0,0.0,0.0,0.0,0.0,0.0,-0.0033403515204887303,0.0,0.0,0.0,0.0,0.0,0.0,-13.788,0.0,0.0,0.0
172,0.0,0.0,0.0,-0.004556640625,0.0,0.0,0.0,0.0,0.0,0.0,-0.001,0.0,0.0,0.0,0.0,0.0,0.0,-0.0024005380469292494,0.0,0.0,0.0,0.0,0.0,0.0,-13.696,0.0,0.0,0.0
173,0.0,0.0,0.0,-0.004556640625,0.0,0.0,0.0,0.0,0.0,0.0,-0.001,0.0,0.0,0.0,0.0,0.0,0.0,-0.003070976292610276,0.0,0.0,0.0,0.0,0.0,0.0,-13.696,0.0,0.0,0.0
174,0.0,0.0,0.0,-0.004556640625,0.0,0.0,0.0,0.0,0.0,0.0,-0.001,0.0,0.0,0.0,0.0,0.0,0.0,-0.0030848191400577075,0.0,0.0,0.0,0.0,0.0,0.0,-13.744,0.0,0.0,0.0
175,0.0,0.0,0.0,-0.004556640625,0.0,0.0,0.0,0.0,0.0,0.0,-0.001,0.0,0.0,0.0,0.0,0.0,0.0,-0.0034706040937375095,0.0,0.0,0.0,0.0,0.0,0.0,-13.744,0.0,0.0,0.0
176,0.0,0.0,0.0,-0.004556640625,0.0,0.0,0.0,0.0,0.0,0.0,-0.001,0.0,0.0,0.0,0.0,0.0,0.0,-0.0034722119262794483,0.0,0.0,0.0,0.0,0.0,0.0,-13.744,0.0,0.0,0.0
177,0.0,0.0,0.0,-0.004556640625,0.0,0.0,0.0,0.0,0.0,0.0,-0.001,0.0,0.0,0.0,0.0,0.0,0.0,-0.003424304501079504,0.0,0.0,0.0,0.0,0.0,0.0,-13.836,0.0,0.0,0.0
178,0.0,0.0,0.0,-0.004556640625,0.0,0.0,0.0,0.0,0.0,0.0,-0.001,0.0,0.0,0.0,0.0,0.0,0.0,-0.003419831166809554,0.0,0.0,0.0,0.0,0.0,0.0,-13.836,0.0,0.0,0.0
179,0.0,0.0,0.0,-0.004556640625,0.0,0.0,0.0,0.0,0.0,0.0,-0.001,0.0,0.0,0.0,0.0,0.0,0.0,-0.0034807061176078714,0.0,0.0,0.0,0.0,0.0,0.0,-13.836,0.0,0.0,0.0
180,0.0,0.0,0.0,-0.004556640625,0.0,0.0,0.0,0.0,0.0,0.0,-0.001,0.0,0.0,0.0,0.0,0.0,0.0,-0.003214290788766897,0.0,0.0,0.0,0.0,0.0,0.0,-13.788,0.0,0.0,0.0
181,0.0,0.0,0.0,-0.004556640625,0.0,0.0,0.0,0.0,0.0,0.0,-0.001,0.0,0.0,0.0,0.0,0.0,0.0,-0.0031931401303252373,0.0,0.0,0.0,0.0,0.0,0.0,-13.788,0.0,0.0,0.0
182,0.0,0.0,0.0,-0.004556640625,0.0,0.0,0.0,0.0,0.0,0.0,-0.001,0.0,0.0,0.0,0.0,0.0,0.0,-0.002906275216418123,0.0,0.0,0.0,0.0,0.0,0.0,-13.812,0.0,0.0,0.0
183,0.0,0.0,0.0,-0.004556640625,0.0,0.0,0.0,0.0,0.0,0.0,-0.001,0.0,0.0,0.0,0.0,0.0,0.0,-0.0033337492225701294,0.0,0.0,0.0,0.0,0.0,0.0,-13.812,0.0,0.0,0.0
184,0.0,0.0,0.0,-0.004556640625,0.0,0.0,0.0,0.0,0.0,0.0,-0.001,0.0,0.0,0.0,0.0,0.0,0.0,-0.0034584162090683414,0.0,0.0,0.0,0.0,0.0,0.0,-13.856,0.0,0.0,0.0
185,0.0,0.0,0.0,-0.004556640625,0.0,0.0,0.0,0.0,0.0,0.0,-0.001,0.0,0.0,0.0,0.0,0.0,0.0,-0.003609626808457004,0.0,0.0,0.0,0.0,0.0,0.0,-13.856,0.0,0.0,0.0
186,0.0,0.0,0.0,-0.004556640625,0.0,0.0,0.0,0.0,0.0,0.0,-0.001,0.0,0.0,0.0,0.0,0.0,0.0,-0.0036020778064523896,0.0,0.0,0.0,0.0,0.0,0.0,-13.856,0.0,0.0,0.0
187,0.0,0.0,0.0,-0.004556640625,0.0,0.0,0.0,0.0,0.0,0.0,-0.001,0.0,0.0,0.0,0.0,0.0,0.0,-0.0034749334081485873,0.0,0.0,0.0,0.0,0.0,0.0,-13.836,0.0,0.0,0.0
188,0.0,0.0,0.0,-0.004556640625,0.0,0.0,0.0,0.0,0.0,0.0,-0.001,0.0,0.0,0.0,0.0,0.0,0.0,-0.0036292685610987453,0.0,0.0,0.0,0.0,0.0,0.0,-13.836,0.0,0.0,0.0
189,0.0,0.0,0.0,-0.004556640625,0.0,0.0,0.0,0.0,0.0,0.0,-0.001,0.0,0.0,0.0,0.0,0.0,0.0,-0.0035722088119116736,0.0,0.0,0.0,0.0,0.0,0.0,-13.836,0.0,0.0,0.0
190,0.0,0.0,0.0,-0.004556640625,0.0,0.0,0.0,0.0,0.0,0.0,-0.001,0.0,0.0,0.0,0.0,0.0,0.0,-0.0033350146972128715,0.0,0.0,0.0,0.0,0.0,0.0,-13.904,0.0,0.0,0.0
191,0.0,0.0,0.0,-0.004556640625,0.0,0.0,0.0,0.0,0.0,0.0,-0.001,0.0,0.0,0.0,0.0,0.0,0.0,-0.003531585870608648,0.0,0.0,0.0,0.0,0.0,0.0,-13.904,0.0,0.0,0.0
192,0.0,0.0,0.0,-0.004556640625,0.0,0.0,0.0,0.0,0.0,0.0,-0.001,0.0,0.0,0.0,0.0,0.0,0.0,-0.0036953768038546254,0.0,0.0,0.0,0.0,0.0,0.0,-13.904,0.0,0.0,0.0
193,0.0,0.0,0.0,-0.004556640625,0.0,0.0,0.0,0.0,0.0,0.0,-0.001,0.0,0.0,0.0,0.0,0.0,0.0,-0.0035801451909086603,0.0,0.0,0.0,0.0,0.0,0.0,-13.764,0.0,0.0,0.0
194,0.0,0.0,0.0,-0.004556640625,0.0,0.0,0.0,0.0,0.0,0.0,-0.001,0.0,0.0,0.0,0.0,0.0,0.0,-0.0036695283213481512,0.0,0.0,0.0,0.0,0.0,0.0,-13.764,0.0,0.0,0.0
195,0.0,0.0,0.0,-0.004556640625,0.0,0.0,0.0,0.0,0.0,0.0,-0.001,0.0,0.0,0.0,0.0,0.0,0.0,-0.003665140722842245,0.0,0.0,0.0,0.0,0.0,0.0,-13.764,0.0,0.0,0.0
196,0.0,0.0,0.0,-0.004556640625,0.0,0.0,0.0,0.0,0.0,0.0,-0.001,0.0,0.0,0.0,0.0,0.0,0.0,-0.003568435191013245,0.0,0.0,0.0,0.0,0.0,0.0,-13.744,0.0,0.0,0.0
197,0.0,0.0,0.0,-0.004556640625,0.0,0.0,0.0,0.0,0.0,0.0,-0.001,0.0,0.0,0.0,0.0,0.0,0.0,-0.0035391757028490657,0.0,0.0,0.0,0.0,0.0,0.0,-13.744,0.0,0.0,0.0
198,0.0,0.0,0.0,-0.004556640625,0.0,0.0,0.0,0.0,0.0,0.0,-0.001,0.0,0.0,0.0,0.0,0.0,0.0,-0.003335068826248625,0.0,0.0,0.0,0.0,0.0,0.0,-13.744,0.0,0.0,0.0
199,0.0,0.0,0.0,-0.004556640625,0.0,0.0,0.0,0.0,0.0,0.0,-0.001,0.0,0.0,0.0,0.0,0.0,0.0,-0.0033959962813494594,0.0,0.0,0.0,0.0,0.0,0.0,-13.744,0.0,0.0,0.0
200,0.0,0.0,0.0,-0.004556640625,0.0,0.0,0.0,0.0,0.0,0.0,-0.001,0.0,0.0,0.0,0.0,0.0,0.0,-0.003703864802511784,0.0,0.0,0.0,0.0,0.0,0.0,-13.744,0.0,0.0,0.0
201,0.0,0.0,0.0,-0.004556640625,0.0,0.0,0.0,0.0,0.0,0.0,-0.001,0.0,0.0,0.0,0.0,0.0,0.0,-0.003649760224539115,0.0,0.0,0.0,0.0,0.0,0.0,-13.788,0.0,0.0,0.0
202,0.0,0.0,0.0,-0.004556640625,0.0,0.0,0.0,0.0,0.0,0.0,-0.001,0.0,0.0,0.0,0.0,0.0,0.0,-0.0037475100759733516,0.0,0.0,0.0,0.0,0.0,0.0,-13.788,0.0,0.0,0.0
203,0.0,0.0,0.0,-0.004556640625,0.0,0.0,0.0,0.0,0.0,0.0,-0.001,0.0,0.0,0.0,0.0,0.0,0.0,-0.003704514588989575,0.0,0.0,0.0,0.0,0.0,0.0,-13.788,0.0,0.0,0.0
204,0.0,0.0,0.0,-0.004556640625,0.0,0.0,0.0,0.0,0.0,0.0,-0.001,0.0,0.0,0.0,0.0,0.0,0.0,-0.0036488937576761894,0.0,0.0,0.0,0.0,0.0,0.0,-13.788,0.0,0.0,0.0
205,0.0,0.0,0.0,-0.004556640625,0.0,0.0,0.0,0.0,0.0,0.0,-0.001,0.0,0.0,0.0,0.0,0.0,0.0,-0.0036444195811741777,0.0,0.0,0.0,0.0,0.0,0.0,-13.788,0.0,0.0,0.0
206,0.0,0.0,0.0,-0.004556640625,0.0,0.0,0.0,0.0,0.0,0.0,-0.001,0.0,0.0,0.0,0.0,0.0,0.0,-0.00375487388844448,0.0,0.0,0.0,0.0,0.0,0.0,-13.788,0.0,0.0,0.0
207,0.0,0.0,0.0,-0.004556640625,0.0,0.0,0.0,0.0,0.0,0.0,-0.001,0.0,0.0,0.0,0.0,0.0,0.0,-0.0033422707331251,0.0,0.0,0.0,0.0,0.0,0.0,-13.764,0.0,0.0,0.0
208,0.0,0.0,0.0,-0.004556640625,0.0,0.0,0.0,0.0,0.0,0.0,-0.001,0.0,0.0,0.0,0.0,0.0,0.0,-0.0036820400011647915,0.0,0.0,0.0,0.0,0.0,0.0,-13.764,0.0,0.0,0.0
209,0.0,0.0,0.0,-0.004556640625,0.0,0.0,0.0,0.0,0.0,0.0,-0.001,0.0,0.0,0.0,0.0,0.0,0.0,-0.0037671255379032077,0.0,0.0,0.0,0.0,0.0,0.0,-13.764,0.0,0.0,0.0
210,0.0,0.0,0.0,-0.004556640625,0.0,0.0,0.0,0.0,0.0,0.0,-0.001,0.0,0.0,0.0,0.0,0.0,0.0,-0.003781960548444322,0.0,0.0,0.0,0.0,0.0,0.0,-13.836,0.0,0.0,0.0
211,0.0,0.0,0.0,-0.004556640625,0.0,0.0,0.0,0.0,0.0,0.0,-0.001,0.0,0.0,0.0,0.0,0.0,0.0,-0.003672064006619905,0.0,0.0,0.0,0.0,0.0,0.0,-13.836,0.0,0.0,0.0
212,0.0,0.0,0.0,-0.004556640625,0.0,0.0,0.0,0.0,0.0,0.0,-0.001,0.0,0.0,0.0,0.0,0.0,0.0,-0.0034443942534423434,0.0,0.0,0.0,0.0,0.0,0.0,-13.88,0.0,0.0,0.0
213,0.0,0.0,0.0,-0.004556640625,0.0,0.0,0.0,0.0,0.0,0.0,-0.001,0.0,0.0,0.0,0.0,0.0,0.0,-0.003666139729955834,0.0,0.0,0.0,0.0,0.0,0.0,-13.88,0.0,0.0,0.0
214,0.0,0.0,0.0,-0.004556640625,0.0,0.0,0.0,0.0,0.0,0.0,-0.001,0.0,0.0,0.0,0.0,0.0,0.0,-0.0035357830994937646,0.0,0.0,0.0,0.0,0.0,0.0,-13.88,0.0,0.0,0.0
215,0.0,0.0,0.0,-0.004556640625,0.0,0.0,0.0,0.0,0.0,0.0,-0.001,0.0,0.0,0.0,0.0,0.0,0.0,-0.003351677188005723,0.0,0.0,0.0,0.0,0.0,0.0,-13.856,0.0,0.0,0.0
216,0.0,0.0,0.0,-0.004556640625,0.0,0.0,0.0,0.0,0.0,0.0,-0.001,0.0,0.0,0.0,0.0,0.0,0.0,-0.003628660476393656,0.0,0.0,0.0,0.0,0.0,0.0,-13.856,0.0,0.0,0.0
217,0.0,0.0,0.0,-0.004556640625,0.0,0.0,0.0,0.0,0.0,0.0,-0.001,0.0,0.0,0.0,0.0,0.0,0.0,-0.003682446638878626,0.0,0.0,0.0,0.0,0.0,0.0,-13.812,0.0,0.0,0.0
218,0.0,0.0,0.0,-0.004556640625,0.0,0.0,0.0,0.0,0.0,0.0,-0.001,0.0,0.0,0.0,0.0,0.0,0.0,-0.003717534973633089,0.0,0.0,0.0,0.0,0.0,0.0,-13.812,0.0,0.0,0.0
219,0.0,0.0,0.0,-0.004556640625,0.0,0.0,0.0,0.0,0.0,0.0,-0.001,0.0,0.0,0.0,0.0,0.0,0.0,-0.0036473035860176174,0.0,0.0,0.0,0.0,0.0,0.0,-13.812,0.0,0.0,0.0
220,0.0,0.0,0.0,-0.004556640625,0.0,0.0,0.0,0.0,0.0,0.0,-0.001,0.0,0.0,0.0,0.0,0.0,0.0,-0.00374405597360156,0.0,0.0,0.0,0.0,0.0,0.0,-13.788,0.0,0.0,0.0
221,0.0,0.0,0.0,-0.004556640625,0.0,0.0,0.0,0.0,0.0,0.0,-0.001,0.0,0.0,0.0,0.0,0.0,0.0,-0.0037388844085845564,0.0,0.0,0.0,0.0,0.0,0.0,-13.788,0.0,0.0,0.0
222,0.0,0.0,0.0,-0.004556640625,0.0,0.0,0.0,0.0,0.0,0.0,-0.001,0.0,0.0,0.0,0.0,0.0,0.0,-0.0038780726662280864,0.0,0.0,0.0,0.0,0.0,0.0,-13.788,0.0,0.0,0.0
223,0.0,0.0,0.0,-0.004556640625,0.0,0.0,0.0,0.0,0.0,0.0,-0.001,0.0,0.0,0.0,0.0,0.0,0.0,-0.0033957731278877502,0.0,0.0,0.0,0.0,0.0,0.0,-13.836,0.0,0.0,0.0
224,0.0,0.0,0.0,-0.004556640625,0.0,0.0,0.0,0.0,0.0,0.0,-0.001,0.0,0.0,0.0,0.0,0.0,0.0,-0.0037561321903870105,0.0,0.0,0.0,0.0,0.0,0.0,-13.836,0.0,0.0,0.0
225,0.0,0.0,0.0,-0.004556640625,0.0,0.0,0.0,0.0,0.0,0.0,-0.001,0.0,0.0,0.0,0.0,0.0,0.0,-0.0038284972774119165,0.0,0.0,0.0,0.0,0.0,0.0,-13.836,0.0,0.0,0.0
226,0.0,0.0,0.0,-0.004556640625,0.0,0.0,0.0,0.0,0.0,0.0,-0.001,0.0,0.0,0.0,0.0,0.0,0.0,-0.003856798274849752,0.0,0.0,0.0,0.0,0.0,0.0,-13.836,0.0,0.0,0.0
227,0.0,0.0,0.0,-0.004556640625,0.0,0.0,0.0,0.0,0.0,0.0,-0.001,0.0,0.0,0.0,0.0,0.0,0.0,-0.0038733235214503704,0.0,0.0,0.0,0.0,0.0,0.0,-13.836,0.0,0.0,0.0
228,0.0,0.0,0.0,-0.004556640625,0.0,0.0,0.0,0.0,0.0,0.0,-0.001,0.0,0.0,0.0,0.0,0.0,0.0,-0.0038563143074787955,0.0,0.0,0.0,0.0,0.0,0.0,-13.764,0.0,0.0,0.0
229,0.0,0.0,0.0,-0.004556640625,0.0,0.0,0.0,0.0,0.0,0.0,-0.001,0.0,0.0,0.0,0.0,0.0,0.0,-0.003664766467541273,0.0,0.0,0.0,0.0,0.0,0.0,-13.764,0.0,0.0,0.0
230,0.0,0.0,0.0,-0.004556640625,0.0,0.0,0.0,0.0,0.0,0.0,-0.001,0.0,0.0,0.0,0.0,0.0,0.0,-0.0038099841400153246,0.0,0.0,0.0,0.0,0.0,0.0,-13.764,0.0,0.0,0.0
231,0.0,0.0,0.0,-0.004556640625,0.0,0.0,0.0,0.0,0.0,0.0,-0.001,0.0,0.0,0.0,0.0,0.0,0.0,-0.003584134041383028,0.0,0.0,0.0,0.0,0.0,0.0,-13.924,0.0,0.0,0.0
232,0.0,0.0,0.0,-0.004556640625,0.0,0.0,0.0,0.0,0.0,0.0,-0.001,0.0,0.0,0.0,0.0,0.0,0.0,-0.003842515260265026,0.0,0.0,0.0,0.0,0.0,0.0,-13.924,0.0,0.0,0.0
233,0.0,0.0,0.0,-0.004556640625,0.0,0.0,0.0,0.0,0.0,0.0,-0.001,0.0,0.0,0.0,0.0,0.0,0.0,-0.0036451045348278067,0.0,0.0,0.0,0.0,0.0,0.0,-13.764,0.0,0.0,0.0
234,0.0,0.0,0.0,-0.004556640625,0.0,0.0,0.0,0.0,0.0,0.0,-0.001,0.0,0.0,0.0,0.0,0.0,0.0,-0.0039008583952106525,0.0,0.0,0.0,0.0,0.0,0.0,-13.764,0.0,0.0,0.0
235,0.0,0.0,0.0,-0.004556640625,0.0,0.0,0.0,0.0,0.0,0.0,-0.001,0.0,0.0,0.0,0.0,0.0,0.0,-0.003858841574185371,0.0,0.0,0.0,0.0,0.0,0.0,-13.764,0.0,0.0,0.0
236,0.0,0.0,0.0,-0.004556640625,0.0,0.0,0.0,0.0,0.0,0.0,-0.001,0.0,0.0,0.0,0.0,0.0,0.0,-0.003916135345888309,0.0,0.0,0.0,0.0,0.0,0.0,-13.836,0.0,0.0,0.0
237,0.0,0.0,0.0,-0.004556640625,0.0,0.0,0.0,0.0,0.0,0.0,-0.001,0.0,0.0,0.0,0.0,0.0,0.0,-0.003864665374628321,0.0,0.0,0.0,0.0,0.0,0.0,-13.836,0.0,0.0,0.0
238,0.0,0.0,0.0,-0.004556640625,0.0,0.0,0.0,0.0,0.0,0.0,-0.001,0.0,0.0,0.0,0.0,0.0,0.0,-0.0037914235662556174,0.0,0.0,0.0,0.0,0.0,0.0,-13.836,0.0,0.0,0.0
239,0.0,0.0,0.0,-0.004556640625,0.0,0.0,0.0,0.0,0.0,0.0,-0.001,0.0,0.0,0.0,0.0,0.0,0.0,-0.003795957188552971,0.0,0.0,0.0,0.0,0.0,0.0,-13.856,0.0,0.0,0.0
240,0.0,0.0,0.0,-0.004556640625,0.0,0.0,0.0,0.0,0.0,0.0,-0.001,0.0,0.0,0.0,0.0,0.0,0.0,-0.00391842675829596,0.0,0.0,0.0,0.0,0.0,0.0,-13.856,0.0,0.0,0.0
241,0.0,0.0,0.0,-0.004556640625,0.0,0.0,0.0,0.0,0.0,0.0,-0.001,0.0,0.0,0.0,0.0,0.0,0.0,-0.003963060437662928,0.0,0.0,0.0,0.0,0.0,0.0,-13.856,0.0,0.0,0.0
242,0.0,0.0,0.0,-0.004556640625,0.0,0.0,0.0,0.0,0.0,0.0,-0.001,0.0,0.0,0.0,0.0,0.0,0.0,-0.00386049863157956,0.0,0.0,0.0,0.0,0.0,0.0,-13.72,0.0,0.0,0.0
243,0.0,0.0,0.0,-0.004556640625,0.0,0.0,0.0,0.0,0.0,0.0,-0.001,0.0,0.0,0.0,0.0,0.0,0.0,-0.003908550501171063,0.0,0.0,0.0,0.0,0.0,0.0,-13.72,0.0,0.0,0.0
244,0.0,0.0,0.0,-0.004556640625,0.0,0.0,0.0,0.0,0.0,0.0,-0.001,0.0,0.0,0.0,0.0,0.0,0.0,-0.0038678658602057693,0.0,0.0,0.0,0.0,0.0,0.0,-13.788,0.0,0.0,0.0
245,0.0,0.0,0.0,-0.004556640625,0.0,0.0,0.0,0.0,0.0,0.0,-0.001,0.0,0.0,0.0,0.0,0.0,0.0,-0.003914371580140078,0.0,0.0,0.0,0.0,0.0,0.0,-13.788,0.0,0.0,0.0
246,0.0,0.0,0.0,-0.004556640625,0.0,0.0,0.0,0.0,0.0,0.0,-0.001,0.0,0.0,0.0,0.0,0.0,0.0,-0.00392689229436927,0.0,0.0,0.0,0.0,0.0,0.0,-13.788,0.0,0.0,0.0
247,0.0,0.0,0.0,-0.004556640625,0.0,0.0,0.0,0.0,0.0,0.0,-0.001,0.0,0.0,0.0,0.0,0.0,0.0,-0.003836292072414097,0.0,0.0,0.0,0.0,0.0,0.0,-13.812,0.0,0.0,0.0
248,0.0,0.0,0.0,-0.004556640625,0.0,0.0,0.0,0.0,0.0,0.0,-0.001,0.0,0.0,0.0,0.0,0.0,0.0,-0.0039208396412536185,0.0,0.0,0.0,0.0,0.0,0.0,-13.812,0.0,0.0,0.0
249,0.0,0.0,0.0,-0.004556640625,0.0,0.0,0.0,0.0,0.0,0.0,-0.001,0.0,0.0,0.0,0.0,0.0,0.0,-0.003988759028400016,0.0,0.0,0.0,0.0,0.0,0.0,-13.812,0.0,0.0,0.0
250,0.0,0.0,0.0,-0.004556640625,0.0,0.0,0.0,0.0,0.0,0.0,-0.001,0.0,0.0,0.0,0.0,0.0,0.0,-0.0039913057814307575,0.0,0.0,0.0,0.0,0.0,0.0,-13.812,0.0,0.0,0.0
251,0.0,0.0,0.0,-0.004556640625,0.0,0.0,0.0,0.0,0.0,0.0,-0.001,0.0,0.0,0.0,0.0,0.0,0.0,-0.003978317706364368,0.0,0.0,0.0,0.0,0.0,0.0,-13.812,0.0,0.0,0.0
252,0.0,0.0,0.0,-0.004556640625,0.0,0.0,0.0,0.0,0.0,0.0,-0.001,0.0,0.0,0.0,0.0,0.0,0.0,-0.003592253770418278,0.0,0.0,0.0,0.0,0.0,0.0,-13.904,0.0,0.0,0.0
253,0.0,0.0,0.0,-0.004556640625,0.0,0.0,0.0,0.0,0.0,0.0,-0.001,0.0,0.0,0.0,0.0,0.0,0.0,-0.003755299959894435,0.0,0.0,0.0,0.0,0.0,0.0,-13.904,0.0,0.0,0.0
254,0.0,0.0,0.0,-0.004556640625,0.0,0.0,0.0,0.0,0.0,0.0,-0.001,0.0,0.0,0.0,0.0,0.0,0.0,-0.004038977969655692,0.0,0.0,0.0,0.0,0.0,0.0,-13.904,0.0,0.0,0.0
255,0.0,0.0,0.0,-0.004556640625,0.0,0.0,0.0,0.0,0.0,0.0,-0.001,0.0,0.0,0.0,0.0,0.0,0.0,-0.0039706516994244025,0.0,0.0,0.0,0.0,0.0,0.0,-13.856,0.0,0.0,0.0
256,0.0,0.0,0.0,-0.004556640625,0.0,0.0,0.0,0.0,0.0,0.0,-0.001,0.0,0.0,0.0,0.0,0.0,0.0,-0.003929478529602074,0.0,0.0,0.0,0.0,0.0,0.0,-13.856,0.0,0.0,0.0
257,0.0,0.0,0.0,-0.004701171875,0.0,0.0,0.0,0.0,0.0,0.0,-0.001,0.0,0.0,0.0,0.0,0.0,0.0,-0.004144211444633651,0.0,0.0,0.0,0.0,0.0,0.0,-14.016,0.0,0.0,0.0
258,0.0,0.0,0.0,-0.004701171875,0.0,0.0,0.0,0.0,0.0,0.0,-0.001,0.0,0.0,0.0,0.0,0.0,0.0,-0.004208671615588834,0.0,0.0,0.0,0.0,0.0,0.0,-14.016,0.0,0.0,0.0
259,0.0,0.0,0.0,-0.004701171875,0.0,0.0,0.0,0.0,0.0,0.0,-0.001,0.0,0.0,0.0,0.0,0.0,0.0,-0.004181110138123646,0.0,0.0,0.0,0.0,0.0,0.0,-14.016,0.0,0.0,0.0
260,0.0,0.0,0.0,-0.004701171875,0.0,0.0,0.0,0.0,0.0,0.0,-0.011,0.0,0.0,0.0,0.0,0.0,0.0,-0.004020783275024177,0.0,0.0,0.0,0.0,0.0,0.0,-13.836,0.0,0.0,0.0
261,0.0,0.0,0.0,-0.004701171875,0.0,0.0,0.0,0.0,0.0,0.0,-0.011,0.0,0.0,0.0,0.0,0.0,0.0,-0.004236158449902973,0.0,0.0,0.0,0.0,0.0,0.0,-13.836,0.0,0.0,0.0
262,0.0,0.0,0.0,-0.004701171875,0.0,0.0,0.0,0.0,0.0,0.0,-0.011,0.0,0.0,0.0,0.0,0.0,0.0,-0.004222708986626168,0.0,0.0,0.0,0.0,0.0,0.0,-13.836,0.0,0.0,0.0
263,0.0,0.0,0.0,-0.004701171875,0.0,0.0,0.0,0.0,0.0,0.0,-0.002,0.0,0.0,0.0,0.0,0.0,0.0,-0.004144875883733558,0.0,0.0,0.0,0.0,0.0,0.0,-13.856,0.0,0.0,0.0
264,0.0,0.0,0.0,-0.004701171875,0.0,0.0,0.0,0.0,0.0,0.0,-0.002,0.0,0.0,0.0,0.0,0.0,0.0,-0.004170476713922323,0.0,0.0,0.0,0.0,0.0,0.0,-13.856,0.0,0.0,0.0
265,0.0,0.0,0.0,-0.004701171875,0.0,0.0,0.0,0.0,0.0,0.0,-0.001,0.0,0.0,0.0,0.0,0.0,0.0,-0.004078150044318142,0.0,0.0,0.0,0.0,0.0,0.0,-13.788,0.0,0.0,0.0
266,0.0,0.0,0.0,-0.004701171875,0.0,0.0,0.0,0.0,0.0,0.0,-0.001,0.0,0.0,0.0,0.0,0.0,0.0,-0.004267027490335619,0.0,0.0,0.0,0.0,0.0,0.0,-13.788,0.0,0.0,0.0
267,0.0,0.0,0.0,-0.004701171875,0.0,0.0,0.0,0.0,0.0,0.0,-0.001,0.0,0.0,0.0,0.0,0.0,0.0,-0.004267930063818683,0.0,0.0,0.0,0.0,0.0,0.0,-13.788,0.0,0.0,0.0
268,0.0,0.0,0.0,-0.004556640625,0.0,0.0,0.0,0.0,0.0,0.0,0.004,0.0,0.0,0.0,0.0,0.0,0.0,-0.0041146060951720055,0.0,0.0,0.0,0.0,0.0,0.0,-13.88,0.0,0.0,0.0
269,0.0,0.0,0.0,-0.004556640625,0.0,0.0,0.0,0.0,0.0,0.0,0.004,0.0,0.0,0.0,0.0,0.0,0.0,-0.004141598464806166,0.0,0.0,0.0,0.0,0.0,0.0,-13.88,0.0,0.0,0.0
270,0.0,0.0,0.0,-0.004556640625,0.0,0.0,0.0,0.0,0.0,0.0,0.004,0.0,0.0,0.0,0.0,0.0,0.0,-0.0040971493609861555,0.0,0.0,0.0,0.0,0.0,0.0,-13.88,0.0,0.0,0.0
271,0.0,0.0,0.0,-0.004701171875,0.0,0.0,0.0,0.0,0.0,0.0,0.006,0.0,0.0,0.0,0.0,0.0,0.0,-0.004198493062532817,0.0,0.0,0.0,0.0,0.0,0.0,-13.836,0.0,0.0,0.0
272,0.0,0.0,0.0,-0.004701171875,0.0,0.0,0.0,0.0,0.0,0.0,0.006,0.0,0.0,0.0,0.0,0.0,0.0,-0.004052049911808499,0.0,0.0,0.0,0.0,0.0,0.0,-13.836,0.0,0.0,0.0
273,0.0,0.0,0.0,-0.004701171875,0.0,0.0,0.0,0.0,0.0,0.0,-0.011,0.0,0.0,0.0,0.0,0.0,0.0,-0.00416055344311609,0.0,0.0,0.0,0.0,0.0,0.0,-13.744,0.0,0.0,0.0
274,0.0,0.0,0.0,-0.004701171875,0.0,0.0,0.0,0.0,0.0,0.0,-0.011,0.0,0.0,0.0,0.0,0.0,0.0,-0.004283183796968883,0.0,0.0,0.0,0.0,0.0,0.0,-13.744,0.0,0.0,0.0
275,0.0,0.0,0.0,-0.004701171875,0.0,0.0,0.0,0.0,0.0,0.0,-0.011,0.0,0.0,0.0,0.0,0.0,0.0,-0.004277044871117831,0.0,0.0,0.0,0.0,0.0,0.0,-13.744,0.0,0.0,0.0
276,0.0,0.0,0.0,-0.004701171875,0.0,0.0,0.0,0.0,0.0,0.0,-0.001,0.0,0.0,0.0,0.0,0.0,0.0,-0.0042251524707426005,0.0,0.0,0.0,0.0,0.0,0.0,-13.836,0.0,0.0,0.0
277,0.0,0.0,0.0,-0.004701171875,0.0,0.0,0.0,0.0,0.0,0.0,-0.001,0.0,0.0,0.0,0.0,0.0,0.0,-0.004136870243351666,0.0,0.0,0.0,0.0,0.0,0.0,-13.836,0.0,0.0,0.0
278,0.0,0.0,0.0,-0.004701171875,0.0,0.0,0.0,0.0,0.0,0.0,-0.001,0.0,0.0,0.0,0.0,0.0,0.0,-0.004167466467782301,0.0,0.0,0.0,0.0,0.0,0.0,-13.744,0.0,0.0,0.0
279,0.0,0.0,0.0,-0.004701171875,0.0,0.0,0.0,0.0,0.0,0.0,-0.001,0.0,0.0,0.0,0.0,0.0,0.0,-0.004044274390840576,0.0,0.0,0.0,0.0,0.0,0.0,-13.744,0.0,0.0,0.0
280,0.0,0.0,0.0,-0.004701171875,0.0,0.0,0.0,0.0,0.0,0.0,-0.001,0.0,0.0,0.0,0.0,0.0,0.0,-0.00431291527910619,0.0,0.0,0.0,0.0,0.0,0.0,-13.856,0.0,0.0,0.0
281,0.0,0.0,0.0,-0.004701171875,0.0,0.0,0.0,0.0,0.0,0.0,-0.001,0.0,0.0,0.0,0.0,0.0,0.0,-0.004344209333711581,0.0,0.0,0.0,0.0,0.0,0.0,-13.856,0.0,0.0,0.0
282,0.0,0.0,0.0,-0.004701171875,0.0,0.0,0.0,0.0,0.0,0.0,-0.001,0.0,0.0,0.0,0.0,0.0,0.0,-0.00431917609430308,0.0,0.0,0.0,0.0,0.0,0.0,-13.652,0.0,0.0,0.0
283,0.0,0.0,0.0,-0.004701171875,0.0,0.0,0.0,0.0,0.0,0.0,-0.001,0.0,0.0,0.0,0.0,0.0,0.0,-0.004341607187972642,0.0,0.0,0.0,0.0,0.0,0.0,-13.652,0.0,0.0,0.0
284,0.0,0.0,0.0,-0.004701171875,0.0,0.0,0.0,0.0,0.0,0.0,-0.001,0.0,0.0,0.0,0.0,0.0,0.0,-0.004367947955213093,0.0,0.0,0.0,0.0,0.0,0.0,-13.652,0.0,0.0,0.0
285,0.0,0.0,0.0,-0.004701171875,0.0,0.0,0.0,0.0,0.0,0.0,-0.001,0.0,0.0,0.0,0.0,0.0,0.0,-0.004377231272878569,0.0,0.0,0.0,0.0,0.0,0.0,-13.812,0.0,0.0,0.0
286,0.0,0.0,0.0,-0.004701171875,0.0,0.0,0.0,0.0,0.0,0.0,-0.001,0.0,0.0,0.0,0.0,0.0,0.0,-0.0043450998358578255,0.0,0.0,0.0,0.0,0.0,0.0,-13.812,0.0,0.0,0.0
287,0.0,0.0,0.0,-0.004701171875,0.0,0.0,0.0,0.0,0.0,0.0,-0.001,0.0,0.0,0.0,0.0,0.0,0.0,-0.004305560699489987,0.0,0.0,0.0,0.0,0.0,0.0,-13.812,0.0,0.0,0.0
288,0.0,0.0,0.0,-0.004701171875,0.0,0.0,0.0,0.0,0.0,0.0,-0.001,0.0,0.0,0.0,0.0,0.0,0.0,-0.004389377015307873,0.0,0.0,0.0,0.0,0.0,0.0,-13.812,0.0,0.0,0.0
289,0.0,0.0,0.0,-0.004701171875,0.0,0.0,0.0,0.0,0.0,0.0,-0.001,0.0,0.0,0.0,0.0,0.0,0.0,-0.004411807307923711,0.0,0.0,0.0,0.0,0.0,0.0,-13.812,0.0,0.0,0.0
290,0.0,0.0,0.0,-0.004701171875,0.0,0.0,0.0,0.0,0.0,0.0,-0.001,0.0,0.0,0.0,0.0,0.0,0.0,-0.004424286093271813,0.0,0.0,0.0,0.0,0.0,0.0,-13.904,0.0,0.0,0.0
291,0.0,0.0,0.0,-0.004701171875,0.0,0.0,0.0,0.0,0.0,0.0,-0.001,0.0,0.0,0.0,0.0,0.0,0.0,-0.004455631118597848,0.0,0.0,0.0,0.0,0.0,0.0,-13.904,0.0,0.0,0.0
292,0.0,0.0,0.0,-0.004701171875,0.0,0.0,0.0,0.0,0.0,0.0,-0.001,0.0,0.0,0.0,0.0,0.0,0.0,-0.004451742531088133,0.0,0.0,0.0,0.0,0.0,0.0,-13.904,0.0,0.0,0.0
293,0.0,0.0,0.0,-0.004701171875,0.0,0.0,0.0,0.0,0.0,0.0,-0.001,0.0,0.0,0.0,0.0,0.0,0.0,-0.004454089457789058,0.0,0.0,0.0,0.0,0.0,0.0,-13.764,0.0,0.0,0.0
294,0.0,0.0,0.0,-0.004701171875,0.0,0.0,0.0,0.0,0.0,0.0,-0.001,0.0,0.0,0.0,0.0,0.0,0.0,-0.0044178957310825676,0.0,0.0,0.0,0.0,0.0,0.0,-13.764,0.0,0.0,0.0
295,0.0,0.0,0.0,-0.004701171875,0.0,0.0,0.0,0.0,0.0,0.0,-0.001,0.0,0.0,0.0,0.0,0.0,0.0,-0.004380581328861745,0.0,0.0,0.0,0.0,0.0,0.0,-13.788,0.0,0.0,0.0
296,0.0,0.0,0.0,-0.004701171875,0.0,0.0,0.0,0.0,0.0,0.0,-0.001,0.0,0.0,0.0,0.0,0.0,0.0,-0.004369545382973496,0.0,0.0,0.0,0.0,0.0,0.0,-13.788,0.0,0.0,0.0
297,0.0,0.0,0.0,-0.004701171875,0.0,0.0,0.0,0.0,0.0,0.0,-0.001,0.0,0.0,0.0,0.0,0.0,0.0,-0.00438893659416021,0.0,0.0,0.0,0.0,0.0,0.0,-14.016,0.0,0.0,0.0
298,0.0,0.0,0.0,-0.004701171875,0.0,0.0,0.0,0.0,0.0,0.0,-0.001,0.0,0.0,0.0,0.0,0.0,0.0,-0.004480621875718328,0.0,0.0,0.0,0.0,0.0,0.0,-14.016,0.0,0.0,0.0
299,0.0,0.0,0.0,-0.004701171875,0.0,0.0,0.0,0.0,0.0,0.0,-0.001,0.0,0.0,0.0,0.0,0.0,0.0,-0.004462673020415066,0.0,0.0,0.0,0.0,0.0,0.0,-14.016,0.0,0.0,0.0
300,0.0,0.0,0.0,-0.004845703125,0.0,0.0,0.0,0.0,0.0,0.0,-0.01,0.0,0.0,0.0,0.0,0.0,0.0,-0.004636209305592175,0.0,0.0,0.0,0.0,0.0,0.0,-13.88,0.0,0.0,0.0
301,0.0,0.0,0.0,-0.004845703125,0.0,0.0,0.0,0.0,0.0,0.0,-0.01,0.0,0.0,0.0,0.0,0.0,0.0,-0.004632864632257604,0.0,0.0,0.0,0.0,0.0,0.0,-13.88,0.0,0.0,0.0
302,0.0,0.0,0.0,-0.004845703125,0.0,0.0,0.0,0.0,0.0,0.0,-0.007,0.0,0.0,0.0,0.0,0.0,0.0,-0.004513648663507574,0.0,0.0,0.0,0.0,0.0,0.0,-13.812,0.0,0.0,0.0
303,0.0,0.0,0.0,-0.004845703125,0.0,0.0,0.0,0.0,0.0,0.0,-0.007,0.0,0.0,0.0,0.0,0.0,0.0,-0.004653044088221325,0.0,0.0,0.0,0.0,0.0,0.0,-13.812,0.0,0.0,0.0
304,0.0,0.0,0.0,-0.004845703125,0.0,0.0,0.0,0.0,0.0,0.0,-0.001,0.0,0.0,0.0,0.0,0.0,0.0,-0.004671393645034837,0.0,0.0,0.0,0.0,0.0,0.0,-13.88,0.0,0.0,0.0
305,0.0,0.0,0.0,-0.004845703125,0.0,0.0,0.0,0.0,0.0,0.0,-0.001,0.0,0.0,0.0,0.0,0.0,0.0,-0.004687875146671083,0.0,0.0,0.0,0.0,0.0,0.0,-13.88,0.0,0.0,0.0
306,0.0,0.0,0.0,-0.004845703125,0.0,0.0,0.0,0.0,0.0,0.0,-0.001,0.0,0.0,0.0,0.0,0.0,0.0,-0.0046685725653006875,0.0,0.0,0.0,0.0,0.0,0.0,-13.88,0.0,0.0,0.0
307,0.0,0.0,0.0,-0.004845703125,0.0,0.0,0.0,0.0,0.0,0.0,-0.001,0.0,0.0,0.0,0.0,0.0,0.0,-0.004712555134400397,0.0,0.0,0.0,0.0,0.0,0.0,-13.856,0.0,0.0,0.0
308,0.0,0.0,0.0,-0.004845703125,0.0,0.0,0.0,0.0,0.0,0.0,-0.001,0.0,0.0,0.0,0.0,0.0,0.0,-0.004722052017069,0.0,0.0,0.0,0.0,0.0,0.0,-13.856,0.0,0.0,0.0
309,0.0,0.0,0.0,-0.004845703125,0.0,0.0,0.0,0.0,0.0,0.0,-0.001,0.0,0.0,0.0,0.0,0.0,0.0,-0.004698225667953259,0.0,0.0,0.0,0.0,0.0,0.0,-13.856,0.0,0.0,0.0
310,0.0,0.0,0.0,-0.004845703125,0.0,0.0,0.0,0.0,0.0,0.0,-0.001,0.0,0.0,0.0,0.0,0.0,0.0,-0.004693498997393474,0.0,0.0,0.0,0.0,0.0,0.0,-13.904,0.0,0.0,0.0
311,0.0,0.0,0.0,-0.004845703125,0.0,0.0,0.0,0.0,0.0,0.0,-0.001,0.0,0.0,0.0,0.0,0.0,0.0,-0.004739490163612369,0.0,0.0,0.0,0.0,0.0,0.0,-13.904,0.0,0.0,0.0
312,0.0,0.0,0.0,-0.004845703125,0.0,0.0,0.0,0.0,0.0,0.0,-0.001,0.0,0.0,0.0,0.0,0.0,0.0,-0.0047400202229268655,0.0,0.0,0.0,0.0,0.0,0.0,-13.88,0.0,0.0,0.0
313,0.0,0.0,0.0,-0.004845703125,0.0,0.0,0.0,0.0,0.0,0.0,-0.001,0.0,0.0,0.0,0.0,0.0,0.0,-0.004754943835981362,0.0,0.0,0.0,0.0,0.0,0.0,-13.88,0.0,0.0,0.0
314,0.0,0.0,0.0,-0.004845703125,0.0,0.0,0.0,0.0,0.0,0.0,-0.001,0.0,0.0,0.0,0.0,0.0,0.0,-0.004747385248443436,0.0,0.0,0.0,0.0,0.0,0.0,-13.788,0.0,0.0,0.0
315,0.0,0.0,0.0,-0.004845703125,0.0,0.0,0.0,0.0,0.0,0.0,-0.001,0.0,0.0,0.0,0.0,0.0,0.0,-0.0047545185353432655,0.0,0.0,0.0,0.0,0.0,0.0,-13.788,0.0,0.0,0.0
316,0.0,0.0,0.0,-0.004845703125,0.0,0.0,0.0,0.0,0.0,0.0,-0.001,0.0,0.0,0.0,0.0,0.0,0.0,-0.004762686110053715,0.0,0.0,0.0,0.0,0.0,0.0,-13.788,0.0,0.0,0.0
317,0.0,0.0,0.0,-0.004845703125,0.0,0.0,0.0,0.0,0.0,0.0,-0.001,0.0,0.0,0.0,0.0,0.0,0.0,-0.004776858075093048,0.0,0.0,0.0,0.0,0.0,0.0,-13.72,0.0,0.0,0.0
318,0.0,0.0,0.0,-0.004845703125,0.0,0.0,0.0,0.0,0.0,0.0,-0.001,0.0,0.0,0.0,0.0,0.0,0.0,-0.004794463611486843,0.0,0.0,0.0,0.0,0.0,0.0,-13.812,0.0,0.0,0.0
319,0.0,0.0,0.0,-0.004845703125,0.0,0.0,0.0,0.0,0.0,0.0,-0.001,0.0,0.0,0.0,0.0,0.0,0.0,-0.004811124198228555,0.0,0.0,0.0,0.0,0.0,0.0,-13.812,0.0,0.0,0.0
320,0.0,0.0,0.0,-0.004845703125,0.0,0.0,0.0,0.0,0.0,0.0,-0.001,0.0,0.0,0.0,0.0,0.0,0.0,-0.00482445801130622,0.0,0.0,0.0,0.0,0.0,0.0,-13.744,0.0,0.0,0.0
321,0.0,0.0,0.0,-0.004845703125,0.0,0.0,0.0,0.0,0.0,0.0,-0.001,0.0,0.0,0.0,0.0,0.0,0.0,-0.004839013736191122,0.0,0.0,0.0,0.0,0.0,0.0,-13.744,0.0,0.0,0.0
322,0.0,0.0,0.0,-0.004845703125,0.0,0.0,0.0,0.0,0.0,0.0,-0.001,0.0,0.0,0.0,0.0,0.0,0.0,-0.004845745523461797,0.0,0.0,0.0,0.0,0.0,0.0,-13.744,0.0,0.0,0.0
323,0.0,0.0,0.0,-0.004845703125,0.0,0.0,0.0,0.0,0.0,0.0,-0.001,0.0,0.0,0.0,0.0,0.0,0.0,-0.004856989664444655,0.0,0.0,0.0,0.0,0.0,0.0,-13.764,0.0,0.0,0.0
324,0.0,0.0,0.0,-0.004845703125,0.0,0.0,0.0,0.0,0.0,0.0,-0.001,0.0,0.0,0.0,0.0,0.0,0.0,-0.004867873310148384,0.0,0.0,0.0,0.0,0.0,0.0,-13.764,0.0,0.0,0.0
325,0.0,0.0,0.0,-0.004845703125,0.0,0.0,0.0,0.0,0.0,0.0,-0.001,0.0,0.0,0.0,0.0,0.0,0.0,-0.004869498463780774,0.0,0.0,0.0,0.0,0.0,0.0,-13.764,0.0,0.0,0.0
326,0.0,0.0,0.0,-0.004845703125,0.0,0.0,0.0,0.0,0.0,0.0,-0.001,0.0,0.0,0.0,0.0,0.0,0.0,-0.004885633345161077,0.0,0.0,0.0,0.0,0.0,0.0,-13.856,0.0,0.0,0.0
327,0.0,0.0,0.0,-0.004845703125,0.0,0.0,0.0,0.0,0.0,0.0,-0.001,0.0,0.0,0.0,0.0,0.0,0.0,-0.004904161221234781,0.0,0.0,0.0,0.0,0.0,0.0,-13.856,0.0,0.0,0.0
328,0.0,0.0,0.0,-0.004990234375,0.0,0.0,0.0,0.0,0.0,0.0,-0.009,0.0,0.0,0.0,0.0,0.0,0.0,-0.005059719993239218,0.0,0.0,0.0,0.0,0.0,0.0,-14.04,0.0,0.0,0.0
329,0.0,0.0,0.0,-0.004990234375,0.0,0.0,0.0,0.0,0.0,0.0,-0.009,0.0,0.0,0.0,0.0,0.0,0.0,-0.005072036013857293,0.0,0.0,0.0,0.0,0.0,0.0,-14.04,0.0,0.0,0.0
330,0.0,0.0,0.0,-0.005279296875,0.0,0.0,0.0,0.0,0.0,0.0,-0.026,0.0,0.0,0.0,0.0,0.0,0.0,-0.00538891558320203,0.0,0.0,0.0,0.0,0.0,0.0,-13.948,0.0,0.0,0.0
331,0.0,0.0,0.0,-0.005279296875,0.0,0.0,0.0,0.0,0.0,0.0,-0.026,0.0,0.0,0.0,0.0,0.0,0.0,-0.005399009368758417,0.0,0.0,0.0,0.0,0.0,0.0,-13.948,0.0,0.0,0.0
332,0.0,0.0,0.0,-0.005279296875,0.0,0.0,0.0,0.0,0.0,0.0,-0.012,0.0,0.0,0.0,0.0,0.0,0.0,-0.005410379225321665,0.0,0.0,0.0,0.0,0.0,0.0,-13.836,0.0,0.0,0.0
333,0.0,0.0,0.0,-0.005279296875,0.0,0.0,0.0,0.0,0.0,0.0,-0.012,0.0,0.0,0.0,0.0,0.0,0.0,-0.005416768951804812,0.0,0.0,0.0,0.0,0.0,0.0,-13.836,0.0,0.0,0.0
334,0.0,0.0,0.0,-0.005279296875,0.0,0.0,0.0,0.0,0.0,0.0,-0.001,0.0,0.0,0.0,0.0,0.0,0.0,-0.0054029339754917355,0.0,0.0,0.0,0.0,0.0,0.0,-13.788,0.0,0.0,0.0
335,0.0,0.0,0.0,-0.005279296875,0.0,0.0,0.0,0.0,0.0,0.0,-0.001,0.0,0.0,0.0,0.0,0.0,0.0,-0.005409902420904494,0.0,0.0,0.0,0.0,0.0,0.0,-13.788,0.0,0.0,0.0
336,0.0,0.0,0.0,-0.005279296875,0.0,0.0,0.0,0.0,0.0,0.0,-0.001,0.0,0.0,0.0,0.0,0.0,0.0,-0.0054037387928222375,0.0,0.0,0.0,0.0,0.0,0.0,-13.788,0.0,0.0,0.0
337,0.0,0.0,0.0,-0.0054326171875,0.0,0.0,0.0,0.0,0.0,0.0,-0.012,0.0,0.0,0.0,0.0,0.0,0.0,-0.005602548902971361,0.0,0.0,0.0,0.0,0.0,0.0,-13.996,0.0,0.0,0.0
338,0.0,0.0,0.0,-0.0054326171875,0.0,0.0,0.0,0.0,0.0,0.0,-0.012,0.0,0.0,0.0,0.0,0.0,0.0,-0.005592497770855032,0.0,0.0,0.0,0.0,0.0,0.0,-13.996,0.0,0.0,0.0
339,0.0,0.0,0.0,-0.005576171875,0.0,0.0,0.0,0.0,0.0,0.0,-0.007,0.0,0.0,0.0,0.0,0.0,0.0,-0.005738680492490786,0.0,0.0,0.0,0.0,0.0,0.0,-14.384,0.0,0.0,0.0
340,0.0,0.0,0.0,-0.005576171875,0.0,0.0,0.0,0.0,0.0,0.0,-0.007,0.0,0.0,0.0,0.0,0.0,0.0,-0.005734916885853778,0.0,0.0,0.0,0.0,0.0,0.0,-14.384,0.0,0.0,0.0
341,0.0,0.0,0.0,-0.005576171875,0.0,0.0,0.0,0.0,0.0,0.0,-0.007,0.0,0.0,0.0,0.0,0.0,0.0,-0.005745052407665394,0.0,0.0,0.0,0.0,0.0,0.0,-14.384,0.0,0.0,0.0
342,0.0,0.0,0.0,-0.005720703125,0.0,0.0,0.0,0.0,0.0,0.0,-0.019,0.0,0.0,0.0,0.0,0.0,0.0,-0.005905172544334532,0.0,0.0,0.0,0.0,0.0,0.0,-14.016,0.0,0.0,0.0
343,0.0,0.0,0.0,-0.005720703125,0.0,0.0,0.0,0.0,0.0,0.0,-0.019,0.0,0.0,0.0,0.0,0.0,0.0,-0.005905300775643769,0.0,0.0,0.0,0.0,0.0,0.0,-14.016,0.0,0.0,0.0
344,0.0,0.0,0.0,-0.005720703125,0.0,0.0,0.0,0.0,0.0,0.0,-0.019,0.0,0.0,0.0,0.0,0.0,0.0,-0.005920301175972804,0.0,0.0,0.0,0.0,0.0,0.0,-14.016,0.0,0.0,0.0
345,0.0,0.0,0.0,-0.005720703125,0.0,0.0,0.0,0.0,0.0,0.0,-0.008,0.0,0.0,0.0,0.0,0.0,0.0,-0.005995801833699517,0.0,0.0,0.0,0.0,0.0,0.0,-13.924,0.0,0.0,0.0
346,0.0,0.0,0.0,-0.005720703125,0.0,0.0,0.0,0.0,0.0,0.0,-0.008,0.0,0.0,0.0,0.0,0.0,0.0,-0.00596283876487574,0.0,0.0,0.0,0.0,0.0,0.0,-13.924,0.0,0.0,0.0
347,0.0,0.0,0.0,-0.006009765625,0.0,0.0,0.0,0.0,0.0,0.0,-0.016,0.0,0.0,0.0,0.0,0.0,0.0,-0.006242118183640236,0.0,0.0,0.0,0.0,0.0,0.0,-13.788,0.0,0.0,0.0
348,0.0,0.0,0.0,-0.006009765625,0.0,0.0,0.0,0.0,0.0,0.0,-0.016,0.0,0.0,0.0,0.0,0.0,0.0,-0.006215154111266611,0.0,0.0,0.0,0.0,0.0,0.0,-13.788,0.0,0.0,0.0
349,0.0,0.0,0.0,-0.006009765625,0.0,0.0,0.0,0.0,0.0,0.0,-0.016,0.0,0.0,0.0,0.0,0.0,0.0,-0.0062571169403248285,0.0,0.0,0.0,0.0,0.0,0.0,-13.788,0.0,0.0,0.0
350,0.0,0.0,0.0,-0.006009765625,0.0,0.0,0.0,0.0,0.0,0.0,-0.014,0.0,0.0,0.0,0.0,0.0,0.0,-0.006261258945770513,0.0,0.0,0.0,0.0,0.0,0.0,-13.904,0.0,0.0,0.0
351,0.0,0.0,0.0,-0.006009765625,0.0,0.0,0.0,0.0,0.0,0.0,-0.014,0.0,0.0,0.0,0.0,0.0,0.0,-0.006231574260469556,0.0,0.0,0.0,0.0,0.0,0.0,-13.904,0.0,0.0,0.0
352,0.0,0.0,0.0,-0.006009765625,0.0,0.0,0.0,0.0,0.0,0.0,-0.014,0.0,0.0,0.0,0.0,0.0,0.0,-0.006234031694915047,0.0,0.0,0.0,0.0,0.0,0.0,-13.904,0.0,0.0,0.0
353,0.0,0.0,0.0,-0.006009765625,0.0,0.0,0.0,0.0,0.0,0.0,-0.001,0.0,0.0,0.0,0.0,0.0,0.0,-0.006325891871712345,0.0,0.0,0.0,0.0,0.0,0.0,-14.084,0.0,0.0,0.0
354,0.0,0.0,0.0,-0.006009765625,0.0,0.0,0.0,0.0,0.0,0.0,-0.001,0.0,0.0,0.0,0.0,0.0,0.0,-0.006280857818010136,0.0,0.0,0.0,0.0,0.0,0.0,-14.084,0.0,0.0,0.0
355,0.0,0.0,0.0,-0.006298828125,0.0,0.0,0.0,0.0,0.0,0.0,-0.012,0.0,0.0,0.0,0.0,0.0,0.0,-0.006571765509224348,0.0,0.0,0.0,0.0,0.0,0.0,-14.224,0.0,0.0,0.0
356,0.0,0.0,0.0,-0.006298828125,0.0,0.0,0.0,0.0,0.0,0.0,-0.012,0.0,0.0,0.0,0.0,0.0,0.0,-0.006558384248651417,0.0,0.0,0.0,0.0,0.0,0.0,-14.224,0.0,0.0,0.0
357,0.0,0.0,0.0,-0.006298828125,0.0,0.0,0.0,0.0,0.0,0.0,-0.012,0.0,0.0,0.0,0.0,0.0,0.0,-0.006554885378191666,0.0,0.0,0.0,0.0,0.0,0.0,-14.224,0.0,0.0,0.0
358,0.0,0.0,0.0,-0.0065869140625,0.0,0.0,0.0,0.0,0.0,0.0,-0.035,0.0,0.0,0.0,0.0,0.0,0.0,-0.006870300987317275,0.0,0.0,0.0,0.0,0.0,0.0,-13.788,0.0,0.0,0.0
359,0.0,0.0,0.0,-0.0065869140625,0.0,0.0,0.0,0.0,0.0,0.0,-0.035,0.0,0.0,0.0,0.0,0.0,0.0,-0.006852299778516586,0.0,0.0,0.0,0.0,0.0,0.0,-13.788,0.0,0.0,0.0
360,0.0,0.0,0.0,-0.0065869140625,0.0,0.0,0.0,0.0,0.0,0.0,-0.035,0.0,0.0,0.0,0.0,0.0,0.0,-0.006854875285977942,0.0,0.0,0.0,0.0,0.0,0.0,-13.788,0.0,0.0,0.0
361,0.0,0.0,0.0,-0.0067314453125,0.0,0.0,0.0,0.0,0.0,0.0,-0.015,0.0,0.0,0.0,0.0,0.0,0.0,-0.007035490644379221,0.0,0.0,0.0,0.0,0.0,0.0,-13.836,0.0,0.0,0.0
362,0.0,0.0,0.0,-0.0067314453125,0.0,0.0,0.0,0.0,0.0,0.0,-0.015,0.0,0.0,0.0,0.0,0.0,0.0,-0.007100498920958791,0.0,0.0,0.0,0.0,0.0,0.0,-13.836,0.0,0.0,0.0
363,0.0,0.0,0.0,-0.0067314453125,0.0,0.0,0.0,0.0,0.0,0.0,-0.015,0.0,0.0,0.0,0.0,0.0,0.0,-0.007092059638271058,0.0,0.0,0.0,0.0,0.0,0.0,-13.836,0.0,0.0,0.0
364,0.0,0.0,0.0,-0.0070205078125,0.0,0.0,0.0,0.0,0.0,0.0,-0.017,0.0,0.0,0.0,0.0,0.0,0.0,-0.007395617147990231,0.0,0.0,0.0,0.0,0.0,0.0,-13.904,0.0,0.0,0.0
365,0.0,0.0,0.0,-0.0070205078125,0.0,0.0,0.0,0.0,0.0,0.0,-0.017,0.0,0.0,0.0,0.0,0.0,0.0,-0.0073369341238715205,0.0,0.0,0.0,0.0,0.0,0.0,-13.904,0.0,0.0,0.0
366,0.0,0.0,0.0,-0.0070205078125,0.0,0.0,0.0,0.0,0.0,0.0,-0.017,0.0,0.0,0.0,0.0,0.0,0.0,-0.007363105130925952,0.0,0.0,0.0,0.0,0.0,0.0,-13.904,0.0,0.0,0.0
367,0.0,0.0,0.0,-0.0070205078125,0.0,0.0,0.0,0.0,0.0,0.0,-0.022,0.0,0.0,0.0,0.0,0.0,0.0,-0.007406806049755167,0.0,0.0,0.0,0.0,0.0,0.0,-13.904,0.0,0.0,0.0
368,0.0,0.0,0.0,-0.0070205078125,0.0,0.0,0.0,0.0,0.0,0.0,-0.022,0.0,0.0,0.0,0.0,0.0,0.0,-0.007346543328100731,0.0,0.0,0.0,0.0,0.0,0.0,-13.904,0.0,0.0,0.0
369,0.0,0.0,0.0,-0.0070205078125,0.0,0.0,0.0,0.0,0.0,0.0,-0.022,0.0,0.0,0.0,0.0,0.0,0.0,-0.007349331890243206,0.0,0.0,0.0,0.0,0.0,0.0,-13.904,0.0,0.0,0.0
370,0.0,0.0,0.0,-0.0071650390625,0.0,0.0,0.0,0.0,0.0,0.0,-0.007,0.0,0.0,0.0,0.0,0.0,0.0,-0.007664312361760083,0.0,0.0,0.0,0.0,0.0,0.0,-14.428,0.0,0.0,0.0
371,0.0,0.0,0.0,-0.0071650390625,0.0,0.0,0.0,0.0,0.0,0.0,-0.007,0.0,0.0,0.0,0.0,0.0,0.0,-0.007628779536631613,0.0,0.0,0.0,0.0,0.0,0.0,-14.428,0.0,0.0,0.0
372,0.0,0.0,0.0,-0.0077421875,0.0,0.0,0.0,0.0,0.0,0.0,-0.04,0.0,0.0,0.0,0.0,0.0,0.0,-0.008147927722614471,0.0,0.0,0.0,0.0,0.0,0.0,-14.064,0.0,0.0,0.0
373,0.0,0.0,0.0,-0.0077421875,0.0,0.0,0.0,0.0,0.0,0.0,-0.04,0.0,0.0,0.0,0.0,0.0,0.0,-0.008107275079499768,0.0,0.0,0.0,0.0,0.0,0.0,-14.064,0.0,0.0,0.0
374,0.0,0.0,0.0,-0.0077421875,0.0,0.0,0.0,0.0,0.0,0.0,-0.04,0.0,0.0,0.0,0.0,0.0,0.0,-0.008106312222245952,0.0,0.0,0.0,0.0,0.0,0.0,-14.064,0.0,0.0,0.0
375,0.0,0.0,0.0,-0.00788671875,0.0,0.0,0.0,0.0,0.0,0.0,-0.04,0.0,0.0,0.0,0.0,0.0,0.0,-0.008335513057545742,0.0,0.0,0.0,0.0,0.0,0.0,-13.764,0.0,0.0,0.0
376,0.0,0.0,0.0,-0.00788671875,0.0,0.0,0.0,0.0,0.0,0.0,-0.04,0.0,0.0,0.0,0.0,0.0,0.0,-0.008551645698412415,0.0,0.0,0.0,0.0,0.0,0.0,-13.764,0.0,0.0,0.0
377,0.0,0.0,0.0,-0.00803125,0.0,0.0,0.0,0.0,0.0,0.0,-0.01,0.0,0.0,0.0,0.0,0.0,0.0,-0.008610949078305907,0.0,0.0,0.0,0.0,0.0,0.0,-13.764,0.0,0.0,0.0
378,0.0,0.0,0.0,-0.00803125,0.0,0.0,0.0,0.0,0.0,0.0,-0.01,0.0,0.0,0.0,0.0,0.0,0.0,-0.008578374616146477,0.0,0.0,0.0,0.0,0.0,0.0,-13.764,0.0,0.0,0.0
379,0.0,0.0,0.0,-0.0083193359375,0.0,0.0,0.0,0.0,0.0,0.0,-0.023,0.0,0.0,0.0,0.0,0.0,0.0,-0.008892282237849264,0.0,0.0,0.0,0.0,0.0,0.0,-14.04,0.0,0.0,0.0
380,0.0,0.0,0.0,-0.0083193359375,0.0,0.0,0.0,0.0,0.0,0.0,-0.023,0.0,0.0,0.0,0.0,0.0,0.0,-0.0087421879737623,0.0,0.0,0.0,0.0,0.0,0.0,-14.04,0.0,0.0,0.0
381,0.0,0.0,0.0,-0.0083193359375,0.0,0.0,0.0,0.0,0.0,0.0,-0.023,0.0,0.0,0.0,0.0,0.0,0.0,-0.008735463313955688,0.0,0.0,0.0,0.0,0.0,0.0,-14.04,0.0,0.0,0.0
382,0.0,0.0,0.0,-0.0086171875,0.0,0.0,0.0,0.0,0.0,0.0,-0.026,0.0,0.0,0.0,0.0,0.0,0.0,-0.009090324478159094,0.0,0.0,0.0,0.0,0.0,0.0,-14.568,0.0,0.0,0.0
383,0.0,0.0,0.0,-0.0086171875,0.0,0.0,0.0,0.0,0.0,0.0,-0.026,0.0,0.0,0.0,0.0,0.0,0.0,-0.009064887507106644,0.0,0.0,0.0,0.0,0.0,0.0,-14.568,0.0,0.0,0.0
384,0.0,0.0,0.0,-0.0086171875,0.0,0.0,0.0,0.0,0.0,0.0,-0.026,0.0,0.0,0.0,0.0,0.0,0.0,-0.009066787165982625,0.0,0.0,0.0,0.0,0.0,0.0,-14.568,0.0,0.0,0.0
385,0.0,0.0,0.0,-0.00876171875,0.0,0.0,0.0,0.0,0.0,0.0,-0.027,0.0,0.0,0.0,0.0,0.0,0.0,-0.009220555503576774,0.0,0.0,0.0,0.0,0.0,0.0,-14.224,0.0,0.0,0.0
386,0.0,0.0,0.0,-0.00876171875,0.0,0.0,0.0,0.0,0.0,0.0,-0.027,0.0,0.0,0.0,0.0,0.0,0.0,-0.00932745878620391,0.0,0.0,0.0,0.0,0.0,0.0,-14.224,0.0,0.0,0.0
387,0.0,0.0,0.0,-0.00876171875,0.0,0.0,0.0,0.0,0.0,0.0,-0.027,0.0,0.0,0.0,0.0,0.0,0.0,-0.009306277578076968,0.0,0.0,0.0,0.0,0.0,0.0,-14.224,0.0,0.0,0.0
388,0.0,0.0,0.0,-0.00905078125,0.0,0.0,0.0,0.0,0.0,0.0,-0.026,0.0,0.0,0.0,0.0,0.0,0.0,-0.009584072109685787,0.0,0.0,0.0,0.0,0.0,0.0,-13.972,0.0,0.0,0.0
389,0.0,0.0,0.0,-0.00905078125,0.0,0.0,0.0,0.0,0.0,0.0,-0.026,0.0,0.0,0.0,0.0,0.0,0.0,-0.00955737970282075,0.0,0.0,0.0,0.0,0.0,0.0,-13.972,0.0,0.0,0.0
390,0.0,0.0,0.0,-0.00905078125,0.0,0.0,0.0,0.0,0.0,0.0,-0.026,0.0,0.0,0.0,0.0,0.0,0.0,-0.009583944269753536,0.0,0.0,0.0,0.0,0.0,0.0,-13.972,0.0,0.0,0.0
391,0.0,0.0,0.0,-0.0093486328125,0.0,0.0,0.0,0.0,0.0,0.0,-0.029,0.0,0.0,0.0,0.0,0.0,0.0,-0.009923131091284808,0.0,0.0,0.0,0.0,0.0,0.0,-13.764,0.0,0.0,0.0
392,0.0,0.0,0.0,-0.0093486328125,0.0,0.0,0.0,0.0,0.0,0.0,-0.029,0.0,0.0,0.0,0.0,0.0,0.0,-0.009878410549925852,0.0,0.0,0.0,0.0,0.0,0.0,-13.764,0.0,0.0,0.0
393,0.0,0.0,0.0,-0.0094931640625,0.0,0.0,0.0,0.0,0.0,0.0,-0.025,0.0,0.0,0.0,0.0,0.0,0.0,-0.01007518134818169,0.0,0.0,0.0,0.0,0.0,0.0,-14.084,0.0,0.0,0.0
394,0.0,0.0,0.0,-0.0094931640625,0.0,0.0,0.0,0.0,0.0,0.0,-0.025,0.0,0.0,0.0,0.0,0.0,0.0,-0.01017109466537269,0.0,0.0,0.0,0.0,0.0,0.0,-14.084,0.0,0.0,0.0
395,0.0,0.0,0.0,-0.0094931640625,0.0,0.0,0.0,0.0,0.0,0.0,-0.025,0.0,0.0,0.0,0.0,0.0,0.0,-0.01014705654991421,0.0,0.0,0.0,0.0,0.0,0.0,-14.084,0.0,0.0,0.0
396,0.0,0.0,0.0,-0.0094931640625,0.0,0.0,0.0,0.0,0.0,0.0,-0.007,0.0,0.0,0.0,0.0,0.0,0.0,-0.010123918196844935,0.0,0.0,0.0,0.0,0.0,0.0,-14.224,0.0,0.0,0.0
397,0.0,0.0,0.0,-0.0094931640625,0.0,0.0,0.0,0.0,0.0,0.0,-0.007,0.0,0.0,0.0,0.0,0.0,0.0,-0.010089150196528503,0.0,0.0,0.0,0.0,0.0,0.0,-14.224,0.0,0.0,0.0
398,0.0,0.0,0.0,-0.0094931640625,0.0,0.0,0.0,0.0,0.0,0.0,-0.007,0.0,0.0,0.0,0.0,0.0,0.0,-0.010024306311766259,0.0,0.0,0.0,0.0,0.0,0.0,-14.224,0.0,0.0,0.0
399,0.0,0.0,0.0,-0.00978125,0.0,0.0,0.0,0.0,0.0,0.0,-0.007,0.0,0.0,0.0,0.0,0.0,0.0,-0.01033980597017368,0.0,0.0,0.0,0.0,0.0,0.0,-14.636,0.0,0.0,0.0
400,0.0,0.0,0.0,-0.00978125,0.0,0.0,0.0,0.0,0.0,0.0,-0.007,0.0,0.0,0.0,0.0,0.0,0.0,-0.010278837571783642,0.0,0.0,0.0,0.0,0.0,0.0,-14.636,0.0,0.0,0.0
401,0.0,0.0,0.0,-0.00978125,0.0,0.0,0.0,0.0,0.0,0.0,-0.007,0.0,0.0,0.0,0.0,0.0,0.0,-0.010321028229892818,0.0,0.0,0.0,0.0,0.0,0.0,-14.636,0.0,0.0,0.0
402,0.0,0.0,0.0,-0.010359375,0.0,0.0,0.0,0.0,0.0,0.0,-0.049,0.0,0.0,0.0,0.0,0.0,0.0,-0.010979675171133348,0.0,0.0,0.0,0.0,0.0,0.0,-14.544,0.0,0.0,0.0
403,0.0,0.0,0.0,-0.010359375,0.0,0.0,0.0,0.0,0.0,0.0,-0.049,0.0,0.0,0.0,0.0,0.0,0.0,-0.011422022050775301,0.0,0.0,0.0,0.0,0.0,0.0,-14.544,0.0,0.0,0.0
404,0.0,0.0,0.0,-0.0106474609375,0.0,0.0,0.0,0.0,0.0,0.0,-0.054,0.0,0.0,0.0,0.0,0.0,0.0,-0.011684791078295323,0.0,0.0,0.0,0.0,0.0,0.0,-13.836,0.0,0.0,0.0
405,0.0,0.0,0.0,-0.0106474609375,0.0,0.0,0.0,0.0,0.0,0.0,-0.054,0.0,0.0,0.0,0.0,0.0,0.0,-0.011498545179539058,0.0,0.0,0.0,0.0,0.0,0.0,-13.836,0.0,0.0,0.0
406,0.0,0.0,0.0,-0.0106474609375,0.0,0.0,0.0,0.0,0.0,0.0,-0.01,0.0,0.0,0.0,0.0,0.0,0.0,-0.011538108169755626,0.0,0.0,0.0,0.0,0.0,0.0,-13.88,0.0,0.0,0.0
407,0.0,0.0,0.0,-0.0106474609375,0.0,0.0,0.0,0.0,0.0,0.0,-0.01,0.0,0.0,0.0,0.0,0.0,0.0,-0.011341299759794235,0.0,0.0,0.0,0.0,0.0,0.0,-13.88,0.0,0.0,0.0
408,0.0,0.0,0.0,-0.0107919921875,0.0,0.0,0.0,0.0,0.0,0.0,-0.011,0.0,0.0,0.0,0.0,0.0,0.0,-0.011460521130091396,0.0,0.0,0.0,0.0,0.0,0.0,-14.016,0.0,0.0,0.0
409,0.0,0.0,0.0,-0.0107919921875,0.0,0.0,0.0,0.0,0.0,0.0,-0.011,0.0,0.0,0.0,0.0,0.0,0.0,-0.011529503279721366,0.0,0.0,0.0,0.0,0.0,0.0,-14.016,0.0,0.0,0.0
410,0.0,0.0,0.0,-0.0107919921875,0.0,0.0,0.0,0.0,0.0,0.0,-0.011,0.0,0.0,0.0,0.0,0.0,0.0,-0.011547070431457763,0.0,0.0,0.0,0.0,0.0,0.0,-14.016,0.0,0.0,0.0
411,0.0,0.0,0.0,-0.0110810546875,0.0,0.0,0.0,0.0,0.0,0.0,-0.011,0.0,0.0,0.0,0.0,0.0,0.0,-0.011899740714073312,0.0,0.0,0.0,0.0,0.0,0.0,-15.344,0.0,0.0,0.0
412,0.0,0.0,0.0,-0.0110810546875,0.0,0.0,0.0,0.0,0.0,0.0,-0.011,0.0,0.0,0.0,0.0,0.0,0.0,-0.011813298354313126,0.0,0.0,0.0,0.0,0.0,0.0,-15.344,0.0,0.0,0.0
413,0.0,0.0,0.0,-0.0116669921875,0.0,0.0,0.0,0.0,0.0,0.0,-0.047,0.0,0.0,0.0,0.0,0.0,0.0,-0.012418255108489536,0.0,0.0,0.0,0.0,0.0,0.0,-15.116,0.0,0.0,0.0
414,0.0,0.0,0.0,-0.0116669921875,0.0,0.0,0.0,0.0,0.0,0.0,-0.047,0.0,0.0,0.0,0.0,0.0,0.0,-0.012445027315764075,0.0,0.0,0.0,0.0,0.0,0.0,-15.116,0.0,0.0,0.0
415,0.0,0.0,0.0,-0.0116669921875,0.0,0.0,0.0,0.0,0.0,0.0,-0.047,0.0,0.0,0.0,0.0,0.0,0.0,-0.012448375371164496,0.0,0.0,0.0,0.0,0.0,0.0,-15.116,0.0,0.0,0.0
416,0.0,0.0,0.0,-0.0118115234375,0.0,0.0,0.0,0.0,0.0,0.0,-0.045,0.0,0.0,0.0,0.0,0.0,0.0,-0.01248583034727921,0.0,0.0,0.0,0.0,0.0,0.0,-14.408,0.0,0.0,0.0
417,0.0,0.0,0.0,-0.0118115234375,0.0,0.0,0.0,0.0,0.0,0.0,-0.045,0.0,0.0,0.0,0.0,0.0,0.0,-0.01257633153882873,0.0,0.0,0.0,0.0,0.0,0.0,-14.408,0.0,0.0,0.0
418,0.0,0.0,0.0,-0.0122451171875,0.0,0.0,0.0,0.0,0.0,0.0,-0.023,0.0,0.0,0.0,0.0,0.0,0.0,-0.013097650652552485,0.0,0.0,0.0,0.0,0.0,0.0,-14.224,0.0,0.0,0.0
419,0.0,0.0,0.0,-0.0122451171875,0.0,0.0,0.0,0.0,0.0,0.0,-0.023,0.0,0.0,0.0,0.0,0.0,0.0,-0.01299413207418716,0.0,0.0,0.0,0.0,0.0,0.0,-14.224,0.0,0.0,0.0
420,0.0,0.0,0.0,-0.0122451171875,0.0,0.0,0.0,0.0,0.0,0.0,-0.023,0.0,0.0,0.0,0.0,0.0,0.0,-0.012930225104098537,0.0,0.0,0.0,0.0,0.0,0.0,-14.224,0.0,0.0,0.0
421,0.0,0.0,0.0,-0.012822265625,0.0,0.0,0.0,0.0,0.0,0.0,-0.056,0.0,0.0,0.0,0.0,0.0,0.0,-0.013522167835827497,0.0,0.0,0.0,0.0,0.0,0.0,-14.292,0.0,0.0,0.0
422,0.0,0.0,0.0,-0.012822265625,0.0,0.0,0.0,0.0,0.0,0.0,-0.056,0.0,0.0,0.0,0.0,0.0,0.0,-0.013570558372472124,0.0,0.0,0.0,0.0,0.0,0.0,-14.292,0.0,0.0,0.0
423,0.0,0.0,0.0,-0.012822265625,0.0,0.0,0.0,0.0,0.0,0.0,-0.056,0.0,0.0,0.0,0.0,0.0,0.0,-0.013596677945834029,0.0,0.0,0.0,0.0,0.0,0.0,-14.292,0.0,0.0,0.0
424,0.0,0.0,0.0,-0.012822265625,0.0,0.0,0.0,0.0,0.0,0.0,-0.029,0.0,0.0,0.0,0.0,0.0,0.0,-0.01380868479523945,0.0,0.0,0.0,0.0,0.0,0.0,-15.092,0.0,0.0,0.0
425,0.0,0.0,0.0,-0.012822265625,0.0,0.0,0.0,0.0,0.0,0.0,-0.029,0.0,0.0,0.0,0.0,0.0,0.0,-0.013540792231630244,0.0,0.0,0.0,0.0,0.0,0.0,-15.092,0.0,0.0,0.0
426,0.0,0.0,0.0,-0.012822265625,0.0,0.0,0.0,0.0,0.0,0.0,-0.029,0.0,0.0,0.0,0.0,0.0,0.0,-0.013626840145437252,0.0,0.0,0.0,0.0,0.0,0.0,-15.092,0.0,0.0,0.0
427,0.0,0.0,0.0,-0.013111328125,0.0,0.0,0.0,0.0,0.0,0.0,-0.005,0.0,0.0,0.0,0.0,0.0,0.0,-0.013888943583764258,0.0,0.0,0.0,0.0,0.0,0.0,-15.388,0.0,0.0,0.0
428,0.0,0.0,0.0,-0.013111328125,0.0,0.0,0.0,0.0,0.0,0.0,-0.005,0.0,0.0,0.0,0.0,0.0,0.0,-0.0138368421686766,0.0,0.0,0.0,0.0,0.0,0.0,-15.388,0.0,0.0,0.0
429,0.0,0.0,0.0,-0.013111328125,0.0,0.0,0.0,0.0,0.0,0.0,-0.005,0.0,0.0,0.0,0.0,0.0,0.0,-0.014009529580760694,0.0,0.0,0.0,0.0,0.0,0.0,-15.388,0.0,0.0,0.0
430,0.0,0.0,0.0,-0.0135439453125,0.0,0.0,0.0,0.0,0.0,0.0,-0.037,0.0,0.0,0.0,0.0,0.0,0.0,-0.014433294462037477,0.0,0.0,0.0,0.0,0.0,0.0,-14.748,0.0,0.0,0.0
431,0.0,0.0,0.0,-0.0135439453125,0.0,0.0,0.0,0.0,0.0,0.0,-0.037,0.0,0.0,0.0,0.0,0.0,0.0,-0.014294150583140292,0.0,0.0,0.0,0.0,0.0,0.0,-14.748,0.0,0.0,0.0
432,0.0,0.0,0.0,-0.0135439453125,0.0,0.0,0.0,0.0,0.0,0.0,-0.037,0.0,0.0,0.0,0.0,0.0,0.0,-0.014295150383601102,0.0,0.0,0.0,0.0,0.0,0.0,-14.748,0.0,0.0,0.0
433,0.0,0.0,0.0,-0.0138330078125,0.0,0.0,0.0,0.0,0.0,0.0,-0.042,0.0,0.0,0.0,0.0,0.0,0.0,-0.01493369313453611,0.0,0.0,0.0,0.0,0.0,0.0,-14.656,0.0,0.0,0.0
434,0.0,0.0,0.0,-0.0138330078125,0.0,0.0,0.0,0.0,0.0,0.0,-0.042,0.0,0.0,0.0,0.0,0.0,0.0,-0.014819987914473455,0.0,0.0,0.0,0.0,0.0,0.0,-14.656,0.0,0.0,0.0
435,0.0,0.0,0.0,-0.0141220703125,0.0,0.0,0.0,0.0,0.0,0.0,-0.039,0.0,0.0,0.0,0.0,0.0,0.0,-0.015087678783627644,0.0,0.0,0.0,0.0,0.0,0.0,-14.248,0.0,0.0,0.0
436,0.0,0.0,0.0,-0.0141220703125,0.0,0.0,0.0,0.0,0.0,0.0,-0.039,0.0,0.0,0.0,0.0,0.0,0.0,-0.014890473711245954,0.0,0.0,0.0,0.0,0.0,0.0,-14.248,0.0,0.0,0.0
437,0.0,0.0,0.0,-0.0141220703125,0.0,0.0,0.0,0.0,0.0,0.0,-0.039,0.0,0.0,0.0,0.0,0.0,0.0,-0.014898185564711884,0.0,0.0,0.0,0.0,0.0,0.0,-14.248,0.0,0.0,0.0
438,0.0,0.0,0.0,-0.0142666015625,0.0,0.0,0.0,0.0,0.0,0.0,-0.011,0.0,0.0,0.0,0.0,0.0,0.0,-0.015245441573167392,0.0,0.0,0.0,0.0,0.0,0.0,-14.656,0.0,0.0,0.0
439,0.0,0.0,0.0,-0.0142666015625,0.0,0.0,0.0,0.0,0.0,0.0,-0.011,0.0,0.0,0.0,0.0,0.0,0.0,-0.01508278894613648,0.0,0.0,0.0,0.0,0.0,0.0,-14.656,0.0,0.0,0.0
440,0.0,0.0,0.0,-0.014564453125,0.0,0.0,0.0,0.0,0.0,0.0,-0.022,0.0,0.0,0.0,0.0,0.0,0.0,-0.015742413159904392,0.0,0.0,0.0,0.0,0.0,0.0,-14.956,0.0,0.0,0.0
441,0.0,0.0,0.0,-0.014564453125,0.0,0.0,0.0,0.0,0.0,0.0,-0.022,0.0,0.0,0.0,0.0,0.0,0.0,-0.01550494016240296,0.0,0.0,0.0,0.0,0.0,0.0,-14.956,0.0,0.0,0.0
442,0.0,0.0,0.0,-0.014564453125,0.0,0.0,0.0,0.0,0.0,0.0,-0.022,0.0,0.0,0.0,0.0,0.0,0.0,-0.01581964976334012,0.0,0.0,0.0,0.0,0.0,0.0,-14.956,0.0,0.0,0.0
443,0.0,0.0,0.0,-0.0148525390625,0.0,0.0,0.0,0.0,0.0,0.0,-0.038,0.0,0.0,0.0,0.0,0.0,0.0,-0.016195576060815283,0.0,0.0,0.0,0.0,0.0,0.0,-14.908,0.0,0.0,0.0
444,0.0,0.0,0.0,-0.0148525390625,0.0,0.0,0.0,0.0,0.0,0.0,-0.038,0.0,0.0,0.0,0.0,0.0,0.0,-0.015837657357027964,0.0,0.0,0.0,0.0,0.0,0.0,-14.908,0.0,0.0,0.0
445,0.0,0.0,0.0,-0.0151416015625,0.0,0.0,0.0,0.0,0.0,0.0,-0.025,0.0,0.0,0.0,0.0,0.0,0.0,-0.016110690963457804,0.0,0.0,0.0,0.0,0.0,0.0,-14.748,0.0,0.0,0.0
446,0.0,0.0,0.0,-0.0151416015625,0.0,0.0,0.0,0.0,0.0,0.0,-0.025,0.0,0.0,0.0,0.0,0.0,0.0,-0.016214491943640393,0.0,0.0,0.0,0.0,0.0,0.0,-14.748,0.0,0.0,0.0
447,0.0,0.0,0.0,-0.01586328125,0.0,0.0,0.0,0.0,0.0,0.0,-0.051,0.0,0.0,0.0,0.0,0.0,0.0,-0.016831896647489714,0.0,0.0,0.0,0.0,0.0,0.0,-14.496,0.0,0.0,0.0
448,0.0,0.0,0.0,-0.01586328125,0.0,0.0,0.0,0.0,0.0,0.0,-0.051,0.0,0.0,0.0,0.0,0.0,0.0,-0.016817457137963315,0.0,0.0,0.0,0.0,0.0,0.0,-14.496,0.0,0.0,0.0
449,0.0,0.0,0.0,-0.01586328125,0.0,0.0,0.0,0.0,0.0,0.0,-0.051,0.0,0.0,0.0,0.0,0.0,0.0,-0.01708750697506964,0.0,0.0,0.0,0.0,0.0,0.0,-14.496,0.0,0.0,0.0
450,0.0,0.0,0.0,-0.0160078125,0.0,0.0,0.0,0.0,0.0,0.0,-0.048,0.0,0.0,0.0,0.0,0.0,0.0,-0.01712775209212059,0.0,0.0,0.0,0.0,0.0,0.0,-14.68,0.0,0.0,0.0
451,0.0,0.0,0.0,-0.0160078125,0.0,0.0,0.0,0.0,0.0,0.0,-0.048,0.0,0.0,0.0,0.0,0.0,0.0,-0.016991404901988586,0.0,0.0,0.0,0.0,0.0,0.0,-14.68,0.0,0.0,0.0
452,0.0,0.0,0.0,-0.01615234375,0.0,0.0,0.0,0.0,0.0,0.0,-0.017,0.0,0.0,0.0,0.0,0.0,0.0,-0.017258065296907356,0.0,0.0,0.0,0.0,0.0,0.0,-14.932,0.0,0.0,0.0
453,0.0,0.0,0.0,-0.01615234375,0.0,0.0,0.0,0.0,0.0,0.0,-0.017,0.0,0.0,0.0,0.0,0.0,0.0,-0.017141640487479272,0.0,0.0,0.0,0.0,0.0,0.0,-14.932,0.0,0.0,0.0
454,0.0,0.0,0.0,-0.01615234375,0.0,0.0,0.0,0.0,0.0,0.0,-0.017,0.0,0.0,0.0,0.0,0.0,0.0,-0.017241992385423545,0.0,0.0,0.0,0.0,0.0,0.0,-14.932,0.0,0.0,0.0
455,0.0,0.0,0.0,-0.0164404296875,0.0,0.0,0.0,0.0,0.0,0.0,-0.023,0.0,0.0,0.0,0.0,0.0,0.0,-0.01734522339964114,0.0,0.0,0.0,0.0,0.0,0.0,-15.252,0.0,0.0,0.0
456,0.0,0.0,0.0,-0.0164404296875,0.0,0.0,0.0,0.0,0.0,0.0,-0.023,0.0,0.0,0.0,0.0,0.0,0.0,-0.017318955952737435,0.0,0.0,0.0,0.0,0.0,0.0,-15.252,0.0,0.0,0.0
457,0.0,0.0,0.0,-0.0164404296875,0.0,0.0,0.0,0.0,0.0,0.0,-0.023,0.0,0.0,0.0,0.0,0.0,0.0,-0.017524037667774793,0.0,0.0,0.0,0.0,0.0,0.0,-15.252,0.0,0.0,0.0
458,0.0,0.0,0.0,-0.0168740234375,0.0,0.0,0.0,0.0,0.0,0.0,-0.041,0.0,0.0,0.0,0.0,0.0,0.0,-0.018059895995311107,0.0,0.0,0.0,0.0,0.0,0.0,-15.092,0.0,0.0,0.0
459,0.0,0.0,0.0,-0.0168740234375,0.0,0.0,0.0,0.0,0.0,0.0,-0.041,0.0,0.0,0.0,0.0,0.0,0.0,-0.017963626527563562,0.0,0.0,0.0,0.0,0.0,0.0,-15.092,0.0,0.0,0.0
460,0.0,0.0,0.0,-0.0168740234375,0.0,0.0,0.0,0.0,0.0,0.0,-0.041,0.0,0.0,0.0,0.0,0.0,0.0,-0.017737138022238145,0.0,0.0,0.0,0.0,0.0,0.0,-15.092,0.0,0.0,0.0
461,0.0,0.0,0.0,-0.0170185546875,0.0,0.0,0.0,0.0,0.0,0.0,-0.032,0.0,0.0,0.0,0.0,0.0,0.0,-0.0180861977786572,0.0,0.0,0.0,0.0,0.0,0.0,-14.772,0.0,0.0,0.0
462,0.0,0.0,0.0,-0.0170185546875,0.0,0.0,0.0,0.0,0.0,0.0,-0.032,0.0,0.0,0.0,0.0,0.0,0.0,-0.017941070840455188,0.0,0.0,0.0,0.0,0.0,0.0,-14.772,0.0,0.0,0.0
463,0.0,0.0,0.0,-0.0170185546875,0.0,0.0,0.0,0.0,0.0,0.0,-0.032,0.0,0.0,0.0,0.0,0.0,0.0,-0.017941935573285307,0.0,0.0,0.0,0.0,0.0,0.0,-14.772,0.0,0.0,0.0
464,0.0,0.0,0.0,-0.017306640625,0.0,0.0,0.0,0.0,0.0,0.0,-0.014,0.0,0.0,0.0,0.0,0.0,0.0,-0.01835502059022944,0.0,0.0,0.0,0.0,0.0,0.0,-14.704,0.0,0.0,0.0
465,0.0,0.0,0.0,-0.017306640625,0.0,0.0,0.0,0.0,0.0,0.0,-0.014,0.0,0.0,0.0,0.0,0.0,0.0,-0.018227109988296762,0.0,0.0,0.0,0.0,0.0,0.0,-14.704,0.0,0.0,0.0
466,0.0,0.0,0.0,-0.017595703125,0.0,0.0,0.0,0.0,0.0,0.0,-0.026,0.0,0.0,0.0,0.0,0.0,0.0,-0.018887313648928122,0.0,0.0,0.0,0.0,0.0,0.0,-15.184,0.0,0.0,0.0
467,0.0,0.0,0.0,-0.017595703125,0.0,0.0,0.0,0.0,0.0,0.0,-0.026,0.0,0.0,0.0,0.0,0.0,0.0,-0.01870555108044794,0.0,0.0,0.0,0.0,0.0,0.0,-15.184,0.0,0.0,0.0
468,0.0,0.0,0.0,-0.017595703125,0.0,0.0,0.0,0.0,0.0,0.0,-0.026,0.0,0.0,0.0,0.0,0.0,0.0,-0.018660665640886503,0.0,0.0,0.0,0.0,0.0,0.0,-15.184,0.0,0.0,0.0
469,0.0,0.0,0.0,-0.0177490234375,0.0,0.0,0.0,0.0,0.0,0.0,-0.031,0.0,0.0,0.0,0.0,0.0,0.0,-0.018805234889028345,0.0,0.0,0.0,0.0,0.0,0.0,-15.16,0.0,0.0,0.0
470,0.0,0.0,0.0,-0.0177490234375,0.0,0.0,0.0,0.0,0.0,0.0,-0.031,0.0,0.0,0.0,0.0,0.0,0.0,-0.01870341373558614,0.0,0.0,0.0,0.0,0.0,0.0,-15.16,0.0,0.0,0.0
471,0.0,0.0,0.0,-0.0177490234375,0.0,0.0,0.0,0.0,0.0,0.0,-0.031,0.0,0.0,0.0,0.0,0.0,0.0,-0.018884027408085247,0.0,0.0,0.0,0.0,0.0,0.0,-15.16,0.0,0.0,0.0
472,0.0,0.0,0.0,-0.0180380859375,0.0,0.0,0.0,0.0,0.0,0.0,-0.012,0.0,0.0,0.0,0.0,0.0,0.0,-0.019165204576690128,0.0,0.0,0.0,0.0,0.0,0.0,-15.64,0.0,0.0,0.0
473,0.0,0.0,0.0,-0.0180380859375,0.0,0.0,0.0,0.0,0.0,0.0,-0.012,0.0,0.0,0.0,0.0,0.0,0.0,-0.019004375532182812,0.0,0.0,0.0,0.0,0.0,0.0,-15.64,0.0,0.0,0.0
474,0.0,0.0,0.0,-0.0180380859375,0.0,0.0,0.0,0.0,0.0,0.0,-0.012,0.0,0.0,0.0,0.0,0.0,0.0,-0.019227619792801073,0.0,0.0,0.0,0.0,0.0,0.0,-15.64,0.0,0.0,0.0
475,0.0,0.0,0.0,-0.018615234375,0.0,0.0,0.0,0.0,0.0,0.0,-0.044,0.0,0.0,0.0,0.0,0.0,0.0,-0.019988749576380017,0.0,0.0,0.0,0.0,0.0,0.0,-14.864,0.0,0.0,0.0
476,0.0,0.0,0.0,-0.018615234375,0.0,0.0,0.0,0.0,0.0,0.0,-0.044,0.0,0.0,0.0,0.0,0.0,0.0,-0.019780328607071507,0.0,0.0,0.0,0.0,0.0,0.0,-14.864,0.0,0.0,0.0
477,0.0,0.0,0.0,-0.018615234375,0.0,0.0,0.0,0.0,0.0,0.0,-0.035,0.0,0.0,0.0,0.0,0.0,0.0,-0.01987229370308995,0.0,0.0,0.0,0.0,0.0,0.0,-14.68,0.0,0.0,0.0
478,0.0,0.0,0.0,-0.018615234375,0.0,0.0,0.0,0.0,0.0,0.0,-0.035,0.0,0.0,0.0,0.0,0.0,0.0,-0.019764033098038026,0.0,0.0,0.0,0.0,0.0,0.0,-14.68,0.0,0.0,0.0
479,0.0,0.0,0.0,-0.018615234375,0.0,0.0,0.0,0.0,0.0,0.0,-0.035,0.0,0.0,0.0,0.0,0.0,0.0,-0.019732495225374003,0.0,0.0,0.0,0.0,0.0,0.0,-14.68,0.0,0.0,0.0
480,0.0,0.0,0.0,-0.018615234375,0.0,0.0,0.0,0.0,0.0,0.0,-0.002,0.0,0.0,0.0,0.0,0.0,0.0,-0.019771445947173606,0.0,0.0,0.0,0.0,0.0,0.0,-14.888,0.0,0.0,0.0
481,0.0,0.0,0.0,-0.018615234375,0.0,0.0,0.0,0.0,0.0,0.0,-0.002,0.0,0.0,0.0,0.0,0.0,0.0,-0.019772541315261283,0.0,0.0,0.0,0.0,0.0,0.0,-14.888,0.0,0.0,0.0
482,0.0,0.0,0.0,-0.018904296875,0.0,0.0,0.0,0.0,0.0,0.0,-0.016,0.0,0.0,0.0,0.0,0.0,0.0,-0.020244626973567822,0.0,0.0,0.0,0.0,0.0,0.0,-15.32,0.0,0.0,0.0
483,0.0,0.0,0.0,-0.018904296875,0.0,0.0,0.0,0.0,0.0,0.0,-0.016,0.0,0.0,0.0,0.0,0.0,0.0,-0.02041028331141331,0.0,0.0,0.0,0.0,0.0,0.0,-15.32,0.0,0.0,0.0
484,0.0,0.0,0.0,-0.018904296875,0.0,0.0,0.0,0.0,0.0,0.0,-0.016,0.0,0.0,0.0,0.0,0.0,0.0,-0.02017096343288499,0.0,0.0,0.0,0.0,0.0,0.0,-15.32,0.0,0.0,0.0
485,0.0,0.0,0.0,-0.019048828125,0.0,0.0,0.0,0.0,0.0,0.0,-0.022,0.0,0.0,0.0,0.0,0.0,0.0,-0.02075306161310045,0.0,0.0,0.0,0.0,0.0,0.0,-15.528,0.0,0.0,0.0
486,0.0,0.0,0.0,-0.019048828125,0.0,0.0,0.0,0.0,0.0,0.0,-0.022,0.0,0.0,0.0,0.0,0.0,0.0,-0.02036942536643646,0.0,0.0,0.0,0.0,0.0,0.0,-15.528,0.0,0.0,0.0
487,0.0,0.0,0.0,-0.0193369140625,0.0,0.0,0.0,0.0,0.0,0.0,-0.017,0.0,0.0,0.0,0.0,0.0,0.0,-0.020547856124629737,0.0,0.0,0.0,0.0,0.0,0.0,-15.252,0.0,0.0,0.0
488,0.0,0.0,0.0,-0.0193369140625,0.0,0.0,0.0,0.0,0.0,0.0,-0.017,0.0,0.0,0.0,0.0,0.0,0.0,-0.02057748766846641,0.0,0.0,0.0,0.0,0.0,0.0,-15.252,0.0,0.0,0.0
489,0.0,0.0,0.0,-0.0193369140625,0.0,0.0,0.0,0.0,0.0,0.0,-0.017,0.0,0.0,0.0,0.0,0.0,0.0,-0.020715496159232193,0.0,0.0,0.0,0.0,0.0,0.0,-15.252,0.0,0.0,0.0
490,0.0,0.0,0.0,-0.0194814453125,0.0,0.0,0.0,0.0,0.0,0.0,-0.024,0.0,0.0,0.0,0.0,0.0,0.0,-0.02108835498424354,0.0,0.0,0.0,0.0,0.0,0.0,-14.864,0.0,0.0,0.0
491,0.0,0.0,0.0,-0.0194814453125,0.0,0.0,0.0,0.0,0.0,0.0,-0.024,0.0,0.0,0.0,0.0,0.0,0.0,-0.02057015666227018,0.0,0.0,0.0,0.0,0.0,0.0,-14.864,0.0,0.0,0.0
492,0.0,0.0,0.0,-0.0199150390625,0.0,0.0,0.0,0.0,0.0,0.0,-0.028,0.0,0.0,0.0,0.0,0.0,0.0,-0.02103092109846469,0.0,0.0,0.0,0.0,0.0,0.0,-14.956,0.0,0.0,0.0
493,0.0,0.0,0.0,-0.0199150390625,0.0,0.0,0.0,0.0,0.0,0.0,-0.028,0.0,0.0,0.0,0.0,0.0,0.0,-0.021675229237359178,0.0,0.0,0.0,0.0,0.0,0.0,-14.956,0.0,0.0,0.0
494,0.0,0.0,0.0,-0.0200595703125,0.0,0.0,0.0,0.0,0.0,0.0,-0.03,0.0,0.0,0.0,0.0,0.0,0.0,-0.02260329461742683,0.0,0.0,0.0,0.0,0.0,0.0,-14.976,0.0,0.0,0.0
495,0.0,0.0,0.0,-0.0200595703125,0.0,0.0,0.0,0.0,0.0,0.0,-0.03,0.0,0.0,0.0,0.0,0.0,0.0,-0.02196014328387447,0.0,0.0,0.0,0.0,0.0,0.0,-14.976,0.0,0.0,0.0
496,0.0,0.0,0.0,-0.020203125,0.0,0.0,0.0,0.0,0.0,0.0,-0.019,0.0,0.0,0.0,0.0,0.0,0.0,-0.02165685318974604,0.0,0.0,0.0,0.0,0.0,0.0,-15.344,0.0,0.0,0.0
497,0.0,0.0,0.0,-0.020203125,0.0,0.0,0.0,0.0,0.0,0.0,-0.019,0.0,0.0,0.0,0.0,0.0,0.0,-0.0214761466119598,0.0,0.0,0.0,0.0,0.0,0.0,-15.344,0.0,0.0,0.0
498,0.0,0.0,0.0,-0.02063671875,0.0,0.0,0.0,0.0,0.0,0.0,-0.03,0.0,0.0,0.0,0.0,0.0,0.0,-0.022223291227049576,0.0,0.0,0.0,0.0,0.0,0.0,-15.368,0.0,0.0,0.0
499,0.0,0.0,0.0,-0.02063671875,0.0,0.0,0.0,0.0,0.0,0.0,-0.03,0.0,0.0,0.0,0.0,0.0,0.0,-0.02198214943776827,0.0,0.0,0.0,0.0,0.0,0.0,-15.368,0.0,0.0,0.0
500,0.0,0.0,0.0,-0.02063671875,0.0,0.0,0.0,0.0,0.0,0.0,-0.03,0.0,0.0,0.0,0.0,0.0,0.0,-0.02187867499084128,0.0,0.0,0.0,0.0,0.0,0.0,-15.368,0.0,0.0,0.0
501,0.0,0.0,0.0,-0.0213671875,0.0,0.0,0.0,0.0,0.0,0.0,-0.054,0.0,0.0,0.0,0.0,0.0,0.0,-0.0226678964601198,0.0,0.0,0.0,0.0,0.0,0.0,-15.388,0.0,0.0,0.0
502,0.0,0.0,0.0,-0.0213671875,0.0,0.0,0.0,0.0,0.0,0.0,-0.054,0.0,0.0,0.0,0.0,0.0,0.0,-0.02261415220377289,0.0,0.0,0.0,0.0,0.0,0.0,-15.388,0.0,0.0,0.0
503,0.0,0.0,0.0,-0.02208984375,0.0,0.0,0.0,0.0,0.0,0.0,-0.073,0.0,0.0,0.0,0.0,0.0,0.0,-0.023477689803724885,0.0,0.0,0.0,0.0,0.0,0.0,-15.368,0.0,0.0,0.0
504,0.0,0.0,0.0,-0.02208984375,0.0,0.0,0.0,0.0,0.0,0.0,-0.073,0.0,0.0,0.0,0.0,0.0,0.0,-0.023591989521298814,0.0,0.0,0.0,0.0,0.0,0.0,-15.368,0.0,0.0,0.0
505,0.0,0.0,0.0,-0.02208984375,0.0,0.0,0.0,0.0,0.0,0.0,-0.073,0.0,0.0,0.0,0.0,0.0,0.0,-0.023474746406421495,0.0,0.0,0.0,0.0,0.0,0.0,-15.368,0.0,0.0,0.0
506,0.0,0.0,0.0,-0.0223779296875,0.0,0.0,0.0,0.0,0.0,0.0,-0.06,0.0,0.0,0.0,0.0,0.0,0.0,-0.023691071710721913,0.0,0.0,0.0,0.0,0.0,0.0,-14.704,0.0,0.0,0.0
507,0.0,0.0,0.0,-0.0223779296875,0.0,0.0,0.0,0.0,0.0,0.0,-0.06,0.0,0.0,0.0,0.0,0.0,0.0,-0.023698160963218008,0.0,0.0,0.0,0.0,0.0,0.0,-14.704,0.0,0.0,0.0
508,0.0,0.0,0.0,-0.0223779296875,0.0,0.0,0.0,0.0,0.0,0.0,-0.06,0.0,0.0,0.0,0.0,0.0,0.0,-0.023658011721155926,0.0,0.0,0.0,0.0,0.0,0.0,-14.704,0.0,0.0,0.0
509,0.0,0.0,0.0,-0.0225224609375,0.0,0.0,0.0,0.0,0.0,0.0,-0.012,0.0,0.0,0.0,0.0,0.0,0.0,-0.023865204271046613,0.0,0.0,0.0,0.0,0.0,0.0,-15.228,0.0,0.0,0.0
510,0.0,0.0,0.0,-0.0225224609375,0.0,0.0,0.0,0.0,0.0,0.0,-0.012,0.0,0.0,0.0,0.0,0.0,0.0,-0.02392760219991431,0.0,0.0,0.0,0.0,0.0,0.0,-15.228,0.0,0.0,0.0
511,0.0,0.0,0.0,-0.0229560546875,0.0,0.0,0.0,0.0,0.0,0.0,-0.028,0.0,0.0,0.0,0.0,0.0,0.0,-0.0244019895669324,0.0,0.0,0.0,0.0,0.0,0.0,-15.344,0.0,0.0,0.0
512,0.0,0.0,0.0,-0.0229560546875,0.0,0.0,0.0,0.0,0.0,0.0,-0.028,0.0,0.0,0.0,0.0,0.0,0.0,-0.024680889442976025,0.0,0.0,0.0,0.0,0.0,0.0,-15.344,0.0,0.0,0.0
513,0.0,0.0,0.0,-0.0229560546875,0.0,0.0,0.0,0.0,0.0,0.0,-0.028,0.0,0.0,0.0,0.0,0.0,0.0,-0.024406948075317788,0.0,0.0,0.0,0.0,0.0,0.0,-15.344,0.0,0.0,0.0
514,0.0,0.0,0.0,-0.0231005859375,0.0,0.0,0.0,0.0,0.0,0.0,-0.039,0.0,0.0,0.0,0.0,0.0,0.0,-0.02448117601085395,0.0,0.0,0.0,0.0,0.0,0.0,-15.252,0.0,0.0,0.0
515,0.0,0.0,0.0,-0.0231005859375,0.0,0.0,0.0,0.0,0.0,0.0,-0.039,0.0,0.0,0.0,0.0,0.0,0.0,-0.024288935807716294,0.0,0.0,0.0,0.0,0.0,0.0,-15.252,0.0,0.0,0.0
516,0.0,0.0,0.0,-0.0231005859375,0.0,0.0,0.0,0.0,0.0,0.0,-0.039,0.0,0.0,0.0,0.0,0.0,0.0,-0.02437875467289674,0.0,0.0,0.0,0.0,0.0,0.0,-15.252,0.0,0.0,0.0
517,0.0,0.0,0.0,-0.023388671875,0.0,0.0,0.0,0.0,0.0,0.0,-0.015,0.0,0.0,0.0,0.0,0.0,0.0,-0.02526865115043293,0.0,0.0,0.0,0.0,0.0,0.0,-15.64,0.0,0.0,0.0
518,0.0,0.0,0.0,-0.023388671875,0.0,0.0,0.0,0.0,0.0,0.0,-0.015,0.0,0.0,0.0,0.0,0.0,0.0,-0.025248927937795745,0.0,0.0,0.0,0.0,0.0,0.0,-15.64,0.0,0.0,0.0
519,0.0,0.0,0.0,-0.024263671875,0.0,0.0,0.0,0.0,0.0,0.0,-0.059,0.0,0.0,0.0,0.0,0.0,0.0,-0.025991307402514676,0.0,0.0,0.0,0.0,0.0,0.0,-14.656,0.0,0.0,0.0
520,0.0,0.0,0.0,-0.024263671875,0.0,0.0,0.0,0.0,0.0,0.0,-0.059,0.0,0.0,0.0,0.0,0.0,0.0,-0.025953568100648774,0.0,0.0,0.0,0.0,0.0,0.0,-14.656,0.0,0.0,0.0
521,0.0,0.0,0.0,-0.024263671875,0.0,0.0,0.0,0.0,0.0,0.0,-0.048,0.0,0.0,0.0,0.0,0.0,0.0,-0.025850692937579297,0.0,0.0,0.0,0.0,0.0,0.0,-14.428,0.0,0.0,0.0
522,0.0,0.0,0.0,-0.024263671875,0.0,0.0,0.0,0.0,0.0,0.0,-0.048,0.0,0.0,0.0,0.0,0.0,0.0,-0.026096131225416788,0.0,0.0,0.0,0.0,0.0,0.0,-14.428,0.0,0.0,0.0
523,0.0,0.0,0.0,-0.024697265625,0.0,0.0,0.0,0.0,0.0,0.0,-0.018,0.0,0.0,0.0,0.0,0.0,0.0,-0.02659649185860758,0.0,0.0,0.0,0.0,0.0,0.0,-15.068,0.0,0.0,0.0
524,0.0,0.0,0.0,-0.024697265625,0.0,0.0,0.0,0.0,0.0,0.0,-0.018,0.0,0.0,0.0,0.0,0.0,0.0,-0.02657122276411037,0.0,0.0,0.0,0.0,0.0,0.0,-15.068,0.0,0.0,0.0
525,0.0,0.0,0.0,-0.0255634765625,0.0,0.0,0.0,0.0,0.0,0.0,-0.066,0.0,0.0,0.0,0.0,0.0,0.0,-0.027606293823702506,0.0,0.0,0.0,0.0,0.0,0.0,-14.908,0.0,0.0,0.0
526,0.0,0.0,0.0,-0.0255634765625,0.0,0.0,0.0,0.0,0.0,0.0,-0.066,0.0,0.0,0.0,0.0,0.0,0.0,-0.027768359723781035,0.0,0.0,0.0,0.0,0.0,0.0,-14.908,0.0,0.0,0.0
527,0.0,0.0,0.0,-0.0258525390625,0.0,0.0,0.0,0.0,0.0,0.0,-0.054,0.0,0.0,0.0,0.0,0.0,0.0,-0.027772234464887732,0.0,0.0,0.0,0.0,0.0,0.0,-15.208,0.0,0.0,0.0
528,0.0,0.0,0.0,-0.0258525390625,0.0,0.0,0.0,0.0,0.0,0.0,-0.054,0.0,0.0,0.0,0.0,0.0,0.0,-0.027876734768059783,0.0,0.0,0.0,0.0,0.0,0.0,-15.208,0.0,0.0,0.0
529,0.0,0.0,0.0,-0.02657421875,0.0,0.0,0.0,0.0,0.0,0.0,-0.046,0.0,0.0,0.0,0.0,0.0,0.0,-0.02840560912754909,0.0,0.0,0.0,0.0,0.0,0.0,-14.796,0.0,0.0,0.0
530,0.0,0.0,0.0,-0.02657421875,0.0,0.0,0.0,0.0,0.0,0.0,-0.046,0.0,0.0,0.0,0.0,0.0,0.0,-0.02794809059323351,0.0,0.0,0.0,0.0,0.0,0.0,-14.796,0.0,0.0,0.0
531,0.0,0.0,0.0,-0.02759375,0.0,0.0,0.0,0.0,0.0,0.0,-0.09,0.0,0.0,0.0,0.0,0.0,0.0,-0.02897199041556489,0.0,0.0,0.0,0.0,0.0,0.0,-14.888,0.0,0.0,0.0
532,0.0,0.0,0.0,-0.02759375,0.0,0.0,0.0,0.0,0.0,0.0,-0.09,0.0,0.0,0.0,0.0,0.0,0.0,-0.029291392004813316,0.0,0.0,0.0,0.0,0.0,0.0,-14.888,0.0,0.0,0.0
533,0.0,0.0,0.0,-0.02759375,0.0,0.0,0.0,0.0,0.0,0.0,-0.09,0.0,0.0,0.0,0.0,0.0,0.0,-0.02942333113281345,0.0,0.0,0.0,0.0,0.0,0.0,-14.888,0.0,0.0,0.0
534,0.0,0.0,0.0,-0.0281708984375,0.0,0.0,0.0,0.0,0.0,0.0,-0.088,0.0,0.0,0.0,0.0,0.0,0.0,-0.029583854939422415,0.0,0.0,0.0,0.0,0.0,0.0,-14.932,0.0,0.0,0.0
535,0.0,0.0,0.0,-0.0281708984375,0.0,0.0,0.0,0.0,0.0,0.0,-0.088,0.0,0.0,0.0,0.0,0.0,0.0,-0.029696129698931588,0.0,0.0,0.0,0.0,0.0,0.0,-14.932,0.0,0.0,0.0
536,0.0,0.0,0.0,-0.0281708984375,0.0,0.0,0.0,0.0,0.0,0.0,-0.088,0.0,0.0,0.0,0.0,0.0,0.0,-0.029618392180529023,0.0,0.0,0.0,0.0,0.0,0.0,-14.932,0.0,0.0,0.0
537,0.0,0.0,0.0,-0.0287490234375,0.0,0.0,0.0,0.0,0.0,0.0,-0.062,0.0,0.0,0.0,0.0,0.0,0.0,-0.03030485358846411,0.0,0.0,0.0,0.0,0.0,0.0,-14.908,0.0,0.0,0.0
538,0.0,0.0,0.0,-0.0287490234375,0.0,0.0,0.0,0.0,0.0,0.0,-0.062,0.0,0.0,0.0,0.0,0.0,0.0,-0.030215256247086077,0.0,0.0,0.0,0.0,0.0,0.0,-14.908,0.0,0.0,0.0
539,0.0,0.0,0.0,-0.029470703125,0.0,0.0,0.0,0.0,0.0,0.0,-0.058,0.0,0.0,0.0,0.0,0.0,0.0,-0.031000002168896732,0.0,0.0,0.0,0.0,0.0,0.0,-14.976,0.0,0.0,0.0
540,0.0,0.0,0.0,-0.029470703125,0.0,0.0,0.0,0.0,0.0,0.0,-0.058,0.0,0.0,0.0,0.0,0.0,0.0,-0.03160535218275762,0.0,0.0,0.0,0.0,0.0,0.0,-14.976,0.0,0.0,0.0
541,0.0,0.0,0.0,-0.0300576171875,0.0,0.0,0.0,0.0,0.0,0.0,-0.067,0.0,0.0,0.0,0.0,0.0,0.0,-0.03198847466523411,0.0,0.0,0.0,0.0,0.0,0.0,-14.704,0.0,0.0,0.0
542,0.0,0.0,0.0,-0.0300576171875,0.0,0.0,0.0,0.0,0.0,0.0,-0.067,0.0,0.0,0.0,0.0,0.0,0.0,-0.031536925613220856,0.0,0.0,0.0,0.0,0.0,0.0,-14.704,0.0,0.0,0.0
543,0.0,0.0,0.0,-0.0300576171875,0.0,0.0,0.0,0.0,0.0,0.0,-0.067,0.0,0.0,0.0,0.0,0.0,0.0,-0.03173139044975082,0.0,0.0,0.0,0.0,0.0,0.0,-14.704,0.0,0.0,0.0
544,0.0,0.0,0.0,-0.030490234375,0.0,0.0,0.0,0.0,0.0,0.0,-0.049,0.0,0.0,0.0,0.0,0.0,0.0,-0.03205918860787287,0.0,0.0,0.0,0.0,0.0,0.0,-14.704,0.0,0.0,0.0
545,0.0,0.0,0.0,-0.030490234375,0.0,0.0,0.0,0.0,0.0,0.0,-0.049,0.0,0.0,0.0,0.0,0.0,0.0,-0.032060223532809566,0.0,0.0,0.0,0.0,0.0,0.0,-14.704,0.0,0.0,0.0
546,0.0,0.0,0.0,-0.0312216796875,0.0,0.0,0.0,0.0,0.0,0.0,-0.054,0.0,0.0,0.0,0.0,0.0,0.0,-0.03274935808538393,0.0,0.0,0.0,0.0,0.0,0.0,-14.976,0.0,0.0,0.0
547,0.0,0.0,0.0,-0.0312216796875,0.0,0.0,0.0,0.0,0.0,0.0,-0.054,0.0,0.0,0.0,0.0,0.0,0.0,-0.03302788755006525,0.0,0.0,0.0,0.0,0.0,0.0,-14.976,0.0,0.0,0.0
548,0.0,0.0,0.0,-0.0312216796875,0.0,0.0,0.0,0.0,0.0,0.0,-0.054,0.0,0.0,0.0,0.0,0.0,0.0,-0.03333835184296757,0.0,0.0,0.0,0.0,0.0,0.0,-14.976,0.0,0.0,0.0
549,0.0,0.0,0.0,-0.0322314453125,0.0,0.0,0.0,0.0,0.0,0.0,-0.089,0.0,0.0,0.0,0.0,0.0,0.0,-0.03378083103578861,0.0,0.0,0.0,0.0,0.0,0.0,-14.908,0.0,0.0,0.0
550,0.0,0.0,0.0,-0.0322314453125,0.0,0.0,0.0,0.0,0.0,0.0,-0.089,0.0,0.0,0.0,0.0,0.0,0.0,-0.033779761081530475,0.0,0.0,0.0,0.0,0.0,0.0,-14.908,0.0,0.0,0.0
551,0.0,0.0,0.0,-0.0328095703125,0.0,0.0,0.0,0.0,0.0,0.0,-0.088,0.0,0.0,0.0,0.0,0.0,0.0,-0.03447884154761501,0.0,0.0,0.0,0.0,0.0,0.0,-14.544,0.0,0.0,0.0
552,0.0,0.0,0.0,-0.0328095703125,0.0,0.0,0.0,0.0,0.0,0.0,-0.088,0.0,0.0,0.0,0.0,0.0,0.0,-0.03428763953243626,0.0,0.0,0.0,0.0,0.0,0.0,-14.544,0.0,0.0,0.0
553,0.0,0.0,0.0,-0.0328095703125,0.0,0.0,0.0,0.0,0.0,0.0,-0.088,0.0,0.0,0.0,0.0,0.0,0.0,-0.034784973499342474,0.0,0.0,0.0,0.0,0.0,0.0,-14.544,0.0,0.0,0.0
554,0.0,0.0,0.0,-0.0336845703125,0.0,0.0,0.0,0.0,0.0,0.0,-0.066,0.0,0.0,0.0,0.0,0.0,0.0,-0.03569513407803122,0.0,0.0,0.0,0.0,0.0,0.0,-14.704,0.0,0.0,0.0
555,0.0,0.0,0.0,-0.0336845703125,0.0,0.0,0.0,0.0,0.0,0.0,-0.066,0.0,0.0,0.0,0.0,0.0,0.0,-0.03599783897762688,0.0,0.0,0.0,0.0,0.0,0.0,-14.704,0.0,0.0,0.0
556,0.0,0.0,0.0,-0.0346953125,0.0,0.0,0.0,0.0,0.0,0.0,-0.103,0.0,0.0,0.0,0.0,0.0,0.0,-0.036859472763225855,0.0,0.0,0.0,0.0,0.0,0.0,-14.292,0.0,0.0,0.0
557,0.0,0.0,0.0,-0.0346953125,0.0,0.0,0.0,0.0,0.0,0.0,-0.103,0.0,0.0,0.0,0.0,0.0,0.0,-0.03672049025209571,0.0,0.0,0.0,0.0,0.0,0.0,-14.292,0.0,0.0,0.0
558,0.0,0.0,0.0,-0.0354169921875,0.0,0.0,0.0,0.0,0.0,0.0,-0.087,0.0,0.0,0.0,0.0,0.0,0.0,-0.03748131671093114,0.0,0.0,0.0,0.0,0.0,0.0,-14.656,0.0,0.0,0.0
559,0.0,0.0,0.0,-0.0354169921875,0.0,0.0,0.0,0.0,0.0,0.0,-0.087,0.0,0.0,0.0,0.0,0.0,0.0,-0.03749799208763303,0.0,0.0,0.0,0.0,0.0,0.0,-14.656,0.0,0.0,0.0
560,0.0,0.0,0.0,-0.0364365234375,0.0,0.0,0.0,0.0,0.0,0.0,-0.077,0.0,0.0,0.0,0.0,0.0,0.0,-0.03852305523666743,0.0,0.0,0.0,0.0,0.0,0.0,-14.888,0.0,0.0,0.0
561,0.0,0.0,0.0,-0.0364365234375,0.0,0.0,0.0,0.0,0.0,0.0,-0.077,0.0,0.0,0.0,0.0,0.0,0.0,-0.038875226389319305,0.0,0.0,0.0,0.0,0.0,0.0,-14.888,0.0,0.0,0.0
562,0.0,0.0,0.0,-0.037591796875,0.0,0.0,0.0,0.0,0.0,0.0,-0.122,0.0,0.0,0.0,0.0,0.0,0.0,-0.03974063339800199,0.0,0.0,0.0,0.0,0.0,0.0,-14.476,0.0,0.0,0.0
563,0.0,0.0,0.0,-0.037591796875,0.0,0.0,0.0,0.0,0.0,0.0,-0.122,0.0,0.0,0.0,0.0,0.0,0.0,-0.039810735546157494,0.0,0.0,0.0,0.0,0.0,0.0,-14.476,0.0,0.0,0.0
564,0.0,0.0,0.0,-0.0384580078125,0.0,0.0,0.0,0.0,0.0,0.0,-0.097,0.0,0.0,0.0,0.0,0.0,0.0,-0.040628003033129356,0.0,0.0,0.0,0.0,0.0,0.0,-14.428,0.0,0.0,0.0
565,0.0,0.0,0.0,-0.0384580078125,0.0,0.0,0.0,0.0,0.0,0.0,-0.097,0.0,0.0,0.0,0.0,0.0,0.0,-0.040503851923409245,0.0,0.0,0.0,0.0,0.0,0.0,-14.428,0.0,0.0,0.0
566,0.0,0.0,0.0,-0.0394775390625,0.0,0.0,0.0,0.0,0.0,0.0,-0.091,0.0,0.0,0.0,0.0,0.0,0.0,-0.041807658134454403,0.0,0.0,0.0,0.0,0.0,0.0,-14.476,0.0,0.0,0.0
567,0.0,0.0,0.0,-0.04077734375,0.0,0.0,0.0,0.0,0.0,0.0,-0.126,0.0,0.0,0.0,0.0,0.0,0.0,-0.04347292838769726,0.0,0.0,0.0,0.0,0.0,0.0,-14.384,0.0,0.0,0.0
568,0.0,0.0,0.0,-0.04077734375,0.0,0.0,0.0,0.0,0.0,0.0,-0.126,0.0,0.0,0.0,0.0,0.0,0.0,-0.0429595181402849,0.0,0.0,0.0,0.0,0.0,0.0,-14.384,0.0,0.0,0.0
569,0.0,0.0,0.0,-0.0417880859375,0.0,0.0,0.0,0.0,0.0,0.0,-0.12,0.0,0.0,0.0,0.0,0.0,0.0,-0.04410503501572441,0.0,0.0,0.0,0.0,0.0,0.0,-14.636,0.0,0.0,0.0
570,0.0,0.0,0.0,-0.0417880859375,0.0,0.0,0.0,0.0,0.0,0.0,-0.12,0.0,0.0,0.0,0.0,0.0,0.0,-0.04420450914143337,0.0,0.0,0.0,0.0,0.0,0.0,-14.636,0.0,0.0,0.0
571,0.0,0.0,0.0,-0.0428076171875,0.0,0.0,0.0,0.0,0.0,0.0,-0.098,0.0,0.0,0.0,0.0,0.0,0.0,-0.0450329973057269,0.0,0.0,0.0,0.0,0.0,0.0,-14.224,0.0,0.0,0.0
572,0.0,0.0,0.0,-0.0428076171875,0.0,0.0,0.0,0.0,0.0,0.0,-0.098,0.0,0.0,0.0,0.0,0.0,0.0,-0.04511007457321941,0.0,0.0,0.0,0.0,0.0,0.0,-14.224,0.0,0.0,0.0
573,0.0,0.0,0.0,-0.0441064453125,0.0,0.0,0.0,0.0,0.0,0.0,-0.105,0.0,0.0,0.0,0.0,0.0,0.0,-0.04672622422722323,0.0,0.0,0.0,0.0,0.0,0.0,-14.748,0.0,0.0,0.0
574,0.0,0.0,0.0,-0.0441064453125,0.0,0.0,0.0,0.0,0.0,0.0,-0.105,0.0,0.0,0.0,0.0,0.0,0.0,-0.046289953801765045,0.0,0.0,0.0,0.0,0.0,0.0,-14.748,0.0,0.0,0.0
575,0.0,0.0,0.0,-0.0457041015625,0.0,0.0,0.0,0.0,0.0,0.0,-0.153,0.0,0.0,0.0,0.0,0.0,0.0,-0.047884640958511734,0.0,0.0,0.0,0.0,0.0,0.0,-14.316,0.0,0.0,0.0
576,0.0,0.0,0.0,-0.0457041015625,0.0,0.0,0.0,0.0,0.0,0.0,-0.153,0.0,0.0,0.0,0.0,0.0,0.0,-0.04782990277294598,0.0,0.0,0.0,0.0,0.0,0.0,-14.316,0.0,0.0,0.0
577,0.0,0.0,0.0,-0.04642578125,0.0,0.0,0.0,0.0,0.0,0.0,-0.122,0.0,0.0,0.0,0.0,0.0,0.0,-0.04863674032400695,0.0,0.0,0.0,0.0,0.0,0.0,-14.452,0.0,0.0,0.0
578,0.0,0.0,0.0,-0.04642578125,0.0,0.0,0.0,0.0,0.0,0.0,-0.122,0.0,0.0,0.0,0.0,0.0,0.0,-0.04877062665083857,0.0,0.0,0.0,0.0,0.0,0.0,-14.452,0.0,0.0,0.0
579,0.0,0.0,0.0,-0.048013671875,0.0,0.0,0.0,0.0,0.0,0.0,-0.105,0.0,0.0,0.0,0.0,0.0,0.0,-0.0503969985200555,0.0,0.0,0.0,0.0,0.0,0.0,-14.908,0.0,0.0,0.0
580,0.0,0.0,0.0,-0.048013671875,0.0,0.0,0.0,0.0,0.0,0.0,-0.105,0.0,0.0,0.0,0.0,0.0,0.0,-0.050142338342720194,0.0,0.0,0.0,0.0,0.0,0.0,-14.908,0.0,0.0,0.0
581,0.0,0.0,0.0,-0.0497548828125,0.0,0.0,0.0,0.0,0.0,0.0,-0.179,0.0,0.0,0.0,0.0,0.0,0.0,-0.05183965061181925,0.0,0.0,0.0,0.0,0.0,0.0,-14.084,0.0,0.0,0.0
582,0.0,0.0,0.0,-0.0497548828125,0.0,0.0,0.0,0.0,0.0,0.0,-0.179,0.0,0.0,0.0,0.0,0.0,0.0,-0.05185790532462134,0.0,0.0,0.0,0.0,0.0,0.0,-14.084,0.0,0.0,0.0
583,0.0,0.0,0.0,-0.0504775390625,0.0,0.0,0.0,0.0,0.0,0.0,-0.124,0.0,0.0,0.0,0.0,0.0,0.0,-0.05281080172336373,0.0,0.0,0.0,0.0,0.0,0.0,-14.796,0.0,0.0,0.0
584,0.0,0.0,0.0,-0.0504775390625,0.0,0.0,0.0,0.0,0.0,0.0,-0.124,0.0,0.0,0.0,0.0,0.0,0.0,-0.052652671917543754,0.0,0.0,0.0,0.0,0.0,0.0,-14.796,0.0,0.0,0.0
585,0.0,0.0,0.0,-0.0522275390625,0.0,0.0,0.0,0.0,0.0,0.0,-0.115,0.0,0.0,0.0,0.0,0.0,0.0,-0.05477493788840363,0.0,0.0,0.0,0.0,0.0,0.0,-14.588,0.0,0.0,0.0
586,0.0,0.0,0.0,-0.0522275390625,0.0,0.0,0.0,0.0,0.0,0.0,-0.115,0.0,0.0,0.0,0.0,0.0,0.0,-0.05442765199163838,0.0,0.0,0.0,0.0,0.0,0.0,-14.588,0.0,0.0,0.0
587,0.0,0.0,0.0,-0.0538154296875,0.0,0.0,0.0,0.0,0.0,0.0,-0.175,0.0,0.0,0.0,0.0,0.0,0.0,-0.05606994028765336,0.0,0.0,0.0,0.0,0.0,0.0,-14.428,0.0,0.0,0.0
588,0.0,0.0,0.0,-0.0538154296875,0.0,0.0,0.0,0.0,0.0,0.0,-0.175,0.0,0.0,0.0,0.0,0.0,0.0,-0.05609589329715299,0.0,0.0,0.0,0.0,0.0,0.0,-14.428,0.0,0.0,0.0
589,0.0,0.0,0.0,-0.0549794921875,0.0,0.0,0.0,0.0,0.0,0.0,-0.133,0.0,0.0,0.0,0.0,0.0,0.0,-0.05737952538982751,0.0,0.0,0.0,0.0,0.0,0.0,-14.636,0.0,0.0,0.0
590,0.0,0.0,0.0,-0.0549794921875,0.0,0.0,0.0,0.0,0.0,0.0,-0.133,0.0,0.0,0.0,0.0,0.0,0.0,-0.057233729014050806,0.0,0.0,0.0,0.0,0.0,0.0,-14.636,0.0,0.0,0.0
591,0.0,0.0,0.0,-0.056568359375,0.0,0.0,0.0,0.0,0.0,0.0,-0.135,0.0,0.0,0.0,0.0,0.0,0.0,-0.05919252602189019,0.0,0.0,0.0,0.0,0.0,0.0,-14.248,0.0,0.0,0.0
592,0.0,0.0,0.0,-0.056568359375,0.0,0.0,0.0,0.0,0.0,0.0,-0.135,0.0,0.0,0.0,0.0,0.0,0.0,-0.05904576056535807,0.0,0.0,0.0,0.0,0.0,0.0,-14.248,0.0,0.0,0.0
593,0.0,0.0,0.0,-0.0580205078125,0.0,0.0,0.0,0.0,0.0,0.0,-0.157,0.0,0.0,0.0,0.0,0.0,0.0,-0.05996837795496204,0.0,0.0,0.0,0.0,0.0,0.0,-14.2,0.0,0.0,0.0
594,0.0,0.0,0.0,-0.0580205078125,0.0,0.0,0.0,0.0,0.0,0.0,-0.157,0.0,0.0,0.0,0.0,0.0,0.0,-0.05950175350592217,0.0,0.0,0.0,0.0,0.0,0.0,-14.2,0.0,0.0,0.0
595,0.0,0.0,0.0,-0.0580205078125,0.0,0.0,0.0,0.0,0.0,0.0,-0.157,0.0,0.0,0.0,0.0,0.0,0.0,-0.05952970560692268,0.0,0.0,0.0,0.0,0.0,0.0,-14.2,0.0,0.0,0.0
596,0.0,0.0,0.0,-0.05946484375,0.0,0.0,0.0,0.0,0.0,0.0,-0.148,0.0,0.0,0.0,0.0,0.0,0.0,-0.06145062108390626,0.0,0.0,0.0,0.0,0.0,0.0,-14.084,0.0,0.0,0.0
597,0.0,0.0,0.0,-0.05946484375,0.0,0.0,0.0,0.0,0.0,0.0,-0.148,0.0,0.0,0.0,0.0,0.0,0.0,-0.06136600506665683,0.0,0.0,0.0,0.0,0.0,0.0,-14.084,0.0,0.0,0.0
598,0.0,0.0,0.0,-0.060619140625,0.0,0.0,0.0,0.0,0.0,0.0,-0.136,0.0,0.0,0.0,0.0,0.0,0.0,-0.0630747689086165,0.0,0.0,0.0,0.0,0.0,0.0,-14.04,0.0,0.0,0.0
599,0.0,0.0,0.0,-0.060619140625,0.0,0.0,0.0,0.0,0.0,0.0,-0.136,0.0,0.0,0.0,0.0,0.0,0.0,-0.06221024963645587,0.0,0.0,0.0,0.0,0.0,0.0,-14.04,0.0,0.0,0.0
600,0.0,0.0,0.0,-0.060619140625,0.0,0.0,0.0,0.0,0.0,0.0,-0.136,0.0,0.0,0.0,0.0,0.0,0.0,-0.06212217233052442,0.0,0.0,0.0,0.0,0.0,0.0,-14.04,0.0,0.0,0.0
601,0.0,0.0,0.0,-0.062361328125,0.0,0.0,0.0,0.0,0.0,0.0,-0.139,0.0,0.0,0.0,0.0,0.0,0.0,-0.06394842514720253,0.0,0.0,0.0,0.0,0.0,0.0,-14.132,0.0,0.0,0.0
602,0.0,0.0,0.0,-0.062361328125,0.0,0.0,0.0,0.0,0.0,0.0,-0.139,0.0,0.0,0.0,0.0,0.0,0.0,-0.06408272530506559,0.0,0.0,0.0,0.0,0.0,0.0,-14.132,0.0,0.0,0.0
603,0.0,0.0,0.0,-0.0639580078125,0.0,0.0,0.0,0.0,0.0,0.0,-0.174,0.0,0.0,0.0,0.0,0.0,0.0,-0.06581953615574546,0.0,0.0,0.0,0.0,0.0,0.0,-13.764,0.0,0.0,0.0
604,0.0,0.0,0.0,-0.0639580078125,0.0,0.0,0.0,0.0,0.0,0.0,-0.174,0.0,0.0,0.0,0.0,0.0,0.0,-0.06573756901081429,0.0,0.0,0.0,0.0,0.0,0.0,-13.764,0.0,0.0,0.0
605,0.0,0.0,0.0,-0.0639580078125,0.0,0.0,0.0,0.0,0.0,0.0,-0.174,0.0,0.0,0.0,0.0,0.0,0.0,-0.06611818481936714,0.0,0.0,0.0,0.0,0.0,0.0,-13.764,0.0,0.0,0.0
606,0.0,0.0,0.0,-0.0655458984375,0.0,0.0,0.0,0.0,0.0,0.0,-0.156,0.0,0.0,0.0,0.0,0.0,0.0,-0.06780307697804143,0.0,0.0,0.0,0.0,0.0,0.0,-14.248,0.0,0.0,0.0
607,0.0,0.0,0.0,-0.0655458984375,0.0,0.0,0.0,0.0,0.0,0.0,-0.156,0.0,0.0,0.0,0.0,0.0,0.0,-0.06706635706301993,0.0,0.0,0.0,0.0,0.0,0.0,-14.248,0.0,0.0,0.0
608,0.0,0.0,0.0,-0.0674326171875,0.0,0.0,0.0,0.0,0.0,0.0,-0.176,0.0,0.0,0.0,0.0,0.0,0.0,-0.06907698279789572,0.0,0.0,0.0,0.0,0.0,0.0,-13.536,0.0,0.0,0.0
609,0.0,0.0,0.0,-0.0674326171875,0.0,0.0,0.0,0.0,0.0,0.0,-0.176,0.0,0.0,0.0,0.0,0.0,0.0,-0.06895693289880982,0.0,0.0,0.0,0.0,0.0,0.0,-13.536,0.0,0.0,0.0
610,0.0,0.0,0.0,-0.0674326171875,0.0,0.0,0.0,0.0,0.0,0.0,-0.176,0.0,0.0,0.0,0.0,0.0,0.0,-0.06894794924006316,0.0,0.0,0.0,0.0,0.0,0.0,-13.536,0.0,0.0,0.0
611,0.0,0.0,0.0,-0.0688759765625,0.0,0.0,0.0,0.0,0.0,0.0,-0.169,0.0,0.0,0.0,0.0,0.0,0.0,-0.07047864156696777,0.0,0.0,0.0,0.0,0.0,0.0,-13.88,0.0,0.0,0.0
612,0.0,0.0,0.0,-0.0688759765625,0.0,0.0,0.0,0.0,0.0,0.0,-0.169,0.0,0.0,0.0,0.0,0.0,0.0,-0.07043094542100428,0.0,0.0,0.0,0.0,0.0,0.0,-13.88,0.0,0.0,0.0
613,0.0,0.0,0.0,-0.0688759765625,0.0,0.0,0.0,0.0,0.0,0.0,-0.169,0.0,0.0,0.0,0.0,0.0,0.0,-0.07048462131235339,0.0,0.0,0.0,0.0,0.0,0.0,-13.88,0.0,0.0,0.0
614,0.0,0.0,0.0,-0.07076171875,0.0,0.0,0.0,0.0,0.0,0.0,-0.161,0.0,0.0,0.0,0.0,0.0,0.0,-0.0728855809641152,0.0,0.0,0.0,0.0,0.0,0.0,-14.384,0.0,0.0,0.0
615,0.0,0.0,0.0,-0.07076171875,0.0,0.0,0.0,0.0,0.0,0.0,-0.161,0.0,0.0,0.0,0.0,0.0,0.0,-0.07236217008019792,0.0,0.0,0.0,0.0,0.0,0.0,-14.384,0.0,0.0,0.0
616,0.0,0.0,0.0,-0.07076171875,0.0,0.0,0.0,0.0,0.0,0.0,-0.161,0.0,0.0,0.0,0.0,0.0,0.0,-0.07226703838247098,0.0,0.0,0.0,0.0,0.0,0.0,-14.384,0.0,0.0,0.0
617,0.0,0.0,0.0,-0.072349609375,0.0,0.0,0.0,0.0,0.0,0.0,-0.18,0.0,0.0,0.0,0.0,0.0,0.0,-0.07395076783716341,0.0,0.0,0.0,0.0,0.0,0.0,-14.156,0.0,0.0,0.0
618,0.0,0.0,0.0,-0.072349609375,0.0,0.0,0.0,0.0,0.0,0.0,-0.18,0.0,0.0,0.0,0.0,0.0,0.0,-0.0738465578222968,0.0,0.0,0.0,0.0,0.0,0.0,-14.156,0.0,0.0,0.0
619,0.0,0.0,0.0,-0.072349609375,0.0,0.0,0.0,0.0,0.0,0.0,-0.18,0.0,0.0,0.0,0.0,0.0,0.0,-0.07393628462454971,0.0,0.0,0.0,0.0,0.0,0.0,-14.156,0.0,0.0,0.0
620,0.0,0.0,0.0,-0.073513671875,0.0,0.0,0.0,0.0,0.0,0.0,-0.14,0.0,0.0,0.0,0.0,0.0,0.0,-0.0752177869829228,0.0,0.0,0.0,0.0,0.0,0.0,-14.428,0.0,0.0,0.0
621,0.0,0.0,0.0,-0.073513671875,0.0,0.0,0.0,0.0,0.0,0.0,-0.14,0.0,0.0,0.0,0.0,0.0,0.0,-0.07500652052897373,0.0,0.0,0.0,0.0,0.0,0.0,-14.428,0.0,0.0,0.0
622,0.0,0.0,0.0,-0.073513671875,0.0,0.0,0.0,0.0,0.0,0.0,-0.14,0.0,0.0,0.0,0.0,0.0,0.0,-0.07520382057372112,0.0,0.0,0.0,0.0,0.0,0.0,-14.428,0.0,0.0,0.0
623,0.0,0.0,0.0,-0.075255859375,0.0,0.0,0.0,0.0,0.0,0.0,-0.137,0.0,0.0,0.0,0.0,0.0,0.0,-0.07740875052120155,0.0,0.0,0.0,0.0,0.0,0.0,-14.496,0.0,0.0,0.0
624,0.0,0.0,0.0,-0.075255859375,0.0,0.0,0.0,0.0,0.0,0.0,-0.137,0.0,0.0,0.0,0.0,0.0,0.0,-0.07686586128323897,0.0,0.0,0.0,0.0,0.0,0.0,-14.496,0.0,0.0,0.0
625,0.0,0.0,0.0,-0.0767080078125,0.0,0.0,0.0,0.0,0.0,0.0,-0.175,0.0,0.0,0.0,0.0,0.0,0.0,-0.07829003879087765,0.0,0.0,0.0,0.0,0.0,0.0,-14.52,0.0,0.0,0.0
626,0.0,0.0,0.0,-0.0767080078125,0.0,0.0,0.0,0.0,0.0,0.0,-0.175,0.0,0.0,0.0,0.0,0.0,0.0,-0.07833934519681648,0.0,0.0,0.0,0.0,0.0,0.0,-14.52,0.0,0.0,0.0
627,0.0,0.0,0.0,-0.0767080078125,0.0,0.0,0.0,0.0,0.0,0.0,-0.175,0.0,0.0,0.0,0.0,0.0,0.0,-0.07832959109735103,0.0,0.0,0.0,0.0,0.0,0.0,-14.52,0.0,0.0,0.0
628,0.0,0.0,0.0,-0.07786328125,0.0,0.0,0.0,0.0,0.0,0.0,-0.133,0.0,0.0,0.0,0.0,0.0,0.0,-0.07944030712910627,0.0,0.0,0.0,0.0,0.0,0.0,-14.612,0.0,0.0,0.0
629,0.0,0.0,0.0,-0.07786328125,0.0,0.0,0.0,0.0,0.0,0.0,-0.133,0.0,0.0,0.0,0.0,0.0,0.0,-0.07936819927550087,0.0,0.0,0.0,0.0,0.0,0.0,-14.612,0.0,0.0,0.0
630,0.0,0.0,0.0,-0.07786328125,0.0,0.0,0.0,0.0,0.0,0.0,-0.133,0.0,0.0,0.0,0.0,0.0,0.0,-0.07934324943727594,0.0,0.0,0.0,0.0,0.0,0.0,-14.612,0.0,0.0,0.0
631,0.0,0.0,0.0,-0.07931640625,0.0,0.0,0.0,0.0,0.0,0.0,-0.12,0.0,0.0,0.0,0.0,0.0,0.0,-0.08142385283837797,0.0,0.0,0.0,0.0,0.0,0.0,-14.816,0.0,0.0,0.0
632,0.0,0.0,0.0,-0.07931640625,0.0,0.0,0.0,0.0,0.0,0.0,-0.12,0.0,0.0,0.0,0.0,0.0,0.0,-0.08099081400789483,0.0,0.0,0.0,0.0,0.0,0.0,-14.816,0.0,0.0,0.0
633,0.0,0.0,0.0,-0.07931640625,0.0,0.0,0.0,0.0,0.0,0.0,-0.12,0.0,0.0,0.0,0.0,0.0,0.0,-0.08094080397237574,0.0,0.0,0.0,0.0,0.0,0.0,-14.816,0.0,0.0,0.0
634,0.0,0.0,0.0,-0.081048828125,0.0,0.0,0.0,0.0,0.0,0.0,-0.17,0.0,0.0,0.0,0.0,0.0,0.0,-0.0828554498722706,0.0,0.0,0.0,0.0,0.0,0.0,-14.636,0.0,0.0,0.0
635,0.0,0.0,0.0,-0.081048828125,0.0,0.0,0.0,0.0,0.0,0.0,-0.17,0.0,0.0,0.0,0.0,0.0,0.0,-0.08255430711717895,0.0,0.0,0.0,0.0,0.0,0.0,-14.636,0.0,0.0,0.0
636,0.0,0.0,0.0,-0.081048828125,0.0,0.0,0.0,0.0,0.0,0.0,-0.17,0.0,0.0,0.0,0.0,0.0,0.0,-0.08256356185865199,0.0,0.0,0.0,0.0,0.0,0.0,-14.636,0.0,0.0,0.0
637,0.0,0.0,0.0,-0.0820595703125,0.0,0.0,0.0,0.0,0.0,0.0,-0.143,0.0,0.0,0.0,0.0,0.0,0.0,-0.08369323276252157,0.0,0.0,0.0,0.0,0.0,0.0,-14.68,0.0,0.0,0.0
638,0.0,0.0,0.0,-0.0820595703125,0.0,0.0,0.0,0.0,0.0,0.0,-0.143,0.0,0.0,0.0,0.0,0.0,0.0,-0.08354601720088835,0.0,0.0,0.0,0.0,0.0,0.0,-14.68,0.0,0.0,0.0
639,0.0,0.0,0.0,-0.0820595703125,0.0,0.0,0.0,0.0,0.0,0.0,-0.143,0.0,0.0,0.0,0.0,0.0,0.0,-0.0836979776059249,0.0,0.0,0.0,0.0,0.0,0.0,-14.68,0.0,0.0,0.0
640,0.0,0.0,0.0,-0.0833671875,0.0,0.0,0.0,0.0,0.0,0.0,-0.108,0.0,0.0,0.0,0.0,0.0,0.0,-0.0854321564671909,0.0,0.0,0.0,0.0,0.0,0.0,-15.024,0.0,0.0,0.0
641,0.0,0.0,0.0,-0.0833671875,0.0,0.0,0.0,0.0,0.0,0.0,-0.108,0.0,0.0,0.0,0.0,0.0,0.0,-0.08507630887036435,0.0,0.0,0.0,0.0,0.0,0.0,-15.024,0.0,0.0,0.0
642,0.0,0.0,0.0,-0.0849560546875,0.0,0.0,0.0,0.0,0.0,0.0,-0.159,0.0,0.0,0.0,0.0,0.0,0.0,-0.08660685783234923,0.0,0.0,0.0,0.0,0.0,0.0,-13.996,0.0,0.0,0.0
643,0.0,0.0,0.0,-0.0849560546875,0.0,0.0,0.0,0.0,0.0,0.0,-0.159,0.0,0.0,0.0,0.0,0.0,0.0,-0.08656311773921609,0.0,0.0,0.0,0.0,0.0,0.0,-13.996,0.0,0.0,0.0
644,0.0,0.0,0.0,-0.0849560546875,0.0,0.0,0.0,0.0,0.0,0.0,-0.159,0.0,0.0,0.0,0.0,0.0,0.0,-0.08666375445932567,0.0,0.0,0.0,0.0,0.0,0.0,-13.996,0.0,0.0,0.0
645,0.0,0.0,0.0,-0.0855419921875,0.0,0.0,0.0,0.0,0.0,0.0,-0.113,0.0,0.0,0.0,0.0,0.0,0.0,-0.08755726410529173,0.0,0.0,0.0,0.0,0.0,0.0,-14.408,0.0,0.0,0.0
646,0.0,0.0,0.0,-0.0855419921875,0.0,0.0,0.0,0.0,0.0,0.0,-0.113,0.0,0.0,0.0,0.0,0.0,0.0,-0.0870416132710258,0.0,0.0,0.0,0.0,0.0,0.0,-14.408,0.0,0.0,0.0
647,0.0,0.0,0.0,-0.0855419921875,0.0,0.0,0.0,0.0,0.0,0.0,-0.113,0.0,0.0,0.0,0.0,0.0,0.0,-0.08738230273668668,0.0,0.0,0.0,0.0,0.0,0.0,-14.408,0.0,0.0,0.0
648,0.0,0.0,0.0,-0.086697265625,0.0,0.0,0.0,0.0,0.0,0.0,-0.076,0.0,0.0,0.0,0.0,0.0,0.0,-0.08938624346048048,0.0,0.0,0.0,0.0,0.0,0.0,-14.656,0.0,0.0,0.0
649,0.0,0.0,0.0,-0.0884296875,0.0,0.0,0.0,0.0,0.0,0.0,-0.143,0.0,0.0,0.0,0.0,0.0,0.0,-0.091456639218147,0.0,0.0,0.0,0.0,0.0,0.0,-14.908,0.0,0.0,0.0
650,0.0,0.0,0.0,-0.0884296875,0.0,0.0,0.0,0.0,0.0,0.0,-0.143,0.0,0.0,0.0,0.0,0.0,0.0,-0.09003371077752276,0.0,0.0,0.0,0.0,0.0,0.0,-14.908,0.0,0.0,0.0
651,0.0,0.0,0.0,-0.0884296875,0.0,0.0,0.0,0.0,0.0,0.0,-0.143,0.0,0.0,0.0,0.0,0.0,0.0,-0.0901190229706295,0.0,0.0,0.0,0.0,0.0,0.0,-14.908,0.0,0.0,0.0
652,0.0,0.0,0.0,-0.0893046875,0.0,0.0,0.0,0.0,0.0,0.0,-0.139,0.0,0.0,0.0,0.0,0.0,0.0,-0.0914785984947547,0.0,0.0,0.0,0.0,0.0,0.0,-14.268,0.0,0.0,0.0
653,0.0,0.0,0.0,-0.0893046875,0.0,0.0,0.0,0.0,0.0,0.0,-0.139,0.0,0.0,0.0,0.0,0.0,0.0,-0.09085350088633236,0.0,0.0,0.0,0.0,0.0,0.0,-14.268,0.0,0.0,0.0
