EmanuelSamir/lab201_ws_projsamir/sawyer_dev/data/sawyer/temp/validation_data_6.csv
,j1,j2,j3,j4,j5,j6,j7,jd1,jd2,jd3,jd4,jd5,jd6,jd7,e1,e2,e3,e4,e5,e6,e7
0,0.0,0.0,0.0,0.0,0.0,0.0,0.0,0.0,0.0,0.0,0.0,0.0,0.0,0.0,0.0,0.0,0.0,0.0,0.0,0.0,0.0
1,0.0,0.0,0.0,0.0,0.0,-0.0040576171875,0.0,0.0,0.0,0.0,0.0,0.0,1.0934783022466315,0.0,0.0,0.0,0.0,0.0,0.0,-0.728,0.0
2,0.0,0.0,0.0,0.0,0.0,-0.0040576171875,0.0,0.0,0.0,0.0,0.0,0.0,1.0934783022466315,0.0,0.0,0.0,0.0,0.0,0.0,-0.728,0.0
3,0.0,0.0,0.0,0.0,0.0,-0.0040576171875,0.0,0.0,0.0,0.0,0.0,0.0,1.0934783022466315,0.0,0.0,0.0,0.0,0.0,0.0,-0.728,0.0
4,0.0,0.0,0.0,0.0,0.0,-0.0040576171875,0.0,0.0,0.0,0.0,0.0,0.0,1.0934783022466315,0.0,0.0,0.0,0.0,0.0,0.0,-0.716,0.0
5,0.0,0.0,0.0,0.0,0.0,-0.0030244140625,0.0,0.0,0.0,0.0,0.0,0.0,1.0934783022466315,0.0,0.0,0.0,0.0,0.0,0.0,-0.348,0.0
6,0.0,0.0,0.0,0.0,0.0,0.0023330078125,0.0,0.0,0.0,0.0,0.0,0.0,1.0934783022466315,0.0,0.0,0.0,0.0,0.0,0.0,-0.148,0.0
7,0.0,0.0,0.0,0.0,0.0,0.0105830078125,0.0,0.0,0.0,0.0,0.0,0.0,1.0934783022466315,0.0,0.0,0.0,0.0,0.0,0.0,-0.276,0.0
8,0.0,0.0,0.0,0.0,0.0,0.021505859375,0.0,0.0,0.0,0.0,0.0,0.0,1.0934783022466315,0.0,0.0,0.0,0.0,0.0,0.0,0.304,0.0
9,0.0,0.0,0.0,0.0,0.0,0.0359267578125,0.0,0.0,0.0,0.0,0.0,0.0,1.0934783022466315,0.0,0.0,0.0,0.0,0.0,0.0,-0.312,0.0
10,0.0,0.0,0.0,0.0,0.0,0.049728515625,0.0,0.0,0.0,0.0,0.0,0.0,1.0934783022466315,0.0,0.0,0.0,0.0,0.0,0.0,-0.492,0.0
11,0.0,0.0,0.0,0.0,0.0,0.0653896484375,0.0,0.0,0.0,0.0,0.0,0.0,1.0934783022466315,0.0,0.0,0.0,0.0,0.0,0.0,0.192,0.0
12,0.0,0.0,0.0,0.0,0.0,0.082703125,0.0,0.0,0.0,0.0,0.0,0.0,1.0934783022466315,0.0,0.0,0.0,0.0,0.0,0.0,-0.664,0.0
13,0.0,0.0,0.0,0.0,0.0,0.0971123046875,0.0,0.0,0.0,0.0,0.0,0.0,1.0934783022466315,0.0,0.0,0.0,0.0,0.0,0.0,-0.42,0.0
14,0.0,0.0,0.0,0.0,0.0,0.1140126953125,0.0,0.0,0.0,0.0,0.0,0.0,1.0934783022466315,0.0,0.0,0.0,0.0,0.0,0.0,0.0,0.0
15,0.0,0.0,0.0,0.0,0.0,0.1298671875,0.0,0.0,0.0,0.0,0.0,0.0,1.0934783022466315,0.0,0.0,0.0,0.0,0.0,0.0,-1.292,0.0
16,0.0,0.0,0.0,0.0,0.0,0.1407900390625,0.0,0.0,0.0,0.0,0.0,0.0,1.0934783022466315,0.0,0.0,0.0,0.0,0.0,0.0,-0.276,0.0
17,0.0,0.0,0.0,0.0,0.0,0.154578125,0.0,0.0,0.0,0.0,0.0,0.0,1.0934783022466315,0.0,0.0,0.0,0.0,0.0,0.0,-0.192,0.0
18,0.0,0.0,0.0,0.0,0.0,0.1655009765625,0.0,0.0,0.0,0.0,0.0,0.0,1.0934783022466315,0.0,0.0,0.0,0.0,0.0,0.0,-1.292,0.0
19,0.0,0.0,0.0,0.0,0.0,0.172705078125,0.0,0.0,0.0,0.0,0.0,0.0,1.0934783022466315,0.0,0.0,0.0,0.0,0.0,0.0,-0.436,0.0
20,0.0,0.0,0.0,0.0,0.0,0.1832021484375,0.0,0.0,0.0,0.0,0.0,0.0,1.0934783022466315,0.0,0.0,0.0,0.0,0.0,0.0,-1.0,0.0
21,0.0,0.0,0.0,0.0,0.0,0.190005859375,0.0,0.0,0.0,0.0,0.0,0.0,1.0934783022466315,0.0,0.0,0.0,0.0,0.0,0.0,-1.164,0.0
22,0.0,0.0,0.0,0.0,0.0,0.1963837890625,0.0,0.0,0.0,0.0,0.0,0.0,1.0934783022466315,0.0,0.0,0.0,0.0,0.0,0.0,0.012,0.0
23,0.0,0.0,0.0,0.0,0.0,0.205447265625,0.0,0.0,0.0,0.0,0.0,0.0,1.0934783022466315,0.0,0.0,0.0,0.0,0.0,0.0,-0.804,0.0
24,0.0,0.0,0.0,0.0,0.0,0.2105859375,0.0,0.0,0.0,0.0,0.0,0.0,1.0934783022466315,0.0,0.0,0.0,0.0,0.0,0.0,-0.772,0.0
25,0.0,0.0,0.0,0.0,0.0,0.2179970703125,0.0,0.0,0.0,0.0,0.0,0.0,1.0934783022466315,0.0,0.0,0.0,0.0,0.0,0.0,-0.108,0.0
26,0.0,0.0,0.0,0.0,0.0,0.2272666015625,0.0,0.0,0.0,0.0,0.0,0.0,1.0934783022466315,0.0,0.0,0.0,0.0,0.0,0.0,-1.0,0.0
27,0.0,0.0,0.0,0.0,0.0,0.23405859375,0.0,0.0,0.0,0.0,0.0,0.0,1.0934783022466315,0.0,0.0,0.0,0.0,0.0,0.0,-0.264,0.0
28,0.0,0.0,0.0,0.0,0.0,0.2445546875,0.0,0.0,0.0,0.0,0.0,0.0,1.0934783022466315,0.0,0.0,0.0,0.0,0.0,0.0,-0.012,0.0
29,0.0,0.0,0.0,0.0,0.0,0.2552578125,0.0,0.0,0.0,0.0,0.0,0.0,1.0934783022466315,0.0,0.0,0.0,0.0,0.0,0.0,-0.96,0.0
30,0.0,0.0,0.0,0.0,0.0,0.264115234375,0.0,0.0,0.0,0.0,0.0,0.0,1.0934783022466315,0.0,0.0,0.0,0.0,0.0,0.0,-0.284,0.0
31,0.0,0.0,0.0,0.0,0.0,0.2766640625,0.0,0.0,0.0,0.0,0.0,0.0,1.0934783022466315,0.0,0.0,0.0,0.0,0.0,0.0,-0.324,0.0
32,0.0,0.0,0.0,0.0,0.0,0.288607421875,0.0,0.0,0.0,0.0,0.0,0.0,1.0934783022466315,0.0,0.0,0.0,0.0,0.0,0.0,-0.608,0.0
33,0.0,0.0,0.0,0.0,0.0,0.299310546875,0.0,0.0,0.0,0.0,0.0,0.0,1.0934783022466315,0.0,0.0,0.0,0.0,0.0,0.0,-0.108,0.0
34,0.0,0.0,0.0,0.0,0.0,0.31206640625,0.0,0.0,0.0,0.0,0.0,0.0,1.0934783022466315,0.0,0.0,0.0,0.0,0.0,0.0,-0.344,0.0
35,0.0,0.0,0.0,0.0,0.0,0.3238017578125,0.0,0.0,0.0,0.0,0.0,0.0,1.0934783022466315,0.0,0.0,0.0,0.0,0.0,0.0,-0.356,0.0
36,0.0,0.0,0.0,0.0,0.0,0.3357314453125,0.0,0.0,0.0,0.0,0.0,0.0,1.0934783022466315,0.0,0.0,0.0,0.0,0.0,0.0,-0.26,0.0
37,0.0,0.0,0.0,0.0,0.0,0.3478681640625,0.0,0.0,0.0,0.0,0.0,0.0,1.0934783022466315,0.0,0.0,0.0,0.0,0.0,0.0,-0.708,0.0
38,0.0,0.0,0.0,0.0,0.0,0.3585712890625,0.0,0.0,0.0,0.0,0.0,0.0,1.0934783022466315,0.0,0.0,0.0,0.0,0.0,0.0,-0.532,0.0
39,0.0,0.0,0.0,0.0,0.0,0.36989453125,0.0,0.0,0.0,0.0,0.0,0.0,1.0934783022466315,0.0,0.0,0.0,0.0,0.0,0.0,-0.172,0.0
40,0.0,0.0,0.0,0.0,0.0,0.3816171875,0.0,0.0,0.0,0.0,0.0,0.0,1.0934783022466315,0.0,0.0,0.0,0.0,0.0,0.0,-0.504,0.0
41,0.0,0.0,0.0,0.0,0.0,0.391494140625,0.0,0.0,0.0,0.0,0.0,0.0,1.0934783022466315,0.0,0.0,0.0,0.0,0.0,0.0,-0.52,0.0
42,0.0,0.0,0.0,0.0,0.0,0.40137109375,0.0,0.0,0.0,0.0,0.0,0.0,1.0934783022466315,0.0,0.0,0.0,0.0,0.0,0.0,-0.244,0.0
43,0.0,0.0,0.0,0.0,0.0,0.4116484375,0.0,0.0,0.0,0.0,0.0,0.0,1.0934783022466315,0.0,0.0,0.0,0.0,0.0,0.0,-0.292,0.0
44,0.0,0.0,0.0,0.0,0.0,0.421525390625,0.0,0.0,0.0,0.0,0.0,0.0,1.0934783022466315,0.0,0.0,0.0,0.0,0.0,0.0,-0.492,0.0
45,0.0,0.0,0.0,0.0,0.0,0.4307822265625,0.0,0.0,0.0,0.0,0.0,0.0,1.0934783022466315,0.0,0.0,0.0,0.0,0.0,0.0,-0.492,0.0
46,0.0,0.0,0.0,0.0,0.0,0.4404521484375,0.0,0.0,0.0,0.0,0.0,0.0,1.0934783022466315,0.0,0.0,0.0,0.0,0.0,0.0,-0.564,0.0
47,0.0,0.0,0.0,0.0,0.0,0.4497099609375,0.0,0.0,0.0,0.0,0.0,0.0,1.0934783022466315,0.0,0.0,0.0,0.0,0.0,0.0,-0.492,0.0
48,0.0,0.0,0.0,0.0,0.0,0.4593671875,0.0,0.0,0.0,0.0,0.0,0.0,1.0934783022466315,0.0,0.0,0.0,0.0,0.0,0.0,-0.26,0.0
49,0.0,0.0,0.0,0.0,0.0,0.469244140625,0.0,0.0,0.0,0.0,0.0,0.0,1.0934783022466315,0.0,0.0,0.0,0.0,0.0,0.0,-0.416,0.0
50,0.0,0.0,0.0,0.0,0.0,0.4785009765625,0.0,0.0,0.0,0.0,0.0,0.0,1.0934783022466315,0.0,0.0,0.0,0.0,0.0,0.0,-0.436,0.0
51,0.0,0.0,0.0,0.0,0.0,0.488158203125,0.0,0.0,0.0,0.0,0.0,0.0,1.0934783022466315,0.0,0.0,0.0,0.0,0.0,0.0,-0.292,0.0
52,0.0,0.0,0.0,0.0,0.0,0.4982421875,0.0,0.0,0.0,0.0,0.0,0.0,1.0934783022466315,0.0,0.0,0.0,0.0,0.0,0.0,-0.192,0.0
53,0.0,0.0,0.0,0.0,0.0,0.50851953125,0.0,0.0,0.0,0.0,0.0,0.0,1.0934783022466315,0.0,0.0,0.0,0.0,0.0,0.0,-0.388,0.0
54,0.0,0.0,0.0,0.0,0.0,0.5187958984375,0.0,0.0,0.0,0.0,0.0,0.0,1.0934783022466315,0.0,0.0,0.0,0.0,0.0,0.0,-0.5,0.0
55,0.0,0.0,0.0,0.0,0.0,0.5288798828125,0.0,0.0,0.0,0.0,0.0,0.0,1.0934783022466315,0.0,0.0,0.0,0.0,0.0,0.0,-0.436,0.0
56,0.0,0.0,0.0,0.0,0.0,0.53936328125,0.0,0.0,0.0,0.0,0.0,0.0,1.0934783022466315,0.0,0.0,0.0,0.0,0.0,0.0,-0.156,0.0
57,0.0,0.0,0.0,0.0,0.0,0.550259765625,0.0,0.0,0.0,0.0,0.0,0.0,1.0934783022466315,0.0,0.0,0.0,0.0,0.0,0.0,-0.188,0.0
58,0.0,0.0,0.0,0.0,0.0,0.5609501953125,0.0,0.0,0.0,0.0,0.0,0.0,1.0934783022466315,0.0,0.0,0.0,0.0,0.0,0.0,-0.264,0.0
59,0.0,0.0,0.0,0.0,0.0,0.57143359375,0.0,0.0,0.0,0.0,0.0,0.0,1.0934783022466315,0.0,0.0,0.0,0.0,0.0,0.0,-0.208,0.0
60,0.0,0.0,0.0,0.0,0.0,0.58191796875,0.0,0.0,0.0,0.0,0.0,0.0,1.0934783022466315,0.0,0.0,0.0,0.0,0.0,0.0,-0.064,0.0
61,0.0,0.0,0.0,0.0,0.0,0.592814453125,0.0,0.0,0.0,0.0,0.0,0.0,1.0934783022466315,0.0,0.0,0.0,0.0,0.0,0.0,-0.116,0.0
62,0.0,0.0,0.0,0.0,0.0,0.6037119140625,0.0,0.0,0.0,0.0,0.0,0.0,1.0934783022466315,0.0,0.0,0.0,0.0,0.0,0.0,-0.272,0.0
63,0.0,0.0,0.0,0.0,0.0,0.61398828125,0.0,0.0,0.0,0.0,0.0,0.0,1.0934783022466315,0.0,0.0,0.0,0.0,0.0,0.0,-0.292,0.0
64,0.0,0.0,0.0,0.0,0.0,0.62405859375,0.0,0.0,0.0,0.0,0.0,0.0,1.0934783022466315,0.0,0.0,0.0,0.0,0.0,0.0,0.0,0.0
65,0.0,0.0,0.0,0.0,0.0,0.635162109375,0.0,0.0,0.0,0.0,0.0,0.0,1.0934783022466315,0.0,0.0,0.0,0.0,0.0,0.0,-0.016,0.0
66,0.0,0.0,0.0,0.0,0.0,0.646046875,0.0,0.0,0.0,0.0,0.0,0.0,1.0934783022466315,0.0,0.0,0.0,0.0,0.0,0.0,-0.252,0.0
67,0.0,0.0,0.0,0.0,0.0,0.65591015625,0.0,0.0,0.0,0.0,0.0,0.0,1.0934783022466315,0.0,0.0,0.0,0.0,0.0,0.0,-0.172,0.0
68,0.0,0.0,0.0,0.0,0.0,0.66598046875,0.0,0.0,0.0,0.0,0.0,0.0,1.0934783022466315,0.0,0.0,0.0,0.0,0.0,0.0,-0.024,0.0
69,0.0,0.0,0.0,0.0,0.0,0.6768779296875,0.0,0.0,0.0,0.0,0.0,0.0,1.0934783022466315,0.0,0.0,0.0,0.0,0.0,0.0,-0.212,0.0
70,0.0,0.0,0.0,0.0,0.0,0.6875546875,0.0,0.0,0.0,0.0,0.0,0.0,1.0934783022466315,0.0,0.0,0.0,0.0,0.0,0.0,-0.448,0.0
71,0.0,0.0,0.0,0.0,0.0,0.6976259765625,0.0,0.0,0.0,0.0,0.0,0.0,1.0934783022466315,0.0,0.0,0.0,0.0,0.0,0.0,-0.488,0.0
72,0.0,0.0,0.0,0.0,0.0,0.7076962890625,0.0,0.0,0.0,0.0,0.0,0.0,1.0934783022466315,0.0,0.0,0.0,0.0,0.0,0.0,-0.272,0.0
73,0.0,0.0,0.0,0.0,0.0,0.7181796875,0.0,0.0,0.0,0.0,0.0,0.0,1.0934783022466315,0.0,0.0,0.0,0.0,0.0,0.0,-0.156,0.0
74,0.0,0.0,0.0,0.0,0.0,0.7290771484375,0.0,0.0,0.0,0.0,0.0,0.0,1.0934783022466315,0.0,0.0,0.0,0.0,0.0,0.0,-0.264,0.0
75,0.0,0.0,0.0,0.0,0.0,0.739353515625,0.0,0.0,0.0,0.0,0.0,0.0,1.0934783022466315,0.0,0.0,0.0,0.0,0.0,0.0,-0.324,0.0
76,0.0,0.0,0.0,0.0,0.0,0.7490107421875,0.0,0.0,0.0,0.0,0.0,0.0,1.0934783022466315,0.0,0.0,0.0,0.0,0.0,0.0,-0.136,0.0
77,0.0,0.0,0.0,0.0,0.0,0.75908203125,0.0,0.0,0.0,0.0,0.0,0.0,1.0934783022466315,0.0,0.0,0.0,0.0,0.0,0.0,0.056,0.0
78,0.0,0.0,0.0,0.0,0.0,0.769552734375,0.0,0.0,0.0,0.0,0.0,0.0,1.0934783022466315,0.0,0.0,0.0,0.0,0.0,0.0,-0.024,0.0
79,0.0,0.0,0.0,0.0,0.0,0.7798291015625,0.0,0.0,0.0,0.0,0.0,0.0,1.0934783022466315,0.0,0.0,0.0,0.0,0.0,0.0,-0.156,0.0
80,0.0,0.0,0.0,0.0,0.0,0.789693359375,0.0,0.0,0.0,0.0,0.0,0.0,1.0934783022466315,0.0,0.0,0.0,0.0,0.0,0.0,-0.076,0.0
81,0.0,0.0,0.0,0.0,0.0,0.7993505859375,0.0,0.0,0.0,0.0,0.0,0.0,1.0934783022466315,0.0,0.0,0.0,0.0,0.0,0.0,0.24,0.0
82,0.0,0.0,0.0,0.0,0.0,0.8100283203125,0.0,0.0,0.0,0.0,0.0,0.0,1.0934783022466315,0.0,0.0,0.0,0.0,0.0,0.0,0.208,0.0
83,0.0,0.0,0.0,0.0,0.0,0.820912109375,0.0,0.0,0.0,0.0,0.0,0.0,1.0934783022466315,0.0,0.0,0.0,0.0,0.0,0.0,-0.016,0.0
84,0.0,0.0,0.0,0.0,0.0,0.8307763671875,0.0,0.0,0.0,0.0,0.0,0.0,1.0934783022466315,0.0,0.0,0.0,0.0,0.0,0.0,-0.12,0.0
85,0.0,0.0,0.0,0.0,0.0,0.8402265625,0.0,0.0,0.0,0.0,0.0,0.0,1.0934783022466315,0.0,0.0,0.0,0.0,0.0,0.0,0.212,0.0
86,0.0,0.0,0.0,0.0,0.0,0.850904296875,0.0,0.0,0.0,0.0,0.0,0.0,1.0934783022466315,0.0,0.0,0.0,0.0,0.0,0.0,0.108,0.0
87,0.0,0.0,0.0,0.0,0.0,0.8619951171875,0.0,0.0,0.0,0.0,0.0,0.0,1.0934783022466315,0.0,0.0,0.0,0.0,0.0,0.0,-0.208,0.0
88,0.0,0.0,0.0,0.0,0.0,0.872478515625,0.0,0.0,0.0,0.0,0.0,0.0,1.0934783022466315,0.0,0.0,0.0,0.0,0.0,0.0,-0.408,0.0
89,0.0,0.0,0.0,0.0,0.0,0.8823427734375,0.0,0.0,0.0,0.0,0.0,0.0,1.0934783022466315,0.0,0.0,0.0,0.0,0.0,0.0,-0.076,0.0
90,0.0,0.0,0.0,0.0,0.0,0.8928134765625,0.0,0.0,0.0,0.0,0.0,0.0,1.0934783022466315,0.0,0.0,0.0,0.0,0.0,0.0,0.064,0.0
91,0.0,0.0,0.0,0.0,0.0,0.9039033203125,0.0,0.0,0.0,0.0,0.0,0.0,1.0934783022466315,0.0,0.0,0.0,0.0,0.0,0.0,-0.044,0.0
92,0.0,0.0,0.0,0.0,0.0,0.91459375,0.0,0.0,0.0,0.0,0.0,0.0,1.0934783022466315,0.0,0.0,0.0,0.0,0.0,0.0,-0.156,0.0
93,0.0,0.0,0.0,0.0,0.0,0.9240322265625,0.0,0.0,0.0,0.0,0.0,0.0,1.0934783022466315,0.0,0.0,0.0,0.0,0.0,0.0,0.16,0.0
94,0.0,0.0,0.0,0.0,0.0,0.9341025390625,0.0,0.0,0.0,0.0,0.0,0.0,1.0934783022466315,0.0,0.0,0.0,0.0,0.0,0.0,0.44,0.0
95,0.0,0.0,0.0,0.0,0.0,0.9453994140625,0.0,0.0,0.0,0.0,0.0,0.0,1.0934783022466315,0.0,0.0,0.0,0.0,0.0,0.0,0.22,0.0
96,0.0,0.0,0.0,0.0,0.0,0.9562705078125,0.0,0.0,0.0,0.0,0.0,0.0,1.0934783022466315,0.0,0.0,0.0,0.0,0.0,0.0,-0.14,0.0
97,0.0,0.0,0.0,0.0,0.0,0.9657216796875,0.0,0.0,0.0,0.0,0.0,0.0,1.0934783022466315,0.0,0.0,0.0,0.0,0.0,0.0,0.032,0.0
98,0.0,0.0,0.0,0.0,0.0,0.97537890625,0.0,0.0,0.0,0.0,0.0,0.0,1.0934783022466315,0.0,0.0,0.0,0.0,0.0,0.0,0.52,0.0
99,0.0,0.0,0.0,0.0,0.0,0.98667578125,0.0,0.0,0.0,0.0,0.0,0.0,1.0934783022466315,0.0,0.0,0.0,0.0,0.0,0.0,0.428,0.0
100,0.0,0.0,0.0,0.0,0.0,0.9977666015625,0.0,0.0,0.0,0.0,0.0,0.0,1.0934783022466315,0.0,0.0,0.0,0.0,0.0,0.0,-0.024,0.0
101,0.0,0.0,0.0,0.0,0.0,1.007423828125,0.0,0.0,0.0,0.0,0.0,0.0,1.0934783022466315,0.0,0.0,0.0,0.0,0.0,0.0,-0.004,0.0
102,0.0,0.0,0.0,0.0,0.0,1.0168740234375,0.0,0.0,0.0,0.0,0.0,0.0,1.0934783022466315,0.0,0.0,0.0,0.0,0.0,0.0,0.42,0.0
103,0.0,0.0,0.0,0.0,0.0,1.02796484375,0.0,0.0,0.0,0.0,0.0,0.0,1.0934783022466315,0.0,0.0,0.0,0.0,0.0,0.0,0.348,0.0
104,0.0,0.0,0.0,0.0,0.0,1.0396748046875,0.0,0.0,0.0,0.0,0.0,0.0,1.0934783022466315,0.0,0.0,0.0,0.0,0.0,0.0,-0.24,0.0
105,0.0,0.0,0.0,0.0,0.0,1.049732421875,0.0,0.0,0.0,0.0,0.0,0.0,1.0934783022466315,0.0,0.0,0.0,0.0,0.0,0.0,-0.416,0.0
106,0.0,0.0,0.0,0.0,0.0,1.0589775390625,0.0,0.0,0.0,0.0,0.0,0.0,-0.5229646494457029,0.0,0.0,0.0,0.0,0.0,0.0,0.26,0.0
107,0.0,0.0,0.0,0.0,0.0,1.0694345703125,0.0,0.0,0.0,0.0,0.0,0.0,-0.5229646494457029,0.0,0.0,0.0,0.0,0.0,0.0,0.584,0.0
108,0.0,0.0,0.0,0.0,0.0,1.0811455078125,0.0,0.0,0.0,0.0,0.0,0.0,-0.5229646494457029,0.0,0.0,0.0,0.0,0.0,0.0,0.208,0.0
109,0.0,0.0,0.0,0.0,0.0,1.0910087890625,0.0,0.0,0.0,0.0,0.0,0.0,-0.5229646494457029,0.0,0.0,0.0,0.0,0.0,0.0,-0.336,0.0
110,0.0,0.0,0.0,0.0,0.0,1.0967548828125,0.0,0.0,0.0,0.0,0.0,0.0,-0.5229646494457029,0.0,0.0,0.0,0.0,0.0,0.0,-0.452,0.0
111,0.0,0.0,0.0,0.0,0.0,1.0986005859375,0.0,0.0,0.0,0.0,0.0,0.0,-0.5229646494457029,0.0,0.0,0.0,0.0,0.0,0.0,-0.172,0.0
112,0.0,0.0,0.0,0.0,0.0,1.097994140625,0.0,0.0,0.0,0.0,0.0,0.0,-0.5229646494457029,0.0,0.0,0.0,0.0,0.0,0.0,-0.076,0.0
113,0.0,0.0,0.0,0.0,0.0,1.094908203125,0.0,0.0,0.0,0.0,0.0,0.0,-0.5229646494457029,0.0,0.0,0.0,0.0,0.0,0.0,-0.312,0.0
114,0.0,0.0,0.0,0.0,0.0,1.0881298828125,0.0,0.0,0.0,0.0,0.0,0.0,-0.5229646494457029,0.0,0.0,0.0,0.0,0.0,0.0,-0.304,0.0
115,0.0,0.0,0.0,0.0,0.0,1.07847265625,0.0,0.0,0.0,0.0,0.0,0.0,-0.5229646494457029,0.0,0.0,0.0,0.0,0.0,0.0,-0.088,0.0
116,0.0,0.0,0.0,0.0,0.0,1.066568359375,0.0,0.0,0.0,0.0,0.0,0.0,-0.5229646494457029,0.0,0.0,0.0,0.0,0.0,0.0,-0.284,0.0
117,0.0,0.0,0.0,0.0,0.0,1.0524052734375,0.0,0.0,0.0,0.0,0.0,0.0,-0.5229646494457029,0.0,0.0,0.0,0.0,0.0,0.0,-0.388,0.0
118,0.0,0.0,0.0,0.0,0.0,1.03658984375,0.0,0.0,0.0,0.0,0.0,0.0,-0.5229646494457029,0.0,0.0,0.0,0.0,0.0,0.0,-0.276,0.0
119,0.0,0.0,0.0,0.0,0.0,1.019546875,0.0,0.0,0.0,0.0,0.0,0.0,-0.5229646494457029,0.0,0.0,0.0,0.0,0.0,0.0,-0.52,0.0
120,0.0,0.0,0.0,0.0,0.0,1.0004384765625,0.0,0.0,0.0,0.0,0.0,0.0,-0.5229646494457029,0.0,0.0,0.0,0.0,0.0,0.0,-0.188,0.0
121,0.0,0.0,0.0,0.0,0.0,0.9819501953125,0.0,0.0,0.0,0.0,0.0,0.0,-0.5229646494457029,0.0,0.0,0.0,0.0,0.0,0.0,-0.084,0.0
122,0.0,0.0,0.0,0.0,0.0,0.9624423828125,0.0,0.0,0.0,0.0,0.0,0.0,-0.5229646494457029,0.0,0.0,0.0,0.0,0.0,0.0,-0.428,0.0
123,0.0,0.0,0.0,0.0,0.0,0.9425205078125,0.0,0.0,0.0,0.0,0.0,0.0,-0.5229646494457029,0.0,0.0,0.0,0.0,0.0,0.0,0.024,0.0
124,0.0,0.0,0.0,0.0,0.0,0.9234248046875,0.0,0.0,0.0,0.0,0.0,0.0,-0.5229646494457029,0.0,0.0,0.0,0.0,0.0,0.0,0.016,0.0
125,0.0,0.0,0.0,0.0,0.0,0.9045234375,0.0,0.0,0.0,0.0,0.0,0.0,-0.5229646494457029,0.0,0.0,0.0,0.0,0.0,0.0,0.364,0.0
126,0.0,0.0,0.0,0.0,0.0,0.8870546875,0.0,0.0,0.0,0.0,0.0,0.0,-0.5229646494457029,0.0,0.0,0.0,0.0,0.0,0.0,0.18,0.0
127,0.0,0.0,0.0,0.0,0.0,0.8700126953125,0.0,0.0,0.0,0.0,0.0,0.0,-0.5229646494457029,0.0,0.0,0.0,0.0,0.0,0.0,0.068,0.0
128,0.0,0.0,0.0,0.0,0.0,0.8545966796875,0.0,0.0,0.0,0.0,0.0,0.0,-0.5229646494457029,0.0,0.0,0.0,0.0,0.0,0.0,0.224,0.0
129,0.0,0.0,0.0,0.0,0.0,0.8398134765625,0.0,0.0,0.0,0.0,0.0,0.0,-0.5229646494457029,0.0,0.0,0.0,0.0,0.0,0.0,0.076,0.0
130,0.0,0.0,0.0,0.0,0.0,0.82584375,0.0,0.0,0.0,0.0,0.0,0.0,-0.5229646494457029,0.0,0.0,0.0,0.0,0.0,0.0,0.492,0.0
131,0.0,0.0,0.0,0.0,0.0,0.8145341796875,0.0,0.0,0.0,0.0,0.0,0.0,-0.5229646494457029,0.0,0.0,0.0,0.0,0.0,0.0,0.472,0.0
132,0.0,0.0,0.0,0.0,0.0,0.8038701171875,0.0,0.0,0.0,0.0,0.0,0.0,-0.5229646494457029,0.0,0.0,0.0,0.0,0.0,0.0,-0.116,0.0
133,0.0,0.0,0.0,0.0,0.0,0.7933857421875,0.0,0.0,0.0,0.0,0.0,0.0,-0.5229646494457029,0.0,0.0,0.0,0.0,0.0,0.0,0.076,0.0
134,0.0,0.0,0.0,0.0,0.0,0.7849677734375,0.0,0.0,0.0,0.0,0.0,0.0,-0.5229646494457029,0.0,0.0,0.0,0.0,0.0,0.0,0.032,0.0
135,0.0,0.0,0.0,0.0,0.0,0.7777763671875,0.0,0.0,0.0,0.0,0.0,0.0,-0.5229646494457029,0.0,0.0,0.0,0.0,0.0,0.0,-0.208,0.0
136,0.0,0.0,0.0,0.0,0.0,0.770998046875,0.0,0.0,0.0,0.0,0.0,0.0,-0.5229646494457029,0.0,0.0,0.0,0.0,0.0,0.0,-0.312,0.0
137,0.0,0.0,0.0,0.0,0.0,0.7644140625,0.0,0.0,0.0,0.0,0.0,0.0,-0.5229646494457029,0.0,0.0,0.0,0.0,0.0,0.0,-0.344,0.0
138,0.0,0.0,0.0,0.0,0.0,0.758048828125,0.0,0.0,0.0,0.0,0.0,0.0,-0.5229646494457029,0.0,0.0,0.0,0.0,0.0,0.0,-0.26,0.0
139,0.0,0.0,0.0,0.0,0.0,0.752291015625,0.0,0.0,0.0,0.0,0.0,0.0,-0.5229646494457029,0.0,0.0,0.0,0.0,0.0,0.0,-0.168,0.0
140,0.0,0.0,0.0,0.0,0.0,0.7463388671875,0.0,0.0,0.0,0.0,0.0,0.0,-0.5229646494457029,0.0,0.0,0.0,0.0,0.0,0.0,-0.172,0.0
141,0.0,0.0,0.0,0.0,0.0,0.7399609375,0.0,0.0,0.0,0.0,0.0,0.0,-0.5229646494457029,0.0,0.0,0.0,0.0,0.0,0.0,0.024,0.0
142,0.0,0.0,0.0,0.0,0.0,0.7340087890625,0.0,0.0,0.0,0.0,0.0,0.0,-0.5229646494457029,0.0,0.0,0.0,0.0,0.0,0.0,0.004,0.0
143,0.0,0.0,0.0,0.0,0.0,0.727630859375,0.0,0.0,0.0,0.0,0.0,0.0,-0.5229646494457029,0.0,0.0,0.0,0.0,0.0,0.0,-0.296,0.0
144,0.0,0.0,0.0,0.0,0.0,0.71983203125,0.0,0.0,0.0,0.0,0.0,0.0,-0.5229646494457029,0.0,0.0,0.0,0.0,0.0,0.0,-0.252,0.0
145,0.0,0.0,0.0,0.0,0.0,0.7116083984375,0.0,0.0,0.0,0.0,0.0,0.0,-0.5229646494457029,0.0,0.0,0.0,0.0,0.0,0.0,0.068,0.0
146,0.0,0.0,0.0,0.0,0.0,0.7033837890625,0.0,0.0,0.0,0.0,0.0,0.0,-0.5229646494457029,0.0,0.0,0.0,0.0,0.0,0.0,-0.064,0.0
147,0.0,0.0,0.0,0.0,0.0,0.6949658203125,0.0,0.0,0.0,0.0,0.0,0.0,-0.5229646494457029,0.0,0.0,0.0,0.0,0.0,0.0,-0.272,0.0
148,0.0,0.0,0.0,0.0,0.0,0.685708984375,0.0,0.0,0.0,0.0,0.0,0.0,-0.5229646494457029,0.0,0.0,0.0,0.0,0.0,0.0,-0.324,0.0
149,0.0,0.0,0.0,0.0,0.0,0.6760517578125,0.0,0.0,0.0,0.0,0.0,0.0,-0.5229646494457029,0.0,0.0,0.0,0.0,0.0,0.0,-0.532,0.0
150,0.0,0.0,0.0,0.0,0.0,0.665361328125,0.0,0.0,0.0,0.0,0.0,0.0,-0.5229646494457029,0.0,0.0,0.0,0.0,0.0,0.0,-0.512,0.0
151,0.0,0.0,0.0,0.0,0.0,0.6542705078125,0.0,0.0,0.0,0.0,0.0,0.0,-0.5229646494457029,0.0,0.0,0.0,0.0,0.0,0.0,-0.384,0.0
152,0.0,0.0,0.0,0.0,0.0,0.643580078125,0.0,0.0,0.0,0.0,0.0,0.0,-0.5229646494457029,0.0,0.0,0.0,0.0,0.0,0.0,-0.46,0.0
153,0.0,0.0,0.0,0.0,0.0,0.6320771484375,0.0,0.0,0.0,0.0,0.0,0.0,-0.5229646494457029,0.0,0.0,0.0,0.0,0.0,0.0,-0.7,0.0
154,0.0,0.0,0.0,0.0,0.0,0.6197470703125,0.0,0.0,0.0,0.0,0.0,0.0,-0.5229646494457029,0.0,0.0,0.0,0.0,0.0,0.0,-0.544,0.0
155,0.0,0.0,0.0,0.0,0.0,0.60823046875,0.0,0.0,0.0,0.0,0.0,0.0,-0.5229646494457029,0.0,0.0,0.0,0.0,0.0,0.0,-0.688,0.0
156,0.0,0.0,0.0,0.0,0.0,0.5965205078125,0.0,0.0,0.0,0.0,0.0,0.0,-0.5229646494457029,0.0,0.0,0.0,0.0,0.0,0.0,-0.784,0.0
157,0.0,0.0,0.0,0.0,0.0,0.5835703125,0.0,0.0,0.0,0.0,0.0,0.0,-0.5229646494457029,0.0,0.0,0.0,0.0,0.0,0.0,-0.492,0.0
158,0.0,0.0,0.0,0.0,0.0,0.5710205078125,0.0,0.0,0.0,0.0,0.0,0.0,-0.5229646494457029,0.0,0.0,0.0,0.0,0.0,0.0,-0.168,0.0
159,0.0,0.0,0.0,0.0,0.0,0.559517578125,0.0,0.0,0.0,0.0,0.0,0.0,-0.5229646494457029,0.0,0.0,0.0,0.0,0.0,0.0,-0.168,0.0
160,0.0,0.0,0.0,0.0,0.0,0.547380859375,0.0,0.0,0.0,0.0,0.0,0.0,-0.5229646494457029,0.0,0.0,0.0,0.0,0.0,0.0,-0.364,0.0
161,0.0,0.0,0.0,0.0,0.0,0.5346376953125,0.0,0.0,0.0,0.0,0.0,0.0,-0.5229646494457029,0.0,0.0,0.0,0.0,0.0,0.0,-0.096,0.0
162,0.0,0.0,0.0,0.0,0.0,0.52312109375,0.0,0.0,0.0,0.0,0.0,0.0,-0.5229646494457029,0.0,0.0,0.0,0.0,0.0,0.0,-0.148,0.0
163,0.0,0.0,0.0,0.0,0.0,0.512224609375,0.0,0.0,0.0,0.0,0.0,0.0,-0.5229646494457029,0.0,0.0,0.0,0.0,0.0,0.0,-0.408,0.0
164,0.0,0.0,0.0,0.0,0.0,0.5005009765625,0.0,0.0,0.0,0.0,0.0,0.0,-0.5229646494457029,0.0,0.0,0.0,0.0,0.0,0.0,-0.376,0.0
165,0.0,0.0,0.0,0.0,0.0,0.48919140625,0.0,0.0,0.0,0.0,0.0,0.0,-0.5229646494457029,0.0,0.0,0.0,0.0,0.0,0.0,-0.068,0.0
166,0.0,0.0,0.0,0.0,0.0,0.4787080078125,0.0,0.0,0.0,0.0,0.0,0.0,-0.5229646494457029,0.0,0.0,0.0,0.0,0.0,0.0,-0.26,0.0
167,0.0,0.0,0.0,0.0,0.0,0.46841796875,0.0,0.0,0.0,0.0,0.0,0.0,-0.5229646494457029,0.0,0.0,0.0,0.0,0.0,0.0,-0.436,0.0
168,0.0,0.0,0.0,0.0,0.0,0.4577275390625,0.0,0.0,0.0,0.0,0.0,0.0,-0.5229646494457029,0.0,0.0,0.0,0.0,0.0,0.0,-0.48,0.0
169,0.0,0.0,0.0,0.0,0.0,0.4476435546875,0.0,0.0,0.0,0.0,0.0,0.0,-0.5229646494457029,0.0,0.0,0.0,0.0,0.0,0.0,-0.52,0.0
170,0.0,0.0,0.0,0.0,0.0,0.4375732421875,0.0,0.0,0.0,0.0,0.0,0.0,-0.5229646494457029,0.0,0.0,0.0,0.0,0.0,0.0,-0.752,0.0
171,0.0,0.0,0.0,0.0,0.0,0.4279033203125,0.0,0.0,0.0,0.0,0.0,0.0,-0.5229646494457029,0.0,0.0,0.0,0.0,0.0,0.0,-0.656,0.0
172,0.0,0.0,0.0,0.0,0.0,0.4180263671875,0.0,0.0,0.0,0.0,0.0,0.0,-0.5229646494457029,0.0,0.0,0.0,0.0,0.0,0.0,-0.472,0.0
173,0.0,0.0,0.0,0.0,0.0,0.4081494140625,0.0,0.0,0.0,0.0,0.0,0.0,-0.5229646494457029,0.0,0.0,0.0,0.0,0.0,0.0,-0.324,0.0
174,0.0,0.0,0.0,0.0,0.0,0.39828515625,0.0,0.0,0.0,0.0,0.0,0.0,-0.5229646494457029,0.0,0.0,0.0,0.0,0.0,0.0,-0.2,0.0
175,0.0,0.0,0.0,0.0,0.0,0.3888212890625,0.0,0.0,0.0,0.0,0.0,0.0,-0.5229646494457029,0.0,0.0,0.0,0.0,0.0,0.0,-0.16,0.0
176,0.0,0.0,0.0,0.0,0.0,0.3793583984375,0.0,0.0,0.0,0.0,0.0,0.0,-0.5229646494457029,0.0,0.0,0.0,0.0,0.0,0.0,-0.324,0.0
177,0.0,0.0,0.0,0.0,0.0,0.3694814453125,0.0,0.0,0.0,0.0,0.0,0.0,-0.5229646494457029,0.0,0.0,0.0,0.0,0.0,0.0,-0.292,0.0
178,0.0,0.0,0.0,0.0,0.0,0.3593974609375,0.0,0.0,0.0,0.0,0.0,0.0,-0.5229646494457029,0.0,0.0,0.0,0.0,0.0,0.0,-0.356,0.0
179,0.0,0.0,0.0,0.0,0.0,0.3497275390625,0.0,0.0,0.0,0.0,0.0,0.0,-0.5229646494457029,0.0,0.0,0.0,0.0,0.0,0.0,-0.552,0.0
180,0.0,0.0,0.0,0.0,0.0,0.340263671875,0.0,0.0,0.0,0.0,0.0,0.0,-0.5229646494457029,0.0,0.0,0.0,0.0,0.0,0.0,-0.592,0.0
181,0.0,0.0,0.0,0.0,0.0,0.33059375,0.0,0.0,0.0,0.0,0.0,0.0,-0.5229646494457029,0.0,0.0,0.0,0.0,0.0,0.0,-0.572,0.0
182,0.0,0.0,0.0,0.0,0.0,0.320509765625,0.0,0.0,0.0,0.0,0.0,0.0,-0.5229646494457029,0.0,0.0,0.0,0.0,0.0,0.0,-0.616,0.0
183,0.0,0.0,0.0,0.0,0.0,0.3102197265625,0.0,0.0,0.0,0.0,0.0,0.0,-0.5229646494457029,0.0,0.0,0.0,0.0,0.0,0.0,-0.708,0.0
184,0.0,0.0,0.0,0.0,0.0,0.3003427734375,0.0,0.0,0.0,0.0,0.0,0.0,-0.5229646494457029,0.0,0.0,0.0,0.0,0.0,0.0,-0.76,0.0
185,0.0,0.0,0.0,0.0,0.0,0.290259765625,0.0,0.0,0.0,0.0,0.0,0.0,-0.5229646494457029,0.0,0.0,0.0,0.0,0.0,0.0,-0.772,0.0
186,0.0,0.0,0.0,0.0,0.0,0.279556640625,0.0,0.0,0.0,0.0,0.0,0.0,-0.5229646494457029,0.0,0.0,0.0,0.0,0.0,0.0,-0.676,0.0
187,0.0,0.0,0.0,0.0,0.0,0.268646484375,0.0,0.0,0.0,0.0,0.0,0.0,-0.5229646494457029,0.0,0.0,0.0,0.0,0.0,0.0,-0.624,0.0
188,0.0,0.0,0.0,0.0,0.0,0.258150390625,0.0,0.0,0.0,0.0,0.0,0.0,-0.5229646494457029,0.0,0.0,0.0,0.0,0.0,0.0,-0.576,0.0
189,0.0,0.0,0.0,0.0,0.0,0.2476533203125,0.0,0.0,0.0,0.0,0.0,0.0,-0.5229646494457029,0.0,0.0,0.0,0.0,0.0,0.0,-0.524,0.0
190,0.0,0.0,0.0,0.0,0.0,0.236744140625,0.0,0.0,0.0,0.0,0.0,0.0,-0.5229646494457029,0.0,0.0,0.0,0.0,0.0,0.0,-0.316,0.0
191,0.0,0.0,0.0,0.0,0.0,0.2254208984375,0.0,0.0,0.0,0.0,0.0,0.0,-0.5229646494457029,0.0,0.0,0.0,0.0,0.0,0.0,-0.224,0.0
192,0.0,0.0,0.0,0.0,0.0,0.214498046875,0.0,0.0,0.0,0.0,0.0,0.0,-0.5229646494457029,0.0,0.0,0.0,0.0,0.0,0.0,-0.156,0.0
193,0.0,0.0,0.0,0.0,0.0,0.203794921875,0.0,0.0,0.0,0.0,0.0,0.0,-0.5229646494457029,0.0,0.0,0.0,0.0,0.0,0.0,-0.272,0.0
194,0.0,0.0,0.0,0.0,0.0,0.1926787109375,0.0,0.0,0.0,0.0,0.0,0.0,-0.5229646494457029,0.0,0.0,0.0,0.0,0.0,0.0,-0.264,0.0
195,0.0,0.0,0.0,0.0,0.0,0.1817685546875,0.0,0.0,0.0,0.0,0.0,0.0,-0.5229646494457029,0.0,0.0,0.0,0.0,0.0,0.0,-0.488,0.0
196,0.0,0.0,0.0,0.0,0.0,0.16117578125,0.0,0.0,0.0,0.0,0.0,0.0,-0.5229646494457029,0.0,0.0,0.0,0.0,0.0,0.0,-0.824,0.0
197,0.0,0.0,0.0,0.0,0.0,0.16117578125,0.0,0.0,0.0,0.0,0.0,0.0,-0.5229646494457029,0.0,0.0,0.0,0.0,0.0,0.0,-0.824,0.0
198,0.0,0.0,0.0,0.0,0.0,0.150666015625,0.0,0.0,0.0,0.0,0.0,0.0,-0.5229646494457029,0.0,0.0,0.0,0.0,0.0,0.0,-0.852,0.0
199,0.0,0.0,0.0,0.0,0.0,0.1397568359375,0.0,0.0,0.0,0.0,0.0,0.0,-0.5229646494457029,0.0,0.0,0.0,0.0,0.0,0.0,-0.872,0.0
200,0.0,0.0,0.0,0.0,0.0,0.1294541015625,0.0,0.0,0.0,0.0,0.0,0.0,-0.5229646494457029,0.0,0.0,0.0,0.0,0.0,0.0,-0.856,0.0
201,0.0,0.0,0.0,0.0,0.0,0.119564453125,0.0,0.0,0.0,0.0,0.0,0.0,-0.5229646494457029,0.0,0.0,0.0,0.0,0.0,0.0,-1.012,0.0
202,0.0,0.0,0.0,0.0,0.0,0.1090673828125,0.0,0.0,0.0,0.0,0.0,0.0,-0.5229646494457029,0.0,0.0,0.0,0.0,0.0,0.0,-0.864,0.0
203,0.0,0.0,0.0,0.0,0.0,0.09814453125,0.0,0.0,0.0,0.0,0.0,0.0,-0.5229646494457029,0.0,0.0,0.0,0.0,0.0,0.0,-0.716,0.0
204,0.0,0.0,0.0,0.0,0.0,0.087841796875,0.0,0.0,0.0,0.0,0.0,0.0,-0.5229646494457029,0.0,0.0,0.0,0.0,0.0,0.0,-0.772,0.0
205,0.0,0.0,0.0,0.0,0.0,0.0777587890625,0.0,0.0,0.0,0.0,0.0,0.0,-0.5229646494457029,0.0,0.0,0.0,0.0,0.0,0.0,-0.624,0.0
206,0.0,0.0,0.0,0.0,0.0,0.0678681640625,0.0,0.0,0.0,0.0,0.0,0.0,-0.5229646494457029,0.0,0.0,0.0,0.0,0.0,0.0,-0.312,0.0
207,0.0,0.0,0.0,0.0,0.0,0.05715234375,0.0,0.0,0.0,0.0,0.0,0.0,-0.5229646494457029,0.0,0.0,0.0,0.0,0.0,0.0,-0.4,0.0
208,0.0,0.0,0.0,0.0,0.0,0.0462294921875,0.0,0.0,0.0,0.0,0.0,0.0,-0.5229646494457029,0.0,0.0,0.0,0.0,0.0,0.0,-0.304,0.0
209,0.0,0.0,0.0,0.0,0.0,0.03633984375,0.0,0.0,0.0,0.0,0.0,0.0,-0.5229646494457029,0.0,0.0,0.0,0.0,0.0,0.0,-0.364,0.0
210,0.0,0.0,0.0,0.0,0.0,0.026037109375,0.0,0.0,0.0,0.0,0.0,0.0,-0.5229646494457029,0.0,0.0,0.0,0.0,0.0,0.0,-0.356,0.0
211,0.0,0.0,0.0,0.0,0.0,0.0153212890625,0.0,0.0,0.0,0.0,0.0,0.0,-0.5229646494457029,0.0,0.0,0.0,0.0,0.0,0.0,-0.364,0.0
212,0.0,0.0,0.0,0.0,0.0,0.0050185546875,0.0,0.0,0.0,0.0,0.0,0.0,-0.5229646494457029,0.0,0.0,0.0,0.0,0.0,0.0,-0.676,0.0
213,0.0,0.0,0.0,0.0,0.0,-0.00508984375,0.0,0.0,0.0,0.0,0.0,0.0,-0.5229646494457029,0.0,0.0,0.0,0.0,0.0,0.0,-0.852,0.0
214,0.0,0.0,0.0,0.0,0.0,-0.0149794921875,0.0,0.0,0.0,0.0,0.0,0.0,-0.5229646494457029,0.0,0.0,0.0,0.0,0.0,0.0,-0.676,0.0
215,0.0,0.0,0.0,0.0,0.0,-0.025283203125,0.0,0.0,0.0,0.0,0.0,0.0,-0.5229646494457029,0.0,0.0,0.0,0.0,0.0,0.0,-0.864,0.0
216,0.0,0.0,0.0,0.0,0.0,-0.036205078125,0.0,0.0,0.0,0.0,0.0,0.0,-0.5229646494457029,0.0,0.0,0.0,0.0,0.0,0.0,-0.856,0.0
217,0.0,0.0,0.0,0.0,0.0,-0.0461083984375,0.0,0.0,0.0,0.0,0.0,0.0,-0.5229646494457029,0.0,0.0,0.0,0.0,0.0,0.0,-0.956,0.0
218,0.0,0.0,0.0,0.0,0.0,-0.0562041015625,0.0,0.0,0.0,0.0,0.0,0.0,-0.5229646494457029,0.0,0.0,0.0,0.0,0.0,0.0,-0.996,0.0
219,0.0,0.0,0.0,0.0,0.0,-0.0667265625,0.0,0.0,0.0,0.0,0.0,0.0,-0.5229646494457029,0.0,0.0,0.0,0.0,0.0,0.0,-0.82,0.0
220,0.0,0.0,0.0,0.0,0.0,-0.077443359375,0.0,0.0,0.0,0.0,0.0,0.0,-0.5229646494457029,0.0,0.0,0.0,0.0,0.0,0.0,-0.872,0.0
221,0.0,0.0,0.0,0.0,0.0,-0.0879521484375,0.0,0.0,0.0,0.0,0.0,0.0,-0.5229646494457029,0.0,0.0,0.0,0.0,0.0,0.0,-0.876,0.0
222,0.0,0.0,0.0,0.0,0.0,-0.0980615234375,0.0,0.0,0.0,0.0,0.0,0.0,-0.5229646494457029,0.0,0.0,0.0,0.0,0.0,0.0,-0.608,0.0
223,0.0,0.0,0.0,0.0,0.0,-0.1083779296875,0.0,0.0,0.0,0.0,0.0,0.0,-0.5229646494457029,0.0,0.0,0.0,0.0,0.0,0.0,-0.376,0.0
224,0.0,0.0,0.0,0.0,0.0,-0.11951953125,0.0,0.0,0.0,0.0,0.0,0.0,-0.5229646494457029,0.0,0.0,0.0,0.0,0.0,0.0,-0.376,0.0
225,0.0,0.0,0.0,0.0,0.0,-0.1302490234375,0.0,0.0,0.0,0.0,0.0,0.0,-0.5229646494457029,0.0,0.0,0.0,0.0,0.0,0.0,-0.388,0.0
226,0.0,0.0,0.0,0.0,0.0,-0.1403583984375,0.0,0.0,0.0,0.0,0.0,0.0,-0.5229646494457029,0.0,0.0,0.0,0.0,0.0,0.0,-0.408,0.0
227,0.0,0.0,0.0,0.0,0.0,-0.15107421875,0.0,0.0,0.0,0.0,0.0,0.0,-0.5229646494457029,0.0,0.0,0.0,0.0,0.0,0.0,-0.304,0.0
228,0.0,0.0,0.0,0.0,0.0,-0.162216796875,0.0,0.0,0.0,0.0,0.0,0.0,-0.5229646494457029,0.0,0.0,0.0,0.0,0.0,0.0,-0.368,0.0
229,0.0,0.0,0.0,0.0,0.0,-0.1729453125,0.0,0.0,0.0,0.0,0.0,0.0,-0.5229646494457029,0.0,0.0,0.0,0.0,0.0,0.0,-0.524,0.0
230,0.0,0.0,0.0,0.0,0.0,-0.1832607421875,0.0,0.0,0.0,0.0,0.0,0.0,-0.5229646494457029,0.0,0.0,0.0,0.0,0.0,0.0,-0.544,0.0
231,0.0,0.0,0.0,0.0,0.0,-0.1933701171875,0.0,0.0,0.0,0.0,0.0,0.0,-0.5229646494457029,0.0,0.0,0.0,0.0,0.0,0.0,-0.396,0.0
232,0.0,0.0,0.0,0.0,0.0,-0.2045126953125,0.0,0.0,0.0,0.0,0.0,0.0,-0.5229646494457029,0.0,0.0,0.0,0.0,0.0,0.0,-0.54,0.0
233,0.0,0.0,0.0,0.0,0.0,-0.21503515625,0.0,0.0,0.0,0.0,0.0,0.0,-0.5229646494457029,0.0,0.0,0.0,0.0,0.0,0.0,-0.728,0.0
234,0.0,0.0,0.0,0.0,0.0,-0.22514453125,0.0,0.0,0.0,0.0,0.0,0.0,-0.5229646494457029,0.0,0.0,0.0,0.0,0.0,0.0,-0.872,0.0
235,0.0,0.0,0.0,0.0,0.0,-0.235046875,0.0,0.0,0.0,0.0,0.0,0.0,-0.5229646494457029,0.0,0.0,0.0,0.0,0.0,0.0,-0.784,0.0
236,0.0,0.0,0.0,0.0,0.0,-0.2459951171875,0.0,0.0,0.0,0.0,0.0,0.0,-0.5229646494457029,0.0,0.0,0.0,0.0,0.0,0.0,-0.996,0.0
237,0.0,0.0,0.0,0.0,0.0,-0.2563115234375,0.0,0.0,0.0,0.0,0.0,0.0,-0.5229646494457029,0.0,0.0,0.0,0.0,0.0,0.0,-1.04,0.0
238,0.0,0.0,0.0,0.0,0.0,-0.2660078125,0.0,0.0,0.0,0.0,0.0,0.0,-0.5229646494457029,0.0,0.0,0.0,0.0,0.0,0.0,-1.112,0.0
239,0.0,0.0,0.0,0.0,0.0,-0.275716796875,0.0,0.0,0.0,0.0,0.0,0.0,-0.5229646494457029,0.0,0.0,0.0,0.0,0.0,0.0,-0.884,0.0
240,0.0,0.0,0.0,0.0,0.0,-0.2860322265625,0.0,0.0,0.0,0.0,0.0,0.0,-0.5229646494457029,0.0,0.0,0.0,0.0,0.0,0.0,-0.888,0.0
241,0.0,0.0,0.0,0.0,0.0,-0.2965673828125,0.0,0.0,0.0,0.0,0.0,0.0,-0.5229646494457029,0.0,0.0,0.0,0.0,0.0,0.0,-0.928,0.0
242,0.0,0.0,0.0,0.0,0.0,-0.306689453125,0.0,0.0,0.0,0.0,0.0,0.0,-0.5229646494457029,0.0,0.0,0.0,0.0,0.0,0.0,-0.876,0.0
243,0.0,0.0,0.0,0.0,0.0,-0.31660546875,0.0,0.0,0.0,0.0,0.0,0.0,-0.5229646494457029,0.0,0.0,0.0,0.0,0.0,0.0,-0.636,0.0
244,0.0,0.0,0.0,0.0,0.0,-0.3269208984375,0.0,0.0,0.0,0.0,0.0,0.0,-0.5229646494457029,0.0,0.0,0.0,0.0,0.0,0.0,-0.54,0.0
245,0.0,0.0,0.0,0.0,0.0,-0.338076171875,0.0,0.0,0.0,0.0,0.0,0.0,-0.5229646494457029,0.0,0.0,0.0,0.0,0.0,0.0,-0.5,0.0
246,0.0,0.0,0.0,0.0,0.0,-0.348611328125,0.0,0.0,0.0,0.0,0.0,0.0,-0.5229646494457029,0.0,0.0,0.0,0.0,0.0,0.0,-0.488,0.0
247,0.0,0.0,0.0,0.0,0.0,-0.3585146484375,0.0,0.0,0.0,0.0,0.0,0.0,-0.5229646494457029,0.0,0.0,0.0,0.0,0.0,0.0,-0.416,0.0
248,0.0,0.0,0.0,0.0,0.0,-0.3690498046875,0.0,0.0,0.0,0.0,0.0,0.0,-0.5229646494457029,0.0,0.0,0.0,0.0,0.0,0.0,-0.224,0.0
249,0.0,0.0,0.0,0.0,0.0,-0.3806181640625,0.0,0.0,0.0,0.0,0.0,0.0,-0.5229646494457029,0.0,0.0,0.0,0.0,0.0,0.0,-0.14,0.0
250,0.0,0.0,0.0,0.0,0.0,-0.391359375,0.0,0.0,0.0,0.0,0.0,0.0,-0.5229646494457029,0.0,0.0,0.0,0.0,0.0,0.0,-0.26,0.0
251,0.0,0.0,0.0,0.0,0.0,-0.4018955078125,0.0,0.0,0.0,0.0,0.0,0.0,-0.5229646494457029,0.0,0.0,0.0,0.0,0.0,0.0,-0.224,0.0
252,0.0,0.0,0.0,0.0,0.0,-0.4124306640625,0.0,0.0,0.0,0.0,0.0,0.0,-0.5229646494457029,0.0,0.0,0.0,0.0,0.0,0.0,-0.188,0.0
253,0.0,0.0,0.0,0.0,0.0,-0.42401171875,0.0,0.0,0.0,0.0,0.0,0.0,-0.5229646494457029,0.0,0.0,0.0,0.0,0.0,0.0,-0.396,0.0
254,0.0,0.0,0.0,0.0,0.0,-0.4349599609375,0.0,0.0,0.0,0.0,0.0,0.0,-0.5229646494457029,0.0,0.0,0.0,0.0,0.0,0.0,-0.448,0.0
255,0.0,0.0,0.0,0.0,0.0,-0.4446689453125,0.0,0.0,0.0,0.0,0.0,0.0,-0.5229646494457029,0.0,0.0,0.0,0.0,0.0,0.0,-0.624,0.0
256,0.0,0.0,0.0,0.0,0.0,-0.454998046875,0.0,0.0,0.0,0.0,0.0,0.0,-0.5229646494457029,0.0,0.0,0.0,0.0,0.0,0.0,-0.636,0.0
257,0.0,0.0,0.0,0.0,0.0,-0.466359375,0.0,0.0,0.0,0.0,0.0,0.0,-0.5229646494457029,0.0,0.0,0.0,0.0,0.0,0.0,-0.608,0.0
258,0.0,0.0,0.0,0.0,0.0,-0.4769072265625,0.0,0.0,0.0,0.0,0.0,0.0,-0.5229646494457029,0.0,0.0,0.0,0.0,0.0,0.0,-0.708,0.0
259,0.0,0.0,0.0,0.0,0.0,-0.486203125,0.0,0.0,0.0,0.0,0.0,0.0,0.817735377578519,0.0,0.0,0.0,0.0,0.0,0.0,-0.968,0.0
260,0.0,0.0,0.0,0.0,0.0,-0.4965322265625,0.0,0.0,0.0,0.0,0.0,0.0,0.817735377578519,0.0,0.0,0.0,0.0,0.0,0.0,-0.812,0.0
261,0.0,0.0,0.0,0.0,0.0,-0.5068740234375,0.0,0.0,0.0,0.0,0.0,0.0,0.817735377578519,0.0,0.0,0.0,0.0,0.0,0.0,-0.924,0.0
262,0.0,0.0,0.0,0.0,0.0,-0.516169921875,0.0,0.0,0.0,0.0,0.0,0.0,0.817735377578519,0.0,0.0,0.0,0.0,0.0,0.0,-0.812,0.0
263,0.0,0.0,0.0,0.0,0.0,-0.521759765625,0.0,0.0,0.0,0.0,0.0,0.0,0.817735377578519,0.0,0.0,0.0,0.0,0.0,0.0,-0.336,0.0
264,0.0,0.0,0.0,0.0,0.0,-0.5232060546875,0.0,0.0,0.0,0.0,0.0,0.0,0.817735377578519,0.0,0.0,0.0,0.0,0.0,0.0,-0.452,0.0
265,0.0,0.0,0.0,0.0,0.0,-0.5234130859375,0.0,0.0,0.0,0.0,0.0,0.0,0.817735377578519,0.0,0.0,0.0,0.0,0.0,0.0,-0.376,0.0
266,0.0,0.0,0.0,0.0,0.0,-0.52071484375,0.0,0.0,0.0,0.0,0.0,0.0,0.817735377578519,0.0,0.0,0.0,0.0,0.0,0.0,-0.044,0.0
267,0.0,0.0,0.0,0.0,0.0,-0.5147236328125,0.0,0.0,0.0,0.0,0.0,0.0,0.817735377578519,0.0,0.0,0.0,0.0,0.0,0.0,-0.12,0.0
268,0.0,0.0,0.0,0.0,0.0,-0.5064609375,0.0,0.0,0.0,0.0,0.0,0.0,0.817735377578519,0.0,0.0,0.0,0.0,0.0,0.0,0.136,0.0
269,0.0,0.0,0.0,0.0,0.0,-0.4954990234375,0.0,0.0,0.0,0.0,0.0,0.0,0.817735377578519,0.0,0.0,0.0,0.0,0.0,0.0,0.428,0.0
270,0.0,0.0,0.0,0.0,0.0,-0.4828984375,0.0,0.0,0.0,0.0,0.0,0.0,0.817735377578519,0.0,0.0,0.0,0.0,0.0,0.0,0.192,0.0
271,0.0,0.0,0.0,0.0,0.0,-0.4684248046875,0.0,0.0,0.0,0.0,0.0,0.0,0.817735377578519,0.0,0.0,0.0,0.0,0.0,0.0,0.12,0.0
272,0.0,0.0,0.0,0.0,0.0,-0.4518994140625,0.0,0.0,0.0,0.0,0.0,0.0,0.817735377578519,0.0,0.0,0.0,0.0,0.0,0.0,0.332,0.0
273,0.0,0.0,0.0,0.0,0.0,-0.4347529296875,0.0,0.0,0.0,0.0,0.0,0.0,0.817735377578519,0.0,0.0,0.0,0.0,0.0,0.0,-0.172,0.0
274,0.0,0.0,0.0,0.0,0.0,-0.417388671875,0.0,0.0,0.0,0.0,0.0,0.0,0.817735377578519,0.0,0.0,0.0,0.0,0.0,0.0,0.208,0.0
275,0.0,0.0,0.0,0.0,0.0,-0.3973505859375,0.0,0.0,0.0,0.0,0.0,0.0,0.817735377578519,0.0,0.0,0.0,0.0,0.0,0.0,0.108,0.0
276,0.0,0.0,0.0,0.0,0.0,-0.3787587890625,0.0,0.0,0.0,0.0,0.0,0.0,0.817735377578519,0.0,0.0,0.0,0.0,0.0,0.0,-0.368,0.0
277,0.0,0.0,0.0,0.0,0.0,-0.3593408203125,0.0,0.0,0.0,0.0,0.0,0.0,0.817735377578519,0.0,0.0,0.0,0.0,0.0,0.0,0.14,0.0
278,0.0,0.0,0.0,0.0,0.0,-0.339728515625,0.0,0.0,0.0,0.0,0.0,0.0,0.817735377578519,0.0,0.0,0.0,0.0,0.0,0.0,-1.132,0.0
279,0.0,0.0,0.0,0.0,0.0,-0.3219638671875,0.0,0.0,0.0,0.0,0.0,0.0,0.817735377578519,0.0,0.0,0.0,0.0,0.0,0.0,-0.428,0.0
280,0.0,0.0,0.0,0.0,0.0,-0.3029716796875,0.0,0.0,0.0,0.0,0.0,0.0,0.817735377578519,0.0,0.0,0.0,0.0,0.0,0.0,-0.832,0.0
281,0.0,0.0,0.0,0.0,0.0,-0.2868583984375,0.0,0.0,0.0,0.0,0.0,0.0,0.817735377578519,0.0,0.0,0.0,0.0,0.0,0.0,-0.948,0.0
282,0.0,0.0,0.0,0.0,0.0,-0.2699326171875,0.0,0.0,0.0,0.0,0.0,0.0,0.817735377578519,0.0,0.0,0.0,0.0,0.0,0.0,-0.54,0.0
283,0.0,0.0,0.0,0.0,0.0,-0.254658203125,0.0,0.0,0.0,0.0,0.0,0.0,0.817735377578519,0.0,0.0,0.0,0.0,0.0,0.0,-1.712,0.0
284,0.0,0.0,0.0,0.0,0.0,-0.2420703125,0.0,0.0,0.0,0.0,0.0,0.0,0.817735377578519,0.0,0.0,0.0,0.0,0.0,0.0,-0.792,0.0
285,0.0,0.0,0.0,0.0,0.0,-0.2272099609375,0.0,0.0,0.0,0.0,0.0,0.0,0.817735377578519,0.0,0.0,0.0,0.0,0.0,0.0,-0.94,0.0
286,0.0,0.0,0.0,0.0,0.0,-0.2164814453125,0.0,0.0,0.0,0.0,0.0,0.0,0.817735377578519,0.0,0.0,0.0,0.0,0.0,0.0,-1.612,0.0
287,0.0,0.0,0.0,0.0,0.0,-0.2071982421875,0.0,0.0,0.0,0.0,0.0,0.0,0.817735377578519,0.0,0.0,0.0,0.0,0.0,0.0,-0.532,0.0
288,0.0,0.0,0.0,0.0,0.0,-0.1954365234375,0.0,0.0,0.0,0.0,0.0,0.0,0.817735377578519,0.0,0.0,0.0,0.0,0.0,0.0,-1.032,0.0
289,0.0,0.0,0.0,0.0,0.0,-0.1880126953125,0.0,0.0,0.0,0.0,0.0,0.0,0.817735377578519,0.0,0.0,0.0,0.0,0.0,0.0,-1.052,0.0
290,0.0,0.0,0.0,0.0,0.0,-0.1811953125,0.0,0.0,0.0,0.0,0.0,0.0,0.817735377578519,0.0,0.0,0.0,0.0,0.0,0.0,-0.396,0.0
291,0.0,0.0,0.0,0.0,0.0,-0.1733583984375,0.0,0.0,0.0,0.0,0.0,0.0,0.817735377578519,0.0,0.0,0.0,0.0,0.0,0.0,-1.132,0.0
292,0.0,0.0,0.0,0.0,0.0,-0.168607421875,0.0,0.0,0.0,0.0,0.0,0.0,0.817735377578519,0.0,0.0,0.0,0.0,0.0,0.0,-0.772,0.0
293,0.0,0.0,0.0,0.0,0.0,-0.162009765625,0.0,0.0,0.0,0.0,0.0,0.0,0.817735377578519,0.0,0.0,0.0,0.0,0.0,0.0,-0.244,0.0
294,0.0,0.0,0.0,0.0,0.0,-0.155412109375,0.0,0.0,0.0,0.0,0.0,0.0,0.817735377578519,0.0,0.0,0.0,0.0,0.0,0.0,-0.752,0.0
295,0.0,0.0,0.0,0.0,0.0,-0.15128125,0.0,0.0,0.0,0.0,0.0,0.0,0.817735377578519,0.0,0.0,0.0,0.0,0.0,0.0,0.016,0.0
296,0.0,0.0,0.0,0.0,0.0,-0.1444765625,0.0,0.0,0.0,0.0,0.0,0.0,0.817735377578519,0.0,0.0,0.0,0.0,0.0,0.0,-0.104,0.0
297,0.0,0.0,0.0,0.0,0.0,-0.139119140625,0.0,0.0,0.0,0.0,0.0,0.0,0.817735377578519,0.0,0.0,0.0,0.0,0.0,0.0,-0.668,0.0
298,0.0,0.0,0.0,0.0,0.0,-0.1341611328125,0.0,0.0,0.0,0.0,0.0,0.0,0.817735377578519,0.0,0.0,0.0,0.0,0.0,0.0,0.024,0.0
299,0.0,0.0,0.0,0.0,0.0,-0.1261171875,0.0,0.0,0.0,0.0,0.0,0.0,0.817735377578519,0.0,0.0,0.0,0.0,0.0,0.0,-0.552,0.0
300,0.0,0.0,0.0,0.0,0.0,-0.1199326171875,0.0,0.0,0.0,0.0,0.0,0.0,0.817735377578519,0.0,0.0,0.0,0.0,0.0,0.0,-0.488,0.0
301,0.0,0.0,0.0,0.0,0.0,-0.111669921875,0.0,0.0,0.0,0.0,0.0,0.0,0.817735377578519,0.0,0.0,0.0,0.0,0.0,0.0,-0.024,0.0
302,0.0,0.0,0.0,0.0,0.0,-0.1019736328125,0.0,0.0,0.0,0.0,0.0,0.0,0.817735377578519,0.0,0.0,0.0,0.0,0.0,0.0,-0.832,0.0
303,0.0,0.0,0.0,0.0,0.0,-0.0941494140625,0.0,0.0,0.0,0.0,0.0,0.0,0.817735377578519,0.0,0.0,0.0,0.0,0.0,0.0,-0.648,0.0
304,0.0,0.0,0.0,0.0,0.0,-0.084041015625,0.0,0.0,0.0,0.0,0.0,0.0,0.817735377578519,0.0,0.0,0.0,0.0,0.0,0.0,-0.812,0.0
305,0.0,0.0,0.0,0.0,0.0,-0.07332421875,0.0,0.0,0.0,0.0,0.0,0.0,0.817735377578519,0.0,0.0,0.0,0.0,0.0,0.0,-1.072,0.0
306,0.0,0.0,0.0,0.0,0.0,-0.062595703125,0.0,0.0,0.0,0.0,0.0,0.0,0.817735377578519,0.0,0.0,0.0,0.0,0.0,0.0,-0.376,0.0
307,0.0,0.0,0.0,0.0,0.0,-0.0500205078125,0.0,0.0,0.0,0.0,0.0,0.0,0.817735377578519,0.0,0.0,0.0,0.0,0.0,0.0,-0.884,0.0
308,0.0,0.0,0.0,0.0,0.0,-0.03909765625,0.0,0.0,0.0,0.0,0.0,0.0,0.817735377578519,0.0,0.0,0.0,0.0,0.0,0.0,-0.884,0.0
309,0.0,0.0,0.0,0.0,0.0,-0.026728515625,0.0,0.0,0.0,0.0,0.0,0.0,0.817735377578519,0.0,0.0,0.0,0.0,0.0,0.0,-0.276,0.0
310,0.0,0.0,0.0,0.0,0.0,-0.01312109375,0.0,0.0,0.0,0.0,0.0,0.0,0.817735377578519,0.0,0.0,0.0,0.0,0.0,0.0,-0.804,0.0
311,0.0,0.0,0.0,0.0,0.0,-0.0021982421875,0.0,0.0,0.0,0.0,0.0,0.0,0.817735377578519,0.0,0.0,0.0,0.0,0.0,0.0,-0.74,0.0
312,0.0,0.0,0.0,0.0,0.0,0.0105830078125,0.0,0.0,0.0,0.0,0.0,0.0,0.817735377578519,0.0,0.0,0.0,0.0,0.0,0.0,-0.356,0.0
313,0.0,0.0,0.0,0.0,0.0,0.0239716796875,0.0,0.0,0.0,0.0,0.0,0.0,0.817735377578519,0.0,0.0,0.0,0.0,0.0,0.0,-0.572,0.0
314,0.0,0.0,0.0,0.0,0.0,0.035513671875,0.0,0.0,0.0,0.0,0.0,0.0,0.817735377578519,0.0,0.0,0.0,0.0,0.0,0.0,-0.192,0.0
315,0.0,0.0,0.0,0.0,0.0,0.0480888671875,0.0,0.0,0.0,0.0,0.0,0.0,0.817735377578519,0.0,0.0,0.0,0.0,0.0,0.0,-0.232,0.0
316,0.0,0.0,0.0,0.0,0.0,0.06023828125,0.0,0.0,0.0,0.0,0.0,0.0,0.817735377578519,0.0,0.0,0.0,0.0,0.0,0.0,-0.376,0.0
317,0.0,0.0,0.0,0.0,0.0,0.0719873046875,0.0,0.0,0.0,0.0,0.0,0.0,0.817735377578519,0.0,0.0,0.0,0.0,0.0,0.0,-0.044,0.0
318,0.0,0.0,0.0,0.0,0.0,0.0839296875,0.0,0.0,0.0,0.0,0.0,0.0,0.817735377578519,0.0,0.0,0.0,0.0,0.0,0.0,-0.596,0.0
319,0.0,0.0,0.0,0.0,0.0,0.0940263671875,0.0,0.0,0.0,0.0,0.0,0.0,0.817735377578519,0.0,0.0,0.0,0.0,0.0,0.0,-0.552,0.0
320,0.0,0.0,0.0,0.0,0.0,0.1168916015625,0.0,0.0,0.0,0.0,0.0,0.0,0.817735377578519,0.0,0.0,0.0,0.0,0.0,0.0,-0.488,0.0
321,0.0,0.0,0.0,0.0,0.0,0.1168916015625,0.0,0.0,0.0,0.0,0.0,0.0,0.817735377578519,0.0,0.0,0.0,0.0,0.0,0.0,-0.488,0.0
322,0.0,0.0,0.0,0.0,0.0,0.1263681640625,0.0,0.0,0.0,0.0,0.0,0.0,0.817735377578519,0.0,0.0,0.0,0.0,0.0,0.0,-0.46,0.0
323,0.0,0.0,0.0,0.0,0.0,0.1370712890625,0.0,0.0,0.0,0.0,0.0,0.0,0.817735377578519,0.0,0.0,0.0,0.0,0.0,0.0,-0.492,0.0
324,0.0,0.0,0.0,0.0,0.0,0.1473740234375,0.0,0.0,0.0,0.0,0.0,0.0,0.817735377578519,0.0,0.0,0.0,0.0,0.0,0.0,-0.68,0.0
325,0.0,0.0,0.0,0.0,0.0,0.157263671875,0.0,0.0,0.0,0.0,0.0,0.0,0.817735377578519,0.0,0.0,0.0,0.0,0.0,0.0,-0.448,0.0
326,0.0,0.0,0.0,0.0,0.0,0.167966796875,0.0,0.0,0.0,0.0,0.0,0.0,0.817735377578519,0.0,0.0,0.0,0.0,0.0,0.0,-0.96,0.0
327,0.0,0.0,0.0,0.0,0.0,0.1770302734375,0.0,0.0,0.0,0.0,0.0,0.0,0.817735377578519,0.0,0.0,0.0,0.0,0.0,0.0,-1.144,0.0
328,0.0,0.0,0.0,0.0,0.0,0.1867138671875,0.0,0.0,0.0,0.0,0.0,0.0,0.817735377578519,0.0,0.0,0.0,0.0,0.0,0.0,-0.716,0.0
329,0.0,0.0,0.0,0.0,0.0,0.1972099609375,0.0,0.0,0.0,0.0,0.0,0.0,0.817735377578519,0.0,0.0,0.0,0.0,0.0,0.0,-0.82,0.0
330,0.0,0.0,0.0,0.0,0.0,0.2064677734375,0.0,0.0,0.0,0.0,0.0,0.0,0.817735377578519,0.0,0.0,0.0,0.0,0.0,0.0,-0.72,0.0
331,0.0,0.0,0.0,0.0,0.0,0.216150390625,0.0,0.0,0.0,0.0,0.0,0.0,0.817735377578519,0.0,0.0,0.0,0.0,0.0,0.0,-0.72,0.0
332,0.0,0.0,0.0,0.0,0.0,0.22602734375,0.0,0.0,0.0,0.0,0.0,0.0,0.817735377578519,0.0,0.0,0.0,0.0,0.0,0.0,-0.836,0.0
333,0.0,0.0,0.0,0.0,0.0,0.2352978515625,0.0,0.0,0.0,0.0,0.0,0.0,0.817735377578519,0.0,0.0,0.0,0.0,0.0,0.0,-0.4,0.0
334,0.0,0.0,0.0,0.0,0.0,0.245380859375,0.0,0.0,0.0,0.0,0.0,0.0,0.817735377578519,0.0,0.0,0.0,0.0,0.0,0.0,-0.388,0.0
335,0.0,0.0,0.0,0.0,0.0,0.255064453125,0.0,0.0,0.0,0.0,0.0,0.0,0.817735377578519,0.0,0.0,0.0,0.0,0.0,0.0,-0.636,0.0
336,0.0,0.0,0.0,0.0,0.0,0.264115234375,0.0,0.0,0.0,0.0,0.0,0.0,0.817735377578519,0.0,0.0,0.0,0.0,0.0,0.0,-0.388,0.0
337,0.0,0.0,0.0,0.0,0.0,0.2741982421875,0.0,0.0,0.0,0.0,0.0,0.0,0.817735377578519,0.0,0.0,0.0,0.0,0.0,0.0,-0.296,0.0
338,0.0,0.0,0.0,0.0,0.0,0.2840751953125,0.0,0.0,0.0,0.0,0.0,0.0,0.817735377578519,0.0,0.0,0.0,0.0,0.0,0.0,-0.18,0.0
339,0.0,0.0,0.0,0.0,0.0,0.2937587890625,0.0,0.0,0.0,0.0,0.0,0.0,0.817735377578519,0.0,0.0,0.0,0.0,0.0,0.0,-0.024,0.0
340,0.0,0.0,0.0,0.0,0.0,0.304048828125,0.0,0.0,0.0,0.0,0.0,0.0,0.817735377578519,0.0,0.0,0.0,0.0,0.0,0.0,-0.212,0.0
341,0.0,0.0,0.0,0.0,0.0,0.31371875,0.0,0.0,0.0,0.0,0.0,0.0,0.817735377578519,0.0,0.0,0.0,0.0,0.0,0.0,-0.208,0.0
342,0.0,0.0,0.0,0.0,0.0,0.3238017578125,0.0,0.0,0.0,0.0,0.0,0.0,0.817735377578519,0.0,0.0,0.0,0.0,0.0,0.0,0.104,0.0
343,0.0,0.0,0.0,0.0,0.0,0.33469921875,0.0,0.0,0.0,0.0,0.0,0.0,0.817735377578519,0.0,0.0,0.0,0.0,0.0,0.0,-0.272,0.0
344,0.0,0.0,0.0,0.0,0.0,0.3443818359375,0.0,0.0,0.0,0.0,0.0,0.0,0.817735377578519,0.0,0.0,0.0,0.0,0.0,0.0,-0.42,0.0
345,0.0,0.0,0.0,0.0,0.0,0.3546591796875,0.0,0.0,0.0,0.0,0.0,0.0,0.817735377578519,0.0,0.0,0.0,0.0,0.0,0.0,-0.324,0.0
346,0.0,0.0,0.0,0.0,0.0,0.365982421875,0.0,0.0,0.0,0.0,0.0,0.0,0.817735377578519,0.0,0.0,0.0,0.0,0.0,0.0,-0.468,0.0
347,0.0,0.0,0.0,0.0,0.0,0.3766728515625,0.0,0.0,0.0,0.0,0.0,0.0,0.817735377578519,0.0,0.0,0.0,0.0,0.0,0.0,-0.396,0.0
348,0.0,0.0,0.0,0.0,0.0,0.38758203125,0.0,0.0,0.0,0.0,0.0,0.0,0.817735377578519,0.0,0.0,0.0,0.0,0.0,0.0,-0.488,0.0
349,0.0,0.0,0.0,0.0,0.0,0.3984921875,0.0,0.0,0.0,0.0,0.0,0.0,0.817735377578519,0.0,0.0,0.0,0.0,0.0,0.0,-0.668,0.0
350,0.0,0.0,0.0,0.0,0.0,0.4089755859375,0.0,0.0,0.0,0.0,0.0,0.0,0.817735377578519,0.0,0.0,0.0,0.0,0.0,0.0,-0.44,0.0
351,0.0,0.0,0.0,0.0,0.0,0.42069921875,0.0,0.0,0.0,0.0,0.0,0.0,0.817735377578519,0.0,0.0,0.0,0.0,0.0,0.0,-0.472,0.0
352,0.0,0.0,0.0,0.0,0.0,0.4322158203125,0.0,0.0,0.0,0.0,0.0,0.0,0.817735377578519,0.0,0.0,0.0,0.0,0.0,0.0,-0.94,0.0
353,0.0,0.0,0.0,0.0,0.0,0.442298828125,0.0,0.0,0.0,0.0,0.0,0.0,0.817735377578519,0.0,0.0,0.0,0.0,0.0,0.0,-0.676,0.0
354,0.0,0.0,0.0,0.0,0.0,0.4538154296875,0.0,0.0,0.0,0.0,0.0,0.0,0.817735377578519,0.0,0.0,0.0,0.0,0.0,0.0,-0.332,0.0
355,0.0,0.0,0.0,0.0,0.0,0.4655380859375,0.0,0.0,0.0,0.0,0.0,0.0,0.817735377578519,0.0,0.0,0.0,0.0,0.0,0.0,-0.544,0.0
356,0.0,0.0,0.0,0.0,0.0,0.47603515625,0.0,0.0,0.0,0.0,0.0,0.0,0.817735377578519,0.0,0.0,0.0,0.0,0.0,0.0,-0.472,0.0
357,0.0,0.0,0.0,0.0,0.0,0.4865185546875,0.0,0.0,0.0,0.0,0.0,0.0,0.817735377578519,0.0,0.0,0.0,0.0,0.0,0.0,-0.264,0.0
358,0.0,0.0,0.0,0.0,0.0,0.497416015625,0.0,0.0,0.0,0.0,0.0,0.0,0.817735377578519,0.0,0.0,0.0,0.0,0.0,0.0,-0.104,0.0
359,0.0,0.0,0.0,0.0,0.0,0.5083125,0.0,0.0,0.0,0.0,0.0,0.0,0.817735377578519,0.0,0.0,0.0,0.0,0.0,0.0,-0.24,0.0
360,0.0,0.0,0.0,0.0,0.0,0.5186025390625,0.0,0.0,0.0,0.0,0.0,0.0,0.817735377578519,0.0,0.0,0.0,0.0,0.0,0.0,-0.336,0.0
361,0.0,0.0,0.0,0.0,0.0,0.5288798828125,0.0,0.0,0.0,0.0,0.0,0.0,0.817735377578519,0.0,0.0,0.0,0.0,0.0,0.0,-0.292,0.0
362,0.0,0.0,0.0,0.0,0.0,0.5389501953125,0.0,0.0,0.0,0.0,0.0,0.0,0.817735377578519,0.0,0.0,0.0,0.0,0.0,0.0,0.012,0.0
363,0.0,0.0,0.0,0.0,0.0,0.549640625,0.0,0.0,0.0,0.0,0.0,0.0,0.817735377578519,0.0,0.0,0.0,0.0,0.0,0.0,-0.056,0.0
364,0.0,0.0,0.0,0.0,0.0,0.5599306640625,0.0,0.0,0.0,0.0,0.0,0.0,0.817735377578519,0.0,0.0,0.0,0.0,0.0,0.0,-0.188,0.0
365,0.0,0.0,0.0,0.0,0.0,0.569587890625,0.0,0.0,0.0,0.0,0.0,0.0,0.817735377578519,0.0,0.0,0.0,0.0,0.0,0.0,-0.18,0.0
366,0.0,0.0,0.0,0.0,0.0,0.5794521484375,0.0,0.0,0.0,0.0,0.0,0.0,0.817735377578519,0.0,0.0,0.0,0.0,0.0,0.0,-0.064,0.0
367,0.0,0.0,0.0,0.0,0.0,0.58953515625,0.0,0.0,0.0,0.0,0.0,0.0,0.817735377578519,0.0,0.0,0.0,0.0,0.0,0.0,-0.108,0.0
368,0.0,0.0,0.0,0.0,0.0,0.6000185546875,0.0,0.0,0.0,0.0,0.0,0.0,0.817735377578519,0.0,0.0,0.0,0.0,0.0,0.0,-0.376,0.0
369,0.0,0.0,0.0,0.0,0.0,0.6098828125,0.0,0.0,0.0,0.0,0.0,0.0,0.817735377578519,0.0,0.0,0.0,0.0,0.0,0.0,-0.492,0.0
370,0.0,0.0,0.0,0.0,0.0,0.6197470703125,0.0,0.0,0.0,0.0,0.0,0.0,0.817735377578519,0.0,0.0,0.0,0.0,0.0,0.0,-0.368,0.0
371,0.0,0.0,0.0,0.0,0.0,0.6304375,0.0,0.0,0.0,0.0,0.0,0.0,0.817735377578519,0.0,0.0,0.0,0.0,0.0,0.0,-0.304,0.0
372,0.0,0.0,0.0,0.0,0.0,0.640908203125,0.0,0.0,0.0,0.0,0.0,0.0,0.817735377578519,0.0,0.0,0.0,0.0,0.0,0.0,-0.436,0.0
373,0.0,0.0,0.0,0.0,0.0,0.6511845703125,0.0,0.0,0.0,0.0,0.0,0.0,0.817735377578519,0.0,0.0,0.0,0.0,0.0,0.0,-0.436,0.0
374,0.0,0.0,0.0,0.0,0.0,0.661255859375,0.0,0.0,0.0,0.0,0.0,0.0,0.817735377578519,0.0,0.0,0.0,0.0,0.0,0.0,-0.284,0.0
375,0.0,0.0,0.0,0.0,0.0,0.6715322265625,0.0,0.0,0.0,0.0,0.0,0.0,0.817735377578519,0.0,0.0,0.0,0.0,0.0,0.0,-0.096,0.0
376,0.0,0.0,0.0,0.0,0.0,0.6824296875,0.0,0.0,0.0,0.0,0.0,0.0,0.817735377578519,0.0,0.0,0.0,0.0,0.0,0.0,-0.26,0.0
377,0.0,0.0,0.0,0.0,0.0,0.6931064453125,0.0,0.0,0.0,0.0,0.0,0.0,0.817735377578519,0.0,0.0,0.0,0.0,0.0,0.0,-0.46,0.0
378,0.0,0.0,0.0,0.0,0.0,0.702970703125,0.0,0.0,0.0,0.0,0.0,0.0,0.817735377578519,0.0,0.0,0.0,0.0,0.0,0.0,-0.304,0.0
379,0.0,0.0,0.0,0.0,0.0,0.713248046875,0.0,0.0,0.0,0.0,0.0,0.0,0.817735377578519,0.0,0.0,0.0,0.0,0.0,0.0,0.096,0.0
380,0.0,0.0,0.0,0.0,0.0,0.7350283203125,0.0,0.0,0.0,0.0,0.0,0.0,0.817735377578519,0.0,0.0,0.0,0.0,0.0,0.0,-0.004,0.0
381,0.0,0.0,0.0,0.0,0.0,0.7350283203125,0.0,0.0,0.0,0.0,0.0,0.0,0.817735377578519,0.0,0.0,0.0,0.0,0.0,0.0,-0.004,0.0
382,0.0,0.0,0.0,0.0,0.0,0.745099609375,0.0,0.0,0.0,0.0,0.0,0.0,0.817735377578519,0.0,0.0,0.0,0.0,0.0,0.0,-0.052,0.0
383,0.0,0.0,0.0,0.0,0.0,0.754962890625,0.0,0.0,0.0,0.0,0.0,0.0,0.817735377578519,0.0,0.0,0.0,0.0,0.0,0.0,0.296,0.0
384,0.0,0.0,0.0,0.0,0.0,0.7658603515625,0.0,0.0,0.0,0.0,0.0,0.0,0.817735377578519,0.0,0.0,0.0,0.0,0.0,0.0,0.16,0.0
385,0.0,0.0,0.0,0.0,0.0,0.776744140625,0.0,0.0,0.0,0.0,0.0,0.0,0.817735377578519,0.0,0.0,0.0,0.0,0.0,0.0,-0.156,0.0
386,0.0,0.0,0.0,0.0,0.0,0.786814453125,0.0,0.0,0.0,0.0,0.0,0.0,-0.6745232382518536,0.0,0.0,0.0,0.0,0.0,0.0,-0.22,0.0
387,0.0,0.0,0.0,0.0,0.0,0.796884765625,0.0,0.0,0.0,0.0,0.0,0.0,-0.6745232382518536,0.0,0.0,0.0,0.0,0.0,0.0,0.136,0.0
388,0.0,0.0,0.0,0.0,0.0,0.8075625,0.0,0.0,0.0,0.0,0.0,0.0,-0.6745232382518536,0.0,0.0,0.0,0.0,0.0,0.0,0.064,0.0
389,0.0,0.0,0.0,0.0,0.0,0.8174130859375,0.0,0.0,0.0,0.0,0.0,0.0,-0.6745232382518536,0.0,0.0,0.0,0.0,0.0,0.0,-0.488,0.0
390,0.0,0.0,0.0,0.0,0.0,0.823171875,0.0,0.0,0.0,0.0,0.0,0.0,-0.6745232382518536,0.0,0.0,0.0,0.0,0.0,0.0,-0.976,0.0
391,0.0,0.0,0.0,0.0,0.0,0.8248115234375,0.0,0.0,0.0,0.0,0.0,0.0,-0.6745232382518536,0.0,0.0,0.0,0.0,0.0,0.0,-0.604,0.0
392,0.0,0.0,0.0,0.0,0.0,0.8246044921875,0.0,0.0,0.0,0.0,0.0,0.0,-0.6745232382518536,0.0,0.0,0.0,0.0,0.0,0.0,-0.5,0.0
393,0.0,0.0,0.0,0.0,0.0,0.822345703125,0.0,0.0,0.0,0.0,0.0,0.0,-0.6745232382518536,0.0,0.0,0.0,0.0,0.0,0.0,-0.916,0.0
394,0.0,0.0,0.0,0.0,0.0,0.81598046875,0.0,0.0,0.0,0.0,0.0,0.0,-0.6745232382518536,0.0,0.0,0.0,0.0,0.0,0.0,-0.904,0.0
395,0.0,0.0,0.0,0.0,0.0,0.806955078125,0.0,0.0,0.0,0.0,0.0,0.0,-0.6745232382518536,0.0,0.0,0.0,0.0,0.0,0.0,-0.7,0.0
396,0.0,0.0,0.0,0.0,0.0,0.79605859375,0.0,0.0,0.0,0.0,0.0,0.0,-0.6745232382518536,0.0,0.0,0.0,0.0,0.0,0.0,-0.696,0.0
397,0.0,0.0,0.0,0.0,0.0,0.7831220703125,0.0,0.0,0.0,0.0,0.0,0.0,-0.6745232382518536,0.0,0.0,0.0,0.0,0.0,0.0,-0.824,0.0
398,0.0,0.0,0.0,0.0,0.0,0.768326171875,0.0,0.0,0.0,0.0,0.0,0.0,-0.6745232382518536,0.0,0.0,0.0,0.0,0.0,0.0,-0.792,0.0
399,0.0,0.0,0.0,0.0,0.0,0.7512705078125,0.0,0.0,0.0,0.0,0.0,0.0,-0.6745232382518536,0.0,0.0,0.0,0.0,0.0,0.0,-0.596,0.0
400,0.0,0.0,0.0,0.0,0.0,0.733388671875,0.0,0.0,0.0,0.0,0.0,0.0,-0.6745232382518536,0.0,0.0,0.0,0.0,0.0,0.0,-0.188,0.0
401,0.0,0.0,0.0,0.0,0.0,0.71530078125,0.0,0.0,0.0,0.0,0.0,0.0,-0.6745232382518536,0.0,0.0,0.0,0.0,0.0,0.0,-0.512,0.0
402,0.0,0.0,0.0,0.0,0.0,0.6953662109375,0.0,0.0,0.0,0.0,0.0,0.0,-0.6745232382518536,0.0,0.0,0.0,0.0,0.0,0.0,-0.552,0.0
403,0.0,0.0,0.0,0.0,0.0,0.675638671875,0.0,0.0,0.0,0.0,0.0,0.0,-0.6745232382518536,0.0,0.0,0.0,0.0,0.0,0.0,0.036,0.0
404,0.0,0.0,0.0,0.0,0.0,0.6565302734375,0.0,0.0,0.0,0.0,0.0,0.0,-0.6745232382518536,0.0,0.0,0.0,0.0,0.0,0.0,-0.22,0.0
405,0.0,0.0,0.0,0.0,0.0,0.63721484375,0.0,0.0,0.0,0.0,0.0,0.0,-0.6745232382518536,0.0,0.0,0.0,0.0,0.0,0.0,0.004,0.0
406,0.0,0.0,0.0,0.0,0.0,0.6183134765625,0.0,0.0,0.0,0.0,0.0,0.0,-0.6745232382518536,0.0,0.0,0.0,0.0,0.0,0.0,-0.052,0.0
407,0.0,0.0,0.0,0.0,0.0,0.6004189453125,0.0,0.0,0.0,0.0,0.0,0.0,-0.6745232382518536,0.0,0.0,0.0,0.0,0.0,0.0,0.0,0.0
408,0.0,0.0,0.0,0.0,0.0,0.5839833984375,0.0,0.0,0.0,0.0,0.0,0.0,-0.6745232382518536,0.0,0.0,0.0,0.0,0.0,0.0,-0.128,0.0
409,0.0,0.0,0.0,0.0,0.0,0.56753515625,0.0,0.0,0.0,0.0,0.0,0.0,-0.6745232382518536,0.0,0.0,0.0,0.0,0.0,0.0,-0.16,0.0
410,0.0,0.0,0.0,0.0,0.0,0.55251953125,0.0,0.0,0.0,0.0,0.0,0.0,-0.6745232382518536,0.0,0.0,0.0,0.0,0.0,0.0,0.252,0.0
411,0.0,0.0,0.0,0.0,0.0,0.5395703125,0.0,0.0,0.0,0.0,0.0,0.0,-0.6745232382518536,0.0,0.0,0.0,0.0,0.0,0.0,-0.168,0.0
412,0.0,0.0,0.0,0.0,0.0,0.5264140625,0.0,0.0,0.0,0.0,0.0,0.0,-0.6745232382518536,0.0,0.0,0.0,0.0,0.0,0.0,-0.272,0.0
413,0.0,0.0,0.0,0.0,0.0,0.5157236328125,0.0,0.0,0.0,0.0,0.0,0.0,-0.6745232382518536,0.0,0.0,0.0,0.0,0.0,0.0,-0.068,0.0
414,0.0,0.0,0.0,0.0,0.0,0.5066728515625,0.0,0.0,0.0,0.0,0.0,0.0,-0.6745232382518536,0.0,0.0,0.0,0.0,0.0,0.0,-0.492,0.0
415,0.0,0.0,0.0,0.0,0.0,0.497208984375,0.0,0.0,0.0,0.0,0.0,0.0,-0.6745232382518536,0.0,0.0,0.0,0.0,0.0,0.0,-0.428,0.0
416,0.0,0.0,0.0,0.0,0.0,0.488984375,0.0,0.0,0.0,0.0,0.0,0.0,-0.6745232382518536,0.0,0.0,0.0,0.0,0.0,0.0,-0.224,0.0
417,0.0,0.0,0.0,0.0,0.0,0.482193359375,0.0,0.0,0.0,0.0,0.0,0.0,-0.6745232382518536,0.0,0.0,0.0,0.0,0.0,0.0,-0.472,0.0
418,0.0,0.0,0.0,0.0,0.0,0.475828125,0.0,0.0,0.0,0.0,0.0,0.0,-0.6745232382518536,0.0,0.0,0.0,0.0,0.0,0.0,-0.468,0.0
419,0.0,0.0,0.0,0.0,0.0,0.4696572265625,0.0,0.0,0.0,0.0,0.0,0.0,-0.6745232382518536,0.0,0.0,0.0,0.0,0.0,0.0,-0.384,0.0
420,0.0,0.0,0.0,0.0,0.0,0.46410546875,0.0,0.0,0.0,0.0,0.0,0.0,-0.6745232382518536,0.0,0.0,0.0,0.0,0.0,0.0,-0.396,0.0
421,0.0,0.0,0.0,0.0,0.0,0.4585537109375,0.0,0.0,0.0,0.0,0.0,0.0,-0.6745232382518536,0.0,0.0,0.0,0.0,0.0,0.0,-0.556,0.0
422,0.0,0.0,0.0,0.0,0.0,0.45196875,0.0,0.0,0.0,0.0,0.0,0.0,-0.6745232382518536,0.0,0.0,0.0,0.0,0.0,0.0,-0.344,0.0
423,0.0,0.0,0.0,0.0,0.0,0.44600390625,0.0,0.0,0.0,0.0,0.0,0.0,-0.6745232382518536,0.0,0.0,0.0,0.0,0.0,0.0,-0.368,0.0
424,0.0,0.0,0.0,0.0,0.0,0.4396259765625,0.0,0.0,0.0,0.0,0.0,0.0,-0.6745232382518536,0.0,0.0,0.0,0.0,0.0,0.0,-0.584,0.0
425,0.0,0.0,0.0,0.0,0.0,0.43262890625,0.0,0.0,0.0,0.0,0.0,0.0,-0.6745232382518536,0.0,0.0,0.0,0.0,0.0,0.0,-0.368,0.0
426,0.0,0.0,0.0,0.0,0.0,0.4256435546875,0.0,0.0,0.0,0.0,0.0,0.0,-0.6745232382518536,0.0,0.0,0.0,0.0,0.0,0.0,-0.42,0.0
427,0.0,0.0,0.0,0.0,0.0,0.41740625,0.0,0.0,0.0,0.0,0.0,0.0,-0.6745232382518536,0.0,0.0,0.0,0.0,0.0,0.0,-0.356,0.0
428,0.0,0.0,0.0,0.0,0.0,0.4085625,0.0,0.0,0.0,0.0,0.0,0.0,-0.6745232382518536,0.0,0.0,0.0,0.0,0.0,0.0,-0.284,0.0
429,0.0,0.0,0.0,0.0,0.0,0.3990986328125,0.0,0.0,0.0,0.0,0.0,0.0,-0.6745232382518536,0.0,0.0,0.0,0.0,0.0,0.0,-0.26,0.0
430,0.0,0.0,0.0,0.0,0.0,0.3894287109375,0.0,0.0,0.0,0.0,0.0,0.0,-0.6745232382518536,0.0,0.0,0.0,0.0,0.0,0.0,-0.24,0.0
431,0.0,0.0,0.0,0.0,0.0,0.3791513671875,0.0,0.0,0.0,0.0,0.0,0.0,-0.6745232382518536,0.0,0.0,0.0,0.0,0.0,0.0,-0.376,0.0
432,0.0,0.0,0.0,0.0,0.0,0.36803515625,0.0,0.0,0.0,0.0,0.0,0.0,-0.6745232382518536,0.0,0.0,0.0,0.0,0.0,0.0,-0.388,0.0
433,0.0,0.0,0.0,0.0,0.0,0.3563115234375,0.0,0.0,0.0,0.0,0.0,0.0,-0.6745232382518536,0.0,0.0,0.0,0.0,0.0,0.0,-0.532,0.0
434,0.0,0.0,0.0,0.0,0.0,0.3449892578125,0.0,0.0,0.0,0.0,0.0,0.0,-0.6745232382518536,0.0,0.0,0.0,0.0,0.0,0.0,-0.616,0.0
435,0.0,0.0,0.0,0.0,0.0,0.33347265625,0.0,0.0,0.0,0.0,0.0,0.0,-0.6745232382518536,0.0,0.0,0.0,0.0,0.0,0.0,-0.608,0.0
436,0.0,0.0,0.0,0.0,0.0,0.3211298828125,0.0,0.0,0.0,0.0,0.0,0.0,-0.6745232382518536,0.0,0.0,0.0,0.0,0.0,0.0,-0.564,0.0
437,0.0,0.0,0.0,0.0,0.0,0.3087734375,0.0,0.0,0.0,0.0,0.0,0.0,-0.6745232382518536,0.0,0.0,0.0,0.0,0.0,0.0,-0.616,0.0
438,0.0,0.0,0.0,0.0,0.0,0.29705078125,0.0,0.0,0.0,0.0,0.0,0.0,-0.6745232382518536,0.0,0.0,0.0,0.0,0.0,0.0,-0.748,0.0
439,0.0,0.0,0.0,0.0,0.0,0.2849013671875,0.0,0.0,0.0,0.0,0.0,0.0,-0.6745232382518536,0.0,0.0,0.0,0.0,0.0,0.0,-0.836,0.0
440,0.0,0.0,0.0,0.0,0.0,0.27255859375,0.0,0.0,0.0,0.0,0.0,0.0,-0.6745232382518536,0.0,0.0,0.0,0.0,0.0,0.0,-0.844,0.0
441,0.0,0.0,0.0,0.0,0.0,0.260822265625,0.0,0.0,0.0,0.0,0.0,0.0,-0.6745232382518536,0.0,0.0,0.0,0.0,0.0,0.0,-0.916,0.0
442,0.0,0.0,0.0,0.0,0.0,0.2497060546875,0.0,0.0,0.0,0.0,0.0,0.0,-0.6745232382518536,0.0,0.0,0.0,0.0,0.0,0.0,-1.028,0.0
443,0.0,0.0,0.0,0.0,0.0,0.237970703125,0.0,0.0,0.0,0.0,0.0,0.0,-0.6745232382518536,0.0,0.0,0.0,0.0,0.0,0.0,-0.852,0.0
444,0.0,0.0,0.0,0.0,0.0,0.2264404296875,0.0,0.0,0.0,0.0,0.0,0.0,-0.6745232382518536,0.0,0.0,0.0,0.0,0.0,0.0,-0.74,0.0
445,0.0,0.0,0.0,0.0,0.0,0.21553125,0.0,0.0,0.0,0.0,0.0,0.0,-0.6745232382518536,0.0,0.0,0.0,0.0,0.0,0.0,-0.696,0.0
446,0.0,0.0,0.0,0.0,0.0,0.204828125,0.0,0.0,0.0,0.0,0.0,0.0,-0.6745232382518536,0.0,0.0,0.0,0.0,0.0,0.0,-0.664,0.0
447,0.0,0.0,0.0,0.0,0.0,0.19391796875,0.0,0.0,0.0,0.0,0.0,0.0,-0.6745232382518536,0.0,0.0,0.0,0.0,0.0,0.0,-0.52,0.0
448,0.0,0.0,0.0,0.0,0.0,0.1832021484375,0.0,0.0,0.0,0.0,0.0,0.0,-0.6745232382518536,0.0,0.0,0.0,0.0,0.0,0.0,-0.556,0.0
449,0.0,0.0,0.0,0.0,0.0,0.172912109375,0.0,0.0,0.0,0.0,0.0,0.0,-0.6745232382518536,0.0,0.0,0.0,0.0,0.0,0.0,-0.556,0.0
450,0.0,0.0,0.0,0.0,0.0,0.1630224609375,0.0,0.0,0.0,0.0,0.0,0.0,-0.6745232382518536,0.0,0.0,0.0,0.0,0.0,0.0,-0.472,0.0
451,0.0,0.0,0.0,0.0,0.0,0.1529384765625,0.0,0.0,0.0,0.0,0.0,0.0,-0.6745232382518536,0.0,0.0,0.0,0.0,0.0,0.0,-0.292,0.0
452,0.0,0.0,0.0,0.0,0.0,0.1424296875,0.0,0.0,0.0,0.0,0.0,0.0,-0.6745232382518536,0.0,0.0,0.0,0.0,0.0,0.0,-0.296,0.0
453,0.0,0.0,0.0,0.0,0.0,0.1321396484375,0.0,0.0,0.0,0.0,0.0,0.0,-0.6745232382518536,0.0,0.0,0.0,0.0,0.0,0.0,-0.224,0.0
454,0.0,0.0,0.0,0.0,0.0,0.1226630859375,0.0,0.0,0.0,0.0,0.0,0.0,-0.6745232382518536,0.0,0.0,0.0,0.0,0.0,0.0,-0.264,0.0
455,0.0,0.0,0.0,0.0,0.0,0.11256640625,0.0,0.0,0.0,0.0,0.0,0.0,-0.6745232382518536,0.0,0.0,0.0,0.0,0.0,0.0,-0.272,0.0
456,0.0,0.0,0.0,0.0,0.0,0.102263671875,0.0,0.0,0.0,0.0,0.0,0.0,-0.6745232382518536,0.0,0.0,0.0,0.0,0.0,0.0,-0.18,0.0
457,0.0,0.0,0.0,0.0,0.0,0.0923740234375,0.0,0.0,0.0,0.0,0.0,0.0,-0.6745232382518536,0.0,0.0,0.0,0.0,0.0,0.0,-0.472,0.0
458,0.0,0.0,0.0,0.0,0.0,0.0822900390625,0.0,0.0,0.0,0.0,0.0,0.0,-0.6745232382518536,0.0,0.0,0.0,0.0,0.0,0.0,-0.504,0.0
459,0.0,0.0,0.0,0.0,0.0,0.0728134765625,0.0,0.0,0.0,0.0,0.0,0.0,-0.6745232382518536,0.0,0.0,0.0,0.0,0.0,0.0,-0.4,0.0
460,0.0,0.0,0.0,0.0,0.0,0.062923828125,0.0,0.0,0.0,0.0,0.0,0.0,-0.6745232382518536,0.0,0.0,0.0,0.0,0.0,0.0,-0.52,0.0
461,0.0,0.0,0.0,0.0,0.0,0.0524140625,0.0,0.0,0.0,0.0,0.0,0.0,-0.6745232382518536,0.0,0.0,0.0,0.0,0.0,0.0,-0.576,0.0
462,0.0,0.0,0.0,0.0,0.0,0.0427314453125,0.0,0.0,0.0,0.0,0.0,0.0,-0.6745232382518536,0.0,0.0,0.0,0.0,0.0,0.0,-0.696,0.0
463,0.0,0.0,0.0,0.0,0.0,0.0328408203125,0.0,0.0,0.0,0.0,0.0,0.0,-0.6745232382518536,0.0,0.0,0.0,0.0,0.0,0.0,-0.852,0.0
464,0.0,0.0,0.0,0.0,0.0,0.0229384765625,0.0,0.0,0.0,0.0,0.0,0.0,-0.6745232382518536,0.0,0.0,0.0,0.0,0.0,0.0,-0.716,0.0
465,0.0,0.0,0.0,0.0,0.0,0.012841796875,0.0,0.0,0.0,0.0,0.0,0.0,-0.6745232382518536,0.0,0.0,0.0,0.0,0.0,0.0,-1.0,0.0
466,0.0,0.0,0.0,0.0,0.0,0.0025390625,0.0,0.0,0.0,0.0,0.0,0.0,-0.6745232382518536,0.0,0.0,0.0,0.0,0.0,0.0,-1.156,0.0
467,0.0,0.0,0.0,0.0,0.0,-0.0069365234375,0.0,0.0,0.0,0.0,0.0,0.0,-0.6745232382518536,0.0,0.0,0.0,0.0,0.0,0.0,-1.084,0.0
468,0.0,0.0,0.0,0.0,0.0,-0.016826171875,0.0,0.0,0.0,0.0,0.0,0.0,-0.6745232382518536,0.0,0.0,0.0,0.0,0.0,0.0,-0.94,0.0
469,0.0,0.0,0.0,0.0,0.0,-0.0275556640625,0.0,0.0,0.0,0.0,0.0,0.0,-0.6745232382518536,0.0,0.0,0.0,0.0,0.0,0.0,-0.844,0.0
470,0.0,0.0,0.0,0.0,0.0,-0.038271484375,0.0,0.0,0.0,0.0,0.0,0.0,-0.6745232382518536,0.0,0.0,0.0,0.0,0.0,0.0,-0.752,0.0
471,0.0,0.0,0.0,0.0,0.0,-0.04857421875,0.0,0.0,0.0,0.0,0.0,0.0,-0.6745232382518536,0.0,0.0,0.0,0.0,0.0,0.0,-0.752,0.0
472,0.0,0.0,0.0,0.0,0.0,-0.0588896484375,0.0,0.0,0.0,0.0,0.0,0.0,-0.6745232382518536,0.0,0.0,0.0,0.0,0.0,0.0,-0.488,0.0
473,0.0,0.0,0.0,0.0,0.0,-0.0696064453125,0.0,0.0,0.0,0.0,0.0,0.0,-0.6745232382518536,0.0,0.0,0.0,0.0,0.0,0.0,-0.54,0.0
474,0.0,0.0,0.0,0.0,0.0,-0.0807353515625,0.0,0.0,0.0,0.0,0.0,0.0,-0.6745232382518536,0.0,0.0,0.0,0.0,0.0,0.0,-0.596,0.0
475,0.0,0.0,0.0,0.0,0.0,-0.0912578125,0.0,0.0,0.0,0.0,0.0,0.0,-0.6745232382518536,0.0,0.0,0.0,0.0,0.0,0.0,-0.572,0.0
476,0.0,0.0,0.0,0.0,0.0,-0.1017802734375,0.0,0.0,0.0,0.0,0.0,0.0,-0.6745232382518536,0.0,0.0,0.0,0.0,0.0,0.0,-0.42,0.0
477,0.0,0.0,0.0,0.0,0.0,-0.1131162109375,0.0,0.0,0.0,0.0,0.0,0.0,-0.6745232382518536,0.0,0.0,0.0,0.0,0.0,0.0,-0.172,0.0
478,0.0,0.0,0.0,0.0,0.0,-0.124271484375,0.0,0.0,0.0,0.0,0.0,0.0,-0.6745232382518536,0.0,0.0,0.0,0.0,0.0,0.0,-0.264,0.0
479,0.0,0.0,0.0,0.0,0.0,-0.1349873046875,0.0,0.0,0.0,0.0,0.0,0.0,-0.6745232382518536,0.0,0.0,0.0,0.0,0.0,0.0,-0.42,0.0
480,0.0,0.0,0.0,0.0,0.0,-0.145302734375,0.0,0.0,0.0,0.0,0.0,0.0,-0.6745232382518536,0.0,0.0,0.0,0.0,0.0,0.0,-0.468,0.0
481,0.0,0.0,0.0,0.0,0.0,-0.1564453125,0.0,0.0,0.0,0.0,0.0,0.0,-0.6745232382518536,0.0,0.0,0.0,0.0,0.0,0.0,-0.592,0.0
482,0.0,0.0,0.0,0.0,0.0,-0.1675869140625,0.0,0.0,0.0,0.0,0.0,0.0,-0.6745232382518536,0.0,0.0,0.0,0.0,0.0,0.0,-0.648,0.0
483,0.0,0.0,0.0,0.0,0.0,-0.1776962890625,0.0,0.0,0.0,0.0,0.0,0.0,-0.6745232382518536,0.0,0.0,0.0,0.0,0.0,0.0,-0.832,0.0
484,0.0,0.0,0.0,0.0,0.0,-0.1878056640625,0.0,0.0,0.0,0.0,0.0,0.0,-0.6745232382518536,0.0,0.0,0.0,0.0,0.0,0.0,-0.856,0.0
485,0.0,0.0,0.0,0.0,0.0,-0.198328125,0.0,0.0,0.0,0.0,0.0,0.0,-0.6745232382518536,0.0,0.0,0.0,0.0,0.0,0.0,-0.76,0.0
486,0.0,0.0,0.0,0.0,0.0,-0.2088505859375,0.0,0.0,0.0,0.0,0.0,0.0,-0.6745232382518536,0.0,0.0,0.0,0.0,0.0,0.0,-0.872,0.0
487,0.0,0.0,0.0,0.0,0.0,-0.219166015625,0.0,0.0,0.0,0.0,0.0,0.0,-0.6745232382518536,0.0,0.0,0.0,0.0,0.0,0.0,-1.0,0.0
488,0.0,0.0,0.0,0.0,0.0,-0.2288623046875,0.0,0.0,0.0,0.0,0.0,0.0,-0.6745232382518536,0.0,0.0,0.0,0.0,0.0,0.0,-0.896,0.0
489,0.0,0.0,0.0,0.0,0.0,-0.238765625,0.0,0.0,0.0,0.0,0.0,0.0,-0.6745232382518536,0.0,0.0,0.0,0.0,0.0,0.0,-0.884,0.0
490,0.0,0.0,0.0,0.0,0.0,-0.249701171875,0.0,0.0,0.0,0.0,0.0,0.0,-0.6745232382518536,0.0,0.0,0.0,0.0,0.0,0.0,-0.928,0.0
491,0.0,0.0,0.0,0.0,0.0,-0.2596162109375,0.0,0.0,0.0,0.0,0.0,0.0,-0.6745232382518536,0.0,0.0,0.0,0.0,0.0,0.0,-0.988,0.0
492,0.0,0.0,0.0,0.0,0.0,-0.2693125,0.0,0.0,0.0,0.0,0.0,0.0,-0.6745232382518536,0.0,0.0,0.0,0.0,0.0,0.0,-0.836,0.0
493,0.0,0.0,0.0,0.0,0.0,-0.279421875,0.0,0.0,0.0,0.0,0.0,0.0,-0.6745232382518536,0.0,0.0,0.0,0.0,0.0,0.0,-0.5,0.0
494,0.0,0.0,0.0,0.0,0.0,-0.2901767578125,0.0,0.0,0.0,0.0,0.0,0.0,-0.6745232382518536,0.0,0.0,0.0,0.0,0.0,0.0,-0.416,0.0
495,0.0,0.0,0.0,0.0,0.0,-0.3009052734375,0.0,0.0,0.0,0.0,0.0,0.0,-0.6745232382518536,0.0,0.0,0.0,0.0,0.0,0.0,-0.452,0.0
496,0.0,0.0,0.0,0.0,0.0,-0.3110283203125,0.0,0.0,0.0,0.0,0.0,0.0,-0.6745232382518536,0.0,0.0,0.0,0.0,0.0,0.0,-0.384,0.0
497,0.0,0.0,0.0,0.0,0.0,-0.3209306640625,0.0,0.0,0.0,0.0,0.0,0.0,-0.6745232382518536,0.0,0.0,0.0,0.0,0.0,0.0,-0.304,0.0
498,0.0,0.0,0.0,0.0,0.0,-0.33187890625,0.0,0.0,0.0,0.0,0.0,0.0,-0.6745232382518536,0.0,0.0,0.0,0.0,0.0,0.0,-0.364,0.0
499,0.0,0.0,0.0,0.0,0.0,-0.3428271484375,0.0,0.0,0.0,0.0,0.0,0.0,-0.6745232382518536,0.0,0.0,0.0,0.0,0.0,0.0,-0.428,0.0
500,0.0,0.0,0.0,0.0,0.0,-0.3634716796875,0.0,0.0,0.0,0.0,0.0,0.0,-0.6745232382518536,0.0,0.0,0.0,0.0,0.0,0.0,-0.192,0.0
501,0.0,0.0,0.0,0.0,0.0,-0.3634716796875,0.0,0.0,0.0,0.0,0.0,0.0,-0.6745232382518536,0.0,0.0,0.0,0.0,0.0,0.0,-0.192,0.0
502,0.0,0.0,0.0,0.0,0.0,-0.3744208984375,0.0,0.0,0.0,0.0,0.0,0.0,-0.6745232382518536,0.0,0.0,0.0,0.0,0.0,0.0,-0.356,0.0
503,0.0,0.0,0.0,0.0,0.0,-0.3857822265625,0.0,0.0,0.0,0.0,0.0,0.0,-0.6745232382518536,0.0,0.0,0.0,0.0,0.0,0.0,-0.332,0.0
504,0.0,0.0,0.0,0.0,0.0,-0.395904296875,0.0,0.0,0.0,0.0,0.0,0.0,-0.6745232382518536,0.0,0.0,0.0,0.0,0.0,0.0,-0.52,0.0
505,0.0,0.0,0.0,0.0,0.0,-0.4060263671875,0.0,0.0,0.0,0.0,0.0,0.0,-0.6745232382518536,0.0,0.0,0.0,0.0,0.0,0.0,-0.628,0.0
506,0.0,0.0,0.0,0.0,0.0,-0.4167685546875,0.0,0.0,0.0,0.0,0.0,0.0,-0.6745232382518536,0.0,0.0,0.0,0.0,0.0,0.0,-0.72,0.0
507,0.0,0.0,0.0,0.0,0.0,-0.4277294921875,0.0,0.0,0.0,0.0,0.0,0.0,-0.6745232382518536,0.0,0.0,0.0,0.0,0.0,0.0,-0.904,0.0
508,0.0,0.0,0.0,0.0,0.0,-0.4378515625,0.0,0.0,0.0,0.0,0.0,0.0,-0.6745232382518536,0.0,0.0,0.0,0.0,0.0,0.0,-0.936,0.0
509,0.0,0.0,0.0,0.0,0.0,-0.4473544921875,0.0,0.0,0.0,0.0,0.0,0.0,-0.6745232382518536,0.0,0.0,0.0,0.0,0.0,0.0,-0.884,0.0
510,0.0,0.0,0.0,0.0,0.0,-0.45768359375,0.0,0.0,0.0,0.0,0.0,0.0,-0.6745232382518536,0.0,0.0,0.0,0.0,0.0,0.0,-0.876,0.0
511,0.0,0.0,0.0,0.0,0.0,-0.46864453125,0.0,0.0,0.0,0.0,0.0,0.0,-0.6745232382518536,0.0,0.0,0.0,0.0,0.0,0.0,-0.8,0.0
512,0.0,0.0,0.0,0.0,0.0,-0.4787666015625,0.0,0.0,0.0,0.0,0.0,0.0,-0.6745232382518536,0.0,0.0,0.0,0.0,0.0,0.0,-0.916,0.0
513,0.0,0.0,0.0,0.0,0.0,-0.4884755859375,0.0,0.0,0.0,0.0,0.0,0.0,-0.6745232382518536,0.0,0.0,0.0,0.0,0.0,0.0,-0.856,0.0
514,0.0,0.0,0.0,0.0,0.0,-0.49859765625,0.0,0.0,0.0,0.0,0.0,0.0,-0.6745232382518536,0.0,0.0,0.0,0.0,0.0,0.0,-0.656,0.0
515,0.0,0.0,0.0,0.0,0.0,-0.5093525390625,0.0,0.0,0.0,0.0,0.0,0.0,-0.6745232382518536,0.0,0.0,0.0,0.0,0.0,0.0,-0.696,0.0
516,0.0,0.0,0.0,0.0,0.0,-0.5198876953125,0.0,0.0,0.0,0.0,0.0,0.0,-0.6745232382518536,0.0,0.0,0.0,0.0,0.0,0.0,-0.696,0.0
517,0.0,0.0,0.0,0.0,0.0,-0.52981640625,0.0,0.0,0.0,0.0,0.0,0.0,-0.6745232382518536,0.0,0.0,0.0,0.0,0.0,0.0,-0.448,0.0
518,0.0,0.0,0.0,0.0,0.0,-0.5395517578125,0.0,0.0,0.0,0.0,0.0,0.0,-0.6745232382518536,0.0,0.0,0.0,0.0,0.0,0.0,-0.304,0.0
519,0.0,0.0,0.0,0.0,0.0,-0.5505,0.0,0.0,0.0,0.0,0.0,0.0,-0.6745232382518536,0.0,0.0,0.0,0.0,0.0,0.0,-0.344,0.0
520,0.0,0.0,0.0,0.0,0.0,-0.56166796875,0.0,0.0,0.0,0.0,0.0,0.0,-0.6745232382518536,0.0,0.0,0.0,0.0,0.0,0.0,-0.264,0.0
521,0.0,0.0,0.0,0.0,0.0,-0.5715966796875,0.0,0.0,0.0,0.0,0.0,0.0,-0.6745232382518536,0.0,0.0,0.0,0.0,0.0,0.0,-0.224,0.0
522,0.0,0.0,0.0,0.0,0.0,-0.5819248046875,0.0,0.0,0.0,0.0,0.0,0.0,-0.6745232382518536,0.0,0.0,0.0,0.0,0.0,0.0,-0.192,0.0
523,0.0,0.0,0.0,0.0,0.0,-0.5930927734375,0.0,0.0,0.0,0.0,0.0,0.0,-0.6745232382518536,0.0,0.0,0.0,0.0,0.0,0.0,-0.304,0.0
524,0.0,0.0,0.0,0.0,0.0,-0.6044677734375,0.0,0.0,0.0,0.0,0.0,0.0,-0.6745232382518536,0.0,0.0,0.0,0.0,0.0,0.0,-0.364,0.0
525,0.0,0.0,0.0,0.0,0.0,-0.6146025390625,0.0,0.0,0.0,0.0,0.0,0.0,-0.6745232382518536,0.0,0.0,0.0,0.0,0.0,0.0,-0.244,0.0
526,0.0,0.0,0.0,0.0,0.0,-0.6243251953125,0.0,0.0,0.0,0.0,0.0,0.0,-0.6745232382518536,0.0,0.0,0.0,0.0,0.0,0.0,-0.396,0.0
527,0.0,0.0,0.0,0.0,0.0,-0.63569921875,0.0,0.0,0.0,0.0,0.0,0.0,-0.6745232382518536,0.0,0.0,0.0,0.0,0.0,0.0,-0.468,0.0
528,0.0,0.0,0.0,0.0,0.0,-0.6470869140625,0.0,0.0,0.0,0.0,0.0,0.0,0.6399774349004663,0.0,0.0,0.0,0.0,0.0,0.0,-0.348,0.0
529,0.0,0.0,0.0,0.0,0.0,-0.657015625,0.0,0.0,0.0,0.0,0.0,0.0,0.6399774349004663,0.0,0.0,0.0,0.0,0.0,0.0,-0.408,0.0
530,0.0,0.0,0.0,0.0,0.0,-0.6667373046875,0.0,0.0,0.0,0.0,0.0,0.0,0.6399774349004663,0.0,0.0,0.0,0.0,0.0,0.0,-0.68,0.0
531,0.0,0.0,0.0,0.0,0.0,-0.677298828125,0.0,0.0,0.0,0.0,0.0,0.0,0.6399774349004663,0.0,0.0,0.0,0.0,0.0,0.0,-0.8,0.0
532,0.0,0.0,0.0,0.0,0.0,-0.686400390625,0.0,0.0,0.0,0.0,0.0,0.0,0.6399774349004663,0.0,0.0,0.0,0.0,0.0,0.0,-0.212,0.0
533,0.0,0.0,0.0,0.0,0.0,-0.690119140625,0.0,0.0,0.0,0.0,0.0,0.0,0.6399774349004663,0.0,0.0,0.0,0.0,0.0,0.0,-0.172,0.0
534,0.0,0.0,0.0,0.0,0.0,-0.6909453125,0.0,0.0,0.0,0.0,0.0,0.0,0.6399774349004663,0.0,0.0,0.0,0.0,0.0,0.0,-0.616,0.0
535,0.0,0.0,0.0,0.0,0.0,-0.690119140625,0.0,0.0,0.0,0.0,0.0,0.0,0.6399774349004663,0.0,0.0,0.0,0.0,0.0,0.0,-0.316,0.0
536,0.0,0.0,0.0,0.0,0.0,-0.6859873046875,0.0,0.0,0.0,0.0,0.0,0.0,0.6399774349004663,0.0,0.0,0.0,0.0,0.0,0.0,0.004,0.0
537,0.0,0.0,0.0,0.0,0.0,-0.67791796875,0.0,0.0,0.0,0.0,0.0,0.0,0.6399774349004663,0.0,0.0,0.0,0.0,0.0,0.0,-0.192,0.0
538,0.0,0.0,0.0,0.0,0.0,-0.6679892578125,0.0,0.0,0.0,0.0,0.0,0.0,0.6399774349004663,0.0,0.0,0.0,0.0,0.0,0.0,-0.276,0.0
539,0.0,0.0,0.0,0.0,0.0,-0.6572216796875,0.0,0.0,0.0,0.0,0.0,0.0,0.6399774349004663,0.0,0.0,0.0,0.0,0.0,0.0,0.024,0.0
540,0.0,0.0,0.0,0.0,0.0,-0.64398828125,0.0,0.0,0.0,0.0,0.0,0.0,0.6399774349004663,0.0,0.0,0.0,0.0,0.0,0.0,0.224,0.0
541,0.0,0.0,0.0,0.0,0.0,-0.627423828125,0.0,0.0,0.0,0.0,0.0,0.0,0.6399774349004663,0.0,0.0,0.0,0.0,0.0,0.0,0.348,0.0
542,0.0,0.0,0.0,0.0,0.0,-0.6104716796875,0.0,0.0,0.0,0.0,0.0,0.0,0.6399774349004663,0.0,0.0,0.0,0.0,0.0,0.0,-0.26,0.0
543,0.0,0.0,0.0,0.0,0.0,-0.593712890625,0.0,0.0,0.0,0.0,0.0,0.0,0.6399774349004663,0.0,0.0,0.0,0.0,0.0,0.0,0.116,0.0
544,0.0,0.0,0.0,0.0,0.0,-0.573869140625,0.0,0.0,0.0,0.0,0.0,0.0,0.6399774349004663,0.0,0.0,0.0,0.0,0.0,0.0,0.468,0.0
545,0.0,0.0,0.0,0.0,0.0,-0.554837890625,0.0,0.0,0.0,0.0,0.0,0.0,0.6399774349004663,0.0,0.0,0.0,0.0,0.0,0.0,-0.556,0.0
546,0.0,0.0,0.0,0.0,0.0,-0.5364267578125,0.0,0.0,0.0,0.0,0.0,0.0,0.6399774349004663,0.0,0.0,0.0,0.0,0.0,0.0,0.448,0.0
547,0.0,0.0,0.0,0.0,0.0,-0.5165830078125,0.0,0.0,0.0,0.0,0.0,0.0,0.6399774349004663,0.0,0.0,0.0,0.0,0.0,0.0,-0.368,0.0
548,0.0,0.0,0.0,0.0,0.0,-0.4983916015625,0.0,0.0,0.0,0.0,0.0,0.0,0.6399774349004663,0.0,0.0,0.0,0.0,0.0,0.0,-0.12,0.0
549,0.0,0.0,0.0,0.0,0.0,-0.4797998046875,0.0,0.0,0.0,0.0,0.0,0.0,0.6399774349004663,0.0,0.0,0.0,0.0,0.0,0.0,-0.332,0.0
550,0.0,0.0,0.0,0.0,0.0,-0.4632607421875,0.0,0.0,0.0,0.0,0.0,0.0,0.6399774349004663,0.0,0.0,0.0,0.0,0.0,0.0,-0.452,0.0
551,0.0,0.0,0.0,0.0,0.0,-0.446115234375,0.0,0.0,0.0,0.0,0.0,0.0,0.6399774349004663,0.0,0.0,0.0,0.0,0.0,0.0,-0.104,0.0
552,0.0,0.0,0.0,0.0,0.0,-0.430208984375,0.0,0.0,0.0,0.0,0.0,0.0,0.6399774349004663,0.0,0.0,0.0,0.0,0.0,0.0,-1.404,0.0
553,0.0,0.0,0.0,0.0,0.0,-0.4175947265625,0.0,0.0,0.0,0.0,0.0,0.0,0.6399774349004663,0.0,0.0,0.0,0.0,0.0,0.0,-0.54,0.0
554,0.0,0.0,0.0,0.0,0.0,-0.40230859375,0.0,0.0,0.0,0.0,0.0,0.0,0.6399774349004663,0.0,0.0,0.0,0.0,0.0,0.0,-0.556,0.0
555,0.0,0.0,0.0,0.0,0.0,-0.3903271484375,0.0,0.0,0.0,0.0,0.0,0.0,0.6399774349004663,0.0,0.0,0.0,0.0,0.0,0.0,-1.696,0.0
556,0.0,0.0,0.0,0.0,0.0,-0.3814443359375,0.0,0.0,0.0,0.0,0.0,0.0,0.6399774349004663,0.0,0.0,0.0,0.0,0.0,0.0,-0.552,0.0
557,0.0,0.0,0.0,0.0,0.0,-0.3690498046875,0.0,0.0,0.0,0.0,0.0,0.0,0.6399774349004663,0.0,0.0,0.0,0.0,0.0,0.0,-0.872,0.0
558,0.0,0.0,0.0,0.0,0.0,-0.3601669921875,0.0,0.0,0.0,0.0,0.0,0.0,0.6399774349004663,0.0,0.0,0.0,0.0,0.0,0.0,-1.364,0.0
559,0.0,0.0,0.0,0.0,0.0,-0.353556640625,0.0,0.0,0.0,0.0,0.0,0.0,0.6399774349004663,0.0,0.0,0.0,0.0,0.0,0.0,-0.78,0.0
560,0.0,0.0,0.0,0.0,0.0,-0.345099609375,0.0,0.0,0.0,0.0,0.0,0.0,0.6399774349004663,0.0,0.0,0.0,0.0,0.0,0.0,-1.188,0.0
561,0.0,0.0,0.0,0.0,0.0,-0.3384892578125,0.0,0.0,0.0,0.0,0.0,0.0,0.6399774349004663,0.0,0.0,0.0,0.0,0.0,0.0,-1.332,0.0
562,0.0,0.0,0.0,0.0,0.0,-0.332705078125,0.0,0.0,0.0,0.0,0.0,0.0,0.6399774349004663,0.0,0.0,0.0,0.0,0.0,0.0,-0.572,0.0
563,0.0,0.0,0.0,0.0,0.0,-0.325888671875,0.0,0.0,0.0,0.0,0.0,0.0,0.6399774349004663,0.0,0.0,0.0,0.0,0.0,0.0,-0.544,0.0
564,0.0,0.0,0.0,0.0,0.0,-0.3201044921875,0.0,0.0,0.0,0.0,0.0,0.0,0.6399774349004663,0.0,0.0,0.0,0.0,0.0,0.0,-0.416,0.0
565,0.0,0.0,0.0,0.0,0.0,-0.31474609375,0.0,0.0,0.0,0.0,0.0,0.0,0.6399774349004663,0.0,0.0,0.0,0.0,0.0,0.0,-0.212,0.0
566,0.0,0.0,0.0,0.0,0.0,-0.308548828125,0.0,0.0,0.0,0.0,0.0,0.0,0.6399774349004663,0.0,0.0,0.0,0.0,0.0,0.0,-0.356,0.0
567,0.0,0.0,0.0,0.0,0.0,-0.3027646484375,0.0,0.0,0.0,0.0,0.0,0.0,0.6399774349004663,0.0,0.0,0.0,0.0,0.0,0.0,-0.52,0.0
568,0.0,0.0,0.0,0.0,0.0,-0.29698046875,0.0,0.0,0.0,0.0,0.0,0.0,0.6399774349004663,0.0,0.0,0.0,0.0,0.0,0.0,-0.136,0.0
569,0.0,0.0,0.0,0.0,0.0,-0.2891435546875,0.0,0.0,0.0,0.0,0.0,0.0,0.6399774349004663,0.0,0.0,0.0,0.0,0.0,0.0,-0.108,0.0
570,0.0,0.0,0.0,0.0,0.0,-0.2816943359375,0.0,0.0,0.0,0.0,0.0,0.0,0.6399774349004663,0.0,0.0,0.0,0.0,0.0,0.0,-0.26,0.0
571,0.0,0.0,0.0,0.0,0.0,-0.273857421875,0.0,0.0,0.0,0.0,0.0,0.0,0.6399774349004663,0.0,0.0,0.0,0.0,0.0,0.0,-0.016,0.0
572,0.0,0.0,0.0,0.0,0.0,-0.264767578125,0.0,0.0,0.0,0.0,0.0,0.0,0.6399774349004663,0.0,0.0,0.0,0.0,0.0,0.0,-0.576,0.0
573,0.0,0.0,0.0,0.0,0.0,-0.2563115234375,0.0,0.0,0.0,0.0,0.0,0.0,0.6399774349004663,0.0,0.0,0.0,0.0,0.0,0.0,-0.68,0.0
574,0.0,0.0,0.0,0.0,0.0,-0.2462021484375,0.0,0.0,0.0,0.0,0.0,0.0,0.6399774349004663,0.0,0.0,0.0,0.0,0.0,0.0,-0.304,0.0
575,0.0,0.0,0.0,0.0,0.0,-0.2346337890625,0.0,0.0,0.0,0.0,0.0,0.0,0.6399774349004663,0.0,0.0,0.0,0.0,0.0,0.0,-0.52,0.0
576,0.0,0.0,0.0,0.0,0.0,-0.224111328125,0.0,0.0,0.0,0.0,0.0,0.0,0.6399774349004663,0.0,0.0,0.0,0.0,0.0,0.0,-0.644,0.0
577,0.0,0.0,0.0,0.0,0.0,-0.2129697265625,0.0,0.0,0.0,0.0,0.0,0.0,0.6399774349004663,0.0,0.0,0.0,0.0,0.0,0.0,-0.676,0.0
578,0.0,0.0,0.0,0.0,0.0,-0.200380859375,0.0,0.0,0.0,0.0,0.0,0.0,0.6399774349004663,0.0,0.0,0.0,0.0,0.0,0.0,-0.708,0.0
579,0.0,0.0,0.0,0.0,0.0,-0.1880126953125,0.0,0.0,0.0,0.0,0.0,0.0,0.6399774349004663,0.0,0.0,0.0,0.0,0.0,0.0,-0.628,0.0
580,0.0,0.0,0.0,0.0,0.0,-0.175630859375,0.0,0.0,0.0,0.0,0.0,0.0,0.6399774349004663,0.0,0.0,0.0,0.0,0.0,0.0,-0.96,0.0
581,0.0,0.0,0.0,0.0,0.0,-0.1634560546875,0.0,0.0,0.0,0.0,0.0,0.0,0.6399774349004663,0.0,0.0,0.0,0.0,0.0,0.0,-1.012,0.0
582,0.0,0.0,0.0,0.0,0.0,-0.1500546875,0.0,0.0,0.0,0.0,0.0,0.0,0.6399774349004663,0.0,0.0,0.0,0.0,0.0,0.0,-0.604,0.0
583,0.0,0.0,0.0,0.0,0.0,-0.137052734375,0.0,0.0,0.0,0.0,0.0,0.0,0.6399774349004663,0.0,0.0,0.0,0.0,0.0,0.0,-0.876,0.0
584,0.0,0.0,0.0,0.0,0.0,-0.1257041015625,0.0,0.0,0.0,0.0,0.0,0.0,0.6399774349004663,0.0,0.0,0.0,0.0,0.0,0.0,-0.616,0.0
585,0.0,0.0,0.0,0.0,0.0,-0.112703125,0.0,0.0,0.0,0.0,0.0,0.0,0.6399774349004663,0.0,0.0,0.0,0.0,0.0,0.0,-0.224,0.0
586,0.0,0.0,0.0,0.0,0.0,-0.09971484375,0.0,0.0,0.0,0.0,0.0,0.0,0.6399774349004663,0.0,0.0,0.0,0.0,0.0,0.0,-0.604,0.0
587,0.0,0.0,0.0,0.0,0.0,-0.0889853515625,0.0,0.0,0.0,0.0,0.0,0.0,0.6399774349004663,0.0,0.0,0.0,0.0,0.0,0.0,-0.532,0.0
588,0.0,0.0,0.0,0.0,0.0,-0.0770302734375,0.0,0.0,0.0,0.0,0.0,0.0,0.6399774349004663,0.0,0.0,0.0,0.0,0.0,0.0,-0.54,0.0
589,0.0,0.0,0.0,0.0,0.0,-0.06528125,0.0,0.0,0.0,0.0,0.0,0.0,0.6399774349004663,0.0,0.0,0.0,0.0,0.0,0.0,-0.532,0.0
590,0.0,0.0,0.0,0.0,0.0,-0.05496484375,0.0,0.0,0.0,0.0,0.0,0.0,0.6399774349004663,0.0,0.0,0.0,0.0,0.0,0.0,-0.068,0.0
591,0.0,0.0,0.0,0.0,0.0,-0.0440419921875,0.0,0.0,0.0,0.0,0.0,0.0,0.6399774349004663,0.0,0.0,0.0,0.0,0.0,0.0,-0.428,0.0
592,0.0,0.0,0.0,0.0,0.0,-0.0345654296875,0.0,0.0,0.0,0.0,0.0,0.0,0.6399774349004663,0.0,0.0,0.0,0.0,0.0,0.0,-0.42,0.0
593,0.0,0.0,0.0,0.0,0.0,-0.02425,0.0,0.0,0.0,0.0,0.0,0.0,0.6399774349004663,0.0,0.0,0.0,0.0,0.0,0.0,0.032,0.0
594,0.0,0.0,0.0,0.0,0.0,-0.013740234375,0.0,0.0,0.0,0.0,0.0,0.0,0.6399774349004663,0.0,0.0,0.0,0.0,0.0,0.0,-0.448,0.0
595,0.0,0.0,0.0,0.0,0.0,-0.0052841796875,0.0,0.0,0.0,0.0,0.0,0.0,0.6399774349004663,0.0,0.0,0.0,0.0,0.0,0.0,-0.452,0.0
596,0.0,0.0,0.0,0.0,0.0,0.00419140625,0.0,0.0,0.0,0.0,0.0,0.0,0.6399774349004663,0.0,0.0,0.0,0.0,0.0,0.0,-0.452,0.0
597,0.0,0.0,0.0,0.0,0.0,0.013875,0.0,0.0,0.0,0.0,0.0,0.0,0.6399774349004663,0.0,0.0,0.0,0.0,0.0,0.0,-0.768,0.0
598,0.0,0.0,0.0,0.0,0.0,0.022732421875,0.0,0.0,0.0,0.0,0.0,0.0,0.6399774349004663,0.0,0.0,0.0,0.0,0.0,0.0,-0.312,0.0
599,0.0,0.0,0.0,0.0,0.0,0.03303515625,0.0,0.0,0.0,0.0,0.0,0.0,0.6399774349004663,0.0,0.0,0.0,0.0,0.0,0.0,-0.576,0.0
600,0.0,0.0,0.0,0.0,0.0,0.041904296875,0.0,0.0,0.0,0.0,0.0,0.0,0.6399774349004663,0.0,0.0,0.0,0.0,0.0,0.0,-0.976,0.0
601,0.0,0.0,0.0,0.0,0.0,0.05076171875,0.0,0.0,0.0,0.0,0.0,0.0,0.6399774349004663,0.0,0.0,0.0,0.0,0.0,0.0,-0.552,0.0
602,0.0,0.0,0.0,0.0,0.0,0.0614775390625,0.0,0.0,0.0,0.0,0.0,0.0,0.6399774349004663,0.0,0.0,0.0,0.0,0.0,0.0,-0.78,0.0
603,0.0,0.0,0.0,0.0,0.0,0.070748046875,0.0,0.0,0.0,0.0,0.0,0.0,0.6399774349004663,0.0,0.0,0.0,0.0,0.0,0.0,-0.708,0.0
604,0.0,0.0,0.0,0.0,0.0,0.08105078125,0.0,0.0,0.0,0.0,0.0,0.0,0.6399774349004663,0.0,0.0,0.0,0.0,0.0,0.0,-0.852,0.0
605,0.0,0.0,0.0,0.0,0.0,0.0911474609375,0.0,0.0,0.0,0.0,0.0,0.0,0.6399774349004663,0.0,0.0,0.0,0.0,0.0,0.0,-1.384,0.0
606,0.0,0.0,0.0,0.0,0.0,0.1004169921875,0.0,0.0,0.0,0.0,0.0,0.0,0.6399774349004663,0.0,0.0,0.0,0.0,0.0,0.0,-0.8,0.0
607,0.0,0.0,0.0,0.0,0.0,0.1119462890625,0.0,0.0,0.0,0.0,0.0,0.0,0.6399774349004663,0.0,0.0,0.0,0.0,0.0,0.0,-0.656,0.0
608,0.0,0.0,0.0,0.0,0.0,0.12204296875,0.0,0.0,0.0,0.0,0.0,0.0,0.6399774349004663,0.0,0.0,0.0,0.0,0.0,0.0,-0.852,0.0
609,0.0,0.0,0.0,0.0,0.0,0.13151953125,0.0,0.0,0.0,0.0,0.0,0.0,0.6399774349004663,0.0,0.0,0.0,0.0,0.0,0.0,-0.364,0.0
610,0.0,0.0,0.0,0.0,0.0,0.1428427734375,0.0,0.0,0.0,0.0,0.0,0.0,0.6399774349004663,0.0,0.0,0.0,0.0,0.0,0.0,-0.504,0.0
611,0.0,0.0,0.0,0.0,0.0,0.1529384765625,0.0,0.0,0.0,0.0,0.0,0.0,0.6399774349004663,0.0,0.0,0.0,0.0,0.0,0.0,-0.26,0.0
612,0.0,0.0,0.0,0.0,0.0,0.1636416015625,0.0,0.0,0.0,0.0,0.0,0.0,0.6399774349004663,0.0,0.0,0.0,0.0,0.0,0.0,-0.128,0.0
613,0.0,0.0,0.0,0.0,0.0,0.174564453125,0.0,0.0,0.0,0.0,0.0,0.0,0.6399774349004663,0.0,0.0,0.0,0.0,0.0,0.0,-0.604,0.0
614,0.0,0.0,0.0,0.0,0.0,0.1842353515625,0.0,0.0,0.0,0.0,0.0,0.0,0.6399774349004663,0.0,0.0,0.0,0.0,0.0,0.0,-0.304,0.0
615,0.0,0.0,0.0,0.0,0.0,0.1953515625,0.0,0.0,0.0,0.0,0.0,0.0,0.6399774349004663,0.0,0.0,0.0,0.0,0.0,0.0,-0.016,0.0
616,0.0,0.0,0.0,0.0,0.0,0.2062734375,0.0,0.0,0.0,0.0,0.0,0.0,0.6399774349004663,0.0,0.0,0.0,0.0,0.0,0.0,-0.364,0.0
617,0.0,0.0,0.0,0.0,0.0,0.2159443359375,0.0,0.0,0.0,0.0,0.0,0.0,0.6399774349004663,0.0,0.0,0.0,0.0,0.0,0.0,-0.056,0.0
618,0.0,0.0,0.0,0.0,0.0,0.226853515625,0.0,0.0,0.0,0.0,0.0,0.0,0.6399774349004663,0.0,0.0,0.0,0.0,0.0,0.0,-0.108,0.0
619,0.0,0.0,0.0,0.0,0.0,0.2373505859375,0.0,0.0,0.0,0.0,0.0,0.0,0.6399774349004663,0.0,0.0,0.0,0.0,0.0,0.0,-0.2,0.0
620,0.0,0.0,0.0,0.0,0.0,0.2476533203125,0.0,0.0,0.0,0.0,0.0,0.0,0.6399774349004663,0.0,0.0,0.0,0.0,0.0,0.0,-0.116,0.0
621,0.0,0.0,0.0,0.0,0.0,0.2585634765625,0.0,0.0,0.0,0.0,0.0,0.0,0.6399774349004663,0.0,0.0,0.0,0.0,0.0,0.0,-0.572,0.0
622,0.0,0.0,0.0,0.0,0.0,0.268646484375,0.0,0.0,0.0,0.0,0.0,0.0,0.6399774349004663,0.0,0.0,0.0,0.0,0.0,0.0,-0.72,0.0
623,0.0,0.0,0.0,0.0,0.0,0.279349609375,0.0,0.0,0.0,0.0,0.0,0.0,0.6399774349004663,0.0,0.0,0.0,0.0,0.0,0.0,-0.336,0.0
624,0.0,0.0,0.0,0.0,0.0,0.2908662109375,0.0,0.0,0.0,0.0,0.0,0.0,0.6399774349004663,0.0,0.0,0.0,0.0,0.0,0.0,-0.564,0.0
625,0.0,0.0,0.0,0.0,0.0,0.30115625,0.0,0.0,0.0,0.0,0.0,0.0,0.6399774349004663,0.0,0.0,0.0,0.0,0.0,0.0,-0.768,0.0
626,0.0,0.0,0.0,0.0,0.0,0.3116533203125,0.0,0.0,0.0,0.0,0.0,0.0,0.6399774349004663,0.0,0.0,0.0,0.0,0.0,0.0,-0.584,0.0
627,0.0,0.0,0.0,0.0,0.0,0.3229755859375,0.0,0.0,0.0,0.0,0.0,0.0,0.6399774349004663,0.0,0.0,0.0,0.0,0.0,0.0,-0.668,0.0
628,0.0,0.0,0.0,0.0,0.0,0.3336787109375,0.0,0.0,0.0,0.0,0.0,0.0,0.6399774349004663,0.0,0.0,0.0,0.0,0.0,0.0,-0.732,0.0
629,0.0,0.0,0.0,0.0,0.0,0.3443818359375,0.0,0.0,0.0,0.0,0.0,0.0,0.6399774349004663,0.0,0.0,0.0,0.0,0.0,0.0,-0.836,0.0
630,0.0,0.0,0.0,0.0,0.0,0.355072265625,0.0,0.0,0.0,0.0,0.0,0.0,0.6399774349004663,0.0,0.0,0.0,0.0,0.0,0.0,-0.908,0.0
631,0.0,0.0,0.0,0.0,0.0,0.3655693359375,0.0,0.0,0.0,0.0,0.0,0.0,0.6399774349004663,0.0,0.0,0.0,0.0,0.0,0.0,-0.552,0.0
632,0.0,0.0,0.0,0.0,0.0,0.37687890625,0.0,0.0,0.0,0.0,0.0,0.0,0.6399774349004663,0.0,0.0,0.0,0.0,0.0,0.0,-0.376,0.0
633,0.0,0.0,0.0,0.0,0.0,0.38758203125,0.0,0.0,0.0,0.0,0.0,0.0,0.6399774349004663,0.0,0.0,0.0,0.0,0.0,0.0,-0.564,0.0
634,0.0,0.0,0.0,0.0,0.0,0.397458984375,0.0,0.0,0.0,0.0,0.0,0.0,0.6399774349004663,0.0,0.0,0.0,0.0,0.0,0.0,-0.316,0.0
635,0.0,0.0,0.0,0.0,0.0,0.4081494140625,0.0,0.0,0.0,0.0,0.0,0.0,0.6399774349004663,0.0,0.0,0.0,0.0,0.0,0.0,-0.188,0.0
636,0.0,0.0,0.0,0.0,0.0,0.4186455078125,0.0,0.0,0.0,0.0,0.0,0.0,0.6399774349004663,0.0,0.0,0.0,0.0,0.0,0.0,-0.272,0.0
637,0.0,0.0,0.0,0.0,0.0,0.4285224609375,0.0,0.0,0.0,0.0,0.0,0.0,0.6399774349004663,0.0,0.0,0.0,0.0,0.0,0.0,-0.264,0.0
638,0.0,0.0,0.0,0.0,0.0,0.43859375,0.0,0.0,0.0,0.0,0.0,0.0,0.6399774349004663,0.0,0.0,0.0,0.0,0.0,0.0,-0.26,0.0
639,0.0,0.0,0.0,0.0,0.0,0.4486767578125,0.0,0.0,0.0,0.0,0.0,0.0,0.6399774349004663,0.0,0.0,0.0,0.0,0.0,0.0,-0.24,0.0
640,0.0,0.0,0.0,0.0,0.0,0.4587470703125,0.0,0.0,0.0,0.0,0.0,0.0,0.6399774349004663,0.0,0.0,0.0,0.0,0.0,0.0,0.032,0.0
641,0.0,0.0,0.0,0.0,0.0,0.4688310546875,0.0,0.0,0.0,0.0,0.0,0.0,0.6399774349004663,0.0,0.0,0.0,0.0,0.0,0.0,-0.068,0.0
642,0.0,0.0,0.0,0.0,0.0,0.4787080078125,0.0,0.0,0.0,0.0,0.0,0.0,0.6399774349004663,0.0,0.0,0.0,0.0,0.0,0.0,-0.128,0.0
643,0.0,0.0,0.0,0.0,0.0,0.488158203125,0.0,0.0,0.0,0.0,0.0,0.0,0.6399774349004663,0.0,0.0,0.0,0.0,0.0,0.0,-0.016,0.0
644,0.0,0.0,0.0,0.0,0.0,0.4984482421875,0.0,0.0,0.0,0.0,0.0,0.0,0.6399774349004663,0.0,0.0,0.0,0.0,0.0,0.0,0.016,0.0
645,0.0,0.0,0.0,0.0,0.0,0.5087255859375,0.0,0.0,0.0,0.0,0.0,0.0,0.6399774349004663,0.0,0.0,0.0,0.0,0.0,0.0,-0.264,0.0
646,0.0,0.0,0.0,0.0,0.0,0.5187958984375,0.0,0.0,0.0,0.0,0.0,0.0,0.6399774349004663,0.0,0.0,0.0,0.0,0.0,0.0,-0.44,0.0
647,0.0,0.0,0.0,0.0,0.0,0.5286728515625,0.0,0.0,0.0,0.0,0.0,0.0,0.6399774349004663,0.0,0.0,0.0,0.0,0.0,0.0,-0.42,0.0
648,0.0,0.0,0.0,0.0,0.0,0.5389501953125,0.0,0.0,0.0,0.0,0.0,0.0,0.6399774349004663,0.0,0.0,0.0,0.0,0.0,0.0,-0.224,0.0
649,0.0,0.0,0.0,0.0,0.0,0.5500537109375,0.0,0.0,0.0,0.0,0.0,0.0,0.6399774349004663,0.0,0.0,0.0,0.0,0.0,0.0,-0.344,0.0
650,0.0,0.0,0.0,0.0,0.0,0.560537109375,0.0,0.0,0.0,0.0,0.0,0.0,0.6399774349004663,0.0,0.0,0.0,0.0,0.0,0.0,-0.492,0.0
651,0.0,0.0,0.0,0.0,0.0,0.5710205078125,0.0,0.0,0.0,0.0,0.0,0.0,0.6399774349004663,0.0,0.0,0.0,0.0,0.0,0.0,-0.468,0.0
652,0.0,0.0,0.0,0.0,0.0,0.5817109375,0.0,0.0,0.0,0.0,0.0,0.0,0.6399774349004663,0.0,0.0,0.0,0.0,0.0,0.0,-0.428,0.0
653,0.0,0.0,0.0,0.0,0.0,0.592814453125,0.0,0.0,0.0,0.0,0.0,0.0,0.6399774349004663,0.0,0.0,0.0,0.0,0.0,0.0,-0.544,0.0
654,0.0,0.0,0.0,0.0,0.0,0.604125,0.0,0.0,0.0,0.0,0.0,0.0,-0.41765861387035985,0.0,0.0,0.0,0.0,0.0,0.0,-0.74,0.0
655,0.0,0.0,0.0,0.0,0.0,0.6146083984375,0.0,0.0,0.0,0.0,0.0,0.0,-0.41765861387035985,0.0,0.0,0.0,0.0,0.0,0.0,-0.728,0.0
656,0.0,0.0,0.0,0.0,0.0,0.625091796875,0.0,0.0,0.0,0.0,0.0,0.0,-0.41765861387035985,0.0,0.0,0.0,0.0,0.0,0.0,-0.272,0.0
657,0.0,0.0,0.0,0.0,0.0,0.6357822265625,0.0,0.0,0.0,0.0,0.0,0.0,-0.41765861387035985,0.0,0.0,0.0,0.0,0.0,0.0,-0.368,0.0
658,0.0,0.0,0.0,0.0,0.0,0.643580078125,0.0,0.0,0.0,0.0,0.0,0.0,-0.41765861387035985,0.0,0.0,0.0,0.0,0.0,0.0,-0.968,0.0
659,0.0,0.0,0.0,0.0,0.0,0.6462529296875,0.0,0.0,0.0,0.0,0.0,0.0,-0.41765861387035985,0.0,0.0,0.0,0.0,0.0,0.0,-0.8,0.0
660,0.0,0.0,0.0,0.0,0.0,0.646873046875,0.0,0.0,0.0,0.0,0.0,0.0,-0.41765861387035985,0.0,0.0,0.0,0.0,0.0,0.0,-0.492,0.0
661,0.0,0.0,0.0,0.0,0.0,0.6452197265625,0.0,0.0,0.0,0.0,0.0,0.0,-0.41765861387035985,0.0,0.0,0.0,0.0,0.0,0.0,-0.768,0.0
662,0.0,0.0,0.0,0.0,0.0,0.639681640625,0.0,0.0,0.0,0.0,0.0,0.0,-0.41765861387035985,0.0,0.0,0.0,0.0,0.0,0.0,-0.668,0.0
663,0.0,0.0,0.0,0.0,0.0,0.631263671875,0.0,0.0,0.0,0.0,0.0,0.0,-0.41765861387035985,0.0,0.0,0.0,0.0,0.0,0.0,-0.416,0.0
664,0.0,0.0,0.0,0.0,0.0,0.620779296875,0.0,0.0,0.0,0.0,0.0,0.0,-0.41765861387035985,0.0,0.0,0.0,0.0,0.0,0.0,-0.384,0.0
665,0.0,0.0,0.0,0.0,0.0,0.60823046875,0.0,0.0,0.0,0.0,0.0,0.0,-0.41765861387035985,0.0,0.0,0.0,0.0,0.0,0.0,-0.644,0.0
666,0.0,0.0,0.0,0.0,0.0,0.593640625,0.0,0.0,0.0,0.0,0.0,0.0,-0.41765861387035985,0.0,0.0,0.0,0.0,0.0,0.0,-0.604,0.0
667,0.0,0.0,0.0,0.0,0.0,0.576779296875,0.0,0.0,0.0,0.0,0.0,0.0,-0.41765861387035985,0.0,0.0,0.0,0.0,0.0,0.0,-0.44,0.0
668,0.0,0.0,0.0,0.0,0.0,0.5591044921875,0.0,0.0,0.0,0.0,0.0,0.0,-0.41765861387035985,0.0,0.0,0.0,0.0,0.0,0.0,-0.312,0.0
669,0.0,0.0,0.0,0.0,0.0,0.5410029296875,0.0,0.0,0.0,0.0,0.0,0.0,-0.41765861387035985,0.0,0.0,0.0,0.0,0.0,0.0,-0.716,0.0
670,0.0,0.0,0.0,0.0,0.0,0.5206552734375,0.0,0.0,0.0,0.0,0.0,0.0,-0.41765861387035985,0.0,0.0,0.0,0.0,0.0,0.0,-0.668,0.0
671,0.0,0.0,0.0,0.0,0.0,0.501328125,0.0,0.0,0.0,0.0,0.0,0.0,-0.41765861387035985,0.0,0.0,0.0,0.0,0.0,0.0,-0.348,0.0
672,0.0,0.0,0.0,0.0,0.0,0.482193359375,0.0,0.0,0.0,0.0,0.0,0.0,-0.41765861387035985,0.0,0.0,0.0,0.0,0.0,0.0,-0.82,0.0
673,0.0,0.0,0.0,0.0,0.0,0.46224609375,0.0,0.0,0.0,0.0,0.0,0.0,-0.41765861387035985,0.0,0.0,0.0,0.0,0.0,0.0,-0.324,0.0
674,0.0,0.0,0.0,0.0,0.0,0.4441455078125,0.0,0.0,0.0,0.0,0.0,0.0,-0.41765861387035985,0.0,0.0,0.0,0.0,0.0,0.0,-0.696,0.0
675,0.0,0.0,0.0,0.0,0.0,0.4262509765625,0.0,0.0,0.0,0.0,0.0,0.0,-0.41765861387035985,0.0,0.0,0.0,0.0,0.0,0.0,-0.856,0.0
676,0.0,0.0,0.0,0.0,0.0,0.4091826171875,0.0,0.0,0.0,0.0,0.0,0.0,-0.41765861387035985,0.0,0.0,0.0,0.0,0.0,0.0,-0.532,0.0
677,0.0,0.0,0.0,0.0,0.0,0.3933408203125,0.0,0.0,0.0,0.0,0.0,0.0,-0.41765861387035985,0.0,0.0,0.0,0.0,0.0,0.0,-0.7,0.0
678,0.0,0.0,0.0,0.0,0.0,0.37853125,0.0,0.0,0.0,0.0,0.0,0.0,-0.41765861387035985,0.0,0.0,0.0,0.0,0.0,0.0,-0.42,0.0
679,0.0,0.0,0.0,0.0,0.0,0.3653623046875,0.0,0.0,0.0,0.0,0.0,0.0,-0.41765861387035985,0.0,0.0,0.0,0.0,0.0,0.0,-0.468,0.0
680,0.0,0.0,0.0,0.0,0.0,0.352193359375,0.0,0.0,0.0,0.0,0.0,0.0,-0.41765861387035985,0.0,0.0,0.0,0.0,0.0,0.0,-0.4,0.0
681,0.0,0.0,0.0,0.0,0.0,0.341490234375,0.0,0.0,0.0,0.0,0.0,0.0,-0.41765861387035985,0.0,0.0,0.0,0.0,0.0,0.0,-0.22,0.0
682,0.0,0.0,0.0,0.0,0.0,0.3322333984375,0.0,0.0,0.0,0.0,0.0,0.0,-0.41765861387035985,0.0,0.0,0.0,0.0,0.0,0.0,-0.472,0.0
683,0.0,0.0,0.0,0.0,0.0,0.3223564453125,0.0,0.0,0.0,0.0,0.0,0.0,-0.41765861387035985,0.0,0.0,0.0,0.0,0.0,0.0,-0.18,0.0
684,0.0,0.0,0.0,0.0,0.0,0.3141318359375,0.0,0.0,0.0,0.0,0.0,0.0,-0.41765861387035985,0.0,0.0,0.0,0.0,0.0,0.0,-0.004,0.0
685,0.0,0.0,0.0,0.0,0.0,0.306927734375,0.0,0.0,0.0,0.0,0.0,0.0,-0.41765861387035985,0.0,0.0,0.0,0.0,0.0,0.0,-0.244,0.0
686,0.0,0.0,0.0,0.0,0.0,0.2997236328125,0.0,0.0,0.0,0.0,0.0,0.0,-0.41765861387035985,0.0,0.0,0.0,0.0,0.0,0.0,-0.044,0.0
687,0.0,0.0,0.0,0.0,0.0,0.293345703125,0.0,0.0,0.0,0.0,0.0,0.0,-0.41765861387035985,0.0,0.0,0.0,0.0,0.0,0.0,0.0,0.0
688,0.0,0.0,0.0,0.0,0.0,0.287173828125,0.0,0.0,0.0,0.0,0.0,0.0,-0.41765861387035985,0.0,0.0,0.0,0.0,0.0,0.0,-0.208,0.0
689,0.0,0.0,0.0,0.0,0.0,0.280576171875,0.0,0.0,0.0,0.0,0.0,0.0,-0.41765861387035985,0.0,0.0,0.0,0.0,0.0,0.0,-0.116,0.0
690,0.0,0.0,0.0,0.0,0.0,0.2741982421875,0.0,0.0,0.0,0.0,0.0,0.0,-0.41765861387035985,0.0,0.0,0.0,0.0,0.0,0.0,-0.172,0.0
691,0.0,0.0,0.0,0.0,0.0,0.2676142578125,0.0,0.0,0.0,0.0,0.0,0.0,-0.41765861387035985,0.0,0.0,0.0,0.0,0.0,0.0,-0.4,0.0
692,0.0,0.0,0.0,0.0,0.0,0.261029296875,0.0,0.0,0.0,0.0,0.0,0.0,-0.41765861387035985,0.0,0.0,0.0,0.0,0.0,0.0,-0.472,0.0
693,0.0,0.0,0.0,0.0,0.0,0.2544443359375,0.0,0.0,0.0,0.0,0.0,0.0,-0.41765861387035985,0.0,0.0,0.0,0.0,0.0,0.0,-0.628,0.0
694,0.0,0.0,0.0,0.0,0.0,0.247240234375,0.0,0.0,0.0,0.0,0.0,0.0,-0.41765861387035985,0.0,0.0,0.0,0.0,0.0,0.0,-0.628,0.0
695,0.0,0.0,0.0,0.0,0.0,0.2392099609375,0.0,0.0,0.0,0.0,0.0,0.0,-0.41765861387035985,0.0,0.0,0.0,0.0,0.0,0.0,-0.696,0.0
696,0.0,0.0,0.0,0.0,0.0,0.2303525390625,0.0,0.0,0.0,0.0,0.0,0.0,-0.41765861387035985,0.0,0.0,0.0,0.0,0.0,0.0,-0.656,0.0
697,0.0,0.0,0.0,0.0,0.0,0.2213017578125,0.0,0.0,0.0,0.0,0.0,0.0,-0.41765861387035985,0.0,0.0,0.0,0.0,0.0,0.0,-0.752,0.0
698,0.0,0.0,0.0,0.0,0.0,0.21223828125,0.0,0.0,0.0,0.0,0.0,0.0,-0.41765861387035985,0.0,0.0,0.0,0.0,0.0,0.0,-0.832,0.0
699,0.0,0.0,0.0,0.0,0.0,0.20276171875,0.0,0.0,0.0,0.0,0.0,0.0,-0.41765861387035985,0.0,0.0,0.0,0.0,0.0,0.0,-0.96,0.0
700,0.0,0.0,0.0,0.0,0.0,0.1926787109375,0.0,0.0,0.0,0.0,0.0,0.0,-0.41765861387035985,0.0,0.0,0.0,0.0,0.0,0.0,-1.116,0.0
701,0.0,0.0,0.0,0.0,0.0,0.1815625,0.0,0.0,0.0,0.0,0.0,0.0,-0.41765861387035985,0.0,0.0,0.0,0.0,0.0,0.0,-1.184,0.0
702,0.0,0.0,0.0,0.0,0.0,0.1708466796875,0.0,0.0,0.0,0.0,0.0,0.0,-0.41765861387035985,0.0,0.0,0.0,0.0,0.0,0.0,-1.176,0.0
703,0.0,0.0,0.0,0.0,0.0,0.1597294921875,0.0,0.0,0.0,0.0,0.0,0.0,-0.41765861387035985,0.0,0.0,0.0,0.0,0.0,0.0,-1.028,0.0
704,0.0,0.0,0.0,0.0,0.0,0.147787109375,0.0,0.0,0.0,0.0,0.0,0.0,-0.41765861387035985,0.0,0.0,0.0,0.0,0.0,0.0,-0.748,0.0
705,0.0,0.0,0.0,0.0,0.0,0.1356376953125,0.0,0.0,0.0,0.0,0.0,0.0,-0.41765861387035985,0.0,0.0,0.0,0.0,0.0,0.0,-0.7,0.0
706,0.0,0.0,0.0,0.0,0.0,0.12390234375,0.0,0.0,0.0,0.0,0.0,0.0,-0.41765861387035985,0.0,0.0,0.0,0.0,0.0,0.0,-0.624,0.0
707,0.0,0.0,0.0,0.0,0.0,0.1119462890625,0.0,0.0,0.0,0.0,0.0,0.0,-0.41765861387035985,0.0,0.0,0.0,0.0,0.0,0.0,-0.544,0.0
708,0.0,0.0,0.0,0.0,0.0,0.0993837890625,0.0,0.0,0.0,0.0,0.0,0.0,-0.41765861387035985,0.0,0.0,0.0,0.0,0.0,0.0,-0.556,0.0
709,0.0,0.0,0.0,0.0,0.0,0.0872353515625,0.0,0.0,0.0,0.0,0.0,0.0,-0.41765861387035985,0.0,0.0,0.0,0.0,0.0,0.0,-0.556,0.0
710,0.0,0.0,0.0,0.0,0.0,0.0756923828125,0.0,0.0,0.0,0.0,0.0,0.0,-0.41765861387035985,0.0,0.0,0.0,0.0,0.0,0.0,-0.492,0.0
711,0.0,0.0,0.0,0.0,0.0,0.0635302734375,0.0,0.0,0.0,0.0,0.0,0.0,-0.41765861387035985,0.0,0.0,0.0,0.0,0.0,0.0,-0.336,0.0
712,0.0,0.0,0.0,0.0,0.0,0.0509677734375,0.0,0.0,0.0,0.0,0.0,0.0,-0.41765861387035985,0.0,0.0,0.0,0.0,0.0,0.0,-0.192,0.0
713,0.0,0.0,0.0,0.0,0.0,0.0396328125,0.0,0.0,0.0,0.0,0.0,0.0,-0.41765861387035985,0.0,0.0,0.0,0.0,0.0,0.0,-0.272,0.0
714,0.0,0.0,0.0,0.0,0.0,0.028296875,0.0,0.0,0.0,0.0,0.0,0.0,-0.41765861387035985,0.0,0.0,0.0,0.0,0.0,0.0,-0.356,0.0
715,0.0,0.0,0.0,0.0,0.0,0.016353515625,0.0,0.0,0.0,0.0,0.0,0.0,-0.41765861387035985,0.0,0.0,0.0,0.0,0.0,0.0,-0.148,0.0
716,0.0,0.0,0.0,0.0,0.0,0.005224609375,0.0,0.0,0.0,0.0,0.0,0.0,-0.41765861387035985,0.0,0.0,0.0,0.0,0.0,0.0,-0.388,0.0
717,0.0,0.0,0.0,0.0,0.0,-0.005490234375,0.0,0.0,0.0,0.0,0.0,0.0,-0.41765861387035985,0.0,0.0,0.0,0.0,0.0,0.0,-0.472,0.0
718,0.0,0.0,0.0,0.0,0.0,-0.015806640625,0.0,0.0,0.0,0.0,0.0,0.0,-0.41765861387035985,0.0,0.0,0.0,0.0,0.0,0.0,-0.336,0.0
719,0.0,0.0,0.0,0.0,0.0,-0.026109375,0.0,0.0,0.0,0.0,0.0,0.0,-0.41765861387035985,0.0,0.0,0.0,0.0,0.0,0.0,-0.48,0.0
720,0.0,0.0,0.0,0.0,0.0,-0.0370322265625,0.0,0.0,0.0,0.0,0.0,0.0,-0.41765861387035985,0.0,0.0,0.0,0.0,0.0,0.0,-0.5,0.0
721,0.0,0.0,0.0,0.0,0.0,-0.0467275390625,0.0,0.0,0.0,0.0,0.0,0.0,-0.41765861387035985,0.0,0.0,0.0,0.0,0.0,0.0,-0.572,0.0
722,0.0,0.0,0.0,0.0,0.0,-0.055998046875,0.0,0.0,0.0,0.0,0.0,0.0,-0.41765861387035985,0.0,0.0,0.0,0.0,0.0,0.0,-0.732,0.0
723,0.0,0.0,0.0,0.0,0.0,-0.0656943359375,0.0,0.0,0.0,0.0,0.0,0.0,-0.41765861387035985,0.0,0.0,0.0,0.0,0.0,0.0,-0.68,0.0
724,0.0,0.0,0.0,0.0,0.0,-0.0751708984375,0.0,0.0,0.0,0.0,0.0,0.0,-0.41765861387035985,0.0,0.0,0.0,0.0,0.0,0.0,-0.916,0.0
725,0.0,0.0,0.0,0.0,0.0,-0.0844541015625,0.0,0.0,0.0,0.0,0.0,0.0,-0.41765861387035985,0.0,0.0,0.0,0.0,0.0,0.0,-1.176,0.0
726,0.0,0.0,0.0,0.0,0.0,-0.0935302734375,0.0,0.0,0.0,0.0,0.0,0.0,-0.41765861387035985,0.0,0.0,0.0,0.0,0.0,0.0,-1.028,0.0
727,0.0,0.0,0.0,0.0,0.0,-0.1019736328125,0.0,0.0,0.0,0.0,0.0,0.0,-0.41765861387035985,0.0,0.0,0.0,0.0,0.0,0.0,-0.888,0.0
728,0.0,0.0,0.0,0.0,0.0,-0.1114638671875,0.0,0.0,0.0,0.0,0.0,0.0,-0.41765861387035985,0.0,0.0,0.0,0.0,0.0,0.0,-1.008,0.0
729,0.0,0.0,0.0,0.0,0.0,-0.12137890625,0.0,0.0,0.0,0.0,0.0,0.0,-0.41765861387035985,0.0,0.0,0.0,0.0,0.0,0.0,-0.852,0.0
730,0.0,0.0,0.0,0.0,0.0,-0.130662109375,0.0,0.0,0.0,0.0,0.0,0.0,-0.41765861387035985,0.0,0.0,0.0,0.0,0.0,0.0,-0.956,0.0
731,0.0,0.0,0.0,0.0,0.0,-0.1403583984375,0.0,0.0,0.0,0.0,0.0,0.0,-0.41765861387035985,0.0,0.0,0.0,0.0,0.0,0.0,-0.748,0.0
732,0.0,0.0,0.0,0.0,0.0,-0.149640625,0.0,0.0,0.0,0.0,0.0,0.0,-0.41765861387035985,0.0,0.0,0.0,0.0,0.0,0.0,-0.584,0.0
733,0.0,0.0,0.0,0.0,0.0,-0.1599443359375,0.0,0.0,0.0,0.0,0.0,0.0,-0.41765861387035985,0.0,0.0,0.0,0.0,0.0,0.0,-0.728,0.0
734,0.0,0.0,0.0,0.0,0.0,-0.170466796875,0.0,0.0,0.0,0.0,0.0,0.0,-0.41765861387035985,0.0,0.0,0.0,0.0,0.0,0.0,-0.656,0.0
735,0.0,0.0,0.0,0.0,0.0,-0.180162109375,0.0,0.0,0.0,0.0,0.0,0.0,-0.41765861387035985,0.0,0.0,0.0,0.0,0.0,0.0,-0.696,0.0
736,0.0,0.0,0.0,0.0,0.0,-0.190271484375,0.0,0.0,0.0,0.0,0.0,0.0,-0.41765861387035985,0.0,0.0,0.0,0.0,0.0,0.0,-0.46,0.0
737,0.0,0.0,0.0,0.0,0.0,-0.2014140625,0.0,0.0,0.0,0.0,0.0,0.0,-0.41765861387035985,0.0,0.0,0.0,0.0,0.0,0.0,-0.324,0.0
738,0.0,0.0,0.0,0.0,0.0,-0.2125556640625,0.0,0.0,0.0,0.0,0.0,0.0,-0.41765861387035985,0.0,0.0,0.0,0.0,0.0,0.0,-0.388,0.0
739,0.0,0.0,0.0,0.0,0.0,-0.22328515625,0.0,0.0,0.0,0.0,0.0,0.0,-0.41765861387035985,0.0,0.0,0.0,0.0,0.0,0.0,-0.452,0.0
740,0.0,0.0,0.0,0.0,0.0,-0.234220703125,0.0,0.0,0.0,0.0,0.0,0.0,-0.41765861387035985,0.0,0.0,0.0,0.0,0.0,0.0,-0.26,0.0
741,0.0,0.0,0.0,0.0,0.0,-0.2453759765625,0.0,0.0,0.0,0.0,0.0,0.0,-0.41765861387035985,0.0,0.0,0.0,0.0,0.0,0.0,-0.492,0.0
742,0.0,0.0,0.0,0.0,0.0,-0.2571376953125,0.0,0.0,0.0,0.0,0.0,0.0,-0.41765861387035985,0.0,0.0,0.0,0.0,0.0,0.0,-0.564,0.0
743,0.0,0.0,0.0,0.0,0.0,-0.26766015625,0.0,0.0,0.0,0.0,0.0,0.0,-0.41765861387035985,0.0,0.0,0.0,0.0,0.0,0.0,-0.576,0.0
744,0.0,0.0,0.0,0.0,0.0,-0.2781826171875,0.0,0.0,0.0,0.0,0.0,0.0,-0.41765861387035985,0.0,0.0,0.0,0.0,0.0,0.0,-0.604,0.0
745,0.0,0.0,0.0,0.0,0.0,-0.2899697265625,0.0,0.0,0.0,0.0,0.0,0.0,-0.41765861387035985,0.0,0.0,0.0,0.0,0.0,0.0,-0.544,0.0
746,0.0,0.0,0.0,0.0,0.0,-0.3011123046875,0.0,0.0,0.0,0.0,0.0,0.0,-0.41765861387035985,0.0,0.0,0.0,0.0,0.0,0.0,-0.644,0.0
747,0.0,0.0,0.0,0.0,0.0,-0.31144140625,0.0,0.0,0.0,0.0,0.0,0.0,-0.41765861387035985,0.0,0.0,0.0,0.0,0.0,0.0,-0.872,0.0
748,0.0,0.0,0.0,0.0,0.0,-0.3217568359375,0.0,0.0,0.0,0.0,0.0,0.0,-0.41765861387035985,0.0,0.0,0.0,0.0,0.0,0.0,-0.688,0.0
749,0.0,0.0,0.0,0.0,0.0,-0.332705078125,0.0,0.0,0.0,0.0,0.0,0.0,-0.41765861387035985,0.0,0.0,0.0,0.0,0.0,0.0,-0.96,0.0
750,0.0,0.0,0.0,0.0,0.0,-0.343447265625,0.0,0.0,0.0,0.0,0.0,0.0,-0.41765861387035985,0.0,0.0,0.0,0.0,0.0,0.0,-1.06,0.0
751,0.0,0.0,0.0,0.0,0.0,-0.353349609375,0.0,0.0,0.0,0.0,0.0,0.0,-0.41765861387035985,0.0,0.0,0.0,0.0,0.0,0.0,-0.98,0.0
752,0.0,0.0,0.0,0.0,0.0,-0.3628525390625,0.0,0.0,0.0,0.0,0.0,0.0,-0.41765861387035985,0.0,0.0,0.0,0.0,0.0,0.0,-0.812,0.0
753,0.0,0.0,0.0,0.0,0.0,-0.3735947265625,0.0,0.0,0.0,0.0,0.0,0.0,-0.41765861387035985,0.0,0.0,0.0,0.0,0.0,0.0,-0.772,0.0
754,0.0,0.0,0.0,0.0,0.0,-0.3841298828125,0.0,0.0,0.0,0.0,0.0,0.0,0.371664243861729,0.0,0.0,0.0,0.0,0.0,0.0,-0.616,0.0
755,0.0,0.0,0.0,0.0,0.0,-0.394044921875,0.0,0.0,0.0,0.0,0.0,0.0,0.371664243861729,0.0,0.0,0.0,0.0,0.0,0.0,-0.7,0.0
756,0.0,0.0,0.0,0.0,0.0,-0.4039609375,0.0,0.0,0.0,0.0,0.0,0.0,0.371664243861729,0.0,0.0,0.0,0.0,0.0,0.0,-0.532,0.0
757,0.0,0.0,0.0,0.0,0.0,-0.413669921875,0.0,0.0,0.0,0.0,0.0,0.0,0.371664243861729,0.0,0.0,0.0,0.0,0.0,0.0,-0.356,0.0
758,0.0,0.0,0.0,0.0,0.0,-0.4219326171875,0.0,0.0,0.0,0.0,0.0,0.0,0.371664243861729,0.0,0.0,0.0,0.0,0.0,0.0,0.076,0.0
759,0.0,0.0,0.0,0.0,0.0,-0.4252509765625,0.0,0.0,0.0,0.0,0.0,0.0,0.371664243861729,0.0,0.0,0.0,0.0,0.0,0.0,0.136,0.0
760,0.0,0.0,0.0,0.0,0.0,-0.4262841796875,0.0,0.0,0.0,0.0,0.0,0.0,0.371664243861729,0.0,0.0,0.0,0.0,0.0,0.0,-0.148,0.0
761,0.0,0.0,0.0,0.0,0.0,-0.4252509765625,0.0,0.0,0.0,0.0,0.0,0.0,0.371664243861729,0.0,0.0,0.0,0.0,0.0,0.0,0.244,0.0
762,0.0,0.0,0.0,0.0,0.0,-0.4204873046875,0.0,0.0,0.0,0.0,0.0,0.0,0.371664243861729,0.0,0.0,0.0,0.0,0.0,0.0,0.284,0.0
763,0.0,0.0,0.0,0.0,0.0,-0.4130498046875,0.0,0.0,0.0,0.0,0.0,0.0,0.371664243861729,0.0,0.0,0.0,0.0,0.0,0.0,0.168,0.0
764,0.0,0.0,0.0,0.0,0.0,-0.4041669921875,0.0,0.0,0.0,0.0,0.0,0.0,0.371664243861729,0.0,0.0,0.0,0.0,0.0,0.0,0.416,0.0
765,0.0,0.0,0.0,0.0,0.0,-0.392392578125,0.0,0.0,0.0,0.0,0.0,0.0,0.371664243861729,0.0,0.0,0.0,0.0,0.0,0.0,0.252,0.0
766,0.0,0.0,0.0,0.0,0.0,-0.37896484375,0.0,0.0,0.0,0.0,0.0,0.0,0.371664243861729,0.0,0.0,0.0,0.0,0.0,0.0,0.172,0.0
767,0.0,0.0,0.0,0.0,0.0,-0.3628525390625,0.0,0.0,0.0,0.0,0.0,0.0,0.371664243861729,0.0,0.0,0.0,0.0,0.0,0.0,0.344,0.0
768,0.0,0.0,0.0,0.0,0.0,-0.34592578125,0.0,0.0,0.0,0.0,0.0,0.0,0.371664243861729,0.0,0.0,0.0,0.0,0.0,0.0,-0.384,0.0
769,0.0,0.0,0.0,0.0,0.0,-0.3283671875,0.0,0.0,0.0,0.0,0.0,0.0,0.371664243861729,0.0,0.0,0.0,0.0,0.0,0.0,-0.052,0.0
770,0.0,0.0,0.0,0.0,0.0,-0.3079296875,0.0,0.0,0.0,0.0,0.0,0.0,0.371664243861729,0.0,0.0,0.0,0.0,0.0,0.0,-0.232,0.0
771,0.0,0.0,0.0,0.0,0.0,-0.289556640625,0.0,0.0,0.0,0.0,0.0,0.0,0.371664243861729,0.0,0.0,0.0,0.0,0.0,0.0,-0.656,0.0
772,0.0,0.0,0.0,0.0,0.0,-0.2697255859375,0.0,0.0,0.0,0.0,0.0,0.0,0.371664243861729,0.0,0.0,0.0,0.0,0.0,0.0,0.068,0.0
773,0.0,0.0,0.0,0.0,0.0,-0.2492880859375,0.0,0.0,0.0,0.0,0.0,0.0,0.371664243861729,0.0,0.0,0.0,0.0,0.0,0.0,-1.344,0.0
774,0.0,0.0,0.0,0.0,0.0,-0.231341796875,0.0,0.0,0.0,0.0,0.0,0.0,0.371664243861729,0.0,0.0,0.0,0.0,0.0,0.0,-0.296,0.0
775,0.0,0.0,0.0,0.0,0.0,-0.21131640625,0.0,0.0,0.0,0.0,0.0,0.0,0.371664243861729,0.0,0.0,0.0,0.0,0.0,0.0,-1.012,0.0
776,0.0,0.0,0.0,0.0,0.0,-0.193990234375,0.0,0.0,0.0,0.0,0.0,0.0,0.371664243861729,0.0,0.0,0.0,0.0,0.0,0.0,-0.976,0.0
777,0.0,0.0,0.0,0.0,0.0,-0.1766640625,0.0,0.0,0.0,0.0,0.0,0.0,0.371664243861729,0.0,0.0,0.0,0.0,0.0,0.0,-0.924,0.0
778,0.0,0.0,0.0,0.0,0.0,-0.1607705078125,0.0,0.0,0.0,0.0,0.0,0.0,0.371664243861729,0.0,0.0,0.0,0.0,0.0,0.0,-1.612,0.0
779,0.0,0.0,0.0,0.0,0.0,-0.1463359375,0.0,0.0,0.0,0.0,0.0,0.0,0.371664243861729,0.0,0.0,0.0,0.0,0.0,0.0,-0.772,0.0
780,0.0,0.0,0.0,0.0,0.0,-0.1319013671875,0.0,0.0,0.0,0.0,0.0,0.0,0.371664243861729,0.0,0.0,0.0,0.0,0.0,0.0,-1.38,0.0
781,0.0,0.0,0.0,0.0,0.0,-0.1211728515625,0.0,0.0,0.0,0.0,0.0,0.0,0.371664243861729,0.0,0.0,0.0,0.0,0.0,0.0,-1.0,0.0
782,0.0,0.0,0.0,0.0,0.0,-0.10941015625,0.0,0.0,0.0,0.0,0.0,0.0,0.371664243861729,0.0,0.0,0.0,0.0,0.0,0.0,-0.504,0.0
783,0.0,0.0,0.0,0.0,0.0,-0.098681640625,0.0,0.0,0.0,0.0,0.0,0.0,0.371664243861729,0.0,0.0,0.0,0.0,0.0,0.0,-1.156,0.0
784,0.0,0.0,0.0,0.0,0.0,-0.0916708984375,0.0,0.0,0.0,0.0,0.0,0.0,0.371664243861729,0.0,0.0,0.0,0.0,0.0,0.0,-0.8,0.0
785,0.0,0.0,0.0,0.0,0.0,-0.0834208984375,0.0,0.0,0.0,0.0,0.0,0.0,0.371664243861729,0.0,0.0,0.0,0.0,0.0,0.0,-0.784,0.0
786,0.0,0.0,0.0,0.0,0.0,-0.07641015625,0.0,0.0,0.0,0.0,0.0,0.0,0.371664243861729,0.0,0.0,0.0,0.0,0.0,0.0,-1.116,0.0
787,0.0,0.0,0.0,0.0,0.0,-0.0712587890625,0.0,0.0,0.0,0.0,0.0,0.0,0.371664243861729,0.0,0.0,0.0,0.0,0.0,0.0,-0.276,0.0
788,0.0,0.0,0.0,0.0,0.0,-0.064248046875,0.0,0.0,0.0,0.0,0.0,0.0,0.371664243861729,0.0,0.0,0.0,0.0,0.0,0.0,-0.428,0.0
789,0.0,0.0,0.0,0.0,0.0,-0.059509765625,0.0,0.0,0.0,0.0,0.0,0.0,0.371664243861729,0.0,0.0,0.0,0.0,0.0,0.0,-0.48,0.0
790,0.0,0.0,0.0,0.0,0.0,-0.0547587890625,0.0,0.0,0.0,0.0,0.0,0.0,0.371664243861729,0.0,0.0,0.0,0.0,0.0,0.0,-0.084,0.0
791,0.0,0.0,0.0,0.0,0.0,-0.0489873046875,0.0,0.0,0.0,0.0,0.0,0.0,0.371664243861729,0.0,0.0,0.0,0.0,0.0,0.0,-0.572,0.0
792,0.0,0.0,0.0,0.0,0.0,-0.044662109375,0.0,0.0,0.0,0.0,0.0,0.0,0.371664243861729,0.0,0.0,0.0,0.0,0.0,0.0,-0.368,0.0
793,0.0,0.0,0.0,0.0,0.0,-0.038890625,0.0,0.0,0.0,0.0,0.0,0.0,0.371664243861729,0.0,0.0,0.0,0.0,0.0,0.0,-0.264,0.0
794,0.0,0.0,0.0,0.0,0.0,-0.0325,0.0,0.0,0.0,0.0,0.0,0.0,0.371664243861729,0.0,0.0,0.0,0.0,0.0,0.0,-0.468,0.0
795,0.0,0.0,0.0,0.0,0.0,-0.026109375,0.0,0.0,0.0,0.0,0.0,0.0,0.371664243861729,0.0,0.0,0.0,0.0,0.0,0.0,-0.044,0.0
796,0.0,0.0,0.0,0.0,0.0,-0.017859375,0.0,0.0,0.0,0.0,0.0,0.0,0.371664243861729,0.0,0.0,0.0,0.0,0.0,0.0,-0.24,0.0
797,0.0,0.0,0.0,0.0,0.0,-0.01003515625,0.0,0.0,0.0,0.0,0.0,0.0,0.371664243861729,0.0,0.0,0.0,0.0,0.0,0.0,-0.556,0.0
798,0.0,0.0,0.0,0.0,0.0,-0.001578125,0.0,0.0,0.0,0.0,0.0,0.0,0.371664243861729,0.0,0.0,0.0,0.0,0.0,0.0,-0.468,0.0
799,0.0,0.0,0.0,0.0,0.0,0.008310546875,0.0,0.0,0.0,0.0,0.0,0.0,0.371664243861729,0.0,0.0,0.0,0.0,0.0,0.0,-0.74,0.0
800,0.0,0.0,0.0,0.0,0.0,0.01861328125,0.0,0.0,0.0,0.0,0.0,0.0,0.371664243861729,0.0,0.0,0.0,0.0,0.0,0.0,-0.544,0.0
801,0.0,0.0,0.0,0.0,0.0,0.0301552734375,0.0,0.0,0.0,0.0,0.0,0.0,0.371664243861729,0.0,0.0,0.0,0.0,0.0,0.0,-0.468,0.0
802,0.0,0.0,0.0,0.0,0.0,0.041904296875,0.0,0.0,0.0,0.0,0.0,0.0,0.371664243861729,0.0,0.0,0.0,0.0,0.0,0.0,-1.028,0.0
803,0.0,0.0,0.0,0.0,0.0,0.0530341796875,0.0,0.0,0.0,0.0,0.0,0.0,0.371664243861729,0.0,0.0,0.0,0.0,0.0,0.0,-0.676,0.0
804,0.0,0.0,0.0,0.0,0.0,0.0664228515625,0.0,0.0,0.0,0.0,0.0,0.0,0.371664243861729,0.0,0.0,0.0,0.0,0.0,0.0,-0.628,0.0
805,0.0,0.0,0.0,0.0,0.0,0.0789853515625,0.0,0.0,0.0,0.0,0.0,0.0,0.371664243861729,0.0,0.0,0.0,0.0,0.0,0.0,-0.908,0.0
806,0.0,0.0,0.0,0.0,0.0,0.0909404296875,0.0,0.0,0.0,0.0,0.0,0.0,0.371664243861729,0.0,0.0,0.0,0.0,0.0,0.0,-0.676,0.0
807,0.0,0.0,0.0,0.0,0.0,0.1047421875,0.0,0.0,0.0,0.0,0.0,0.0,0.371664243861729,0.0,0.0,0.0,0.0,0.0,0.0,-0.7,0.0
808,0.0,0.0,0.0,0.0,0.0,0.117923828125,0.0,0.0,0.0,0.0,0.0,0.0,0.371664243861729,0.0,0.0,0.0,0.0,0.0,0.0,-0.596,0.0
809,0.0,0.0,0.0,0.0,0.0,0.1300732421875,0.0,0.0,0.0,0.0,0.0,0.0,0.371664243861729,0.0,0.0,0.0,0.0,0.0,0.0,-0.52,0.0
810,0.0,0.0,0.0,0.0,0.0,0.143048828125,0.0,0.0,0.0,0.0,0.0,0.0,0.371664243861729,0.0,0.0,0.0,0.0,0.0,0.0,-0.42,0.0
811,0.0,0.0,0.0,0.0,0.0,0.155611328125,0.0,0.0,0.0,0.0,0.0,0.0,0.371664243861729,0.0,0.0,0.0,0.0,0.0,0.0,-0.304,0.0
812,0.0,0.0,0.0,0.0,0.0,0.1675537109375,0.0,0.0,0.0,0.0,0.0,0.0,0.371664243861729,0.0,0.0,0.0,0.0,0.0,0.0,-0.448,0.0
813,0.0,0.0,0.0,0.0,0.0,0.1792900390625,0.0,0.0,0.0,0.0,0.0,0.0,0.371664243861729,0.0,0.0,0.0,0.0,0.0,0.0,-0.5,0.0
814,0.0,0.0,0.0,0.0,0.0,0.1908193359375,0.0,0.0,0.0,0.0,0.0,0.0,0.371664243861729,0.0,0.0,0.0,0.0,0.0,0.0,-0.368,0.0
815,0.0,0.0,0.0,0.0,0.0,0.2021552734375,0.0,0.0,0.0,0.0,0.0,0.0,0.371664243861729,0.0,0.0,0.0,0.0,0.0,0.0,-0.18,0.0
816,0.0,0.0,0.0,0.0,0.0,0.2128583984375,0.0,0.0,0.0,0.0,0.0,0.0,0.371664243861729,0.0,0.0,0.0,0.0,0.0,0.0,-0.344,0.0
817,0.0,0.0,0.0,0.0,0.0,0.2229423828125,0.0,0.0,0.0,0.0,0.0,0.0,0.371664243861729,0.0,0.0,0.0,0.0,0.0,0.0,-0.26,0.0
818,0.0,0.0,0.0,0.0,0.0,0.2330380859375,0.0,0.0,0.0,0.0,0.0,0.0,0.371664243861729,0.0,0.0,0.0,0.0,0.0,0.0,-0.156,0.0
819,0.0,0.0,0.0,0.0,0.0,0.243328125,0.0,0.0,0.0,0.0,0.0,0.0,0.371664243861729,0.0,0.0,0.0,0.0,0.0,0.0,-0.244,0.0
820,0.0,0.0,0.0,0.0,0.0,0.2527919921875,0.0,0.0,0.0,0.0,0.0,0.0,0.371664243861729,0.0,0.0,0.0,0.0,0.0,0.0,-0.44,0.0
821,0.0,0.0,0.0,0.0,0.0,0.2620625,0.0,0.0,0.0,0.0,0.0,0.0,0.371664243861729,0.0,0.0,0.0,0.0,0.0,0.0,-0.564,0.0
822,0.0,0.0,0.0,0.0,0.0,0.2713193359375,0.0,0.0,0.0,0.0,0.0,0.0,0.371664243861729,0.0,0.0,0.0,0.0,0.0,0.0,-0.592,0.0
823,0.0,0.0,0.0,0.0,0.0,0.2803701171875,0.0,0.0,0.0,0.0,0.0,0.0,0.371664243861729,0.0,0.0,0.0,0.0,0.0,0.0,-0.232,0.0
824,0.0,0.0,0.0,0.0,0.0,0.2898466796875,0.0,0.0,0.0,0.0,0.0,0.0,0.371664243861729,0.0,0.0,0.0,0.0,0.0,0.0,-0.304,0.0
825,0.0,0.0,0.0,0.0,0.0,0.299310546875,0.0,0.0,0.0,0.0,0.0,0.0,0.371664243861729,0.0,0.0,0.0,0.0,0.0,0.0,-0.552,0.0
826,0.0,0.0,0.0,0.0,0.0,0.3083603515625,0.0,0.0,0.0,0.0,0.0,0.0,0.371664243861729,0.0,0.0,0.0,0.0,0.0,0.0,-0.54,0.0
827,0.0,0.0,0.0,0.0,0.0,0.31803125,0.0,0.0,0.0,0.0,0.0,0.0,0.371664243861729,0.0,0.0,0.0,0.0,0.0,0.0,-0.564,0.0
828,0.0,0.0,0.0,0.0,0.0,0.3277138671875,0.0,0.0,0.0,0.0,0.0,0.0,0.371664243861729,0.0,0.0,0.0,0.0,0.0,0.0,-0.564,0.0
829,0.0,0.0,0.0,0.0,0.0,0.337384765625,0.0,0.0,0.0,0.0,0.0,0.0,-0.9879494385638486,0.0,0.0,0.0,0.0,0.0,0.0,-0.68,0.0
830,0.0,0.0,0.0,0.0,0.0,0.34726171875,0.0,0.0,0.0,0.0,0.0,0.0,-0.9879494385638486,0.0,0.0,0.0,0.0,0.0,0.0,-0.96,0.0
831,0.0,0.0,0.0,0.0,0.0,0.356931640625,0.0,0.0,0.0,0.0,0.0,0.0,-0.9879494385638486,0.0,0.0,0.0,0.0,0.0,0.0,-0.948,0.0
832,0.0,0.0,0.0,0.0,0.0,0.3663955078125,0.0,0.0,0.0,0.0,0.0,0.0,-0.9879494385638486,0.0,0.0,0.0,0.0,0.0,0.0,-0.82,0.0
833,0.0,0.0,0.0,0.0,0.0,0.3729794921875,0.0,0.0,0.0,0.0,0.0,0.0,-0.9879494385638486,0.0,0.0,0.0,0.0,0.0,0.0,-1.22,0.0
834,0.0,0.0,0.0,0.0,0.0,0.3754462890625,0.0,0.0,0.0,0.0,0.0,0.0,-0.9879494385638486,0.0,0.0,0.0,0.0,0.0,0.0,-1.032,0.0
835,0.0,0.0,0.0,0.0,0.0,0.3760654296875,0.0,0.0,0.0,0.0,0.0,0.0,-0.9879494385638486,0.0,0.0,0.0,0.0,0.0,0.0,-0.968,0.0
836,0.0,0.0,0.0,0.0,0.0,0.3735869140625,0.0,0.0,0.0,0.0,0.0,0.0,-0.9879494385638486,0.0,0.0,0.0,0.0,0.0,0.0,-1.112,0.0
837,0.0,0.0,0.0,0.0,0.0,0.3674150390625,0.0,0.0,0.0,0.0,0.0,0.0,-0.9879494385638486,0.0,0.0,0.0,0.0,0.0,0.0,-0.772,0.0
838,0.0,0.0,0.0,0.0,0.0,0.3596044921875,0.0,0.0,0.0,0.0,0.0,0.0,-0.9879494385638486,0.0,0.0,0.0,0.0,0.0,0.0,-0.7,0.0
839,0.0,0.0,0.0,0.0,0.0,0.3495205078125,0.0,0.0,0.0,0.0,0.0,0.0,-0.9879494385638486,0.0,0.0,0.0,0.0,0.0,0.0,-1.008,0.0
840,0.0,0.0,0.0,0.0,0.0,0.3369716796875,0.0,0.0,0.0,0.0,0.0,0.0,-0.9879494385638486,0.0,0.0,0.0,0.0,0.0,0.0,-0.836,0.0
841,0.0,0.0,0.0,0.0,0.0,0.32276953125,0.0,0.0,0.0,0.0,0.0,0.0,-0.9879494385638486,0.0,0.0,0.0,0.0,0.0,0.0,-0.676,0.0
842,0.0,0.0,0.0,0.0,0.0,0.3063076171875,0.0,0.0,0.0,0.0,0.0,0.0,-0.9879494385638486,0.0,0.0,0.0,0.0,0.0,0.0,-0.688,0.0
843,0.0,0.0,0.0,0.0,0.0,0.2892265625,0.0,0.0,0.0,0.0,0.0,0.0,-0.9879494385638486,0.0,0.0,0.0,0.0,0.0,0.0,-0.44,0.0
844,0.0,0.0,0.0,0.0,0.0,0.2711123046875,0.0,0.0,0.0,0.0,0.0,0.0,-0.9879494385638486,0.0,0.0,0.0,0.0,0.0,0.0,-0.772,0.0
845,0.0,0.0,0.0,0.0,0.0,0.251359375,0.0,0.0,0.0,0.0,0.0,0.0,-0.9879494385638486,0.0,0.0,0.0,0.0,0.0,0.0,-0.488,0.0
846,0.0,0.0,0.0,0.0,0.0,0.233232421875,0.0,0.0,0.0,0.0,0.0,0.0,-0.9879494385638486,0.0,0.0,0.0,0.0,0.0,0.0,-0.472,0.0
847,0.0,0.0,0.0,0.0,0.0,0.213271484375,0.0,0.0,0.0,0.0,0.0,0.0,-0.9879494385638486,0.0,0.0,0.0,0.0,0.0,0.0,-0.688,0.0
848,0.0,0.0,0.0,0.0,0.0,0.1943310546875,0.0,0.0,0.0,0.0,0.0,0.0,-0.9879494385638486,0.0,0.0,0.0,0.0,0.0,0.0,-0.168,0.0
849,0.0,0.0,0.0,0.0,0.0,0.1766171875,0.0,0.0,0.0,0.0,0.0,0.0,-0.9879494385638486,0.0,0.0,0.0,0.0,0.0,0.0,-1.0,0.0
850,0.0,0.0,0.0,0.0,0.0,0.15808984375,0.0,0.0,0.0,0.0,0.0,0.0,-0.9879494385638486,0.0,0.0,0.0,0.0,0.0,0.0,-0.428,0.0
851,0.0,0.0,0.0,0.0,0.0,0.1424296875,0.0,0.0,0.0,0.0,0.0,0.0,-0.9879494385638486,0.0,0.0,0.0,0.0,0.0,0.0,-0.7,0.0
