EmanuelSamir/lab201_ws_projsamir/sawyer_dev/data/sawyer/temp/validation_data.csv
,j1,j2,j3,j4,j5,j6,j7,jd1,jd2,jd3,jd4,jd5,jd6,jd7,e1,e2,e3,e4,e5,e6,e7
0,0.0,0.0,0.0,0.0,0.0,0.0,0.0,0.0,0.0,0.0,0.0,0.0,0.0,0.0,0.0,0.0,0.0,0.0,0.0,0.0,0.0
1,-0.0018974609375,-0.0016123046875,0.000166015625,-0.000361328125,0.001701171875,-0.002611328125,-0.0022802734375,0.9074951221261545,0.41117059447786963,1.0639501329923162,-0.4721939520632702,-0.3318382803596269,-0.5104497463939178,-0.45725381110099705,0.316,-44.216,-4.576,-13.652,2.42,-0.616,0.096
2,-0.0018974609375,-0.0016123046875,0.000166015625,-0.000361328125,0.001701171875,-0.002611328125,-0.0022802734375,0.9074951221261545,0.41117059447786963,1.0639501329923162,-0.4721939520632702,-0.3318382803596269,-0.5104497463939178,-0.45725381110099705,0.316,-44.216,-4.576,-13.652,2.42,-0.616,0.096
3,-0.001794921875,-0.0016123046875,0.000166015625,-0.000361328125,0.0014951171875,-0.002611328125,-0.0022802734375,0.9074951221261545,0.41117059447786963,1.0639501329923162,-0.4721939520632702,-0.3318382803596269,-0.5104497463939178,-0.45725381110099705,1.168,-44.052,-4.624,-13.856,2.388,-0.624,0.068
4,-0.0014853515625,-0.0013037109375,0.0008876953125,-0.0012275390625,0.0002548828125,-0.0019912109375,-0.002486328125,0.9074951221261545,0.41117059447786963,1.0639501329923162,-0.4721939520632702,-0.3318382803596269,-0.5104497463939178,-0.45725381110099705,5.528,-40.868,-3.144,-15.092,2.596,-0.752,0.032
5,-0.0011767578125,-0.000171875,0.002900390625,-0.0042685546875,-0.0013974609375,-0.001578125,-0.0039326171875,0.9074951221261545,0.41117059447786963,1.0639501329923162,-0.4721939520632702,-0.3318382803596269,-0.5104497463939178,-0.45725381110099705,8.984,-37.792,-1.688,-14.428,3.356,-1.464,-0.044
6,-0.00045703125,0.0013720703125,0.007078125,-0.007453125,-0.0005712890625,-0.0046767578125,-0.0059853515625,0.9074951221261545,0.41117059447786963,1.0639501329923162,-0.4721939520632702,-0.3318382803596269,-0.5104497463939178,-0.45725381110099705,12.704,-37.468,-2.796,-12.988,2.772,-1.092,-0.016
7,0.0005791015625,0.0033271484375,0.0118330078125,-0.0115234375,4.8828125e-05,-0.0085888671875,-0.0088515625,0.9074951221261545,0.41117059447786963,1.0639501329923162,-0.4721939520632702,-0.3318382803596269,-0.5104497463939178,-0.45725381110099705,16.428,-37.628,-4.648,-11.412,1.552,0.004,-0.084
8,0.0020185546875,0.0052890625,0.016876953125,-0.01571875,-0.0013974609375,-0.01126171875,-0.0127509765625,0.9074951221261545,0.41117059447786963,1.0639501329923162,-0.4721939520632702,-0.3318382803596269,-0.5104497463939178,-0.45725381110099705,20.204,-38.06,-4.648,-9.284,1.448,-0.016,-0.096
9,0.0040830078125,0.00683203125,0.0224990234375,-0.018470703125,-0.003048828125,-0.0147734375,-0.0168564453125,0.9074951221261545,0.41117059447786963,1.0639501329923162,-0.4721939520632702,-0.3318382803596269,-0.5104497463939178,-0.45725381110099705,23.444,-36.548,-4.6,-11.456,1.384,-0.076,-0.128
10,0.00665625,0.008890625,0.0279755859375,-0.02208984375,-0.0065478515625,-0.017859375,-0.0211689453125,0.9074951221261545,0.41117059447786963,1.0639501329923162,-0.4721939520632702,-0.3318382803596269,-0.5104497463939178,-0.45725381110099705,26.156,-36.008,-3.7,-12.712,2.316,-0.448,-0.088
11,0.009955078125,0.0110517578125,0.0353212890625,-0.0254189453125,-0.0082001953125,-0.0224033203125,-0.024654296875,0.9074951221261545,0.41117059447786963,1.0639501329923162,-0.4721939520632702,-0.3318382803596269,-0.5104497463939178,-0.45725381110099705,27.276,-35.956,-3.352,-12.804,2.64,-0.728,-0.016
12,0.01387890625,0.0137333984375,0.043099609375,-0.0288935546875,-0.0084072265625,-0.028587890625,-0.027740234375,0.9074951221261545,0.41117059447786963,1.0639501329923162,-0.4721939520632702,-0.3318382803596269,-0.5104497463939178,-0.45725381110099705,27.54,-36.656,-5.664,-12.852,1.78,-0.16,-0.084
13,0.018619140625,0.0167177734375,0.0501650390625,-0.033107421875,-0.010046875,-0.03415234375,-0.0306064453125,0.9074951221261545,0.41117059447786963,1.0639501329923162,-0.4721939520632702,-0.3318382803596269,-0.5104497463939178,-0.45725381110099705,27.964,-38.872,-6.8,-10.22,1.34,0.292,-0.024
14,0.0238798828125,0.019291015625,0.0573564453125,-0.035994140625,-0.0121123046875,-0.0384775390625,-0.0328662109375,0.9074951221261545,0.41117059447786963,1.0639501329923162,-0.4721939520632702,-0.3318382803596269,-0.5104497463939178,-0.45725381110099705,26.956,-40.328,-6.06,-10.36,0.96,0.368,-0.068
15,0.0296494140625,0.0215615234375,0.064556640625,-0.0386025390625,-0.0162314453125,-0.04075,-0.0349189453125,0.9074951221261545,0.41117059447786963,1.0639501329923162,-0.4721939520632702,-0.3318382803596269,-0.5104497463939178,-0.45725381110099705,24.456,-39.52,-4.348,-12.508,1.748,-0.18,-0.068
16,0.0358369140625,0.0241337890625,0.0721904296875,-0.0413544921875,-0.0197431640625,-0.043009765625,-0.0369716796875,0.9074951221261545,0.41117059447786963,1.0639501329923162,-0.4721939520632702,-0.3318382803596269,-0.5104497463939178,-0.45725381110099705,19.3,-39.032,-3.42,-13.652,2.752,-1.028,-0.036
17,0.0358369140625,0.0241337890625,0.0721904296875,-0.0413544921875,-0.0197431640625,-0.043009765625,-0.0369716796875,0.9074951221261545,0.41117059447786963,1.0639501329923162,-0.4721939520632702,-0.3318382803596269,-0.5104497463939178,-0.45725381110099705,19.3,-39.032,-3.42,-13.652,2.752,-1.028,-0.036
18,0.04954296875,0.03103515625,0.08558203125,-0.048013671875,-0.0217958984375,-0.0514658203125,-0.0404580078125,0.9074951221261545,0.41117059447786963,1.0639501329923162,-0.4721939520632702,-0.3318382803596269,-0.5104497463939178,-0.45725381110099705,10.472,-43.944,-6.244,-11.412,1.516,0.212,-0.016
19,0.056869140625,0.0337109375,0.0929267578125,-0.0503330078125,-0.02489453125,-0.053119140625,-0.0425107421875,0.9074951221261545,0.41117059447786963,1.0639501329923162,-0.4721939520632702,-0.3318382803596269,-0.5104497463939178,-0.45725381110099705,10.368,-45.08,-6.544,-11.432,1.676,0.004,-0.016
20,0.0644970703125,0.0360771484375,0.100271484375,-0.05178515625,-0.028806640625,-0.0539326171875,-0.0445634765625,0.9074951221261545,0.41117059447786963,1.0639501329923162,-0.4721939520632702,-0.3318382803596269,-0.5104497463939178,-0.45725381110099705,11.96,-44.0,-6.152,-14.336,2.18,-0.556,-0.044
21,0.07254296875,0.039068359375,0.1057490234375,-0.0542490234375,-0.0318916015625,-0.0553779296875,-0.047029296875,0.9074951221261545,0.41117059447786963,1.0639501329923162,-0.4721939520632702,-0.3318382803596269,-0.5104497463939178,-0.45725381110099705,10.312,-43.512,-5.456,-14.544,2.7,-0.96,-0.064
22,0.080376953125,0.042052734375,0.111505859375,-0.056423828125,-0.033337890625,-0.0584765625,-0.0497021484375,0.9074951221261545,0.41117059447786963,1.0639501329923162,-0.4721939520632702,-0.3318382803596269,-0.5104497463939178,-0.45725381110099705,2.176,-43.676,-5.848,-13.56,2.472,-0.608,-0.032
23,0.0885263671875,0.044625,0.11812890625,-0.0584541015625,-0.0360234375,-0.0611494140625,-0.052361328125,0.9074951221261545,0.41117059447786963,1.0639501329923162,-0.4721939520632702,-0.3318382803596269,-0.5104497463939178,-0.45725381110099705,-1.964,-43.892,-5.964,-13.604,2.028,-0.044,-0.068
24,0.0969775390625,0.04730078125,0.1243193359375,-0.060619140625,-0.03890234375,-0.0619755859375,-0.0550341796875,0.9074951221261545,0.41117059447786963,1.0639501329923162,-0.4721939520632702,-0.3318382803596269,-0.5104497463939178,-0.45725381110099705,-1.008,-43.836,-4.532,-13.124,2.256,-0.52,-0.064
25,0.1050234375,0.0499833984375,0.1307978515625,-0.062361328125,-0.041794921875,-0.064455078125,-0.058107421875,0.9074951221261545,0.41117059447786963,1.0639501329923162,-0.4721939520632702,-0.3318382803596269,-0.5104497463939178,-0.45725381110099705,-0.156,-43.728,-4.924,-13.924,2.524,-0.648,-0.036
26,0.1129609375,0.0529677734375,0.1358330078125,-0.0646796875,-0.044673828125,-0.067126953125,-0.0611923828125,0.9074951221261545,0.41117059447786963,1.0639501329923162,-0.4721939520632702,-0.3318382803596269,-0.5104497463939178,-0.45725381110099705,-5.9,-45.132,-5.316,-14.748,2.36,-0.388,-0.052
27,0.1206982421875,0.0559521484375,0.140732421875,-0.066845703125,-0.04715234375,-0.0693994140625,-0.06405859375,0.9074951221261545,0.41117059447786963,1.0639501329923162,-0.4721939520632702,-0.3318382803596269,-0.5104497463939178,-0.45725381110099705,-9.516,-47.24,-4.972,-13.924,2.656,-0.656,0.012
28,0.1285322265625,0.05822265625,0.1466337890625,-0.068298828125,-0.05023828125,-0.07187890625,-0.066318359375,0.9074951221261545,0.41117059447786963,1.0639501329923162,-0.4721939520632702,-0.3318382803596269,-0.5104497463939178,-0.45725381110099705,-7.228,-47.076,-5.92,-15.848,2.868,-0.716,0.0
29,0.1360634765625,0.060794921875,0.15253515625,-0.0706171875,-0.0535439453125,-0.0735185546875,-0.0689912109375,0.9074951221261545,0.41117059447786963,1.0639501329923162,-0.4721939520632702,-0.3318382803596269,-0.5104497463939178,-0.45725381110099705,-5.848,-46.968,-4.672,-16.168,2.916,-1.184,0.004
30,0.1431767578125,0.0633681640625,0.1585810546875,-0.072494140625,-0.0551962890625,-0.077443359375,-0.07125,0.9074951221261545,0.41117059447786963,1.0639501329923162,-0.4721939520632702,-0.3318382803596269,-0.5104497463939178,-0.45725381110099705,-11.164,-46.268,-4.856,-16.052,2.948,-1.064,0.088
31,0.1501875,0.065947265625,0.164482421875,-0.074677734375,-0.0562158203125,-0.0809423828125,-0.073302734375,0.9074951221261545,0.41117059447786963,1.0639501329923162,-0.4721939520632702,-0.3318382803596269,-0.5104497463939178,-0.45725381110099705,-14.46,-45.62,-7.1,-16.44,2.472,-0.552,0.096
32,0.1571982421875,0.06851953125,0.169662109375,-0.0772861328125,-0.0589013671875,-0.0834208984375,-0.075755859375,0.9074951221261545,0.41117059447786963,1.0639501329923162,-0.4721939520632702,-0.3318382803596269,-0.5104497463939178,-0.45725381110099705,-11.428,-46.536,-6.728,-14.544,2.212,-0.772,0.032
33,0.16359765625,0.0706806640625,0.1749853515625,-0.0785849609375,-0.0607607421875,-0.0863125,-0.0778095703125,0.9074951221261545,0.41117059447786963,1.0639501329923162,-0.4721939520632702,-0.3318382803596269,-0.5104497463939178,-0.45725381110099705,-9.144,-46.104,-5.688,-15.96,2.516,-0.728,0.016
34,0.1695791015625,0.0727392578125,0.18103125,-0.080470703125,-0.0630205078125,-0.0881591796875,-0.080068359375,0.9074951221261545,0.41117059447786963,1.0639501329923162,-0.4721939520632702,-0.3318382803596269,-0.5104497463939178,-0.45725381110099705,-11.112,-44.54,-4.996,-17.812,2.868,-1.164,0.004
35,0.1753486328125,0.0750087890625,0.1872119140625,-0.0827900390625,-0.0646728515625,-0.0916708984375,-0.082328125,0.9074951221261545,0.41117059447786963,1.0639501329923162,-0.4721939520632702,-0.3318382803596269,-0.5104497463939178,-0.45725381110099705,-13.396,-44.864,-4.0,-16.76,2.948,-1.228,-0.004
36,0.181021484375,0.0773759765625,0.1932578125,-0.0848115234375,-0.064466796875,-0.0957890625,-0.0845869140625,0.9074951221261545,0.41117059447786963,1.0639501329923162,-0.4721939520632702,-0.3318382803596269,-0.5104497463939178,-0.45725381110099705,-11.272,-45.672,-5.224,-16.372,2.428,-0.492,-0.052
37,0.18648828125,0.07994921875,0.19858203125,-0.0877080078125,-0.0654990234375,-0.0982685546875,-0.0870537109375,0.9074951221261545,0.41117059447786963,1.0639501329923162,-0.4721939520632702,-0.3318382803596269,-0.5104497463939178,-0.45725381110099705,-8.08,-46.16,-6.268,-15.228,2.024,-0.52,-0.064
38,0.1916474609375,0.0820068359375,0.2040498046875,-0.0898828125,-0.0675654296875,-0.1013671875,-0.089919921875,0.9074951221261545,0.41117059447786963,1.0639501329923162,-0.4721939520632702,-0.3318382803596269,-0.5104497463939178,-0.45725381110099705,-8.132,-46.32,-5.224,-15.184,2.504,-0.608,-0.036
39,0.1963876953125,0.0838662109375,0.209951171875,-0.091470703125,-0.0687919921875,-0.10424609375,-0.092591796875,0.9074951221261545,0.41117059447786963,1.0639501329923162,-0.4721939520632702,-0.3318382803596269,-0.5104497463939178,-0.45725381110099705,-9.516,-45.132,-5.34,-17.24,2.688,-0.636,-0.108
40,0.20103125,0.0861298828125,0.2155634765625,-0.0943671875,-0.0704443359375,-0.106931640625,-0.0952646484375,0.9074951221261545,0.41117059447786963,1.0639501329923162,-0.4721939520632702,-0.3318382803596269,-0.5104497463939178,-0.45725381110099705,-9.78,-44.108,-4.672,-16.512,2.92,-1.0,-0.116
41,0.205359375,0.0883935546875,0.2217451171875,-0.0972724609375,-0.070857421875,-0.1112568359375,-0.098130859375,0.9074951221261545,0.41117059447786963,1.0639501329923162,-0.4721939520632702,-0.3318382803596269,-0.5104497463939178,-0.45725381110099705,-8.188,-44.972,-4.9,-15.664,2.792,-0.68,-0.136
42,0.2096943359375,0.09086328125,0.227791015625,-0.1003134765625,-0.070650390625,-0.11498828125,-0.1008037109375,0.9074951221261545,0.41117059447786963,1.0639501329923162,-0.4721939520632702,-0.3318382803596269,-0.5104497463939178,-0.45725381110099705,-6.22,-45.08,-7.008,-15.3,2.152,-0.26,-0.14
43,0.2138173828125,0.0932373046875,0.23339453125,-0.103931640625,-0.072509765625,-0.1176611328125,-0.1034755859375,0.9074951221261545,0.41117059447786963,1.0639501329923162,-0.4721939520632702,-0.3318382803596269,-0.5104497463939178,-0.45725381110099705,-4.572,-46.104,-7.124,-13.468,2.288,-0.532,-0.088
44,0.217734375,0.094986328125,0.239583984375,-0.1062509765625,-0.0739560546875,-0.120759765625,-0.1061484375,0.9074951221261545,0.41117059447786963,1.0639501329923162,-0.4721939520632702,-0.3318382803596269,-0.5104497463939178,-0.45725381110099705,-4.2,-45.512,-5.78,-14.52,2.408,-0.4,-0.116
45,0.2216640625,0.09694140625,0.2453408203125,-0.1091474609375,-0.075388671875,-0.1226181640625,-0.1086142578125,0.9074951221261545,0.41117059447786963,1.0639501329923162,-0.4721939520632702,-0.3318382803596269,-0.5104497463939178,-0.45725381110099705,-3.88,-44.216,-4.9,-15.528,2.504,-0.748,-0.12
46,0.225375,0.0992060546875,0.2509443359375,-0.11262109375,-0.0768349609375,-0.1257041015625,-0.1110810546875,0.9074951221261545,0.41117059447786963,1.0639501329923162,-0.4721939520632702,-0.3318382803596269,-0.5104497463939178,-0.45725381110099705,-3.348,-44.16,-4.252,-14.36,2.688,-0.948,-0.024
47,0.2289833984375,0.1012705078125,0.257134765625,-0.115662109375,-0.077248046875,-0.1292158203125,-0.1131337890625,0.9074951221261545,0.41117059447786963,1.0639501329923162,-0.4721939520632702,-0.3318382803596269,-0.5104497463939178,-0.45725381110099705,-1.964,-44.376,-5.34,-14.132,2.34,-0.344,-0.044
48,0.2326943359375,0.1035341796875,0.2628828125,-0.1192900390625,-0.0784873046875,-0.13128125,-0.1155869140625,0.9074951221261545,0.41117059447786963,1.0639501329923162,-0.4721939520632702,-0.3318382803596269,-0.5104497463939178,-0.45725381110099705,-0.372,-44.324,-5.804,-13.192,1.872,-0.5,-0.076
49,0.2363095703125,0.1055859375,0.2686396484375,-0.1223310546875,-0.0805537109375,-0.1341611328125,-0.1176396484375,0.9074951221261545,0.41117059447786963,1.0639501329923162,-0.4721939520632702,-0.3318382803596269,-0.5104497463939178,-0.45725381110099705,0.744,-44.268,-4.996,-12.392,2.2,-0.492,-0.052
50,0.2400205078125,0.1074384765625,0.2746767578125,-0.1250830078125,-0.0817802734375,-0.13643359375,-0.1194990234375,0.9074951221261545,0.41117059447786963,1.0639501329923162,-0.4721939520632702,-0.3318382803596269,-0.5104497463939178,-0.45725381110099705,2.232,-43.192,-5.596,-13.56,2.2,-0.376,-0.068
51,0.2437314453125,0.109599609375,0.2801357421875,-0.128845703125,-0.083845703125,-0.1382919921875,-0.12196484375,0.9074951221261545,0.41117059447786963,1.0639501329923162,-0.4721939520632702,-0.3318382803596269,-0.5104497463939178,-0.45725381110099705,2.708,-42.488,-5.34,-12.92,2.244,-0.864,-0.088
52,0.2475458984375,0.1116640625,0.28602734375,-0.13188671875,-0.085498046875,-0.1422041015625,-0.1242236328125,0.9074951221261545,0.41117059447786963,1.0639501329923162,-0.4721939520632702,-0.3318382803596269,-0.5104497463939178,-0.45725381110099705,2.816,-42.544,-5.504,-12.552,2.4,-0.396,-0.032
53,0.2513662109375,0.1137216796875,0.292064453125,-0.1350712890625,-0.08653125,-0.1444765625,-0.1264833984375,0.9074951221261545,0.41117059447786963,1.0639501329923162,-0.4721939520632702,-0.3318382803596269,-0.5104497463939178,-0.45725381110099705,2.976,-42.38,-6.52,-13.264,1.972,-0.224,-0.068
54,0.25487109375,0.1157802734375,0.297099609375,-0.1381123046875,-0.088791015625,-0.1465419921875,-0.1287431640625,0.9074951221261545,0.41117059447786963,1.0639501329923162,-0.4721939520632702,-0.3318382803596269,-0.5104497463939178,-0.45725381110099705,3.456,-42.544,-6.612,-12.712,2.12,-0.624,-0.052
55,0.2592001953125,0.1178388671875,0.3038583984375,-0.140865234375,-0.0910625,-0.15107421875,-0.131609375,0.9074951221261545,0.41117059447786963,1.0639501329923162,-0.4721939520632702,-0.3318382803596269,-0.5104497463939178,-0.45725381110099705,4.624,-42.328,-5.712,-13.124,2.328,-0.148,-0.004
56,0.2633291015625,0.120005859375,0.30975,-0.1437705078125,-0.092302734375,-0.1531396484375,-0.13428125,0.9074951221261545,0.41117059447786963,1.0639501329923162,-0.4721939520632702,-0.3318382803596269,-0.5104497463939178,-0.45725381110099705,5.208,-42.056,-5.224,-13.652,1.964,-0.396,-0.056
57,0.2671435546875,0.122064453125,0.31478515625,-0.1465224609375,-0.0943681640625,-0.15623828125,-0.1369541015625,0.9074951221261545,0.41117059447786963,1.0639501329923162,-0.4721939520632702,-0.3318382803596269,-0.5104497463939178,-0.45725381110099705,5.476,-42.544,-4.692,-12.532,1.964,-0.624,-0.108
58,0.271787109375,0.1241220703125,0.321111328125,-0.148986328125,-0.0962138671875,-0.1605634765625,-0.14002734375,0.9074951221261545,0.41117059447786963,1.0639501329923162,-0.4721939520632702,-0.3318382803596269,-0.5104497463939178,-0.45725381110099705,6.164,-42.38,-5.364,-12.76,2.008,0.044,-0.076
59,0.275806640625,0.125974609375,0.32642578125,-0.1513046875,-0.0982802734375,-0.161802734375,-0.14269921875,0.9074951221261545,0.41117059447786963,1.0639501329923162,-0.4721939520632702,-0.3318382803596269,-0.5104497463939178,-0.45725381110099705,6.008,-41.624,-5.64,-13.148,1.768,-0.576,-0.076
60,0.2808623046875,0.128341796875,0.3326064453125,-0.1540478515625,-0.10137890625,-0.165728515625,-0.145978515625,0.9074951221261545,0.41117059447786963,1.0639501329923162,-0.4721939520632702,-0.3318382803596269,-0.5104497463939178,-0.45725381110099705,5.316,-41.14,-4.464,-12.736,2.12,-0.716,-0.064
61,0.2856025390625,0.13040625,0.3386435546875,-0.156078125,-0.10260546875,-0.168607421875,-0.1488583984375,0.9074951221261545,0.41117059447786963,1.0639501329923162,-0.4721939520632702,-0.3318382803596269,-0.5104497463939178,-0.45725381110099705,5.368,-41.084,-4.924,-13.332,2.212,-0.364,-0.032
62,0.2905546875,0.1328759765625,0.3442470703125,-0.158974609375,-0.1040517578125,-0.170466796875,-0.1513115234375,0.9074951221261545,0.41117059447786963,1.0639501329923162,-0.4721939520632702,-0.3318382803596269,-0.5104497463939178,-0.45725381110099705,5.368,-41.3,-6.036,-12.692,1.728,-0.884,-0.036
63,0.2955078125,0.1352431640625,0.3499951171875,-0.1617265625,-0.1065302734375,-0.1743916015625,-0.15377734375,0.9074951221261545,0.41117059447786963,1.0639501329923162,-0.4721939520632702,-0.3318382803596269,-0.5104497463939178,-0.45725381110099705,4.944,-42.004,-6.036,-11.98,2.048,-0.42,0.036
64,0.3006591796875,0.137404296875,0.3563203125,-0.1640458984375,-0.10776953125,-0.17645703125,-0.1560361328125,0.9074951221261545,0.41117059447786963,1.0639501329923162,-0.4721939520632702,-0.3318382803596269,-0.5104497463939178,-0.45725381110099705,4.732,-42.056,-6.36,-12.852,1.932,-0.332,0.036
65,0.3060234375,0.1398798828125,0.362068359375,-0.1667978515625,-0.1096162109375,-0.1783037109375,-0.1582958984375,0.9074951221261545,0.41117059447786963,1.0639501329923162,-0.4721939520632702,-0.3318382803596269,-0.5104497463939178,-0.45725381110099705,4.252,-41.948,-6.244,-12.852,1.852,-0.956,0.056
66,0.3112841796875,0.142349609375,0.3679609375,-0.16926171875,-0.1123017578125,-0.182228515625,-0.1605556640625,0.9074951221261545,0.41117059447786963,1.0639501329923162,-0.4721939520632702,-0.3318382803596269,-0.5104497463939178,-0.45725381110099705,3.188,-42.328,-5.204,-12.532,2.34,-0.416,0.084
67,0.3168544921875,0.1447236328125,0.3739970703125,-0.171580078125,-0.1131279296875,-0.184087890625,-0.1626083984375,0.9074951221261545,0.41117059447786963,1.0639501329923162,-0.4721939520632702,-0.3318382803596269,-0.5104497463939178,-0.45725381110099705,2.552,-42.704,-5.432,-13.08,2.056,-0.376,0.012
68,0.3168544921875,0.1447236328125,0.3739970703125,-0.171580078125,-0.1131279296875,-0.184087890625,-0.1626083984375,0.9074951221261545,0.41117059447786963,1.0639501329923162,-0.4721939520632702,-0.3318382803596269,-0.5104497463939178,-0.45725381110099705,2.552,-42.704,-5.432,-13.08,2.056,-0.376,0.012
69,0.3277890625,0.1497724609375,0.3853486328125,-0.1766513671875,-0.1176591796875,-0.190271484375,-0.1669208984375,0.9074951221261545,0.41117059447786963,1.0639501329923162,-0.4721939520632702,-0.3318382803596269,-0.5104497463939178,-0.45725381110099705,1.964,-43.62,-4.924,-12.784,2.308,-0.172,0.012
70,0.3334619140625,0.1521396484375,0.391384765625,-0.1791064453125,-0.1188984375,-0.192130859375,-0.1691669921875,0.9074951221261545,0.41117059447786963,1.0639501329923162,-0.4721939520632702,-0.3318382803596269,-0.5104497463939178,-0.45725381110099705,1.592,-43.084,-5.664,-13.216,2.284,-0.408,-0.036
71,0.339134765625,0.154609375,0.397421875,-0.1815693359375,-0.1207578125,-0.1954365234375,-0.1714267578125,0.9074951221261545,0.41117059447786963,1.0639501329923162,-0.4721939520632702,-0.3318382803596269,-0.5104497463939178,-0.45725381110099705,0.796,-43.244,-6.012,-12.852,2.096,-0.696,-0.096
72,0.344189453125,0.1568798828125,0.4025927734375,-0.183744140625,-0.1226171875,-0.1995546875,-0.173685546875,0.9074951221261545,0.41117059447786963,1.0639501329923162,-0.4721939520632702,-0.3318382803596269,-0.5104497463939178,-0.45725381110099705,0.104,-43.192,-5.896,-12.964,2.224,-0.052,-0.044
73,0.350486328125,0.159658203125,0.4089091796875,-0.186640625,-0.1242568359375,-0.2016201171875,-0.1763583984375,0.9074951221261545,0.41117059447786963,1.0639501329923162,-0.4721939520632702,-0.3318382803596269,-0.5104497463939178,-0.45725381110099705,-0.476,-43.404,-6.012,-12.736,2.088,-0.416,-0.12
74,0.3561591796875,0.1620244140625,0.41480078125,-0.1888154296875,-0.1267353515625,-0.20492578125,-0.179224609375,0.9074951221261545,0.41117059447786963,1.0639501329923162,-0.4721939520632702,-0.3318382803596269,-0.5104497463939178,-0.45725381110099705,-0.796,-43.296,-6.636,-12.804,2.304,-0.696,-0.104
75,0.36172265625,0.1643916015625,0.420837890625,-0.1911337890625,-0.1290078125,-0.20823046875,-0.1818974609375,0.9074951221261545,0.41117059447786963,1.0639501329923162,-0.4721939520632702,-0.3318382803596269,-0.5104497463939178,-0.45725381110099705,-0.848,-43.404,-6.612,-13.584,2.492,-0.312,-0.136
76,0.367498046875,0.1668681640625,0.426865234375,-0.19403125,-0.1308671875,-0.2102841796875,-0.1847763671875,0.9074951221261545,0.41117059447786963,1.0639501329923162,-0.4721939520632702,-0.3318382803596269,-0.5104497463939178,-0.45725381110099705,-1.116,-43.404,-6.08,-13.308,2.432,-0.76,-0.172
77,0.373068359375,0.1692353515625,0.4330458984375,-0.196494140625,-0.1325068359375,-0.214001953125,-0.187642578125,0.9074951221261545,0.41117059447786963,1.0639501329923162,-0.4721939520632702,-0.3318382803596269,-0.5104497463939178,-0.45725381110099705,-1.7,-43.892,-6.08,-13.216,2.412,-0.608,-0.136
78,0.378638671875,0.171705078125,0.4389296875,-0.1989580078125,-0.1343662109375,-0.21689453125,-0.190521484375,0.9074951221261545,0.41117059447786963,1.0639501329923162,-0.4721939520632702,-0.3318382803596269,-0.5104497463939178,-0.45725381110099705,-2.176,-44.376,-5.92,-13.904,2.108,-0.16,-0.136
79,0.3842080078125,0.17396875,0.444677734375,-0.201412109375,-0.1370517578125,-0.2187529296875,-0.193181640625,0.9074951221261545,0.41117059447786963,1.0639501329923162,-0.4721939520632702,-0.3318382803596269,-0.5104497463939178,-0.45725381110099705,-2.496,-44.108,-5.432,-13.124,2.296,-0.668,-0.084
80,0.3894697265625,0.176033203125,0.4505703125,-0.2032978515625,-0.1391044921875,-0.2216328125,-0.195853515625,0.9074951221261545,0.41117059447786963,1.0639501329923162,-0.4721939520632702,-0.3318382803596269,-0.5104497463939178,-0.45725381110099705,-2.496,-43.244,-5.62,-14.156,2.288,-0.592,-0.108
81,0.3942158203125,0.17798828125,0.455595703125,-0.205328125,-0.141376953125,-0.2239052734375,-0.19811328125,0.9074951221261545,0.41117059447786963,1.0639501329923162,-0.4721939520632702,-0.3318382803596269,-0.5104497463939178,-0.45725381110099705,-2.336,-42.812,-5.432,-14.588,2.368,-0.472,-0.084
82,0.400197265625,0.1804580078125,0.462056640625,-0.2080712890625,-0.1434423828125,-0.2263837890625,-0.2005791015625,0.9074951221261545,0.41117059447786963,1.0639501329923162,-0.4721939520632702,-0.3318382803596269,-0.5104497463939178,-0.45725381110099705,-2.336,-42.652,-5.804,-13.652,2.412,-0.8,0.0
83,0.4053564453125,0.18272265625,0.468083984375,-0.2101015625,-0.1450947265625,-0.2298955078125,-0.2030322265625,0.9074951221261545,0.41117059447786963,1.0639501329923162,-0.4721939520632702,-0.3318382803596269,-0.5104497463939178,-0.45725381110099705,-2.336,-42.38,-6.752,-14.156,2.06,-0.348,-0.056
84,0.4106103515625,0.1849931640625,0.4736875,-0.21271875,-0.1473544921875,-0.23216796875,-0.2050849609375,0.9074951221261545,0.41117059447786963,1.0639501329923162,-0.4721939520632702,-0.3318382803596269,-0.5104497463939178,-0.45725381110099705,-2.392,-42.868,-6.728,-13.584,2.108,-0.324,-0.096
85,0.415666015625,0.187154296875,0.4797158203125,-0.2147490234375,-0.1492138671875,-0.2346337890625,-0.2073447265625,0.9074951221261545,0.41117059447786963,1.0639501329923162,-0.4721939520632702,-0.3318382803596269,-0.5104497463939178,-0.45725381110099705,-2.444,-42.76,-6.544,-13.492,2.256,-0.616,-0.064
86,0.4207275390625,0.1893154296875,0.485751953125,-0.21705859375,-0.1508662109375,-0.237939453125,-0.2093974609375,0.9074951221261545,0.41117059447786963,1.0639501329923162,-0.4721939520632702,-0.3318382803596269,-0.5104497463939178,-0.45725381110099705,-2.176,-42.436,-7.376,-14.336,2.256,-0.468,-0.096
87,0.42588671875,0.19178515625,0.4916357421875,-0.220099609375,-0.152931640625,-0.2408310546875,-0.2116572265625,0.9074951221261545,0.41117059447786963,1.0639501329923162,-0.4721939520632702,-0.3318382803596269,-0.5104497463939178,-0.45725381110099705,-2.124,-42.976,-6.104,-12.988,2.296,-0.576,-0.052
88,0.43094140625,0.194048828125,0.4978076171875,-0.2225625,-0.15396484375,-0.2443427734375,-0.213916015625,0.9074951221261545,0.41117059447786963,1.0639501329923162,-0.4721939520632702,-0.3318382803596269,-0.5104497463939178,-0.45725381110099705,-1.964,-43.512,-5.78,-13.104,2.164,-0.416,-0.052
89,0.435990234375,0.196525390625,0.5035556640625,-0.2253154296875,-0.1556044921875,-0.2468212890625,-0.21617578125,0.9074951221261545,0.41117059447786963,1.0639501329923162,-0.4721939520632702,-0.3318382803596269,-0.5104497463939178,-0.45725381110099705,-1.7,-43.728,-6.036,-13.356,1.868,-0.532,-0.084
90,0.440943359375,0.1988916015625,0.5091494140625,-0.22835546875,-0.158083984375,-0.249701171875,-0.2188349609375,0.9074951221261545,0.41117059447786963,1.0639501329923162,-0.4721939520632702,-0.3318382803596269,-0.5104497463939178,-0.45725381110099705,-1.964,-43.892,-5.272,-12.532,2.356,-0.72,-0.016
91,0.44579296875,0.201052734375,0.5151865234375,-0.230666015625,-0.1593232421875,-0.2525927734375,-0.2213017578125,0.9074951221261545,0.41117059447786963,1.0639501329923162,-0.4721939520632702,-0.3318382803596269,-0.5104497463939178,-0.45725381110099705,-1.648,-43.568,-5.504,-13.4,2.256,-0.576,-0.052
92,0.450642578125,0.203419921875,0.52092578125,-0.23370703125,-0.1609755859375,-0.254865234375,-0.2239736328125,0.9074951221261545,0.41117059447786963,1.0639501329923162,-0.4721939520632702,-0.3318382803596269,-0.5104497463939178,-0.45725381110099705,-1.7,-42.812,-6.496,-13.124,2.076,-0.804,-0.096
93,0.4554853515625,0.20579296875,0.5266640625,-0.236603515625,-0.1628349609375,-0.2581708984375,-0.22683984375,0.9074951221261545,0.41117059447786963,1.0639501329923162,-0.4721939520632702,-0.3318382803596269,-0.5104497463939178,-0.45725381110099705,-1.7,-42.92,-6.38,-12.12,2.224,-0.748,-0.084
94,0.4603349609375,0.2080576171875,0.532556640625,-0.2390751953125,-0.1640615234375,-0.2606494140625,-0.2297197265625,0.9074951221261545,0.41117059447786963,1.0639501329923162,-0.4721939520632702,-0.3318382803596269,-0.5104497463939178,-0.45725381110099705,-0.956,-42.544,-6.844,-12.988,2.08,-0.376,-0.084
95,0.46508203125,0.210423828125,0.538583984375,-0.2422607421875,-0.166126953125,-0.2622890625,-0.2327919921875,0.9074951221261545,0.41117059447786963,1.0639501329923162,-0.4721939520632702,-0.3318382803596269,-0.5104497463939178,-0.45725381110099705,-0.584,-42.76,-7.052,-12.464,2.076,-0.924,-0.088
96,0.46508203125,0.210423828125,0.538583984375,-0.2422607421875,-0.166126953125,-0.2622890625,-0.2327919921875,0.9074951221261545,0.41117059447786963,1.0639501329923162,-0.4721939520632702,-0.3318382803596269,-0.5104497463939178,-0.45725381110099705,-0.584,-42.76,-7.052,-12.464,2.076,-0.924,-0.088
97,0.474568359375,0.2147529296875,0.5507841796875,-0.24762109375,-0.16901953125,-0.268693359375,-0.23834375,0.9074951221261545,0.41117059447786963,1.0639501329923162,-0.4721939520632702,-0.3318382803596269,-0.5104497463939178,-0.45725381110099705,-0.212,-42.596,-6.984,-12.784,1.992,-0.24,-0.068
98,0.4793212890625,0.2170166015625,0.5566669921875,-0.250662109375,-0.1708779296875,-0.2705517578125,-0.240796875,0.9074951221261545,0.41117059447786963,1.0639501329923162,-0.4721939520632702,-0.3318382803596269,-0.5104497463939178,-0.45725381110099705,-0.316,-42.76,-6.684,-11.684,2.088,-0.8,0.0
99,0.4840615234375,0.219177734375,0.56255078125,-0.2531162109375,-0.172724609375,-0.2744765625,-0.2434697265625,0.9074951221261545,0.41117059447786963,1.0639501329923162,-0.4721939520632702,-0.3318382803596269,-0.5104497463939178,-0.45725381110099705,0.104,-42.868,-6.012,-12.028,2.076,-0.356,0.044
100,0.48880859375,0.22144140625,0.5682890625,-0.2560126953125,-0.1747900390625,-0.2767490234375,-0.245728515625,0.9074951221261545,0.41117059447786963,1.0639501329923162,-0.4721939520632702,-0.3318382803596269,-0.5104497463939178,-0.45725381110099705,0.424,-42.488,-5.34,-12.348,2.076,-0.2,0.044
101,0.493658203125,0.2237119140625,0.5740283203125,-0.2589091796875,-0.1766494140625,-0.279421875,-0.24778125,0.9074951221261545,0.41117059447786963,1.0639501329923162,-0.4721939520632702,-0.3318382803596269,-0.5104497463939178,-0.45725381110099705,0.688,-42.436,-5.48,-11.868,2.268,-0.716,0.024
102,0.4983984375,0.225873046875,0.5799208984375,-0.2615166015625,-0.178095703125,-0.283966796875,-0.250041015625,0.9074951221261545,0.41117059447786963,1.0639501329923162,-0.4721939520632702,-0.3318382803596269,-0.5104497463939178,-0.45725381110099705,0.584,-42.328,-6.404,-12.712,2.076,-0.188,-0.012
103,0.503248046875,0.2281376953125,0.5856591796875,-0.2644228515625,-0.179955078125,-0.28665234375,-0.25230078125,0.9074951221261545,0.41117059447786963,1.0639501329923162,-0.4721939520632702,-0.3318382803596269,-0.5104497463939178,-0.45725381110099705,0.424,-41.948,-6.684,-12.12,1.924,-0.064,-0.032
104,0.50809765625,0.2302978515625,0.5916875,-0.2668857421875,-0.18180078125,-0.289763671875,-0.254353515625,0.9074951221261545,0.41117059447786963,1.0639501329923162,-0.4721939520632702,-0.3318382803596269,-0.5104497463939178,-0.45725381110099705,0.688,-41.572,-6.96,-11.8,1.892,-0.488,-0.076
105,0.50809765625,0.2302978515625,0.5916875,-0.2668857421875,-0.18180078125,-0.289763671875,-0.254353515625,0.9074951221261545,0.41117059447786963,1.0639501329923162,-0.4721939520632702,-0.3318382803596269,-0.5104497463939178,-0.45725381110099705,0.688,-41.572,-6.96,-11.8,1.892,-0.488,-0.076
106,0.517583984375,0.2345244140625,0.6033095703125,-0.2720927734375,-0.186138671875,-0.2959609375,-0.258859375,0.9074951221261545,0.41117059447786963,1.0639501329923162,-0.4721939520632702,-0.3318382803596269,-0.5104497463939178,-0.45725381110099705,0.956,-41.248,-6.496,-12.304,2.056,-0.416,-0.076
107,0.522537109375,0.23658203125,0.6093369140625,-0.2744111328125,-0.18737890625,-0.2992529296875,-0.261119140625,0.9074951221261545,0.41117059447786963,1.0639501329923162,-0.4721939520632702,-0.3318382803596269,-0.5104497463939178,-0.45725381110099705,1.22,-40.816,-7.028,-11.98,1.996,-0.584,-0.088
108,0.52749609375,0.238845703125,0.61535546875,-0.27673046875,-0.18882421875,-0.3027646484375,-0.2635849609375,0.9074951221261545,0.41117059447786963,1.0639501329923162,-0.4721939520632702,-0.3318382803596269,-0.5104497463939178,-0.45725381110099705,1.22,-41.14,-7.284,-12.096,1.56,-0.272,-0.096
109,0.53244140625,0.2410068359375,0.6212392578125,-0.2794736328125,-0.190890625,-0.305244140625,-0.2662568359375,0.9074951221261545,0.41117059447786963,1.0639501329923162,-0.4721939520632702,-0.3318382803596269,-0.5104497463939178,-0.45725381110099705,0.848,-41.572,-6.152,-11.616,1.8,-0.22,-0.096
110,0.537291015625,0.24327734375,0.6269775390625,-0.28179296875,-0.1921171875,-0.307515625,-0.2687099609375,0.9074951221261545,0.41117059447786963,1.0639501329923162,-0.4721939520632702,-0.3318382803596269,-0.5104497463939178,-0.45725381110099705,0.796,-41.788,-5.78,-11.66,1.768,-0.532,-0.12
111,0.542244140625,0.24564453125,0.632716796875,-0.284400390625,-0.194388671875,-0.3106142578125,-0.27158984375,0.9074951221261545,0.41117059447786963,1.0639501329923162,-0.4721939520632702,-0.3318382803596269,-0.5104497463939178,-0.45725381110099705,1.116,-41.192,-5.64,-11.936,1.868,-0.46,-0.168
112,0.54740234375,0.24801171875,0.6383115234375,-0.28715234375,-0.1960419921875,-0.31309375,-0.27446875,0.9074951221261545,0.41117059447786963,1.0639501329923162,-0.4721939520632702,-0.3318382803596269,-0.5104497463939178,-0.45725381110099705,0.848,-41.68,-5.272,-11.456,2.1,-0.416,-0.136
113,0.552560546875,0.2503779296875,0.6443388671875,-0.28976953125,-0.19728125,-0.315779296875,-0.2771279296875,0.9074951221261545,0.41117059447786963,1.0639501329923162,-0.4721939520632702,-0.3318382803596269,-0.5104497463939178,-0.45725381110099705,0.584,-41.624,-6.496,-11.64,1.744,-0.46,-0.12
114,0.5577119140625,0.2528544921875,0.650078125,-0.2926572265625,-0.1993466796875,-0.3186708984375,-0.2800078125,0.9074951221261545,0.41117059447786963,1.0639501329923162,-0.4721939520632702,-0.3318382803596269,-0.5104497463939178,-0.45725381110099705,0.688,-41.192,-7.124,-11.592,1.832,-0.284,-0.088
115,0.562767578125,0.2552216796875,0.65581640625,-0.2952646484375,-0.200986328125,-0.32134375,-0.2826796875,0.9074951221261545,0.41117059447786963,1.0639501329923162,-0.4721939520632702,-0.3318382803596269,-0.5104497463939178,-0.45725381110099705,0.052,-41.516,-6.936,-11.18,1.88,-0.272,-0.052
116,0.56792578125,0.2574853515625,0.6616904296875,-0.2977275390625,-0.202845703125,-0.3242353515625,-0.2851328125,0.9074951221261545,0.41117059447786963,1.0639501329923162,-0.4721939520632702,-0.3318382803596269,-0.5104497463939178,-0.45725381110099705,0.156,-41.624,-7.26,-11.572,1.944,-0.272,-0.068
117,0.5729873046875,0.2598525390625,0.66771875,-0.30048046875,-0.204705078125,-0.3269208984375,-0.2878056640625,0.9074951221261545,0.41117059447786963,1.0639501329923162,-0.4721939520632702,-0.3318382803596269,-0.5104497463939178,-0.45725381110099705,0.156,-41.408,-7.468,-11.592,2.088,-0.488,-0.016
118,0.5781396484375,0.2622255859375,0.6736015625,-0.303087890625,-0.206564453125,-0.33001953125,-0.290078125,0.9074951221261545,0.41117059447786963,1.0639501329923162,-0.4721939520632702,-0.3318382803596269,-0.5104497463939178,-0.45725381110099705,-0.316,-41.464,-7.468,-11.5,1.972,-0.488,-0.036
119,0.583400390625,0.2645927734375,0.6797646484375,-0.3056865234375,-0.208216796875,-0.332912109375,-0.2923369140625,0.9074951221261545,0.41117059447786963,1.0639501329923162,-0.4721939520632702,-0.3318382803596269,-0.5104497463939178,-0.45725381110099705,-0.104,-42.112,-6.936,-11.364,1.936,-0.332,-0.064
120,0.58844921875,0.2668564453125,0.6859365234375,-0.308150390625,-0.209869140625,-0.335390625,-0.2945966796875,0.9074951221261545,0.41117059447786963,1.0639501329923162,-0.4721939520632702,-0.3318382803596269,-0.5104497463939178,-0.45725381110099705,0.104,-42.056,-6.66,-11.34,1.744,-0.488,-0.108
121,0.5936083984375,0.2692236328125,0.69153125,-0.3107578125,-0.211921875,-0.338283203125,-0.2968564453125,0.9074951221261545,0.41117059447786963,1.0639501329923162,-0.4721939520632702,-0.3318382803596269,-0.5104497463939178,-0.45725381110099705,-0.264,-41.84,-6.104,-11.272,1.744,-0.584,-0.088
122,0.5987666015625,0.2714873046875,0.6972607421875,-0.3135185546875,-0.2144013671875,-0.34096875,-0.2991025390625,0.9074951221261545,0.41117059447786963,1.0639501329923162,-0.4721939520632702,-0.3318382803596269,-0.5104497463939178,-0.45725381110099705,-0.104,-41.68,-5.62,-11.112,2.06,-0.468,-0.036
123,0.6039248046875,0.2737578125,0.70314453125,-0.315982421875,-0.2160537109375,-0.343240234375,-0.3013623046875,0.9074951221261545,0.41117059447786963,1.0639501329923162,-0.4721939520632702,-0.3318382803596269,-0.5104497463939178,-0.45725381110099705,-0.316,-41.408,-6.172,-11.252,1.936,-0.644,-0.076
124,0.6090830078125,0.276021484375,0.70902734375,-0.3187255859375,-0.218119140625,-0.34592578125,-0.30362109375,0.9074951221261545,0.41117059447786963,1.0639501329923162,-0.4721939520632702,-0.3318382803596269,-0.5104497463939178,-0.45725381110099705,-0.528,-40.816,-7.076,-11.5,1.764,-0.716,-0.084
125,0.614248046875,0.278388671875,0.71461328125,-0.3214775390625,-0.2205986328125,-0.348611328125,-0.3062939453125,0.9074951221261545,0.41117059447786963,1.0639501329923162,-0.4721939520632702,-0.3318382803596269,-0.5104497463939178,-0.45725381110099705,-0.424,-40.816,-7.076,-11.32,2.016,-0.512,-0.052
126,0.6193994140625,0.28065234375,0.720640625,-0.32394140625,-0.22223828125,-0.3506640625,-0.308759765625,0.9074951221261545,0.41117059447786963,1.0639501329923162,-0.4721939520632702,-0.3318382803596269,-0.5104497463939178,-0.45725381110099705,-0.316,-41.084,-6.984,-11.592,1.932,-0.596,-0.076
127,0.6245576171875,0.2828203125,0.7266591796875,-0.326404296875,-0.2243037109375,-0.353556640625,-0.311419921875,0.9074951221261545,0.41117059447786963,1.0639501329923162,-0.4721939520632702,-0.3318382803596269,-0.5104497463939178,-0.45725381110099705,-0.584,-41.032,-7.632,-11.48,1.704,-0.608,-0.128
128,0.62961328125,0.285083984375,0.73254296875,-0.3288583984375,-0.226369140625,-0.3566552734375,-0.314298828125,0.9074951221261545,0.41117059447786963,1.0639501329923162,-0.4721939520632702,-0.3318382803596269,-0.5104497463939178,-0.45725381110099705,-0.796,-40.976,-7.468,-11.524,1.78,-0.312,-0.096
129,0.6346689453125,0.2872451171875,0.7385615234375,-0.331322265625,-0.2286416015625,-0.358927734375,-0.3171650390625,0.9074951221261545,0.41117059447786963,1.0639501329923162,-0.4721939520632702,-0.3318382803596269,-0.5104497463939178,-0.45725381110099705,-0.744,-41.14,-7.236,-11.32,1.78,-0.344,-0.084
130,0.63962109375,0.28940625,0.744580078125,-0.3334970703125,-0.2307080078125,-0.36161328125,-0.3202509765625,0.9074951221261545,0.41117059447786963,1.0639501329923162,-0.4721939520632702,-0.3318382803596269,-0.5104497463939178,-0.45725381110099705,-0.796,-41.192,-6.912,-11.912,1.912,-0.468,-0.052
131,0.644669921875,0.2916708984375,0.7501748046875,-0.335951171875,-0.23256640625,-0.3647119140625,-0.3231298828125,0.9074951221261545,0.41117059447786963,1.0639501329923162,-0.4721939520632702,-0.3318382803596269,-0.5104497463939178,-0.45725381110099705,-0.372,-40.652,-6.08,-12.164,1.808,-0.388,-0.016
132,0.6498349609375,0.294146484375,0.7557685546875,-0.3384140625,-0.2344130859375,-0.3682236328125,-0.3257900390625,0.9074951221261545,0.41117059447786963,1.0639501329923162,-0.4721939520632702,-0.3318382803596269,-0.5104497463939178,-0.45725381110099705,-0.372,-40.868,-5.34,-11.388,1.852,-0.26,-0.044
133,0.6548896484375,0.29641015625,0.761787109375,-0.3407421875,-0.235859375,-0.3715283203125,-0.3284619140625,0.9074951221261545,0.41117059447786963,1.0639501329923162,-0.4721939520632702,-0.3318382803596269,-0.5104497463939178,-0.45725381110099705,-0.372,-40.868,-6.06,-11.296,1.828,-0.208,0.0
134,0.6599453125,0.29877734375,0.7675263671875,-0.3433505859375,-0.2373046875,-0.3744208984375,-0.330927734375,0.9074951221261545,0.41117059447786963,1.0639501329923162,-0.4721939520632702,-0.3318382803596269,-0.5104497463939178,-0.45725381110099705,-0.744,-40.708,-6.844,-11.364,1.62,-0.26,0.024
135,0.6650009765625,0.30114453125,0.7731123046875,-0.34594921875,-0.2397841796875,-0.3777255859375,-0.3331875,0.9074951221261545,0.41117059447786963,1.0639501329923162,-0.4721939520632702,-0.3318382803596269,-0.5104497463939178,-0.45725381110099705,-0.688,-40.544,-6.568,-10.952,1.848,-0.344,0.024
136,0.669947265625,0.3034150390625,0.7791396484375,-0.3482685546875,-0.24123046875,-0.38082421875,-0.33543359375,0.9074951221261545,0.41117059447786963,1.0639501329923162,-0.4721939520632702,-0.3318382803596269,-0.5104497463939178,-0.45725381110099705,-0.848,-40.76,-7.052,-11.112,1.972,-0.312,0.012
137,0.67510546875,0.3057822265625,0.785013671875,-0.3508759765625,-0.2428828125,-0.3833037109375,-0.3374873046875,0.9074951221261545,0.41117059447786963,1.0639501329923162,-0.4721939520632702,-0.3318382803596269,-0.5104497463939178,-0.45725381110099705,-0.528,-40.76,-7.976,-11.456,1.768,-0.556,-0.016
138,0.68016015625,0.3081484375,0.7908876953125,-0.3537724609375,-0.245361328125,-0.3868154296875,-0.33974609375,0.9074951221261545,0.41117059447786963,1.0639501329923162,-0.4721939520632702,-0.3318382803596269,-0.5104497463939178,-0.45725381110099705,-0.528,-40.924,-7.236,-10.976,2.068,-0.584,-0.036
139,0.68522265625,0.310515625,0.796916015625,-0.3562265625,-0.246587890625,-0.3899140625,-0.342005859375,0.9074951221261545,0.41117059447786963,1.0639501329923162,-0.4721939520632702,-0.3318382803596269,-0.5104497463939178,-0.45725381110099705,-0.584,-41.192,-7.192,-11.272,1.892,-0.188,-0.036
140,0.6903740234375,0.3127861328125,0.80322265625,-0.358978515625,-0.2480341796875,-0.3919794921875,-0.3442646484375,0.9074951221261545,0.41117059447786963,1.0639501329923162,-0.4721939520632702,-0.3318382803596269,-0.5104497463939178,-0.45725381110099705,-0.956,-41.248,-7.632,-10.656,1.736,-0.452,-0.148
141,0.6953271484375,0.3150498046875,0.8091064453125,-0.3615869140625,-0.2498935546875,-0.39487109375,-0.3465244140625,0.9074951221261545,0.41117059447786963,1.0639501329923162,-0.4721939520632702,-0.3318382803596269,-0.5104497463939178,-0.45725381110099705,-1.116,-41.14,-7.236,-10.428,1.756,-0.584,-0.16
142,0.700279296875,0.3174169921875,0.8146923828125,-0.3643388671875,-0.252166015625,-0.3979697265625,-0.348990234375,0.9074951221261545,0.41117059447786963,1.0639501329923162,-0.4721939520632702,-0.3318382803596269,-0.5104497463939178,-0.45725381110099705,-0.9,-40.652,-5.92,-10.792,1.832,-0.224,-0.128
143,0.7053349609375,0.319578125,0.82056640625,-0.3672353515625,-0.2540244140625,-0.3998291015625,-0.3514560546875,0.9074951221261545,0.41117059447786963,1.0639501329923162,-0.4721939520632702,-0.3318382803596269,-0.5104497463939178,-0.45725381110099705,-0.9,-40.924,-5.736,-10.52,1.872,-0.468,-0.108
144,0.7102802734375,0.321841796875,0.8265849609375,-0.3696982421875,-0.2552646484375,-0.4027216796875,-0.3539091796875,0.9074951221261545,0.41117059447786963,1.0639501329923162,-0.4721939520632702,-0.3318382803596269,-0.5104497463939178,-0.45725381110099705,-0.316,-40.112,-6.612,-10.428,1.644,-0.524,-0.14
145,0.7152333984375,0.32421484375,0.8321796875,-0.372451171875,-0.257123046875,-0.4060263671875,-0.3567890625,0.9074951221261545,0.41117059447786963,1.0639501329923162,-0.4721939520632702,-0.3318382803596269,-0.5104497463939178,-0.45725381110099705,-0.156,-39.952,-7.284,-10.656,1.548,-0.14,-0.16
146,0.720294921875,0.3264794921875,0.8379091796875,-0.37534765625,-0.2597958984375,-0.408298828125,-0.3598740234375,0.9074951221261545,0.41117059447786963,1.0639501329923162,-0.4721939520632702,-0.3318382803596269,-0.5104497463939178,-0.45725381110099705,-0.528,-40.112,-6.776,-9.856,1.92,-0.212,-0.12
147,0.7252470703125,0.328640625,0.843927734375,-0.377810546875,-0.26103515625,-0.41119140625,-0.362740234375,0.9074951221261545,0.41117059447786963,1.0639501329923162,-0.4721939520632702,-0.3318382803596269,-0.5104497463939178,-0.45725381110099705,-0.372,-40.112,-7.468,-10.38,1.756,-0.46,-0.14
148,0.730193359375,0.330904296875,0.8498017578125,-0.3805625,-0.26289453125,-0.41449609375,-0.365826171875,0.9074951221261545,0.41117059447786963,1.0639501329923162,-0.4721939520632702,-0.3318382803596269,-0.5104497463939178,-0.45725381110099705,-0.316,-39.896,-8.048,-10.588,1.54,-0.336,-0.148
149,0.7351455078125,0.33316796875,0.855685546875,-0.3834501953125,-0.2651669921875,-0.4175947265625,-0.368486328125,0.9074951221261545,0.41117059447786963,1.0639501329923162,-0.4721939520632702,-0.3318382803596269,-0.5104497463939178,-0.45725381110099705,-0.528,-40.168,-7.492,-10.176,1.808,-0.284,-0.068
150,0.740201171875,0.3353359375,0.8618486328125,-0.38605859375,-0.26661328125,-0.4202802734375,-0.371158203125,0.9074951221261545,0.41117059447786963,1.0639501329923162,-0.4721939520632702,-0.3318382803596269,-0.5104497463939178,-0.45725381110099705,0.104,-40.544,-7.584,-10.288,1.676,-0.452,-0.032
151,0.7451533203125,0.3374970703125,0.868001953125,-0.388666015625,-0.268265625,-0.423185546875,-0.3738310546875,0.9074951221261545,0.41117059447786963,1.0639501329923162,-0.4721939520632702,-0.3318382803596269,-0.5104497463939178,-0.45725381110099705,0.104,-40.276,-7.376,-10.268,1.568,-0.524,-0.036
152,0.7501064453125,0.3398642578125,0.8737412109375,-0.3912734375,-0.26991796875,-0.4262841796875,-0.3760908203125,0.9074951221261545,0.41117059447786963,1.0639501329923162,-0.4721939520632702,-0.3318382803596269,-0.5104497463939178,-0.45725381110099705,-0.424,-39.736,-6.776,-10.268,1.404,-0.376,-0.044
153,0.75505859375,0.3421279296875,0.8793271484375,-0.3938720703125,-0.271984375,-0.4289697265625,-0.378349609375,0.9074951221261545,0.41117059447786963,1.0639501329923162,-0.4721939520632702,-0.3318382803596269,-0.5104497463939178,-0.45725381110099705,-0.424,-39.52,-6.104,-9.948,1.516,-0.388,-0.056
154,0.7600107421875,0.344294921875,0.885201171875,-0.3963447265625,-0.273830078125,-0.4312412109375,-0.3805966796875,0.9074951221261545,0.41117059447786963,1.0639501329923162,-0.4721939520632702,-0.3318382803596269,-0.5104497463939178,-0.45725381110099705,-0.212,-39.304,-6.22,-10.084,1.676,-0.512,-0.12
155,0.7648603515625,0.3464560546875,0.8909306640625,-0.3986640625,-0.2752763671875,-0.433720703125,-0.3826494140625,0.9074951221261545,0.41117059447786963,1.0639501329923162,-0.4721939520632702,-0.3318382803596269,-0.5104497463939178,-0.45725381110099705,-0.212,-38.656,-6.404,-10.724,1.432,-0.604,-0.12
156,0.769806640625,0.3488232421875,0.8966611328125,-0.401271484375,-0.277341796875,-0.43640625,-0.385115234375,0.9074951221261545,0.41117059447786963,1.0639501329923162,-0.4721939520632702,-0.3318382803596269,-0.5104497463939178,-0.45725381110099705,0.212,-38.764,-6.776,-10.472,1.62,-0.48,-0.104
157,0.77434765625,0.3508876953125,0.901822265625,-0.40329296875,-0.2785810546875,-0.4386787109375,-0.3869619140625,0.9074951221261545,0.41117059447786963,1.0639501329923162,-0.4721939520632702,-0.3318382803596269,-0.5104497463939178,-0.45725381110099705,0.528,-38.924,-7.284,-10.036,1.684,-0.5,-0.084
158,0.779814453125,0.353357421875,0.9085537109375,-0.406044921875,-0.280234375,-0.4413642578125,-0.3896337890625,0.9074951221261545,0.41117059447786963,1.0639501329923162,-0.4721939520632702,-0.3318382803596269,-0.5104497463939178,-0.45725381110099705,0.264,-39.14,-8.092,-10.336,1.448,-0.512,-0.084
159,0.7847734375,0.3556279296875,0.914283203125,-0.40865234375,-0.2822998046875,-0.444048828125,-0.3918935546875,0.9074951221261545,0.41117059447786963,1.0639501329923162,-0.4721939520632702,-0.3318382803596269,-0.5104497463939178,-0.45725381110099705,-0.052,-39.14,-7.656,-10.016,1.568,-0.356,-0.084
160,0.789822265625,0.357892578125,0.9201572265625,-0.411107421875,-0.2839521484375,-0.446734375,-0.394359375,0.9074951221261545,0.41117059447786963,1.0639501329923162,-0.4721939520632702,0.7998313095683128,-0.5104497463939178,-0.45725381110099705,0.0,-39.52,-7.236,-9.9,1.66,-0.276,-0.064
161,0.7948779296875,0.36015625,0.9263203125,-0.4135703125,-0.2856044921875,-0.449419921875,-0.39701953125,0.9074951221261545,0.41117059447786963,1.0639501329923162,-0.4721939520632702,0.7998313095683128,-0.5104497463939178,-0.45725381110099705,-0.316,-39.736,-7.816,-9.992,1.692,-0.376,-0.088
162,0.79993359375,0.362419921875,0.9321953125,-0.4161787109375,-0.28705078125,-0.4523125,-0.39969140625,0.9074951221261545,0.41117059447786963,1.0639501329923162,-0.4721939520632702,0.7998313095683128,-0.5104497463939178,-0.45725381110099705,-1.06,-39.844,-7.724,-10.016,1.748,-0.356,-0.104
163,0.8044677734375,0.364787109375,0.9369228515625,-0.4176220703125,-0.286224609375,-0.4560302734375,-0.401951171875,0.9074951221261545,-0.16688356327069012,1.0639501329923162,-0.4721939520632702,0.7998313095683128,-0.5104497463939178,-0.45725381110099705,-7.812,-43.512,-8.256,-9.628,1.684,-0.036,-0.084
164,0.808390625,0.3668515625,0.940505859375,-0.4173330078125,-0.2835390625,-0.45912890625,-0.4037978515625,0.9074951221261545,-0.16688356327069012,1.0639501329923162,-0.4721939520632702,0.7998313095683128,-0.5104497463939178,-0.45725381110099705,-15.364,-47.292,-9.876,-10.952,1.456,0.492,-0.088
165,0.811697265625,0.368498046875,0.9426533203125,-0.416466796875,-0.28188671875,-0.4595419921875,-0.4052431640625,0.9074951221261545,-0.16688356327069012,1.0639501329923162,-0.4721939520632702,0.7998313095683128,-0.5104497463939178,-0.45725381110099705,-17.384,-50.424,-10.66,-12.784,2.152,-0.064,-0.044
166,0.8142763671875,0.3696298828125,0.944232421875,-0.4147255859375,-0.28002734375,-0.4597490234375,-0.406056640625,0.9074951221261545,-0.16688356327069012,1.0639501329923162,-0.4721939520632702,0.7998313095683128,-0.5104497463939178,-0.45725381110099705,-18.024,-53.988,-9.992,-15.94,3.284,-0.98,-0.036
167,0.816333984375,0.370453125,0.9452333984375,-0.4127041015625,-0.2761025390625,-0.460162109375,-0.4064697265625,0.9074951221261545,-0.16688356327069012,1.0639501329923162,-0.4721939520632702,0.7998313095683128,-0.5104497463939178,-0.45725381110099705,-19.032,-56.472,-10.268,-20.308,4.052,-1.136,-0.068
168,0.818193359375,0.3709677734375,0.9455224609375,-0.4114052734375,-0.2705380859375,-0.45912890625,-0.4064697265625,0.9074951221261545,-0.16688356327069012,1.0639501329923162,-0.4721939520632702,0.7998313095683128,-0.5104497463939178,-0.45725381110099705,-19.244,-58.576,-10.824,-22.432,4.64,-1.632,-0.052
169,0.8197431640625,0.371173828125,0.9458017578125,-0.410529296875,-0.2633076171875,-0.45912890625,-0.4064697265625,0.9074951221261545,-0.16688356327069012,1.0639501329923162,-0.4721939520632702,0.7998313095683128,-0.5104497463939178,-0.45725381110099705,-18.872,-60.52,-10.5,-22.18,4.808,-1.92,-0.084
170,0.820875,0.37076171875,0.9462353515625,-0.4100966796875,-0.2544375,-0.4595419921875,-0.4064697265625,0.9074951221261545,-0.16688356327069012,1.0639501329923162,-0.4721939520632702,0.7998313095683128,-0.5104497463939178,-0.45725381110099705,-18.66,-61.872,-11.264,-21.632,4.372,-1.36,-0.064
171,0.8218017578125,0.3697333984375,0.9463798828125,-0.410673828125,-0.2447421875,-0.4589228515625,-0.4064697265625,0.9074951221261545,-0.16688356327069012,1.0639501329923162,-0.4721939520632702,0.7998313095683128,-0.5104497463939178,-0.45725381110099705,-18.34,-62.356,-11.656,-19.62,3.8,-1.22,-0.076
172,0.822322265625,0.3680869140625,0.9468125,-0.411251953125,-0.2346201171875,-0.4589228515625,-0.4064697265625,0.9074951221261545,-0.16688356327069012,1.0639501329923162,-0.4721939520632702,0.7998313095683128,-0.5104497463939178,-0.45725381110099705,-17.224,-61.764,-11.608,-17.608,3.356,-0.968,-0.076
173,0.822212890625,0.3654111328125,0.9472373046875,-0.4115498046875,-0.22409765625,-0.458302734375,-0.4064697265625,0.9074951221261545,-0.16688356327069012,1.0639501329923162,-0.4721939520632702,0.7998313095683128,-0.5104497463939178,-0.45725381110099705,-15.312,-59.764,-11.216,-16.968,3.404,-0.596,-0.044
174,0.8216982421875,0.3622138671875,0.947669921875,-0.411837890625,-0.2123349609375,-0.456443359375,-0.4064697265625,0.9074951221261545,-0.16688356327069012,1.0639501329923162,-0.4721939520632702,0.7998313095683128,-0.5104497463939178,-0.45725381110099705,-12.6,-56.58,-10.524,-17.06,3.228,-0.976,-0.044
175,0.820978515625,0.358509765625,0.947958984375,-0.412416015625,-0.201193359375,-0.4562373046875,-0.4064697265625,0.9074951221261545,-0.16688356327069012,1.0639501329923162,-0.4721939520632702,0.7998313095683128,-0.5104497463939178,-0.45725381110099705,-9.78,-52.8,-9.78,-16.808,3.128,-1.048,-0.056
176,0.8202578125,0.3547021484375,0.947958984375,-0.4135703125,-0.1892373046875,-0.4560302734375,-0.4064697265625,0.9074951221261545,-0.16688356327069012,1.0639501329923162,-0.4721939520632702,0.7998313095683128,-0.5104497463939178,-0.45725381110099705,-7.6,-49.128,-8.208,-15.8,2.868,-0.716,-0.044
177,0.819537109375,0.3505791015625,0.94823828125,-0.4153125,-0.1766494140625,-0.4556171875,-0.4064697265625,0.9074951221261545,-0.16688356327069012,1.0639501329923162,-0.4721939520632702,0.7998313095683128,-0.5104497463939178,-0.45725381110099705,-5.9,-46.052,-7.516,-13.948,2.848,-0.68,-0.056
178,0.8187080078125,0.346353515625,0.94881640625,-0.417044921875,-0.1626279296875,-0.4562373046875,-0.4064697265625,0.9074951221261545,-0.16688356327069012,1.0639501329923162,-0.4721939520632702,0.7998313095683128,-0.5104497463939178,-0.45725381110099705,-4.304,-43.46,-7.492,-12.348,1.924,-0.448,-0.052
179,0.81778125,0.341921875,0.949240234375,-0.4190751953125,-0.149626953125,-0.4570634765625,-0.4064697265625,0.9074951221261545,-0.16688356327069012,1.0639501329923162,-0.4721939520632702,0.7998313095683128,-0.5104497463939178,-0.45725381110099705,-2.444,-41.14,-7.56,-10.336,1.236,0.068,-0.068
180,0.81685546875,0.337599609375,0.949529296875,-0.421240234375,-0.1370517578125,-0.4574765625,-0.4064697265625,0.9074951221261545,-0.16688356327069012,1.0639501329923162,-0.4721939520632702,0.7998313095683128,-0.5104497463939178,-0.45725381110099705,-0.476,-39.68,-7.008,-8.256,0.988,0.108,-0.056
181,0.8158193359375,0.3330654296875,0.9499619140625,-0.422982421875,-0.1242568359375,-0.4580966796875,-0.4066767578125,0.9074951221261545,-0.16688356327069012,1.0639501329923162,-0.4721939520632702,0.7998313095683128,-0.5104497463939178,-0.45725381110099705,1.488,-38.492,-6.476,-7.248,0.872,0.2,-0.052
182,0.814791015625,0.3284345703125,0.9505302734375,-0.4245703125,-0.1120947265625,-0.4587158203125,-0.4068828125,0.9074951221261545,-0.16688356327069012,1.0639501329923162,1.0652975278530687,0.7998313095683128,-0.5104497463939178,-0.45725381110099705,3.668,-36.98,-6.704,-7.112,0.688,0.252,-0.076
183,0.8138642578125,0.323701171875,0.951396484375,-0.4258876953125,-0.1001396484375,-0.4593359375,-0.4072958984375,0.9074951221261545,-0.16688356327069012,1.0639501329923162,1.0652975278530687,0.7998313095683128,-0.5104497463939178,-0.45725381110099705,5.368,-37.576,-7.076,-6.768,0.54,0.056,-0.076
184,0.81303515625,0.3189609375,0.9523984375,-0.4268984375,-0.088791015625,-0.4607822265625,-0.4079033203125,0.9074951221261545,-0.16688356327069012,1.0639501329923162,1.0652975278530687,0.7998313095683128,-0.5104497463939178,0.5199634557174971,7.016,-39.52,-7.352,-6.012,0.644,0.244,-0.056
185,0.8121083984375,0.31391796875,0.9535439453125,-0.426609375,-0.0768349609375,-0.462640625,-0.40831640625,0.9074951221261545,-0.16688356327069012,1.0639501329923162,1.0652975278530687,0.7998313095683128,0.7990255680506386,0.5199634557174971,7.336,-41.896,-7.768,-3.796,-0.172,0.564,-0.044
186,0.8110791015625,0.3083544921875,0.9549794921875,-0.4251474609375,-0.0665322265625,-0.46470703125,-0.4085224609375,0.9074951221261545,-0.16688356327069012,1.0639501329923162,1.0652975278530687,0.7998313095683128,0.7990255680506386,0.5199634557174971,8.56,-42.652,-9.388,-2.264,-0.872,1.052,-0.024
187,0.80983203125,0.30248828125,0.956125,-0.422693359375,-0.057869140625,-0.465533203125,-0.40831640625,0.9074951221261545,-0.16688356327069012,1.0639501329923162,1.0652975278530687,0.7998313095683128,0.7990255680506386,0.5199634557174971,10.74,-43.944,-10.408,-2.032,-1.032,1.048,0.0
188,0.8085966796875,0.296205078125,0.956693359375,-0.4190751953125,-0.0508583984375,-0.4657392578125,-0.407490234375,0.9074951221261545,-0.16688356327069012,1.0639501329923162,1.0652975278530687,0.7998313095683128,0.7990255680506386,0.5199634557174971,13.132,-46.104,-10.084,-2.4,-0.772,0.864,0.108
189,0.8085966796875,0.296205078125,0.956693359375,-0.4190751953125,-0.0508583984375,-0.4657392578125,-0.407490234375,0.9074951221261545,-0.16688356327069012,1.0639501329923162,1.0652975278530687,0.7998313095683128,0.7990255680506386,0.5199634557174971,13.132,-46.104,-10.084,-2.4,-0.772,0.864,0.108
190,0.8064296875,0.2828203125,0.9572705078125,-0.40894140625,-0.0395224609375,-0.463673828125,-0.402984375,0.9074951221261545,-0.16688356327069012,1.0639501329923162,1.0652975278530687,0.7998313095683128,0.7990255680506386,0.5199634557174971,16.376,-39.032,-9.18,-4.252,-0.78,0.76,0.116
191,0.8058115234375,0.276125,0.956837890625,-0.4037255859375,-0.0364365234375,-0.461814453125,-0.3998984375,0.9074951221261545,-0.16688356327069012,1.0639501329923162,1.0652975278530687,0.7998313095683128,0.7990255680506386,0.5199634557174971,16.852,-35.632,-7.008,-3.428,-0.668,0.624,0.12
192,0.8055029296875,0.2694296875,0.956837890625,-0.3979423828125,-0.0337509765625,-0.4599560546875,-0.3962060546875,0.9074951221261545,-0.16688356327069012,1.0639501329923162,1.0652975278530687,0.7998313095683128,0.7990255680506386,0.5199634557174971,16.8,-35.144,-6.172,-2.352,-0.348,1.136,0.208
193,0.8055029296875,0.26315234375,0.956837890625,-0.3919951171875,-0.0298388671875,-0.4554111328125,-0.3921005859375,0.9074951221261545,-0.16688356327069012,1.0639501329923162,1.0652975278530687,0.7998313095683128,0.7990255680506386,0.5199634557174971,16.32,-29.044,-6.38,-2.032,-1.04,1.168,0.148
194,0.80612109375,0.257587890625,0.9558359375,-0.3869248046875,-0.028599609375,-0.450453125,-0.3877880859375,0.9074951221261545,-0.16688356327069012,1.0639501329923162,1.0652975278530687,0.7998313095683128,0.7990255680506386,0.5199634557174971,15.204,-21.272,-4.856,-0.34,-1.412,0.748,0.104
195,0.80673828125,0.252751953125,0.9548349609375,-0.381140625,-0.0290126953125,-0.4473544921875,-0.38326953125,0.9074951221261545,-0.16688356327069012,1.0639501329923162,1.0652975278530687,0.7998313095683128,0.7990255680506386,0.5199634557174971,13.452,-18.572,-2.312,2.512,-1.0,1.384,0.22
196,0.8076640625,0.2478056640625,0.9552587890625,-0.3741923828125,-0.0283935546875,-0.44177734375,-0.378349609375,0.9074951221261545,-0.16688356327069012,1.0639501329923162,1.0652975278530687,0.7998313095683128,0.7990255680506386,0.5199634557174971,12.068,-19.272,-2.148,2.424,-0.996,1.86,0.2
197,0.8087001953125,0.243072265625,0.956548828125,-0.3673798828125,-0.02798046875,-0.433513671875,-0.3730048828125,0.9074951221261545,-0.16688356327069012,1.0639501329923162,1.0652975278530687,0.7998313095683128,0.7990255680506386,0.5199634557174971,10.684,-20.408,-4.692,0.248,-1.22,0.72,0.22
198,0.80994140625,0.239875,0.956125,-0.360865234375,-0.0290126953125,-0.426490234375,-0.367259765625,0.9074951221261545,-0.16688356327069012,1.0639501329923162,1.0652975278530687,0.7998313095683128,0.7990255680506386,0.5199634557174971,9.516,-18.84,-4.832,-2.696,-1.064,0.332,0.14
199,0.81159375,0.237919921875,0.9548349609375,-0.3552158203125,-0.0318916015625,-0.4186279296875,-0.361927734375,0.9074951221261545,-0.16688356327069012,1.0639501329923162,1.0652975278530687,0.7998313095683128,0.7990255680506386,0.5199634557174971,7.548,-18.084,-1.872,-3.016,0.116,0.628,0.136
200,0.813240234375,0.2360673828125,0.9551142578125,-0.3481240234375,-0.0318916015625,-0.41077734375,-0.35658203125,0.9074951221261545,-0.16688356327069012,1.0639501329923162,1.0652975278530687,0.7998313095683128,0.7990255680506386,0.5199634557174971,5.528,-20.46,-1.108,-1.92,0.564,0.664,0.16
201,0.814791015625,0.23421484375,0.957126953125,-0.34001171875,-0.0296328125,-0.4039609375,-0.3518564453125,0.9074951221261545,-0.16688356327069012,1.0639501329923162,1.0652975278530687,0.7998313095683128,0.7990255680506386,0.5199634557174971,4.252,-22.836,-3.792,-3.564,-0.728,1.048,0.104
202,0.816546875,0.2332890625,0.9582724609375,-0.3330634765625,-0.0296328125,-0.3954912109375,-0.3479580078125,0.9074951221261545,-0.16688356327069012,1.0639501329923162,1.0652975278530687,0.7998313095683128,0.7990255680506386,0.5199634557174971,2.656,-26.076,-7.216,-5.144,-0.732,0.596,0.064
203,0.8182958984375,0.2331865234375,0.9582724609375,-0.326404296875,-0.03251171875,-0.3880546875,-0.3444716796875,0.9074951221261545,-0.16688356327069012,1.0639501329923162,1.0652975278530687,0.7998313095683128,0.7990255680506386,0.5199634557174971,0.796,-31.8,-4.972,-5.648,0.316,0.172,0.116
204,0.8197431640625,0.23298046875,0.9591298828125,-0.3184365234375,-0.03271875,-0.380205078125,-0.3409853515625,0.9074951221261545,-0.16688356327069012,1.0639501329923162,1.0652975278530687,0.7998313095683128,0.7990255680506386,0.5199634557174971,-0.424,-36.44,-4.672,-6.264,1.424,0.452,0.276
205,0.8210810546875,0.232458984375,0.96127734375,-0.3094580078125,-0.030458984375,-0.3717353515625,-0.337693359375,0.9074951221261545,-0.16688356327069012,1.0639501329923162,1.0652975278530687,0.7998313095683128,0.7990255680506386,0.5199634557174971,-1.008,-37.252,-7.376,-7.98,0.336,0.044,0.156
206,0.8225283203125,0.232671875,0.962134765625,-0.301490234375,-0.030458984375,-0.3647119140625,-0.33462109375,0.9074951221261545,-0.16688356327069012,1.0639501329923162,1.0652975278530687,0.7998313095683128,0.7990255680506386,0.5199634557174971,-1.86,-37.088,-8.556,-9.876,0.512,0.052,0.208
207,0.824072265625,0.2332890625,0.961990234375,-0.29425390625,-0.0318916015625,-0.357068359375,-0.3317412109375,0.9074951221261545,-0.16688356327069012,1.0639501329923162,1.0652975278530687,0.7998313095683128,0.7990255680506386,0.5199634557174971,-3.136,-39.52,-5.872,-10.448,1.84,-0.168,0.304
208,0.8255185546875,0.2338037109375,0.9631357421875,-0.2867197265625,-0.030458984375,-0.349837890625,-0.3286689453125,0.9074951221261545,-0.16688356327069012,1.0639501329923162,1.0652975278530687,0.7998313095683128,0.7990255680506386,0.5199634557174971,-4.624,-41.084,-5.432,-10.564,2.392,-1.0,0.26
209,0.8268564453125,0.234009765625,0.9651484375,-0.278318359375,-0.0263271484375,-0.3457197265625,-0.3253759765625,0.9074951221261545,-0.16688356327069012,1.0639501329923162,1.0652975278530687,0.7998313095683128,0.7990255680506386,0.5199634557174971,-5.688,-41.68,-8.0,-11.112,1.136,-0.436,0.188
210,0.828091796875,0.2344208984375,0.966150390625,-0.2709375,-0.023861328125,-0.339935546875,-0.3220966796875,0.9074951221261545,-0.16688356327069012,1.0639501329923162,1.0652975278530687,0.7998313095683128,0.7990255680506386,0.5199634557174971,-6.696,-42.92,-9.572,-11.088,0.72,0.312,0.12
211,0.82923046875,0.2350380859375,0.9664384765625,-0.2639892578125,-0.022828125,-0.3320859375,-0.3188173828125,0.9074951221261545,-0.16688356327069012,1.0639501329923162,1.0652975278530687,0.7998313095683128,0.7990255680506386,0.5199634557174971,-7.068,-45.296,-8.14,-10.792,1.508,-0.488,0.116
212,0.8299501953125,0.2351416015625,0.9671513671875,-0.2560126953125,-0.0207626953125,-0.3271279296875,-0.315318359375,0.9074951221261545,-0.16688356327069012,1.0639501329923162,1.0652975278530687,0.7998313095683128,0.7990255680506386,0.5199634557174971,-7.016,-47.184,-7.124,-11.252,2.224,-0.616,0.136
213,0.830568359375,0.2350380859375,0.9682978515625,-0.24762109375,-0.0162314453125,-0.3225830078125,-0.3118330078125,0.9074951221261545,-0.16688356327069012,1.0639501329923162,1.0652975278530687,0.7998313095683128,0.7990255680506386,0.5199634557174971,-6.592,-47.996,-8.508,-12.392,1.696,-0.036,0.116
214,0.83119140625,0.2348330078125,0.9690107421875,-0.24023046875,-0.0131455078125,-0.31660546875,-0.3085537109375,0.9074951221261545,-0.16688356327069012,1.0639501329923162,1.0652975278530687,0.7998313095683128,0.7990255680506386,0.5199634557174971,-6.592,-48.752,-9.504,-13.124,1.632,-0.46,0.088
215,0.8318095703125,0.2348330078125,0.9688662109375,-0.23370703125,-0.010666015625,-0.312060546875,-0.3052607421875,0.9074951221261545,-0.16688356327069012,1.0639501329923162,1.0652975278530687,0.7998313095683128,0.7990255680506386,0.5199634557174971,-6.752,-50.588,-8.072,-13.4,2.408,-0.876,0.108
216,0.8324267578125,0.234318359375,0.969443359375,-0.2269033203125,-0.0065478515625,-0.308548828125,-0.3019814453125,0.9074951221261545,-0.16688356327069012,1.0639501329923162,1.0652975278530687,0.7998313095683128,0.7990255680506386,0.5199634557174971,-7.228,-51.828,-7.516,-13.376,2.724,-0.688,0.188
217,0.8327353515625,0.2334951171875,0.97058984375,-0.219810546875,-0.000158203125,-0.3048310546875,-0.2987021484375,0.9074951221261545,-0.16688356327069012,1.0639501329923162,1.0652975278530687,0.7998313095683128,0.7990255680506386,0.5199634557174971,-7.228,-51.884,-9.088,-12.532,1.744,-0.564,0.12
218,0.8330439453125,0.232458984375,0.971158203125,-0.2134404296875,0.0041669921875,-0.301525390625,-0.295203125,0.9074951221261545,-0.16688356327069012,1.0639501329923162,1.0652975278530687,0.7998313095683128,0.7990255680506386,0.5199634557174971,-6.804,-51.668,-9.804,-12.668,1.26,-0.224,0.12
219,0.83325,0.2313271484375,0.9710224609375,-0.2076376953125,0.0074599609375,-0.29698046875,-0.2917177734375,0.9074951221261545,-0.16688356327069012,1.0639501329923162,1.0652975278530687,0.7998313095683128,0.7990255680506386,0.5199634557174971,-6.112,-51.72,-8.0,-12.552,1.796,-0.208,0.192
220,0.83325,0.229578125,0.9714462890625,-0.201556640625,0.01200390625,-0.29244921875,-0.2878056640625,0.9074951221261545,-0.16688356327069012,1.0639501329923162,1.0652975278530687,0.7998313095683128,0.7990255680506386,0.5199634557174971,-5.58,-50.804,-7.352,-12.256,1.944,-0.636,0.224
221,0.8330439453125,0.227623046875,0.9721689453125,-0.195041015625,0.017568359375,-0.2893505859375,-0.2837001953125,0.9074951221261545,-0.16688356327069012,1.0639501329923162,1.0652975278530687,0.7998313095683128,0.7990255680506386,0.5199634557174971,-4.516,-49.616,-8.28,-12.464,1.516,-0.292,0.168
222,0.83294140625,0.2256669921875,0.9723037109375,-0.1892578125,0.022306640625,-0.285826171875,-0.27959375,0.9074951221261545,-0.16688356327069012,1.0639501329923162,1.0652975278530687,0.7998313095683128,0.7990255680506386,0.5199634557174971,-3.612,-48.968,-7.84,-10.86,1.292,0.076,0.14
223,0.832837890625,0.2234033203125,0.9725927734375,-0.183888671875,0.0266318359375,-0.2816943359375,-0.2750751953125,0.9074951221261545,-0.16688356327069012,1.0639501329923162,1.0652975278530687,0.7998313095683128,0.7990255680506386,0.5199634557174971,-3.188,-48.32,-7.008,-10.404,1.444,-0.012,0.096
224,0.8326328125,0.2210302734375,0.9728818359375,-0.1786728515625,0.0311640625,-0.2777822265625,-0.2707626953125,0.9074951221261545,-0.16688356327069012,1.0639501329923162,1.0652975278530687,0.7998313095683128,0.7990255680506386,0.5199634557174971,-2.708,-47.78,-7.144,-11.204,1.468,-0.128,0.084
225,0.8326328125,0.2186630859375,0.973025390625,-0.1740439453125,0.036109375,-0.2742705078125,-0.2670703125,0.9074951221261545,-0.16688356327069012,1.0639501329923162,1.0652975278530687,0.7998313095683128,0.7990255680506386,0.5199634557174971,-2.444,-47.132,-6.936,-10.036,1.444,-0.188,0.116
226,0.832529296875,0.2160908203125,0.973314453125,-0.16897265625,0.041466796875,-0.2713779296875,-0.2633779296875,0.9074951221261545,-0.16688356327069012,1.0639501329923162,1.0652975278530687,0.7998313095683128,0.7990255680506386,0.5199634557174971,-1.964,-46.32,-6.728,-9.1,1.164,0.032,0.116
227,0.83232421875,0.2134150390625,0.97373828125,-0.1637568359375,0.0466181640625,-0.26766015625,-0.259892578125,0.9074951221261545,-0.16688356327069012,1.0639501329923162,1.0652975278530687,0.7998313095683128,0.7990255680506386,0.5199634557174971,-1.008,-44.864,-7.168,-8.712,0.752,0.224,0.108
228,0.8321181640625,0.2106298828125,0.9738828125,-0.158974609375,0.0507373046875,-0.2635283203125,-0.2566123046875,0.9074951221261545,-0.16688356327069012,1.0639501329923162,1.0652975278530687,0.7998313095683128,0.7990255680506386,0.5199634557174971,0.052,-43.836,-6.568,-8.392,0.556,0.032,0.148
229,0.8318095703125,0.207748046875,0.97402734375,-0.1541923828125,0.0546494140625,-0.25941015625,-0.2531142578125,0.9074951221261545,-0.16688356327069012,1.0639501329923162,1.0652975278530687,0.7998313095683128,0.7990255680506386,0.5199634557174971,0.744,-43.084,-5.804,-9.076,0.876,-0.096,0.212
230,0.8317060546875,0.2048671875,0.9744609375,-0.1494189453125,0.0591806640625,-0.254658203125,-0.2498349609375,0.9074951221261545,-0.16688356327069012,1.0639501329923162,1.0652975278530687,0.7998313095683128,0.7990255680506386,0.5199634557174971,1.38,-41.84,-5.664,-9.488,0.832,-0.136,0.232
231,0.831603515625,0.2021845703125,0.974740234375,-0.1449345703125,0.0641259765625,-0.2503203125,-0.2465546875,0.9074951221261545,-0.16688356327069012,1.0639501329923162,1.0652975278530687,0.7998313095683128,0.7990255680506386,0.5199634557174971,1.7,-40.276,-5.712,-8.232,0.608,-0.012,0.284
232,0.8315009765625,0.199509765625,0.975029296875,-0.140142578125,0.068451171875,-0.2462021484375,-0.243056640625,0.9074951221261545,-0.16688356327069012,1.0639501329923162,1.0652975278530687,0.7998313095683128,0.7990255680506386,0.5199634557174971,2.072,-38.924,-5.548,-6.608,0.408,0.48,0.296
233,0.8315009765625,0.1969365234375,0.9753173828125,-0.1353603515625,0.072982421875,-0.2410380859375,-0.23936328125,0.9074951221261545,-0.16688356327069012,1.0639501329923162,1.0652975278530687,0.7998313095683128,0.7990255680506386,0.5199634557174971,2.444,-38.6,-5.34,-5.716,0.232,0.676,0.232
234,0.8315009765625,0.1943642578125,0.9756064453125,-0.1305869140625,0.0771015625,-0.235873046875,-0.23546484375,0.9074951221261545,-0.16688356327069012,1.0639501329923162,1.0652975278530687,0.7998313095683128,0.7990255680506386,0.5199634557174971,2.496,-38.492,-5.156,-5.28,0.172,0.52,0.16
235,0.8315009765625,0.1918876953125,0.97588671875,-0.125515625,0.0808193359375,-0.231341796875,-0.2315654296875,0.9074951221261545,-0.16688356327069012,1.0639501329923162,1.0652975278530687,0.7998313095683128,0.7990255680506386,0.5199634557174971,2.708,-38.44,-4.996,-5.944,0.436,0.696,0.136
236,0.8315009765625,0.1896240234375,0.9763193359375,-0.1207421875,0.084525390625,-0.2255576171875,-0.227666015625,0.9074951221261545,-0.16688356327069012,1.0639501329923162,1.0652975278530687,0.7998313095683128,0.7990255680506386,0.5199634557174971,3.028,-38.224,-5.064,-6.792,0.556,0.312,0.156
237,0.8317060546875,0.187462890625,0.9767529296875,-0.115662109375,0.0880234375,-0.221025390625,-0.2239736328125,0.9074951221261545,-0.16688356327069012,1.0639501329923162,1.0652975278530687,0.7998313095683128,0.7990255680506386,0.5199634557174971,3.56,-38.816,-5.064,-6.584,0.644,0.12,0.136
238,0.8318095703125,0.1853017578125,0.9773212890625,-0.1104560546875,0.092142578125,-0.2164814453125,-0.22028125,0.9074951221261545,-0.16688356327069012,1.0639501329923162,1.0652975278530687,0.7998313095683128,0.7990255680506386,0.5199634557174971,3.828,-39.844,-5.156,-6.06,0.416,0.564,0.18
239,0.8321181640625,0.18333984375,0.97775390625,-0.105384765625,0.0960546875,-0.210490234375,-0.2169892578125,0.9074951221261545,-0.16688356327069012,1.0639501329923162,1.0652975278530687,0.7998313095683128,0.7990255680506386,0.5199634557174971,3.508,-39.68,-5.456,-6.152,0.128,0.388,0.14
240,0.83232421875,0.181384765625,0.9778984375,-0.1000244140625,0.0995537109375,-0.2055458984375,-0.2137099609375,0.9074951221261545,-0.16688356327069012,1.0639501329923162,1.0652975278530687,0.7998313095683128,0.7990255680506386,0.5199634557174971,3.56,-38.708,-5.04,-6.152,0.044,0.564,0.168
241,0.8326328125,0.1794296875,0.978466796875,-0.09451171875,0.10265234375,-0.1999677734375,-0.2104306640625,0.9074951221261545,-0.16688356327069012,1.0639501329923162,1.0652975278530687,0.7998313095683128,0.7990255680506386,0.5199634557174971,3.984,-37.844,-4.508,-6.492,0.272,0.812,0.212
242,0.832837890625,0.1775771484375,0.979044921875,-0.0888720703125,0.106357421875,-0.193783203125,-0.206931640625,0.9074951221261545,-0.16688356327069012,1.0639501329923162,1.0652975278530687,0.7998313095683128,0.7990255680506386,0.5199634557174971,3.72,-37.684,-4.648,-7.248,0.18,0.44,0.14
243,0.83325,0.1759306640625,0.97932421875,-0.0827900390625,0.109443359375,-0.1892392578125,-0.2034453125,0.9074951221261545,-0.16688356327069012,1.0639501329923162,1.0652975278530687,0.7998313095683128,0.7990255680506386,0.5199634557174971,3.508,-37.952,-4.532,-6.86,0.344,0.504,0.208
244,0.8336611328125,0.17427734375,0.9797568359375,-0.0768525390625,0.1127353515625,-0.184087890625,-0.1997529296875,0.9074951221261545,-0.16688356327069012,1.0639501329923162,1.0652975278530687,0.7998313095683128,0.7990255680506386,0.5199634557174971,3.772,-39.032,-4.348,-6.152,0.364,0.628,0.244
245,0.834080078125,0.1728369140625,0.980326171875,-0.07076171875,0.1164541015625,-0.178509765625,-0.195853515625,0.9074951221261545,-0.16688356327069012,1.0639501329923162,1.0652975278530687,0.7998313095683128,0.7990255680506386,0.5199634557174971,3.136,-39.896,-4.532,-5.74,0.264,0.172,0.192
246,0.8344912109375,0.17129296875,0.9809033203125,-0.0645361328125,0.1193330078125,-0.173978515625,-0.191955078125,0.9074951221261545,-0.16688356327069012,1.0639501329923162,1.0652975278530687,0.7998313095683128,0.7990255680506386,0.5199634557174971,3.348,-40.924,-4.88,-6.288,0.344,0.376,0.136
247,0.8351083984375,0.169955078125,0.9813359375,-0.0585986328125,0.1222119140625,-0.1677939453125,-0.187435546875,0.9074951221261545,-0.16688356327069012,1.0639501329923162,1.0652975278530687,0.7998313095683128,0.7990255680506386,0.5199634557174971,3.136,-41.68,-4.624,-6.88,0.648,0.18,0.136
248,0.835623046875,0.1686171875,0.9819052734375,-0.0523720703125,0.1257109375,-0.162216796875,-0.183330078125,0.9074951221261545,-0.16688356327069012,1.0639501329923162,1.0652975278530687,0.7998313095683128,0.7990255680506386,0.5199634557174971,2.764,-42.22,-4.508,-6.996,0.72,-0.016,0.12
249,0.8361376953125,0.167279296875,0.9826181640625,-0.0458486328125,0.129015625,-0.1574775390625,-0.1796376953125,0.9074951221261545,-0.16688356327069012,1.0639501329923162,1.0652975278530687,0.7998313095683128,0.7990255680506386,0.5199634557174971,2.284,-42.328,-4.624,-7.316,0.584,0.572,0.128
250,0.8368642578125,0.166044921875,0.9831953125,-0.0397666015625,0.1321015625,-0.15128125,-0.1759453125,0.9074951221261545,-0.16688356327069012,1.0639501329923162,1.0652975278530687,0.7998313095683128,0.7990255680506386,0.5199634557174971,2.02,-42.76,-4.74,-7.384,0.584,0.592,0.12
251,0.8375849609375,0.16459765625,0.9836279296875,-0.0333955078125,0.13498046875,-0.1459228515625,-0.172458984375,0.9074951221261545,-0.16688356327069012,1.0639501329923162,1.0652975278530687,0.7998313095683128,0.7990255680506386,0.5199634557174971,1.54,-43.192,-4.276,-7.728,0.556,0.316,0.12
252,0.838099609375,0.163259765625,0.984052734375,-0.0268720703125,0.1378603515625,-0.1411845703125,-0.1689599609375,0.9074951221261545,-0.16688356327069012,1.0639501329923162,1.0652975278530687,0.7998313095683128,0.7990255680506386,0.5199634557174971,1.328,-43.512,-4.484,-9.1,0.68,0.532,0.192
253,0.838826171875,0.1618193359375,0.9844853515625,-0.0204921875,0.1411650390625,-0.135400390625,-0.1656806640625,0.9074951221261545,-0.16688356327069012,1.0639501329923162,1.0652975278530687,0.7998313095683128,0.7990255680506386,0.5199634557174971,0.956,-43.676,-4.556,-8.872,0.644,0.14,0.24
254,0.839443359375,0.160275390625,0.98491015625,-0.0136884765625,0.1440439453125,-0.1310751953125,-0.1621953125,0.9074951221261545,-0.16688356327069012,1.0639501329923162,1.0652975278530687,0.7998313095683128,0.7990255680506386,0.5199634557174971,0.688,-43.728,-4.232,-8.436,0.624,0.188,0.24
255,0.8400673828125,0.1588349609375,0.9853427734375,-0.0071650390625,0.1473369140625,-0.1257041015625,-0.1585029296875,0.9074951221261545,-0.16688356327069012,1.0639501329923162,1.0652975278530687,0.7998313095683128,0.7990255680506386,0.5199634557174971,0.584,-43.944,-4.208,-8.392,0.716,0.388,0.344
256,0.8407880859375,0.157291015625,0.9857763671875,-0.0009384765625,0.1502158203125,-0.1199326171875,-0.1550166015625,0.9074951221261545,-0.16688356327069012,1.0639501329923162,1.0652975278530687,0.7998313095683128,0.7990255680506386,0.5199634557174971,0.052,-44.108,-4.16,-8.072,0.78,0.064,0.276
257,0.8414052734375,0.1557412109375,0.9862001953125,0.0054306640625,0.153314453125,-0.1154013671875,-0.1513115234375,0.9074951221261545,-0.16688356327069012,1.0639501329923162,1.0652975278530687,0.7998313095683128,0.7990255680506386,0.5199634557174971,-0.424,-44.268,-3.908,-8.756,0.884,0.44,0.2
258,0.8421259765625,0.1540947265625,0.98677734375,0.0116572265625,0.1568134765625,-0.109810546875,-0.14701171875,0.9074951221261545,-0.16688356327069012,1.0639501329923162,1.0652975278530687,0.7998313095683128,0.7990255680506386,0.5199634557174971,-0.796,-44.268,-3.884,-8.324,0.852,0.448,0.192
259,0.84275,0.1524482421875,0.987201171875,0.017892578125,0.16010546875,-0.1048662109375,-0.1431123046875,0.9074951221261545,-0.16688356327069012,1.0639501329923162,1.0652975278530687,0.7998313095683128,0.7990255680506386,0.5199634557174971,-1.06,-44.54,-3.816,-8.232,0.696,0.272,0.116
260,0.8432646484375,0.150904296875,0.987490234375,0.0242626953125,0.1633974609375,-0.1001279296875,-0.1392001953125,0.9074951221261545,-0.16688356327069012,1.0639501329923162,1.0652975278530687,0.7998313095683128,0.7990255680506386,0.5199634557174971,-1.008,-44.324,-3.652,-8.896,0.924,0.44,0.128
261,0.8438818359375,0.1492578125,0.988068359375,0.0302001953125,0.1666904296875,-0.0947568359375,-0.1355078125,0.9074951221261545,-0.16688356327069012,1.0639501329923162,1.0652975278530687,0.7998313095683128,0.7990255680506386,0.5199634557174971,-1.22,-44.54,-3.512,-9.26,0.988,0.084,0.156
262,0.8444990234375,0.147611328125,0.9884921875,0.036291015625,0.1703955078125,-0.090224609375,-0.1318154296875,0.9074951221261545,-0.16688356327069012,1.0639501329923162,1.0652975278530687,0.7998313095683128,0.7990255680506386,0.5199634557174971,-1.592,-44.7,-3.468,-9.58,0.916,-0.044,0.148
263,0.845013671875,0.14585546875,0.9889248046875,0.042517578125,0.1741015625,-0.085693359375,-0.1285361328125,0.9074951221261545,-0.16688356327069012,1.0639501329923162,1.0652975278530687,0.7998313095683128,0.7990255680506386,0.5199634557174971,-1.7,-44.432,-3.744,-9.236,0.924,0.232,0.168
264,0.84542578125,0.14410546875,0.9893583984375,0.0487431640625,0.17761328125,-0.0803349609375,-0.1250498046875,0.9074951221261545,-0.16688356327069012,1.0639501329923162,1.0652975278530687,0.7998313095683128,0.7990255680506386,0.5199634557174971,-1.752,-44.324,-3.72,-8.392,0.608,0.084,0.16
265,0.845740234375,0.142349609375,0.9894931640625,0.054689453125,0.1806982421875,-0.0751708984375,-0.1215517578125,0.9074951221261545,-0.16688356327069012,1.0639501329923162,1.0652975278530687,0.7998313095683128,0.7990255680506386,0.5199634557174971,-1.488,-44.216,-3.028,-8.14,0.864,0.22,0.18
266,0.846048828125,0.140498046875,0.9899267578125,0.060771484375,0.184197265625,-0.0698125,-0.1180654296875,0.9074951221261545,-0.16688356327069012,1.0639501329923162,1.0652975278530687,0.7998313095683128,0.7990255680506386,0.5199634557174971,-1.168,-44.324,-2.96,-8.552,0.948,0.272,0.192
267,0.8464609375,0.1385419921875,0.990359375,0.066564453125,0.1879033203125,-0.0646611328125,-0.1143603515625,0.9074951221261545,-0.16688356327069012,1.0639501329923162,1.0652975278530687,0.7998313095683128,0.7990255680506386,0.5199634557174971,-1.06,-44.54,-3.12,-8.712,0.74,0.316,0.208
268,0.84676953125,0.13668359375,0.9904951171875,0.072357421875,0.1916083984375,-0.0601298828125,-0.1106669921875,0.9074951221261545,-0.16688356327069012,1.0639501329923162,1.0652975278530687,0.7998313095683128,0.7990255680506386,0.5199634557174971,-1.328,-44.592,-3.144,-8.552,0.82,0.48,0.22
269,0.847078125,0.134728515625,0.9909287109375,0.07816015625,0.1953134765625,-0.05496484375,-0.1067685546875,0.9074951221261545,-0.16688356327069012,1.0639501329923162,1.0652975278530687,0.7998313095683128,0.7990255680506386,0.5199634557174971,-1.168,-44.376,-2.868,-7.796,0.732,0.42,0.148
270,0.84738671875,0.1327734375,0.991216796875,0.08380859375,0.1986064453125,-0.0500205078125,-0.102443359375,0.9074951221261545,-0.16688356327069012,1.0639501329923162,1.0652975278530687,0.7998313095683128,0.7990255680506386,0.5199634557174971,-1.008,-44.108,-2.612,-8.344,0.784,0.284,0.116
271,0.8476953125,0.1308173828125,0.991505859375,0.0893037109375,0.2023115234375,-0.04548828125,-0.098337890625,0.9074951221261545,-0.16688356327069012,1.0639501329923162,1.0652975278530687,0.7998313095683128,0.7990255680506386,0.5199634557174971,-0.956,-43.892,-2.38,-8.596,0.852,0.384,0.108
272,0.8479013671875,0.128759765625,0.9919296875,0.09510546875,0.20663671875,-0.0403369140625,-0.09464453125,0.9074951221261545,-0.16688356327069012,1.0639501329923162,1.0652975278530687,0.7998313095683128,0.7990255680506386,0.5199634557174971,-0.636,-43.244,-2.544,-8.916,0.628,0.324,0.096
273,0.8479013671875,0.128759765625,0.9919296875,0.09510546875,0.20663671875,-0.0403369140625,-0.09464453125,0.9074951221261545,-0.16688356327069012,1.0639501329923162,1.0652975278530687,0.7998313095683128,0.7990255680506386,0.5199634557174971,-0.636,-43.244,-2.544,-8.916,0.628,0.324,0.096
274,0.8482099609375,0.124740234375,0.9926513671875,0.1065380859375,0.21425390625,-0.03084765625,-0.087259765625,0.9074951221261545,-0.16688356327069012,1.0639501329923162,1.0652975278530687,0.7998313095683128,0.7990255680506386,0.5199634557174971,0.052,-42.704,-2.124,-7.82,0.624,0.676,0.168
275,0.8483134765625,0.1228876953125,0.993076171875,0.1121875,0.2179599609375,-0.0256962890625,-0.0837607421875,0.9074951221261545,-0.16688356327069012,1.0639501329923162,1.0652975278530687,0.7998313095683128,0.7990255680506386,0.5199634557174971,0.372,-42.328,-2.104,-7.088,0.544,0.596,0.168
276,0.8486279296875,0.1209326171875,0.9933642578125,0.1175556640625,0.221251953125,-0.0207509765625,-0.0804814453125,0.9074951221261545,-0.16688356327069012,1.0639501329923162,1.0652975278530687,0.7998313095683128,0.7990255680506386,0.5199634557174971,0.372,-42.272,-1.708,-6.928,0.78,0.604,0.252
277,0.8487314453125,0.119279296875,0.9937978515625,0.1226181640625,0.22495703125,-0.01642578125,-0.0774091796875,0.9074951221261545,-0.16688356327069012,1.0639501329923162,1.0652975278530687,0.7998313095683128,0.7990255680506386,0.5199634557174971,0.636,-42.164,-1.616,-7.02,0.576,0.512,0.26
278,0.8489375,0.117220703125,0.9943662109375,0.1287001953125,0.2292822265625,-0.0114677734375,-0.07391015625,0.9074951221261545,-0.16688356327069012,1.0639501329923162,1.0652975278530687,0.7998313095683128,0.7990255680506386,0.5199634557174971,0.796,-42.328,-1.916,-7.02,0.344,0.584,0.348
279,0.8489375,0.117220703125,0.9943662109375,0.1287001953125,0.2292822265625,-0.0114677734375,-0.07391015625,0.9074951221261545,-0.16688356327069012,1.0639501329923162,1.0652975278530687,0.7998313095683128,0.7990255680506386,0.5199634557174971,0.796,-42.328,-1.916,-7.02,0.344,0.584,0.348
280,0.8493486328125,0.1135166015625,0.9950791015625,0.1398623046875,0.2368994140625,-0.001578125,-0.0667314453125,0.9074951221261545,-0.16688356327069012,1.0639501329923162,1.0652975278530687,0.7998313095683128,0.7990255680506386,0.5199634557174971,1.116,-43.244,-1.548,-6.492,0.376,0.324,0.332
281,0.8495546875,0.1117666015625,0.9953681640625,0.1452216796875,0.2401923828125,0.0031591796875,-0.06283203125,0.9074951221261545,-0.16688356327069012,1.0639501329923162,1.0652975278530687,0.7998313095683128,0.7990255680506386,0.5199634557174971,1.488,-43.46,-1.156,-7.292,0.572,0.276,0.232
282,0.84986328125,0.109908203125,0.9959453125,0.1507255859375,0.244310546875,0.008103515625,-0.0587265625,0.9074951221261545,-0.16688356327069012,1.0639501329923162,1.0652975278530687,0.7998313095683128,0.7990255680506386,0.5199634557174971,1.328,-43.46,-1.04,-7.408,0.524,0.376,0.212
283,0.8500693359375,0.1080556640625,0.996369140625,0.15651953125,0.2484296875,0.012841796875,-0.0548271484375,0.9074951221261545,-0.16688356327069012,1.0639501329923162,1.0652975278530687,0.7998313095683128,0.7990255680506386,0.5199634557174971,1.488,-43.244,-1.248,-7.82,0.336,0.7,0.2
284,0.8503779296875,0.106203125,0.996658203125,0.16216796875,0.252134765625,0.0182001953125,-0.051134765625,0.9074951221261545,-0.16688356327069012,1.0639501329923162,1.0652975278530687,0.7998313095683128,0.7990255680506386,0.5199634557174971,1.488,-42.76,-1.2,-7.704,0.376,0.876,0.192
285,0.8503779296875,0.106203125,0.996658203125,0.16216796875,0.252134765625,0.0182001953125,-0.051134765625,0.9074951221261545,-0.16688356327069012,1.0639501329923162,1.0652975278530687,0.7998313095683128,0.7990255680506386,0.5199634557174971,1.488,-42.76,-1.2,-7.704,0.376,0.876,0.192
286,0.8507890625,0.10240234375,0.997515625,0.17404296875,0.2595458984375,0.02808984375,-0.04375,0.9074951221261545,-0.16688356327069012,1.0639501329923162,1.0652975278530687,0.7998313095683128,0.7990255680506386,0.5199634557174971,2.124,-42.112,-0.784,-6.448,0.4,0.748,0.22
287,0.851201171875,0.100646484375,0.9979482421875,0.1795556640625,0.262837890625,0.0332412109375,-0.0404580078125,0.9074951221261545,-0.16688356327069012,1.0639501329923162,1.0652975278530687,0.7998313095683128,0.7990255680506386,0.5199634557174971,1.7,-42.22,-0.6,-6.4,0.556,0.748,0.232
288,0.851619140625,0.099,0.9983818359375,0.1853486328125,0.26695703125,0.038392578125,-0.0369716796875,0.9074951221261545,-0.16688356327069012,1.0639501329923162,1.0652975278530687,0.7998313095683128,0.7990255680506386,0.5199634557174971,1.488,-42.328,-0.876,-6.152,0.348,0.46,0.224
289,0.85203125,0.09725,0.9989501953125,0.1911416015625,0.270455078125,0.0427314453125,-0.033486328125,0.9074951221261545,-0.16688356327069012,1.0639501329923162,1.0652975278530687,0.7998313095683128,0.7990255680506386,0.5199634557174971,1.488,-42.436,-0.784,-6.516,0.224,0.804,0.224
290,0.8524423828125,0.095603515625,0.9992392578125,0.1966552734375,0.2739541015625,0.0480888671875,-0.02979296875,0.9074951221261545,-0.16688356327069012,1.0639501329923162,1.0652975278530687,0.7998313095683128,0.7990255680506386,0.5199634557174971,1.22,-42.652,-0.416,-6.012,0.224,0.592,0.272
291,0.8528544921875,0.0938544921875,0.9998076171875,0.2025927734375,0.27766015625,0.0528271484375,-0.0261005859375,0.9074951221261545,-0.16688356327069012,1.0639501329923162,1.0652975278530687,0.7998313095683128,0.7990255680506386,0.5199634557174971,1.276,-42.868,-0.528,-5.988,0.22,0.696,0.252
292,0.853265625,0.0922080078125,1.000240234375,0.208376953125,0.2809521484375,0.057978515625,-0.0221884765625,0.9074951221261545,-0.16688356327069012,1.0639501329923162,1.0652975278530687,0.7998313095683128,0.7990255680506386,0.5199634557174971,1.116,-43.192,-0.644,-7.112,0.4,0.976,0.22
293,0.8537802734375,0.0904521484375,1.00080859375,0.214169921875,0.284451171875,0.0635302734375,-0.0178896484375,0.9074951221261545,-0.16688356327069012,1.0639501329923162,1.0652975278530687,0.7998313095683128,0.7990255680506386,0.5199634557174971,1.008,-43.62,-0.46,-7.432,0.452,0.74,0.14
294,0.8540888671875,0.088599609375,1.0012421875,0.220548828125,0.2879501953125,0.0682822265625,-0.0137841796875,0.9074951221261545,-0.16688356327069012,1.0639501329923162,1.0652975278530687,0.7998313095683128,0.7990255680506386,0.5199634557174971,1.008,-43.728,-0.416,-8.164,0.42,0.78,0.104
295,0.8546103515625,0.0868505859375,1.0016748046875,0.226630859375,0.2912421875,0.0732265625,-0.009677734375,0.9074951221261545,-0.16688356327069012,1.0639501329923162,1.0652975278530687,0.7998313095683128,0.7990255680506386,0.5199634557174971,1.008,-43.568,-0.368,-8.3,0.468,0.864,0.116
296,0.8551240234375,0.084998046875,1.002099609375,0.232712890625,0.294947265625,0.0787783203125,-0.005779296875,0.9074951221261545,-0.16688356327069012,1.0639501329923162,1.0652975278530687,0.7998313095683128,0.7990255680506386,0.5199634557174971,0.636,-43.352,-0.068,-6.632,0.488,0.512,0.14
297,0.8555361328125,0.0831455078125,1.0026767578125,0.2389482421875,0.2984462890625,0.083310546875,-0.0020869140625,0.9074951221261545,-0.16688356327069012,1.0639501329923162,1.0652975278530687,0.7998313095683128,0.7990255680506386,0.5199634557174971,0.584,-43.028,-0.416,-6.744,0.4,0.532,0.148
298,0.85605078125,0.0813896484375,1.0029658203125,0.2445966796875,0.3015322265625,0.08866796875,0.001412109375,0.9074951221261545,-0.16688356327069012,1.0639501329923162,1.0652975278530687,0.7998313095683128,0.7990255680506386,0.5199634557174971,0.0,-42.76,-0.16,-6.904,0.624,0.572,0.188
299,0.8565654296875,0.0796396484375,1.0035341796875,0.2505341796875,0.30503125,0.094232421875,0.0048984375,0.9074951221261545,-0.16688356327069012,1.0639501329923162,1.0652975278530687,0.7998313095683128,0.7990255680506386,0.5199634557174971,-0.052,-42.92,0.02,-6.312,0.512,0.296,0.208
300,0.857080078125,0.077890625,1.003966796875,0.25676953125,0.3085302734375,0.0985576171875,0.008384765625,0.9074951221261545,-0.16688356327069012,1.0639501329923162,1.0652975278530687,0.7998313095683128,0.7990255680506386,0.5199634557174971,0.052,-42.868,0.02,-6.904,0.396,0.856,0.232
301,0.8576005859375,0.0761416015625,1.0042470703125,0.26241796875,0.311822265625,0.1045361328125,0.0116640625,0.9074951221261545,-0.16688356327069012,1.0639501329923162,1.0652975278530687,0.7998313095683128,0.7990255680506386,0.5199634557174971,-0.316,-43.084,0.136,-6.332,0.356,0.928,0.264
302,0.858115234375,0.0744951171875,1.0046796875,0.26835546875,0.3151142578125,0.1098935546875,0.015369140625,-0.5598610587721611,-0.16688356327069012,1.0639501329923162,1.0652975278530687,0.7998313095683128,0.7990255680506386,0.5199634557174971,-0.476,-43.084,0.092,-6.836,0.292,0.676,0.312
303,0.8586298828125,0.0727392578125,1.00511328125,0.2743017578125,0.31840625,0.11442578125,0.01885546875,-0.5598610587721611,-0.16688356327069012,1.0639501329923162,1.0652975278530687,0.7998313095683128,0.7990255680506386,0.5199634557174971,-0.636,-42.92,0.136,-7.636,0.488,0.904,0.252
304,0.859041015625,0.071091796875,1.005681640625,0.2802392578125,0.3221123046875,0.12018359375,0.0225478515625,-0.5598610587721611,-0.16688356327069012,1.0639501329923162,1.0652975278530687,0.7998313095683128,0.7990255680506386,0.5199634557174971,-1.432,-42.92,0.32,-8.048,0.4,0.784,0.2
305,0.859041015625,0.071091796875,1.005681640625,0.2802392578125,0.3221123046875,0.12018359375,0.0225478515625,-0.5598610587721611,-0.16688356327069012,1.0639501329923162,1.0652975278530687,0.7998313095683128,0.7990255680506386,0.5199634557174971,-1.432,-42.92,0.32,-8.048,0.4,0.784,0.2
306,0.85914453125,0.069548828125,1.0065390625,0.2861767578125,0.32478515625,0.124921875,0.026240234375,-0.5598610587721611,-0.16688356327069012,1.0639501329923162,1.0652975278530687,0.7998313095683128,0.7990255680506386,0.5199634557174971,-5.42,-42.004,-0.392,-9.192,0.48,0.54,0.104
307,0.8593505859375,0.0666669921875,1.0074052734375,0.2961748046875,0.32745703125,0.135224609375,0.0323984375,-0.5598610587721611,-0.16688356327069012,1.0639501329923162,1.0652975278530687,0.7998313095683128,0.7990255680506386,0.5199634557174971,-13.344,-40.384,-0.436,-11.252,1.592,-0.244,0.128
308,0.859041015625,0.06553515625,1.00840625,0.3008037109375,0.3286962890625,0.1387236328125,0.034658203125,-0.5598610587721611,-0.16688356327069012,1.0639501329923162,1.0652975278530687,0.7998313095683128,0.7990255680506386,0.5199634557174971,-18.076,-40.436,-1.456,-11.936,1.972,-0.016,0.12
309,0.859041015625,0.06553515625,1.00840625,0.3008037109375,0.3286962890625,0.1387236328125,0.034658203125,-0.5598610587721611,-0.16688356327069012,1.0639501329923162,1.0652975278530687,0.7998313095683128,0.7990255680506386,0.5199634557174971,-18.076,-40.436,-1.456,-11.936,1.972,-0.016,0.12
310,0.857080078125,0.063779296875,1.00983203125,0.308771484375,0.33054296875,0.1469609375,0.03814453125,-0.5598610587721611,-0.16688356327069012,1.0639501329923162,1.0652975278530687,0.7998313095683128,0.7990255680506386,0.5199634557174971,-27.592,-41.14,-2.96,-12.44,2.024,-0.064,0.116
311,0.855021484375,0.0629560546875,1.0105546875,0.3131201171875,0.33075,0.1502529296875,0.03958984375,-0.5598610587721611,-0.16688356327069012,1.0639501329923162,1.0652975278530687,0.7998313095683128,0.7990255680506386,0.5199634557174971,-30.676,-41.3,-3.492,-13.924,2.284,0.012,0.12
312,0.8521337890625,0.0622353515625,1.011123046875,0.3171806640625,0.3301298828125,0.1541650390625,0.04081640625,-0.5598610587721611,-0.16688356327069012,1.0639501329923162,1.0652975278530687,0.7998313095683128,0.7990255680506386,0.5199634557174971,-32.912,-41.516,-3.536,-15.276,2.544,-0.276,0.104
313,0.8486279296875,0.061720703125,1.0118447265625,0.321232421875,0.32931640625,0.1576767578125,0.041642578125,-0.5598610587721611,-0.16688356327069012,1.0639501329923162,1.0652975278530687,0.7998313095683128,0.7990255680506386,0.5199634557174971,-33.656,-42.004,-3.652,-16.168,2.952,-0.636,0.128
314,0.8444990234375,0.06120703125,1.0122685546875,0.3251396484375,0.3297294921875,0.1601435546875,0.0426630859375,-0.5598610587721611,-0.16688356327069012,1.0639501329923162,1.0652975278530687,0.7998313095683128,0.7990255680506386,0.5199634557174971,-33.284,-42.436,-3.56,-16.58,2.796,-0.648,0.116
315,0.8396494140625,0.0608974609375,1.0125576171875,0.3284697265625,0.3295234375,0.162208984375,0.0432822265625,-0.5598610587721611,-0.16688356327069012,1.0639501329923162,1.0652975278530687,0.7998313095683128,0.7990255680506386,0.5199634557174971,-32.912,-43.244,-3.536,-15.756,2.712,-0.44,0.168
316,0.834080078125,0.0605888671875,1.0127021484375,0.331654296875,0.3299228515625,0.1646748046875,0.044302734375,-0.5598610587721611,-0.16688356327069012,1.0639501329923162,1.0652975278530687,0.7998313095683128,0.7990255680506386,0.5199634557174971,-31.58,-44.268,-3.376,-14.728,2.548,-0.524,0.128
317,0.828091796875,0.0603837890625,1.0125576171875,0.334560546875,0.3299228515625,0.166521484375,0.0453359375,-0.5598610587721611,-0.16688356327069012,1.0639501329923162,1.0652975278530687,0.7998313095683128,0.7990255680506386,0.5199634557174971,-28.072,-45.024,-2.82,-14.568,2.44,-0.468,0.116
318,0.821595703125,0.060177734375,1.0121240234375,0.3370234375,0.33054296875,0.168173828125,0.04635546875,-0.5598610587721611,-0.16688356327069012,1.0639501329923162,1.0652975278530687,0.7998313095683128,0.7990255680506386,0.5199634557174971,-23.552,-45.672,-1.964,-13.812,2.36,-0.296,0.168
319,0.8145849609375,0.0599716796875,1.0122685546875,0.3393427734375,0.331576171875,0.1694130859375,0.0475947265625,-0.5598610587721611,-0.16688356327069012,1.0639501329923162,1.0652975278530687,0.7998313095683128,0.7990255680506386,0.5199634557174971,-19.884,-46.536,-1.64,-13.104,1.92,-0.188,0.18
320,0.807046875,0.059765625,1.0122685546875,0.34165234375,0.3328154296875,0.1704462890625,0.0490283203125,-0.5598610587721611,-0.16688356327069012,1.0639501329923162,1.0652975278530687,0.7998313095683128,0.7990255680506386,0.5199634557174971,-18.128,-47.348,-1.824,-12.852,1.704,0.044,0.2
321,0.799103515625,0.05945703125,1.0121240234375,0.3441162109375,0.3340419921875,0.17187890625,0.0504609375,-0.5598610587721611,-0.16688356327069012,1.0639501329923162,1.0652975278530687,0.7998313095683128,0.7990255680506386,0.5199634557174971,-17.652,-47.456,-1.456,-12.44,1.6,0.056,0.192
322,0.7907548828125,0.0589423828125,1.0119892578125,0.3467236328125,0.33548828125,0.1731181640625,0.0523076171875,-0.5598610587721611,-0.16688356327069012,1.0639501329923162,1.0652975278530687,0.7998313095683128,0.7990255680506386,0.5199634557174971,-15.364,-47.456,-1.016,-12.784,1.624,-0.004,0.18
323,0.7825029296875,0.0583251953125,1.0114111328125,0.348609375,0.337333984375,0.1743583984375,0.0543603515625,-0.5598610587721611,-0.16688356327069012,1.0639501329923162,1.0652975278530687,0.7998313095683128,0.7990255680506386,0.5199634557174971,-9.248,-47.24,-0.252,-12.464,1.736,-0.056,0.24
324,0.77434765625,0.0577080078125,1.010978515625,0.3500537109375,0.3406259765625,0.17496484375,0.0564130859375,-0.5598610587721611,-0.16688356327069012,1.0639501329923162,1.0652975278530687,0.7998313095683128,0.7990255680506386,0.5199634557174971,-5.048,-47.24,0.948,-10.86,1.38,0.088,0.232
325,0.76568359375,0.057193359375,1.0115556640625,0.3518037109375,0.3445380859375,0.17496484375,0.0586728515625,-0.5598610587721611,-0.16688356327069012,1.0639501329923162,1.0652975278530687,0.7998313095683128,0.7990255680506386,0.5199634557174971,-4.784,-47.616,0.484,-9.352,0.772,0.596,0.272
326,0.7570205078125,0.0563701171875,1.0118447265625,0.3533916015625,0.3478310546875,0.1762041015625,0.061138671875,-0.5598610587721611,-0.16688356327069012,1.0639501329923162,1.0652975278530687,0.7998313095683128,0.7990255680506386,0.5199634557174971,-4.304,-47.832,-0.508,-8.94,0.324,0.752,0.24
327,0.748453125,0.055333984375,1.011123046875,0.3547001953125,0.3507099609375,0.1778564453125,0.0636171875,-0.5598610587721611,-0.16688356327069012,1.0639501329923162,1.0652975278530687,0.7998313095683128,0.7990255680506386,0.5199634557174971,-0.264,-47.348,0.624,-7.98,0.592,0.52,0.22
328,0.740201171875,0.0542021484375,1.01041015625,0.356,0.3544150390625,0.1790830078125,0.0660703125,-0.5598610587721611,-0.16688356327069012,1.0639501329923162,1.0652975278530687,0.7998313095683128,0.7990255680506386,0.5199634557174971,3.984,-46.376,2.472,-7.432,0.596,0.54,0.14
329,0.7317431640625,0.0531728515625,1.010978515625,0.3570107421875,0.3587275390625,0.17991015625,0.0685361328125,-0.5598610587721611,-0.16688356327069012,1.0639501329923162,1.0652975278530687,0.7998313095683128,0.7990255680506386,0.5199634557174971,3.508,-45.836,1.964,-6.356,0.284,0.896,0.14
330,0.7235947265625,0.05214453125,1.0117001953125,0.3578857421875,0.36387890625,0.18135546875,0.071208984375,-0.5598610587721611,-0.16688356327069012,1.0639501329923162,1.0652975278530687,0.7998313095683128,0.7990255680506386,0.5199634557174971,3.348,-45.728,0.46,-5.144,-0.208,1.072,0.14
331,0.7158505859375,0.050806640625,1.011123046875,0.358607421875,0.367984375,0.1829951171875,0.07346875,-0.5598610587721611,-0.16688356327069012,1.0639501329923162,1.0652975278530687,0.7998313095683128,0.7990255680506386,0.5199634557174971,6.856,-45.24,1.108,-4.436,-0.384,1.22,0.128
332,0.70822265625,0.04946875,1.0105546875,0.3593291015625,0.371896484375,0.1846484375,0.075521484375,-0.5598610587721611,-0.16688356327069012,1.0639501329923162,1.0652975278530687,0.7998313095683128,0.7990255680506386,0.5199634557174971,8.932,-44.432,3.212,-3.016,-0.16,1.32,0.156
333,0.7004853515625,0.048130859375,1.011267578125,0.360484375,0.376841796875,0.1865068359375,0.07757421875,-0.5598610587721611,-0.16688356327069012,1.0639501329923162,1.0652975278530687,0.7998313095683128,0.7990255680506386,0.5199634557174971,8.772,-43.836,2.472,-2.856,-0.348,1.412,0.136
334,0.693056640625,0.0465810546875,1.0118447265625,0.36150390625,0.3813603515625,0.188560546875,0.0792138671875,-0.5598610587721611,-0.16688356327069012,1.0639501329923162,1.0652975278530687,0.7998313095683128,0.7990255680506386,0.5199634557174971,8.932,-43.192,1.108,-3.176,-0.48,1.476,0.14
335,0.6861484375,0.045037109375,1.0114111328125,0.3623701171875,0.3852724609375,0.1906259765625,0.080853515625,-0.5598610587721611,-0.16688356327069012,1.0639501329923162,1.0652975278530687,0.7998313095683128,0.7990255680506386,0.5199634557174971,11.324,-42.38,2.012,-2.536,-0.5,1.528,0.14
336,0.6794404296875,0.0434931640625,1.011267578125,0.363525390625,0.3889775390625,0.1924716796875,0.0824931640625,-0.5598610587721611,-0.16688356327069012,1.0639501329923162,1.0652975278530687,0.7998313095683128,0.7990255680506386,0.5199634557174971,11.8,-41.572,2.98,-1.852,-0.564,1.652,0.188
337,0.6727314453125,0.0418466796875,1.0118447265625,0.364978515625,0.392876953125,0.1947314453125,0.08392578125,-0.5598610587721611,-0.16688356327069012,1.0639501329923162,1.0652975278530687,0.7998313095683128,0.7990255680506386,0.5199634557174971,11.376,-41.084,2.38,-1.6,-0.768,1.78,0.192
