EmanuelSamir/lab201_ws_projsamir/sawyer_dev/data/sawyer/temp/validation_data_jointsample21.csv
,j1,j2,j3,j4,j5,j6,j7,jd1,jd2,jd3,jd4,jd5,jd6,jd7,e1,e2,e3,e4,e5,e6,e7
0,0.0,0.0,0.0,0.0,0.0,0.0,0.0,0.0,0.0,0.0,0.0,0.0,0.0,0.0,0.0,0.0,0.0,0.0,0.0,0.0,0.0
1,0.0,0.0,0.0,0.0,2.002419921875,0.0,0.0,0.0,0.0,0.0,0.0,2.0024237747192375,0.0,0.0,0.0,0.0,0.0,0.0,-1.012,0.0,0.0
2,0.0,0.0,0.0,0.0,2.002419921875,0.0,0.0,0.0,0.0,0.0,0.0,2.0027251353293503,0.0,0.0,0.0,0.0,0.0,0.0,-1.012,0.0,0.0
3,0.0,0.0,0.0,0.0,2.002419921875,0.0,0.0,0.0,0.0,0.0,0.0,2.0035310249579017,0.0,0.0,0.0,0.0,0.0,0.0,-1.012,0.0,0.0
4,0.0,0.0,0.0,0.0,2.002419921875,0.0,0.0,0.0,0.0,0.0,0.0,2.004333180983584,0.0,0.0,0.0,0.0,0.0,0.0,-1.012,0.0,0.0
5,0.0,0.0,0.0,0.0,2.002419921875,0.0,0.0,0.0,0.0,0.0,0.0,2.0051291126013697,0.0,0.0,0.0,0.0,0.0,0.0,-1.012,0.0,0.0
6,0.0,0.0,0.0,0.0,2.002419921875,0.0,0.0,0.0,0.0,0.0,0.0,2.0066394786776978,0.0,0.0,0.0,0.0,0.0,0.0,-1.012,0.0,0.0
7,0.0,0.0,0.0,0.0,2.002419921875,0.0,0.0,0.0,0.0,0.0,0.0,2.0069838610303714,0.0,0.0,0.0,0.0,0.0,0.0,-1.012,0.0,0.0
8,0.0,0.0,0.0,0.0,2.002419921875,0.0,0.0,0.0,0.0,0.0,0.0,2.0075289141939905,0.0,0.0,0.0,0.0,0.0,0.0,-1.012,0.0,0.0
9,0.0,0.0,0.0,0.0,2.002419921875,0.0,0.0,0.0,0.0,0.0,0.0,2.008326021133051,0.0,0.0,0.0,0.0,0.0,0.0,-1.012,0.0,0.0
10,0.0,0.0,0.0,0.0,2.002419921875,0.0,0.0,0.0,0.0,0.0,0.0,2.0091263294158135,0.0,0.0,0.0,0.0,0.0,0.0,-1.012,0.0,0.0
11,0.0,0.0,0.0,0.0,2.002419921875,0.0,0.0,0.0,0.0,0.0,0.0,2.009927823114051,0.0,0.0,0.0,0.0,0.0,0.0,-1.012,0.0,0.0
12,0.0,0.0,0.0,0.0,2.002419921875,0.0,0.0,0.0,0.0,0.0,0.0,2.0107210009329615,0.0,0.0,0.0,0.0,0.0,0.0,-1.012,0.0,0.0
13,0.0,0.0,0.0,0.0,2.002419921875,0.0,0.0,0.0,0.0,0.0,0.0,2.011521231983837,0.0,0.0,0.0,0.0,0.0,0.0,-1.012,0.0,0.0
14,0.0,0.0,0.0,0.0,2.002419921875,0.0,0.0,0.0,0.0,0.0,0.0,2.0123187310519106,0.0,0.0,0.0,0.0,0.0,0.0,-1.012,0.0,0.0
15,0.0,0.0,0.0,0.0,2.002419921875,0.0,0.0,0.0,0.0,0.0,0.0,2.013114324223359,0.0,0.0,0.0,0.0,0.0,0.0,-1.012,0.0,0.0
16,0.0,0.0,0.0,0.0,2.002419921875,0.0,0.0,0.0,0.0,0.0,0.0,2.0139069974490442,0.0,0.0,0.0,0.0,0.0,0.0,-1.012,0.0,0.0
17,0.0,0.0,0.0,0.0,2.002419921875,0.0,0.0,0.0,0.0,0.0,0.0,2.0147019685759426,0.0,0.0,0.0,0.0,0.0,0.0,-1.012,0.0,0.0
18,0.0,0.0,0.0,0.0,2.002419921875,0.0,0.0,0.0,0.0,0.0,0.0,2.0154924838886945,0.0,0.0,0.0,0.0,0.0,0.0,-1.012,0.0,0.0
19,0.0,0.0,0.0,0.0,2.002419921875,0.0,0.0,0.0,0.0,0.0,0.0,2.0162913679819274,0.0,0.0,0.0,0.0,0.0,0.0,-1.012,0.0,0.0
20,0.0,0.0,0.0,0.0,2.002419921875,0.0,0.0,0.0,0.0,0.0,0.0,2.017080973346712,0.0,0.0,0.0,0.0,0.0,0.0,-1.012,0.0,0.0
21,0.0,0.0,0.0,0.0,2.002419921875,0.0,0.0,0.0,0.0,0.0,0.0,2.0178736783432636,0.0,0.0,0.0,0.0,0.0,0.0,-1.012,0.0,0.0
22,0.0,0.0,0.0,0.0,2.002419921875,0.0,0.0,0.0,0.0,0.0,0.0,2.0186598377672773,0.0,0.0,0.0,0.0,0.0,0.0,-1.012,0.0,0.0
23,0.0,0.0,0.0,0.0,2.002419921875,0.0,0.0,0.0,0.0,0.0,0.0,2.0194505121404998,0.0,0.0,0.0,0.0,0.0,0.0,-1.012,0.0,0.0
24,0.0,0.0,0.0,0.0,2.002419921875,0.0,0.0,0.0,0.0,0.0,0.0,2.020242287391128,0.0,0.0,0.0,0.0,0.0,0.0,-1.012,0.0,0.0
25,0.0,0.0,0.0,0.0,2.002419921875,0.0,0.0,0.0,0.0,0.0,0.0,2.021025601628024,0.0,0.0,0.0,0.0,0.0,0.0,-1.012,0.0,0.0
26,0.0,0.0,0.0,0.0,2.002419921875,0.0,0.0,0.0,0.0,0.0,0.0,2.0218138537307873,0.0,0.0,0.0,0.0,0.0,0.0,-1.012,0.0,0.0
27,0.0,0.0,0.0,0.0,2.002419921875,0.0,0.0,0.0,0.0,0.0,0.0,2.0225986513093495,0.0,0.0,0.0,0.0,0.0,0.0,-1.012,0.0,0.0
28,0.0,0.0,0.0,0.0,2.002419921875,0.0,0.0,0.0,0.0,0.0,0.0,2.023382491120475,0.0,0.0,0.0,0.0,0.0,0.0,-1.012,0.0,0.0
29,0.0,0.0,0.0,0.0,2.002419921875,0.0,0.0,0.0,0.0,0.0,0.0,2.0241630126570946,0.0,0.0,0.0,0.0,0.0,0.0,-1.012,0.0,0.0
30,0.0,0.0,0.0,0.0,2.002419921875,0.0,0.0,0.0,0.0,0.0,0.0,2.024939507436427,0.0,0.0,0.0,0.0,0.0,0.0,-1.012,0.0,0.0
31,0.0,0.0,0.0,0.0,2.002419921875,0.0,0.0,0.0,0.0,0.0,0.0,2.025720027780049,0.0,0.0,0.0,0.0,0.0,0.0,-1.012,0.0,0.0
32,0.0,0.0,0.0,0.0,2.002419921875,0.0,0.0,0.0,0.0,0.0,0.0,2.0265002718314302,0.0,0.0,0.0,0.0,0.0,0.0,-1.012,0.0,0.0
33,0.0,0.0,0.0,0.0,2.002419921875,0.0,0.0,0.0,0.0,0.0,0.0,2.0272751015085886,0.0,0.0,0.0,0.0,0.0,0.0,-1.012,0.0,0.0
34,0.0,0.0,0.0,0.0,2.002419921875,0.0,0.0,0.0,0.0,0.0,0.0,2.028053524561422,0.0,0.0,0.0,0.0,0.0,0.0,-1.012,0.0,0.0
35,0.0,0.0,0.0,0.0,2.002419921875,0.0,0.0,0.0,0.0,0.0,0.0,2.028823647525157,0.0,0.0,0.0,0.0,0.0,0.0,-1.012,0.0,0.0
36,0.0,0.0,0.0,0.0,2.002419921875,0.0,0.0,0.0,0.0,0.0,0.0,2.0295922560028465,0.0,0.0,0.0,0.0,0.0,0.0,-1.012,0.0,0.0
37,0.0,0.0,0.0,0.0,2.002419921875,0.0,0.0,0.0,0.0,0.0,0.0,2.0303622851321164,0.0,0.0,0.0,0.0,0.0,0.0,-1.012,0.0,0.0
38,0.0,0.0,0.0,0.0,2.002419921875,0.0,0.0,0.0,0.0,0.0,0.0,2.0311317271187805,0.0,0.0,0.0,0.0,0.0,0.0,-1.012,0.0,0.0
39,0.0,0.0,0.0,0.0,2.002419921875,0.0,0.0,0.0,0.0,0.0,0.0,2.0318973525449344,0.0,0.0,0.0,0.0,0.0,0.0,-1.012,0.0,0.0
40,0.0,0.0,0.0,0.0,2.002419921875,0.0,0.0,0.0,0.0,0.0,0.0,2.032655581542931,0.0,0.0,0.0,0.0,0.0,0.0,-1.012,0.0,0.0
41,0.0,0.0,0.0,0.0,2.002419921875,0.0,0.0,0.0,0.0,0.0,0.0,2.0334234897642003,0.0,0.0,0.0,0.0,0.0,0.0,-1.012,0.0,0.0
42,0.0,0.0,0.0,0.0,2.002419921875,0.0,0.0,0.0,0.0,0.0,0.0,2.0341825261838116,0.0,0.0,0.0,0.0,0.0,0.0,-1.012,0.0,0.0
43,0.0,0.0,0.0,0.0,2.002419921875,0.0,0.0,0.0,0.0,0.0,0.0,2.0349363041162234,0.0,0.0,0.0,0.0,0.0,0.0,-1.012,0.0,0.0
44,0.0,0.0,0.0,0.0,2.002419921875,0.0,0.0,0.0,0.0,0.0,0.0,2.0356948746808685,0.0,0.0,0.0,0.0,0.0,0.0,-1.012,0.0,0.0
45,0.0,0.0,0.0,0.0,2.002419921875,0.0,0.0,0.0,0.0,0.0,0.0,2.036445200181538,0.0,0.0,0.0,0.0,0.0,0.0,-1.012,0.0,0.0
46,0.0,0.0,0.0,0.0,2.002419921875,0.0,0.0,0.0,0.0,0.0,0.0,2.0371958512378368,0.0,0.0,0.0,0.0,0.0,0.0,-1.012,0.0,0.0
47,0.0,0.0,0.0,0.0,2.002419921875,0.0,0.0,0.0,0.0,0.0,0.0,2.0379472572182697,0.0,0.0,0.0,0.0,0.0,0.0,-1.012,0.0,0.0
48,0.0,0.0,0.0,0.0,2.002419921875,0.0,0.0,0.0,0.0,0.0,0.0,2.0386968366083726,0.0,0.0,0.0,0.0,0.0,0.0,-1.012,0.0,0.0
49,0.0,0.0,0.0,0.0,2.002419921875,0.0,0.0,0.0,0.0,0.0,0.0,2.039440727367873,0.0,0.0,0.0,0.0,0.0,0.0,-1.012,0.0,0.0
50,0.0,0.0,0.0,0.0,2.002419921875,0.0,0.0,0.0,0.0,0.0,0.0,2.040177730305855,0.0,0.0,0.0,0.0,0.0,0.0,-1.012,0.0,0.0
51,0.0,0.0,0.0,0.0,2.002419921875,0.0,0.0,0.0,0.0,0.0,0.0,2.0409243721271886,0.0,0.0,0.0,0.0,0.0,0.0,-1.012,0.0,0.0
52,0.0,0.0,0.0,0.0,2.002419921875,0.0,0.0,0.0,0.0,0.0,0.0,2.041656011245436,0.0,0.0,0.0,0.0,0.0,0.0,-1.012,0.0,0.0
53,0.0,0.0,0.0,0.0,2.002419921875,0.0,0.0,0.0,0.0,0.0,0.0,2.042389931855975,0.0,0.0,0.0,0.0,0.0,0.0,-1.012,0.0,0.0
54,0.0,0.0,0.0,0.0,2.002419921875,0.0,0.0,0.0,0.0,0.0,0.0,2.0431246614833514,0.0,0.0,0.0,0.0,0.0,0.0,-1.012,0.0,0.0
55,0.0,0.0,0.0,0.0,2.002419921875,0.0,0.0,0.0,0.0,0.0,0.0,2.0439471864217333,0.0,0.0,0.0,0.0,0.0,0.0,-1.012,0.0,0.0
56,0.0,0.0,0.0,0.0,2.002419921875,0.0,0.0,0.0,0.0,0.0,0.0,2.0446633897135236,0.0,0.0,0.0,0.0,0.0,0.0,-1.012,0.0,0.0
57,0.0,0.0,0.0,0.0,2.002419921875,0.0,0.0,0.0,0.0,0.0,0.0,2.0452989932998347,0.0,0.0,0.0,0.0,0.0,0.0,-1.012,0.0,0.0
58,0.0,0.0,0.0,0.0,2.002419921875,0.0,0.0,0.0,0.0,0.0,0.0,2.046025433823862,0.0,0.0,0.0,0.0,0.0,0.0,-1.012,0.0,0.0
59,0.0,0.0,0.0,0.0,2.002419921875,0.0,0.0,0.0,0.0,0.0,0.0,2.0467459835558195,0.0,0.0,0.0,0.0,0.0,0.0,-1.012,0.0,0.0
60,0.0,0.0,0.0,0.0,2.002419921875,0.0,0.0,0.0,0.0,0.0,0.0,2.0474546719070355,0.0,0.0,0.0,0.0,0.0,0.0,-1.012,0.0,0.0
61,0.0,0.0,0.0,0.0,2.002419921875,0.0,0.0,0.0,0.0,0.0,0.0,2.0481675730384605,0.0,0.0,0.0,0.0,0.0,0.0,-1.012,0.0,0.0
62,0.0,0.0,0.0,0.0,2.002419921875,0.0,0.0,0.0,0.0,0.0,0.0,2.048875147356943,0.0,0.0,0.0,0.0,0.0,0.0,-1.012,0.0,0.0
63,0.0,0.0,0.0,0.0,2.002419921875,0.0,0.0,0.0,0.0,0.0,0.0,2.049581668659361,0.0,0.0,0.0,0.0,0.0,0.0,-1.012,0.0,0.0
64,0.0,0.0,0.0,0.0,2.002419921875,0.0,0.0,0.0,0.0,0.0,0.0,2.050289730241078,0.0,0.0,0.0,0.0,0.0,0.0,-1.012,0.0,0.0
65,0.0,0.0,0.0,0.0,2.002419921875,0.0,0.0,0.0,0.0,0.0,0.0,2.050992191150557,0.0,0.0,0.0,0.0,0.0,0.0,-1.012,0.0,0.0
66,0.0,0.0,0.0,0.0,2.002419921875,0.0,0.0,0.0,0.0,0.0,0.0,2.051683860798614,0.0,0.0,0.0,0.0,0.0,0.0,-1.012,0.0,0.0
67,0.0,0.0,0.0,0.0,2.002419921875,0.0,0.0,0.0,0.0,0.0,0.0,2.052377901341991,0.0,0.0,0.0,0.0,0.0,0.0,-1.012,0.0,0.0
68,0.0,0.0,0.0,0.0,2.002419921875,0.0,0.0,0.0,0.0,0.0,0.0,2.053068355073487,0.0,0.0,0.0,0.0,0.0,0.0,-1.012,0.0,0.0
69,0.0,0.0,0.0,0.0,2.002419921875,0.0,0.0,0.0,0.0,0.0,0.0,2.0537576877950006,0.0,0.0,0.0,0.0,0.0,0.0,-1.012,0.0,0.0
70,0.0,0.0,0.0,0.0,2.002419921875,0.0,0.0,0.0,0.0,0.0,0.0,2.0544441310189034,0.0,0.0,0.0,0.0,0.0,0.0,-1.012,0.0,0.0
71,0.0,0.0,0.0,0.0,2.002419921875,0.0,0.0,0.0,0.0,0.0,0.0,2.05512473324552,0.0,0.0,0.0,0.0,0.0,0.0,-1.012,0.0,0.0
72,0.0,0.0,0.0,0.0,2.002419921875,0.0,0.0,0.0,0.0,0.0,0.0,2.055812503206363,0.0,0.0,0.0,0.0,0.0,0.0,-1.012,0.0,0.0
73,0.0,0.0,0.0,0.0,2.002419921875,0.0,0.0,0.0,0.0,0.0,0.0,2.056483713947895,0.0,0.0,0.0,0.0,0.0,0.0,-1.012,0.0,0.0
74,0.0,0.0,0.0,0.0,2.002419921875,0.0,0.0,0.0,0.0,0.0,0.0,2.057156592633235,0.0,0.0,0.0,0.0,0.0,0.0,-1.012,0.0,0.0
75,0.0,0.0,0.0,0.0,2.002419921875,0.0,0.0,0.0,0.0,0.0,0.0,2.0578226168328198,0.0,0.0,0.0,0.0,0.0,0.0,-1.012,0.0,0.0
76,0.0,0.0,0.0,0.0,2.002419921875,0.0,0.0,0.0,0.0,0.0,0.0,2.0584818759125567,0.0,0.0,0.0,0.0,0.0,0.0,-1.012,0.0,0.0
77,0.0,0.0,0.0,0.0,2.002419921875,0.0,0.0,0.0,0.0,0.0,0.0,2.0591474024926786,0.0,0.0,0.0,0.0,0.0,0.0,-1.012,0.0,0.0
78,0.0,0.0,0.0,0.0,2.002419921875,0.0,0.0,0.0,0.0,0.0,0.0,2.0598018406311804,0.0,0.0,0.0,0.0,0.0,0.0,-1.012,0.0,0.0
79,0.0,0.0,0.0,0.0,2.002419921875,0.0,0.0,0.0,0.0,0.0,0.0,2.060456751221766,0.0,0.0,0.0,0.0,0.0,0.0,-1.012,0.0,0.0
80,0.0,0.0,0.0,0.0,2.002419921875,0.0,0.0,0.0,0.0,0.0,0.0,2.061103651695316,0.0,0.0,0.0,0.0,0.0,0.0,-1.012,0.0,0.0
81,0.0,0.0,0.0,0.0,2.002419921875,0.0,0.0,0.0,0.0,0.0,0.0,2.061749530202778,0.0,0.0,0.0,0.0,0.0,0.0,-1.012,0.0,0.0
82,0.0,0.0,0.0,0.0,2.002419921875,0.0,0.0,0.0,0.0,0.0,0.0,2.062388284292409,0.0,0.0,0.0,0.0,0.0,0.0,-1.012,0.0,0.0
83,0.0,0.0,0.0,0.0,2.002419921875,0.0,0.0,0.0,0.0,0.0,0.0,2.063027685469732,0.0,0.0,0.0,0.0,0.0,0.0,-1.012,0.0,0.0
84,0.0,0.0,0.0,0.0,2.002419921875,0.0,0.0,0.0,0.0,0.0,0.0,2.0636629526453407,0.0,0.0,0.0,0.0,0.0,0.0,-1.012,0.0,0.0
85,0.0,0.0,0.0,0.0,2.002419921875,0.0,0.0,0.0,0.0,0.0,0.0,2.0642938547238625,0.0,0.0,0.0,0.0,0.0,0.0,-1.012,0.0,0.0
86,0.0,0.0,0.0,0.0,2.002419921875,0.0,0.0,0.0,0.0,0.0,0.0,2.0649211485704773,0.0,0.0,0.0,0.0,0.0,0.0,-1.012,0.0,0.0
87,0.0,0.0,0.0,0.0,2.002419921875,0.0,0.0,0.0,0.0,0.0,0.0,2.065542775221843,0.0,0.0,0.0,0.0,0.0,0.0,-1.012,0.0,0.0
88,0.0,0.0,0.0,0.0,2.002419921875,0.0,0.0,0.0,0.0,0.0,0.0,2.0661612843946315,0.0,0.0,0.0,0.0,0.0,0.0,-1.012,0.0,0.0
89,0.0,0.0,0.0,0.0,2.002419921875,0.0,0.0,0.0,0.0,0.0,0.0,2.0667733921332836,0.0,0.0,0.0,0.0,0.0,0.0,-1.012,0.0,0.0
90,0.0,0.0,0.0,0.0,2.002419921875,0.0,0.0,0.0,0.0,0.0,0.0,2.067387791819554,0.0,0.0,0.0,0.0,0.0,0.0,-1.012,0.0,0.0
91,0.0,0.0,0.0,0.0,2.002419921875,0.0,0.0,0.0,0.0,0.0,0.0,2.0679932105105507,0.0,0.0,0.0,0.0,0.0,0.0,-1.012,0.0,0.0
92,0.0,0.0,0.0,0.0,2.002419921875,0.0,0.0,0.0,0.0,0.0,0.0,2.0685953998322693,0.0,0.0,0.0,0.0,0.0,0.0,-1.012,0.0,0.0
93,0.0,0.0,0.0,0.0,2.002419921875,0.0,0.0,0.0,0.0,0.0,0.0,2.0691921570464875,0.0,0.0,0.0,0.0,0.0,0.0,-1.012,0.0,0.0
94,0.0,0.0,0.0,0.0,2.002419921875,0.0,0.0,0.0,0.0,0.0,0.0,2.0697881495076613,0.0,0.0,0.0,0.0,0.0,0.0,-1.012,0.0,0.0
95,0.0,0.0,0.0,0.0,2.002419921875,0.0,0.0,0.0,0.0,0.0,0.0,2.070377721471669,0.0,0.0,0.0,0.0,0.0,0.0,-1.012,0.0,0.0
96,0.0,0.0,0.0,0.0,2.002419921875,0.0,0.0,0.0,0.0,0.0,0.0,2.0709626031752206,0.0,0.0,0.0,0.0,0.0,0.0,-1.012,0.0,0.0
97,0.0,0.0,0.0,0.0,2.002419921875,0.0,0.0,0.0,0.0,0.0,0.0,2.071541648216353,0.0,0.0,0.0,0.0,0.0,0.0,-1.012,0.0,0.0
98,0.0,0.0,0.0,0.0,2.002419921875,0.0,0.0,0.0,0.0,0.0,0.0,2.072115987973807,0.0,0.0,0.0,0.0,0.0,0.0,-1.012,0.0,0.0
99,0.0,0.0,0.0,0.0,2.002419921875,0.0,0.0,0.0,0.0,0.0,0.0,2.072688754913155,0.0,0.0,0.0,0.0,0.0,0.0,-1.012,0.0,0.0
100,0.0,0.0,0.0,0.0,2.002419921875,0.0,0.0,0.0,0.0,0.0,0.0,2.073257394276164,0.0,0.0,0.0,0.0,0.0,0.0,-1.012,0.0,0.0
101,0.0,0.0,0.0,0.0,2.002419921875,0.0,0.0,0.0,0.0,0.0,0.0,2.073819229299803,0.0,0.0,0.0,0.0,0.0,0.0,-1.012,0.0,0.0
102,0.0,0.0,0.0,0.0,2.002419921875,0.0,0.0,0.0,0.0,0.0,0.0,2.0743765569280317,0.0,0.0,0.0,0.0,0.0,0.0,-1.012,0.0,0.0
103,0.0,0.0,0.0,0.0,2.002419921875,0.0,0.0,0.0,0.0,0.0,0.0,2.0749325450949723,0.0,0.0,0.0,0.0,0.0,0.0,-1.012,0.0,0.0
104,0.0,0.0,0.0,0.0,2.002419921875,0.0,0.0,0.0,0.0,0.0,0.0,2.07547974362324,0.0,0.0,0.0,0.0,0.0,0.0,-1.012,0.0,0.0
105,0.0,0.0,0.0,0.0,2.002419921875,0.0,0.0,0.0,0.0,0.0,0.0,2.076021424634308,0.0,0.0,0.0,0.0,0.0,0.0,-1.012,0.0,0.0
106,0.0,0.0,0.0,0.0,2.002419921875,0.0,0.0,0.0,0.0,0.0,0.0,2.0765584337372465,0.0,0.0,0.0,0.0,0.0,0.0,-1.012,0.0,0.0
107,0.0,0.0,0.0,0.0,2.002419921875,0.0,0.0,0.0,0.0,0.0,0.0,2.0770927666925,0.0,0.0,0.0,0.0,0.0,0.0,-1.012,0.0,0.0
108,0.0,0.0,0.0,0.0,2.002419921875,0.0,0.0,0.0,0.0,0.0,0.0,2.0776217324666977,0.0,0.0,0.0,0.0,0.0,0.0,-1.012,0.0,0.0
109,0.0,0.0,0.0,0.0,2.002419921875,0.0,0.0,0.0,0.0,0.0,0.0,2.0781488760724405,0.0,0.0,0.0,0.0,0.0,0.0,-1.012,0.0,0.0
110,0.0,0.0,0.0,0.0,2.002419921875,0.0,0.0,0.0,0.0,0.0,0.0,2.078671661991816,0.0,0.0,0.0,0.0,0.0,0.0,-1.012,0.0,0.0
111,0.0,0.0,0.0,0.0,2.002419921875,0.0,0.0,0.0,0.0,0.0,0.0,2.079184834359048,0.0,0.0,0.0,0.0,0.0,0.0,-1.012,0.0,0.0
112,0.0,0.0,0.0,0.0,2.002419921875,0.0,0.0,0.0,0.0,0.0,0.0,2.0796981188817507,0.0,0.0,0.0,0.0,0.0,0.0,-1.012,0.0,0.0
113,0.0,0.0,0.0,0.0,2.002419921875,0.0,0.0,0.0,0.0,0.0,0.0,2.080204240432672,0.0,0.0,0.0,0.0,0.0,0.0,-1.012,0.0,0.0
114,0.0,0.0,0.0,0.0,2.002419921875,0.0,0.0,0.0,0.0,0.0,0.0,2.08070241159276,0.0,0.0,0.0,0.0,0.0,0.0,-1.012,0.0,0.0
115,0.0,0.0,0.0,0.0,2.002419921875,0.0,0.0,0.0,0.0,0.0,0.0,2.081199080736908,0.0,0.0,0.0,0.0,0.0,0.0,-1.012,0.0,0.0
116,0.0,0.0,0.0,0.0,2.002419921875,0.0,0.0,0.0,0.0,0.0,0.0,2.0816887727372198,0.0,0.0,0.0,0.0,0.0,0.0,-1.012,0.0,0.0
117,0.0,0.0,0.0,0.0,2.002419921875,0.0,0.0,0.0,0.0,0.0,0.0,2.0821720449000836,0.0,0.0,0.0,0.0,0.0,0.0,-1.012,0.0,0.0
118,0.0,0.0,0.0,0.0,2.002419921875,0.0,0.0,0.0,0.0,0.0,0.0,2.082653178721149,0.0,0.0,0.0,0.0,0.0,0.0,-1.012,0.0,0.0
119,0.0,0.0,0.0,0.0,2.002419921875,0.0,0.0,0.0,0.0,0.0,0.0,2.0831310805227727,0.0,0.0,0.0,0.0,0.0,0.0,-1.012,0.0,0.0
120,0.0,0.0,0.0,0.0,2.002419921875,0.0,0.0,0.0,0.0,0.0,0.0,2.083598706402372,0.0,0.0,0.0,0.0,0.0,0.0,-1.012,0.0,0.0
121,0.0,0.0,0.0,0.0,2.002419921875,0.0,0.0,0.0,0.0,0.0,0.0,2.08406290179581,0.0,0.0,0.0,0.0,0.0,0.0,-1.012,0.0,0.0
122,0.0,0.0,0.0,0.0,2.002419921875,0.0,0.0,0.0,0.0,0.0,0.0,2.084524656906768,0.0,0.0,0.0,0.0,0.0,0.0,-1.012,0.0,0.0
123,0.0,0.0,0.0,0.0,2.002419921875,0.0,0.0,0.0,0.0,0.0,0.0,2.084973976481145,0.0,0.0,0.0,0.0,0.0,0.0,-1.012,0.0,0.0
124,0.0,0.0,0.0,0.0,2.002419921875,0.0,0.0,0.0,0.0,0.0,0.0,2.085422665481971,0.0,0.0,0.0,0.0,0.0,0.0,-1.012,0.0,0.0
125,0.0,0.0,0.0,0.0,2.002419921875,0.0,0.0,0.0,0.0,0.0,0.0,2.085868830883425,0.0,0.0,0.0,0.0,0.0,0.0,-1.012,0.0,0.0
126,0.0,0.0,0.0,0.0,2.002419921875,0.0,0.0,0.0,0.0,0.0,0.0,2.0863048777006132,0.0,0.0,0.0,0.0,0.0,0.0,-1.012,0.0,0.0
127,0.0,0.0,0.0,0.0,2.002419921875,0.0,0.0,0.0,0.0,0.0,0.0,2.086738417314472,0.0,0.0,0.0,0.0,0.0,0.0,-1.012,0.0,0.0
128,0.0,0.0,0.0,0.0,2.002419921875,0.0,0.0,0.0,0.0,0.0,0.0,2.0871684050160204,0.0,0.0,0.0,0.0,0.0,0.0,-1.012,0.0,0.0
129,0.0,0.0,0.0,0.0,2.002419921875,0.0,0.0,0.0,0.0,0.0,0.0,2.0875904237986527,0.0,0.0,0.0,0.0,0.0,0.0,-1.012,0.0,0.0
130,0.0,0.0,0.0,0.0,2.002419921875,0.0,0.0,0.0,0.0,0.0,0.0,2.0880057170679445,0.0,0.0,0.0,0.0,0.0,0.0,-1.012,0.0,0.0
131,0.0,0.0,0.0,0.0,2.002419921875,0.0,0.0,0.0,0.0,0.0,0.0,2.0884193898554066,0.0,0.0,0.0,0.0,0.0,0.0,-1.012,0.0,0.0
132,0.0,0.0,0.0,0.0,2.002419921875,0.0,0.0,0.0,0.0,0.0,0.0,2.08882186045176,0.0,0.0,0.0,0.0,0.0,0.0,-1.012,0.0,0.0
133,0.0,0.0,0.0,0.0,2.002419921875,0.0,0.0,0.0,0.0,0.0,0.0,2.0892214978773533,0.0,0.0,0.0,0.0,0.0,0.0,-1.012,0.0,0.0
134,0.0,0.0,0.0,0.0,2.002419921875,0.0,0.0,0.0,0.0,0.0,0.0,2.0896303589373884,0.0,0.0,0.0,0.0,0.0,0.0,-1.012,0.0,0.0
135,0.0,0.0,0.0,0.0,2.002419921875,0.0,0.0,0.0,0.0,0.0,0.0,2.090006357838285,0.0,0.0,0.0,0.0,0.0,0.0,-1.012,0.0,0.0
136,0.0,0.0,0.0,0.0,2.002419921875,0.0,0.0,0.0,0.0,0.0,0.0,2.0903894060363877,0.0,0.0,0.0,0.0,0.0,0.0,-1.012,0.0,0.0
137,0.0,0.0,0.0,0.0,2.002419921875,0.0,0.0,0.0,0.0,0.0,0.0,2.090768742036581,0.0,0.0,0.0,0.0,0.0,0.0,-1.012,0.0,0.0
138,0.0,0.0,0.0,0.0,2.002419921875,0.0,0.0,0.0,0.0,0.0,0.0,2.0911380507410366,0.0,0.0,0.0,0.0,0.0,0.0,-1.012,0.0,0.0
139,0.0,0.0,0.0,0.0,2.002419921875,0.0,0.0,0.0,0.0,0.0,0.0,2.091504344310904,0.0,0.0,0.0,0.0,0.0,0.0,-1.012,0.0,0.0
140,0.0,0.0,0.0,0.0,2.002419921875,0.0,0.0,0.0,0.0,0.0,0.0,2.091865721177539,0.0,0.0,0.0,0.0,0.0,0.0,-1.012,0.0,0.0
141,0.0,0.0,0.0,0.0,2.002419921875,0.0,0.0,0.0,0.0,0.0,0.0,2.092221147012715,0.0,0.0,0.0,0.0,0.0,0.0,-1.012,0.0,0.0
142,0.0,0.0,0.0,0.0,2.002419921875,0.0,0.0,0.0,0.0,0.0,0.0,2.09256982468118,0.0,0.0,0.0,0.0,0.0,0.0,-1.012,0.0,0.0
143,0.0,0.0,0.0,0.0,2.002419921875,0.0,0.0,0.0,0.0,0.0,0.0,2.092911667230742,0.0,0.0,0.0,0.0,0.0,0.0,-1.012,0.0,0.0
144,0.0,0.0,0.0,0.0,2.002419921875,0.0,0.0,0.0,0.0,0.0,0.0,2.093245654315038,0.0,0.0,0.0,0.0,0.0,0.0,-1.012,0.0,0.0
145,0.0,0.0,0.0,0.0,2.002419921875,0.0,0.0,0.0,0.0,0.0,0.0,2.0935787596522464,0.0,0.0,0.0,0.0,0.0,0.0,-1.012,0.0,0.0
146,0.0,0.0,0.0,0.0,2.002419921875,0.0,0.0,0.0,0.0,0.0,0.0,2.0939051379906726,0.0,0.0,0.0,0.0,0.0,0.0,-1.012,0.0,0.0
147,0.0,0.0,0.0,0.0,2.002419921875,0.0,0.0,0.0,0.0,0.0,0.0,2.0942249202987493,0.0,0.0,0.0,0.0,0.0,0.0,-1.012,0.0,0.0
148,0.0,0.0,0.0,0.0,2.002419921875,0.0,0.0,0.0,0.0,0.0,0.0,2.0945395587873685,0.0,0.0,0.0,0.0,0.0,0.0,-1.012,0.0,0.0
149,0.0,0.0,0.0,0.0,2.002419921875,0.0,0.0,0.0,0.0,0.0,0.0,2.094847914881582,0.0,0.0,0.0,0.0,0.0,0.0,-1.012,0.0,0.0
150,0.0,0.0,0.0,0.0,2.002419921875,0.0,0.0,0.0,0.0,0.0,0.0,2.095149519170107,0.0,0.0,0.0,0.0,0.0,0.0,-1.012,0.0,0.0
151,0.0,0.0,0.0,0.0,2.002419921875,0.0,0.0,0.0,0.0,0.0,0.0,2.0954470122262214,0.0,0.0,0.0,0.0,0.0,0.0,-1.012,0.0,0.0
152,0.0,0.0,0.0,0.0,2.002419921875,0.0,0.0,0.0,0.0,0.0,0.0,2.0957382161620375,0.0,0.0,0.0,0.0,0.0,0.0,-1.012,0.0,0.0
153,0.0,0.0,0.0,0.0,2.002419921875,0.0,0.0,0.0,0.0,0.0,0.0,2.0960215665907644,0.0,0.0,0.0,0.0,0.0,0.0,-1.012,0.0,0.0
154,0.0,0.0,0.0,0.0,2.002419921875,0.0,0.0,0.0,0.0,0.0,0.0,2.096299167271717,0.0,0.0,0.0,0.0,0.0,0.0,-1.012,0.0,0.0
155,0.0,0.0,0.0,0.0,2.002419921875,0.0,0.0,0.0,0.0,0.0,0.0,2.096571611608506,0.0,0.0,0.0,0.0,0.0,0.0,-1.012,0.0,0.0
156,0.0,0.0,0.0,0.0,2.002419921875,0.0,0.0,0.0,0.0,0.0,0.0,2.0968381431289704,0.0,0.0,0.0,0.0,0.0,0.0,-1.012,0.0,0.0
157,0.0,0.0,0.0,0.0,2.002419921875,0.0,0.0,0.0,0.0,0.0,0.0,2.0971012848067003,0.0,0.0,0.0,0.0,0.0,0.0,-1.012,0.0,0.0
158,0.0,0.0,0.0,0.0,2.002419921875,0.0,0.0,0.0,0.0,0.0,0.0,2.097355803850396,0.0,0.0,0.0,0.0,0.0,0.0,-1.012,0.0,0.0
159,0.0,0.0,0.0,0.0,2.002419921875,0.0,0.0,0.0,0.0,0.0,0.0,2.097601544821279,0.0,0.0,0.0,0.0,0.0,0.0,-1.012,0.0,0.0
160,0.0,0.0,0.0,0.0,2.002419921875,0.0,0.0,0.0,0.0,0.0,0.0,2.097845479627802,0.0,0.0,0.0,0.0,0.0,0.0,-1.012,0.0,0.0
161,0.0,0.0,0.0,0.0,2.002419921875,0.0,0.0,0.0,0.0,0.0,0.0,2.0980828560871347,0.0,0.0,0.0,0.0,0.0,0.0,-1.012,0.0,0.0
162,0.0,0.0,0.0,0.0,2.002419921875,0.0,0.0,0.0,0.0,0.0,0.0,2.098312611292206,0.0,0.0,0.0,0.0,0.0,0.0,-1.012,0.0,0.0
163,0.0,0.0,0.0,0.0,2.002419921875,0.0,0.0,0.0,0.0,0.0,0.0,2.0985358205700217,0.0,0.0,0.0,0.0,0.0,0.0,-1.012,0.0,0.0
164,0.0,0.0,0.0,0.0,2.002419921875,0.0,0.0,0.0,0.0,0.0,0.0,2.098754398220063,0.0,0.0,0.0,0.0,0.0,0.0,-1.012,0.0,0.0
165,0.0,0.0,0.0,0.0,2.002419921875,0.0,0.0,0.0,0.0,0.0,0.0,2.098964281037002,0.0,0.0,0.0,0.0,0.0,0.0,-1.012,0.0,0.0
166,0.0,0.0,0.0,0.0,2.002419921875,0.0,0.0,0.0,0.0,0.0,0.0,2.0991689891352405,0.0,0.0,0.0,0.0,0.0,0.0,-1.012,0.0,0.0
167,0.0,0.0,0.0,0.0,2.002419921875,0.0,0.0,0.0,0.0,0.0,0.0,2.099367902893582,0.0,0.0,0.0,0.0,0.0,0.0,-1.012,0.0,0.0
168,0.0,0.0,0.0,0.0,2.002419921875,0.0,0.0,0.0,0.0,0.0,0.0,2.099564199135804,0.0,0.0,0.0,0.0,0.0,0.0,-1.012,0.0,0.0
169,0.0,0.0,0.0,0.0,2.002419921875,0.0,0.0,0.0,0.0,0.0,0.0,2.09974967736403,0.0,0.0,0.0,0.0,0.0,0.0,-1.012,0.0,0.0
170,0.0,0.0,0.0,0.0,2.002419921875,0.0,0.0,0.0,0.0,0.0,0.0,2.0999312472125067,0.0,0.0,0.0,0.0,0.0,0.0,-1.012,0.0,0.0
171,0.0,0.0,0.0,0.0,2.002419921875,0.0,0.0,0.0,0.0,0.0,0.0,2.100105694666858,0.0,0.0,0.0,0.0,0.0,0.0,-1.012,0.0,0.0
172,0.0,0.0,0.0,0.0,2.002419921875,0.0,0.0,0.0,0.0,0.0,0.0,2.1002720316760746,0.0,0.0,0.0,0.0,0.0,0.0,-1.012,0.0,0.0
173,0.0,0.0,0.0,0.0,2.002419921875,0.0,0.0,0.0,0.0,0.0,0.0,2.1004345760833747,0.0,0.0,0.0,0.0,0.0,0.0,-1.012,0.0,0.0
174,0.0,0.0,0.0,0.0,2.002419921875,0.0,0.0,0.0,0.0,0.0,0.0,2.1005902280560504,0.0,0.0,0.0,0.0,0.0,0.0,-1.012,0.0,0.0
175,0.0,0.0,0.0,0.0,2.002419921875,0.0,0.0,0.0,0.0,0.0,0.0,2.100739433362756,0.0,0.0,0.0,0.0,0.0,0.0,-1.012,0.0,0.0
176,0.0,0.0,0.0,0.0,2.002419921875,0.0,0.0,0.0,0.0,0.0,0.0,2.100882471674409,0.0,0.0,0.0,0.0,0.0,0.0,-1.012,0.0,0.0
177,0.0,0.0,0.0,0.0,2.002419921875,0.0,0.0,0.0,0.0,0.0,0.0,2.1010197015727576,0.0,0.0,0.0,0.0,0.0,0.0,-1.012,0.0,0.0
178,0.0,0.0,0.0,0.0,2.002419921875,0.0,0.0,0.0,0.0,0.0,0.0,2.1011489089544777,0.0,0.0,0.0,0.0,0.0,0.0,-1.012,0.0,0.0
179,0.0,0.0,0.0,0.0,2.002419921875,0.0,0.0,0.0,0.0,0.0,0.0,2.101272725006017,0.0,0.0,0.0,0.0,0.0,0.0,-1.012,0.0,0.0
180,0.0,0.0,0.0,0.0,2.002419921875,0.0,0.0,0.0,0.0,0.0,0.0,2.1013907315555316,0.0,0.0,0.0,0.0,0.0,0.0,-1.012,0.0,0.0
181,0.0,0.0,0.0,0.0,2.002419921875,0.0,0.0,0.0,0.0,0.0,0.0,2.1015022605127753,0.0,0.0,0.0,0.0,0.0,0.0,-1.012,0.0,0.0
182,0.0,0.0,0.0,0.0,2.002419921875,0.0,0.0,0.0,0.0,0.0,0.0,2.1016074034098287,0.0,0.0,0.0,0.0,0.0,0.0,-1.012,0.0,0.0
183,0.0,0.0,0.0,0.0,2.002419921875,0.0,0.0,0.0,0.0,0.0,0.0,2.1017060115345076,0.0,0.0,0.0,0.0,0.0,0.0,-1.012,0.0,0.0
184,0.0,0.0,0.0,0.0,2.002419921875,0.0,0.0,0.0,0.0,0.0,0.0,2.101798185612815,0.0,0.0,0.0,0.0,0.0,0.0,-1.012,0.0,0.0
185,0.0,0.0,0.0,0.0,2.002419921875,0.0,0.0,0.0,0.0,0.0,0.0,2.101884462999235,0.0,0.0,0.0,0.0,0.0,0.0,-1.012,0.0,0.0
186,0.0,0.0,0.0,0.0,2.002419921875,0.0,0.0,0.0,0.0,0.0,0.0,2.1019630098728728,0.0,0.0,0.0,0.0,0.0,0.0,-1.012,0.0,0.0
187,0.0,0.0,0.0,0.0,2.002419921875,0.0,0.0,0.0,0.0,0.0,0.0,2.1020364702323855,0.0,0.0,0.0,0.0,0.0,0.0,-1.012,0.0,0.0
188,0.0,0.0,0.0,0.0,2.002419921875,0.0,0.0,0.0,0.0,0.0,0.0,2.1021033866716454,0.0,0.0,0.0,0.0,0.0,0.0,-1.012,0.0,0.0
189,0.0,0.0,0.0,0.0,2.002419921875,0.0,0.0,0.0,0.0,0.0,0.0,2.1021638678431467,0.0,0.0,0.0,0.0,0.0,0.0,-1.012,0.0,0.0
190,0.0,0.0,0.0,0.0,2.002419921875,0.0,0.0,0.0,0.0,0.0,0.0,2.102217719639087,0.0,0.0,0.0,0.0,0.0,0.0,-1.012,0.0,0.0
191,0.0,0.0,0.0,0.0,2.002419921875,0.0,0.0,0.0,0.0,0.0,0.0,2.102265454611302,0.0,0.0,0.0,0.0,0.0,0.0,-1.012,0.0,0.0
192,0.0,0.0,0.0,0.0,2.002419921875,0.0,0.0,0.0,0.0,0.0,0.0,2.1023068253139408,0.0,0.0,0.0,0.0,0.0,0.0,-1.012,0.0,0.0
193,0.0,0.0,0.0,0.0,2.002419921875,0.0,0.0,0.0,0.0,0.0,0.0,2.1023414247181598,0.0,0.0,0.0,0.0,0.0,0.0,-1.012,0.0,0.0
194,0.0,0.0,0.0,0.0,2.002419921875,0.0,0.0,0.0,0.0,0.0,0.0,2.1023699795648065,0.0,0.0,0.0,0.0,0.0,0.0,-1.012,0.0,0.0
195,0.0,0.0,0.0,0.0,2.002419921875,0.0,0.0,0.0,0.0,0.0,0.0,2.102392095562929,0.0,0.0,0.0,0.0,0.0,0.0,-1.012,0.0,0.0
196,0.0,0.0,0.0,0.0,2.002419921875,0.0,0.0,0.0,0.0,0.0,0.0,2.102407725029991,0.0,0.0,0.0,0.0,0.0,0.0,-1.012,0.0,0.0
197,0.0,0.0,0.0,0.0,2.002419921875,0.0,0.0,0.0,0.0,0.0,0.0,2.1024169996130304,0.0,0.0,0.0,0.0,0.0,0.0,-1.012,0.0,0.0
198,0.0,0.0,0.0,0.0,2.002419921875,0.0,0.0,0.0,0.0,0.0,0.0,2.102419914324717,0.0,0.0,0.0,0.0,0.0,0.0,-1.012,0.0,0.0
199,0.0,0.0,0.0,0.0,2.002419921875,0.0,0.0,0.0,0.0,0.0,0.0,2.1024164074749794,0.0,0.0,0.0,0.0,0.0,0.0,-1.012,0.0,0.0
200,0.0,0.0,0.0,0.0,2.002419921875,0.0,0.0,0.0,0.0,0.0,0.0,2.102406510085178,0.0,0.0,0.0,0.0,0.0,0.0,-1.012,0.0,0.0
201,0.0,0.0,0.0,0.0,2.002419921875,0.0,0.0,0.0,0.0,0.0,0.0,2.102390208804499,0.0,0.0,0.0,0.0,0.0,0.0,-1.012,0.0,0.0
202,0.0,0.0,0.0,0.0,2.002419921875,0.0,0.0,0.0,0.0,0.0,0.0,2.1023675224375324,0.0,0.0,0.0,0.0,0.0,0.0,-1.012,0.0,0.0
203,0.0,0.0,0.0,0.0,2.002419921875,0.0,0.0,0.0,0.0,0.0,0.0,2.102338490515724,0.0,0.0,0.0,0.0,0.0,0.0,-1.012,0.0,0.0
204,0.0,0.0,0.0,0.0,2.002419921875,0.0,0.0,0.0,0.0,0.0,0.0,2.1023029376281936,0.0,0.0,0.0,0.0,0.0,0.0,-1.012,0.0,0.0
205,0.0,0.0,0.0,0.0,2.002419921875,0.0,0.0,0.0,0.0,0.0,0.0,2.1022611471931376,0.0,0.0,0.0,0.0,0.0,0.0,-1.012,0.0,0.0
206,0.0,0.0,0.0,0.0,2.002419921875,0.0,0.0,0.0,0.0,0.0,0.0,2.1022132340639677,0.0,0.0,0.0,0.0,0.0,0.0,-1.012,0.0,0.0
207,0.0,0.0,0.0,0.0,2.002419921875,0.0,0.0,0.0,0.0,0.0,0.0,2.1021580478862716,0.0,0.0,0.0,0.0,0.0,0.0,-1.012,0.0,0.0
208,0.0,0.0,0.0,0.0,2.002419921875,0.0,0.0,0.0,0.0,0.0,0.0,2.1020970950137294,0.0,0.0,0.0,0.0,0.0,0.0,-1.012,0.0,0.0
209,0.0,0.0,0.0,0.0,2.002419921875,0.0,0.0,0.0,0.0,0.0,0.0,2.1020296692163174,0.0,0.0,0.0,0.0,0.0,0.0,-1.012,0.0,0.0
210,0.0,0.0,0.0,0.0,2.002419921875,0.0,0.0,0.0,0.0,0.0,0.0,2.1019559131085384,0.0,0.0,0.0,0.0,0.0,0.0,-1.012,0.0,0.0
211,0.0,0.0,0.0,0.0,2.002419921875,0.0,0.0,0.0,0.0,0.0,0.0,2.1018761924405855,0.0,0.0,0.0,0.0,0.0,0.0,-1.012,0.0,0.0
212,0.0,0.0,0.0,0.0,2.002419921875,0.0,0.0,0.0,0.0,0.0,0.0,2.1017890619900093,0.0,0.0,0.0,0.0,0.0,0.0,-1.012,0.0,0.0
213,0.0,0.0,0.0,0.0,2.002419921875,0.0,0.0,0.0,0.0,0.0,0.0,2.101696145714125,0.0,0.0,0.0,0.0,0.0,0.0,-1.012,0.0,0.0
214,0.0,0.0,0.0,0.0,2.002419921875,0.0,0.0,0.0,0.0,0.0,0.0,2.101596892918616,0.0,0.0,0.0,0.0,0.0,0.0,-1.012,0.0,0.0
215,0.0,0.0,0.0,0.0,2.002419921875,0.0,0.0,0.0,0.0,0.0,0.0,2.101491010149951,0.0,0.0,0.0,0.0,0.0,0.0,-1.012,0.0,0.0
216,0.0,0.0,0.0,0.0,2.002419921875,0.0,0.0,0.0,0.0,0.0,0.0,2.1013792479554687,0.0,0.0,0.0,0.0,0.0,0.0,-1.012,0.0,0.0
217,0.0,0.0,0.0,0.0,2.002419921875,0.0,0.0,0.0,0.0,0.0,0.0,2.1012618049006564,0.0,0.0,0.0,0.0,0.0,0.0,-1.012,0.0,0.0
218,0.0,0.0,0.0,0.0,2.002419921875,0.0,0.0,0.0,0.0,0.0,0.0,2.101137474409494,0.0,0.0,0.0,0.0,0.0,0.0,-1.012,0.0,0.0
219,0.0,0.0,0.0,0.0,2.002419921875,0.0,0.0,0.0,0.0,0.0,0.0,2.101006820159363,0.0,0.0,0.0,0.0,0.0,0.0,-1.012,0.0,0.0
220,0.0,0.0,0.0,0.0,2.002419921875,0.0,0.0,0.0,0.0,0.0,0.0,2.100867912259729,0.0,0.0,0.0,0.0,0.0,0.0,-1.012,0.0,0.0
221,0.0,0.0,0.0,0.0,2.002419921875,0.0,0.0,0.0,0.0,0.0,0.0,2.1007248483154704,0.0,0.0,0.0,0.0,0.0,0.0,-1.012,0.0,0.0
222,0.0,0.0,0.0,0.0,2.002419921875,0.0,0.0,0.0,0.0,0.0,0.0,2.1005748486547633,0.0,0.0,0.0,0.0,0.0,0.0,-1.012,0.0,0.0
223,0.0,0.0,0.0,0.0,2.002419921875,0.0,0.0,0.0,0.0,0.0,0.0,2.1004197593601495,0.0,0.0,0.0,0.0,0.0,0.0,-1.012,0.0,0.0
224,0.0,0.0,0.0,0.0,2.002419921875,0.0,0.0,0.0,0.0,0.0,0.0,2.1002578666238065,0.0,0.0,0.0,0.0,0.0,0.0,-1.012,0.0,0.0
225,0.0,0.0,0.0,0.0,2.002419921875,0.0,0.0,0.0,0.0,0.0,0.0,2.1000896968755436,0.0,0.0,0.0,0.0,0.0,0.0,-1.012,0.0,0.0
226,0.0,0.0,0.0,0.0,2.002419921875,0.0,0.0,0.0,0.0,0.0,0.0,2.0999137917254593,0.0,0.0,0.0,0.0,0.0,0.0,-1.012,0.0,0.0
227,0.0,0.0,0.0,0.0,2.002419921875,0.0,0.0,0.0,0.0,0.0,0.0,2.0997332835686566,0.0,0.0,0.0,0.0,0.0,0.0,-1.012,0.0,0.0
228,0.0,0.0,0.0,0.0,2.002419921875,0.0,0.0,0.0,0.0,0.0,0.0,2.099546455489358,0.0,0.0,0.0,0.0,0.0,0.0,-1.012,0.0,0.0
229,0.0,0.0,0.0,0.0,2.002419921875,0.0,0.0,0.0,0.0,0.0,0.0,2.0993523408599346,0.0,0.0,0.0,0.0,0.0,0.0,-1.012,0.0,0.0
230,0.0,0.0,0.0,0.0,2.002419921875,0.0,0.0,0.0,0.0,0.0,0.0,2.0991530189525287,0.0,0.0,0.0,0.0,0.0,0.0,-1.012,0.0,0.0
231,0.0,0.0,0.0,0.0,2.002419921875,0.0,0.0,0.0,0.0,0.0,0.0,2.0989469678875055,0.0,0.0,0.0,0.0,0.0,0.0,-1.012,0.0,0.0
232,0.0,0.0,0.0,0.0,2.002419921875,0.0,0.0,0.0,0.0,0.0,0.0,2.0987347716323845,0.0,0.0,0.0,0.0,0.0,0.0,-1.012,0.0,0.0
233,0.0,0.0,0.0,0.0,2.002419921875,0.0,0.0,0.0,0.0,0.0,0.0,2.0985169538940864,0.0,0.0,0.0,0.0,0.0,0.0,-1.012,0.0,0.0
234,0.0,0.0,0.0,0.0,2.002419921875,0.0,0.0,0.0,0.0,0.0,0.0,2.0982923812292626,0.0,0.0,0.0,0.0,0.0,0.0,-1.012,0.0,0.0
235,0.0,0.0,0.0,0.0,2.002419921875,0.0,0.0,0.0,0.0,0.0,0.0,2.0980609334763876,0.0,0.0,0.0,0.0,0.0,0.0,-1.012,0.0,0.0
236,0.0,0.0,0.0,0.0,2.002419921875,0.0,0.0,0.0,0.0,0.0,0.0,2.0978248314795125,0.0,0.0,0.0,0.0,0.0,0.0,-1.012,0.0,0.0
237,0.0,0.0,0.0,0.0,2.002419921875,0.0,0.0,0.0,0.0,0.0,0.0,2.097582846375238,0.0,0.0,0.0,0.0,0.0,0.0,-1.012,0.0,0.0
238,0.0,0.0,0.0,0.0,2.002419921875,0.0,0.0,0.0,0.0,0.0,0.0,2.0973340531010662,0.0,0.0,0.0,0.0,0.0,0.0,-1.012,0.0,0.0
239,0.0,0.0,0.0,0.0,2.002419921875,0.0,0.0,0.0,0.0,0.0,0.0,2.0970795505216198,0.0,0.0,0.0,0.0,0.0,0.0,-1.012,0.0,0.0
240,0.0,0.0,0.0,0.0,2.002419921875,0.0,0.0,0.0,0.0,0.0,0.0,2.096815685552386,0.0,0.0,0.0,0.0,0.0,0.0,-1.012,0.0,0.0
241,0.0,0.0,0.0,0.0,2.002419921875,0.0,0.0,0.0,0.0,0.0,0.0,2.0965490976164842,0.0,0.0,0.0,0.0,0.0,0.0,-1.012,0.0,0.0
242,0.0,0.0,0.0,0.0,2.002419921875,0.0,0.0,0.0,0.0,0.0,0.0,2.096277040134069,0.0,0.0,0.0,0.0,0.0,0.0,-1.012,0.0,0.0
243,0.0,0.0,0.0,0.0,2.002419921875,0.0,0.0,0.0,0.0,0.0,0.0,2.095998475746617,0.0,0.0,0.0,0.0,0.0,0.0,-1.012,0.0,0.0
244,0.0,0.0,0.0,0.0,2.002419921875,0.0,0.0,0.0,0.0,0.0,0.0,2.0957132570519086,0.0,0.0,0.0,0.0,0.0,0.0,-1.012,0.0,0.0
245,0.0,0.0,0.0,0.0,2.002419921875,0.0,0.0,0.0,0.0,0.0,0.0,2.095420791712526,0.0,0.0,0.0,0.0,0.0,0.0,-1.012,0.0,0.0
246,0.0,0.0,0.0,0.0,2.002419921875,0.0,0.0,0.0,0.0,0.0,0.0,2.095123910697164,0.0,0.0,0.0,0.0,0.0,0.0,-1.012,0.0,0.0
247,0.0,0.0,0.0,0.0,2.002419921875,0.0,0.0,0.0,0.0,0.0,0.0,2.0948209774961972,0.0,0.0,0.0,0.0,0.0,0.0,-1.012,0.0,0.0
248,0.0,0.0,0.0,0.0,2.002419921875,0.0,0.0,0.0,0.0,0.0,0.0,2.0945137808979224,0.0,0.0,0.0,0.0,0.0,0.0,-1.012,0.0,0.0
249,0.0,0.0,0.0,0.0,2.002419921875,0.0,0.0,0.0,0.0,0.0,0.0,2.0941990713564236,0.0,0.0,0.0,0.0,0.0,0.0,-1.012,0.0,0.0
250,0.0,0.0,0.0,0.0,2.002419921875,0.0,0.0,0.0,0.0,0.0,0.0,2.093877971202064,0.0,0.0,0.0,0.0,0.0,0.0,-1.012,0.0,0.0
251,0.0,0.0,0.0,0.0,2.002419921875,0.0,0.0,0.0,0.0,0.0,0.0,2.0935518550085743,0.0,0.0,0.0,0.0,0.0,0.0,-1.012,0.0,0.0
252,0.0,0.0,0.0,0.0,2.002419921875,0.0,0.0,0.0,0.0,0.0,0.0,2.09321863945033,0.0,0.0,0.0,0.0,0.0,0.0,-1.012,0.0,0.0
253,0.0,0.0,0.0,0.0,2.002419921875,0.0,0.0,0.0,0.0,0.0,0.0,2.092880067893247,0.0,0.0,0.0,0.0,0.0,0.0,-1.012,0.0,0.0
254,0.0,0.0,0.0,0.0,2.002419921875,0.0,0.0,0.0,0.0,0.0,0.0,2.092537344479225,0.0,0.0,0.0,0.0,0.0,0.0,-1.012,0.0,0.0
255,0.0,0.0,0.0,0.0,2.002419921875,0.0,0.0,0.0,0.0,0.0,0.0,2.092187875631625,0.0,0.0,0.0,0.0,0.0,0.0,-1.012,0.0,0.0
256,0.0,0.0,0.0,0.0,2.002419921875,0.0,0.0,0.0,0.0,0.0,0.0,2.091832991996859,0.0,0.0,0.0,0.0,0.0,0.0,-1.012,0.0,0.0
257,0.0,0.0,0.0,0.0,2.002419921875,0.0,0.0,0.0,0.0,0.0,0.0,2.091470397537196,0.0,0.0,0.0,0.0,0.0,0.0,-1.012,0.0,0.0
258,0.0,0.0,0.0,0.0,2.002419921875,0.0,0.0,0.0,0.0,0.0,0.0,2.0911039079390603,0.0,0.0,0.0,0.0,0.0,0.0,-1.012,0.0,0.0
259,0.0,0.0,0.0,0.0,2.002419921875,0.0,0.0,0.0,0.0,0.0,0.0,2.09073126072337,0.0,0.0,0.0,0.0,0.0,0.0,-1.012,0.0,0.0
260,0.0,0.0,0.0,0.0,2.002419921875,0.0,0.0,0.0,0.0,0.0,0.0,2.09035173988594,0.0,0.0,0.0,0.0,0.0,0.0,-1.012,0.0,0.0
261,0.0,0.0,0.0,0.0,2.002419921875,0.0,0.0,0.0,0.0,0.0,0.0,2.0899690211212203,0.0,0.0,0.0,0.0,0.0,0.0,-1.012,0.0,0.0
262,0.0,0.0,0.0,0.0,2.002419921875,0.0,0.0,0.0,0.0,0.0,0.0,2.0895801507715532,0.0,0.0,0.0,0.0,0.0,0.0,-1.012,0.0,0.0
263,0.0,0.0,0.0,0.0,2.002419921875,0.0,0.0,0.0,0.0,0.0,0.0,2.089186181471299,0.0,0.0,0.0,0.0,0.0,0.0,-1.012,0.0,0.0
264,0.0,0.0,0.0,0.0,2.002419921875,0.0,0.0,0.0,0.0,0.0,0.0,2.088785532946011,0.0,0.0,0.0,0.0,0.0,0.0,-1.012,0.0,0.0
265,0.0,0.0,0.0,0.0,2.002419921875,0.0,0.0,0.0,0.0,0.0,0.0,2.088377296343887,0.0,0.0,0.0,0.0,0.0,0.0,-1.012,0.0,0.0
266,0.0,0.0,0.0,0.0,2.002419921875,0.0,0.0,0.0,0.0,0.0,0.0,2.087966985658407,0.0,0.0,0.0,0.0,0.0,0.0,-1.012,0.0,0.0
267,0.0,0.0,0.0,0.0,2.002419921875,0.0,0.0,0.0,0.0,0.0,0.0,2.0875508926036646,0.0,0.0,0.0,0.0,0.0,0.0,-1.012,0.0,0.0
268,0.0,0.0,0.0,0.0,2.002419921875,0.0,0.0,0.0,0.0,0.0,0.0,2.08712793567341,0.0,0.0,0.0,0.0,0.0,0.0,-1.012,0.0,0.0
269,0.0,0.0,0.0,0.0,2.002419921875,0.0,0.0,0.0,0.0,0.0,0.0,2.0867007045722095,0.0,0.0,0.0,0.0,0.0,0.0,-1.012,0.0,0.0
270,0.0,0.0,0.0,0.0,2.002419921875,0.0,0.0,0.0,0.0,0.0,0.0,2.086264904719056,0.0,0.0,0.0,0.0,0.0,0.0,-1.012,0.0,0.0
271,0.0,0.0,0.0,0.0,2.002419921875,0.0,0.0,0.0,0.0,0.0,0.0,2.0858251388777607,0.0,0.0,0.0,0.0,0.0,0.0,-1.012,0.0,0.0
272,0.0,0.0,0.0,0.0,2.002419921875,0.0,0.0,0.0,0.0,0.0,0.0,2.0853848430859148,0.0,0.0,0.0,0.0,0.0,0.0,-1.012,0.0,0.0
273,0.0,0.0,0.0,0.0,2.002419921875,0.0,0.0,0.0,0.0,0.0,0.0,2.0849331625548855,0.0,0.0,0.0,0.0,0.0,0.0,-1.012,0.0,0.0
274,0.0,0.0,0.0,0.0,2.002419921875,0.0,0.0,0.0,0.0,0.0,0.0,2.0844812792293204,0.0,0.0,0.0,0.0,0.0,0.0,-1.012,0.0,0.0
275,0.0,0.0,0.0,0.0,2.002419921875,0.0,0.0,0.0,0.0,0.0,0.0,2.0840210969636948,0.0,0.0,0.0,0.0,0.0,0.0,-1.012,0.0,0.0
276,0.0,0.0,0.0,0.0,2.002419921875,0.0,0.0,0.0,0.0,0.0,0.0,2.0835530747480844,0.0,0.0,0.0,0.0,0.0,0.0,-1.012,0.0,0.0
277,0.0,0.0,0.0,0.0,2.002419921875,0.0,0.0,0.0,0.0,0.0,0.0,2.0830846975349986,0.0,0.0,0.0,0.0,0.0,0.0,-1.012,0.0,0.0
278,0.0,0.0,0.0,0.0,2.002419921875,0.0,0.0,0.0,0.0,0.0,0.0,2.0826098199907364,0.0,0.0,0.0,0.0,0.0,0.0,-1.012,0.0,0.0
279,0.0,0.0,0.0,0.0,2.002419921875,0.0,0.0,0.0,0.0,0.0,0.0,2.0821267808602113,0.0,0.0,0.0,0.0,0.0,0.0,-1.012,0.0,0.0
280,0.0,0.0,0.0,0.0,2.002419921875,0.0,0.0,0.0,0.0,0.0,0.0,2.0816049353080945,0.0,0.0,0.0,0.0,0.0,0.0,-1.012,0.0,0.0
281,0.0,0.0,0.0,0.0,2.002419921875,0.0,0.0,0.0,0.0,0.0,0.0,2.081126814103974,0.0,0.0,0.0,0.0,0.0,0.0,-1.012,0.0,0.0
282,0.0,0.0,0.0,0.0,2.002419921875,0.0,0.0,0.0,0.0,0.0,0.0,2.080656677143585,0.0,0.0,0.0,0.0,0.0,0.0,-1.012,0.0,0.0
283,0.0,0.0,0.0,0.0,2.002419921875,0.0,0.0,0.0,0.0,0.0,0.0,2.08015572180597,0.0,0.0,0.0,0.0,0.0,0.0,-1.012,0.0,0.0
284,0.0,0.0,0.0,0.0,2.002419921875,0.0,0.0,0.0,0.0,0.0,0.0,2.0796520289053158,0.0,0.0,0.0,0.0,0.0,0.0,-1.012,0.0,0.0
285,0.0,0.0,0.0,0.0,2.002419921875,0.0,0.0,0.0,0.0,0.0,0.0,2.0791409615623113,0.0,0.0,0.0,0.0,0.0,0.0,-1.012,0.0,0.0
286,0.0,0.0,0.0,0.0,2.002419921875,0.0,0.0,0.0,0.0,0.0,0.0,2.0786253960572054,0.0,0.0,0.0,0.0,0.0,0.0,-1.012,0.0,0.0
287,0.0,0.0,0.0,0.0,2.002419921875,0.0,0.0,0.0,0.0,0.0,0.0,2.078104429853962,0.0,0.0,0.0,0.0,0.0,0.0,-1.012,0.0,0.0
288,0.0,0.0,0.0,0.0,2.002419921875,0.0,0.0,0.0,0.0,0.0,0.0,2.0775786101717633,0.0,0.0,0.0,0.0,0.0,0.0,-1.012,0.0,0.0
289,0.0,0.0,0.0,0.0,2.002419921875,0.0,0.0,0.0,0.0,0.0,0.0,2.077048884829119,0.0,0.0,0.0,0.0,0.0,0.0,-1.012,0.0,0.0
290,0.0,0.0,0.0,0.0,2.002419921875,0.0,0.0,0.0,0.0,0.0,0.0,2.0765114183122266,0.0,0.0,0.0,0.0,0.0,0.0,-1.012,0.0,0.0
291,0.0,0.0,0.0,0.0,2.002419921875,0.0,0.0,0.0,0.0,0.0,0.0,2.075972162234735,0.0,0.0,0.0,0.0,0.0,0.0,-1.012,0.0,0.0
292,0.0,0.0,0.0,0.0,2.002419921875,0.0,0.0,0.0,0.0,0.0,0.0,2.0754308123326375,0.0,0.0,0.0,0.0,0.0,0.0,-1.012,0.0,0.0
293,0.0,0.0,0.0,0.0,2.002419921875,0.0,0.0,0.0,0.0,0.0,0.0,2.074879727703453,0.0,0.0,0.0,0.0,0.0,0.0,-1.012,0.0,0.0
294,0.0,0.0,0.0,0.0,2.002419921875,0.0,0.0,0.0,0.0,0.0,0.0,2.074322353268064,0.0,0.0,0.0,0.0,0.0,0.0,-1.012,0.0,0.0
295,0.0,0.0,0.0,0.0,2.002419921875,0.0,0.0,0.0,0.0,0.0,0.0,2.0737604756345247,0.0,0.0,0.0,0.0,0.0,0.0,-1.012,0.0,0.0
296,0.0,0.0,0.0,0.0,2.002419921875,0.0,0.0,0.0,0.0,0.0,0.0,2.0731983392166304,0.0,0.0,0.0,0.0,0.0,0.0,-1.012,0.0,0.0
297,0.0,0.0,0.0,0.0,2.002419921875,0.0,0.0,0.0,0.0,0.0,0.0,2.072636234539062,0.0,0.0,0.0,0.0,0.0,0.0,-1.012,0.0,0.0
298,0.0,0.0,0.0,0.0,2.002419921875,0.0,0.0,0.0,0.0,0.0,0.0,2.072061055265584,0.0,0.0,0.0,0.0,0.0,0.0,-1.012,0.0,0.0
299,0.0,0.0,0.0,0.0,2.002419921875,0.0,0.0,0.0,0.0,0.0,0.0,2.071482691448071,0.0,0.0,0.0,0.0,0.0,0.0,-1.012,0.0,0.0
300,0.0,0.0,0.0,0.0,2.002419921875,0.0,0.0,0.0,0.0,0.0,0.0,2.070907048393795,0.0,0.0,0.0,0.0,0.0,0.0,-1.012,0.0,0.0
301,0.0,0.0,0.0,0.0,2.002419921875,0.0,0.0,0.0,0.0,0.0,0.0,2.0703148748932825,0.0,0.0,0.0,0.0,0.0,0.0,-1.012,0.0,0.0
302,0.0,0.0,0.0,0.0,2.002419921875,0.0,0.0,0.0,0.0,0.0,0.0,2.0697289159282337,0.0,0.0,0.0,0.0,0.0,0.0,-1.012,0.0,0.0
303,0.0,0.0,0.0,0.0,2.002419921875,0.0,0.0,0.0,0.0,0.0,0.0,2.0691332164960015,0.0,0.0,0.0,0.0,0.0,0.0,-1.012,0.0,0.0
304,0.0,0.0,0.0,0.0,2.002419921875,0.0,0.0,0.0,0.0,0.0,0.0,2.068539158661823,0.0,0.0,0.0,0.0,0.0,0.0,-1.012,0.0,0.0
305,0.0,0.0,0.0,0.0,2.002419921875,0.0,0.0,0.0,0.0,0.0,0.0,2.0679347008248006,0.0,0.0,0.0,0.0,0.0,0.0,-1.012,0.0,0.0
306,0.0,0.0,0.0,0.0,2.002419921875,0.0,0.0,0.0,0.0,0.0,0.0,2.067330329162744,0.0,0.0,0.0,0.0,0.0,0.0,-1.012,0.0,0.0
307,0.0,0.0,0.0,0.0,2.002419921875,0.0,0.0,0.0,0.0,0.0,0.0,2.0667182970682187,0.0,0.0,0.0,0.0,0.0,0.0,-1.012,0.0,0.0
308,0.0,0.0,0.0,0.0,2.002419921875,0.0,0.0,0.0,0.0,0.0,0.0,2.0661012045747214,0.0,0.0,0.0,0.0,0.0,0.0,-1.012,0.0,0.0
309,0.0,0.0,0.0,0.0,2.002419921875,0.0,0.0,0.0,0.0,0.0,0.0,2.0654828476980334,0.0,0.0,0.0,0.0,0.0,0.0,-1.012,0.0,0.0
310,0.0,0.0,0.0,0.0,2.002419921875,0.0,0.0,0.0,0.0,0.0,0.0,2.0648644091437176,0.0,0.0,0.0,0.0,0.0,0.0,-1.012,0.0,0.0
311,0.0,0.0,0.0,0.0,2.002419921875,0.0,0.0,0.0,0.0,0.0,0.0,2.0642312060616304,0.0,0.0,0.0,0.0,0.0,0.0,-1.012,0.0,0.0
312,0.0,0.0,0.0,0.0,2.002419921875,0.0,0.0,0.0,0.0,0.0,0.0,2.063603909372029,0.0,0.0,0.0,0.0,0.0,0.0,-1.012,0.0,0.0
313,0.0,0.0,0.0,0.0,2.002419921875,0.0,0.0,0.0,0.0,0.0,0.0,2.062973120168747,0.0,0.0,0.0,0.0,0.0,0.0,-1.012,0.0,0.0
314,0.0,0.0,0.0,0.0,2.002419921875,0.0,0.0,0.0,0.0,0.0,0.0,2.06233178428829,0.0,0.0,0.0,0.0,0.0,0.0,-1.012,0.0,0.0
315,0.0,0.0,0.0,0.0,2.002419921875,0.0,0.0,0.0,0.0,0.0,0.0,2.061687856192222,0.0,0.0,0.0,0.0,0.0,0.0,-1.012,0.0,0.0
316,0.0,0.0,0.0,0.0,2.002419921875,0.0,0.0,0.0,0.0,0.0,0.0,2.061042790691273,0.0,0.0,0.0,0.0,0.0,0.0,-1.012,0.0,0.0
317,0.0,0.0,0.0,0.0,2.002419921875,0.0,0.0,0.0,0.0,0.0,0.0,2.0603897285982744,0.0,0.0,0.0,0.0,0.0,0.0,-1.012,0.0,0.0
318,0.0,0.0,0.0,0.0,2.002419921875,0.0,0.0,0.0,0.0,0.0,0.0,2.059741001808317,0.0,0.0,0.0,0.0,0.0,0.0,-1.012,0.0,0.0
319,0.0,0.0,0.0,0.0,2.002419921875,0.0,0.0,0.0,0.0,0.0,0.0,2.059081401409746,0.0,0.0,0.0,0.0,0.0,0.0,-1.012,0.0,0.0
320,0.0,0.0,0.0,0.0,2.002419921875,0.0,0.0,0.0,0.0,0.0,0.0,2.058421278783026,0.0,0.0,0.0,0.0,0.0,0.0,-1.012,0.0,0.0
321,0.0,0.0,0.0,0.0,2.002419921875,0.0,0.0,0.0,0.0,0.0,0.0,2.0577546423775788,0.0,0.0,0.0,0.0,0.0,0.0,-1.012,0.0,0.0
322,0.0,0.0,0.0,0.0,2.002419921875,0.0,0.0,0.0,0.0,0.0,0.0,2.057081966989303,0.0,0.0,0.0,0.0,0.0,0.0,-1.012,0.0,0.0
323,0.0,0.0,0.0,0.0,2.002419921875,0.0,0.0,0.0,0.0,0.0,0.0,2.0564169837253865,0.0,0.0,0.0,0.0,0.0,0.0,-1.012,0.0,0.0
324,0.0,0.0,0.0,0.0,2.002419921875,0.0,0.0,0.0,0.0,0.0,0.0,2.0557460472449685,0.0,0.0,0.0,0.0,0.0,0.0,-1.012,0.0,0.0
325,0.0,0.0,0.0,0.0,2.002419921875,0.0,0.0,0.0,0.0,0.0,0.0,2.0550693557383752,0.0,0.0,0.0,0.0,0.0,0.0,-1.012,0.0,0.0
326,0.0,0.0,0.0,0.0,2.002419921875,0.0,0.0,0.0,0.0,0.0,0.0,2.0543857597229933,0.0,0.0,0.0,0.0,0.0,0.0,-1.012,0.0,0.0
327,0.0,0.0,0.0,0.0,2.002419921875,0.0,0.0,0.0,0.0,0.0,0.0,2.053702242916478,0.0,0.0,0.0,0.0,0.0,0.0,-1.012,0.0,0.0
328,0.0,0.0,0.0,0.0,2.002419921875,0.0,0.0,0.0,0.0,0.0,0.0,2.05301050755514,0.0,0.0,0.0,0.0,0.0,0.0,-1.012,0.0,0.0
329,0.0,0.0,0.0,0.0,2.002419921875,0.0,0.0,0.0,0.0,0.0,0.0,2.0523188257275446,0.0,0.0,0.0,0.0,0.0,0.0,-1.012,0.0,0.0
330,0.0,0.0,0.0,0.0,2.002419921875,0.0,0.0,0.0,0.0,0.0,0.0,2.0516279853192554,0.0,0.0,0.0,0.0,0.0,0.0,-1.012,0.0,0.0
331,0.0,0.0,0.0,0.0,2.002419921875,0.0,0.0,0.0,0.0,0.0,0.0,2.0509166186448,0.0,0.0,0.0,0.0,0.0,0.0,-1.012,0.0,0.0
332,0.0,0.0,0.0,0.0,2.002419921875,0.0,0.0,0.0,0.0,0.0,0.0,2.050224294705623,0.0,0.0,0.0,0.0,0.0,0.0,-1.012,0.0,0.0
333,0.0,0.0,0.0,0.0,2.002419921875,0.0,0.0,0.0,0.0,0.0,0.0,2.049522291591754,0.0,0.0,0.0,0.0,0.0,0.0,-1.012,0.0,0.0
334,0.0,0.0,0.0,0.0,2.002419921875,0.0,0.0,0.0,0.0,0.0,0.0,2.048816447792206,0.0,0.0,0.0,0.0,0.0,0.0,-1.012,0.0,0.0
335,0.0,0.0,0.0,0.0,2.002419921875,0.0,0.0,0.0,0.0,0.0,0.0,2.0481074932548724,0.0,0.0,0.0,0.0,0.0,0.0,-1.012,0.0,0.0
336,0.0,0.0,0.0,0.0,2.002419921875,0.0,0.0,0.0,0.0,0.0,0.0,2.0473915530931914,0.0,0.0,0.0,0.0,0.0,0.0,-1.012,0.0,0.0
337,0.0,0.0,0.0,0.0,2.002419921875,0.0,0.0,0.0,0.0,0.0,0.0,2.046676953467121,0.0,0.0,0.0,0.0,0.0,0.0,-1.012,0.0,0.0
338,0.0,0.0,0.0,0.0,2.002419921875,0.0,0.0,0.0,0.0,0.0,0.0,2.0459556344172447,0.0,0.0,0.0,0.0,0.0,0.0,-1.012,0.0,0.0
339,0.0,0.0,0.0,0.0,2.002419921875,0.0,0.0,0.0,0.0,0.0,0.0,2.045233543512024,0.0,0.0,0.0,0.0,0.0,0.0,-1.012,0.0,0.0
340,0.0,0.0,0.0,0.0,2.002419921875,0.0,0.0,0.0,0.0,0.0,0.0,2.0445129822627246,0.0,0.0,0.0,0.0,0.0,0.0,-1.012,0.0,0.0
341,0.0,0.0,0.0,0.0,2.002419921875,0.0,0.0,0.0,0.0,0.0,0.0,2.0437884352809537,0.0,0.0,0.0,0.0,0.0,0.0,-1.012,0.0,0.0
342,0.0,0.0,0.0,0.0,2.002419921875,0.0,0.0,0.0,0.0,0.0,0.0,2.043050680022469,0.0,0.0,0.0,0.0,0.0,0.0,-1.012,0.0,0.0
343,0.0,0.0,0.0,0.0,2.002419921875,0.0,0.0,0.0,0.0,0.0,0.0,2.0423215473483434,0.0,0.0,0.0,0.0,0.0,0.0,-1.012,0.0,0.0
344,0.0,0.0,0.0,0.0,2.002419921875,0.0,0.0,0.0,0.0,0.0,0.0,2.0415908480739877,0.0,0.0,0.0,0.0,0.0,0.0,-1.012,0.0,0.0
345,0.0,0.0,0.0,0.0,2.002419921875,0.0,0.0,0.0,0.0,0.0,0.0,2.0408484430104834,0.0,0.0,0.0,0.0,0.0,0.0,-1.012,0.0,0.0
346,0.0,0.0,0.0,0.0,2.002419921875,0.0,0.0,0.0,0.0,0.0,0.0,2.040111600716684,0.0,0.0,0.0,0.0,0.0,0.0,-1.012,0.0,0.0
347,0.0,0.0,0.0,0.0,2.002419921875,0.0,0.0,0.0,0.0,0.0,0.0,2.0393708233955414,0.0,0.0,0.0,0.0,0.0,0.0,-1.012,0.0,0.0
348,0.0,0.0,0.0,0.0,2.002419921875,0.0,0.0,0.0,0.0,0.0,0.0,2.038626783499775,0.0,0.0,0.0,0.0,0.0,0.0,-1.012,0.0,0.0
349,0.0,0.0,0.0,0.0,2.002419921875,0.0,0.0,0.0,0.0,0.0,0.0,2.037880358248758,0.0,0.0,0.0,0.0,0.0,0.0,-1.012,0.0,0.0
350,0.0,0.0,0.0,0.0,2.002419921875,0.0,0.0,0.0,0.0,0.0,0.0,2.0371304677835638,0.0,0.0,0.0,0.0,0.0,0.0,-1.012,0.0,0.0
351,0.0,0.0,0.0,0.0,2.002419921875,0.0,0.0,0.0,0.0,0.0,0.0,2.0363712829302822,0.0,0.0,0.0,0.0,0.0,0.0,-1.012,0.0,0.0
352,0.0,0.0,0.0,0.0,2.002419921875,0.0,0.0,0.0,0.0,0.0,0.0,2.035618713870809,0.0,0.0,0.0,0.0,0.0,0.0,-1.012,0.0,0.0
353,0.0,0.0,0.0,0.0,2.002419921875,0.0,0.0,0.0,0.0,0.0,0.0,2.034863700921404,0.0,0.0,0.0,0.0,0.0,0.0,-1.012,0.0,0.0
354,0.0,0.0,0.0,0.0,2.002419921875,0.0,0.0,0.0,0.0,0.0,0.0,2.034102906643611,0.0,0.0,0.0,0.0,0.0,0.0,-1.012,0.0,0.0
355,0.0,0.0,0.0,0.0,2.002419921875,0.0,0.0,0.0,0.0,0.0,0.0,2.0333458546197107,0.0,0.0,0.0,0.0,0.0,0.0,-1.012,0.0,0.0
356,0.0,0.0,0.0,0.0,2.002419921875,0.0,0.0,0.0,0.0,0.0,0.0,2.032585782849525,0.0,0.0,0.0,0.0,0.0,0.0,-1.012,0.0,0.0
357,0.0,0.0,0.0,0.0,2.002419921875,0.0,0.0,0.0,0.0,0.0,0.0,2.0318223123711023,0.0,0.0,0.0,0.0,0.0,0.0,-1.012,0.0,0.0
358,0.0,0.0,0.0,0.0,2.002419921875,0.0,0.0,0.0,0.0,0.0,0.0,2.0310562119675715,0.0,0.0,0.0,0.0,0.0,0.0,-1.012,0.0,0.0
359,0.0,0.0,0.0,0.0,2.002419921875,0.0,0.0,0.0,0.0,0.0,0.0,2.0302847226372362,0.0,0.0,0.0,0.0,0.0,0.0,-1.012,0.0,0.0
360,0.0,0.0,0.0,0.0,2.002419921875,0.0,0.0,0.0,0.0,0.0,0.0,2.029518150726352,0.0,0.0,0.0,0.0,0.0,0.0,-1.012,0.0,0.0
361,0.0,0.0,0.0,0.0,2.002419921875,0.0,0.0,0.0,0.0,0.0,0.0,2.0287463050396317,0.0,0.0,0.0,0.0,0.0,0.0,-1.012,0.0,0.0
362,0.0,0.0,0.0,0.0,2.002419921875,0.0,0.0,0.0,0.0,0.0,0.0,2.027975536488051,0.0,0.0,0.0,0.0,0.0,0.0,-1.012,0.0,0.0
363,0.0,0.0,0.0,0.0,2.002419921875,0.0,0.0,0.0,0.0,0.0,0.0,2.027202234733396,0.0,0.0,0.0,0.0,0.0,0.0,-1.012,0.0,0.0
364,0.0,0.0,0.0,0.0,2.002419921875,0.0,0.0,0.0,0.0,0.0,0.0,2.0264274803866127,0.0,0.0,0.0,0.0,0.0,0.0,-1.012,0.0,0.0
365,0.0,0.0,0.0,0.0,2.002419921875,0.0,0.0,0.0,0.0,0.0,0.0,2.025648559469705,0.0,0.0,0.0,0.0,0.0,0.0,-1.012,0.0,0.0
366,0.0,0.0,0.0,0.0,2.002419921875,0.0,0.0,0.0,0.0,0.0,0.0,2.024867142287468,0.0,0.0,0.0,0.0,0.0,0.0,-1.012,0.0,0.0
367,0.0,0.0,0.0,0.0,2.002419921875,0.0,0.0,0.0,0.0,0.0,0.0,2.024088338276115,0.0,0.0,0.0,0.0,0.0,0.0,-1.012,0.0,0.0
368,0.0,0.0,0.0,0.0,2.002419921875,0.0,0.0,0.0,0.0,0.0,0.0,2.023302892678235,0.0,0.0,0.0,0.0,0.0,0.0,-1.012,0.0,0.0
369,0.0,0.0,0.0,0.0,2.002419921875,0.0,0.0,0.0,0.0,0.0,0.0,2.022525047404888,0.0,0.0,0.0,0.0,0.0,0.0,-1.012,0.0,0.0
370,0.0,0.0,0.0,0.0,2.002419921875,0.0,0.0,0.0,0.0,0.0,0.0,2.0217317282960963,0.0,0.0,0.0,0.0,0.0,0.0,-1.012,0.0,0.0
371,0.0,0.0,0.0,0.0,2.002419921875,0.0,0.0,0.0,0.0,0.0,0.0,2.0209531702293497,0.0,0.0,0.0,0.0,0.0,0.0,-1.012,0.0,0.0
372,0.0,0.0,0.0,0.0,2.002419921875,0.0,0.0,0.0,0.0,0.0,0.0,2.0201652630492712,0.0,0.0,0.0,0.0,0.0,0.0,-1.012,0.0,0.0
373,0.0,0.0,0.0,0.0,2.002419921875,0.0,0.0,0.0,0.0,0.0,0.0,2.019378735592649,0.0,0.0,0.0,0.0,0.0,0.0,-1.012,0.0,0.0
374,0.0,0.0,0.0,0.0,2.002419921875,0.0,0.0,0.0,0.0,0.0,0.0,2.0185873431287047,0.0,0.0,0.0,0.0,0.0,0.0,-1.012,0.0,0.0
375,0.0,0.0,0.0,0.0,2.002419921875,0.0,0.0,0.0,0.0,0.0,0.0,2.017792214449711,0.0,0.0,0.0,0.0,0.0,0.0,-1.012,0.0,0.0
376,0.0,0.0,0.0,0.0,2.002419921875,0.0,0.0,0.0,0.0,0.0,0.0,2.0170049578388007,0.0,0.0,0.0,0.0,0.0,0.0,-1.012,0.0,0.0
377,0.0,0.0,0.0,0.0,2.002419921875,0.0,0.0,0.0,0.0,0.0,0.0,2.0162167009758036,0.0,0.0,0.0,0.0,0.0,0.0,-1.012,0.0,0.0
378,0.0,0.0,0.0,0.0,2.002419921875,0.0,0.0,0.0,0.0,0.0,0.0,2.015424316458486,0.0,0.0,0.0,0.0,0.0,0.0,-1.012,0.0,0.0
379,0.0,0.0,0.0,0.0,2.002419921875,0.0,0.0,0.0,0.0,0.0,0.0,2.0146297564149713,0.0,0.0,0.0,0.0,0.0,0.0,-1.012,0.0,0.0
380,0.0,0.0,0.0,0.0,2.002419921875,0.0,0.0,0.0,0.0,0.0,0.0,2.013835682653827,0.0,0.0,0.0,0.0,0.0,0.0,-1.012,0.0,0.0
381,0.0,0.0,0.0,0.0,2.002419921875,0.0,0.0,0.0,0.0,0.0,0.0,2.0130382426589595,0.0,0.0,0.0,0.0,0.0,0.0,-1.012,0.0,0.0
382,0.0,0.0,0.0,0.0,2.002419921875,0.0,0.0,0.0,0.0,0.0,0.0,2.012240365894226,0.0,0.0,0.0,0.0,0.0,0.0,-1.012,0.0,0.0
383,0.0,0.0,0.0,0.0,2.002419921875,0.0,0.0,0.0,0.0,0.0,0.0,2.0114471951343416,0.0,0.0,0.0,0.0,0.0,0.0,-1.012,0.0,0.0
384,0.0,0.0,0.0,0.0,2.002419921875,0.0,0.0,0.0,0.0,0.0,0.0,2.010654877015414,0.0,0.0,0.0,0.0,0.0,0.0,-1.012,0.0,0.0
385,0.0,0.0,0.0,0.0,2.002419921875,0.0,0.0,0.0,0.0,0.0,0.0,2.0098509680208685,0.0,0.0,0.0,0.0,0.0,0.0,-1.012,0.0,0.0
386,0.0,0.0,0.0,0.0,2.002419921875,0.0,0.0,0.0,0.0,0.0,0.0,2.0090557299689324,0.0,0.0,0.0,0.0,0.0,0.0,-1.012,0.0,0.0
387,0.0,0.0,0.0,0.0,2.002419921875,0.0,0.0,0.0,0.0,0.0,0.0,2.0082565856858245,0.0,0.0,0.0,0.0,0.0,0.0,-1.012,0.0,0.0
388,0.0,0.0,0.0,0.0,2.002419921875,0.0,0.0,0.0,0.0,0.0,0.0,2.0074541717079124,0.0,0.0,0.0,0.0,0.0,0.0,-1.012,0.0,0.0
389,0.0,0.0,0.0,0.0,2.002419921875,0.0,0.0,0.0,0.0,0.0,0.0,2.006652309224522,0.0,0.0,0.0,0.0,0.0,0.0,-1.012,0.0,0.0
390,0.0,0.0,0.0,0.0,2.002419921875,0.0,0.0,0.0,0.0,0.0,0.0,2.005862011660452,0.0,0.0,0.0,0.0,0.0,0.0,-1.012,0.0,0.0
391,0.0,0.0,0.0,0.0,2.002419921875,0.0,0.0,0.0,0.0,0.0,0.0,2.005060706983768,0.0,0.0,0.0,0.0,0.0,0.0,-1.012,0.0,0.0
392,0.0,0.0,0.0,0.0,2.002419921875,0.0,0.0,0.0,0.0,0.0,0.0,2.004255552026759,0.0,0.0,0.0,0.0,0.0,0.0,-1.012,0.0,0.0
393,0.0,0.0,0.0,0.0,2.002419921875,0.0,0.0,0.0,0.0,0.0,0.0,2.0034616451986147,0.0,0.0,0.0,0.0,0.0,0.0,-1.012,0.0,0.0
394,0.0,0.0,0.0,0.0,2.002419921875,0.0,0.0,0.0,0.0,0.0,0.0,2.0026555801432995,0.0,0.0,0.0,0.0,0.0,0.0,-1.012,0.0,0.0
395,0.0,0.0,0.0,0.0,2.002419921875,0.0,0.0,0.0,0.0,0.0,0.0,2.001857586804167,0.0,0.0,0.0,0.0,0.0,0.0,-1.012,0.0,0.0
396,0.0,0.0,0.0,0.0,2.002419921875,0.0,0.0,0.0,0.0,0.0,0.0,2.00106041121488,0.0,0.0,0.0,0.0,0.0,0.0,-1.012,0.0,0.0
397,0.0,0.0,0.0,0.0,2.002419921875,0.0,0.0,0.0,0.0,0.0,0.0,2.0002610337434916,0.0,0.0,0.0,0.0,0.0,0.0,-1.012,0.0,0.0
398,0.0,0.0,0.0,0.0,2.002419921875,0.0,0.0,0.0,0.0,0.0,0.0,1.999455941275992,0.0,0.0,0.0,0.0,0.0,0.0,-1.012,0.0,0.0
399,0.0,0.0,0.0,0.0,2.002419921875,0.0,0.0,0.0,0.0,0.0,0.0,1.9986609522368695,0.0,0.0,0.0,0.0,0.0,0.0,-1.012,0.0,0.0
400,0.0,0.0,0.0,0.0,2.002419921875,0.0,0.0,0.0,0.0,0.0,0.0,1.9978602753434407,0.0,0.0,0.0,0.0,0.0,0.0,-1.012,0.0,0.0
401,0.0,0.0,0.0,0.0,2.002419921875,0.0,0.0,0.0,0.0,0.0,0.0,1.9970599103140683,0.0,0.0,0.0,0.0,0.0,0.0,-1.012,0.0,0.0
402,0.0,0.0,0.0,0.0,2.002419921875,0.0,0.0,0.0,0.0,0.0,0.0,1.9962665906160397,0.0,0.0,0.0,0.0,0.0,0.0,-1.012,0.0,0.0
403,0.0,0.0,0.0,0.0,2.002419921875,0.0,0.0,0.0,0.0,0.0,0.0,1.9954688645686987,0.0,0.0,0.0,0.0,0.0,0.0,-1.012,0.0,0.0
404,0.0,0.0,0.0,0.0,2.002419921875,0.0,0.0,0.0,0.0,0.0,0.0,1.9946636150310055,0.0,0.0,0.0,0.0,0.0,0.0,-1.012,0.0,0.0
405,0.0,0.0,0.0,0.0,2.002419921875,0.0,0.0,0.0,0.0,0.0,0.0,1.9938699502385597,0.0,0.0,0.0,0.0,0.0,0.0,-1.012,0.0,0.0
406,0.0,0.0,0.0,0.0,2.002419921875,0.0,0.0,0.0,0.0,0.0,0.0,1.9930756312433886,0.0,0.0,0.0,0.0,0.0,0.0,-1.012,0.0,0.0
407,0.0,0.0,0.0,0.0,2.002419921875,0.0,0.0,0.0,0.0,0.0,0.0,1.992272513890834,0.0,0.0,0.0,0.0,0.0,0.0,-1.012,0.0,0.0
408,0.0,0.0,0.0,0.0,2.002419921875,0.0,0.0,0.0,0.0,0.0,0.0,1.9914811103658276,0.0,0.0,0.0,0.0,0.0,0.0,-1.012,0.0,0.0
409,0.0,0.0,0.0,0.0,2.002419921875,0.0,0.0,0.0,0.0,0.0,0.0,1.9906837321657496,0.0,0.0,0.0,0.0,0.0,0.0,-1.012,0.0,0.0
410,0.0,0.0,0.0,0.0,2.002419921875,0.0,0.0,0.0,0.0,0.0,0.0,1.989892332675883,0.0,0.0,0.0,0.0,0.0,0.0,-1.012,0.0,0.0
411,0.0,0.0,0.0,0.0,2.002419921875,0.0,0.0,0.0,0.0,0.0,0.0,1.989096436545117,0.0,0.0,0.0,0.0,0.0,0.0,-1.012,0.0,0.0
412,0.0,0.0,0.0,0.0,2.002419921875,0.0,0.0,0.0,0.0,0.0,0.0,1.9883054207009374,0.0,0.0,0.0,0.0,0.0,0.0,-1.012,0.0,0.0
413,0.0,0.0,0.0,0.0,2.002419921875,0.0,0.0,0.0,0.0,0.0,0.0,1.9875171344158984,0.0,0.0,0.0,0.0,0.0,0.0,-1.012,0.0,0.0
414,0.0,0.0,0.0,0.0,2.002419921875,0.0,0.0,0.0,0.0,0.0,0.0,1.9867243501552303,0.0,0.0,0.0,0.0,0.0,0.0,-1.012,0.0,0.0
415,0.0,0.0,0.0,0.0,2.002419921875,0.0,0.0,0.0,0.0,0.0,0.0,1.985930280900108,0.0,0.0,0.0,0.0,0.0,0.0,-1.012,0.0,0.0
416,0.0,0.0,0.0,0.0,2.002419921875,0.0,0.0,0.0,0.0,0.0,0.0,1.9851483068041709,0.0,0.0,0.0,0.0,0.0,0.0,-1.012,0.0,0.0
417,0.0,0.0,0.0,0.0,2.002419921875,0.0,0.0,0.0,0.0,0.0,0.0,1.9843589215518935,0.0,0.0,0.0,0.0,0.0,0.0,-1.012,0.0,0.0
418,0.0,0.0,0.0,0.0,2.002419921875,0.0,0.0,0.0,0.0,0.0,0.0,1.9835705481371306,0.0,0.0,0.0,0.0,0.0,0.0,-1.012,0.0,0.0
419,0.0,0.0,0.0,0.0,2.002419921875,0.0,0.0,0.0,0.0,0.0,0.0,1.9827889421497444,0.0,0.0,0.0,0.0,0.0,0.0,-1.012,0.0,0.0
420,0.0,0.0,0.0,0.0,2.002419921875,0.0,0.0,0.0,0.0,0.0,0.0,1.9819987228578066,0.0,0.0,0.0,0.0,0.0,0.0,-1.012,0.0,0.0
421,0.0,0.0,0.0,0.0,2.002419921875,0.0,0.0,0.0,0.0,0.0,0.0,1.9812171015113411,0.0,0.0,0.0,0.0,0.0,0.0,-1.012,0.0,0.0
422,0.0,0.0,0.0,0.0,2.002419921875,0.0,0.0,0.0,0.0,0.0,0.0,1.9804434768788162,0.0,0.0,0.0,0.0,0.0,0.0,-1.012,0.0,0.0
423,0.0,0.0,0.0,0.0,2.002419921875,0.0,0.0,0.0,0.0,0.0,0.0,1.9796627252998535,0.0,0.0,0.0,0.0,0.0,0.0,-1.012,0.0,0.0
424,0.0,0.0,0.0,0.0,2.002419921875,0.0,0.0,0.0,0.0,0.0,0.0,1.9788840642739192,0.0,0.0,0.0,0.0,0.0,0.0,-1.012,0.0,0.0
425,0.0,0.0,0.0,0.0,2.002419921875,0.0,0.0,0.0,0.0,0.0,0.0,1.9781116473669402,0.0,0.0,0.0,0.0,0.0,0.0,-1.012,0.0,0.0
426,0.0,0.0,0.0,0.0,2.002419921875,0.0,0.0,0.0,0.0,0.0,0.0,1.9773307799476363,0.0,0.0,0.0,0.0,0.0,0.0,-1.012,0.0,0.0
427,0.0,0.0,0.0,0.0,2.002419921875,0.0,0.0,0.0,0.0,0.0,0.0,1.9765521497373966,0.0,0.0,0.0,0.0,0.0,0.0,-1.012,0.0,0.0
428,0.0,0.0,0.0,0.0,2.002419921875,0.0,0.0,0.0,0.0,0.0,0.0,1.9757860066157638,0.0,0.0,0.0,0.0,0.0,0.0,-1.012,0.0,0.0
429,0.0,0.0,0.0,0.0,2.002419921875,0.0,0.0,0.0,0.0,0.0,0.0,1.9750163696825698,0.0,0.0,0.0,0.0,0.0,0.0,-1.012,0.0,0.0
430,0.0,0.0,0.0,0.0,2.002419921875,0.0,0.0,0.0,0.0,0.0,0.0,1.9742456654669334,0.0,0.0,0.0,0.0,0.0,0.0,-1.012,0.0,0.0
431,0.0,0.0,0.0,0.0,2.002419921875,0.0,0.0,0.0,0.0,0.0,0.0,1.9734772860089282,0.0,0.0,0.0,0.0,0.0,0.0,-1.012,0.0,0.0
432,0.0,0.0,0.0,0.0,2.002419921875,0.0,0.0,0.0,0.0,0.0,0.0,1.9727174328634716,0.0,0.0,0.0,0.0,0.0,0.0,-1.012,0.0,0.0
433,0.0,0.0,0.0,0.0,2.002419921875,0.0,0.0,0.0,0.0,0.0,0.0,1.9719543329222455,0.0,0.0,0.0,0.0,0.0,0.0,-1.012,0.0,0.0
434,0.0,0.0,0.0,0.0,2.002419921875,0.0,0.0,0.0,0.0,0.0,0.0,1.971192368215979,0.0,0.0,0.0,0.0,0.0,0.0,-1.012,0.0,0.0
435,0.0,0.0,0.0,0.0,2.002419921875,0.0,0.0,0.0,0.0,0.0,0.0,1.9704345215651216,0.0,0.0,0.0,0.0,0.0,0.0,-1.012,0.0,0.0
436,0.0,0.0,0.0,0.0,2.002419921875,0.0,0.0,0.0,0.0,0.0,0.0,1.9696724441711515,0.0,0.0,0.0,0.0,0.0,0.0,-1.012,0.0,0.0
437,0.0,0.0,0.0,0.0,2.002419921875,0.0,0.0,0.0,0.0,0.0,0.0,1.9689192662877713,0.0,0.0,0.0,0.0,0.0,0.0,-1.012,0.0,0.0
438,0.0,0.0,0.0,0.0,2.002419921875,0.0,0.0,0.0,0.0,0.0,0.0,1.9681630442762732,0.0,0.0,0.0,0.0,0.0,0.0,-1.012,0.0,0.0
439,0.0,0.0,0.0,0.0,2.002419921875,0.0,0.0,0.0,0.0,0.0,0.0,1.967416146223209,0.0,0.0,0.0,0.0,0.0,0.0,-1.012,0.0,0.0
440,0.0,0.0,0.0,0.0,2.002419921875,0.0,0.0,0.0,0.0,0.0,0.0,1.966666319046472,0.0,0.0,0.0,0.0,0.0,0.0,-1.012,0.0,0.0
441,0.0,0.0,0.0,0.0,2.002419921875,0.0,0.0,0.0,0.0,0.0,0.0,1.965916854138672,0.0,0.0,0.0,0.0,0.0,0.0,-1.012,0.0,0.0
442,0.0,0.0,0.0,0.0,2.002419921875,0.0,0.0,0.0,0.0,0.0,0.0,1.9651760489763168,0.0,0.0,0.0,0.0,0.0,0.0,-1.012,0.0,0.0
443,0.0,0.0,0.0,0.0,2.002419921875,0.0,0.0,0.0,0.0,0.0,0.0,1.9644338335608766,0.0,0.0,0.0,0.0,0.0,0.0,-1.012,0.0,0.0
444,0.0,0.0,0.0,0.0,2.002419921875,0.0,0.0,0.0,0.0,0.0,0.0,1.963696728584617,0.0,0.0,0.0,0.0,0.0,0.0,-1.012,0.0,0.0
445,0.0,0.0,0.0,0.0,2.002419921875,0.0,0.0,0.0,0.0,0.0,0.0,1.9629576739421266,0.0,0.0,0.0,0.0,0.0,0.0,-1.012,0.0,0.0
446,0.0,0.0,0.0,0.0,2.002419921875,0.0,0.0,0.0,0.0,0.0,0.0,1.9622294244592207,0.0,0.0,0.0,0.0,0.0,0.0,-1.012,0.0,0.0
447,0.0,0.0,0.0,0.0,2.002419921875,0.0,0.0,0.0,0.0,0.0,0.0,1.9614966424640607,0.0,0.0,0.0,0.0,0.0,0.0,-1.012,0.0,0.0
448,0.0,0.0,0.0,0.0,2.002419921875,0.0,0.0,0.0,0.0,0.0,0.0,1.9607660570396372,0.0,0.0,0.0,0.0,0.0,0.0,-1.012,0.0,0.0
449,0.0,0.0,0.0,0.0,2.002419921875,0.0,0.0,0.0,0.0,0.0,0.0,1.9600403976889136,0.0,0.0,0.0,0.0,0.0,0.0,-1.012,0.0,0.0
450,0.0,0.0,0.0,0.0,2.002419921875,0.0,0.0,0.0,0.0,0.0,0.0,1.9593164329771187,0.0,0.0,0.0,0.0,0.0,0.0,-1.012,0.0,0.0
451,0.0,0.0,0.0,0.0,2.002419921875,0.0,0.0,0.0,0.0,0.0,0.0,1.9585959524577352,0.0,0.0,0.0,0.0,0.0,0.0,-1.012,0.0,0.0
452,0.0,0.0,0.0,0.0,2.002419921875,0.0,0.0,0.0,0.0,0.0,0.0,1.9578789768080163,0.0,0.0,0.0,0.0,0.0,0.0,-1.012,0.0,0.0
453,0.0,0.0,0.0,0.0,2.002419921875,0.0,0.0,0.0,0.0,0.0,0.0,1.9571645060169067,0.0,0.0,0.0,0.0,0.0,0.0,-1.012,0.0,0.0
454,0.0,0.0,0.0,0.0,2.002419921875,0.0,0.0,0.0,0.0,0.0,0.0,1.9564521494611014,0.0,0.0,0.0,0.0,0.0,0.0,-1.012,0.0,0.0
455,0.0,0.0,0.0,0.0,2.002419921875,0.0,0.0,0.0,0.0,0.0,0.0,1.9557440877883263,0.0,0.0,0.0,0.0,0.0,0.0,-1.012,0.0,0.0
456,0.0,0.0,0.0,0.0,2.002419921875,0.0,0.0,0.0,0.0,0.0,0.0,1.955035679817715,0.0,0.0,0.0,0.0,0.0,0.0,-1.012,0.0,0.0
457,0.0,0.0,0.0,0.0,2.002419921875,0.0,0.0,0.0,0.0,0.0,0.0,1.954335108038873,0.0,0.0,0.0,0.0,0.0,0.0,-1.012,0.0,0.0
458,0.0,0.0,0.0,0.0,2.002419921875,0.0,0.0,0.0,0.0,0.0,0.0,1.9536377925183568,0.0,0.0,0.0,0.0,0.0,0.0,-1.012,0.0,0.0
459,0.0,0.0,0.0,0.0,2.002419921875,0.0,0.0,0.0,0.0,0.0,0.0,1.9528753172535007,0.0,0.0,0.0,0.0,0.0,0.0,-1.012,0.0,0.0
460,0.0,0.0,0.0,0.0,2.002419921875,0.0,0.0,0.0,0.0,0.0,0.0,1.9522542350565983,0.0,0.0,0.0,0.0,0.0,0.0,-1.012,0.0,0.0
461,0.0,0.0,0.0,0.0,2.002419921875,0.0,0.0,0.0,0.0,0.0,0.0,1.951567309546735,0.0,0.0,0.0,0.0,0.0,0.0,-1.012,0.0,0.0
462,0.0,0.0,0.0,0.0,2.002419921875,0.0,0.0,0.0,0.0,0.0,0.0,1.9508728342161632,0.0,0.0,0.0,0.0,0.0,0.0,-1.012,0.0,0.0
463,0.0,0.0,0.0,0.0,2.002419921875,0.0,0.0,0.0,0.0,0.0,0.0,1.9501889659982554,0.0,0.0,0.0,0.0,0.0,0.0,-1.012,0.0,0.0
464,0.0,0.0,0.0,0.0,2.002419921875,0.0,0.0,0.0,0.0,0.0,0.0,1.949505996652736,0.0,0.0,0.0,0.0,0.0,0.0,-1.012,0.0,0.0
465,0.0,0.0,0.0,0.0,2.002419921875,0.0,0.0,0.0,0.0,0.0,0.0,1.9488279196824863,0.0,0.0,0.0,0.0,0.0,0.0,-1.012,0.0,0.0
466,0.0,0.0,0.0,0.0,2.002419921875,0.0,0.0,0.0,0.0,0.0,0.0,1.9481542274589179,0.0,0.0,0.0,0.0,0.0,0.0,-1.012,0.0,0.0
467,0.0,0.0,0.0,0.0,2.002419921875,0.0,0.0,0.0,0.0,0.0,0.0,1.9474891561458394,0.0,0.0,0.0,0.0,0.0,0.0,-1.012,0.0,0.0
468,0.0,0.0,0.0,0.0,2.002419921875,0.0,0.0,0.0,0.0,0.0,0.0,1.9468161792705683,0.0,0.0,0.0,0.0,0.0,0.0,-1.012,0.0,0.0
469,0.0,0.0,0.0,0.0,2.002419921875,0.0,0.0,0.0,0.0,0.0,0.0,1.9461570140302222,0.0,0.0,0.0,0.0,0.0,0.0,-1.012,0.0,0.0
470,0.0,0.0,0.0,0.0,2.002419921875,0.0,0.0,0.0,0.0,0.0,0.0,1.9454996814003958,0.0,0.0,0.0,0.0,0.0,0.0,-1.012,0.0,0.0
471,0.0,0.0,0.0,0.0,2.002419921875,0.0,0.0,0.0,0.0,0.0,0.0,1.9448444075142555,0.0,0.0,0.0,0.0,0.0,0.0,-1.012,0.0,0.0
472,0.0,0.0,0.0,0.0,2.002419921875,0.0,0.0,0.0,0.0,0.0,0.0,1.9441941756512457,0.0,0.0,0.0,0.0,0.0,0.0,-1.012,0.0,0.0
473,0.0,0.0,0.0,0.0,2.002419921875,0.0,0.0,0.0,0.0,0.0,0.0,1.9435396301958916,0.0,0.0,0.0,0.0,0.0,0.0,-1.012,0.0,0.0
474,0.0,0.0,0.0,0.0,2.002419921875,0.0,0.0,0.0,0.0,0.0,0.0,1.9428927702171537,0.0,0.0,0.0,0.0,0.0,0.0,-1.012,0.0,0.0
475,0.0,0.0,0.0,0.0,2.002419921875,0.0,0.0,0.0,0.0,0.0,0.0,1.942242539619066,0.0,0.0,0.0,0.0,0.0,0.0,-1.012,0.0,0.0
476,0.0,0.0,0.0,0.0,2.002419921875,0.0,0.0,0.0,0.0,0.0,0.0,1.9416141096480337,0.0,0.0,0.0,0.0,0.0,0.0,-1.012,0.0,0.0
477,0.0,0.0,0.0,0.0,2.002419921875,0.0,0.0,0.0,0.0,0.0,0.0,1.940983161022754,0.0,0.0,0.0,0.0,0.0,0.0,-1.012,0.0,0.0
478,0.0,0.0,0.0,0.0,2.002419921875,0.0,0.0,0.0,0.0,0.0,0.0,1.9403579264373172,0.0,0.0,0.0,0.0,0.0,0.0,-1.012,0.0,0.0
479,0.0,0.0,0.0,0.0,2.002419921875,0.0,0.0,0.0,0.0,0.0,0.0,1.9397362565273248,0.0,0.0,0.0,0.0,0.0,0.0,-1.012,0.0,0.0
480,0.0,0.0,0.0,0.0,2.002419921875,0.0,0.0,0.0,0.0,0.0,0.0,1.9391125276463115,0.0,0.0,0.0,0.0,0.0,0.0,-1.012,0.0,0.0
481,0.0,0.0,0.0,0.0,2.002419921875,0.0,0.0,0.0,0.0,0.0,0.0,1.9384963290041173,0.0,0.0,0.0,0.0,0.0,0.0,-1.012,0.0,0.0
482,0.0,0.0,0.0,0.0,2.002419921875,0.0,0.0,0.0,0.0,0.0,0.0,1.9378809731494318,0.0,0.0,0.0,0.0,0.0,0.0,-1.012,0.0,0.0
483,0.0,0.0,0.0,0.0,2.002419921875,0.0,0.0,0.0,0.0,0.0,0.0,1.9372735398445822,0.0,0.0,0.0,0.0,0.0,0.0,-1.012,0.0,0.0
484,0.0,0.0,0.0,0.0,2.002419921875,0.0,0.0,0.0,0.0,0.0,0.0,1.9366683285354054,0.0,0.0,0.0,0.0,0.0,0.0,-1.012,0.0,0.0
485,0.0,0.0,0.0,0.0,2.002419921875,0.0,0.0,0.0,0.0,0.0,0.0,1.9360681722434314,0.0,0.0,0.0,0.0,0.0,0.0,-1.012,0.0,0.0
486,0.0,0.0,0.0,0.0,2.002419921875,0.0,0.0,0.0,0.0,0.0,0.0,1.9354712921042063,0.0,0.0,0.0,0.0,0.0,0.0,-1.012,0.0,0.0
487,0.0,0.0,0.0,0.0,2.002419921875,0.0,0.0,0.0,0.0,0.0,0.0,1.9348788301857096,0.0,0.0,0.0,0.0,0.0,0.0,-1.012,0.0,0.0
488,0.0,0.0,0.0,0.0,2.002419921875,0.0,0.0,0.0,0.0,0.0,0.0,1.9342900398084257,0.0,0.0,0.0,0.0,0.0,0.0,-1.012,0.0,0.0
489,0.0,0.0,0.0,0.0,2.002419921875,0.0,0.0,0.0,0.0,0.0,0.0,1.9337083130601393,0.0,0.0,0.0,0.0,0.0,0.0,-1.012,0.0,0.0
490,0.0,0.0,0.0,0.0,2.002419921875,0.0,0.0,0.0,0.0,0.0,0.0,1.933128991651196,0.0,0.0,0.0,0.0,0.0,0.0,-1.012,0.0,0.0
491,0.0,0.0,0.0,0.0,2.002419921875,0.0,0.0,0.0,0.0,0.0,0.0,1.9325551327460804,0.0,0.0,0.0,0.0,0.0,0.0,-1.012,0.0,0.0
492,0.0,0.0,0.0,0.0,2.002419921875,0.0,0.0,0.0,0.0,0.0,0.0,1.9319812657464155,0.0,0.0,0.0,0.0,0.0,0.0,-1.012,0.0,0.0
493,0.0,0.0,0.0,0.0,2.002419921875,0.0,0.0,0.0,0.0,0.0,0.0,1.9314198904917113,0.0,0.0,0.0,0.0,0.0,0.0,-1.012,0.0,0.0
494,0.0,0.0,0.0,0.0,2.002419921875,0.0,0.0,0.0,0.0,0.0,0.0,1.9308573557645679,0.0,0.0,0.0,0.0,0.0,0.0,-1.012,0.0,0.0
495,0.0,0.0,0.0,0.0,2.002419921875,0.0,0.0,0.0,0.0,0.0,0.0,1.930302133485733,0.0,0.0,0.0,0.0,0.0,0.0,-1.012,0.0,0.0
496,0.0,0.0,0.0,0.0,2.002419921875,0.0,0.0,0.0,0.0,0.0,0.0,1.9297499201710513,0.0,0.0,0.0,0.0,0.0,0.0,-1.012,0.0,0.0
497,0.0,0.0,0.0,0.0,2.002419921875,0.0,0.0,0.0,0.0,0.0,0.0,1.9292027399961984,0.0,0.0,0.0,0.0,0.0,0.0,-1.012,0.0,0.0
498,0.0,0.0,0.0,0.0,2.002419921875,0.0,0.0,0.0,0.0,0.0,0.0,1.9286604122232813,0.0,0.0,0.0,0.0,0.0,0.0,-1.012,0.0,0.0
499,0.0,0.0,0.0,0.0,2.002419921875,0.0,0.0,0.0,0.0,0.0,0.0,1.9281211415988848,0.0,0.0,0.0,0.0,0.0,0.0,-1.012,0.0,0.0
500,0.0,0.0,0.0,0.0,2.002419921875,0.0,0.0,0.0,0.0,0.0,0.0,1.9275895111154262,0.0,0.0,0.0,0.0,0.0,0.0,-1.012,0.0,0.0
501,0.0,0.0,0.0,0.0,2.002419921875,0.0,0.0,0.0,0.0,0.0,0.0,1.9270610641779387,0.0,0.0,0.0,0.0,0.0,0.0,-1.012,0.0,0.0
502,0.0,0.0,0.0,0.0,2.002419921875,0.0,0.0,0.0,0.0,0.0,0.0,1.926537343782937,0.0,0.0,0.0,0.0,0.0,0.0,-1.012,0.0,0.0
503,0.0,0.0,0.0,0.0,2.002419921875,0.0,0.0,0.0,0.0,0.0,0.0,1.9260196784163501,0.0,0.0,0.0,0.0,0.0,0.0,-1.012,0.0,0.0
504,0.0,0.0,0.0,0.0,2.002419921875,0.0,0.0,0.0,0.0,0.0,0.0,1.9255054953175577,0.0,0.0,0.0,0.0,0.0,0.0,-1.012,0.0,0.0
505,0.0,0.0,0.0,0.0,2.002419921875,0.0,0.0,0.0,0.0,0.0,0.0,1.924996955855292,0.0,0.0,0.0,0.0,0.0,0.0,-1.012,0.0,0.0
506,0.0,0.0,0.0,0.0,2.002419921875,0.0,0.0,0.0,0.0,0.0,0.0,1.9244930198237993,0.0,0.0,0.0,0.0,0.0,0.0,-1.012,0.0,0.0
507,0.0,0.0,0.0,0.0,2.002419921875,0.0,0.0,0.0,0.0,0.0,0.0,1.923994652842361,0.0,0.0,0.0,0.0,0.0,0.0,-1.012,0.0,0.0
508,0.0,0.0,0.0,0.0,2.002419921875,0.0,0.0,0.0,0.0,0.0,0.0,1.9235002292667325,0.0,0.0,0.0,0.0,0.0,0.0,-1.012,0.0,0.0
509,0.0,0.0,0.0,0.0,2.002419921875,0.0,0.0,0.0,0.0,0.0,0.0,1.9230118887465426,0.0,0.0,0.0,0.0,0.0,0.0,-1.012,0.0,0.0
510,0.0,0.0,0.0,0.0,2.002419921875,0.0,0.0,0.0,0.0,0.0,0.0,1.9225273592316683,0.0,0.0,0.0,0.0,0.0,0.0,-1.012,0.0,0.0
511,0.0,0.0,0.0,0.0,2.002419921875,0.0,0.0,0.0,0.0,0.0,0.0,1.922049015831751,0.0,0.0,0.0,0.0,0.0,0.0,-1.012,0.0,0.0
512,0.0,0.0,0.0,0.0,2.002419921875,0.0,0.0,0.0,0.0,0.0,0.0,1.92157563136411,0.0,0.0,0.0,0.0,0.0,0.0,-1.012,0.0,0.0
513,0.0,0.0,0.0,0.0,2.002419921875,0.0,0.0,0.0,0.0,0.0,0.0,1.9211075417874286,0.0,0.0,0.0,0.0,0.0,0.0,-1.012,0.0,0.0
514,0.0,0.0,0.0,0.0,2.002419921875,0.0,0.0,0.0,0.0,0.0,0.0,1.9206441142714785,0.0,0.0,0.0,0.0,0.0,0.0,-1.012,0.0,0.0
515,0.0,0.0,0.0,0.0,2.002419921875,0.0,0.0,0.0,0.0,0.0,0.0,1.9201873720497888,0.0,0.0,0.0,0.0,0.0,0.0,-1.012,0.0,0.0
516,0.0,0.0,0.0,0.0,2.002419921875,0.0,0.0,0.0,0.0,0.0,0.0,1.919734397951855,0.0,0.0,0.0,0.0,0.0,0.0,-1.012,0.0,0.0
517,0.0,0.0,0.0,0.0,2.002419921875,0.0,0.0,0.0,0.0,0.0,0.0,1.9192871596562877,0.0,0.0,0.0,0.0,0.0,0.0,-1.012,0.0,0.0
518,0.0,0.0,0.0,0.0,2.002419921875,0.0,0.0,0.0,0.0,0.0,0.0,1.9188434812928938,0.0,0.0,0.0,0.0,0.0,0.0,-1.012,0.0,0.0
519,0.0,0.0,0.0,0.0,2.002419921875,0.0,0.0,0.0,0.0,0.0,0.0,1.9184056281718673,0.0,0.0,0.0,0.0,0.0,0.0,-1.012,0.0,0.0
520,0.0,0.0,0.0,0.0,2.002419921875,0.0,0.0,0.0,0.0,0.0,0.0,1.9179754614719489,0.0,0.0,0.0,0.0,0.0,0.0,-1.012,0.0,0.0
521,0.0,0.0,0.0,0.0,2.002419921875,0.0,0.0,0.0,0.0,0.0,0.0,1.9175510464293468,0.0,0.0,0.0,0.0,0.0,0.0,-1.012,0.0,0.0
522,0.0,0.0,0.0,0.0,2.002419921875,0.0,0.0,0.0,0.0,0.0,0.0,1.9171298165770232,0.0,0.0,0.0,0.0,0.0,0.0,-1.012,0.0,0.0
523,0.0,0.0,0.0,0.0,2.002419921875,0.0,0.0,0.0,0.0,0.0,0.0,1.9167156788111877,0.0,0.0,0.0,0.0,0.0,0.0,-1.012,0.0,0.0
524,0.0,0.0,0.0,0.0,2.002419921875,0.0,0.0,0.0,0.0,0.0,0.0,1.9163074124375723,0.0,0.0,0.0,0.0,0.0,0.0,-1.012,0.0,0.0
525,0.0,0.0,0.0,0.0,2.002419921875,0.0,0.0,0.0,0.0,0.0,0.0,1.9159019661213126,0.0,0.0,0.0,0.0,0.0,0.0,-1.012,0.0,0.0
526,0.0,0.0,0.0,0.0,2.002419921875,0.0,0.0,0.0,0.0,0.0,0.0,1.9155034941229956,0.0,0.0,0.0,0.0,0.0,0.0,-1.012,0.0,0.0
527,0.0,0.0,0.0,0.0,2.002419921875,0.0,0.0,0.0,0.0,0.0,0.0,1.915110735647736,0.0,0.0,0.0,0.0,0.0,0.0,-1.012,0.0,0.0
528,0.0,0.0,0.0,0.0,2.002419921875,0.0,0.0,0.0,0.0,0.0,0.0,1.9147232603158268,0.0,0.0,0.0,0.0,0.0,0.0,-1.012,0.0,0.0
529,0.0,0.0,0.0,0.0,2.002419921875,0.0,0.0,0.0,0.0,0.0,0.0,1.9143421628881634,0.0,0.0,0.0,0.0,0.0,0.0,-1.012,0.0,0.0
530,0.0,0.0,0.0,0.0,2.002419921875,0.0,0.0,0.0,0.0,0.0,0.0,1.9139657167537911,0.0,0.0,0.0,0.0,0.0,0.0,-1.012,0.0,0.0
531,0.0,0.0,0.0,0.0,2.002419921875,0.0,0.0,0.0,0.0,0.0,0.0,1.9135957074249645,0.0,0.0,0.0,0.0,0.0,0.0,-1.012,0.0,0.0
532,0.0,0.0,0.0,0.0,2.002419921875,0.0,0.0,0.0,0.0,0.0,0.0,1.913230984603962,0.0,0.0,0.0,0.0,0.0,0.0,-1.012,0.0,0.0
533,0.0,0.0,0.0,0.0,2.002419921875,0.0,0.0,0.0,0.0,0.0,0.0,1.9128721078462605,0.0,0.0,0.0,0.0,0.0,0.0,-1.012,0.0,0.0
534,0.0,0.0,0.0,0.0,2.002419921875,0.0,0.0,0.0,0.0,0.0,0.0,1.9125184754625,0.0,0.0,0.0,0.0,0.0,0.0,-1.012,0.0,0.0
535,0.0,0.0,0.0,0.0,2.002419921875,0.0,0.0,0.0,0.0,0.0,0.0,1.9121704708004645,0.0,0.0,0.0,0.0,0.0,0.0,-1.012,0.0,0.0
536,0.0,0.0,0.0,0.0,2.002419921875,0.0,0.0,0.0,0.0,0.0,0.0,1.911829641707456,0.0,0.0,0.0,0.0,0.0,0.0,-1.012,0.0,0.0
537,0.0,0.0,0.0,0.0,2.002419921875,0.0,0.0,0.0,0.0,0.0,0.0,1.9114940258982975,0.0,0.0,0.0,0.0,0.0,0.0,-1.012,0.0,0.0
538,0.0,0.0,0.0,0.0,2.002419921875,0.0,0.0,0.0,0.0,0.0,0.0,1.9111629719015237,0.0,0.0,0.0,0.0,0.0,0.0,-1.012,0.0,0.0
539,0.0,0.0,0.0,0.0,2.002419921875,0.0,0.0,0.0,0.0,0.0,0.0,1.910838467511608,0.0,0.0,0.0,0.0,0.0,0.0,-1.012,0.0,0.0
540,0.0,0.0,0.0,0.0,2.002419921875,0.0,0.0,0.0,0.0,0.0,0.0,1.9105210080511128,0.0,0.0,0.0,0.0,0.0,0.0,-1.012,0.0,0.0
541,0.0,0.0,0.0,0.0,2.002419921875,0.0,0.0,0.0,0.0,0.0,0.0,1.910208644260992,0.0,0.0,0.0,0.0,0.0,0.0,-1.012,0.0,0.0
542,0.0,0.0,0.0,0.0,2.002419921875,0.0,0.0,0.0,0.0,0.0,0.0,1.9099016996781724,0.0,0.0,0.0,0.0,0.0,0.0,-1.012,0.0,0.0
543,0.0,0.0,0.0,0.0,2.002419921875,0.0,0.0,0.0,0.0,0.0,0.0,1.909601222648111,0.0,0.0,0.0,0.0,0.0,0.0,-1.012,0.0,0.0
544,0.0,0.0,0.0,0.0,2.002419921875,0.0,0.0,0.0,0.0,0.0,0.0,1.9093064771773702,0.0,0.0,0.0,0.0,0.0,0.0,-1.012,0.0,0.0
545,0.0,0.0,0.0,0.0,2.002419921875,0.0,0.0,0.0,0.0,0.0,0.0,1.909017576234505,0.0,0.0,0.0,0.0,0.0,0.0,-1.012,0.0,0.0
546,0.0,0.0,0.0,0.0,2.002419921875,0.0,0.0,0.0,0.0,0.0,0.0,1.9087348791129242,0.0,0.0,0.0,0.0,0.0,0.0,-1.012,0.0,0.0
547,0.0,0.0,0.0,0.0,2.002419921875,0.0,0.0,0.0,0.0,0.0,0.0,1.9084583179651442,0.0,0.0,0.0,0.0,0.0,0.0,-1.012,0.0,0.0
548,0.0,0.0,0.0,0.0,2.002419921875,0.0,0.0,0.0,0.0,0.0,0.0,1.9081867391648029,0.0,0.0,0.0,0.0,0.0,0.0,-1.012,0.0,0.0
549,0.0,0.0,0.0,0.0,2.002419921875,0.0,0.0,0.0,0.0,0.0,0.0,1.9079226688549016,0.0,0.0,0.0,0.0,0.0,0.0,-1.012,0.0,0.0
550,0.0,0.0,0.0,0.0,2.002419921875,0.0,0.0,0.0,0.0,0.0,0.0,1.9076636956482624,0.0,0.0,0.0,0.0,0.0,0.0,-1.012,0.0,0.0
551,0.0,0.0,0.0,0.0,2.002419921875,0.0,0.0,0.0,0.0,0.0,0.0,1.9074116212931604,0.0,0.0,0.0,0.0,0.0,0.0,-1.012,0.0,0.0
552,0.0,0.0,0.0,0.0,2.002419921875,0.0,0.0,0.0,0.0,0.0,0.0,1.9071647473305628,0.0,0.0,0.0,0.0,0.0,0.0,-1.012,0.0,0.0
553,0.0,0.0,0.0,0.0,2.002419921875,0.0,0.0,0.0,0.0,0.0,0.0,1.9069241328095747,0.0,0.0,0.0,0.0,0.0,0.0,-1.012,0.0,0.0
554,0.0,0.0,0.0,0.0,2.002419921875,0.0,0.0,0.0,0.0,0.0,0.0,1.9066901898362008,0.0,0.0,0.0,0.0,0.0,0.0,-1.012,0.0,0.0
555,0.0,0.0,0.0,0.0,2.002419921875,0.0,0.0,0.0,0.0,0.0,0.0,1.9064621756466749,0.0,0.0,0.0,0.0,0.0,0.0,-1.012,0.0,0.0
556,0.0,0.0,0.0,0.0,2.002419921875,0.0,0.0,0.0,0.0,0.0,0.0,1.9062399626271949,0.0,0.0,0.0,0.0,0.0,0.0,-1.012,0.0,0.0
557,0.0,0.0,0.0,0.0,2.002419921875,0.0,0.0,0.0,0.0,0.0,0.0,1.9060239733141349,0.0,0.0,0.0,0.0,0.0,0.0,-1.012,0.0,0.0
558,0.0,0.0,0.0,0.0,2.002419921875,0.0,0.0,0.0,0.0,0.0,0.0,1.905814467541812,0.0,0.0,0.0,0.0,0.0,0.0,-1.012,0.0,0.0
559,0.0,0.0,0.0,0.0,2.002419921875,0.0,0.0,0.0,0.0,0.0,0.0,1.9056108525065933,0.0,0.0,0.0,0.0,0.0,0.0,-1.012,0.0,0.0
560,0.0,0.0,0.0,0.0,2.002419921875,0.0,0.0,0.0,0.0,0.0,0.0,1.9054133938835243,0.0,0.0,0.0,0.0,0.0,0.0,-1.012,0.0,0.0
561,0.0,0.0,0.0,0.0,2.002419921875,0.0,0.0,0.0,0.0,0.0,0.0,1.905222395273621,0.0,0.0,0.0,0.0,0.0,0.0,-1.012,0.0,0.0
562,0.0,0.0,0.0,0.0,2.002419921875,0.0,0.0,0.0,0.0,0.0,0.0,1.9050373328621768,0.0,0.0,0.0,0.0,0.0,0.0,-1.012,0.0,0.0
563,0.0,0.0,0.0,0.0,2.002419921875,0.0,0.0,0.0,0.0,0.0,0.0,1.9048586149865732,0.0,0.0,0.0,0.0,0.0,0.0,-1.012,0.0,0.0
564,0.0,0.0,0.0,0.0,2.002419921875,0.0,0.0,0.0,0.0,0.0,0.0,1.9046858018449693,0.0,0.0,0.0,0.0,0.0,0.0,-1.012,0.0,0.0
565,0.0,0.0,0.0,0.0,2.002419921875,0.0,0.0,0.0,0.0,0.0,0.0,1.9045199530156331,0.0,0.0,0.0,0.0,0.0,0.0,-1.012,0.0,0.0
566,0.0,0.0,0.0,0.0,2.002419921875,0.0,0.0,0.0,0.0,0.0,0.0,1.9043599197787076,0.0,0.0,0.0,0.0,0.0,0.0,-1.012,0.0,0.0
567,0.0,0.0,0.0,0.0,2.002419921875,0.0,0.0,0.0,0.0,0.0,0.0,1.9042061542665571,0.0,0.0,0.0,0.0,0.0,0.0,-1.012,0.0,0.0
568,0.0,0.0,0.0,0.0,2.002419921875,0.0,0.0,0.0,0.0,0.0,0.0,1.9040587953700483,0.0,0.0,0.0,0.0,0.0,0.0,-1.012,0.0,0.0
569,0.0,0.0,0.0,0.0,2.002419921875,0.0,0.0,0.0,0.0,0.0,0.0,1.9039177718939393,0.0,0.0,0.0,0.0,0.0,0.0,-1.012,0.0,0.0
570,0.0,0.0,0.0,0.0,2.002419921875,0.0,0.0,0.0,0.0,0.0,0.0,1.9037829551825685,0.0,0.0,0.0,0.0,0.0,0.0,-1.012,0.0,0.0
571,0.0,0.0,0.0,0.0,2.002419921875,0.0,0.0,0.0,0.0,0.0,0.0,1.90365454024743,0.0,0.0,0.0,0.0,0.0,0.0,-1.012,0.0,0.0
572,0.0,0.0,0.0,0.0,2.002419921875,0.0,0.0,0.0,0.0,0.0,0.0,1.9035321874280038,0.0,0.0,0.0,0.0,0.0,0.0,-1.012,0.0,0.0
573,0.0,0.0,0.0,0.0,2.002419921875,0.0,0.0,0.0,0.0,0.0,0.0,1.9034164793572719,0.0,0.0,0.0,0.0,0.0,0.0,-1.012,0.0,0.0
574,0.0,0.0,0.0,0.0,2.002419921875,0.0,0.0,0.0,0.0,0.0,0.0,1.903307031403103,0.0,0.0,0.0,0.0,0.0,0.0,-1.012,0.0,0.0
575,0.0,0.0,0.0,0.0,2.002419921875,0.0,0.0,0.0,0.0,0.0,0.0,1.9032039620104155,0.0,0.0,0.0,0.0,0.0,0.0,-1.012,0.0,0.0
576,0.0,0.0,0.0,0.0,2.002419921875,0.0,0.0,0.0,0.0,0.0,0.0,1.9031071651321754,0.0,0.0,0.0,0.0,0.0,0.0,-1.012,0.0,0.0
577,0.0,0.0,0.0,0.0,2.002419921875,0.0,0.0,0.0,0.0,0.0,0.0,1.903016600256674,0.0,0.0,0.0,0.0,0.0,0.0,-1.012,0.0,0.0
578,0.0,0.0,0.0,0.0,2.002419921875,0.0,0.0,0.0,0.0,0.0,0.0,1.9029324061287738,0.0,0.0,0.0,0.0,0.0,0.0,-1.012,0.0,0.0
579,0.0,0.0,0.0,0.0,2.002419921875,0.0,0.0,0.0,0.0,0.0,0.0,1.902854963108565,0.0,0.0,0.0,0.0,0.0,0.0,-1.012,0.0,0.0
580,0.0,0.0,0.0,0.0,2.002419921875,0.0,0.0,0.0,0.0,0.0,0.0,1.9027834721592334,0.0,0.0,0.0,0.0,0.0,0.0,-1.012,0.0,0.0
581,0.0,0.0,0.0,0.0,2.002419921875,0.0,0.0,0.0,0.0,0.0,0.0,1.9027185204246075,0.0,0.0,0.0,0.0,0.0,0.0,-1.012,0.0,0.0
582,0.0,0.0,0.0,0.0,2.002419921875,0.0,0.0,0.0,0.0,0.0,0.0,1.9026599837771476,0.0,0.0,0.0,0.0,0.0,0.0,-1.012,0.0,0.0
583,0.0,0.0,0.0,0.0,2.002419921875,0.0,0.0,0.0,0.0,0.0,0.0,1.902607684915527,0.0,0.0,0.0,0.0,0.0,0.0,-1.012,0.0,0.0
584,0.0,0.0,0.0,0.0,2.002419921875,0.0,0.0,0.0,0.0,0.0,0.0,1.9025619545306056,0.0,0.0,0.0,0.0,0.0,0.0,-1.012,0.0,0.0
585,0.0,0.0,0.0,0.0,2.002419921875,0.0,0.0,0.0,0.0,0.0,0.0,1.9025224185668623,0.0,0.0,0.0,0.0,0.0,0.0,-1.012,0.0,0.0
586,0.0,0.0,0.0,0.0,2.002419921875,0.0,0.0,0.0,0.0,0.0,0.0,1.9024894608944214,0.0,0.0,0.0,0.0,0.0,0.0,-1.012,0.0,0.0
587,0.0,0.0,0.0,0.0,2.002419921875,0.0,0.0,0.0,0.0,0.0,0.0,1.9024628296452597,0.0,0.0,0.0,0.0,0.0,0.0,-1.012,0.0,0.0
588,0.0,0.0,0.0,0.0,2.002419921875,0.0,0.0,0.0,0.0,0.0,0.0,1.9024423473196892,0.0,0.0,0.0,0.0,0.0,0.0,-1.012,0.0,0.0
589,0.0,0.0,0.0,0.0,2.002419921875,0.0,0.0,0.0,0.0,0.0,0.0,1.9024286274358102,0.0,0.0,0.0,0.0,0.0,0.0,-1.012,0.0,0.0
590,0.0,0.0,0.0,0.0,2.002419921875,0.0,0.0,0.0,0.0,0.0,0.0,1.902421298577029,0.0,0.0,0.0,0.0,0.0,0.0,-1.012,0.0,0.0
591,0.0,0.0,0.0,0.0,2.002419921875,0.0,0.0,0.0,0.0,0.0,0.0,1.9024203066980483,0.0,0.0,0.0,0.0,0.0,0.0,-1.012,0.0,0.0
592,0.0,0.0,0.0,0.0,2.002419921875,0.0,0.0,0.0,0.0,0.0,0.0,1.9024257744269075,0.0,0.0,0.0,0.0,0.0,0.0,-1.012,0.0,0.0
593,0.0,0.0,0.0,0.0,2.002419921875,0.0,0.0,0.0,0.0,0.0,0.0,1.9024376442775008,0.0,0.0,0.0,0.0,0.0,0.0,-1.012,0.0,0.0
594,0.0,0.0,0.0,0.0,2.002419921875,0.0,0.0,0.0,0.0,0.0,0.0,1.9024559600661253,0.0,0.0,0.0,0.0,0.0,0.0,-1.012,0.0,0.0
595,0.0,0.0,0.0,0.0,2.002419921875,0.0,0.0,0.0,0.0,0.0,0.0,1.9024805984614142,0.0,0.0,0.0,0.0,0.0,0.0,-1.012,0.0,0.0
596,0.0,0.0,0.0,0.0,2.002419921875,0.0,0.0,0.0,0.0,0.0,0.0,1.9025114205854614,0.0,0.0,0.0,0.0,0.0,0.0,-1.012,0.0,0.0
597,0.0,0.0,0.0,0.0,2.002419921875,0.0,0.0,0.0,0.0,0.0,0.0,1.90254875936382,0.0,0.0,0.0,0.0,0.0,0.0,-1.012,0.0,0.0
598,0.0,0.0,0.0,0.0,2.002419921875,0.0,0.0,0.0,0.0,0.0,0.0,1.90259278074817,0.0,0.0,0.0,0.0,0.0,0.0,-1.012,0.0,0.0
599,0.0,0.0,0.0,0.0,2.002419921875,0.0,0.0,0.0,0.0,0.0,0.0,1.9026428219424205,0.0,0.0,0.0,0.0,0.0,0.0,-1.012,0.0,0.0
600,0.0,0.0,0.0,0.0,2.002419921875,0.0,0.0,0.0,0.0,0.0,0.0,1.902699303538584,0.0,0.0,0.0,0.0,0.0,0.0,-1.012,0.0,0.0
601,0.0,0.0,0.0,0.0,2.002419921875,0.0,0.0,0.0,0.0,0.0,0.0,1.902762378638361,0.0,0.0,0.0,0.0,0.0,0.0,-1.012,0.0,0.0
602,0.0,0.0,0.0,0.0,2.002419921875,0.0,0.0,0.0,0.0,0.0,0.0,1.9028316589928385,0.0,0.0,0.0,0.0,0.0,0.0,-1.012,0.0,0.0
603,0.0,0.0,0.0,0.0,2.002419921875,0.0,0.0,0.0,0.0,0.0,0.0,1.9029074455745494,0.0,0.0,0.0,0.0,0.0,0.0,-1.012,0.0,0.0
604,0.0,0.0,0.0,0.0,2.002419921875,0.0,0.0,0.0,0.0,0.0,0.0,1.9029897925911734,0.0,0.0,0.0,0.0,0.0,0.0,-1.012,0.0,0.0
605,0.0,0.0,0.0,0.0,2.002419921875,0.0,0.0,0.0,0.0,0.0,0.0,1.903078077172529,0.0,0.0,0.0,0.0,0.0,0.0,-1.012,0.0,0.0
606,0.0,0.0,0.0,0.0,2.002419921875,0.0,0.0,0.0,0.0,0.0,0.0,1.9031725052504749,0.0,0.0,0.0,0.0,0.0,0.0,-1.012,0.0,0.0
607,0.0,0.0,0.0,0.0,2.002419921875,0.0,0.0,0.0,0.0,0.0,0.0,1.903274165708424,0.0,0.0,0.0,0.0,0.0,0.0,-1.012,0.0,0.0
608,0.0,0.0,0.0,0.0,2.002419921875,0.0,0.0,0.0,0.0,0.0,0.0,1.9033814381189231,0.0,0.0,0.0,0.0,0.0,0.0,-1.012,0.0,0.0
609,0.0,0.0,0.0,0.0,2.002419921875,0.0,0.0,0.0,0.0,0.0,0.0,1.903495498198093,0.0,0.0,0.0,0.0,0.0,0.0,-1.012,0.0,0.0
610,0.0,0.0,0.0,0.0,2.002419921875,0.0,0.0,0.0,0.0,0.0,0.0,1.903615730926312,0.0,0.0,0.0,0.0,0.0,0.0,-1.012,0.0,0.0
611,0.0,0.0,0.0,0.0,2.002419921875,0.0,0.0,0.0,0.0,0.0,0.0,1.9037420325234653,0.0,0.0,0.0,0.0,0.0,0.0,-1.012,0.0,0.0
612,0.0,0.0,0.0,0.0,2.002419921875,0.0,0.0,0.0,0.0,0.0,0.0,1.9038743440604873,0.0,0.0,0.0,0.0,0.0,0.0,-1.012,0.0,0.0
613,0.0,0.0,0.0,0.0,2.002419921875,0.0,0.0,0.0,0.0,0.0,0.0,1.9040137264698391,0.0,0.0,0.0,0.0,0.0,0.0,-1.012,0.0,0.0
614,0.0,0.0,0.0,0.0,2.002419921875,0.0,0.0,0.0,0.0,0.0,0.0,1.9041594002024422,0.0,0.0,0.0,0.0,0.0,0.0,-1.012,0.0,0.0
615,0.0,0.0,0.0,0.0,2.002419921875,0.0,0.0,0.0,0.0,0.0,0.0,1.904310894046953,0.0,0.0,0.0,0.0,0.0,0.0,-1.012,0.0,0.0
616,0.0,0.0,0.0,0.0,2.002419921875,0.0,0.0,0.0,0.0,0.0,0.0,1.904469513799694,0.0,0.0,0.0,0.0,0.0,0.0,-1.012,0.0,0.0
617,0.0,0.0,0.0,0.0,2.002419921875,0.0,0.0,0.0,0.0,0.0,0.0,1.9046335702521862,0.0,0.0,0.0,0.0,0.0,0.0,-1.012,0.0,0.0
618,0.0,0.0,0.0,0.0,2.002419921875,0.0,0.0,0.0,0.0,0.0,0.0,1.9048037778048688,0.0,0.0,0.0,0.0,0.0,0.0,-1.012,0.0,0.0
619,0.0,0.0,0.0,0.0,2.002419921875,0.0,0.0,0.0,0.0,0.0,0.0,1.9049808619983157,0.0,0.0,0.0,0.0,0.0,0.0,-1.012,0.0,0.0
620,0.0,0.0,0.0,0.0,2.002419921875,0.0,0.0,0.0,0.0,0.0,0.0,1.9051633839494644,0.0,0.0,0.0,0.0,0.0,0.0,-1.012,0.0,0.0
621,0.0,0.0,0.0,0.0,2.002419921875,0.0,0.0,0.0,0.0,0.0,0.0,1.905352519793567,0.0,0.0,0.0,0.0,0.0,0.0,-1.012,0.0,0.0
622,0.0,0.0,0.0,0.0,2.002419921875,0.0,0.0,0.0,0.0,0.0,0.0,1.9055478676048192,0.0,0.0,0.0,0.0,0.0,0.0,-1.012,0.0,0.0
623,0.0,0.0,0.0,0.0,2.002419921875,0.0,0.0,0.0,0.0,0.0,0.0,1.905749361645992,0.0,0.0,0.0,0.0,0.0,0.0,-1.012,0.0,0.0
624,0.0,0.0,0.0,0.0,2.002419921875,0.0,0.0,0.0,0.0,0.0,0.0,1.9059570851704175,0.0,0.0,0.0,0.0,0.0,0.0,-1.012,0.0,0.0
625,0.0,0.0,0.0,0.0,2.002419921875,0.0,0.0,0.0,0.0,0.0,0.0,1.906170604971493,0.0,0.0,0.0,0.0,0.0,0.0,-1.012,0.0,0.0
626,0.0,0.0,0.0,0.0,2.002419921875,0.0,0.0,0.0,0.0,0.0,0.0,1.9063921108316262,0.0,0.0,0.0,0.0,0.0,0.0,-1.012,0.0,0.0
627,0.0,0.0,0.0,0.0,2.002419921875,0.0,0.0,0.0,0.0,0.0,0.0,1.90661839499909,0.0,0.0,0.0,0.0,0.0,0.0,-1.012,0.0,0.0
628,0.0,0.0,0.0,0.0,2.002419921875,0.0,0.0,0.0,0.0,0.0,0.0,1.9068511573677889,0.0,0.0,0.0,0.0,0.0,0.0,-1.012,0.0,0.0
629,0.0,0.0,0.0,0.0,2.002419921875,0.0,0.0,0.0,0.0,0.0,0.0,1.907091216762531,0.0,0.0,0.0,0.0,0.0,0.0,-1.012,0.0,0.0
630,0.0,0.0,0.0,0.0,2.002419921875,0.0,0.0,0.0,0.0,0.0,0.0,1.9073334897867786,0.0,0.0,0.0,0.0,0.0,0.0,-1.012,0.0,0.0
631,0.0,0.0,0.0,0.0,2.002419921875,0.0,0.0,0.0,0.0,0.0,0.0,1.9075849783142262,0.0,0.0,0.0,0.0,0.0,0.0,-1.012,0.0,0.0
632,0.0,0.0,0.0,0.0,2.002419921875,0.0,0.0,0.0,0.0,0.0,0.0,1.907843093195487,0.0,0.0,0.0,0.0,0.0,0.0,-1.012,0.0,0.0
633,0.0,0.0,0.0,0.0,2.002419921875,0.0,0.0,0.0,0.0,0.0,0.0,1.9081064974498914,0.0,0.0,0.0,0.0,0.0,0.0,-1.012,0.0,0.0
634,0.0,0.0,0.0,0.0,2.002419921875,0.0,0.0,0.0,0.0,0.0,0.0,1.908373321965908,0.0,0.0,0.0,0.0,0.0,0.0,-1.012,0.0,0.0
635,0.0,0.0,0.0,0.0,2.002419921875,0.0,0.0,0.0,0.0,0.0,0.0,1.908650239751196,0.0,0.0,0.0,0.0,0.0,0.0,-1.012,0.0,0.0
636,0.0,0.0,0.0,0.0,2.002419921875,0.0,0.0,0.0,0.0,0.0,0.0,1.908930571178728,0.0,0.0,0.0,0.0,0.0,0.0,-1.012,0.0,0.0
637,0.0,0.0,0.0,0.0,2.002419921875,0.0,0.0,0.0,0.0,0.0,0.0,1.9092168109947658,0.0,0.0,0.0,0.0,0.0,0.0,-1.012,0.0,0.0
638,0.0,0.0,0.0,0.0,2.002419921875,0.0,0.0,0.0,0.0,0.0,0.0,1.9095104333905708,0.0,0.0,0.0,0.0,0.0,0.0,-1.012,0.0,0.0
639,0.0,0.0,0.0,0.0,2.002419921875,0.0,0.0,0.0,0.0,0.0,0.0,1.9098071895777475,0.0,0.0,0.0,0.0,0.0,0.0,-1.012,0.0,0.0
640,0.0,0.0,0.0,0.0,2.002419921875,0.0,0.0,0.0,0.0,0.0,0.0,1.9101129382133846,0.0,0.0,0.0,0.0,0.0,0.0,-1.012,0.0,0.0
641,0.0,0.0,0.0,0.0,2.002419921875,0.0,0.0,0.0,0.0,0.0,0.0,1.9104254412479884,0.0,0.0,0.0,0.0,0.0,0.0,-1.012,0.0,0.0
642,0.0,0.0,0.0,0.0,2.002419921875,0.0,0.0,0.0,0.0,0.0,0.0,1.9107396278819422,0.0,0.0,0.0,0.0,0.0,0.0,-1.012,0.0,0.0
643,0.0,0.0,0.0,0.0,2.002419921875,0.0,0.0,0.0,0.0,0.0,0.0,1.9110625495411317,0.0,0.0,0.0,0.0,0.0,0.0,-1.012,0.0,0.0
644,0.0,0.0,0.0,0.0,2.002419921875,0.0,0.0,0.0,0.0,0.0,0.0,1.9113916683610563,0.0,0.0,0.0,0.0,0.0,0.0,-1.012,0.0,0.0
645,0.0,0.0,0.0,0.0,2.002419921875,0.0,0.0,0.0,0.0,0.0,0.0,1.9117257353104333,0.0,0.0,0.0,0.0,0.0,0.0,-1.012,0.0,0.0
646,0.0,0.0,0.0,0.0,2.002419921875,0.0,0.0,0.0,0.0,0.0,0.0,1.9120654665992907,0.0,0.0,0.0,0.0,0.0,0.0,-1.012,0.0,0.0
647,0.0,0.0,0.0,0.0,2.002419921875,0.0,0.0,0.0,0.0,0.0,0.0,1.9124135511285296,0.0,0.0,0.0,0.0,0.0,0.0,-1.012,0.0,0.0
648,0.0,0.0,0.0,0.0,2.002419921875,0.0,0.0,0.0,0.0,0.0,0.0,1.912760818528618,0.0,0.0,0.0,0.0,0.0,0.0,-1.012,0.0,0.0
649,0.0,0.0,0.0,0.0,2.002419921875,0.0,0.0,0.0,0.0,0.0,0.0,1.9131175762324666,0.0,0.0,0.0,0.0,0.0,0.0,-1.012,0.0,0.0
650,0.0,0.0,0.0,0.0,2.002419921875,0.0,0.0,0.0,0.0,0.0,0.0,1.9134822689116935,0.0,0.0,0.0,0.0,0.0,0.0,-1.012,0.0,0.0
651,0.0,0.0,0.0,0.0,2.002419921875,0.0,0.0,0.0,0.0,0.0,0.0,1.9138515948642396,0.0,0.0,0.0,0.0,0.0,0.0,-1.012,0.0,0.0
652,0.0,0.0,0.0,0.0,2.002419921875,0.0,0.0,0.0,0.0,0.0,0.0,1.914223743987237,0.0,0.0,0.0,0.0,0.0,0.0,-1.012,0.0,0.0
653,0.0,0.0,0.0,0.0,2.002419921875,0.0,0.0,0.0,0.0,0.0,0.0,1.9146064472082536,0.0,0.0,0.0,0.0,0.0,0.0,-1.012,0.0,0.0
654,0.0,0.0,0.0,0.0,2.002419921875,0.0,0.0,0.0,0.0,0.0,0.0,1.914988956051224,0.0,0.0,0.0,0.0,0.0,0.0,-1.012,0.0,0.0
655,0.0,0.0,0.0,0.0,2.002419921875,0.0,0.0,0.0,0.0,0.0,0.0,1.915381706361268,0.0,0.0,0.0,0.0,0.0,0.0,-1.012,0.0,0.0
656,0.0,0.0,0.0,0.0,2.002419921875,0.0,0.0,0.0,0.0,0.0,0.0,1.9157794265376544,0.0,0.0,0.0,0.0,0.0,0.0,-1.012,0.0,0.0
657,0.0,0.0,0.0,0.0,2.002419921875,0.0,0.0,0.0,0.0,0.0,0.0,1.9161798816675701,0.0,0.0,0.0,0.0,0.0,0.0,-1.012,0.0,0.0
658,0.0,0.0,0.0,0.0,2.002419921875,0.0,0.0,0.0,0.0,0.0,0.0,1.9165879899422162,0.0,0.0,0.0,0.0,0.0,0.0,-1.012,0.0,0.0
659,0.0,0.0,0.0,0.0,2.002419921875,0.0,0.0,0.0,0.0,0.0,0.0,1.916998308879624,0.0,0.0,0.0,0.0,0.0,0.0,-1.012,0.0,0.0
660,0.0,0.0,0.0,0.0,2.002419921875,0.0,0.0,0.0,0.0,0.0,0.0,1.917419925833046,0.0,0.0,0.0,0.0,0.0,0.0,-1.012,0.0,0.0
661,0.0,0.0,0.0,0.0,2.002419921875,0.0,0.0,0.0,0.0,0.0,0.0,1.917845308729395,0.0,0.0,0.0,0.0,0.0,0.0,-1.012,0.0,0.0
662,0.0,0.0,0.0,0.0,2.002419921875,0.0,0.0,0.0,0.0,0.0,0.0,1.9182734460209376,0.0,0.0,0.0,0.0,0.0,0.0,-1.012,0.0,0.0
663,0.0,0.0,0.0,0.0,2.002419921875,0.0,0.0,0.0,0.0,0.0,0.0,1.9187093014452357,0.0,0.0,0.0,0.0,0.0,0.0,-1.012,0.0,0.0
664,0.0,0.0,0.0,0.0,2.002419921875,0.0,0.0,0.0,0.0,0.0,0.0,1.91915010379032,0.0,0.0,0.0,0.0,0.0,0.0,-1.012,0.0,0.0
665,0.0,0.0,0.0,0.0,2.002419921875,0.0,0.0,0.0,0.0,0.0,0.0,1.91959525331007,0.0,0.0,0.0,0.0,0.0,0.0,-1.012,0.0,0.0
666,0.0,0.0,0.0,0.0,2.002419921875,0.0,0.0,0.0,0.0,0.0,0.0,1.920047184308567,0.0,0.0,0.0,0.0,0.0,0.0,-1.012,0.0,0.0
667,0.0,0.0,0.0,0.0,2.002419921875,0.0,0.0,0.0,0.0,0.0,0.0,1.9205022551504567,0.0,0.0,0.0,0.0,0.0,0.0,-1.012,0.0,0.0
668,0.0,0.0,0.0,0.0,2.002419921875,0.0,0.0,0.0,0.0,0.0,0.0,1.9209628743832574,0.0,0.0,0.0,0.0,0.0,0.0,-1.012,0.0,0.0
669,0.0,0.0,0.0,0.0,2.002419921875,0.0,0.0,0.0,0.0,0.0,0.0,1.9214270324739051,0.0,0.0,0.0,0.0,0.0,0.0,-1.012,0.0,0.0
670,0.0,0.0,0.0,0.0,2.002419921875,0.0,0.0,0.0,0.0,0.0,0.0,1.9218989882726965,0.0,0.0,0.0,0.0,0.0,0.0,-1.012,0.0,0.0
671,0.0,0.0,0.0,0.0,2.002419921875,0.0,0.0,0.0,0.0,0.0,0.0,1.9223730709422973,0.0,0.0,0.0,0.0,0.0,0.0,-1.012,0.0,0.0
672,0.0,0.0,0.0,0.0,2.002419921875,0.0,0.0,0.0,0.0,0.0,0.0,1.9228618169183693,0.0,0.0,0.0,0.0,0.0,0.0,-1.012,0.0,0.0
673,0.0,0.0,0.0,0.0,2.002419921875,0.0,0.0,0.0,0.0,0.0,0.0,1.923344586271291,0.0,0.0,0.0,0.0,0.0,0.0,-1.012,0.0,0.0
674,0.0,0.0,0.0,0.0,2.002419921875,0.0,0.0,0.0,0.0,0.0,0.0,1.9238411127611688,0.0,0.0,0.0,0.0,0.0,0.0,-1.012,0.0,0.0
675,0.0,0.0,0.0,0.0,2.002419921875,0.0,0.0,0.0,0.0,0.0,0.0,1.9243384777509027,0.0,0.0,0.0,0.0,0.0,0.0,-1.012,0.0,0.0
676,0.0,0.0,0.0,0.0,2.002419921875,0.0,0.0,0.0,0.0,0.0,0.0,1.9248386627865066,0.0,0.0,0.0,0.0,0.0,0.0,-1.012,0.0,0.0
677,0.0,0.0,0.0,0.0,2.002419921875,0.0,0.0,0.0,0.0,0.0,0.0,1.9253468702999452,0.0,0.0,0.0,0.0,0.0,0.0,-1.012,0.0,0.0
678,0.0,0.0,0.0,0.0,2.002419921875,0.0,0.0,0.0,0.0,0.0,0.0,1.9258597345648163,0.0,0.0,0.0,0.0,0.0,0.0,-1.012,0.0,0.0
679,0.0,0.0,0.0,0.0,2.002419921875,0.0,0.0,0.0,0.0,0.0,0.0,1.926378081302109,0.0,0.0,0.0,0.0,0.0,0.0,-1.012,0.0,0.0
680,0.0,0.0,0.0,0.0,2.002419921875,0.0,0.0,0.0,0.0,0.0,0.0,1.9268996302855406,0.0,0.0,0.0,0.0,0.0,0.0,-1.012,0.0,0.0
681,0.0,0.0,0.0,0.0,2.002419921875,0.0,0.0,0.0,0.0,0.0,0.0,1.9274262191934246,0.0,0.0,0.0,0.0,0.0,0.0,-1.012,0.0,0.0
682,0.0,0.0,0.0,0.0,2.002419921875,0.0,0.0,0.0,0.0,0.0,0.0,1.927960010031609,0.0,0.0,0.0,0.0,0.0,0.0,-1.012,0.0,0.0
683,0.0,0.0,0.0,0.0,2.002419921875,0.0,0.0,0.0,0.0,0.0,0.0,1.9284920931360234,0.0,0.0,0.0,0.0,0.0,0.0,-1.012,0.0,0.0
684,0.0,0.0,0.0,0.0,2.002419921875,0.0,0.0,0.0,0.0,0.0,0.0,1.9290292598463687,0.0,0.0,0.0,0.0,0.0,0.0,-1.012,0.0,0.0
685,0.0,0.0,0.0,0.0,2.002419921875,0.0,0.0,0.0,0.0,0.0,0.0,1.9295783476173594,0.0,0.0,0.0,0.0,0.0,0.0,-1.012,0.0,0.0
686,0.0,0.0,0.0,0.0,2.002419921875,0.0,0.0,0.0,0.0,0.0,0.0,1.9301292153724685,0.0,0.0,0.0,0.0,0.0,0.0,-1.012,0.0,0.0
687,0.0,0.0,0.0,0.0,2.002419921875,0.0,0.0,0.0,0.0,0.0,0.0,1.9306828300124887,0.0,0.0,0.0,0.0,0.0,0.0,-1.012,0.0,0.0
688,0.0,0.0,0.0,0.0,2.002419921875,0.0,0.0,0.0,0.0,0.0,0.0,1.931243651238282,0.0,0.0,0.0,0.0,0.0,0.0,-1.012,0.0,0.0
689,0.0,0.0,0.0,0.0,2.002419921875,0.0,0.0,0.0,0.0,0.0,0.0,1.9318068994253357,0.0,0.0,0.0,0.0,0.0,0.0,-1.012,0.0,0.0
690,0.0,0.0,0.0,0.0,2.002419921875,0.0,0.0,0.0,0.0,0.0,0.0,1.9323764212019174,0.0,0.0,0.0,0.0,0.0,0.0,-1.012,0.0,0.0
691,0.0,0.0,0.0,0.0,2.002419921875,0.0,0.0,0.0,0.0,0.0,0.0,1.9329513026931235,0.0,0.0,0.0,0.0,0.0,0.0,-1.012,0.0,0.0
692,0.0,0.0,0.0,0.0,2.002419921875,0.0,0.0,0.0,0.0,0.0,0.0,1.9335280983388954,0.0,0.0,0.0,0.0,0.0,0.0,-1.012,0.0,0.0
693,0.0,0.0,0.0,0.0,2.002419921875,0.0,0.0,0.0,0.0,0.0,0.0,1.9341115603730867,0.0,0.0,0.0,0.0,0.0,0.0,-1.012,0.0,0.0
694,0.0,0.0,0.0,0.0,2.002419921875,0.0,0.0,0.0,0.0,0.0,0.0,1.9346977870350839,0.0,0.0,0.0,0.0,0.0,0.0,-1.012,0.0,0.0
695,0.0,0.0,0.0,0.0,2.002419921875,0.0,0.0,0.0,0.0,0.0,0.0,1.9353169198817337,0.0,0.0,0.0,0.0,0.0,0.0,-1.012,0.0,0.0
696,0.0,0.0,0.0,0.0,2.002419921875,0.0,0.0,0.0,0.0,0.0,0.0,1.9358766029870802,0.0,0.0,0.0,0.0,0.0,0.0,-1.012,0.0,0.0
697,0.0,0.0,0.0,0.0,2.002419921875,0.0,0.0,0.0,0.0,0.0,0.0,1.9365062659389782,0.0,0.0,0.0,0.0,0.0,0.0,-1.012,0.0,0.0
698,0.0,0.0,0.0,0.0,2.002419921875,0.0,0.0,0.0,0.0,0.0,0.0,1.937267333955871,0.0,0.0,0.0,0.0,0.0,0.0,-1.012,0.0,0.0
699,0.0,0.0,0.0,0.0,2.002419921875,0.0,0.0,0.0,0.0,0.0,0.0,1.9377863529115036,0.0,0.0,0.0,0.0,0.0,0.0,-1.012,0.0,0.0
700,0.0,0.0,0.0,0.0,2.002419921875,0.0,0.0,0.0,0.0,0.0,0.0,1.9383004022798986,0.0,0.0,0.0,0.0,0.0,0.0,-1.012,0.0,0.0
701,0.0,0.0,0.0,0.0,2.002419921875,0.0,0.0,0.0,0.0,0.0,0.0,1.9389157303896083,0.0,0.0,0.0,0.0,0.0,0.0,-1.012,0.0,0.0
702,0.0,0.0,0.0,0.0,2.002419921875,0.0,0.0,0.0,0.0,0.0,0.0,1.9395377840710282,0.0,0.0,0.0,0.0,0.0,0.0,-1.012,0.0,0.0
703,0.0,0.0,0.0,0.0,2.002419921875,0.0,0.0,0.0,0.0,0.0,0.0,1.940164082748766,0.0,0.0,0.0,0.0,0.0,0.0,-1.012,0.0,0.0
704,0.0,0.0,0.0,0.0,2.002419921875,0.0,0.0,0.0,0.0,0.0,0.0,1.940791630637822,0.0,0.0,0.0,0.0,0.0,0.0,-1.012,0.0,0.0
705,0.0,0.0,0.0,0.0,2.002419921875,0.0,0.0,0.0,0.0,0.0,0.0,1.9414225421622016,0.0,0.0,0.0,0.0,0.0,0.0,-1.012,0.0,0.0
706,0.0,0.0,0.0,0.0,2.002419921875,0.0,0.0,0.0,0.0,0.0,0.0,1.9420604617001276,0.0,0.0,0.0,0.0,0.0,0.0,-1.012,0.0,0.0
707,0.0,0.0,0.0,0.0,2.002419921875,0.0,0.0,0.0,0.0,0.0,0.0,1.942699698731249,0.0,0.0,0.0,0.0,0.0,0.0,-1.012,0.0,0.0
708,0.0,0.0,0.0,0.0,2.002419921875,0.0,0.0,0.0,0.0,0.0,0.0,1.9433441828425198,0.0,0.0,0.0,0.0,0.0,0.0,-1.012,0.0,0.0
709,0.0,0.0,0.0,0.0,2.002419921875,0.0,0.0,0.0,0.0,0.0,0.0,1.943990182998091,0.0,0.0,0.0,0.0,0.0,0.0,-1.012,0.0,0.0
710,0.0,0.0,0.0,0.0,2.002419921875,0.0,0.0,0.0,0.0,0.0,0.0,1.944642055271363,0.0,0.0,0.0,0.0,0.0,0.0,-1.012,0.0,0.0
711,0.0,0.0,0.0,0.0,2.002419921875,0.0,0.0,0.0,0.0,0.0,0.0,1.945296663490501,0.0,0.0,0.0,0.0,0.0,0.0,-1.012,0.0,0.0
712,0.0,0.0,0.0,0.0,2.002419921875,0.0,0.0,0.0,0.0,0.0,0.0,1.9459538550336333,0.0,0.0,0.0,0.0,0.0,0.0,-1.012,0.0,0.0
713,0.0,0.0,0.0,0.0,2.002419921875,0.0,0.0,0.0,0.0,0.0,0.0,1.9466210884789967,0.0,0.0,0.0,0.0,0.0,0.0,-1.012,0.0,0.0
714,0.0,0.0,0.0,0.0,2.002419921875,0.0,0.0,0.0,0.0,0.0,0.0,1.94728181249426,0.0,0.0,0.0,0.0,0.0,0.0,-1.012,0.0,0.0
715,0.0,0.0,0.0,0.0,2.002419921875,0.0,0.0,0.0,0.0,0.0,0.0,1.9479482846819618,0.0,0.0,0.0,0.0,0.0,0.0,-1.012,0.0,0.0
716,0.0,0.0,0.0,0.0,2.002419921875,0.0,0.0,0.0,0.0,0.0,0.0,1.9486222024851814,0.0,0.0,0.0,0.0,0.0,0.0,-1.012,0.0,0.0
717,0.0,0.0,0.0,0.0,2.002419921875,0.0,0.0,0.0,0.0,0.0,0.0,1.9493008531024152,0.0,0.0,0.0,0.0,0.0,0.0,-1.012,0.0,0.0
718,0.0,0.0,0.0,0.0,2.002419921875,0.0,0.0,0.0,0.0,0.0,0.0,1.949981028967431,0.0,0.0,0.0,0.0,0.0,0.0,-1.012,0.0,0.0
719,0.0,0.0,0.0,0.0,2.002419921875,0.0,0.0,0.0,0.0,0.0,0.0,1.950664649223118,0.0,0.0,0.0,0.0,0.0,0.0,-1.012,0.0,0.0
720,0.0,0.0,0.0,0.0,2.002419921875,0.0,0.0,0.0,0.0,0.0,0.0,1.951348063522803,0.0,0.0,0.0,0.0,0.0,0.0,-1.012,0.0,0.0
721,0.0,0.0,0.0,0.0,2.002419921875,0.0,0.0,0.0,0.0,0.0,0.0,1.952041211750166,0.0,0.0,0.0,0.0,0.0,0.0,-1.012,0.0,0.0
722,0.0,0.0,0.0,0.0,2.002419921875,0.0,0.0,0.0,0.0,0.0,0.0,1.9527326366715465,0.0,0.0,0.0,0.0,0.0,0.0,-1.012,0.0,0.0
723,0.0,0.0,0.0,0.0,2.002419921875,0.0,0.0,0.0,0.0,0.0,0.0,1.953425484308978,0.0,0.0,0.0,0.0,0.0,0.0,-1.012,0.0,0.0
724,0.0,0.0,0.0,0.0,2.002419921875,0.0,0.0,0.0,0.0,0.0,0.0,1.954121490816208,0.0,0.0,0.0,0.0,0.0,0.0,-1.012,0.0,0.0
725,0.0,0.0,0.0,0.0,2.002419921875,0.0,0.0,0.0,0.0,0.0,0.0,1.9548224075344347,0.0,0.0,0.0,0.0,0.0,0.0,-1.012,0.0,0.0
726,0.0,0.0,0.0,0.0,2.002419921875,0.0,0.0,0.0,0.0,0.0,0.0,1.9555327287781754,0.0,0.0,0.0,0.0,0.0,0.0,-1.012,0.0,0.0
727,0.0,0.0,0.0,0.0,2.002419921875,0.0,0.0,0.0,0.0,0.0,0.0,1.9562361476627446,0.0,0.0,0.0,0.0,0.0,0.0,-1.012,0.0,0.0
728,0.0,0.0,0.0,0.0,2.002419921875,0.0,0.0,0.0,0.0,0.0,0.0,1.9569457618928388,0.0,0.0,0.0,0.0,0.0,0.0,-1.012,0.0,0.0
729,0.0,0.0,0.0,0.0,2.002419921875,0.0,0.0,0.0,0.0,0.0,0.0,1.9576637839758222,0.0,0.0,0.0,0.0,0.0,0.0,-1.012,0.0,0.0
730,0.0,0.0,0.0,0.0,2.002419921875,0.0,0.0,0.0,0.0,0.0,0.0,1.9583804049293119,0.0,0.0,0.0,0.0,0.0,0.0,-1.012,0.0,0.0
731,0.0,0.0,0.0,0.0,2.002419921875,0.0,0.0,0.0,0.0,0.0,0.0,1.959098020554061,0.0,0.0,0.0,0.0,0.0,0.0,-1.012,0.0,0.0
732,0.0,0.0,0.0,0.0,2.002419921875,0.0,0.0,0.0,0.0,0.0,0.0,1.9598248470671433,0.0,0.0,0.0,0.0,0.0,0.0,-1.012,0.0,0.0
733,0.0,0.0,0.0,0.0,2.002419921875,0.0,0.0,0.0,0.0,0.0,0.0,1.9605478163223369,0.0,0.0,0.0,0.0,0.0,0.0,-1.012,0.0,0.0
734,0.0,0.0,0.0,0.0,2.002419921875,0.0,0.0,0.0,0.0,0.0,0.0,1.961278629814463,0.0,0.0,0.0,0.0,0.0,0.0,-1.012,0.0,0.0
735,0.0,0.0,0.0,0.0,2.002419921875,0.0,0.0,0.0,0.0,0.0,0.0,1.96200471802676,0.0,0.0,0.0,0.0,0.0,0.0,-1.012,0.0,0.0
736,0.0,0.0,0.0,0.0,2.002419921875,0.0,0.0,0.0,0.0,0.0,0.0,1.9627425358521469,0.0,0.0,0.0,0.0,0.0,0.0,-1.012,0.0,0.0
737,0.0,0.0,0.0,0.0,2.002419921875,0.0,0.0,0.0,0.0,0.0,0.0,1.9634756881831041,0.0,0.0,0.0,0.0,0.0,0.0,-1.012,0.0,0.0
738,0.0,0.0,0.0,0.0,2.002419921875,0.0,0.0,0.0,0.0,0.0,0.0,1.9642184199539978,0.0,0.0,0.0,0.0,0.0,0.0,-1.012,0.0,0.0
739,0.0,0.0,0.0,0.0,2.002419921875,0.0,0.0,0.0,0.0,0.0,0.0,1.964955634012452,0.0,0.0,0.0,0.0,0.0,0.0,-1.012,0.0,0.0
740,0.0,0.0,0.0,0.0,2.002419921875,0.0,0.0,0.0,0.0,0.0,0.0,1.9656965548780316,0.0,0.0,0.0,0.0,0.0,0.0,-1.012,0.0,0.0
741,0.0,0.0,0.0,0.0,2.002419921875,0.0,0.0,0.0,0.0,0.0,0.0,1.9664430166974645,0.0,0.0,0.0,0.0,0.0,0.0,-1.012,0.0,0.0
742,0.0,0.0,0.0,0.0,2.002419921875,0.0,0.0,0.0,0.0,0.0,0.0,1.9671923774599835,0.0,0.0,0.0,0.0,0.0,0.0,-1.012,0.0,0.0
743,0.0,0.0,0.0,0.0,2.002419921875,0.0,0.0,0.0,0.0,0.0,0.0,1.9679420698954018,0.0,0.0,0.0,0.0,0.0,0.0,-1.012,0.0,0.0
744,0.0,0.0,0.0,0.0,2.002419921875,0.0,0.0,0.0,0.0,0.0,0.0,1.9686938962317115,0.0,0.0,0.0,0.0,0.0,0.0,-1.012,0.0,0.0
745,0.0,0.0,0.0,0.0,2.002419921875,0.0,0.0,0.0,0.0,0.0,0.0,1.9695889102986814,0.0,0.0,0.0,0.0,0.0,0.0,-1.012,0.0,0.0
746,0.0,0.0,0.0,0.0,2.002419921875,0.0,0.0,0.0,0.0,0.0,0.0,1.9703256822699293,0.0,0.0,0.0,0.0,0.0,0.0,-1.012,0.0,0.0
747,0.0,0.0,0.0,0.0,2.002419921875,0.0,0.0,0.0,0.0,0.0,0.0,1.9709564586305182,0.0,0.0,0.0,0.0,0.0,0.0,-1.012,0.0,0.0
748,0.0,0.0,0.0,0.0,2.002419921875,0.0,0.0,0.0,0.0,0.0,0.0,1.9717194953052128,0.0,0.0,0.0,0.0,0.0,0.0,-1.012,0.0,0.0
749,0.0,0.0,0.0,0.0,2.002419921875,0.0,0.0,0.0,0.0,0.0,0.0,1.9724800155150997,0.0,0.0,0.0,0.0,0.0,0.0,-1.012,0.0,0.0
750,0.0,0.0,0.0,0.0,2.002419921875,0.0,0.0,0.0,0.0,0.0,0.0,1.973246255662771,0.0,0.0,0.0,0.0,0.0,0.0,-1.012,0.0,0.0
751,0.0,0.0,0.0,0.0,2.002419921875,0.0,0.0,0.0,0.0,0.0,0.0,1.974005466588367,0.0,0.0,0.0,0.0,0.0,0.0,-1.012,0.0,0.0
752,0.0,0.0,0.0,0.0,2.002419921875,0.0,0.0,0.0,0.0,0.0,0.0,1.9747735570637925,0.0,0.0,0.0,0.0,0.0,0.0,-1.012,0.0,0.0
753,0.0,0.0,0.0,0.0,2.002419921875,0.0,0.0,0.0,0.0,0.0,0.0,1.9755462469053273,0.0,0.0,0.0,0.0,0.0,0.0,-1.012,0.0,0.0
754,0.0,0.0,0.0,0.0,2.002419921875,0.0,0.0,0.0,0.0,0.0,0.0,1.9763164352130393,0.0,0.0,0.0,0.0,0.0,0.0,-1.012,0.0,0.0
755,0.0,0.0,0.0,0.0,2.002419921875,0.0,0.0,0.0,0.0,0.0,0.0,1.9770875138418267,0.0,0.0,0.0,0.0,0.0,0.0,-1.012,0.0,0.0
756,0.0,0.0,0.0,0.0,2.002419921875,0.0,0.0,0.0,0.0,0.0,0.0,1.9778618323795618,0.0,0.0,0.0,0.0,0.0,0.0,-1.012,0.0,0.0
757,0.0,0.0,0.0,0.0,2.002419921875,0.0,0.0,0.0,0.0,0.0,0.0,1.9786389808368112,0.0,0.0,0.0,0.0,0.0,0.0,-1.012,0.0,0.0
758,0.0,0.0,0.0,0.0,2.002419921875,0.0,0.0,0.0,0.0,0.0,0.0,1.9794177103622124,0.0,0.0,0.0,0.0,0.0,0.0,-1.012,0.0,0.0
759,0.0,0.0,0.0,0.0,2.002419921875,0.0,0.0,0.0,0.0,0.0,0.0,1.9801959628936343,0.0,0.0,0.0,0.0,0.0,0.0,-1.012,0.0,0.0
760,0.0,0.0,0.0,0.0,2.002419921875,0.0,0.0,0.0,0.0,0.0,0.0,1.9809766586589819,0.0,0.0,0.0,0.0,0.0,0.0,-1.012,0.0,0.0
761,0.0,0.0,0.0,0.0,2.002419921875,0.0,0.0,0.0,0.0,0.0,0.0,1.9817586521354962,0.0,0.0,0.0,0.0,0.0,0.0,-1.012,0.0,0.0
762,0.0,0.0,0.0,0.0,2.002419921875,0.0,0.0,0.0,0.0,0.0,0.0,1.9825411825720098,0.0,0.0,0.0,0.0,0.0,0.0,-1.012,0.0,0.0
763,0.0,0.0,0.0,0.0,2.002419921875,0.0,0.0,0.0,0.0,0.0,0.0,1.9833269483192772,0.0,0.0,0.0,0.0,0.0,0.0,-1.012,0.0,0.0
764,0.0,0.0,0.0,0.0,2.002419921875,0.0,0.0,0.0,0.0,0.0,0.0,1.9841124393560128,0.0,0.0,0.0,0.0,0.0,0.0,-1.012,0.0,0.0
765,0.0,0.0,0.0,0.0,2.002419921875,0.0,0.0,0.0,0.0,0.0,0.0,1.9848991008901828,0.0,0.0,0.0,0.0,0.0,0.0,-1.012,0.0,0.0
766,0.0,0.0,0.0,0.0,2.002419921875,0.0,0.0,0.0,0.0,0.0,0.0,1.9856875972001975,0.0,0.0,0.0,0.0,0.0,0.0,-1.012,0.0,0.0
767,0.0,0.0,0.0,0.0,2.002419921875,0.0,0.0,0.0,0.0,0.0,0.0,1.9864774853415572,0.0,0.0,0.0,0.0,0.0,0.0,-1.012,0.0,0.0
768,0.0,0.0,0.0,0.0,2.002419921875,0.0,0.0,0.0,0.0,0.0,0.0,1.987267358516661,0.0,0.0,0.0,0.0,0.0,0.0,-1.012,0.0,0.0
769,0.0,0.0,0.0,0.0,2.002419921875,0.0,0.0,0.0,0.0,0.0,0.0,1.9880588233782526,0.0,0.0,0.0,0.0,0.0,0.0,-1.012,0.0,0.0
770,0.0,0.0,0.0,0.0,2.002419921875,0.0,0.0,0.0,0.0,0.0,0.0,1.9888511511782143,0.0,0.0,0.0,0.0,0.0,0.0,-1.012,0.0,0.0
771,0.0,0.0,0.0,0.0,2.002419921875,0.0,0.0,0.0,0.0,0.0,0.0,1.9896632084169599,0.0,0.0,0.0,0.0,0.0,0.0,-1.012,0.0,0.0
772,0.0,0.0,0.0,0.0,2.002419921875,0.0,0.0,0.0,0.0,0.0,0.0,1.9904502542421005,0.0,0.0,0.0,0.0,0.0,0.0,-1.012,0.0,0.0
773,0.0,0.0,0.0,0.0,2.002419921875,0.0,0.0,0.0,0.0,0.0,0.0,1.9912416921771519,0.0,0.0,0.0,0.0,0.0,0.0,-1.012,0.0,0.0
774,0.0,0.0,0.0,0.0,2.002419921875,0.0,0.0,0.0,0.0,0.0,0.0,1.9920392463547394,0.0,0.0,0.0,0.0,0.0,0.0,-1.012,0.0,0.0
775,0.0,0.0,0.0,0.0,2.002419921875,0.0,0.0,0.0,0.0,0.0,0.0,1.9928374116452126,0.0,0.0,0.0,0.0,0.0,0.0,-1.012,0.0,0.0
776,0.0,0.0,0.0,0.0,2.002419921875,0.0,0.0,0.0,0.0,0.0,0.0,1.9936372195378822,0.0,0.0,0.0,0.0,0.0,0.0,-1.012,0.0,0.0
777,0.0,0.0,0.0,0.0,2.002419921875,0.0,0.0,0.0,0.0,0.0,0.0,1.9944322324829906,0.0,0.0,0.0,0.0,0.0,0.0,-1.012,0.0,0.0
778,0.0,0.0,0.0,0.0,2.002419921875,0.0,0.0,0.0,0.0,0.0,0.0,1.9952333659797494,0.0,0.0,0.0,0.0,0.0,0.0,-1.012,0.0,0.0
779,0.0,0.0,0.0,0.0,2.002419921875,0.0,0.0,0.0,0.0,0.0,0.0,1.9960227242120334,0.0,0.0,0.0,0.0,0.0,0.0,-1.012,0.0,0.0
780,0.0,0.0,0.0,0.0,2.002419921875,0.0,0.0,0.0,0.0,0.0,0.0,1.9968219284814615,0.0,0.0,0.0,0.0,0.0,0.0,-1.012,0.0,0.0
781,0.0,0.0,0.0,0.0,2.002419921875,0.0,0.0,0.0,0.0,0.0,0.0,1.9976233205472291,0.0,0.0,0.0,0.0,0.0,0.0,-1.012,0.0,0.0
782,0.0,0.0,0.0,0.0,2.002419921875,0.0,0.0,0.0,0.0,0.0,0.0,1.9984261459367476,0.0,0.0,0.0,0.0,0.0,0.0,-1.012,0.0,0.0
783,0.0,0.0,0.0,0.0,2.002419921875,0.0,0.0,0.0,0.0,0.0,0.0,1.9992250733345964,0.0,0.0,0.0,0.0,0.0,0.0,-1.012,0.0,0.0
784,0.0,0.0,0.0,0.0,2.002419921875,0.0,0.0,0.0,0.0,0.0,0.0,2.0000235566062687,0.0,0.0,0.0,0.0,0.0,0.0,-1.012,0.0,0.0
785,0.0,0.0,0.0,0.0,2.002419921875,0.0,0.0,0.0,0.0,0.0,0.0,2.0008242715288116,0.0,0.0,0.0,0.0,0.0,0.0,-1.012,0.0,0.0
786,0.0,0.0,0.0,0.0,2.002419921875,0.0,0.0,0.0,0.0,0.0,0.0,2.001621407730317,0.0,0.0,0.0,0.0,0.0,0.0,-1.012,0.0,0.0
787,0.0,0.0,0.0,0.0,2.002419921875,0.0,0.0,0.0,0.0,0.0,0.0,2.0024232486094333,0.0,0.0,0.0,0.0,0.0,0.0,-1.012,0.0,0.0
788,0.0,0.0,0.0,0.0,2.002419921875,0.0,0.0,0.0,0.0,0.0,0.0,2.0024223060607906,0.0,0.0,0.0,0.0,0.0,0.0,-1.012,0.0,0.0
789,0.0,0.0,0.0,0.0,2.002419921875,0.0,0.0,0.0,0.0,0.0,0.0,2.0032193403924863,0.0,0.0,0.0,0.0,0.0,0.0,-1.012,0.0,0.0
790,0.0,0.0,0.0,0.0,2.002419921875,0.0,0.0,0.0,0.0,0.0,0.0,2.0040219308270806,0.0,0.0,0.0,0.0,0.0,0.0,-1.012,0.0,0.0
791,0.0,0.0,0.0,0.0,2.002419921875,0.0,0.0,0.0,0.0,0.0,0.0,2.0048168099254724,0.0,0.0,0.0,0.0,0.0,0.0,-1.012,0.0,0.0
792,0.0,0.0,0.0,0.0,2.002419921875,0.0,0.0,0.0,0.0,0.0,0.0,2.0056244055378647,0.0,0.0,0.0,0.0,0.0,0.0,-1.012,0.0,0.0
793,0.0,0.0,0.0,0.0,2.002419921875,0.0,0.0,0.0,0.0,0.0,0.0,2.006421081293885,0.0,0.0,0.0,0.0,0.0,0.0,-1.012,0.0,0.0
794,0.0,0.0,0.0,0.0,2.002419921875,0.0,0.0,0.0,0.0,0.0,0.0,2.0072184743967987,0.0,0.0,0.0,0.0,0.0,0.0,-1.012,0.0,0.0
795,0.0,0.0,0.0,0.0,2.002419921875,0.0,0.0,0.0,0.0,0.0,0.0,2.008015714147587,0.0,0.0,0.0,0.0,0.0,0.0,-1.012,0.0,0.0
796,0.0,0.0,0.0,0.0,2.002419921875,0.0,0.0,0.0,0.0,0.0,0.0,2.008814424579809,0.0,0.0,0.0,0.0,0.0,0.0,-1.012,0.0,0.0
797,0.0,0.0,0.0,0.0,2.002419921875,0.0,0.0,0.0,0.0,0.0,0.0,2.0096226371222206,0.0,0.0,0.0,0.0,0.0,0.0,-1.012,0.0,0.0
798,0.0,0.0,0.0,0.0,2.002419921875,0.0,0.0,0.0,0.0,0.0,0.0,2.010408265615666,0.0,0.0,0.0,0.0,0.0,0.0,-1.012,0.0,0.0
799,0.0,0.0,0.0,0.0,2.002419921875,0.0,0.0,0.0,0.0,0.0,0.0,2.0112098330233765,0.0,0.0,0.0,0.0,0.0,0.0,-1.012,0.0,0.0
800,0.0,0.0,0.0,0.0,2.002419921875,0.0,0.0,0.0,0.0,0.0,0.0,2.01200549671139,0.0,0.0,0.0,0.0,0.0,0.0,-1.012,0.0,0.0
801,0.0,0.0,0.0,0.0,2.002419921875,0.0,0.0,0.0,0.0,0.0,0.0,2.0127995808957504,0.0,0.0,0.0,0.0,0.0,0.0,-1.012,0.0,0.0
802,0.0,0.0,0.0,0.0,2.002419921875,0.0,0.0,0.0,0.0,0.0,0.0,2.013596283028077,0.0,0.0,0.0,0.0,0.0,0.0,-1.012,0.0,0.0
803,0.0,0.0,0.0,0.0,2.002419921875,0.0,0.0,0.0,0.0,0.0,0.0,2.014391377414251,0.0,0.0,0.0,0.0,0.0,0.0,-1.012,0.0,0.0
804,0.0,0.0,0.0,0.0,2.002419921875,0.0,0.0,0.0,0.0,0.0,0.0,2.015187691047026,0.0,0.0,0.0,0.0,0.0,0.0,-1.012,0.0,0.0
805,0.0,0.0,0.0,0.0,2.002419921875,0.0,0.0,0.0,0.0,0.0,0.0,2.015974225131932,0.0,0.0,0.0,0.0,0.0,0.0,-1.012,0.0,0.0
806,0.0,0.0,0.0,0.0,2.002419921875,0.0,0.0,0.0,0.0,0.0,0.0,2.0167675885533414,0.0,0.0,0.0,0.0,0.0,0.0,-1.012,0.0,0.0
807,0.0,0.0,0.0,0.0,2.002419921875,0.0,0.0,0.0,0.0,0.0,0.0,2.0175624819355007,0.0,0.0,0.0,0.0,0.0,0.0,-1.012,0.0,0.0
808,0.0,0.0,0.0,0.0,2.002419921875,0.0,0.0,0.0,0.0,0.0,0.0,2.018349844482978,0.0,0.0,0.0,0.0,0.0,0.0,-1.012,0.0,0.0
809,0.0,0.0,0.0,0.0,2.002419921875,0.0,0.0,0.0,0.0,0.0,0.0,2.0191395047338228,0.0,0.0,0.0,0.0,0.0,0.0,-1.012,0.0,0.0
810,0.0,0.0,0.0,0.0,2.002419921875,0.0,0.0,0.0,0.0,0.0,0.0,2.019929032810326,0.0,0.0,0.0,0.0,0.0,0.0,-1.012,0.0,0.0
811,0.0,0.0,0.0,0.0,2.002419921875,0.0,0.0,0.0,0.0,0.0,0.0,2.0207108359530714,0.0,0.0,0.0,0.0,0.0,0.0,-1.012,0.0,0.0
812,0.0,0.0,0.0,0.0,2.002419921875,0.0,0.0,0.0,0.0,0.0,0.0,2.021496352178555,0.0,0.0,0.0,0.0,0.0,0.0,-1.012,0.0,0.0
813,0.0,0.0,0.0,0.0,2.002419921875,0.0,0.0,0.0,0.0,0.0,0.0,2.0222852847158928,0.0,0.0,0.0,0.0,0.0,0.0,-1.012,0.0,0.0
814,0.0,0.0,0.0,0.0,2.002419921875,0.0,0.0,0.0,0.0,0.0,0.0,2.0230700954072107,0.0,0.0,0.0,0.0,0.0,0.0,-1.012,0.0,0.0
815,0.0,0.0,0.0,0.0,2.002419921875,0.0,0.0,0.0,0.0,0.0,0.0,2.0238557036059177,0.0,0.0,0.0,0.0,0.0,0.0,-1.012,0.0,0.0
816,0.0,0.0,0.0,0.0,2.002419921875,0.0,0.0,0.0,0.0,0.0,0.0,2.0246304803203623,0.0,0.0,0.0,0.0,0.0,0.0,-1.012,0.0,0.0
817,0.0,0.0,0.0,0.0,2.002419921875,0.0,0.0,0.0,0.0,0.0,0.0,2.0254104839975646,0.0,0.0,0.0,0.0,0.0,0.0,-1.012,0.0,0.0
818,0.0,0.0,0.0,0.0,2.002419921875,0.0,0.0,0.0,0.0,0.0,0.0,2.0261908848301955,0.0,0.0,0.0,0.0,0.0,0.0,-1.012,0.0,0.0
819,0.0,0.0,0.0,0.0,2.002419921875,0.0,0.0,0.0,0.0,0.0,0.0,2.0269588081254506,0.0,0.0,0.0,0.0,0.0,0.0,-1.012,0.0,0.0
820,0.0,0.0,0.0,0.0,2.002419921875,0.0,0.0,0.0,0.0,0.0,0.0,2.027742060059159,0.0,0.0,0.0,0.0,0.0,0.0,-1.012,0.0,0.0
821,0.0,0.0,0.0,0.0,2.002419921875,0.0,0.0,0.0,0.0,0.0,0.0,2.0285174137827977,0.0,0.0,0.0,0.0,0.0,0.0,-1.012,0.0,0.0
822,0.0,0.0,0.0,0.0,2.002419921875,0.0,0.0,0.0,0.0,0.0,0.0,2.0292882215083834,0.0,0.0,0.0,0.0,0.0,0.0,-1.012,0.0,0.0
823,0.0,0.0,0.0,0.0,2.002419921875,0.0,0.0,0.0,0.0,0.0,0.0,2.0300563226092723,0.0,0.0,0.0,0.0,0.0,0.0,-1.012,0.0,0.0
824,0.0,0.0,0.0,0.0,2.002419921875,0.0,0.0,0.0,0.0,0.0,0.0,2.0308226624073336,0.0,0.0,0.0,0.0,0.0,0.0,-1.012,0.0,0.0
825,0.0,0.0,0.0,0.0,2.002419921875,0.0,0.0,0.0,0.0,0.0,0.0,2.0315823755737528,0.0,0.0,0.0,0.0,0.0,0.0,-1.012,0.0,0.0
826,0.0,0.0,0.0,0.0,2.002419921875,0.0,0.0,0.0,0.0,0.0,0.0,2.0323490256893697,0.0,0.0,0.0,0.0,0.0,0.0,-1.012,0.0,0.0
827,0.0,0.0,0.0,0.0,2.002419921875,0.0,0.0,0.0,0.0,0.0,0.0,2.033107812439512,0.0,0.0,0.0,0.0,0.0,0.0,-1.012,0.0,0.0
828,0.0,0.0,0.0,0.0,2.002419921875,0.0,0.0,0.0,0.0,0.0,0.0,2.0338768024413607,0.0,0.0,0.0,0.0,0.0,0.0,-1.012,0.0,0.0
829,0.0,0.0,0.0,0.0,2.002419921875,0.0,0.0,0.0,0.0,0.0,0.0,2.0346341093998648,0.0,0.0,0.0,0.0,0.0,0.0,-1.012,0.0,0.0
830,0.0,0.0,0.0,0.0,2.002419921875,0.0,0.0,0.0,0.0,0.0,0.0,2.035384912684952,0.0,0.0,0.0,0.0,0.0,0.0,-1.012,0.0,0.0
831,0.0,0.0,0.0,0.0,2.002419921875,0.0,0.0,0.0,0.0,0.0,0.0,2.03614214830132,0.0,0.0,0.0,0.0,0.0,0.0,-1.012,0.0,0.0
832,0.0,0.0,0.0,0.0,2.002419921875,0.0,0.0,0.0,0.0,0.0,0.0,2.0368939677395006,0.0,0.0,0.0,0.0,0.0,0.0,-1.012,0.0,0.0
833,0.0,0.0,0.0,0.0,2.002419921875,0.0,0.0,0.0,0.0,0.0,0.0,2.0376423147918827,0.0,0.0,0.0,0.0,0.0,0.0,-1.012,0.0,0.0
834,0.0,0.0,0.0,0.0,2.002419921875,0.0,0.0,0.0,0.0,0.0,0.0,2.038393720086605,0.0,0.0,0.0,0.0,0.0,0.0,-1.012,0.0,0.0
835,0.0,0.0,0.0,0.0,2.002419921875,0.0,0.0,0.0,0.0,0.0,0.0,2.039137370763803,0.0,0.0,0.0,0.0,0.0,0.0,-1.012,0.0,0.0
836,0.0,0.0,0.0,0.0,2.002419921875,0.0,0.0,0.0,0.0,0.0,0.0,2.039878009816284,0.0,0.0,0.0,0.0,0.0,0.0,-1.012,0.0,0.0
837,0.0,0.0,0.0,0.0,2.002419921875,0.0,0.0,0.0,0.0,0.0,0.0,2.040623669743377,0.0,0.0,0.0,0.0,0.0,0.0,-1.012,0.0,0.0
838,0.0,0.0,0.0,0.0,2.002419921875,0.0,0.0,0.0,0.0,0.0,0.0,2.0413551856330305,0.0,0.0,0.0,0.0,0.0,0.0,-1.012,0.0,0.0
839,0.0,0.0,0.0,0.0,2.002419921875,0.0,0.0,0.0,0.0,0.0,0.0,2.042092272868253,0.0,0.0,0.0,0.0,0.0,0.0,-1.012,0.0,0.0
840,0.0,0.0,0.0,0.0,2.002419921875,0.0,0.0,0.0,0.0,0.0,0.0,2.0428282066717225,0.0,0.0,0.0,0.0,0.0,0.0,-1.012,0.0,0.0
841,0.0,0.0,0.0,0.0,2.002419921875,0.0,0.0,0.0,0.0,0.0,0.0,2.043557518244819,0.0,0.0,0.0,0.0,0.0,0.0,-1.012,0.0,0.0
842,0.0,0.0,0.0,0.0,2.002419921875,0.0,0.0,0.0,0.0,0.0,0.0,2.0442876177619436,0.0,0.0,0.0,0.0,0.0,0.0,-1.012,0.0,0.0
843,0.0,0.0,0.0,0.0,2.002419921875,0.0,0.0,0.0,0.0,0.0,0.0,2.0450116905650786,0.0,0.0,0.0,0.0,0.0,0.0,-1.012,0.0,0.0
844,0.0,0.0,0.0,0.0,2.002419921875,0.0,0.0,0.0,0.0,0.0,0.0,2.0457317563286566,0.0,0.0,0.0,0.0,0.0,0.0,-1.012,0.0,0.0
845,0.0,0.0,0.0,0.0,2.002419921875,0.0,0.0,0.0,0.0,0.0,0.0,2.0464532297470863,0.0,0.0,0.0,0.0,0.0,0.0,-1.012,0.0,0.0
846,0.0,0.0,0.0,0.0,2.002419921875,0.0,0.0,0.0,0.0,0.0,0.0,2.0471687153676994,0.0,0.0,0.0,0.0,0.0,0.0,-1.012,0.0,0.0
847,0.0,0.0,0.0,0.0,2.002419921875,0.0,0.0,0.0,0.0,0.0,0.0,2.047881568851515,0.0,0.0,0.0,0.0,0.0,0.0,-1.012,0.0,0.0
848,0.0,0.0,0.0,0.0,2.002419921875,0.0,0.0,0.0,0.0,0.0,0.0,2.048595058073185,0.0,0.0,0.0,0.0,0.0,0.0,-1.012,0.0,0.0
849,0.0,0.0,0.0,0.0,2.002419921875,0.0,0.0,0.0,0.0,0.0,0.0,2.049302977587018,0.0,0.0,0.0,0.0,0.0,0.0,-1.012,0.0,0.0
850,0.0,0.0,0.0,0.0,2.002419921875,0.0,0.0,0.0,0.0,0.0,0.0,2.050009928125738,0.0,0.0,0.0,0.0,0.0,0.0,-1.012,0.0,0.0
851,0.0,0.0,0.0,0.0,2.002419921875,0.0,0.0,0.0,0.0,0.0,0.0,2.0507107439189616,0.0,0.0,0.0,0.0,0.0,0.0,-1.012,0.0,0.0
852,0.0,0.0,0.0,0.0,2.002419921875,0.0,0.0,0.0,0.0,0.0,0.0,2.0514115396889494,0.0,0.0,0.0,0.0,0.0,0.0,-1.012,0.0,0.0
853,0.0,0.0,0.0,0.0,2.002419921875,0.0,0.0,0.0,0.0,0.0,0.0,2.052109382326746,0.0,0.0,0.0,0.0,0.0,0.0,-1.012,0.0,0.0
854,0.0,0.0,0.0,0.0,2.002419921875,0.0,0.0,0.0,0.0,0.0,0.0,2.0527991331507898,0.0,0.0,0.0,0.0,0.0,0.0,-1.012,0.0,0.0
855,0.0,0.0,0.0,0.0,2.002419921875,0.0,0.0,0.0,0.0,0.0,0.0,2.0534890649019912,0.0,0.0,0.0,0.0,0.0,0.0,-1.012,0.0,0.0
856,0.0,0.0,0.0,0.0,2.002419921875,0.0,0.0,0.0,0.0,0.0,0.0,2.054177698304094,0.0,0.0,0.0,0.0,0.0,0.0,-1.012,0.0,0.0
857,0.0,0.0,0.0,0.0,2.002419921875,0.0,0.0,0.0,0.0,0.0,0.0,2.054854810046374,0.0,0.0,0.0,0.0,0.0,0.0,-1.012,0.0,0.0
