EmanuelSamir/lab201_ws_projsamir/sawyer_dev/data/sawyer/temp/validation_data_jointsample21sad.csv
,j1,j2,j3,j4,j5,j6,j7,jd1,jd2,jd3,jd4,jd5,jd6,jd7,e1,e2,e3,e4,e5,e6,e7
0,0.0,0.0,0.0,0.0,0.0,0.0,0.0,0.0,0.0,0.0,0.0,0.0,0.0,0.0,0.0,0.0,0.0,0.0,0.0,0.0,0.0
1,0.001607421875,0.0018857421875,-0.0035791015625,-0.0041240234375,0.0060263671875,-0.0019912109375,0.0020205078125,0.10160742150460544,0.10188574216344387,0.0964208984193101,0.09587597654244565,0.10602636716744565,0.09800878904776619,0.1020205077965128,-0.052,-44.052,-5.156,-13.788,2.288,-0.7,-0.056
2,0.001607421875,0.0018857421875,-0.0035791015625,-0.0041240234375,0.0060263671875,-0.0019912109375,0.0020205078125,0.10160345764568268,0.1018819305829671,0.09641712338173188,0.09587223458009236,0.10602265792759198,0.09800511422117682,0.10201686214155324,-0.052,-44.0,-5.088,-13.764,2.316,-0.7,-0.068
3,0.001607421875,0.0018857421875,-0.0035791015625,-0.0041240234375,0.0060263671875,-0.0019912109375,0.0020205078125,0.1015894008423212,0.10186805363424409,0.09640329632287083,0.09585845130285829,0.10600892039612428,0.09799141878592926,0.10200320856154216,0.0,-44.052,-5.132,-13.72,2.284,-0.68,-0.096
4,0.0017099609375,0.0019892578125,-0.0035791015625,-0.0041240234375,0.0060263671875,-0.0019912109375,0.0020205078125,0.10166748057370469,0.10194718435803218,0.09637878140511875,0.09583391209749313,0.1059843690764769,0.0979668717495946,0.10197865811679103,1.804,-42.652,-4.88,-13.516,2.284,-0.688,-0.088
5,0.002224609375,0.00250390625,-0.0034345703125,-0.004556640625,0.0068525390625,-0.0013720703125,0.003052734375,0.10214863115027599,0.10242860854049224,0.09649029839459167,0.09536837585345988,0.106777705933516,0.09855324772141996,0.10297818777266003,8.504,-36.172,-2.912,-11.708,2.244,-0.512,0.128
6,0.002841796875,0.0035390625,-0.00185546875,-0.004845703125,0.0099384765625,7.421875e-05,0.0059189453125,0.10272219663466706,0.10342035585201799,0.09802605791898264,0.09503602765306403,0.10982041127377548,0.09995636647613523,0.10580128389392185,14.088,-29.1,-2.032,-8.504,1.588,-0.244,0.148
7,0.0037744140625,0.004876953125,0.000455078125,-0.004845703125,0.0144697265625,0.0015068359375,0.009818359375,0.10360054377022694,0.10470413663683006,0.10028249693658317,0.09498186266759866,0.11429749662472652,0.10133481713764629,0.10964652364296379,17.012,-24.076,-2.704,-4.936,0.244,0.396,0.156
8,0.0051123046875,0.0065234375,0.002900390625,-0.0044130859375,0.01817578125,0.0046044921875,0.01495703125,0.10487468593581055,0.10628699668827465,0.10266427249739885,0.0953510774893001,0.11794023914709967,0.10436924437116037,0.11472205140144895,18.82,-20.892,-2.868,-2.536,-0.276,1.184,0.312
9,0.0067587890625,0.0082734375,0.005787109375,-0.0032578125,0.022306640625,0.0103759765625,0.0209091796875,0.10644708947733093,0.10796305509054484,0.10547708161906272,0.09643247294671164,0.12199725598250045,0.11006692165525586,0.12060042625934365,19.564,-19.38,-2.404,-2.308,-0.14,0.928,0.192
10,0.0089267578125,0.0106396484375,0.008666015625,-0.00166015625,0.0260126953125,0.016560546875,0.027880859375,0.10853176779587143,0.11024629105019719,0.10827307431383376,0.09794727397582695,0.12562051588530165,0.11616874705885984,0.12748940526699717,19.564,-17.76,-1.616,-3.748,0.348,0.68,0.032
11,0.011505859375,0.0141455078125,0.0119775390625,-0.000361328125,0.0311640625,0.022732421875,0.0346591796875,0.11101716598742352,0.11365864192543917,0.11149114537055223,0.09915269145976338,0.13067850457288585,0.12224729798080378,0.1341744403957349,18.928,-17.22,-0.74,-3.704,0.78,0.608,0.128
12,0.014599609375,0.0183642578125,0.0162998046875,0.00166796875,0.03878125,0.027689453125,0.04123046875,0.11400640698748386,0.11777285105437538,0.11570887423508211,0.1010774730183199,0.13819119917432277,0.1270998444529446,0.1406412736393019,17.916,-19.38,-1.872,-3.316,0.388,0.584,0.088
13,0.0181044921875,0.0228984375,0.0209111328125,0.0041318359375,0.04537890625,0.032427734375,0.0465625,0.11739802490166619,0.12219406777734337,0.12020731946799265,0.10342853358998187,0.14467611189289792,0.13172543654281055,0.14586066468138542,16.96,-24.076,-3.628,-4.0,-0.064,1.256,0.108
14,0.0219189453125,0.027529296875,0.025810546875,0.0074609375,0.0515634765625,0.0390126953125,0.0512880859375,0.12108885869193364,0.1267015109207038,0.12498337613890406,0.10663430527540389,0.15073739490768062,0.1381871793307301,0.15046307125591266,15.788,-28.396,-3.792,-4.708,0.4,0.836,0.188
15,0.026041015625,0.0321669921875,0.0308544921875,0.0122431640625,0.057734375,0.0454033203125,0.0560009765625,0.1250779870251803,0.13120656621069632,0.1298947154950284,0.11128398043372953,0.15677577107936633,0.14444530909480763,0.15504350849559656,14.248,-30.072,-4.068,-8.024,0.996,0.104,0.128
16,0.030685546875,0.0373125,0.0358984375,0.0167373046875,0.063712890625,0.0511748046875,0.0607265625,0.12957816938076797,0.13620761562535552,0.13479423515180222,0.11563370997915622,0.1626099175155134,0.15007243888137928,0.1596247614779311,13.236,-32.444,-3.932,-9.716,1.956,-0.156,0.188
17,0.035630859375,0.0427734375,0.0413759765625,0.0213662109375,0.0709296875,0.056533203125,0.06546484375,0.13437083003821013,0.1415163040800576,0.1401195854418802,0.12011048280361003,0.16967462217897272,0.1552788155009236,0.16421105837053868,12.92,-36.224,-5.108,-10.496,1.86,-0.188,0.136
18,0.0407890625,0.0486455078125,0.045986328125,0.02658203125,0.0789599609375,0.0606513671875,0.0701767578125,0.13936537993639098,0.14722478619482093,0.14456636328083936,0.12516275493581192,0.17754136898586736,0.15923347943790908,0.16875949409687702,11.112,-38.764,-6.22,-11.0,1.3,0.324,0.016
19,0.0460380859375,0.0543056640625,0.0508779296875,0.03194140625,0.0849384765625,0.065802734375,0.07490234375,0.14444045082424434,0.15271107099858974,0.14928415498248543,0.13034834372921814,0.18334615997015058,0.16421116353780857,0.1733114507216799,7.124,-40.652,-6.128,-10.952,1.736,0.4,0.056
20,0.051298828125,0.05945703125,0.0567783203125,0.0383212890625,0.0900771484375,0.0713671875,0.0790078125,0.14951849806129716,0.1576798215685415,0.15500197418849906,0.1365456721022317,0.18830231862856278,0.1695931267854892,0.1772344670738673,4.356,-41.408,-4.532,-13.032,2.088,-0.168,0.056
21,0.056869140625,0.0650146484375,0.061966796875,0.0438251953125,0.095021484375,0.0763125,0.0831142578125,0.15489567523224185,0.16304424545238996,0.15999722269061417,0.14185633206388898,0.19305336959030292,0.1743451570682255,0.18114758777650328,3.772,-42.112,-3.836,-16.188,2.504,-0.68,0.032
22,0.062638671875,0.0711953125,0.067146484375,0.048455078125,0.1001728515625,0.080224609375,0.0870126953125,0.16046313686917102,0.16902328782553078,0.16497534919827017,0.14628470876028138,0.19800329233083253,0.1780558749421926,0.184844691709533,3.984,-44.592,-4.14,-14.956,3.0,-1.02,0.136
23,0.0685166015625,0.0773759765625,0.0717578125,0.0539677734375,0.1069775390625,0.0822900390625,0.0911181640625,0.1661295323232852,0.1749927739035939,0.16937556177650503,0.15158637101983174,0.20459697963017898,0.17991032246809424,0.18873923329453246,5.104,-46.484,-5.712,-12.552,1.8,-0.276,0.16
24,0.0743955078125,0.08293359375,0.075646484375,0.060482421875,0.1125283203125,0.0851689453125,0.095017578125,0.17178357897362073,0.1803250040105448,0.17303875477506794,0.1578755090075582,0.20992224568155626,0.18256375203839176,0.1924131849738587,3.508,-47.184,-6.38,-11.044,1.216,0.436,0.18
25,0.0798623046875,0.0874677734375,0.0802578125,0.0677197265625,0.1143876953125,0.0911474609375,0.099123046875,0.1770210296365958,0.18463073467026192,0.1774218111753747,0.16488467230477843,0.21155361050939608,0.18831434542561415,0.19629081034639928,-2.336,-46.808,-6.496,-13.172,2.192,-0.304,0.244
26,0.0854326171875,0.0924140625,0.0838583984375,0.0730791015625,0.1143876953125,0.0979384765625,0.103435546875,0.18235014744213937,0.18933593211384991,0.18078134801937357,0.17000301356735154,0.21131254025669016,0.19486430710257985,0.20036223968392247,-5.528,-46.16,-4.368,-19.916,3.768,-1.62,0.212
27,0.0910986328125,0.09869140625,0.0877470703125,0.07641796875,0.1166474609375,0.102263671875,0.107541015625,0.18776451598772298,0.19536174470702444,0.18441845808089563,0.17309027758216217,0.21332071510215056,0.1989378712401159,0.20421606250921565,-5.848,-47.348,-2.52,-19.164,4.648,-2.256,0.192
28,0.0966689453125,0.1047626953125,0.0936484375,0.080623046875,0.1238642578125,0.1026767578125,0.11225390625,0.19307154319038322,0.20116925296848243,0.1900559198517144,0.1770313588200315,0.22027344357854484,0.1990868172951928,0.2086647697130407,-4.092,-49.992,-6.036,-15.208,3.252,-0.656,0.104
29,0.10223828125,0.1104287109375,0.0985478515625,0.084962890625,0.129416015625,0.1045361328125,0.1167724609375,0.19837080072656776,0.20656547774707007,0.19468557649562993,0.18110150139064474,0.22555561709271438,0.20067669205909516,0.21291390569789687,-2.284,-53.664,-9.944,-12.14,0.908,0.924,-0.016
30,0.1075,0.1146484375,0.10200390625,0.091189453125,0.13044921875,0.1090673828125,0.1210849609375,0.20335367447739727,0.2105069276882524,0.19786356429377422,0.18705013630440293,0.22631095409171811,0.20493017018561843,0.21694869163388625,-3.136,-54.636,-9.992,-11.98,1.288,0.872,0.068
31,0.112240234375,0.1177353515625,0.105171875,0.098146484375,0.1286025390625,0.1168916015625,0.124984375,0.2078060340800577,0.21330654173425448,0.20074441930347292,0.19372023529890298,0.22417749644611093,0.2124677932966471,0.22056166067688712,-6.964,-49.02,-7.352,-20.56,3.3,-0.728,0.036
32,0.11708984375,0.122373046875,0.1077607421875,0.1019091796875,0.1275703125,0.124095703125,0.1286767578125,0.21235304945902117,0.2176408123357106,0.20302963094638302,0.19717913364766976,0.22284133154443364,0.21936781611373818,0.22394984872636647,-8.824,-45.62,-3.284,-22.936,5.212,-3.024,0.064
33,0.122138671875,0.127724609375,0.1123720703125,0.1052392578125,0.1327216796875,0.123076171875,0.13196875,0.21709355539767938,0.22268467334598357,0.2073333822867302,0.2002016980912047,0.22768524814759966,0.21804089827407963,0.2269345146985748,-7.548,-47.132,-3.284,-19.988,4.58,-1.884,0.12
34,0.126576171875,0.13308203125,0.11841796875,0.1078466796875,0.13971875,0.122869140625,0.135248046875,0.2212146042643831,0.22772624628133964,0.21306366167947605,0.20249370409491652,0.2343671288093374,0.21751887366960318,0.22989901089795195,-4.996,-50.964,-8.832,-14.132,1.82,0.648,0.104
35,0.1312138671875,0.137609375,0.1224423828125,0.1113203125,0.1428046875,0.12657421875,0.138333984375,0.2255254579460702,0.2319269487849627,0.21676145385692913,0.2056406825985101,0.23712638026759184,0.22089727363123313,0.23265824285254222,-3.772,-53.988,-10.408,-10.108,0.296,0.728,0.068
36,0.1353369140625,0.1406005859375,0.124896484375,0.117267578125,0.141978515625,0.1311064453125,0.14161328125,0.22930801313045968,0.23457682045650322,0.2188739820530049,0.21124623290699193,0.23595840073038102,0.2250875280329132,0.23559546371926415,-4.304,-51.02,-6.776,-14.268,2.076,0.272,0.104
37,0.139259765625,0.14337890625,0.127630859375,0.1227626953125,0.14178515625,0.1389306640625,0.144892578125,0.2328869414807618,0.2370125460853268,0.22126614818933904,0.21639942367564968,0.2354233574768393,0.23257033798815246,0.2385335907246786,-5.688,-46.268,-3.188,-19.62,4.152,-1.712,0.156
38,0.1433828125,0.147302734375,0.1305087890625,0.1263896484375,0.1446640625,0.1418095703125,0.1483916015625,0.23665133671576405,0.2405772425945048,0.22378484445117275,0.21966707894343757,0.2379428937670731,0.2350898451614168,0.2416731823803218,-6.752,-45.024,-2.196,-19.348,4.328,-2.48,0.084
39,0.14740234375,0.1521396484375,0.13425390625,0.1285556640625,0.15062890625,0.14099609375,0.152291015625,0.24030629587830316,0.24504985334335283,0.22716562764956255,0.22146875193592172,0.24354339572928044,0.2339119494460872,0.24520814046686878,-6.536,-46.968,-4.232,-15.78,3.272,-0.104,0.084
40,0.1512236328125,0.1567763671875,0.1381337890625,0.130296875,0.1574326171875,0.144701171875,0.156396484375,0.24375008112284108,0.24930888267378126,0.23066774187827901,0.22283215654927735,0.24996922735661192,0.2372391466985202,0.24893564300683957,-4.676,-49.776,-7.84,-11.66,1.344,0.368,0.024
41,0.1548310546875,0.1603779296875,0.141021484375,0.133482421875,0.1598994140625,0.1475810546875,0.1602958984375,0.246970410776002,0.2525204728602093,0.23316484274876317,0.22562714191459998,0.2520455697496088,0.23972864589627696,0.2524447398368094,-2.976,-50.1,-7.632,-11.936,1.256,0.416,0.012
42,0.1583369140625,0.163259765625,0.143322265625,0.1376875,0.161138671875,0.152732421875,0.16398828125,0.25009099525654044,0.25502072829839567,0.2350850098311454,0.22945176025901393,0.2529045617419148,0.24449994119549703,0.2557572688412385,-2.232,-47.4,-4.648,-15.46,3.0,0.084,0.076
43,0.1617392578125,0.1662509765625,0.1464892578125,0.141314453125,0.1644306640625,0.1591103515625,0.1676806640625,0.2530894872644087,0.25760780058827615,0.23784738107403194,0.23267371071761797,0.2557911043861802,0.25047209086237077,0.25904378948037465,-2.072,-45.404,-3.608,-16.968,3.76,-1.6,0.032
44,0.1651416015625,0.1697490234375,0.1503701171875,0.14435546875,0.1691689453125,0.1601435546875,0.1711796875,0.2560752796169267,0.2606879482705745,0.24130995435615432,0.2352949290896968,0.26010923863253677,0.2510848495189365,0.2621218152314443,-2.392,-44.376,-4.068,-15.8,3.488,-1.124,0.104
45,0.168646484375,0.1737626953125,0.1539697265625,0.146521484375,0.1761669921875,0.1615888671875,0.1746650390625,0.2591641533516377,0.26428729449218574,0.24449560209595567,0.23704879824098046,0.266695967097135,0.25211953338350734,0.26519695084471406,-2.976,-45.188,-5.572,-12.692,2.368,0.16,0.108
46,0.17184375,0.1772685546875,0.157859375,0.148984375,0.1817314453125,0.1646748046875,0.1779443359375,0.2619335105636166,0.26736586801548334,0.24795864332495193,0.2390853395761896,0.2718341370273587,0.2547792337390496,0.26805037810082344,-2.284,-44.7,-7.284,-10.632,1.288,0.096,0.108
47,0.1749375,0.1802529296875,0.1608818359375,0.1526025390625,0.1850234375,0.1677607421875,0.1810302734375,0.2645859011799019,0.2699081539911232,0.2505380740222753,0.2422596641672548,0.274681449588774,0.25741964122433253,0.27068989045356495,-0.956,-42.544,-6.868,-12.212,1.592,0.264,0.192
48,0.178236328125,0.18333984375,0.1634716796875,0.155796875,0.188109375,0.172912109375,0.1845166015625,0.2674340100069996,0.27254408877036895,0.2526775948287354,0.24500427698503963,0.27731831759811504,0.26212262479976284,0.27372681535765286,0.424,-40.708,-4.464,-13.924,2.492,-0.52,0.244
49,0.181330078125,0.18643359375,0.167072265625,0.159126953125,0.19284765625,0.1766171875,0.188001953125,0.27007482064552346,0.2751858515157325,0.25582650069455054,0.24788267106514295,0.2816048459855795,0.2653758050102472,0.2767618665415068,1.648,-40.76,-4.184,-14.728,2.836,-1.092,0.292
50,0.1846298828125,0.19003515625,0.1709521484375,0.16158984375,0.1983994140625,0.1784765625,0.1915009765625,0.2729116839805457,0.27832527680275154,0.2592443288136399,0.2498838151387944,0.2866952546837131,0.2667743281723492,0.2798004433192386,1.648,-41.248,-5.296,-14.428,2.276,-0.368,0.224
51,0.187935546875,0.1938427734375,0.174552734375,0.1637646484375,0.2041708984375,0.1815625,0.195400390625,0.2757409794559046,0.28165620304965405,0.26236811438867913,0.25158180763753224,0.2919899165293903,0.2693833426420233,0.28322286385055473,1.22,-42.272,-5.804,-11.592,1.756,0.096,0.148
52,0.1911328125,0.1970390625,0.17844140625,0.1673828125,0.20972265625,0.1846484375,0.199712890625,0.27845398938953714,0.284367744301326,0.2657719813782481,0.25471509499402023,0.2970566460025196,0.271984134403744,0.2870501436139453,1.7,-41.192,-6.152,-11.66,1.36,0.376,0.096
53,0.1943291015625,0.2003330078125,0.181888671875,0.170712890625,0.2132216796875,0.1887666015625,0.203818359375,0.28116378334832537,0.2871764738744969,0.26873446655451,0.2575607182555281,0.30007158739579454,0.27561863646487905,0.2906722849822799,2.444,-38.816,-4.576,-11.684,1.932,0.26,0.104
54,0.19762890625,0.203837890625,0.1850556640625,0.1738984375,0.2177529296875,0.193091796875,0.2077177734375,0.2839608191367545,0.2901783449901301,0.2713982353691986,0.2602428730327455,0.3040992774328305,0.27944005670883076,0.29406776486704334,2.604,-37.684,-2.612,-10.86,2.184,-0.18,0.108
55,0.200927734375,0.207439453125,0.1889453125,0.177380859375,0.2226982421875,0.1957646484375,0.2118232421875,0.2867523821476698,0.2932730812048359,0.2747810935052895,0.26321853629742886,0.3085379249849466,0.2816062758299419,0.29766661838705843,2.868,-38.224,-3.236,-11.412,1.992,0.148,0.108
56,0.20443359375,0.2113505859375,0.1923916015625,0.18027734375,0.2276298828125,0.199263671875,0.2157216796875,0.28973613073972526,0.2966612591787287,0.27770446402181037,0.26559214652702823,0.31294666309960256,0.2845824792935874,0.30104237732118355,2.976,-39.896,-4.184,-10.588,1.664,0.368,0.12
57,0.2080419921875,0.2151640625,0.19555859375,0.183462890625,0.2321611328125,0.2025556640625,0.2194150390625,0.2928192004748611,0.2999502852940841,0.28034709190879586,0.2682534111991115,0.3169537135953359,0.28735030492600044,0.30421155031776187,3.136,-40.22,-3.816,-10.2,1.404,0.208,0.116
58,0.211546875,0.218869140625,0.1988701171875,0.1870810546875,0.2360732421875,0.2058603515625,0.2231201171875,0.2957923448481463,0.30312371652387105,0.28312700453552997,0.2713400478874407,0.3203343796286563,0.2901236459498576,0.30738536298112307,3.772,-39.788,-3.768,-11.02,1.848,0.52,0.148
59,0.2152646484375,0.222779296875,0.2021826171875,0.1901220703125,0.2399853515625,0.2105859375,0.2268125,0.298965608969314,0.3064891275753312,0.2858944172884834,0.2738358918708423,0.3237013118286696,0.29430402330627375,0.3105325156350084,3.668,-38.924,-3.352,-11.16,1.86,-0.068,0.136
60,0.2189755859375,0.22690234375,0.20562890625,0.1934609375,0.2438974609375,0.2130654296875,0.2307119140625,0.3021237391901914,0.310059224695754,0.2887880647990817,0.27662209545765726,0.32706072411616294,0.29623079796765817,0.31387924170080383,3.24,-39.088,-3.444,-11.136,2.088,-0.12,0.168
61,0.2227958984375,0.230916015625,0.2093740234375,0.1969443359375,0.248830078125,0.216150390625,0.234611328125,0.3053819856848215,0.3135109075557933,0.2919712808635803,0.2795436764918293,0.33143155544851977,0.29875407178734875,0.3172170383199664,3.028,-39.736,-4.368,-11.432,1.86,0.468,0.18
62,0.2266103515625,0.234935546875,0.2133984375,0.2002734375,0.2529482421875,0.2206826171875,0.238509765625,0.3086308461167044,0.3169650831985044,0.29543008736538034,0.2823070371788543,0.3349837779504117,0.30272021164086543,0.3205491460084512,2.924,-40.816,-4.6,-10.54,1.768,-0.004,0.084
63,0.2304306640625,0.238845703125,0.2169990234375,0.2043251953125,0.2568603515625,0.22335546875,0.242822265625,0.31187232785923397,0.32029624801640555,0.29845176755752884,0.2857799172551505,0.33831705123308997,0.3048143120047768,0.32428290663880066,2.764,-40.544,-4.416,-10.792,1.84,0.26,0.036
64,0.23434765625,0.2428662109375,0.220455078125,0.207798828125,0.2603720703125,0.2274736328125,0.2473408203125,0.31520915793217685,0.32373671705396023,0.301327940229252,0.28867386379338816,0.34124880268644964,0.3083519636739101,0.32822056732779653,2.336,-40.168,-4.44,-11.252,2.076,0.452,0.104
65,0.2383671875,0.246982421875,0.2244794921875,0.21141796875,0.264490234375,0.231798828125,0.2514462890625,0.3186379251214267,0.32726331044412016,0.3047627546621956,0.2917033775806491,0.3447778463104859,0.31208858620556634,0.33173807948915757,2.124,-39.412,-4.672,-10.7,1.996,0.024,0.084
66,0.2424970703125,0.25099609375,0.2286474609375,0.2154873046875,0.268609375,0.2344716796875,0.255552734375,0.3221662790924079,0.3306753449704713,0.3083290603596258,0.29517096408927984,0.34829520952450965,0.31415968923145976,0.3352426883853262,2.444,-38.816,-5.248,-11.684,1.552,0.472,0.084
67,0.246619140625,0.25532421875,0.232248046875,0.21881640625,0.272314453125,0.23858984375,0.259451171875,0.32568158248277895,0.3343965864830273,0.31132219520693755,0.297892087011039,0.35139178301627927,0.3176688227141225,0.3385315663691433,1.912,-39.248,-5.088,-11.432,1.676,0.576,0.148
68,0.2506396484375,0.2594404296875,0.2361279296875,0.2228681640625,0.27643359375,0.242708984375,0.2629501953125,0.3290833032955406,0.33789407949589617,0.3145841813971412,0.3013267662346063,0.3548946201803615,0.3211724201626932,0.3414159368772147,1.22,-40.384,-4.972,-11.82,1.692,0.168,0.16
69,0.254666015625,0.2634609375,0.240162109375,0.226919921875,0.2795185546875,0.2460009765625,0.26644921875,0.33248655338571853,0.34129122169551684,0.31799508810641,0.30475529562908554,0.35735636825446526,0.32384124479188187,0.3442916870939425,1.432,-40.06,-4.972,-13.104,1.88,0.296,0.188
70,0.2588916015625,0.267783203125,0.2438974609375,0.23069140625,0.283224609375,0.250119140625,0.2701416015625,0.3360819774873386,0.34498458202679394,0.3211015674922928,0.30789786150315995,0.3604335495877622,0.3273304899237026,0.3473551780306243,1.06,-40.276,-3.792,-12.052,2.088,0.076,0.264
71,0.263123046875,0.2718994140625,0.24806640625,0.234896484375,0.2875361328125,0.253205078125,0.273640625,0.33967325217953714,0.34846081688127584,0.3246305697432673,0.31146302500275314,0.3641051271468184,0.32977657205830585,0.3502143270717848,0.476,-40.328,-3.72,-11.34,1.744,0.064,0.276
72,0.267349609375,0.2762275390625,0.251955078125,0.2386591796875,0.2912421875,0.2567041015625,0.2773330078125,0.343227490810513,0.3521112281753099,0.32783778898148364,0.3145411762507729,0.36712410642215654,0.3325866105544362,0.35321616897957775,0.156,-40.436,-3.976,-11.432,1.9,0.304,0.276
73,0.2715751953125,0.2805498046875,0.25540234375,0.2425751953125,0.2953603515625,0.2612353515625,0.281232421875,0.34682298147345514,0.35580872296343796,0.33066363262175164,0.3178387290956551,0.3706265697052725,0.33650420684903015,0.35650378861474485,-0.316,-41.192,-3.72,-10.908,1.976,-0.156,0.208
74,0.2757041015625,0.2845693359375,0.2591474609375,0.246771484375,0.298859375,0.264115234375,0.285337890625,0.3502911075418075,0.3591680767133265,0.33374905963510754,0.3213756233321795,0.37346610173498274,0.3387246281495591,0.3599496179609976,0.156,-41.624,-3.7,-11.892,2.216,-0.068,0.12
75,0.2799296875,0.2888916015625,0.26273828125,0.2503896484375,0.3023583984375,0.2682333984375,0.289443359375,0.3538464829796693,0.3628200540395199,0.33666949511536504,0.32432328644247466,0.3762945246980373,0.34217201285262816,0.36338428527552563,0.104,-41.68,-3.792,-12.232,2.244,0.12,0.116
76,0.284162109375,0.2933232421875,0.2661943359375,0.25386328125,0.3064765625,0.2723525390625,0.2933427734375,0.3573965211008908,0.3665684328688858,0.3394418315187069,0.32711282195370706,0.37972827810272225,0.34560642948947085,0.3665985789463018,-0.424,-42.22,-3.744,-11.364,2.048,-0.056,0.104
77,0.2883876953125,0.29754296875,0.2699296875,0.2577802734375,0.310169921875,0.2750244140625,0.2974609375,0.36094262548880035,0.3701099407410769,0.3424992020969316,0.3303519204661504,0.3827436356555541,0.3476001945294639,0.3700385877696604,-0.744,-42.056,-4.348,-11.732,1.868,0.472,0.096
78,0.292619140625,0.30176171875,0.273666015625,0.2612626953125,0.3140810546875,0.279349609375,0.3013603515625,0.3644778250164773,0.3736316769477508,0.3455386925168313,0.3331377261067862,0.38595852218134563,0.35122957978122926,0.37324262589181734,-1.116,-41.464,-4.648,-11.456,1.808,0.556,0.14
79,0.2966396484375,0.3057822265625,0.27741015625,0.265314453125,0.317787109375,0.28326171875,0.305052734375,0.36779876216488167,0.3769526463889564,0.3485831720315789,0.3364897968094743,0.38896483112415936,0.3544417682440253,0.376234826861252,-1.22,-41.516,-4.532,-11.18,1.86,0.168,0.148
80,0.3007626953125,0.3096923828125,0.28113671875,0.2692216796875,0.3210791015625,0.28634765625,0.3087451171875,0.3712175816261741,0.3801594839649554,0.35160693249149855,0.3396946675788372,0.3915548465813682,0.35682631051501934,0.37922634231558455,-1.06,-40.976,-4.832,-11.844,2.008,0.408,0.136
81,0.3048916015625,0.31391796875,0.284728515625,0.27255078125,0.324578125,0.290259765625,0.312244140625,0.3746244366073132,0.383659262213223,0.3544708855445238,0.3422947231091889,0.39432399756525016,0.3600075688456875,0.3819936181784387,-0.744,-41.032,-4.416,-11.364,2.164,0.252,0.188
82,0.3089111328125,0.317931640625,0.28876171875,0.2763232421875,0.3289033203125,0.293138671875,0.31573046875,0.3779314887530918,0.3869637962430128,0.3577967550045833,0.3453609519888764,0.3979437898052211,0.362181952699968,0.3847761468863502,-0.744,-40.868,-4.624,-11.548,1.8,0.272,0.172
83,0.3129375,0.3220478515625,0.2927861328125,0.2799501953125,0.3328154296875,0.296224609375,0.3192294921875,0.38123240470473935,0.39035576468724614,0.361097319468771,0.348264307136143,0.4011325362118122,0.36454478012525837,0.38755230921790296,-0.956,-40.76,-5.388,-12.052,1.744,0.564,0.18
84,0.317060546875,0.3260673828125,0.2962333984375,0.2834248046875,0.33671484375,0.30013671875,0.322921875,0.3846149391102831,0.39363114414801914,0.36379870653641555,0.35098849571488533,0.4042800112352903,0.3677038723799617,0.390490733511491,-1.22,-40.544,-5.224,-11.684,1.872,0.284,0.156
85,0.3209775390625,0.329875,0.299833984375,0.2874755859375,0.340419921875,0.30280859375,0.3268203125,0.3878029362007703,0.39671371636626773,0.36667612331262817,0.3543206862604853,0.40726807213679805,0.36965979383819525,0.3936742786125909,-1.38,-40.6,-4.532,-12.624,1.972,0.356,0.084
86,0.3247978515625,0.3337919921875,0.3037138671875,0.2913828125,0.34433203125,0.3063076171875,0.3307197265625,0.3908678804535004,0.3998743332471342,0.3697992860114862,0.35747093322317536,0.4104229253567635,0.37240128458759364,0.3968159524692933,-0.9,-40.22,-4.3,-12.552,2.14,0.448,0.084
87,0.3288173828125,0.337703125,0.30744921875,0.29501953125,0.3484501953125,0.3096005859375,0.3348251953125,0.39413489787432926,0.40303307784787024,0.37278242065648326,0.3603554586628445,0.41378899253786416,0.37494225288148825,0.40016953335673927,-0.848,-40.384,-3.884,-11.456,1.788,0.156,0.088
88,0.332734375,0.3417158203125,0.310896484375,0.2987822265625,0.352349609375,0.31206640625,0.33853125,0.3972919769453768,0.4062855661320857,0.37546927045922646,0.3633577797447164,0.41692789316288104,0.3766476025928861,0.40311504935939135,-0.848,-39.896,-3.7,-10.588,1.712,0.72,0.116
89,0.336658203125,0.345736328125,0.3143525390625,0.3021123046875,0.3560546875,0.315978515625,0.3420166015625,0.40042300214105764,0.40951315612481165,0.37813259901269536,0.3658952843144981,0.41984067852150797,0.3797674995822264,0.4058083763913818,-0.9,-39.736,-3.144,-10.128,1.672,0.668,0.148
90,0.3404716796875,0.3496533203125,0.317943359375,0.30573046875,0.359966796875,0.3194765625,0.3457099609375,0.4034904702159648,0.41268469806089286,0.38097753200185913,0.3687671955651993,0.4230061703496031,0.3825185640533895,0.4087543128945078,-0.636,-39.412,-3.188,-10.2,1.624,0.428,0.168
91,0.3443955078125,0.3535634765625,0.32124609375,0.3092041015625,0.3634658203125,0.3221494140625,0.349001953125,0.40663565150830994,0.4158175590224107,0.3835036279414782,0.3714647701944654,0.42572960462857107,0.3844163326198722,0.4112717073384222,-0.528,-39.464,-3.304,-10.748,1.684,0.74,0.172
92,0.3483193359375,0.3575830078125,0.3245576171875,0.31254296875,0.3673779296875,0.32585546875,0.35228125,0.409768642476598,0.4190385588704314,0.38601158834331645,0.37399701513980943,0.42883410141451833,0.38731352126920227,0.41374114566164877,-0.744,-39.412,-3.052,-10.22,1.692,0.688,0.192
93,0.3521328125,0.3615966796875,0.3280048828125,0.3160166015625,0.3714833984375,0.3289404296875,0.3557802734375,0.41279372070521014,0.42227165102166975,0.38868343596100224,0.37669833844253076,0.4321683947513316,0.3896287611302797,0.4164715609279679,-0.636,-39.736,-3.468,-10.22,1.592,0.532,0.276
94,0.3560498046875,0.3654111328125,0.3314521484375,0.3194912109375,0.374982421875,0.3318203125,0.3590595703125,0.4159135721238512,0.42528843973615743,0.3913327397179847,0.3793746854947505,0.43486877963140214,0.3917097061239314,0.4189516178633246,-0.528,-39.248,-3.7,-10.472,1.676,0.696,0.332
95,0.3598701171875,0.3693212890625,0.334763671875,0.3228203125,0.3791005859375,0.335525390625,0.36255859375,0.41893205969641373,0.4283976023118376,0.3938434476732064,0.3819031467925329,0.4381865748144739,0.39461461093383265,0.4216506414839439,-0.636,-38.924,-3.72,-10.108,1.748,0.544,0.316
96,0.3636845703125,0.3732314453125,0.3384990234375,0.3264482421875,0.38320703125,0.3388173828125,0.3660439453125,0.4219351509132946,0.43149626880058634,0.39676725720180744,0.38471955673813707,0.44148152337930924,0.3970949555580223,0.4243243661003928,-0.316,-38.168,-3.792,-10.152,1.676,0.368,0.264
97,0.367498046875,0.3771484375,0.3419462890625,0.32977734375,0.387119140625,0.3419033203125,0.369943359375,0.4249335663406728,0.43459705219983835,0.3993980065904372,0.3872320274263518,0.4445769269679583,0.39936413118807845,0.4274069605562402,0.264,-38.224,-3.976,-9.856,1.764,0.552,0.192
98,0.371421875,0.3810595703125,0.34540234375,0.3329716796875,0.3910302734375,0.3451953125,0.37385546875,0.42803642226858846,0.4376886402477832,0.40203518653969217,0.38960800047222266,0.44767013106288206,0.40183862826871863,0.4305020067897871,-0.052,-38.44,-3.884,-9.604,1.612,0.468,0.128
99,0.3750302734375,0.3848671875,0.3492822265625,0.3364462890625,0.3949423828125,0.34828125,0.3777548828125,0.43082118164277267,0.44067313245891543,0.40509214804069743,0.39225961323155206,0.45075934696553327,0.4041017946846432,0.4335786716459642,-0.212,-38.656,-4.252,-9.696,1.464,0.564,0.148
100,0.37884375,0.3886806640625,0.353017578125,0.339775390625,0.398841796875,0.3517802734375,0.3816533203125,0.43380423199805573,0.4436565218861767,0.40799745884953587,0.39475877634731676,0.4538287671539989,0.40677082817191,0.4366472403600854,0.212,-37.628,-4.392,-10.336,1.272,0.468,0.116
101,0.382767578125,0.392591796875,0.35646484375,0.34325,0.402546875,0.355072265625,0.385359375,0.4368815818469205,0.4467196940876073,0.4105966701666789,0.3973852743963396,0.4566856975129221,0.40921461611305066,0.4395049326554409,0.316,-37.036,-3.952,-9.924,1.38,0.544,0.148
102,0.38658203125,0.3963994140625,0.3600556640625,0.3468681640625,0.4068720703125,0.357951171875,0.3892578125,0.4398586664728629,0.44969103956463724,0.4133512638265943,0.4001672336444493,0.46017477100320026,0.41125752374828894,0.442567391855347,-0.052,-36.388,-3.884,-10.268,1.268,0.924,0.156
103,0.39029296875,0.40031640625,0.3637919921875,0.350341796875,0.4103583984375,0.3616572265625,0.392537109375,0.44272333199772995,0.4527627057202528,0.416242371847359,0.40279574913928323,0.46281592321384746,0.4141184252463921,0.4450016368189345,0.212,-36.604,-3.836,-10.428,1.36,0.996,0.188
104,0.3940107421875,0.4041240234375,0.36752734375,0.3541142578125,0.4144765625,0.36515625,0.3960361328125,0.4455809825959702,0.455708316883878,0.4191155791510546,0.40570600615883345,0.4660719053982046,0.4167552690504678,0.44763841947408917,0.424,-36.496,-3.42,-9.788,1.22,0.76,0.168
105,0.397927734375,0.407931640625,0.3708388671875,0.3578857421875,0.4181826171875,0.3676220703125,0.3995224609375,0.44863993818615305,0.45865927568456005,0.4215703649415635,0.40862069162488446,0.4689211004068148,0.4183641694063961,0.45026784711257506,0.584,-36.44,-2.844,-9.604,1.208,1.124,0.192
106,0.40184375,0.411951171875,0.3741416015625,0.3612158203125,0.4218876953125,0.3713271484375,0.402814453125,0.4516951141048994,0.461818490888511,0.42401299170055023,0.4110907648449584,0.4717661734911403,0.42120936681797755,0.45269989503031804,0.476,-36.224,-2.196,-8.804,1.448,1.08,0.22
107,0.405767578125,0.41596484375,0.377732421875,0.364689453125,0.4262001953125,0.3746201171875,0.4065068359375,0.4547488763853586,0.46496193855712686,0.4267335071341578,0.4136941130769085,0.4752084298747503,0.4236319262776771,0.4555219700959386,0.0,-36.388,-1.94,-8.62,1.456,0.688,0.192
108,0.40958203125,0.419978515625,0.38132421875,0.3681630859375,0.4301123046875,0.3770859375,0.410005859375,0.4576878350956377,0.46809968162005705,0.4294491466788588,0.41629133683415853,0.4782440665693288,0.4252211057995859,0.4581442041458863,0.156,-36.332,-2.796,-9.148,1.444,1.048,0.168
109,0.4137109375,0.4241005859375,0.384626953125,0.371357421875,0.4342177734375,0.3805849609375,0.4139052734375,0.4609336067297515,0.47133781864718216,0.431868052400602,0.4186017782415601,0.48146557594618045,0.4278361885036631,0.46115961080999324,0.0,-37.088,-2.728,-8.688,1.332,0.948,0.136
110,0.4176337890625,0.42801171875,0.3879384765625,0.3749755859375,0.4381298828125,0.3832568359375,0.41759765625,0.46397502297380955,0.4743683960063758,0.4342989563417116,0.4213394245408611,0.48449718579360807,0.4296275821018585,0.4639715286795928,-0.264,-37.252,-2.38,-8.324,1.144,0.888,0.096
111,0.42155078125,0.4319287109375,0.391529296875,0.3785947265625,0.4416416015625,0.3861357421875,0.4217158203125,0.4670037621004643,0.4773979158684261,0.43700240895068937,0.4240714059548055,0.4871218269650839,0.43161961969296425,0.46720301012419785,0.052,-37.036,-2.704,-9.032,1.156,1.144,0.14
112,0.425474609375,0.43594140625,0.39483203125,0.381779296875,0.4453466796875,0.3900478515625,0.4254091796875,0.47002591455015974,0.48050551798723184,0.4393982773255897,0.42634752786252755,0.4899174077911811,0.43462180238875603,0.4699860970748604,-0.104,-36.224,-2.752,-8.736,1.236,0.696,0.108
113,0.429494140625,0.4398525390625,0.398423828125,0.3853984375,0.4496591796875,0.3923203125,0.4291015625,0.4731522700245363,0.48352643330687306,0.4421017545224746,0.42907988123596363,0.493344312267691,0.43600911240482565,0.472793707970975,-0.052,-35.9,-3.188,-8.46,1.216,0.768,0.148
114,0.4334111328125,0.4439814453125,0.4020146484375,0.3887275390625,0.4535712890625,0.3949931640625,0.432806640625,0.47617204258948564,0.486758734040614,0.44479607478369076,0.4315126719487584,0.49636021461295304,0.4377857960074413,0.475602720314161,0.0,-35.144,-3.512,-8.804,0.996,1.24,0.136
115,0.4374375,0.4479951171875,0.4054619140625,0.391921875,0.4570576171875,0.398685546875,0.4360859375,0.4792864125622607,0.48985940327375554,0.44732998921336575,0.43379332776987356,0.498932512470989,0.44056388461192786,0.4779674794791302,-0.584,-35.576,-3.376,-7.728,1.152,1.032,0.208
116,0.441251953125,0.4519052734375,0.409341796875,0.395693359375,0.4609697265625,0.4011650390625,0.4393779296875,0.48219185084530447,0.4928609626773032,0.450301488178302,0.4366565306694441,0.5019364430366238,0.4421352354074245,0.4803514101058093,-0.316,-35.524,-3.444,-8.552,1.116,1.08,0.24
117,0.4451748046875,0.45592578125,0.41293359375,0.39916796875,0.4646748046875,0.40445703125,0.4424638671875,0.48520298158690034,0.4959696229321898,0.4529814770621182,0.43921932561693544,0.5047298316630279,0.444515619043276,0.4825257754434272,0.316,-35.308,-3.652,-9.26,1.228,1.32,0.304
118,0.4492978515625,0.4600419921875,0.4165244140625,0.402353515625,0.4689873046875,0.4079423828125,0.4457431640625,0.4884029552904693,0.49916181937385246,0.45564781773515073,0.4414801446671377,0.5081171590510644,0.4470754624494266,0.48487909594194056,-0.104,-35.308,-3.028,-8.804,1.312,0.928,0.364
119,0.4531123046875,0.4639521484375,0.420259765625,0.4061162109375,0.47310546875,0.4098017578125,0.4490361328125,0.491299904077532,0.5021559209096919,0.45846750406951076,0.44432747463166433,0.5113204118641832,0.4480203141903768,0.48725783973237413,-0.476,-35.144,-3.836,-8.984,1.08,1.248,0.312
120,0.457138671875,0.4679716796875,0.42399609375,0.4095986328125,0.476810546875,0.4126806640625,0.4523154296875,0.4944001646182029,0.5052493230517549,0.46127771928564554,0.4468838864889672,0.5140994950021409,0.44997332870312734,0.489611456836394,-0.316,-34.876,-3.792,-9.376,0.968,1.568,0.296
121,0.4610556640625,0.4718828125,0.4274423828125,0.4130732421875,0.480296875,0.4165927734375,0.4560205078125,0.4973528475406702,0.508191547939031,0.4637508294593103,0.4493204792332523,0.5165448453204988,0.45284383237548137,0.49227427759057246,-0.316,-35.092,-3.028,-8.756,1.052,1.04,0.232
122,0.4648759765625,0.4756904296875,0.4310341796875,0.4171240234375,0.484208984375,0.4190595703125,0.459712890625,0.5002772477867578,0.5111090034557991,0.46645714579015457,0.45255093588559375,0.5196399099910407,0.45449450903123373,0.4951514856693697,0.052,-34.768,-2.472,-9.056,0.924,1.08,0.128
123,0.4688955078125,0.4797099609375,0.4343369140625,0.4205986328125,0.4877080078125,0.42214453125,0.4634189453125,0.5033572557762828,0.5141869277880409,0.4688179092902173,0.45508318638723333,0.5221946202823713,0.45663452295744705,0.4979120476693269,-0.156,-34.444,-2.336,-8.528,0.996,1.236,0.156
124,0.4730185546875,0.483826171875,0.4376396484375,0.4237841796875,0.491607421875,0.4254375,0.467111328125,0.5064878248407005,0.5173064954803815,0.47112118519860424,0.4572671317899331,0.5250916769834064,0.4589237320707595,0.500599177699448,-0.636,-34.388,-1.688,-6.952,1.032,0.76,0.192
125,0.47705078125,0.48783984375,0.4410859375,0.42740234375,0.4955185546875,0.427283203125,0.4706103515625,0.5096214701302626,0.5204262212608709,0.4736758989255927,0.4599955284048065,0.5281150526922874,0.45988301443972923,0.5032130929819083,-0.744,-34.064,-1.848,-7.636,0.916,1.072,0.148
126,0.4810712890625,0.491962890625,0.444533203125,0.4303076171875,0.499017578125,0.430576171875,0.474302734375,0.5127053221384859,0.5236142933934038,0.4761890612294507,0.461967455634634,0.5306813968590712,0.46224406129940704,0.5059742421418538,-0.688,-34.064,-2.288,-7.592,1.052,1.204,0.188
127,0.4852001953125,0.4960791015625,0.44769140625,0.4336376953125,0.5029169921875,0.4336611328125,0.4778017578125,0.5158784127297035,0.5267728400348738,0.4783882760643845,0.4643371291720465,0.5336190808313892,0.46436608042819477,0.508508906363803,-0.956,-34.444,-1.896,-6.952,0.872,0.7,0.188
128,0.4891171875,0.4999892578125,0.451138671875,0.4374091796875,0.5066220703125,0.4355078125,0.4810810546875,0.5188353242320178,0.5297229652093943,0.480875998655297,0.46714964778478896,0.5363657935086481,0.46525497286091083,0.5108311741659973,-0.688,-34.444,-2.312,-7.5,0.916,1.156,0.212
129,0.4931435546875,0.504009765625,0.4543056640625,0.4405947265625,0.51012109375,0.4387998046875,0.484373046875,0.5219072052176345,0.5327881896002319,0.48308790116509165,0.46938061691796584,0.5389106144840126,0.467592955758687,0.5131695770907769,-0.424,-34.388,-2.336,-7.844,1.06,1.256,0.252
130,0.4971630859375,0.5080224609375,0.4576083984375,0.443923828125,0.5138134765625,0.442091796875,0.487458984375,0.5249734383140018,0.5358492560563703,0.48543910946533014,0.4717581115206539,0.5416514009857367,0.46993347678163067,0.5153040304409358,-0.796,-34.28,-2.124,-7.476,1.112,0.876,0.22
131,0.5009775390625,0.5120361328125,0.4611904296875,0.4475419921875,0.5177255859375,0.443951171875,0.49073828125,0.5278273217730334,0.5389031628527834,0.48806168530705146,0.4744170140406381,0.5446044658409767,0.4708338868214913,0.5176244867375172,-0.796,-33.524,-3.028,-7.772,0.948,1.34,0.24
132,0.5051064453125,0.5160625,0.464501953125,0.4505830078125,0.52141796875,0.4470244140625,0.49382421875,0.5309891120332041,0.5419610106117416,0.4904038488963806,0.47648702217100525,0.5473239174597782,0.4729322740853538,0.5197337367711597,-0.528,-33.472,-3.052,-7.292,0.872,1.568,0.22
133,0.5091259765625,0.51997265625,0.46766015625,0.4536240234375,0.5249169921875,0.45031640625,0.4971162109375,0.5340402648084572,0.5449035227841287,0.49259499407618695,0.4785623476541268,0.5498588951156623,0.4752618878556357,0.5220648094280168,-0.796,-33.688,-2.588,-6.516,0.784,1.208,0.16
134,0.512947265625,0.5238837890625,0.471251953125,0.4572421875,0.5282099609375,0.45217578125,0.5003955078125,0.5368866269465581,0.5478388911164925,0.4952106430519588,0.4812040717637438,0.5521751552475026,0.47614426243151947,0.524366928637526,-0.744,-33.632,-2.912,-7.544,0.804,1.56,0.14
135,0.5168642578125,0.5279033203125,0.474689453125,0.460283203125,0.5317080078125,0.45526171875,0.50389453125,0.5398360879490378,0.5508916947536757,0.4976820041439699,0.4832794666220152,0.5547079605514219,0.47826547671009717,0.526901607148639,-0.584,-33.416,-2.912,-7.772,0.76,1.604,0.156
136,0.5208837890625,0.5319169921875,0.47813671875,0.46346875,0.535607421875,0.4583466796875,0.507173828125,0.5428822074362974,0.5539322954049052,0.5001563942436523,0.4854922395708462,0.5576348185144003,0.4803780763842844,0.5292087364695294,-0.636,-33.2,-2.98,-7.04,0.708,1.22,0.156
137,0.5248076171875,0.5358271484375,0.481439453125,0.4668076171875,0.5393125,0.4597802734375,0.5104658203125,0.545832969061832,0.5568694222715644,0.50248601562009,0.4878580953811962,0.5603667773213739,0.4808384663909345,0.5315274627233304,-0.372,-32.34,-3.236,-7.524,0.544,1.604,0.136
138,0.5288330078125,0.53984765625,0.4847412109375,0.4699931640625,0.54260546875,0.462453125,0.513771484375,0.548874867010444,0.5599060760651872,0.5048038584065973,0.490059338440804,0.5626753568655167,0.4825268202501416,0.533848542958116,-0.744,-32.124,-2.96,-7.592,0.584,1.78,0.188
139,0.532654296875,0.5437578125,0.4880439453125,0.473322265625,0.545884765625,0.4655380859375,0.51684375,0.5517189949955855,0.5628393148197941,0.5071294730677662,0.49241142092543655,0.5649776420575886,0.48463468347480304,0.5359436005560495,-0.848,-32.068,-2.312,-7.34,0.688,1.28,0.188
140,0.5364677734375,0.5475654296875,0.4916357421875,0.4770849609375,0.5493837890625,0.4673974609375,0.5199296875,0.5545497831726307,0.5656646506039212,0.5097393009845208,0.495192341729863,0.56749501527043,0.4855126028755108,0.5380483934308443,-0.052,-32.068,-2.404,-7.796,0.752,1.372,0.224
141,0.54048828125,0.551681640625,0.4946494140625,0.4801259765625,0.5530888671875,0.4696572265625,0.52280859375,0.5575853007654176,0.5687950095123228,0.5117667292793542,0.49724674479516684,0.5702132763324296,0.486785276596306,0.5399398148615111,-0.212,-31.692,-2.032,-7.272,0.676,1.5,0.232
142,0.5447197265625,0.5557021484375,0.49752734375,0.4830224609375,0.5565751953125,0.472123046875,0.5254814453125,0.5608286558383794,0.5718263723314466,0.5136542265149702,0.4991516260868441,0.5727068310743815,0.48825694147378296,0.5416170340334124,-1.008,-31.908,-1.384,-5.74,0.7,1.344,0.296
143,0.54863671875,0.55971484375,0.500685546875,0.486361328125,0.5602802734375,0.4737626953125,0.528154296875,0.5637559404512407,0.5748501856123444,0.5158244473736572,0.5015033866023636,0.5754254898781149,0.4889110697009078,0.5433055699630706,-1.22,-31.744,-1.384,-5.58,0.592,1.6,0.336
144,0.5526630859375,0.563728515625,0.5037001953125,0.4891044921875,0.5631591796875,0.476228515625,0.530826171875,0.5667919789982037,0.5778726558532122,0.517848088275083,0.5032560434564715,0.5773145072524718,0.49038759586371633,0.544988721548699,-0.848,-31.908,-1.5,-5.988,0.664,1.548,0.368
145,0.5566826171875,0.5678515625,0.5065693359375,0.4920009765625,0.5664521484375,0.4789140625,0.53329296875,0.5698082551887187,0.5809916889770702,0.519712818595702,0.5051473426882346,0.5796000981021482,0.4920651792324101,0.5464468743817128,-0.584,-32.176,-1.364,-5.784,0.696,1.204,0.364
146,0.560708984375,0.57176171875,0.5094384765625,0.4950419921875,0.5699375,0.480140625,0.53596484375,0.5728539472381634,0.5839220876232352,0.5216026081494574,0.5072094841706779,0.5821083760300665,0.49231497972086286,0.548142180193929,-0.796,-32.444,-1.384,-6.196,0.532,1.432,0.336
147,0.56483203125,0.575884765625,0.5123076171875,0.4977939453125,0.5730361328125,0.482193359375,0.5384306640625,0.575986981640417,0.5870553296028713,0.5234818535169147,0.5089712616669265,0.5842167424125607,0.49337733328525907,0.5496175284262128,-1.116,-32.232,-1.456,-6.036,0.48,1.768,0.324
148,0.5688515625,0.579904296875,0.5150419921875,0.5005458984375,0.576328125,0.4848662109375,0.541103515625,0.5790109329824276,0.5900792977231528,0.5252209539534033,0.5107282518746405,0.5865141547107785,0.4950559169080057,0.5512965183585229,-1.276,-31.8,-1.708,-5.648,0.312,1.516,0.26
149,0.5726787109375,0.5838154296875,0.517912109375,0.5034423828125,0.5790009765625,0.4865185546875,0.5435693359375,0.5818435484817206,0.5929959127787784,0.5270959637077549,0.5126294421890105,0.5881914071599496,0.4957123802362355,0.5527661528330575,-1.964,-31.692,-2.104,-6.356,0.46,1.516,0.208
150,0.576486328125,0.5877255859375,0.52034765625,0.5062041015625,0.581673828125,0.488158203125,0.5458291015625,0.5846548384977468,0.5959097554878926,0.5285362930249745,0.5143966352646321,0.5898704488348409,0.4963589108287656,0.554033516062783,-3.612,-33.416,-2.68,-6.996,0.688,1.684,0.18
151,0.58030078125,0.5914306640625,0.5225048828125,0.508947265625,0.5837265625,0.490224609375,0.5480888671875,0.5874735267194462,0.5986191996592686,0.5296971043317429,0.5161427687959872,0.5909253473149422,0.497426699606048,0.5552939536881834,-4.624,-35.036,-2.796,-7.82,0.72,1.52,0.192
152,0.58412109375,0.5951416015625,0.5246611328125,0.51141015625,0.5851591796875,0.491451171875,0.5499345703125,0.5902843184473284,0.6013191041163835,0.5308425141622571,0.5175953212014611,0.5913482472125388,0.4976401442154299,0.5561265409654044,-4.304,-35.684,-2.728,-8.072,1.144,1.444,0.168
153,0.58783203125,0.5987431640625,0.5266640625,0.5138740234375,0.587431640625,0.4924833984375,0.55157421875,0.5930126286300166,0.6039408568333144,0.5318665410005817,0.5190806924180178,0.5926425000762858,0.4976985435880356,0.5567932924497438,-3.772,-35.252,-2.496,-8.116,1.104,1.444,0.192
154,0.591337890625,0.6022421875,0.5288212890625,0.515904296875,0.5892783203125,0.4933095703125,0.5528134765625,0.5955112043975888,0.6064311040334386,0.5330138740164954,0.5201000976475617,0.5934775036450854,0.4975121600210902,0.5570190676892559,-6.164,-36.928,-3.052,-7.888,0.904,1.508,0.168
155,0.594541015625,0.6054326171875,0.5306884765625,0.5182138671875,0.5901044921875,0.4937099609375,0.553833984375,0.5977132937964486,0.6086185974977012,0.5338783649500083,0.5214073538613875,0.5933017677809818,0.49691102544598137,0.557038385031245,-6.38,-38.06,-4.208,-8.276,0.976,1.696,0.192
156,0.59783984375,0.6084228515625,0.5318349609375,0.520388671875,0.59091796875,0.49494921875,0.55466015625,0.6000219948605755,0.6106217118052237,0.5340385168882084,0.5225963276276898,0.5931298196450604,0.4971653601275473,0.55688020673026,-5.792,-37.792,-4.14,-9.192,0.888,1.404,0.16
157,0.60093359375,0.611201171875,0.532701171875,0.52212109375,0.5902978515625,0.49494921875,0.5548671875,0.6021152954828662,0.6123986796411226,0.5339020649415025,0.523324799952391,0.5915045377806827,0.49615909954392107,0.5560797860663383,-6.484,-36.496,-3.004,-9.376,1.352,1.256,0.18
158,0.6038212890625,0.613876953125,0.5338466796875,0.52387109375,0.5905048828125,0.49494921875,0.5550732421875,0.6039937208432483,0.6140648820882186,0.5340373027758364,0.5240641248615547,0.5907002981053489,0.49514744737663285,0.5552713754468885,-8.08,-37.36,-2.912,-9.832,1.468,1.312,0.18
159,0.6061953125,0.616552734375,0.5351376953125,0.5251708984375,0.5902978515625,0.4947431640625,0.5550732421875,0.6053763375440423,0.6157502812835727,0.5343398197112441,0.5243771235059427,0.5895082726664347,0.49395780504443954,0.5542916977496307,-9.248,-38.168,-4.368,-10.472,1.292,1.344,0.14
160,0.6090830078125,0.6190224609375,0.53528125,0.5259013671875,0.5907109375,0.4955693359375,0.5550732421875,0.6072706327153508,0.6172282980579411,0.5334918785645657,0.5241161912488033,0.5889301477657989,0.49379286089693447,0.5533006765959585,-4.836,-37.036,-5.316,-9.148,1.228,1.176,0.128
161,0.6118740234375,0.6210869140625,0.5342802734375,0.526767578125,0.5911240234375,0.494330078125,0.5550732421875,0.609054628108352,0.6182828191543388,0.5314805637088527,0.5239717769304612,0.5883322022790372,0.4915422608396302,0.5522889282947557,-10.74,-40.276,-3.86,-9.168,0.616,1.22,0.14
162,0.6135205078125,0.62304296875,0.5341357421875,0.5277783203125,0.5882451171875,0.493103515625,0.5550732421875,0.609700358248059,0.6192405208152472,0.5303380830048611,0.5239848542732025,0.584455939597165,0.4893186503153809,0.5512922841438427,-11.376,-39.572,-3.328,-10.84,1.604,2.192,0.172
163,0.615173828125,0.62489453125,0.5339912109375,0.5277783203125,0.58783203125,0.4970029296875,0.5550732421875,0.6103472347418744,0.6200822263586406,0.529182883027214,0.5229738026906321,0.5830314906241254,0.4922063898796446,0.5502803221740075,-6.592,-37.196,-3.328,-11.32,1.964,0.96,0.16
164,0.6168203125,0.62664453125,0.5341357421875,0.527345703125,0.587431640625,0.4965888671875,0.5550732421875,0.6109901452421309,0.6208293350773261,0.528324735085943,0.5215382900642042,0.5816279168191718,0.4907546061103894,0.5492398855579823,-8.24,-40.436,-3.468,-11.112,1.412,-0.104,0.108
165,0.6181640625,0.6281875,0.5342802734375,0.527201171875,0.5863994140625,0.49227734375,0.55466015625,0.6113510572234114,0.6213913832076325,0.5274889377866191,0.5204140227090743,0.5796164513934802,0.4854986627378966,0.5478854952493649,-9.992,-42.164,-4.508,-11.296,1.536,1.852,0.088
166,0.619193359375,0.6294228515625,0.5337021484375,0.5266240234375,0.5861923828125,0.4926904296875,0.5540400390625,0.6113783533861193,0.6216232241708107,0.5259061815120681,0.5188311702935857,0.5784028098435972,0.48490423197994775,0.5462568600821667,-12.016,-41.464,-4.74,-10.448,0.888,1.912,0.036
167,0.619193359375,0.6302529296875,0.5334140625,0.5264794921875,0.5833134765625,0.4926904296875,0.5528134765625,0.6103897048268582,0.6214672059926899,0.5246328037507083,0.5177023184038175,0.5745402927594758,0.4839213308792555,0.5440481777626388,-12.972,-40.708,-5.04,-9.58,1.184,0.864,0.016
168,0.61898828125,0.63035546875,0.532701171875,0.527201171875,0.5810537109375,0.4904306640625,0.5513681640625,0.6091849810399512,0.6205688013147251,0.5229187753817981,0.5174224531519093,0.5712787649085925,0.48065949074182307,0.5416005024576999,-9.248,-38.764,-5.364,-11.364,1.592,1.092,0.004
169,0.618884765625,0.6305615234375,0.5309775390625,0.526767578125,0.578587890625,0.4887783203125,0.549521484375,0.6080774275234505,0.6197677194003808,0.5201863186085872,0.5159788464507925,0.5678018373593623,0.4779946610292896,0.5387398161314426,-9.516,-38.764,-3.792,-11.82,1.592,0.888,-0.024
170,0.618267578125,0.6305615234375,0.529966796875,0.5263349609375,0.57653515625,0.4858994140625,0.54746875,0.606473023652348,0.6187831631248149,0.5181922957431603,0.5145638454820276,0.5647674028083758,0.4741351410297021,0.5357074838626532,-11.428,-39.736,-3.144,-10.496,1.748,1.092,0.012
171,0.6173408203125,0.63035546875,0.529109375,0.5261904296875,0.5752958984375,0.4834326171875,0.5450029296875,0.6045595990276458,0.6175915094694622,0.51634997957429,0.513435196142594,0.5625449213848288,0.47068580206105415,0.5322600163872745,-8.716,-39.356,-3.908,-10.7,0.872,1.52,0.0
172,0.6163056640625,0.630046875,0.5273857421875,0.52444921875,0.571396484375,0.482193359375,0.5417109375,0.6025324980239326,0.6162892711758362,0.513631019417535,0.5106971645078296,0.5576471931323034,0.46844685475799336,0.5279666291295514,-6.164,-39.572,-4.464,-9.924,0.908,1.04,-0.004
173,0.6153798828125,0.6294228515625,0.5248056640625,0.52328515625,0.5682978515625,0.4791083984375,0.5386376953125,0.6006132039895431,0.6146727028647269,0.510059571321462,0.5085427186074951,0.5535592576904937,0.46437345970532706,0.5239061523411715,-5.368,-38.98,-3.26,-9.236,1.268,0.832,0.088
174,0.614248046875,0.6283935546875,0.5222158203125,0.522265625,0.56583203125,0.4747958984375,0.535138671875,0.5984936752402299,0.612655781880591,0.506482685839119,0.5065366344478576,0.5501071846467916,0.45907531353792647,0.5194219484338347,-5.58,-37.736,-2.08,-9.9,0.78,1.516,0.104
175,0.61280078125,0.6274677734375,0.519779296875,0.520244140625,0.561919921875,0.4719169921875,0.531033203125,0.5960543905197871,0.6107374604649026,0.5030534030131678,0.5035221957841982,0.5452020201073324,0.45520322754702525,0.5143230114816935,-6.592,-38.168,-2.448,-8.824,0.968,1.416,0.156
176,0.611044921875,0.6261298828125,0.517478515625,0.518791015625,0.558833984375,0.4686240234375,0.52712109375,0.5933125221298395,0.6084125471788968,0.49976540364859795,0.5010815407128846,0.5411282404120241,0.45092222163710927,0.5094227648306547,-7.124,-38.276,-3.028,-8.896,0.948,1.08,0.108
177,0.609185546875,0.6245859375,0.514609375,0.51705859375,0.5545224609375,0.4643115234375,0.5223955078125,0.5904854968917372,0.6059039924861352,0.4959320207390118,0.4983852915649793,0.5358532811282596,0.44564634892257626,0.5037341043925114,-8.132,-39.896,-4.16,-10.404,0.928,1.168,0.024
178,0.6076357421875,0.6227333984375,0.51044921875,0.5148837890625,0.548970703125,0.4599873046875,0.5166376953125,0.58794243343886,0.6030554940312803,0.49077552198764535,0.4952138090823655,0.5293045568366439,0.4403250856267756,0.4969789126018303,-8.24,-40.544,-3.908,-10.312,1.34,0.888,0.024
179,0.60588671875,0.62067578125,0.5061357421875,0.51286328125,0.544451171875,0.4548486328125,0.5112919921875,0.5852170274998574,0.6000221392493909,0.48548678909871584,0.4922184339139935,0.5238104536565734,0.4342121137343948,0.4906592990258883,-9.992,-39.304,-1.548,-10.244,1.568,1.04,-0.044
180,0.6032041015625,0.6185078125,0.5029775390625,0.5105439453125,0.5399326171875,0.449916015625,0.5061533203125,0.5815626191344314,0.5968836251047832,0.4813577279070109,0.4889279517633099,0.5183205343912242,0.42830791345211955,0.4845487565016786,-10.26,-38.816,-1.456,-11.228,1.62,1.352,-0.036
181,0.6004189453125,0.616244140625,0.4998193359375,0.5077919921875,0.5362275390625,0.4464169921875,0.5006025390625,0.5777943645342035,0.5936345625891962,0.4772137525303714,0.4851899157240912,0.5136292714983036,0.423822324529317,0.47801119263529535,-7.284,-39.952,-3.628,-10.404,1.436,0.664,-0.064
182,0.597943359375,0.6134658203125,0.4952265625,0.5050400390625,0.531501953125,0.4398330078125,0.494443359375,0.5743529463733579,0.5898925295333861,0.471657627694011,0.48147499686830336,0.5079408962629964,0.416275936322311,0.4708899025586226,-8.452,-42.488,-4.856,-10.2,0.624,0.504,-0.14
183,0.5953642578125,0.6101728515625,0.489623046875,0.5024228515625,0.5242978515625,0.4322158203125,0.487859375,0.5707975565985771,0.5856221436381018,0.4650767996259861,0.47788057967420733,0.4997596475279004,0.40768168417479994,0.46332884453430306,-9.78,-43.728,-4.044,-10.908,1.28,1.748,0.024
184,0.5921669921875,0.606673828125,0.4840283203125,0.49982421875,0.518345703125,0.428935546875,0.4810810546875,0.566622408399391,0.581142890703578,0.4585003796275557,0.47429888294053235,0.49281843094615396,0.40341069515947664,0.45555853124226653,-10.632,-42.704,-2.288,-11.64,1.66,0.844,0.012
185,0.588140625,0.60316796875,0.4798603515625,0.496638671875,0.5111416015625,0.4237841796875,0.474095703125,0.5616376386999172,0.5766804315847897,0.4533769526738853,0.470158836541427,0.48466553673944096,0.397311770459012,0.44762669662249976,-8.08,-38.816,-3.212,-11.844,2.224,-0.084,-0.012
186,0.58473828125,0.59956640625,0.4754111328125,0.4928759765625,0.506416015625,0.4165927734375,0.466904296875,0.5572802831436745,0.572124685626773,0.447974020464648,0.4654428076645013,0.4789869736425285,0.3891678584210724,0.43948314202716454,-6.38,-36.928,-5.224,-10.768,1.944,0.388,-0.052
187,0.581748046875,0.59596484375,0.4698076171875,0.4885263671875,0.5016904296875,0.4085625,0.4595068359375,0.5533202051765517,0.5675511972960039,0.4413967367071113,0.4601177040749296,0.4732840525370403,0.380159483243157,0.4311061280427503,-7.068,-37.736,-5.248,-8.896,0.72,1.012,-0.088
188,0.5782421875,0.591951171875,0.464212890625,0.484322265625,0.49510546875,0.400544921875,0.452521484375,0.5488597998156878,0.5625835293261325,0.43484896295772063,0.45496139194267027,0.4657479453692119,0.37119083999796715,0.4231703882042311,-6.856,-38.168,-2.96,-7.04,0.74,1.828,0.052
189,0.5737080078125,0.5873134765625,0.459755859375,0.48142578125,0.489140625,0.3949931640625,0.4465693359375,0.543367543442557,0.5569871204004445,0.42943207047847143,0.4511045596410083,0.4588220615791706,0.36467737245274323,0.4162558390432016,-6.164,-40.276,-2.428,-9.468,0.68,1.704,0.104
190,0.5687490234375,0.582580078125,0.4548740234375,0.477951171875,0.481123046875,0.39066796875,0.440205078125,0.5374679647625358,0.5513157322149098,0.42361384454638384,0.4466947071167199,0.4498702962973426,0.3594190003443939,0.4089595522184575,-4.412,-41.248,-4.024,-11.98,1.116,0.732,0.036
191,0.5646259765625,0.5781484375,0.4484130859375,0.473611328125,0.4737255859375,0.384703125,0.4338271484375,0.5323853082586756,0.5459214236147245,0.41618871273616936,0.441389595632689,0.4415066070317241,0.35248708027380965,0.40161356393189235,-5.42,-37.088,-3.492,-12.532,2.108,0.032,-0.012
192,0.560708984375,0.5736142578125,0.4420966796875,0.4686845703125,0.4683798828125,0.376478515625,0.426841796875,0.5275357137061978,0.5404576765597979,0.4089441697301423,0.4355357268231207,0.43523481831183286,0.34333723016622125,0.39370390810043354,-7.812,-34.012,-1.848,-11.228,2.08,0.552,-0.012
193,0.5563740234375,0.569189453125,0.4372060546875,0.4637578125,0.463435546875,0.3686552734375,0.4202705078125,0.5222494626464368,0.5350801320791053,0.40310076784188353,0.4296561789010521,0.42933758898725477,0.33456096889973935,0.38617961012602975,-7.548,-35.308,-1.708,-8.94,1.144,1.248,-0.052
194,0.551421875,0.5642431640625,0.4327578125,0.459408203125,0.4587099609375,0.3620703125,0.414111328125,0.5163495065054514,0.5291824060849364,0.39769312474865515,0.42434492204694835,0.42364873406323017,0.32701125148929067,0.3790542320376605,-3.56,-37.576,-3.304,-7.592,0.48,1.484,-0.104
195,0.5464697265625,0.5589951171875,0.4275869140625,0.4556455078125,0.4527451171875,0.3558984375,0.4085595703125,0.5104722582026635,0.5230128638938814,0.3916084869302714,0.41967061770886166,0.41677376416414985,0.3199307328400348,0.3725951358786453,-0.104,-38.06,-3.976,-8.62,0.148,1.328,-0.12
196,0.5417294921875,0.5540556640625,0.4211171875,0.4510166015625,0.445541015625,0.350966796875,0.403640625,0.504803559015612,0.517144443513509,0.3842096674099004,0.4141125160824087,0.40864036480531546,0.31406969156407766,0.3667467771725789,0.584,-33.308,-2.868,-8.736,1.012,0.888,-0.036
197,0.5371884765625,0.549109375,0.41508984375,0.44608984375,0.4406083984375,0.346228515625,0.3989150390625,0.49933658025979405,0.511273390190434,0.37725736800549137,0.4082606122838175,0.4027825878593371,0.3084061480572603,0.3610956289942052,-0.848,-30.34,-1.292,-7.524,1.352,0.316,0.012
198,0.532236328125,0.5442724609375,0.4107763671875,0.441171875,0.436490234375,0.33923046875,0.394396484375,0.49345538496476715,0.505505736700249,0.37201230223299,0.4024099199125997,0.3977306748904976,0.3004734147864419,0.3556415623246152,-2.604,-31.368,-2.288,-8.048,0.864,0.78,-0.036
199,0.5272900390625,0.5396416015625,0.407185546875,0.43566796875,0.4321650390625,0.334091796875,0.3898779296875,0.48759373189152866,0.4999595187412478,0.3675067686160307,0.39599212305956877,0.39249232294883274,0.2944221884985772,0.3502111008047365,-2.176,-33.148,-4.14,-7.18,0.852,1.272,0.052
200,0.5226396484375,0.534798828125,0.402736328125,0.4307412109375,0.428873046875,0.329353515625,0.38515234375,0.4820206448157133,0.4941950101977555,0.36213643208011626,0.3901450625389572,0.38828064619106695,0.28876494988249246,0.3445672643798968,0.424,-34.012,-4.324,-6.904,0.316,0.716,-0.056
201,0.5180986328125,0.530064453125,0.39727734375,0.425669921875,0.4239404296875,0.3229755859375,0.3806337890625,0.47657042516366316,0.4885497146536967,0.35576533826636375,0.3841595648782284,0.38243161273682336,0.2814685910285495,0.33912824746067094,2.708,-31.312,-2.356,-6.4,0.524,1.26,-0.044
202,0.5137705078125,0.525427734375,0.3922421875,0.4207431640625,0.4206484375,0.31803125,0.3763212890625,0.47133815410619434,0.4830094140647262,0.34982749444854655,0.37833173128388736,0.3782402650491971,0.27562642430047435,0.3339194646924046,2.552,-30.016,-0.716,-5.396,0.624,1.592,0.024
203,0.5089208984375,0.520796875,0.3882177734375,0.4162578125,0.4181826171875,0.31392578125,0.372203125,0.465588502118641,0.47747926245334726,0.3449041148879445,0.3729477641945066,0.37487609323489934,0.27062295364107836,0.32890362846084376,2.232,-31.204,-1.664,-6.356,0.088,1.124,-0.076
204,0.504283203125,0.5161650390625,0.38405859375,0.4114755859375,0.413650390625,0.30898046875,0.3683037109375,0.4600559635182657,0.4719536879445185,0.3398512630886952,0.3672719336441457,0.3694504167739314,0.2647841734155464,0.3241108375456932,1.752,-31.368,-3.536,-7.524,0.46,1.136,-0.024
205,0.50005078125,0.511625,0.3790234375,0.406837890625,0.4105654296875,0.3054814453125,0.3648173828125,0.4549245050446139,0.466514000812134,0.33391626841236693,0.36173421125657257,0.3654652188278304,0.2603847243095248,0.3197237899713782,0.212,-30.772,-2.52,-8.576,0.852,0.908,0.036
206,0.4957158203125,0.50719921875,0.37471875,0.402064453125,0.4074794921875,0.30136328125,0.361525390625,0.44969995418825254,0.4611981071315403,0.32872108904466363,0.3560698194957451,0.36148805530326006,0.25537512585476047,0.315540093351997,0.264,-29.368,-0.528,-8.024,1.012,0.668,0.064
207,0.4913876953125,0.5030830078125,0.3711181640625,0.39771484375,0.4060458984375,0.2964306640625,0.3580390625,0.44448340307337475,0.4561932873385518,0.3242321499058459,0.35083211480723747,0.3591665179525569,0.24955454786229128,0.31116604216445976,3.08,-29.8,-1.548,-6.88,0.768,1.08,0.096
208,0.4872587890625,0.4990634765625,0.36723828125,0.3930859375,0.404806640625,0.2918994140625,0.3547470703125,0.43947395447197163,0.4512930518787426,0.31947110316161237,0.3453215661982495,0.3570452646791807,0.24414101258100332,0.3069913291377204,3.612,-31.852,-2.796,-6.128,-0.18,1.308,0.032
209,0.48323828125,0.494947265625,0.3627900390625,0.3885830078125,0.401720703125,0.2873671875,0.3512607421875,0.4345722435687023,0.4462963498286363,0.31414314351663125,0.33993961184314403,0.3530809734623611,0.23873112422972215,0.3026279287456809,2.604,-32.984,-3.512,-5.828,0.064,1.476,0.044
210,0.4791162109375,0.490625,0.35833203125,0.38496484375,0.3992548828125,0.28448828125,0.34796875,0.4295875431194567,0.4411105827919532,0.30882117690263283,0.3354571173315134,0.3497504501103359,0.2349871630511687,0.2984705941994824,1.752,-32.444,-2.936,-7.612,0.552,1.048,-0.004
211,0.474986328125,0.48660546875,0.3541640625,0.380625,0.3955498046875,0.281609375,0.3440693359375,0.42458728329197015,0.4362199949521095,0.3037821103727608,0.33024626069798035,0.3451743400675144,0.23123718513444091,0.2937000913531588,1.276,-31.368,-2.612,-8.756,1.236,0.492,-0.024
212,0.4710634765625,0.4827978515625,0.350861328125,0.376275390625,0.39391015625,0.2772841796875,0.3401708984375,0.41979697311337827,0.43154518673568915,0.29961132472435337,0.32502761876577585,0.34266477975356907,0.2260412190674368,0.28892914577083006,1.06,-31.852,-3.028,-8.416,1.448,0.408,-0.044
213,0.467345703125,0.4790927734375,0.3476943359375,0.3720791015625,0.3934970703125,0.2719384765625,0.336271484375,0.4152350522620236,0.4269972425703727,0.295602570061105,0.319990653032192,0.3414120409696857,0.21985686649074204,0.28419294764793424,0.848,-33.58,-4.232,-7.912,0.448,1.008,-0.128
214,0.4637373046875,0.475484375,0.3439580078125,0.36744140625,0.3910302734375,0.2678203125,0.332359375,0.410773578361949,0.42253466410396345,0.29101201842776786,0.31449873395035693,0.3380908980770207,0.2148843352954568,0.2794265533020141,1.22,-35.576,-4.044,-6.356,0.388,1.28,-0.096
215,0.4599228515625,0.47157421875,0.340078125,0.363669921875,0.388771484375,0.264734375,0.3284609375,0.40611575457484317,0.41778112962006275,0.2862878094814935,0.3098824805225243,0.33498707804892675,0.21095308417088318,0.27468244063061986,1.592,-34.928,-3.42,-7.156,0.44,0.904,-0.128
216,0.456,0.467560546875,0.3363427734375,0.3599072265625,0.384859375,0.26185546875,0.324767578125,0.40134400333581843,0.4129180476986072,0.2817037886328344,0.30527133688079033,0.3302266603929144,0.20722602914490487,0.27014107411096494,1.648,-33.74,-3.096,-9.488,1.064,0.5,-0.128
217,0.4523916015625,0.463849609375,0.332318359375,0.356,0.38198046875,0.25876953125,0.3212822265625,0.3969068432315726,0.4083784984643313,0.27684998606265304,0.3005339675802181,0.32651683678258997,0.20330831962014428,0.2658230980476188,0.848,-33.74,-3.144,-9.808,1.56,0.084,-0.076
218,0.4489892578125,0.46014453125,0.3284375,0.3520927734375,0.379720703125,0.25403125,0.3179892578125,0.3926743512365062,0.40384400787470104,0.2721405234294607,0.29579885114303134,0.32343001253536807,0.19774385032019307,0.2617047747022099,-0.424,-34.712,-2.98,-10.22,1.06,0.388,-0.108
219,0.445380859375,0.45654296875,0.3247021484375,0.3480234375,0.376634765625,0.2499130859375,0.31450390625,0.38823978628588496,0.3994147121923489,0.2675770032785614,0.2909010124361193,0.31951519770693604,0.19279639480466776,0.2573896809889209,-1.168,-36.28,-3.536,-9.604,1.02,0.956,-0.036
220,0.4416630859375,0.4526259765625,0.320966796875,0.344548828125,0.37394921875,0.2470341796875,0.3112119140625,0.3837074064960994,0.39468422891173993,0.2630285470108117,0.28661376522592213,0.3160174206387304,0.18910562702289252,0.2532863154172016,-1.008,-36.98,-3.836,-9.512,0.784,0.452,-0.076
221,0.4379521484375,0.448818359375,0.3169423828125,0.3410751953125,0.36984375,0.242708984375,0.3075185546875,0.3791829060417271,0.3900624858040165,0.2581898082891766,0.28232561123839234,0.3110974072775857,0.183965805920149,0.24877821257319577,-0.528,-35.416,-3.4,-10.428,1.012,0.504,-0.068
222,0.434447265625,0.4450107421875,0.31262890625,0.33745703125,0.3663447265625,0.2392099609375,0.304033203125,0.374873097881065,0.3854504010561476,0.2530719358624054,0.27790295289091516,0.30679369353540803,0.17966204994336124,0.2444879737033513,-0.424,-35.092,-2.196,-10.244,1.612,0.596,0.016
223,0.4308388671875,0.44129296875,0.3088837890625,0.333837890625,0.36387890625,0.2352978515625,0.30012109375,0.37046634078265733,0.3809341659680551,0.24852833192238072,0.2734853800188157,0.303529342260172,0.17495132932761664,0.23977729015791438,-0.476,-36.28,-2.564,-10.632,1.236,0.292,-0.076
224,0.42712109375,0.4377939453125,0.30500390625,0.32977734375,0.359966796875,0.230146484375,0.296015625,0.36595346445649124,0.3766393690012794,0.24385274436054044,0.2686291813636693,0.2988217095422136,0.16900456651919193,0.23487649938375402,-0.744,-37.684,-3.952,-10.428,1.344,0.688,-0.068
225,0.4236162109375,0.4341923828125,0.3008349609375,0.325861328125,0.357087890625,0.2266474609375,0.2921162109375,0.3616585807533608,0.3722476289297768,0.23889327665171048,0.2639222268660981,0.2951515409250136,0.16471393774799206,0.23018512123191165,-1.804,-38.6,-4.532,-10.084,1.136,0.592,-0.068
226,0.419904296875,0.4304814453125,0.296810546875,0.3220986328125,0.3527626953125,0.222322265625,0.2880107421875,0.35715969937722103,0.36774900846049624,0.23408113649777768,0.25937195191402573,0.29003881824452676,0.15960126674573782,0.22529232446644745,-2.072,-39.032,-4.348,-10.312,1.308,0.388,-0.108
227,0.416078125,0.426673828125,0.2929306640625,0.31848046875,0.3490576171875,0.2186171875,0.2839052734375,0.35256311918917654,0.36316701742815066,0.22942617390980902,0.25497798609840894,0.28555721575205034,0.15511901467452824,0.2204089793160352,-1.648,-38.06,-4.464,-11.02,1.672,0.44,-0.064
228,0.4123662109375,0.4228662109375,0.289330078125,0.3144287109375,0.3457646484375,0.2149111328125,0.280005859375,0.3480864436659242,0.35860032514938756,0.22506769957185446,0.25016940132541426,0.2815085540170995,0.15065825369692576,0.21575583028328504,-1.488,-37.952,-4.276,-10.976,1.604,0.052,-0.052
229,0.4086552734375,0.4191552734375,0.2855947265625,0.3106572265625,0.342279296875,0.20956640625,0.2762998046875,0.34360456680199547,0.35411650070826284,0.22055892397750304,0.24562408632544255,0.2772488734018576,0.14453871773653806,0.21127463386043027,-1.328,-38.816,-4.9,-10.724,1.632,0.42,0.016
230,0.4049443359375,0.4154501953125,0.28171484375,0.3065966796875,0.338986328125,0.2060673828125,0.272607421875,0.33913944152565223,0.3496572041153281,0.21592485105766074,0.24080947013189324,0.27320191975256114,0.1402858295857803,0.20682843656448002,-1.648,-39.736,-4.624,-10.816,1.404,0.604,0.024
231,0.4011240234375,0.411642578125,0.27769921875,0.302400390625,0.334248046875,0.2023623046875,0.2689150390625,0.3345639946014724,0.34509361750273226,0.21115196653547605,0.2358546332958497,0.2677039980189591,0.13581989315090082,0.20237398011828284,-1.54,-40.168,-4.44,-10.564,1.5,0.14,0.012
232,0.3973095703125,0.407623046875,0.273666015625,0.2986376953125,0.3303359375,0.1976240234375,0.265416015625,0.3300194478690245,0.34034617059179395,0.20639247326912302,0.23136711656225825,0.2630683930292429,0.130359495717204,0.19815424012545518,-1.488,-39.844,-4.184,-11.844,1.764,0.292,-0.012
233,0.3935986328125,0.4038154296875,0.2693525390625,0.2944326171875,0.326837890625,0.1937119140625,0.2617109375,0.32556921973713016,0.33579863430476165,0.20133874985394778,0.22642153712924443,0.25882951980992125,0.12570632250305366,0.1937078630865921,-1.912,-39.14,-4.16,-12.188,1.64,0.232,-0.052
234,0.3897783203125,0.399904296875,0.26547265625,0.2905166015625,0.3233388671875,0.1889736328125,0.25760546875,0.321016699124659,0.3311542229676961,0.19672549107727905,0.22177205088224256,0.25459700035045507,0.12023451917668103,0.1888688486646855,-2.124,-39.304,-3.836,-11.66,1.652,0.084,-0.052
235,0.385861328125,0.395884765625,0.2614482421875,0.28675390625,0.3200458984375,0.1840283203125,0.2535,0.31638068421828763,0.3264162799250426,0.1919827063093968,0.21729096013737687,0.25058567939378606,0.11457082843751372,0.1840449780998068,-2.072,-39.68,-4.3,-12.508,1.432,0.452,-0.136
236,0.3819375,0.39187109375,0.257134765625,0.28255859375,0.3159404296875,0.180736328125,0.2491875,0.3117319601247997,0.3216771000546485,0.18694338705603566,0.2123693549002802,0.24575355139519078,0.11055186141698126,0.1790052581347429,-1.86,-40.004,-4.092,-11.82,1.588,0.136,-0.12
237,0.3780205078125,0.3877548828125,0.25295703125,0.2789306640625,0.3122353515625,0.1766171875,0.24508203125,0.3071110921877072,0.31685732010165424,0.18206199069417767,0.20803789352372432,0.24134242968696962,0.10572715789449265,0.17419469223526213,-1.7,-39.572,-3.816,-12.028,1.604,-0.212,-0.168
238,0.3740009765625,0.3837353515625,0.2484990234375,0.2750234375,0.3083232421875,0.1722919921875,0.24076953125,0.3023891562894885,0.31213554723670406,0.1769022151076295,0.20342935897010733,0.23673196015156683,0.10070363993509694,0.16918369271915956,-1.648,-39.14,-3.236,-12.348,1.764,0.068,-0.16
239,0.3701806640625,0.37982421875,0.2440419921875,0.2705302734375,0.30503125,0.16879296875,0.2366640625,0.2978713614139933,0.30752514400582875,0.17174477873001762,0.19823485543017438,0.23273756160092235,0.09650105942381548,0.164373685191659,-1.488,-39.088,-3.584,-11.548,1.848,-0.208,-0.12
240,0.3660576171875,0.3759072265625,0.240017578125,0.2664697265625,0.3015322265625,0.1638486328125,0.233177734375,0.2930641899309842,0.30292556633284895,0.16703885183994563,0.19349359204030658,0.22855870020942526,0.09087782884920363,0.16020940837601605,-1.432,-39.248,-4.508,-11.684,1.696,0.012,-0.108
241,0.3619345703125,0.37189453125,0.23583984375,0.2622734375,0.297826171875,0.1601435546875,0.2294853515625,0.2882587886116571,0.29822889038129546,0.16217642795956713,0.18861192437597168,0.224166690476074,0.08648623408503395,0.15582972417397478,-1.38,-40.004,-5.204,-11.912,1.724,0.312,-0.108
242,0.3579091796875,0.36777734375,0.2318154296875,0.258078125,0.2939150390625,0.15664453125,0.225779296875,0.2835679528584959,0.2934477587965247,0.15748858807903882,0.1837536918962992,0.21959307836520264,0.08232510686860385,0.15146210581615105,-1.06,-40.436,-4.9,-11.752,1.692,-0.088,-0.12
243,0.3537861328125,0.3636552734375,0.227791015625,0.2540078125,0.28980859375,0.1514931640625,0.2220869140625,0.2787769631241514,0.28865755202506455,0.15279619606090317,0.17901564257565095,0.2148190735857124,0.07650634109896878,0.14710255181188725,-0.584,-40.112,-4.74,-11.96,1.904,0.096,-0.068
244,0.349759765625,0.3596416015625,0.2237568359375,0.24966796875,0.2867236328125,0.1475810546875,0.21839453125,0.27409060811250224,0.28398277926894855,0.14810081991204926,0.174014431710607,0.21107265282860166,0.07193267865335437,0.14274846300808658,-0.636,-40.168,-4.9,-11.708,1.724,0.212,-0.068
245,0.34563671875,0.3557314453125,0.219732421875,0.245318359375,0.28341796875,0.143048828125,0.2142890625,0.2693198334671965,0.27942606996091784,0.14343002070098743,0.16901860889952872,0.2071209923987748,0.06675456438668433,0.13799734195829289,-0.956,-39.844,-4.948,-11.18,1.568,-0.012,-0.088
246,0.3416044921875,0.3517109375,0.2157080078125,0.240978515625,0.279931640625,0.1381044921875,0.21018359375,0.2646393588898334,0.27475539504275537,0.13875430760431912,0.1640264750183284,0.2029813967097388,0.06115462893501744,0.13323514658705443,-0.688,-40.06,-4.88,-11.432,1.652,0.292,-0.088
247,0.337583984375,0.34769140625,0.2115302734375,0.2366376953125,0.27643359375,0.1343984375,0.2062841796875,0.2599836897165411,0.2701020301662171,0.13394360479798792,0.15905341836762021,0.1988517838270828,0.05681907967375774,0.12870710858458845,-0.316,-40.544,-4.392,-12.44,1.696,0.016,-0.104
248,0.3334619140625,0.343671875,0.207216796875,0.232279296875,0.2731279296875,0.1300732421875,0.2021787109375,0.2552439308838728,0.26546481125234944,0.12901240763981553,0.1540772108076309,0.19492820633550234,0.05187601541157881,0.12398360932219953,-0.212,-40.708,-4.416,-12.28,1.78,-0.084,-0.136
249,0.329435546875,0.3394521484375,0.20318359375,0.228228515625,0.2698359375,0.1253349609375,0.1980732421875,0.25059573405285757,0.26062192858542277,0.12435528098577395,0.1494019339753107,0.19101118972613446,0.04651212046875815,0.11925207434095156,-0.424,-40.492,-4.208,-12.804,1.756,0.096,-0.104
250,0.3253125,0.3353359375,0.1990146484375,0.22387890625,0.2661435546875,0.1214228515625,0.1937607421875,0.24585927402915675,0.25589274538201523,0.11957394702009229,0.1444403915461277,0.1867073426608217,0.04198894232717017,0.11432891859755757,-0.372,-40.544,-4.16,-12.416,1.724,0.068,-0.064
251,0.3212861328125,0.331212890625,0.1947021484375,0.2201162109375,0.2632509765625,0.11709765625,0.19026171875,0.2412276966354428,0.2511639274105361,0.11465510006178087,0.1400707773773563,0.18320717216720828,0.03705558112068756,0.11022115856959074,-0.316,-39.464,-4.14,-12.14,1.592,-0.016,-0.024
252,0.3172666015625,0.326994140625,0.1905244140625,0.216064453125,0.259958984375,0.11256640625,0.1865693359375,0.23661975305607097,0.24635806367448426,0.10989100221598096,0.13543346680642754,0.1793304096168808,0.03194032780964383,0.10594551417913313,-0.372,-39.14,-4.324,-12.576,1.612,0.12,0.036
253,0.31324609375,0.3229736328125,0.185921875,0.211859375,0.2560341796875,0.108654296875,0.182876953125,0.23200542082972475,0.2417423586835885,0.10469286746344873,0.13063241167342143,0.1748093719284824,0.02743164479446908,0.10165623429564422,-0.528,-39.68,-3.792,-12.256,1.912,-0.044,0.016
254,0.3091171875,0.3189609375,0.181599609375,0.207798828125,0.25253515625,0.1041220703125,0.1791845703125,0.22729589192481672,0.23714797666962467,0.09978774534955945,0.1259878278543936,0.17072323738360584,0.02231193381518523,0.09737610657149912,-0.264,-40.328,-3.884,-12.668,1.912,-0.156,-0.044
255,0.30509765625,0.3150498046875,0.1772861328125,0.203314453125,0.2490361328125,0.0995908203125,0.175685546875,0.2227122892815887,0.23267402005682597,0.09491261909482744,0.12094292656461295,0.16666670166360134,0.017223430608126478,0.09331996887305252,0.0,-40.544,-4.392,-12.464,1.904,-0.084,-0.044
256,0.3010771484375,0.3111328125,0.1733974609375,0.19896484375,0.2459501953125,0.095265625,0.1717861328125,0.21812435443088013,0.22818879400226733,0.09045567992283324,0.11602502064217307,0.16301238349396285,0.012329877861742708,0.08885223732256403,-0.264,-41.192,-4.996,-11.64,1.744,-0.2,-0.084
257,0.2969482421875,0.3070166015625,0.169517578125,0.194904296875,0.242658203125,0.0909404296875,0.1676806640625,0.21344153389759735,0.2235189185848636,0.08602137771723775,0.11140606286914273,0.1591612811048615,0.0074448328211142445,0.0841864448825336,-0.264,-40.544,-5.528,-12.096,1.572,-0.116,-0.12
258,0.2929287109375,0.3030029296875,0.1656279296875,0.190708984375,0.238953125,0.08744140625,0.16378125,0.20887581991704857,0.21895919782557705,0.08158652352310414,0.1066696973142175,0.15491589255868166,0.003406344858574384,0.0797480883878264,0.156,-40.76,-5.596,-12.12,1.86,-0.26,-0.136
259,0.28890234375,0.29877734375,0.161603515625,0.18679296875,0.23566015625,0.0835166015625,0.15967578125,0.20431503910350934,0.21419885305047487,0.07702726375586262,0.10221868870140625,0.15108794991792845,-0.0010535690953885346,0.07510748097624055,0.264,-40.76,-5.272,-12.464,1.88,-0.436,-0.2
260,0.284779296875,0.2948671875,0.15742578125,0.1825966796875,0.231955078125,0.0793984375,0.15536328125,0.19966447360433626,0.20976130131322904,0.07232209842079107,0.09749493743933117,0.14685537674226545,-0.005699210366944513,0.07026747414497606,0.212,-40.816,-4.832,-12.532,2.068,-0.22,-0.16
261,0.2808623046875,0.291052734375,0.153392578125,0.1779677734375,0.229076171875,0.0758994140625,0.15146484375,0.1952256883030452,0.20542449073023777,0.06776650190893639,0.09234360616134143,0.14345396292321094,-0.009720774853483313,0.06584651486078111,-0.156,-41.3,-4.556,-12.12,1.996,-0.388,-0.156
262,0.2768359375,0.287142578125,0.1495126953125,0.173609375,0.2255771484375,0.0711611328125,0.1475654296875,0.19068876840011934,0.2010047086674318,0.06337721177548103,0.08747602320753613,0.1394459769952026,-0.014967797549047743,0.06143848615386191,0.052,-41.572,-4.764,-12.508,1.848,-0.14,-0.12
263,0.27281640625,0.2832314453125,0.1453349609375,0.1694130859375,0.2224912109375,0.0670419921875,0.1440791015625,0.18616520037140152,0.19658877358054505,0.05869443206674792,0.08277441434219679,0.13585448008496695,-0.019592785883813815,0.05744607396253139,0.372,-41.032,-5.064,-12.668,1.672,0.14,-0.108
264,0.2688994140625,0.279109375,0.1414453125,0.1656416015625,0.2185791015625,0.062923828125,0.14059375,0.18174955811239651,0.19196722515418352,0.05430526788220537,0.07850338160547485,0.13144274147991586,-0.024210671957923063,0.053460981350039,0.052,-41.248,-4.556,-13.012,1.796,-0.076,-0.128
265,0.264873046875,0.2748896484375,0.1372763671875,0.16187890625,0.2146669921875,0.0585859375,0.1370947265625,0.17724241897930948,0.18726764787242123,0.04965652676666203,0.0742609963197644,0.1270510128884364,-0.029028065054856063,0.049482505502183305,0.104,-41.248,-4.368,-13.88,2.068,-0.128,-0.096
266,0.2609560546875,0.2708701171875,0.1329541015625,0.1578271484375,0.21116796875,0.054673828125,0.1336083984375,0.17284101557791084,0.18276264358397146,0.044848522507204225,0.06972327234081974,0.12306584084218943,-0.033426506354374046,0.04550967702391258,0.0,-41.248,-4.276,-13.676,2.148,-0.316,-0.084
267,0.2569365234375,0.2670625,0.1287763671875,0.1537666015625,0.2078759765625,0.049935546875,0.129916015625,0.1683599220648247,0.17849384514842265,0.04020604091609578,0.0651973821788052,0.11930829583634801,-0.038630606166863715,0.04135154536084676,-0.156,-41.408,-4.184,-12.828,1.976,-0.284,-0.064
268,0.2530126953125,0.26315234375,0.124607421875,0.1495625,0.204376953125,0.0456103515625,0.125810546875,0.16397102671411315,0.17411792510465995,0.03557472922488794,0.06053140319515038,0.115347397988805,-0.0434175640816956,0.03678405366502098,-0.156,-41.732,-4.3,-12.508,1.84,-0.064,-0.084
269,0.249095703125,0.259337890625,0.1201416015625,0.1452216796875,0.20046484375,0.041904296875,0.1219111328125,0.1596059868706885,0.16985558101734557,0.030661207867938384,0.055742989165148055,0.11098784588402193,-0.04757100820602056,0.03243740352107363,-0.316,-41.68,-4.576,-12.464,1.78,-0.284,-0.16
270,0.245076171875,0.25532421875,0.116107421875,0.141458984375,0.196552734375,0.0375791015625,0.1178056640625,0.15514584368813242,0.16540132606593538,0.02618640672728939,0.05153959655942303,0.1066350470457571,-0.052336874710924845,0.02789122159618397,-0.104,-42.272,-4.924,-13.012,2.18,-0.292,-0.096
271,0.24115234375,0.251201171875,0.1120830078125,0.1373984375,0.1930546875,0.0340673828125,0.1137001953125,0.15078687629379084,0.16084247514810981,0.021726027104068485,0.047042999289005086,0.1027008327691038,-0.056284888314904545,0.023349344424782134,-0.052,-42.488,-5.34,-13.996,2.12,-0.384,-0.116
272,0.2371328125,0.2473935546875,0.1079052734375,0.133048828125,0.1895556640625,0.0301552734375,0.10959375,0.14634679748834772,0.1566147983134058,0.017128277142719195,0.04227338203243794,0.09878185831887332,-0.0606169418353312,0.018823015282613945,-0.424,-42.76,-5.224,-13.356,2.316,-0.604,-0.096
273,0.2332158203125,0.2434833984375,0.1043046875,0.1291416015625,0.1866630859375,0.0252109375,0.1059013671875,0.142012331044794,0.15228652017863703,0.013109442799056945,0.03794788295045537,0.09547092289203156,-0.06597970898649784,0.014712080817866305,-0.372,-42.812,-5.872,-13.24,2.096,-0.224,-0.004
274,0.2292919921875,0.23956640625,0.100416015625,0.12479296875,0.1829580078125,0.0206787109375,0.1020029296875,0.13767990831371746,0.14795998177528746,0.008810107470082734,0.03318561685008661,0.09135101922796197,-0.07092719721741726,0.010397949034053555,-0.156,-42.704,-5.92,-12.804,1.86,-0.084,-0.012
275,0.2252724609375,0.23565625,0.09623828125,0.1205966796875,0.1792529296875,0.016560546875,0.09850390625,0.13326825634134343,0.1436589036264924,0.004242663892146198,0.028602548491517693,0.08726033152654142,-0.07543049006308475,0.0065142904319636236,-0.212,-42.112,-5.62,-12.232,1.984,-0.264,0.004
276,0.22124609375,0.2316357421875,0.092349609375,0.1168251953125,0.175546875,0.01222265625,0.095017578125,0.12885379177798612,0.13924960746868692,-3.499228134878907e-05,0.024441971713773464,0.08316506608826979,-0.0801577013355942,0.0026385259335340028,-0.212,-42.328,-5.596,-13.536,2.112,-0.396,-0.016
277,0.217322265625,0.2277255859375,0.0881806640625,0.1123310546875,0.1712216796875,0.0085166015625,0.0913251953125,0.12455030270660833,0.13495937328392443,-0.004584729488896863,0.01956632891546728,0.07845766624614868,-0.08424666389531524,-0.001437428986956979,-0.156,-43.028,-4.948,-14.408,2.304,-0.68,-0.032
278,0.213302734375,0.2238154296875,0.084146484375,0.1082802734375,0.1683427734375,0.00419140625,0.0876328125,0.12016239048425485,0.13068072772066597,-0.008986837149949023,0.015148271705394387,0.07521215240906139,-0.08893776446130053,-0.005495107519900511,0.0,-43.512,-4.972,-13.948,2.308,-0.68,-0.052
279,0.2093857421875,0.219794921875,0.08040234375,0.1042197265625,0.16505078125,-0.0001328125,0.0837333984375,0.11588848325310933,0.1263035588881855,-0.013087496190998027,0.010731232121862513,0.07156363244407146,-0.09361860707249163,-0.009751219534264596,-0.052,-43.244,-5.18,-14.156,1.848,-0.368,-0.104
280,0.205359375,0.215884765625,0.076080078125,0.1000322265625,0.160931640625,-0.0038505859375,0.0798212890625,0.1115116984094135,0.12204299389966608,-0.01776027668368052,0.006193148761567249,0.0670938811600335,-0.09768703517082566,-0.014013981671217174,-0.316,-43.084,-4.856,-13.104,1.964,-0.52,-0.104
281,0.2014423828125,0.2115556640625,0.0721904296875,0.09655859375,0.1574326171875,-0.0079697265625,0.0759228515625,0.10725288493136599,0.11737154119677061,-0.021992242873035736,0.0023772274155075823,0.0632525652362588,-0.10214847200234815,-0.018254675407274157,-0.212,-41.948,-4.832,-13.904,1.984,-0.428,-0.188
282,0.1974228515625,0.20754296875,0.067724609375,0.092642578125,0.153521484375,-0.01126171875,0.07181640625,0.10290467594075087,0.11303038445370339,-0.026786674034936106,-0.001867528905409907,0.059012585013891394,-0.10576937914204144,-0.022690163113442782,-0.052,-42.112,-4.576,-14.224,2.148,-0.488,-0.168
283,0.193396484375,0.2036259765625,0.0632578125,0.0884375,0.1498154296875,-0.0151865234375,0.067517578125,0.09855487800528108,0.10878973055595627,-0.03157707219317114,-0.006396174490211778,0.05498301849381659,-0.11001769388229302,-0.02731248006189743,-0.212,-43.028,-3.952,-13.604,2.428,-0.656,-0.156
284,0.1894794921875,0.199818359375,0.058935546875,0.0843857421875,0.146716796875,-0.0199248046875,0.0636181640625,0.09432416078382982,0.1046673688623737,-0.036214614839938146,-0.010763840061486396,0.05156780146137628,-0.11507297113719597,-0.03153138151029035,-0.476,-43.244,-4.348,-14.384,2.264,-0.436,-0.148
285,0.1855625,0.19611328125,0.0547666015625,0.079748046875,0.14301171875,-0.02425,0.059693359375,0.09010659350811687,0.10066244228276056,-0.04068301453141704,-0.015700495517582153,0.0475642501824623,-0.11969636616812954,-0.03575204653260212,-0.424,-43.944,-4.784,-13.444,2.368,-0.348,-0.104
286,0.1815361328125,0.19209375,0.0507333984375,0.0756962890625,0.1401328125,-0.02898828125,0.05620703125,0.0857857377904663,0.09634832120958348,-0.045010764266833335,-0.02004677254763751,0.044390907188716036,-0.12472903699292702,-0.03953267804727141,-0.264,-43.892,-5.62,-13.056,2.028,-0.296,-0.088
287,0.1774130859375,0.188080078125,0.04684375,0.0716357421875,0.136220703125,-0.033326171875,0.0527216796875,0.08137878410936779,0.09204945991412947,-0.04918628293335171,-0.024393785244885183,0.04019167457316242,-0.1293547281249605,-0.04330645080197607,-0.264,-43.028,-6.38,-13.972,2.112,-0.208,-0.096
288,0.1733935546875,0.18395703125,0.042955078125,0.0675751953125,0.1321015625,-0.0368251953125,0.0492353515625,0.07708561688282242,0.08765353646018031,-0.05334755600927358,-0.02872673224002603,0.03580038656620825,-0.1331256195526227,-0.04706441729379719,-0.212,-43.512,-6.036,-13.696,2.432,-0.644,-0.064
289,0.1693671875,0.17973828125,0.0390654296875,0.06395703125,0.1288095703125,-0.0415634765625,0.045736328125,0.07279326806398272,0.08316846520658508,-0.05750347622712264,-0.032611044920063434,0.03224237972482548,-0.1381297876495953,-0.05082919627274375,0.0,-43.676,-5.944,-14.68,2.324,-0.556,-0.136
290,0.16534765625,0.1759306640625,0.0347431640625,0.059328125,0.1248974609375,-0.0452822265625,0.0420439453125,0.06852273183486927,0.07911019341485838,-0.06207618520679496,-0.037490222021939086,0.02808014018687098,-0.14209852087900554,-0.054771394035395604,0.104,-43.512,-5.848,-13.856,2.392,-0.556,-0.088
291,0.1613271484375,0.1721162109375,0.0308544921875,0.054978515625,0.1213857421875,-0.049607421875,0.0379384765625,0.06425386399108624,0.07504676981635075,-0.06621394043705829,-0.04208905161910015,0.024319063378694744,-0.14667318918341202,-0.059126465115751016,-0.156,-43.892,-5.412,-13.032,2.328,-0.636,-0.104
292,0.1573076171875,0.1682060546875,0.0268212890625,0.05062890625,0.11809375,-0.054138671875,0.0340390625,0.060000248518829555,0.0709024241772681,-0.07048160450897119,-0.04667334379372642,0.02079217106584036,-0.15143956311151446,-0.06326126751120462,-0.264,-43.676,-5.48,-14.316,1.86,-0.252,-0.18
293,0.15328125,0.164185546875,0.0226435546875,0.0461357421875,0.113974609375,-0.057650390625,0.02993359375,0.055748566994146403,0.06665663920132524,-0.07488438368266513,-0.05139133208003407,0.016448420440375602,-0.15517569934148168,-0.0675908925871122,0.104,-43.62,-5.548,-13.492,2.244,-0.42,-0.12
294,0.14926171875,0.1598642578125,0.0188984375,0.0428056640625,0.1104755859375,-0.0621826171875,0.025634765625,0.05151331635175248,0.06211931795891014,-0.07884557084275887,-0.054937478056362204,0.012733310206904783,-0.15992403140403114,-0.07210581715201958,0.476,-43.728,-5.204,-14.568,2.132,-0.472,-0.128
295,0.1452412109375,0.1557412109375,0.014431640625,0.0388984375,0.1065634765625,-0.0663134765625,0.0215283203125,0.047287477064105285,0.05779100064273869,-0.08351770511889503,-0.05905013960279256,0.008615682659398341,-0.16426048711798288,-0.0764179788544345,0.316,-43.404,-4.648,-15.528,2.36,-0.46,-0.12
296,0.1412158203125,0.151830078125,0.01025390625,0.034703125,0.10346484375,-0.0704326171875,0.0178232421875,0.04306386773229795,0.05368120645333442,-0.08789421649116376,-0.0634443080444198,0.005318100529531744,-0.16857867045681002,-0.08032217584876347,0.052,-43.568,-4.324,-14.292,2.512,-0.812,-0.016
297,0.1371953125,0.1478173828125,0.006365234375,0.03077734375,0.1005859375,-0.075583984375,0.0143369140625,0.0388588137692959,0.04948399492859151,-0.0919675205886251,-0.0675548822436538,0.0022542926020225063,-0.17391508277802423,-0.08399368981624532,0.212,-43.244,-4.716,-14.2,2.024,-0.468,-0.036
298,0.13317578125,0.14410546875,0.00175390625,0.0261484375,0.096880859375,-0.0795087890625,0.0108515625,0.03466148076581195,0.04559401939813783,-0.09675682169616792,-0.07236165087338395,-0.001628560581238711,-0.1780175363507268,-0.08765658171999872,0.156,-43.296,-4.6,-12.988,2.036,-0.448,-0.016
299,0.129046875,0.1400859375,-0.0024326171875,0.022232421875,0.0933818359375,-0.0834208984375,0.007365234375,0.030365701578553866,0.04140729314520762,-0.10111055065395903,-0.07644491259794114,-0.005294880078200934,-0.18209698425223014,-0.09131028297117431,0.104,-43.296,-4.672,-13.24,2.224,-0.748,-0.056
300,0.1250263671875,0.1358603515625,-0.006609375,0.0181806640625,0.089263671875,-0.0871396484375,0.0036728515625,0.026189186345777174,0.03702581869303402,-0.10544322544112619,-0.0806526054321431,-0.009569005632521874,-0.18597171564258397,-0.09515867786382799,0.052,-43.944,-5.016,-15.048,2.316,-0.72,-0.156
301,0.1210068359375,0.132052734375,-0.011220703125,0.0139853515625,0.085544921875,-0.0906376953125,0.000173828125,0.022021292782196555,0.033069295885660696,-0.11020375840635496,-0.08499737810518392,-0.013437451593357394,-0.1896196989464109,-0.09880784633396916,0.316,-44.484,-5.016,-14.384,2.524,-0.936,-0.12
302,0.116986328125,0.1279296875,-0.0148212890625,0.0100693359375,0.0822529296875,-0.094962890625,-0.0037255859375,0.017863749853892052,0.028809357614505038,-0.11394105088027937,-0.08904993340726192,-0.016865824939613472,-0.19408112722561133,-0.10284334544068968,0.264,-44.108,-5.596,-14.384,2.548,-0.82,-0.12
303,0.1129609375,0.12401953125,-0.0185751953125,0.0055751953125,0.07875390625,-0.0988876953125,-0.0078310546875,0.01371049105734308,0.02477082235955111,-0.11782345199440182,-0.09367263529416212,-0.020493495241604473,-0.19813465588551715,-0.10707762095287025,0.156,-44.0,-6.104,-14.064,2.12,-0.48,-0.188
304,0.108837890625,0.120109375,-0.0227529296875,0.0013798828125,0.0754619140625,-0.103212890625,-0.0117294921875,0.009470883220987894,0.02074416871725729,-0.12211766382650802,-0.09798443537321401,-0.023901977294645244,-0.20257635232497845,-0.11109255901250854,0.212,-43.784,-5.78,-13.032,2.016,-0.48,-0.18
305,0.1048173828125,0.1158828125,-0.0264970703125,-0.0025361328125,0.0715498046875,-0.1077578125,-0.0158359375,0.005343540214022585,0.016410747119210214,-0.12596867562384262,-0.10200733662345936,-0.027920990122280998,-0.20722818589821407,-0.11530592854306515,0.476,-43.244,-6.568,-13.652,2.164,-0.252,-0.172
306,0.1007919921875,0.11197265625,-0.0306748046875,-0.0068759765625,0.0672109375,-0.1112568359375,-0.020341796875,0.0012207239757193178,0.012403010515797022,-0.13024405261416244,-0.1064448618826389,-0.03235757842413983,-0.2108249800944215,-0.11990960453345868,0.372,-43.784,-5.432,-14.2,2.388,-0.492,-0.188
307,0.096771484375,0.1080556640625,-0.0350068359375,-0.0110810546875,0.0639189453125,-0.115814453125,-0.024046875,-0.0028877070140350125,0.008397661598824074,-0.13466463938912426,-0.11073869258013438,-0.03573851120775881,-0.21547174400251942,-0.12370402386621467,0.212,-44.324,-4.692,-14.84,2.584,-0.784,-0.156
308,0.092751953125,0.1041513671875,-0.0388955078125,-0.0152861328125,0.060626953125,-0.120552734375,-0.0279462890625,-0.00698478686522426,0.004415817999373531,-0.13863077448425037,-0.11502113763222395,-0.03910777409457144,-0.22028719253102283,-0.1276804988649059,0.316,-44.484,-5.48,-14.956,2.516,-0.5,-0.104
309,0.088732421875,0.100337890625,-0.0429287109375,-0.0196259765625,0.057734375,-0.12509765625,-0.031638671875,-0.011072213570548398,0.0005341126296087018,-0.14273233215250325,-0.11942946035661,-0.04206894591807891,-0.22490082020541186,-0.1314417027368892,0.688,-44.592,-5.156,-14.108,1.936,-0.46,-0.136
310,0.0846025390625,0.0962216796875,-0.0468271484375,-0.023388671875,0.054236328125,-0.1298359375,-0.035125,-0.015259152018703731,-0.0036390520506266455,-0.14668764359893818,-0.12324895041819423,-0.04562372858848264,-0.22969577220793927,-0.13498463146933137,0.636,-43.784,-5.272,-13.696,2.12,-0.336,-0.108
311,0.080685546875,0.0919951171875,-0.0507158203125,-0.0271611328125,0.05032421875,-0.1333349609375,-0.0386103515625,-0.019224092706613377,-0.007913925580912903,-0.1506246881317107,-0.12706984690409062,-0.049584341484480196,-0.23324336310450383,-0.1385186118626284,0.424,-43.028,-5.504,-14.336,2.256,-0.416,-0.088
312,0.0765634765625,0.08787890625,-0.0553271484375,-0.0309326171875,0.046205078125,-0.1368466796875,-0.0420966796875,-0.02338343728552926,-0.012067494478110216,-0.15527342499331614,-0.13087877255659924,-0.05374095592088957,-0.23679259148963316,-0.14204247931139946,0.528,-43.46,-4.392,-14.704,2.368,-0.784,-0.076
313,0.07254296875,0.0838662109375,-0.059802734375,-0.03483984375,0.0425,-0.1411845703125,-0.0459951171875,-0.027431400307300652,-0.016107766923937478,-0.1597766098876902,-0.1348136298157105,-0.0574736942786137,-0.2411581710002472,-0.14596863454386344,0.636,-43.62,-4.16,-14.68,2.636,-0.676,-0.076
314,0.0685166015625,0.0800517578125,-0.06398046875,-0.0393330078125,0.03898828125,-0.1448896484375,-0.0501015625,-0.03147554909139946,-0.019940222553891288,-0.16397241768367601,-0.13932492616133124,-0.06100360281141975,-0.24488154403729925,-0.15009343106280032,0.372,-43.944,-4.368,-14.408,2.48,-0.656,-0.128
315,0.0644970703125,0.0763466796875,-0.0683115234375,-0.043818359375,0.0356953125,-0.1500546875,-0.054,-0.03550259567765862,-0.0236529400671988,-0.16831113126536212,-0.1438179562435466,-0.06430427318957668,-0.2500542615794247,-0.15399956350720556,0.264,-44.756,-4.368,-13.628,2.16,-0.608,-0.14
316,0.060580078125,0.0723271484375,-0.072345703125,-0.047869140625,0.0324033203125,-0.15479296875,-0.0581064453125,-0.03941715602653267,-0.027670204285946506,-0.17234308560309508,-0.14786654187218812,-0.06759410323154096,-0.2547904209661486,-0.15810392248513946,0.316,-44.16,-5.944,-13.536,2.16,-0.168,-0.068
317,0.056560546875,0.0682109375,-0.0759453125,-0.05207421875,0.0278720703125,-0.15809765625,-0.06241796875,-0.04342434930598318,-0.03177423585034565,-0.17593052892621458,-0.15205946959179412,-0.0721132198122795,-0.2580829872388576,-0.16240333116546746,0.424,-44.108,-5.896,-13.764,2.18,-0.564,-0.096
318,0.0524306640625,0.064087890625,-0.07998828125,-0.0557021484375,0.0243603515625,-0.1626298828125,-0.0663173828125,-0.04753163979893844,-0.035874884362026294,-0.1799511517957862,-0.155665105984292,-0.0756026928832676,-0.2625930166445981,-0.16628060139672113,0.372,-44.432,-5.48,-14.428,2.412,-0.792,-0.032
319,0.0484111328125,0.0599716796875,-0.084021484375,-0.0597529296875,0.020861328125,-0.1665546875,-0.070216796875,-0.05151881212248916,-0.03995876225268109,-0.1839520454043172,-0.15968360615357818,-0.07906947166341695,-0.2664855688514754,-0.17014779428220722,0.156,-43.892,-5.988,-15.024,2.584,-0.768,0.004
320,0.0443916015625,0.0562666015625,-0.087919921875,-0.0643916015625,0.017568359375,-0.170259765625,-0.0739091796875,-0.055496320430776964,-0.04362214383204883,-0.18780886955671627,-0.16428072777818847,-0.08232095083854796,-0.2701492630452892,-0.17379884288320424,0.476,-44.268,-5.272,-13.468,2.444,-1.02,0.004
321,0.0403779296875,0.052453125,-0.0919619140625,-0.0684423828125,0.0148837890625,-0.1752177734375,-0.077408203125,-0.05945681858110346,-0.04738242106574703,-0.19179768283798973,-0.1682783523073484,-0.08495238102907558,-0.2750541440031711,-0.17724475632892095,0.636,-44.324,-5.528,-13.4,2.108,-0.512,-0.024
322,0.0363515625,0.0486455078125,-0.0958515625,-0.0732255859375,0.0109716796875,-0.1783037109375,-0.0811005859375,-0.06342097859789456,-0.05112813125700515,-0.1956254019354487,-0.1729996144370873,-0.08880255060695134,-0.27807813493433053,-0.18087519235481692,0.316,-44.0,-5.964,-13.652,2.18,-0.472,-0.032
323,0.03233203125,0.0445224609375,-0.100029296875,-0.0772861328125,0.0070595703125,-0.182021484375,-0.0845859375,-0.06736839175300244,-0.05517918345638403,-0.19973123381127278,-0.17698833273055758,-0.09264289063362882,-0.28172421541994463,-0.18428889996074094,0.316,-44.216,-4.74,-13.764,2.236,-0.748,-0.108
324,0.0283115234375,0.0402001953125,-0.1040625,-0.080615234375,0.0039609375,-0.186359375,-0.088279296875,-0.07130627117197362,-0.05941887481471015,-0.20368192556089743,-0.18023499235548088,-0.09565915898386304,-0.2859798202133375,-0.18790006576545437,0.584,-43.892,-5.316,-15.548,2.288,-0.396,-0.096
325,0.0242919921875,0.0361806640625,-0.1079609375,-0.0849560546875,-0.0003642578125,-0.1892392578125,-0.092177734375,-0.07523422515194542,-0.06334719537841846,-0.20748918562576169,-0.1844846427815136,-0.09989320424402429,-0.28876856244561194,-0.19170735087939267,0.584,-43.944,-4.74,-14.956,2.596,-0.82,-0.116
326,0.020265625,0.0321669921875,-0.112138671875,-0.08857421875,-0.00365625,-0.19481640625,-0.0960771484375,-0.07915761824777161,-0.06725804210225289,-0.21156415540531381,-0.18800009777332802,-0.10308254478240958,-0.29424311919061485,-0.1955042360614619,0.584,-43.892,-3.908,-14.476,2.328,-0.492,-0.168
327,0.01624609375,0.028353515625,-0.1164697265625,-0.092634765625,-0.0065478515625,-0.1995546875,-0.1003896484375,-0.08306590542998248,-0.07096042814446091,-0.21578399648633467,-0.19194933933252079,-0.10586276241922693,-0.2988699159258134,-0.1997051581570862,0.424,-43.568,-5.088,-14.496,2.132,-0.032,-0.14
328,0.0122255859375,0.0244423828125,-0.1206572265625,-0.0971279296875,-0.010666015625,-0.2028603515625,-0.10471484375,-0.08696422139199722,-0.07474955840608223,-0.21984971215473045,-0.19632089901405225,-0.1098594776074627,-0.3020543211562449,-0.20390926945379875,0.744,-43.784,-4.624,-12.784,2.112,-0.608,-0.172
329,0.008103515625,0.0203193359375,-0.125123046875,-0.1007470703125,-0.014578125,-0.2084375,-0.10861328125,-0.09095290025641252,-0.07873900027334674,-0.2241817649599861,-0.19980617019454494,-0.11363759681529406,-0.30749734041375204,-0.20767346410229828,0.744,-43.784,-4.232,-13.836,2.184,-0.252,-0.12
330,0.0040830078125,0.0164091796875,-0.1294541015625,-0.105095703125,-0.0185029296875,-0.2115234375,-0.1125126953125,-0.09483227661601261,-0.08250864580469416,-0.2283725566120006,-0.2040147001473087,-0.11742251398584032,-0.31044357746697954,-0.2114333663518153,0.372,-44.216,-4.716,-14.956,2.556,-0.544,-0.104
331,5.76171875e-05,0.0123955078125,-0.1336328125,-0.1091474609375,-0.022208984375,-0.215654296875,-0.116205078125,-0.09870685065771632,-0.08637167107422347,-0.23240072651704277,-0.20791600169557392,-0.12097816663234723,-0.3144241353782736,-0.21497551306456386,0.424,-44.916,-4.484,-14.132,2.596,-1.08,-0.116
332,-0.0039619140625,0.008478515625,-0.1376748046875,-0.1130546875,-0.0251005859375,-0.2208193359375,-0.1197041015625,-0.10256106849183681,-0.09012307547453165,-0.23627606201221754,-0.21165647725623998,-0.12370301130104489,-0.3194223769087919,-0.21830771036216,0.584,-44.268,-5.108,-14.52,2.348,-0.244,-0.16
333,-0.0079814453125,0.0046708984375,-0.1412841796875,-0.1178369140625,-0.0283935546875,-0.2234912109375,-0.123203125,-0.10641172321970911,-0.0937623235613463,-0.23971816249821554,-0.21627156505947237,-0.12682889473467684,-0.3219272356842354,-0.22163978810562057,0.584,-44.324,-5.896,-13.332,2.328,-0.696,-0.088
334,-0.012001953125,0.0006513671875,-0.1448935546875,-0.12146484375,-0.031685546875,-0.2288623046875,-0.1266884765625,-0.11024940724102947,-0.09759882784224533,-0.24314428698905435,-0.21971604221289226,-0.12993726470228015,-0.32711355642205314,-0.22494012337010302,0.476,-43.892,-5.944,-13.08,1.964,-0.44,-0.108
335,-0.0161240234375,-0.0033623046875,-0.1490712890625,-0.12566015625,-0.0356103515625,-0.2325810546875,-0.1303818359375,-0.11418329071798275,-0.1014251181884771,-0.24713500379125095,-0.2237246366256987,-0.1336756534413102,-0.330647154565882,-0.2284486636733104,0.424,-43.46,-6.08,-13.696,2.224,0.036,-0.076
336,-0.020150390625,-0.0074853515625,-0.1531142578125,-0.129865234375,-0.039728515625,-0.2354599609375,-0.13407421875,-0.11800538329797447,-0.10534333440281549,-0.2509730602561715,-0.2277247826700993,-0.13758879983169803,-0.3333210054546947,-0.23193594988438535,0.744,-44.108,-5.296,-13.444,2.524,-0.904,-0.084
337,-0.0241708984375,-0.0116015625,-0.15730078125,-0.1336279296875,-0.04384765625,-0.241244140625,-0.13797265625,-0.12181659196992146,-0.10925115795936408,-0.25495138893978486,-0.2312794209759197,-0.14150007205881462,-0.33889748590908336,-0.23562682301825022,0.424,-43.892,-4.648,-15.32,2.512,-0.54,-0.108
338,-0.02829296875,-0.015208984375,-0.1616318359375,-0.1385546875,-0.0469462890625,-0.244962890625,-0.14228515625,-0.12571838318771078,-0.11263787541326507,-0.259061602477074,-0.23598524347591532,-0.14437765583141177,-0.3423950680606287,-0.23971805834696713,0.424,-44.216,-4.484,-14.496,2.636,-0.488,-0.136
339,-0.0322099609375,-0.01922265625,-0.165087890625,-0.142470703125,-0.0498251953125,-0.249494140625,-0.14659765625,-0.12940475275732374,-0.11642123188309715,-0.26228740761593905,-0.23967104367612957,-0.14702640411410506,-0.34669621754433644,-0.2438005339602256,0.744,-44.592,-4.972,-13.056,2.076,-0.732,-0.108
