EmanuelSamir/lab201_ws_projsamir/sawyer_dev/data/sawyer/vel_sin_motion/test_joint6/validation_data_joint6.csv
,j1,j2,j3,j4,j5,j6,j7,jd1,jd2,jd3,jd4,jd5,jd6,jd7,e1,e2,e3,e4,e5,e6,e7
0,0.0,0.0,0.0,0.0,0.0,0.0,0.0,0,0,0,0,0,0.0,0,0.0,0.0,0.0,0.0,0.0,0.0,0.0
1,0.0,0.0,0.0,0.0,0.0,0.004887792014460324,0.0,0,0,0,0,0,-4.641771960068496e-05,0,0.0,0.0,0.0,0.0,0.0,-9.0,0.0
2,0.0,0.0,0.0,0.0,0.0,0.004887792014460324,0.0,0,0,0,0,0,0.0001903032864844579,0,0.0,0.0,0.0,0.0,0.0,-9.0,0.0
3,0.0,0.0,0.0,0.0,0.0,0.004799839483274226,0.0,0,0,0,0,0,0.010256386054428248,0,0.0,0.0,0.0,0.0,0.0,-9.0,0.0
4,0.0,0.0,0.0,0.0,0.0,0.0072449567067724985,0.0,0,0,0,0,0,0.021209330388988274,0,0.0,0.0,0.0,0.0,0.0,-9.0,0.0
5,0.0,0.0,0.0,0.0,0.0,0.008794770114843864,0.0,0,0,0,0,0,0.027004178795709263,0,0.0,0.0,0.0,0.0,0.0,-2.9762854613730676,0.0
6,0.0,0.0,0.0,0.0,0.0,0.013060080605034052,0.0,0,0,0,0,0,0.03374624467155894,0,0.0,0.0,0.0,0.0,0.0,-9.0,0.0
7,0.0,0.0,0.0,0.0,0.0,0.015630933229498822,0.0,0,0,0,0,0,0.03875440484124906,0,0.0,0.0,0.0,0.0,0.0,-9.0,0.0
8,0.0,0.0,0.0,0.0,0.0,0.018162504881085617,0.0,0,0,0,0,0,0.04386224525392441,0,0.0,0.0,0.0,0.0,0.0,-9.0,0.0
9,0.0,0.0,0.0,0.0,0.0,0.018162504881085617,0.0,0,0,0,0,0,0.04963581322203205,0,0.0,0.0,0.0,0.0,0.0,-9.0,0.0
10,0.0,0.0,0.0,0.0,0.0,0.02108842034633618,0.0,0,0,0,0,0,0.05348864356210524,0,0.0,0.0,0.0,0.0,0.0,-5.124428858005869,0.0
11,0.0,0.0,0.0,0.0,0.0,0.02108842034633618,0.0,0,0,0,0,0,0.057854586792982284,0,0.0,0.0,0.0,0.0,0.0,-5.124428858005869,0.0
12,0.0,0.0,0.0,0.0,0.0,0.02691248419439951,0.0,0,0,0,0,0,0.06174507163911853,0,0.0,0.0,0.0,0.0,0.0,9.0,0.0
13,0.0,0.0,0.0,0.0,0.0,0.030933878675015514,0.0,0,0,0,0,0,0.06654834193605969,0,0.0,0.0,0.0,0.0,0.0,-9.0,0.0
14,0.0,0.0,0.0,0.0,0.0,0.030933878675015514,0.0,0,0,0,0,0,0.06965339486966762,0,0.0,0.0,0.0,0.0,0.0,-9.0,0.0
15,0.0,0.0,0.0,0.0,0.0,0.030933878675015514,0.0,0,0,0,0,0,0.0738809723505112,0,0.0,0.0,0.0,0.0,0.0,-9.0,0.0
16,0.0,0.0,0.0,0.0,0.0,0.03533031933167052,0.0,0,0,0,0,0,0.07871924634130226,0,0.0,0.0,0.0,0.0,0.0,9.0,0.0
17,0.0,0.0,0.0,0.0,0.0,0.03533031933167052,0.0,0,0,0,0,0,0.08364188775922039,0,0.0,0.0,0.0,0.0,0.0,9.0,0.0
18,0.0,0.0,0.0,0.0,0.0,0.03956230839458286,0.0,0,0,0,0,0,0.08908891663676943,0,0.0,0.0,0.0,0.0,0.0,-0.030578302878979224,0.0
19,0.0,0.0,0.0,0.0,0.0,0.048758648300891494,0.0,0,0,0,0,0,0.10293940424611603,0,0.0,0.0,0.0,0.0,0.0,-8.249955523445855,0.0
20,0.0,0.0,0.0,0.0,0.0,0.05337377491010287,0.0,0,0,0,0,0,0.11276333432245116,0,0.0,0.0,0.0,0.0,0.0,-7.573545443166493,0.0
21,0.0,0.0,0.0,0.0,0.0,0.0642500252389544,0.0,0,0,0,0,0,0.12707258522747372,0,0.0,0.0,0.0,0.0,0.0,-4.974145244812191,0.0
22,0.0,0.0,0.0,0.0,0.0,0.0701621238152601,0.0,0,0,0,0,0,0.13652030616845118,0,0.0,0.0,0.0,0.0,0.0,-9.0,0.0
23,0.0,0.0,0.0,0.0,0.0,0.07667562147069962,0.0,0,0,0,0,0,0.14457343922765473,0,0.0,0.0,0.0,0.0,0.0,-9.0,0.0
24,0.0,0.0,0.0,0.0,0.0,0.07667562147069962,0.0,0,0,0,0,0,0.14910134731110375,0,0.0,0.0,0.0,0.0,0.0,-9.0,0.0
25,0.0,0.0,0.0,0.0,0.0,0.0837214921049263,0.0,0,0,0,0,0,0.15347122721162376,0,0.0,0.0,0.0,0.0,0.0,0.3585487784981114,0.0
26,0.0,0.0,0.0,0.0,0.0,0.0912190133984776,0.0,0,0,0,0,0,0.1601681483118603,0,0.0,0.0,0.0,0.0,0.0,-9.0,0.0
27,0.0,0.0,0.0,0.0,0.0,0.1041318859909266,0.0,0,0,0,0,0,0.1666265241821542,0,0.0,0.0,0.0,0.0,0.0,-5.406414619680043,0.0
28,0.0,0.0,0.0,0.0,0.0,0.1208968887914379,0.0,0,0,0,0,0,0.17417090298293178,0,0.0,0.0,0.0,0.0,0.0,-7.5682619202251855,0.0
29,0.0,0.0,0.0,0.0,0.0,0.13094972355971812,0.0,0,0,0,0,0,0.17983804843233003,0,0.0,0.0,0.0,0.0,0.0,-9.0,0.0
30,0.0,0.0,0.0,0.0,0.0,0.13574316397206676,0.0,0,0,0,0,0,0.18472515691459826,0,0.0,0.0,0.0,0.0,0.0,-9.0,0.0
31,0.0,0.0,0.0,0.0,0.0,0.14451422848554873,0.0,0,0,0,0,0,0.18921161048338475,0,0.0,0.0,0.0,0.0,0.0,-9.0,0.0
32,0.0,0.0,0.0,0.0,0.0,0.1489923257473471,0.0,0,0,0,0,0,0.1935286573128431,0,0.0,0.0,0.0,0.0,0.0,9.0,0.0
33,0.0,0.0,0.0,0.0,0.0,0.157837023220476,0.0,0,0,0,0,0,0.199655857001308,0,0.0,0.0,0.0,0.0,0.0,-9.0,0.0
34,0.0,0.0,0.0,0.0,0.0,0.1745181570847114,0.0,0,0,0,0,0,0.21364018209762806,0,0.0,0.0,0.0,0.0,0.0,-9.0,0.0
35,0.0,0.0,0.0,0.0,0.0,0.1775194204288244,0.0,0,0,0,0,0,0.2183256256495458,0,0.0,0.0,0.0,0.0,0.0,3.4413126327915022,0.0
36,0.0,0.0,0.0,0.0,0.0,0.184964110154759,0.0,0,0,0,0,0,0.22224324313543217,0,0.0,0.0,0.0,0.0,0.0,-9.0,0.0
37,0.0,0.0,0.0,0.0,0.0,0.19284076192495192,0.0,0,0,0,0,0,0.22728612482688132,0,0.0,0.0,0.0,0.0,0.0,9.0,0.0
38,0.0,0.0,0.0,0.0,0.0,0.20295332540334687,0.0,0,0,0,0,0,0.23650533338842186,0,0.0,0.0,0.0,0.0,0.0,-9.0,0.0
39,0.0,0.0,0.0,0.0,0.0,0.2066354186689887,0.0,0,0,0,0,0,0.24079265499709293,0,0.0,0.0,0.0,0.0,0.0,8.588255646174833,0.0
40,0.0,0.0,0.0,0.0,0.0,0.2136647934416347,0.0,0,0,0,0,0,0.24470671905782224,0,0.0,0.0,0.0,0.0,0.0,-9.0,0.0
41,0.0,0.0,0.0,0.0,0.0,0.21724029993533556,0.0,0,0,0,0,0,0.2478611243282165,0,0.0,0.0,0.0,0.0,0.0,8.355476389920028,0.0
42,0.0,0.0,0.0,0.0,0.0,0.22292040880010155,0.0,0,0,0,0,0,0.25216773353090005,0,0.0,0.0,0.0,0.0,0.0,-9.0,0.0
43,0.0,0.0,0.0,0.0,0.0,0.2288398748764946,0.0,0,0,0,0,0,0.25559832218102796,0,0.0,0.0,0.0,0.0,0.0,-9.0,0.0
44,0.0,0.0,0.0,0.0,0.0,0.2314970983286022,0.0,0,0,0,0,0,0.2594240581808011,0,0.0,0.0,0.0,0.0,0.0,-9.0,0.0
45,0.0,0.0,0.0,0.0,0.0,0.23669809290048427,0.0,0,0,0,0,0,0.26321364333272457,0,0.0,0.0,0.0,0.0,0.0,-9.0,0.0
46,0.0,0.0,0.0,0.0,0.0,0.23928868865506114,0.0,0,0,0,0,0,0.2658339723506713,0,0.0,0.0,0.0,0.0,0.0,-9.0,0.0
47,0.0,0.0,0.0,0.0,0.0,0.24218558151898684,0.0,0,0,0,0,0,0.2684876002452729,0,0.0,0.0,0.0,0.0,0.0,9.0,0.0
48,0.0,0.0,0.0,0.0,0.0,0.24528787445614064,0.0,0,0,0,0,0,0.27052731744372926,0,0.0,0.0,0.0,0.0,0.0,9.0,0.0
49,0.0,0.0,0.0,0.0,0.0,0.25362529698225167,0.0,0,0,0,0,0,0.27486897462234927,0,0.0,0.0,0.0,0.0,0.0,-9.0,0.0
50,0.0,0.0,0.0,0.0,0.0,0.25870382563397154,0.0,0,0,0,0,0,0.2788711601162086,0,0.0,0.0,0.0,0.0,0.0,-9.0,0.0
51,0.0,0.0,0.0,0.0,0.0,0.2611011111514969,0.0,0,0,0,0,0,0.28066201968106436,0,0.0,0.0,0.0,0.0,0.0,-9.0,0.0
52,0.0,0.0,0.0,0.0,0.0,0.2638142253620739,0.0,0,0,0,0,0,0.2824895712875767,0,0.0,0.0,0.0,0.0,0.0,9.0,0.0
53,0.0,0.0,0.0,0.0,0.0,0.26618687116473616,0.0,0,0,0,0,0,0.28392307104476733,0,0.0,0.0,0.0,0.0,0.0,-9.0,0.0
54,0.0,0.0,0.0,0.0,0.0,0.2687297352996856,0.0,0,0,0,0,0,0.285298982439131,0,0.0,0.0,0.0,0.0,0.0,-9.0,0.0
55,0.0,0.0,0.0,0.0,0.0,0.27334527573762823,0.0,0,0,0,0,0,0.28666486712779315,0,0.0,0.0,0.0,0.0,0.0,-9.0,0.0
56,0.0,0.0,0.0,0.0,0.0,0.27334527573762823,0.0,0,0,0,0,0,0.28794286435124555,0,0.0,0.0,0.0,0.0,0.0,-9.0,0.0
57,0.0,0.0,0.0,0.0,0.0,0.2756039628805702,0.0,0,0,0,0,0,0.28925137526872746,0,0.0,0.0,0.0,0.0,0.0,-9.0,0.0
58,0.0,0.0,0.0,0.0,0.0,0.27940601780626206,0.0,0,0,0,0,0,0.2912601022371682,0,0.0,0.0,0.0,0.0,0.0,-9.0,0.0
59,0.0,0.0,0.0,0.0,0.0,0.28107446265933866,0.0,0,0,0,0,0,0.29231282763613387,0,0.0,0.0,0.0,0.0,0.0,-9.0,0.0
60,0.0,0.0,0.0,0.0,0.0,0.2830908939224024,0.0,0,0,0,0,0,0.2931876174486262,0,0.0,0.0,0.0,0.0,0.0,9.0,0.0
61,0.0,0.0,0.0,0.0,0.0,0.28491799865088474,0.0,0,0,0,0,0,0.294446662251176,0,0.0,0.0,0.0,0.0,0.0,9.0,0.0
62,0.0,0.0,0.0,0.0,0.0,0.2865245110416268,0.0,0,0,0,0,0,0.2954098709154487,0,0.0,0.0,0.0,0.0,0.0,-9.0,0.0
63,0.0,0.0,0.0,0.0,0.0,0.28943413126714024,0.0,0,0,0,0,0,0.2968447195605734,0,0.0,0.0,0.0,0.0,0.0,-9.0,0.0
64,0.0,0.0,0.0,0.0,0.0,0.2908642592835742,0.0,0,0,0,0,0,0.29752226040190843,0,0.0,0.0,0.0,0.0,0.0,-9.0,0.0
65,0.0,0.0,0.0,0.0,0.0,0.29328880780368927,0.0,0,0,0,0,0,0.2982426196899112,0,0.0,0.0,0.0,0.0,0.0,-9.0,0.0
66,0.0,0.0,0.0,0.0,0.0,0.29452407423945015,0.0,0,0,0,0,0,0.2987171899099904,0,0.0,0.0,0.0,0.0,0.0,-9.0,0.0
67,0.0,0.0,0.0,0.0,0.0,0.2955876071060981,0.0,0,0,0,0,0,0.29910236489988457,0,0.0,0.0,0.0,0.0,0.0,-9.0,0.0
68,0.0,0.0,0.0,0.0,0.0,0.29826243799404484,0.0,0,0,0,0,0,0.29977018234863745,0,0.0,0.0,0.0,0.0,0.0,-9.0,0.0
69,0.0,0.0,0.0,0.0,0.0,0.29914996053748233,0.0,0,0,0,0,0,0.29993957143700356,0,0.0,0.0,0.0,0.0,0.0,-9.0,0.0
70,0.0,0.0,0.0,0.0,0.0,0.29914996053748233,0.0,0,0,0,0,0,0.29999183027455034,0,0.0,0.0,0.0,0.0,0.0,-9.0,0.0
71,0.0,0.0,0.0,0.0,0.0,0.29967436494233013,0.0,0,0,0,0,0,0.29999076419538795,0,0.0,0.0,0.0,0.0,0.0,-9.0,0.0
72,0.0,0.0,0.0,0.0,0.0,0.30078530260995606,0.0,0,0,0,0,0,0.29989573271318704,0,0.0,0.0,0.0,0.0,0.0,-9.0,0.0
73,0.0,0.0,0.0,0.0,0.0,0.3009799212135027,0.0,0,0,0,0,0,0.29975595049204823,0,0.0,0.0,0.0,0.0,0.0,-9.0,0.0
74,0.0,0.0,0.0,0.0,0.0,0.3009799212135027,0.0,0,0,0,0,0,0.29956891282727593,0,0.0,0.0,0.0,0.0,0.0,-9.0,0.0
75,0.0,0.0,0.0,0.0,0.0,0.30141428894666333,0.0,0,0,0,0,0,0.2992188779631991,0,0.0,0.0,0.0,0.0,0.0,-9.0,0.0
76,0.0,0.0,0.0,0.0,0.0,0.30144642572969804,0.0,0,0,0,0,0,0.2987725886458184,0,0.0,0.0,0.0,0.0,0.0,6.377001609739384,0.0
77,0.0,0.0,0.0,0.0,0.0,0.30124276783678816,0.0,0,0,0,0,0,0.29819619014101517,0,0.0,0.0,0.0,0.0,0.0,-9.0,0.0
78,0.0,0.0,0.0,0.0,0.0,0.3012657117983375,0.0,0,0,0,0,0,0.29776488892643593,0,0.0,0.0,0.0,0.0,0.0,4.12928360454581,0.0
79,0.0,0.0,0.0,0.0,0.0,0.3012657117983375,0.0,0,0,0,0,0,0.2972247674054154,0,0.0,0.0,0.0,0.0,0.0,4.12928360454581,0.0
80,0.0,0.0,0.0,0.0,0.0,0.3013391503030247,0.0,0,0,0,0,0,0.29668634482051454,0,0.0,0.0,0.0,0.0,0.0,-9.0,0.0
81,0.0,0.0,0.0,0.0,0.0,0.3010575894436025,0.0,0,0,0,0,0,0.29603895081798887,0,0.0,0.0,0.0,0.0,0.0,0.6910853319878871,0.0
82,0.0,0.0,0.0,0.0,0.0,0.30108348022744646,0.0,0,0,0,0,0,0.29526825397663986,0,0.0,0.0,0.0,0.0,0.0,-9.0,0.0
83,0.0,0.0,0.0,0.0,0.0,0.3003316823343605,0.0,0,0,0,0,0,0.2945589815854281,0,0.0,0.0,0.0,0.0,0.0,-9.0,0.0
84,0.0,0.0,0.0,0.0,0.0,0.29985708540332023,0.0,0,0,0,0,0,0.29375750918766397,0,0.0,0.0,0.0,0.0,0.0,-9.0,0.0
85,0.0,0.0,0.0,0.0,0.0,0.29985708540332023,0.0,0,0,0,0,0,0.29269347559974235,0,0.0,0.0,0.0,0.0,0.0,-9.0,0.0
86,0.0,0.0,0.0,0.0,0.0,0.2992747248432064,0.0,0,0,0,0,0,0.29061432824130373,0,0.0,0.0,0.0,0.0,0.0,-9.0,0.0
87,0.0,0.0,0.0,0.0,0.0,0.2983781313730498,0.0,0,0,0,0,0,0.288811131923459,0,0.0,0.0,0.0,0.0,0.0,-9.0,0.0
88,0.0,0.0,0.0,0.0,0.0,0.2981358178750346,0.0,0,0,0,0,0,0.2876013711461217,0,0.0,0.0,0.0,0.0,0.0,-9.0,0.0
89,0.0,0.0,0.0,0.0,0.0,0.29642051421488613,0.0,0,0,0,0,0,0.2858619614238991,0,0.0,0.0,0.0,0.0,0.0,-9.0,0.0
90,0.0,0.0,0.0,0.0,0.0,0.2952740502122122,0.0,0,0,0,0,0,0.2829780814472757,0,0.0,0.0,0.0,0.0,0.0,-9.0,0.0
91,0.0,0.0,0.0,0.0,0.0,0.2937984995351286,0.0,0,0,0,0,0,0.27969802202407873,0,0.0,0.0,0.0,0.0,0.0,-9.0,0.0
92,0.0,0.0,0.0,0.0,0.0,0.2928785469240216,0.0,0,0,0,0,0,0.27768183322239115,0,0.0,0.0,0.0,0.0,0.0,2.463241733659693,0.0
93,0.0,0.0,0.0,0.0,0.0,0.29180995246438446,0.0,0,0,0,0,0,0.27606112457249327,0,0.0,0.0,0.0,0.0,0.0,-9.0,0.0
94,0.0,0.0,0.0,0.0,0.0,0.290540737516074,0.0,0,0,0,0,0,0.2740373014931649,0,0.0,0.0,0.0,0.0,0.0,3.754114425744053,0.0
95,0.0,0.0,0.0,0.0,0.0,0.2888665347662309,0.0,0,0,0,0,0,0.27195649284935275,0,0.0,0.0,0.0,0.0,0.0,-9.0,0.0
96,0.0,0.0,0.0,0.0,0.0,0.2875641066001551,0.0,0,0,0,0,0,0.2693569737905317,0,0.0,0.0,0.0,0.0,0.0,3.36175110336607,0.0
97,0.0,0.0,0.0,0.0,0.0,0.28621905372321255,0.0,0,0,0,0,0,0.2677033176498951,0,0.0,0.0,0.0,0.0,0.0,-9.0,0.0
98,0.0,0.0,0.0,0.0,0.0,0.28301043698691686,0.0,0,0,0,0,0,0.2642879220854905,0,0.0,0.0,0.0,0.0,0.0,-9.0,0.0
99,0.0,0.0,0.0,0.0,0.0,0.28118148241234486,0.0,0,0,0,0,0,0.26226008556310837,0,0.0,0.0,0.0,0.0,0.0,-9.0,0.0
100,0.0,0.0,0.0,0.0,0.0,0.28118148241234486,0.0,0,0,0,0,0,0.2607924398053509,0,0.0,0.0,0.0,0.0,0.0,-9.0,0.0
101,0.0,0.0,0.0,0.0,0.0,0.2796294668821382,0.0,0,0,0,0,0,0.2586227005391324,0,0.0,0.0,0.0,0.0,0.0,-9.0,0.0
102,0.0,0.0,0.0,0.0,0.0,0.2796294668821382,0.0,0,0,0,0,0,0.2566283818510288,0,0.0,0.0,0.0,0.0,0.0,-9.0,0.0
103,0.0,0.0,0.0,0.0,0.0,0.2757603055194302,0.0,0,0,0,0,0,0.25383928729774485,0,0.0,0.0,0.0,0.0,0.0,-9.0,0.0
104,0.0,0.0,0.0,0.0,0.0,0.27221298699275565,0.0,0,0,0,0,0,0.2496681962671608,0,0.0,0.0,0.0,0.0,0.0,-9.0,0.0
105,0.0,0.0,0.0,0.0,0.0,0.26853741860991676,0.0,0,0,0,0,0,0.2438810825590751,0,0.0,0.0,0.0,0.0,0.0,-9.0,0.0
106,0.0,0.0,0.0,0.0,0.0,0.2666291078625047,0.0,0,0,0,0,0,0.24061983969592995,0,0.0,0.0,0.0,0.0,0.0,-9.0,0.0
107,0.0,0.0,0.0,0.0,0.0,0.2640576993930761,0.0,0,0,0,0,0,0.23759795212369553,0,0.0,0.0,0.0,0.0,0.0,-9.0,0.0
108,0.0,0.0,0.0,0.0,0.0,0.2576239526106896,0.0,0,0,0,0,0,0.23046472223246334,0,0.0,0.0,0.0,0.0,0.0,-9.0,0.0
109,0.0,0.0,0.0,0.0,0.0,0.25138415851904305,0.0,0,0,0,0,0,0.22363696042385434,0,0.0,0.0,0.0,0.0,0.0,-9.0,0.0
110,0.0,0.0,0.0,0.0,0.0,0.2492396442516167,0.0,0,0,0,0,0,0.22135522807969615,0,0.0,0.0,0.0,0.0,0.0,-9.0,0.0
111,0.0,0.0,0.0,0.0,0.0,0.24639999118504896,0.0,0,0,0,0,0,0.2179287562611916,0,0.0,0.0,0.0,0.0,0.0,-9.0,0.0
112,0.0,0.0,0.0,0.0,0.0,0.24381576536845984,0.0,0,0,0,0,0,0.21444598937611925,0,0.0,0.0,0.0,0.0,0.0,-9.0,0.0
113,0.0,0.0,0.0,0.0,0.0,0.23850327883081235,0.0,0,0,0,0,0,0.20606435981684512,0,0.0,0.0,0.0,0.0,0.0,-9.0,0.0
114,0.0,0.0,0.0,0.0,0.0,0.23313307021691898,0.0,0,0,0,0,0,0.198753375764027,0,0.0,0.0,0.0,0.0,0.0,-9.0,0.0
115,0.0,0.0,0.0,0.0,0.0,0.23057918838757274,0.0,0,0,0,0,0,0.19467584072195274,0,0.0,0.0,0.0,0.0,0.0,-9.0,0.0
116,0.0,0.0,0.0,0.0,0.0,0.22412451053445892,0.0,0,0,0,0,0,0.1898634881778008,0,0.0,0.0,0.0,0.0,0.0,-9.0,0.0
117,0.0,0.0,0.0,0.0,0.0,0.2178617476024609,0.0,0,0,0,0,0,0.1822506981924443,0,0.0,0.0,0.0,0.0,0.0,-9.0,0.0
118,0.0,0.0,0.0,0.0,0.0,0.21156597344874406,0.0,0,0,0,0,0,0.17840233555245116,0,0.0,0.0,0.0,0.0,0.0,-9.0,0.0
119,0.0,0.0,0.0,0.0,0.0,0.21156597344874406,0.0,0,0,0,0,0,0.17371900806096907,0,0.0,0.0,0.0,0.0,0.0,-9.0,0.0
120,0.0,0.0,0.0,0.0,0.0,0.20189642283940046,0.0,0,0,0,0,0,0.1656612003157841,0,0.0,0.0,0.0,0.0,0.0,-9.0,0.0
121,0.0,0.0,0.0,0.0,0.0,0.20189642283940046,0.0,0,0,0,0,0,0.16206488503017646,0,0.0,0.0,0.0,0.0,0.0,-9.0,0.0
122,0.0,0.0,0.0,0.0,0.0,0.19887385936638502,0.0,0,0,0,0,0,0.1579294730762857,0,0.0,0.0,0.0,0.0,0.0,-9.0,0.0
123,0.0,0.0,0.0,0.0,0.0,0.19463148143926823,0.0,0,0,0,0,0,0.1539573507105262,0,0.0,0.0,0.0,0.0,0.0,-9.0,0.0
124,0.0,0.0,0.0,0.0,0.0,0.18722013687743377,0.0,0,0,0,0,0,0.14811740511425703,0,0.0,0.0,0.0,0.0,0.0,-9.0,0.0
125,0.0,0.0,0.0,0.0,0.0,0.18368376380104934,0.0,0,0,0,0,0,0.14355031791787728,0,0.0,0.0,0.0,0.0,0.0,-5.549475814361071,0.0
126,0.0,0.0,0.0,0.0,0.0,0.17967200675612105,0.0,0,0,0,0,0,0.1399526997801868,0,0.0,0.0,0.0,0.0,0.0,-9.0,0.0
127,0.0,0.0,0.0,0.0,0.0,0.17239579186081144,0.0,0,0,0,0,0,0.13285794758307515,0,0.0,0.0,0.0,0.0,0.0,-9.0,0.0
128,0.0,0.0,0.0,0.0,0.0,0.16891970009418422,0.0,0,0,0,0,0,0.12914139754590406,0,0.0,0.0,0.0,0.0,0.0,-7.565343280957746,0.0
129,0.0,0.0,0.0,0.0,0.0,0.16542848899477214,0.0,0,0,0,0,0,0.12447459575604486,0,0.0,0.0,0.0,0.0,0.0,-9.0,0.0
130,0.0,0.0,0.0,0.0,0.0,0.16176464834774507,0.0,0,0,0,0,0,0.12071300269105165,0,0.0,0.0,0.0,0.0,0.0,-9.0,0.0
131,0.0,0.0,0.0,0.0,0.0,0.15789960648663026,0.0,0,0,0,0,0,0.1170662415450319,0,0.0,0.0,0.0,0.0,0.0,-9.0,0.0
132,0.0,0.0,0.0,0.0,0.0,0.1541597645218591,0.0,0,0,0,0,0,0.11335486254638463,0,0.0,0.0,0.0,0.0,0.0,-9.0,0.0
133,0.0,0.0,0.0,0.0,0.0,0.14666264957341468,0.0,0,0,0,0,0,0.10680098283069471,0,0.0,0.0,0.0,0.0,0.0,-9.0,0.0
134,0.0,0.0,0.0,0.0,0.0,0.1430370453542711,0.0,0,0,0,0,0,0.1016188689934094,0,0.0,0.0,0.0,0.0,0.0,-9.0,0.0
135,0.0,0.0,0.0,0.0,0.0,0.13941538135983222,0.0,0,0,0,0,0,0.09694159370749815,0,0.0,0.0,0.0,0.0,0.0,-9.0,0.0
136,0.0,0.0,0.0,0.0,0.0,0.13549929999526533,0.0,0,0,0,0,0,0.0932817158689044,0,0.0,0.0,0.0,0.0,0.0,-9.0,0.0
137,0.0,0.0,0.0,0.0,0.0,0.13174419587786979,0.0,0,0,0,0,0,0.0890849085372071,0,0.0,0.0,0.0,0.0,0.0,-9.0,0.0
138,0.0,0.0,0.0,0.0,0.0,0.12782855497543721,0.0,0,0,0,0,0,0.08447451668587157,0,0.0,0.0,0.0,0.0,0.0,-9.0,0.0
139,0.0,0.0,0.0,0.0,0.0,0.11979653128303269,0.0,0,0,0,0,0,0.0769147791954456,0,0.0,0.0,0.0,0.0,0.0,-9.0,0.0
140,0.0,0.0,0.0,0.0,0.0,0.11635892933250602,0.0,0,0,0,0,0,0.0722496921960871,0,0.0,0.0,0.0,0.0,0.0,-9.0,0.0
141,0.0,0.0,0.0,0.0,0.0,0.104784030463966,0.0,0,0,0,0,0,0.06240810928655786,0,0.0,0.0,0.0,0.0,0.0,-9.0,0.0
142,0.0,0.0,0.0,0.0,0.0,0.09763118213477817,0.0,0,0,0,0,0,0.05361524609061653,0,0.0,0.0,0.0,0.0,0.0,-9.0,0.0
143,0.0,0.0,0.0,0.0,0.0,0.0864775892214702,0.0,0,0,0,0,0,0.04306679086025226,0,0.0,0.0,0.0,0.0,0.0,-9.0,0.0
144,0.0,0.0,0.0,0.0,0.0,0.08274826060398155,0.0,0,0,0,0,0,0.03787755124828141,0,0.0,0.0,0.0,0.0,0.0,-9.0,0.0
145,0.0,0.0,0.0,0.0,0.0,0.0783119403545296,0.0,0,0,0,0,0,0.03281262875360106,0,0.0,0.0,0.0,0.0,0.0,-9.0,0.0
146,0.0,0.0,0.0,0.0,0.0,0.07396986754082313,0.0,0,0,0,0,0,0.028090128962045432,0,0.0,0.0,0.0,0.0,0.0,-6.7900361061864505,0.0
147,0.0,0.0,0.0,0.0,0.0,0.0657323967084924,0.0,0,0,0,0,0,0.022266618935803475,0,0.0,0.0,0.0,0.0,0.0,-9.0,0.0
148,0.0,0.0,0.0,0.0,0.0,0.0657323967084924,0.0,0,0,0,0,0,0.01847210759644783,0,0.0,0.0,0.0,0.0,0.0,-9.0,0.0
149,0.0,0.0,0.0,0.0,0.0,0.06142905410386845,0.0,0,0,0,0,0,0.014691471271209141,0,0.0,0.0,0.0,0.0,0.0,-9.0,0.0
150,0.0,0.0,0.0,0.0,0.0,0.05707964990025616,0.0,0,0,0,0,0,0.008892043656524379,0,0.0,0.0,0.0,0.0,0.0,-9.0,0.0
151,0.0,0.0,0.0,0.0,0.0,0.052856024137549085,0.0,0,0,0,0,0,0.004779995985930676,0,0.0,0.0,0.0,0.0,0.0,-9.0,0.0
152,0.0,0.0,0.0,0.0,0.0,0.048052713700620586,0.0,0,0,0,0,0,-0.000245728075514513,0,0.0,0.0,0.0,0.0,0.0,-8.515092560114903,0.0
153,0.0,0.0,0.0,0.0,0.0,0.04376098768229575,0.0,0,0,0,0,0,-0.004514433976950128,0,0.0,0.0,0.0,0.0,0.0,-9.0,0.0
154,0.0,0.0,0.0,0.0,0.0,0.03466142085763124,0.0,0,0,0,0,0,-0.009622001262188738,0,0.0,0.0,0.0,0.0,0.0,-9.0,0.0
155,0.0,0.0,0.0,0.0,0.0,0.030093473167163154,0.0,0,0,0,0,0,-0.018292935573887007,0,0.0,0.0,0.0,0.0,0.0,-9.0,0.0
156,0.0,0.0,0.0,0.0,0.0,0.025793820754987706,0.0,0,0,0,0,0,-0.02278884286519826,0,0.0,0.0,0.0,0.0,0.0,-9.0,0.0
157,0.0,0.0,0.0,0.0,0.0,0.02139091110604774,0.0,0,0,0,0,0,-0.02691791458330654,0,0.0,0.0,0.0,0.0,0.0,-9.0,0.0
158,0.0,0.0,0.0,0.0,0.0,0.017140408335970747,0.0,0,0,0,0,0,-0.031206986153508254,0,0.0,0.0,0.0,0.0,0.0,-5.945414695103321,0.0
159,0.0,0.0,0.0,0.0,0.0,0.013188585592494917,0.0,0,0,0,0,0,-0.03504788596593025,0,0.0,0.0,0.0,0.0,0.0,-9.0,0.0
160,0.0,0.0,0.0,0.0,0.0,0.004782024157011122,0.0,0,0,0,0,0,-0.03964707857070894,0,0.0,0.0,0.0,0.0,0.0,-9.0,0.0
161,0.0,0.0,0.0,0.0,0.0,0.004782024157011122,0.0,0,0,0,0,0,-0.04370828823693472,0,0.0,0.0,0.0,0.0,0.0,-9.0,0.0
162,0.0,0.0,0.0,0.0,0.0,0.0004293808074198324,0.0,0,0,0,0,0,-0.04783997601047467,0,0.0,0.0,0.0,0.0,0.0,-9.0,0.0
163,0.0,0.0,0.0,0.0,0.0,-0.003959340253894439,0.0,0,0,0,0,0,-0.052470927074004345,0,0.0,0.0,0.0,0.0,0.0,-9.0,0.0
164,0.0,0.0,0.0,0.0,0.0,-0.003959340253894439,0.0,0,0,0,0,0,-0.057760248073222394,0,0.0,0.0,0.0,0.0,0.0,-9.0,0.0
165,0.0,0.0,0.0,0.0,0.0,-0.01330460042935222,0.0,0,0,0,0,0,-0.06349456357291282,0,0.0,0.0,0.0,0.0,0.0,-8.079020936838987,0.0
166,0.0,0.0,0.0,0.0,0.0,-0.017732725625378976,0.0,0,0,0,0,0,-0.06898689038813126,0,0.0,0.0,0.0,0.0,0.0,-9.0,0.0
167,0.0,0.0,0.0,0.0,0.0,-0.026891568438474067,0.0,0,0,0,0,0,-0.07339480133301618,0,0.0,0.0,0.0,0.0,0.0,-9.0,0.0
168,0.0,0.0,0.0,0.0,0.0,-0.03143868191463994,0.0,0,0,0,0,0,-0.07676212924348541,0,0.0,0.0,0.0,0.0,0.0,-7.693049358719972,0.0
169,0.0,0.0,0.0,0.0,0.0,-0.03143868191463994,0.0,0,0,0,0,0,-0.08094736829811561,0,0.0,0.0,0.0,0.0,0.0,-7.693049358719972,0.0
170,0.0,0.0,0.0,0.0,0.0,-0.04062065746331989,0.0,0,0,0,0,0,-0.08689030143720472,0,0.0,0.0,0.0,0.0,0.0,-9.0,0.0
171,0.0,0.0,0.0,0.0,0.0,-0.04491903576300693,0.0,0,0,0,0,0,-0.09161172389152678,0,0.0,0.0,0.0,0.0,0.0,-9.0,0.0
172,0.0,0.0,0.0,0.0,0.0,-0.05316711656541351,0.0,0,0,0,0,0,-0.0978948659363653,0,0.0,0.0,0.0,0.0,0.0,-9.0,0.0
173,0.0,0.0,0.0,0.0,0.0,-0.06515872239465104,0.0,0,0,0,0,0,-0.10922702739979753,0,0.0,0.0,0.0,0.0,0.0,-9.0,0.0
174,0.0,0.0,0.0,0.0,0.0,-0.07271893747786962,0.0,0,0,0,0,0,-0.11793615136203006,0,0.0,0.0,0.0,0.0,0.0,-9.0,0.0
175,0.0,0.0,0.0,0.0,0.0,-0.08099530332040317,0.0,0,0,0,0,0,-0.12335562590334462,0,0.0,0.0,0.0,0.0,0.0,-9.0,0.0
176,0.0,0.0,0.0,0.0,0.0,-0.08509859387579155,0.0,0,0,0,0,0,-0.12797303970102702,0,0.0,0.0,0.0,0.0,0.0,-9.0,0.0
177,0.0,0.0,0.0,0.0,0.0,-0.09303554031228778,0.0,0,0,0,0,0,-0.13611070288726054,0,0.0,0.0,0.0,0.0,0.0,-9.0,0.0
178,0.0,0.0,0.0,0.0,0.0,-0.09303554031228778,0.0,0,0,0,0,0,-0.1403048306062301,0,0.0,0.0,0.0,0.0,0.0,-9.0,0.0
179,0.0,0.0,0.0,0.0,0.0,-0.10135167675694134,0.0,0,0,0,0,0,-0.14407253199447634,0,0.0,0.0,0.0,0.0,0.0,-9.0,0.0
180,0.0,0.0,0.0,0.0,0.0,-0.10135167675694134,0.0,0,0,0,0,0,-0.14787735708420524,0,0.0,0.0,0.0,0.0,0.0,-9.0,0.0
181,0.0,0.0,0.0,0.0,0.0,-0.10555513299793517,0.0,0,0,0,0,0,-0.15130257421439244,0,0.0,0.0,0.0,0.0,0.0,-9.0,0.0
182,0.0,0.0,0.0,0.0,0.0,-0.11027324978003605,0.0,0,0,0,0,0,-0.1544398082516877,0,0.0,0.0,0.0,0.0,0.0,-4.447838029628337,0.0
183,0.0,0.0,0.0,0.0,0.0,-0.11449782438537426,0.0,0,0,0,0,0,-0.15809363762257916,0,0.0,0.0,0.0,0.0,0.0,-9.0,0.0
184,0.0,0.0,0.0,0.0,0.0,-0.11865946314050824,0.0,0,0,0,0,0,-0.16341230526355216,0,0.0,0.0,0.0,0.0,0.0,-9.0,0.0
185,0.0,0.0,0.0,0.0,0.0,-0.12291548541573505,0.0,0,0,0,0,0,-0.16643926940058804,0,0.0,0.0,0.0,0.0,0.0,-7.757554533893341,0.0
186,0.0,0.0,0.0,0.0,0.0,-0.12713284909760425,0.0,0,0,0,0,0,-0.17026105284628476,0,0.0,0.0,0.0,0.0,0.0,-9.0,0.0
187,0.0,0.0,0.0,0.0,0.0,-0.12713284909760425,0.0,0,0,0,0,0,-0.1730626876029595,0,0.0,0.0,0.0,0.0,0.0,-9.0,0.0
188,0.0,0.0,0.0,0.0,0.0,-0.13129332467666188,0.0,0,0,0,0,0,-0.17633928528436124,0,0.0,0.0,0.0,0.0,0.0,-9.0,0.0
189,0.0,0.0,0.0,0.0,0.0,-0.135656394190379,0.0,0,0,0,0,0,-0.17964616471212613,0,0.0,0.0,0.0,0.0,0.0,-9.0,0.0
190,0.0,0.0,0.0,0.0,0.0,-0.13981925787999927,0.0,0,0,0,0,0,-0.18352635394384684,0,0.0,0.0,0.0,0.0,0.0,-9.0,0.0
191,0.0,0.0,0.0,0.0,0.0,-0.14418318666993102,0.0,0,0,0,0,0,-0.18612554606577433,0,0.0,0.0,0.0,0.0,0.0,-4.192530427900477,0.0
192,0.0,0.0,0.0,0.0,0.0,-0.14418318666993102,0.0,0,0,0,0,0,-0.18861229914777383,0,0.0,0.0,0.0,0.0,0.0,-4.192530427900477,0.0
193,0.0,0.0,0.0,0.0,0.0,-0.1524468431688799,0.0,0,0,0,0,0,-0.1921435284856729,0,0.0,0.0,0.0,0.0,0.0,-9.0,0.0
194,0.0,0.0,0.0,0.0,0.0,-0.1524468431688799,0.0,0,0,0,0,0,-0.19508596082851914,0,0.0,0.0,0.0,0.0,0.0,-9.0,0.0
195,0.0,0.0,0.0,0.0,0.0,-0.15633342288468022,0.0,0,0,0,0,0,-0.19798355835123474,0,0.0,0.0,0.0,0.0,0.0,-9.0,0.0
196,0.0,0.0,0.0,0.0,0.0,-0.16035460825415448,0.0,0,0,0,0,0,-0.20131243517400868,0,0.0,0.0,0.0,0.0,0.0,-9.0,0.0
197,0.0,0.0,0.0,0.0,0.0,-0.16426739229349074,0.0,0,0,0,0,0,-0.20425892032865442,0,0.0,0.0,0.0,0.0,0.0,-9.0,0.0
198,0.0,0.0,0.0,0.0,0.0,-0.16803389669103197,0.0,0,0,0,0,0,-0.20684911419313867,0,0.0,0.0,0.0,0.0,0.0,-9.0,0.0
199,0.0,0.0,0.0,0.0,0.0,-0.17206072487729251,0.0,0,0,0,0,0,-0.20970118251139822,0,0.0,0.0,0.0,0.0,0.0,-9.0,0.0
200,0.0,0.0,0.0,0.0,0.0,-0.17566634461500108,0.0,0,0,0,0,0,-0.21273762400228588,0,0.0,0.0,0.0,0.0,0.0,-9.0,0.0
201,0.0,0.0,0.0,0.0,0.0,-0.17939464530936,0.0,0,0,0,0,0,-0.2155781488430099,0,0.0,0.0,0.0,0.0,0.0,-9.0,0.0
202,0.0,0.0,0.0,0.0,0.0,-0.18285750352805152,0.0,0,0,0,0,0,-0.21833073046484838,0,0.0,0.0,0.0,0.0,0.0,-9.0,0.0
203,0.0,0.0,0.0,0.0,0.0,-0.18625776215766443,0.0,0,0,0,0,0,-0.22094814826470163,0,0.0,0.0,0.0,0.0,0.0,-9.0,0.0
204,0.0,0.0,0.0,0.0,0.0,-0.1897849552784301,0.0,0,0,0,0,0,-0.2235952362019115,0,0.0,0.0,0.0,0.0,0.0,-9.0,0.0
205,0.0,0.0,0.0,0.0,0.0,-0.1897849552784301,0.0,0,0,0,0,0,-0.22657305361946004,0,0.0,0.0,0.0,0.0,0.0,-9.0,0.0
206,0.0,0.0,0.0,0.0,0.0,-0.19660737823132557,0.0,0,0,0,0,0,-0.22936367824039516,0,0.0,0.0,0.0,0.0,0.0,-9.0,0.0
207,0.0,0.0,0.0,0.0,0.0,-0.19660737823132557,0.0,0,0,0,0,0,-0.23167241847953957,0,0.0,0.0,0.0,0.0,0.0,-9.0,0.0
208,0.0,0.0,0.0,0.0,0.0,-0.19974110704463754,0.0,0,0,0,0,0,-0.23401363347527135,0,0.0,0.0,0.0,0.0,0.0,-9.0,0.0
209,0.0,0.0,0.0,0.0,0.0,-0.202876360924936,0.0,0,0,0,0,0,-0.23675462133776357,0,0.0,0.0,0.0,0.0,0.0,-9.0,0.0
210,0.0,0.0,0.0,0.0,0.0,-0.20601009333686982,0.0,0,0,0,0,0,-0.23917287205583004,0,0.0,0.0,0.0,0.0,0.0,-9.0,0.0
211,0.0,0.0,0.0,0.0,0.0,-0.20916683047571993,0.0,0,0,0,0,0,-0.2413342361769189,0,0.0,0.0,0.0,0.0,0.0,0.8544092607434872,0.0
212,0.0,0.0,0.0,0.0,0.0,-0.21211095788112644,0.0,0,0,0,0,0,-0.2435586341676139,0,0.0,0.0,0.0,0.0,0.0,-9.0,0.0
213,0.0,0.0,0.0,0.0,0.0,-0.21211095788112644,0.0,0,0,0,0,0,-0.2457454804830319,0,0.0,0.0,0.0,0.0,0.0,-9.0,0.0
214,0.0,0.0,0.0,0.0,0.0,-0.21992692673894787,0.0,0,0,0,0,0,-0.2501212308242068,0,0.0,0.0,0.0,0.0,0.0,-9.0,0.0
215,0.0,0.0,0.0,0.0,0.0,-0.2223443043659099,0.0,0,0,0,0,0,-0.25316451135762696,0,0.0,0.0,0.0,0.0,0.0,-9.0,0.0
216,0.0,0.0,0.0,0.0,0.0,-0.22765789472865272,0.0,0,0,0,0,0,-0.2552924920505194,0,0.0,0.0,0.0,0.0,0.0,-0.3878405727532983,0.0
217,0.0,0.0,0.0,0.0,0.0,-0.23258426149547695,0.0,0,0,0,0,0,-0.25808060617601825,0,0.0,0.0,0.0,0.0,0.0,-9.0,0.0
218,0.0,0.0,0.0,0.0,0.0,-0.23258426149547695,0.0,0,0,0,0,0,-0.26055564622299376,0,0.0,0.0,0.0,0.0,0.0,-9.0,0.0
219,0.0,0.0,0.0,0.0,0.0,-0.23499916592541759,0.0,0,0,0,0,0,-0.26255734201925335,0,0.0,0.0,0.0,0.0,0.0,-9.0,0.0
220,0.0,0.0,0.0,0.0,0.0,-0.2374285084056762,0.0,0,0,0,0,0,-0.2653611811469563,0,0.0,0.0,0.0,0.0,0.0,3.269669487865211,0.0
221,0.0,0.0,0.0,0.0,0.0,-0.2399965360260179,0.0,0,0,0,0,0,-0.267958198827925,0,0.0,0.0,0.0,0.0,0.0,-9.0,0.0
222,0.0,0.0,0.0,0.0,0.0,-0.24250160352792705,0.0,0,0,0,0,0,-0.27022112999865183,0,0.0,0.0,0.0,0.0,0.0,-9.0,0.0
223,0.0,0.0,0.0,0.0,0.0,-0.24507010181956979,0.0,0,0,0,0,0,-0.27206690209026996,0,0.0,0.0,0.0,0.0,0.0,0.491607015162592,0.0
224,0.0,0.0,0.0,0.0,0.0,-0.24507010181956979,0.0,0,0,0,0,0,-0.2735975970971468,0,0.0,0.0,0.0,0.0,0.0,0.491607015162592,0.0
225,0.0,0.0,0.0,0.0,0.0,-0.24789981171513809,0.0,0,0,0,0,0,-0.27553363684365506,0,0.0,0.0,0.0,0.0,0.0,-9.0,0.0
226,0.0,0.0,0.0,0.0,0.0,-0.25485867919035954,0.0,0,0,0,0,0,-0.279766501751629,0,0.0,0.0,0.0,0.0,0.0,-9.0,0.0
227,0.0,0.0,0.0,0.0,0.0,-0.25485867919035954,0.0,0,0,0,0,0,-0.28097671584279843,0,0.0,0.0,0.0,0.0,0.0,-9.0,0.0
228,0.0,0.0,0.0,0.0,0.0,-0.25686454815916093,0.0,0,0,0,0,0,-0.282386938940732,0,0.0,0.0,0.0,0.0,0.0,-9.0,0.0
229,0.0,0.0,0.0,0.0,0.0,-0.25899320658405145,0.0,0,0,0,0,0,-0.2838728857258249,0,0.0,0.0,0.0,0.0,0.0,-9.0,0.0
230,0.0,0.0,0.0,0.0,0.0,-0.26111112947156556,0.0,0,0,0,0,0,-0.28553099618322286,0,0.0,0.0,0.0,0.0,0.0,-9.0,0.0
231,0.0,0.0,0.0,0.0,0.0,-0.2633880831441484,0.0,0,0,0,0,0,-0.28669165908253796,0,0.0,0.0,0.0,0.0,0.0,-9.0,0.0
232,0.0,0.0,0.0,0.0,0.0,-0.2690605092235412,0.0,0,0,0,0,0,-0.28962376662387873,0,0.0,0.0,0.0,0.0,0.0,-9.0,0.0
233,0.0,0.0,0.0,0.0,0.0,-0.2707795903661925,0.0,0,0,0,0,0,-0.29122804130769947,0,0.0,0.0,0.0,0.0,0.0,-9.0,0.0
234,0.0,0.0,0.0,0.0,0.0,-0.2707795903661925,0.0,0,0,0,0,0,-0.29202634954285095,0,0.0,0.0,0.0,0.0,0.0,-9.0,0.0
235,0.0,0.0,0.0,0.0,0.0,-0.2751503681752361,0.0,0,0,0,0,0,-0.29313240272619306,0,0.0,0.0,0.0,0.0,0.0,-9.0,0.0
236,0.0,0.0,0.0,0.0,0.0,-0.27689339373187316,0.0,0,0,0,0,0,-0.29399979893467637,0,0.0,0.0,0.0,0.0,0.0,-9.0,0.0
237,0.0,0.0,0.0,0.0,0.0,-0.27820685906768006,0.0,0,0,0,0,0,-0.29484816124553814,0,0.0,0.0,0.0,0.0,0.0,-9.0,0.0
238,0.0,0.0,0.0,0.0,0.0,-0.28097113180164346,0.0,0,0,0,0,0,-0.2960026630672919,0,0.0,0.0,0.0,0.0,0.0,-9.0,0.0
239,0.0,0.0,0.0,0.0,0.0,-0.28211539656198337,0.0,0,0,0,0,0,-0.29712327881004974,0,0.0,0.0,0.0,0.0,0.0,-9.0,0.0
240,0.0,0.0,0.0,0.0,0.0,-0.2835645593398386,0.0,0,0,0,0,0,-0.2979718867666079,0,0.0,0.0,0.0,0.0,0.0,-9.0,0.0
241,0.0,0.0,0.0,0.0,0.0,-0.28456548165660767,0.0,0,0,0,0,0,-0.2985864108326924,0,0.0,0.0,0.0,0.0,0.0,-9.0,0.0
242,0.0,0.0,0.0,0.0,0.0,-0.2855522132456798,0.0,0,0,0,0,0,-0.2992008789295676,0,0.0,0.0,0.0,0.0,0.0,-9.0,0.0
243,0.0,0.0,0.0,0.0,0.0,-0.2883957481809336,0.0,0,0,0,0,0,-0.2997606963136186,0,0.0,0.0,0.0,0.0,0.0,-9.0,0.0
244,0.0,0.0,0.0,0.0,0.0,-0.2901054660327347,0.0,0,0,0,0,0,-0.29996668605562316,0,0.0,0.0,0.0,0.0,0.0,-9.0,0.0
245,0.0,0.0,0.0,0.0,0.0,-0.291800791430723,0.0,0,0,0,0,0,-0.2999519675909859,0,0.0,0.0,0.0,0.0,0.0,-9.0,0.0
246,0.0,0.0,0.0,0.0,0.0,-0.2920601433969505,0.0,0,0,0,0,0,-0.29982930543521163,0,0.0,0.0,0.0,0.0,0.0,-9.0,0.0
247,0.0,0.0,0.0,0.0,0.0,-0.29265968340136617,0.0,0,0,0,0,0,-0.29948940614549985,0,0.0,0.0,0.0,0.0,0.0,-9.0,0.0
248,0.0,0.0,0.0,0.0,0.0,-0.29268404372551515,0.0,0,0,0,0,0,-0.2990667289651846,0,0.0,0.0,0.0,0.0,0.0,-9.0,0.0
249,0.0,0.0,0.0,0.0,0.0,-0.292978816933978,0.0,0,0,0,0,0,-0.2983631768469756,0,0.0,0.0,0.0,0.0,0.0,-9.0,0.0
250,0.0,0.0,0.0,0.0,0.0,-0.29322479571441473,0.0,0,0,0,0,0,-0.29719572152230855,0,0.0,0.0,0.0,0.0,0.0,-9.0,0.0
251,0.0,0.0,0.0,0.0,0.0,-0.2928131775757157,0.0,0,0,0,0,0,-0.29532539661865126,0,0.0,0.0,0.0,0.0,0.0,-9.0,0.0
252,0.0,0.0,0.0,0.0,0.0,-0.2924501867851541,0.0,0,0,0,0,0,-0.29441444007628625,0,0.0,0.0,0.0,0.0,0.0,-9.0,0.0
253,0.0,0.0,0.0,0.0,0.0,-0.2919081562510657,0.0,0,0,0,0,0,-0.29283539491071636,0,0.0,0.0,0.0,0.0,0.0,-9.0,0.0
254,0.0,0.0,0.0,0.0,0.0,-0.29136502580506196,0.0,0,0,0,0,0,-0.2920151716412023,0,0.0,0.0,0.0,0.0,0.0,-9.0,0.0
255,0.0,0.0,0.0,0.0,0.0,-0.29071274893791,0.0,0,0,0,0,0,-0.290799664903632,0,0.0,0.0,0.0,0.0,0.0,-9.0,0.0
256,0.0,0.0,0.0,0.0,0.0,-0.29071274893791,0.0,0,0,0,0,0,-0.2896352716692181,0,0.0,0.0,0.0,0.0,0.0,-9.0,0.0
257,0.0,0.0,0.0,0.0,0.0,-0.29012232381536407,0.0,0,0,0,0,0,-0.2885132377577562,0,0.0,0.0,0.0,0.0,0.0,-9.0,0.0
258,0.0,0.0,0.0,0.0,0.0,-0.2894477779136402,0.0,0,0,0,0,0,-0.2866909844564407,0,0.0,0.0,0.0,0.0,0.0,-9.0,0.0
259,0.0,0.0,0.0,0.0,0.0,-0.2888076411763931,0.0,0,0,0,0,0,-0.28539978576687314,0,0.0,0.0,0.0,0.0,0.0,-9.0,0.0
260,0.0,0.0,0.0,0.0,0.0,-0.2879995039674066,0.0,0,0,0,0,0,-0.28368184370417626,0,0.0,0.0,0.0,0.0,0.0,-9.0,0.0
261,0.0,0.0,0.0,0.0,0.0,-0.2869636167607954,0.0,0,0,0,0,0,-0.2825208898417974,0,0.0,0.0,0.0,0.0,0.0,-9.0,0.0
262,0.0,0.0,0.0,0.0,0.0,-0.28608030108656024,0.0,0,0,0,0,0,-0.2811941401309823,0,0.0,0.0,0.0,0.0,0.0,-9.0,0.0
263,0.0,0.0,0.0,0.0,0.0,-0.28504310048185566,0.0,0,0,0,0,0,-0.2792680330164161,0,0.0,0.0,0.0,0.0,0.0,-9.0,0.0
264,0.0,0.0,0.0,0.0,0.0,-0.28398719628600766,0.0,0,0,0,0,0,-0.2779013871660324,0,0.0,0.0,0.0,0.0,0.0,-9.0,0.0
265,0.0,0.0,0.0,0.0,0.0,-0.28398719628600766,0.0,0,0,0,0,0,-0.2764933888927904,0,0.0,0.0,0.0,0.0,0.0,-9.0,0.0
266,0.0,0.0,0.0,0.0,0.0,-0.282491963972193,0.0,0,0,0,0,0,-0.2745940647191143,0,0.0,0.0,0.0,0.0,0.0,-9.0,0.0
267,0.0,0.0,0.0,0.0,0.0,-0.28102912608551556,0.0,0,0,0,0,0,-0.27256450007762567,0,0.0,0.0,0.0,0.0,0.0,-7.9878470874468555,0.0
268,0.0,0.0,0.0,0.0,0.0,-0.27968600163537616,0.0,0,0,0,0,0,-0.27107122218598,0,0.0,0.0,0.0,0.0,0.0,-9.0,0.0
269,0.0,0.0,0.0,0.0,0.0,-0.27968600163537616,0.0,0,0,0,0,0,-0.2692690721094193,0,0.0,0.0,0.0,0.0,0.0,-9.0,0.0
270,0.0,0.0,0.0,0.0,0.0,-0.2781836046007369,0.0,0,0,0,0,0,-0.26769406557253284,0,0.0,0.0,0.0,0.0,0.0,-9.0,0.0
271,0.0,0.0,0.0,0.0,0.0,-0.2781836046007369,0.0,0,0,0,0,0,-0.2660551975639659,0,0.0,0.0,0.0,0.0,0.0,-9.0,0.0
272,0.0,0.0,0.0,0.0,0.0,-0.27621839623016076,0.0,0,0,0,0,0,-0.2634755500750849,0,0.0,0.0,0.0,0.0,0.0,9.0,0.0
273,0.0,0.0,0.0,0.0,0.0,-0.27427842108420286,0.0,0,0,0,0,0,-0.26125191366591477,0,0.0,0.0,0.0,0.0,0.0,9.0,0.0
274,0.0,0.0,0.0,0.0,0.0,-0.27240422634222305,0.0,0,0,0,0,0,-0.2588916134560347,0,0.0,0.0,0.0,0.0,0.0,-9.0,0.0
275,0.0,0.0,0.0,0.0,0.0,-0.2703993581507982,0.0,0,0,0,0,0,-0.25620880850680466,0,0.0,0.0,0.0,0.0,0.0,-9.0,0.0
276,0.0,0.0,0.0,0.0,0.0,-0.2685496932972882,0.0,0,0,0,0,0,-0.253652300283084,0,0.0,0.0,0.0,0.0,0.0,-9.0,0.0
277,0.0,0.0,0.0,0.0,0.0,-0.26661019943335784,0.0,0,0,0,0,0,-0.2514094696679296,0,0.0,0.0,0.0,0.0,0.0,-9.0,0.0
278,0.0,0.0,0.0,0.0,0.0,-0.2624811664062232,0.0,0,0,0,0,0,-0.24888089923461623,0,0.0,0.0,0.0,0.0,0.0,9.0,0.0
279,0.0,0.0,0.0,0.0,0.0,-0.26073571463669065,0.0,0,0,0,0,0,-0.24588327186869097,0,0.0,0.0,0.0,0.0,0.0,-9.0,0.0
280,0.0,0.0,0.0,0.0,0.0,-0.25858140882795766,0.0,0,0,0,0,0,-0.24265819306924957,0,0.0,0.0,0.0,0.0,0.0,-5.545899786843638,0.0
281,0.0,0.0,0.0,0.0,0.0,-0.25624643146087767,0.0,0,0,0,0,0,-0.23962896298247172,0,0.0,0.0,0.0,0.0,0.0,9.0,0.0
282,0.0,0.0,0.0,0.0,0.0,-0.25397137901486744,0.0,0,0,0,0,0,-0.236985654531478,0,0.0,0.0,0.0,0.0,0.0,9.0,0.0
283,0.0,0.0,0.0,0.0,0.0,-0.25188952155379685,0.0,0,0,0,0,0,-0.23430856604216602,0,0.0,0.0,0.0,0.0,0.0,-9.0,0.0
284,0.0,0.0,0.0,0.0,0.0,-0.24733260328957574,0.0,0,0,0,0,0,-0.23042485306413749,0,0.0,0.0,0.0,0.0,0.0,-9.0,0.0
285,0.0,0.0,0.0,0.0,0.0,-0.2451308648752235,0.0,0,0,0,0,0,-0.22741654914979964,0,0.0,0.0,0.0,0.0,0.0,-9.0,0.0
286,0.0,0.0,0.0,0.0,0.0,-0.2426659405893572,0.0,0,0,0,0,0,-0.22357079717921852,0,0.0,0.0,0.0,0.0,0.0,-5.333962646407039,0.0
287,0.0,0.0,0.0,0.0,0.0,-0.2403517157834134,0.0,0,0,0,0,0,-0.22064646358497292,0,0.0,0.0,0.0,0.0,0.0,-9.0,0.0
288,0.0,0.0,0.0,0.0,0.0,-0.23793405399528744,0.0,0,0,0,0,0,-0.2177064620049293,0,0.0,0.0,0.0,0.0,0.0,-9.0,0.0
289,0.0,0.0,0.0,0.0,0.0,-0.23109656552454538,0.0,0,0,0,0,0,-0.20824393818056855,0,0.0,0.0,0.0,0.0,0.0,-9.0,0.0
290,0.0,0.0,0.0,0.0,0.0,-0.22648426374770914,0.0,0,0,0,0,0,-0.20263684160671888,0,0.0,0.0,0.0,0.0,0.0,-9.0,0.0
291,0.0,0.0,0.0,0.0,0.0,-0.22133665561975846,0.0,0,0,0,0,0,-0.1983586480386908,0,0.0,0.0,0.0,0.0,0.0,-1.1256089464486907,0.0
292,0.0,0.0,0.0,0.0,0.0,-0.21866206497884466,0.0,0,0,0,0,0,-0.19483360759220203,0,0.0,0.0,0.0,0.0,0.0,-9.0,0.0
293,0.0,0.0,0.0,0.0,0.0,-0.21570765527427938,0.0,0,0,0,0,0,-0.1888754809069996,0,0.0,0.0,0.0,0.0,0.0,-9.0,0.0
294,0.0,0.0,0.0,0.0,0.0,-0.2101372506619521,0.0,0,0,0,0,0,-0.18433744796200355,0,0.0,0.0,0.0,0.0,0.0,-7.535190181051339,0.0
295,0.0,0.0,0.0,0.0,0.0,-0.20711450065936887,0.0,0,0,0,0,0,-0.1798921507575966,0,0.0,0.0,0.0,0.0,0.0,-9.0,0.0
296,0.0,0.0,0.0,0.0,0.0,-0.1990156162094623,0.0,0,0,0,0,0,-0.1732664617443577,0,0.0,0.0,0.0,0.0,0.0,-9.0,0.0
297,0.0,0.0,0.0,0.0,0.0,-0.193678067022236,0.0,0,0,0,0,0,-0.1642832884415569,0,0.0,0.0,0.0,0.0,0.0,-9.0,0.0
298,0.0,0.0,0.0,0.0,0.0,-0.18574914046093216,0.0,0,0,0,0,0,-0.15810824206589316,0,0.0,0.0,0.0,0.0,0.0,-9.0,0.0
299,0.0,0.0,0.0,0.0,0.0,-0.17713593872325273,0.0,0,0,0,0,0,-0.1504354628972375,0,0.0,0.0,0.0,0.0,0.0,-9.0,0.0
300,0.0,0.0,0.0,0.0,0.0,-0.16848728315612505,0.0,0,0,0,0,0,-0.14051849388996634,0,0.0,0.0,0.0,0.0,0.0,-9.0,0.0
301,0.0,0.0,0.0,0.0,0.0,-0.1624828794667481,0.0,0,0,0,0,0,-0.13301491650286612,0,0.0,0.0,0.0,0.0,0.0,-9.0,0.0
302,0.0,0.0,0.0,0.0,0.0,-0.1564844363452158,0.0,0,0,0,0,0,-0.1250431764553639,0,0.0,0.0,0.0,0.0,0.0,-9.0,0.0
303,0.0,0.0,0.0,0.0,0.0,-0.14993622930911865,0.0,0,0,0,0,0,-0.11786027232719001,0,0.0,0.0,0.0,0.0,0.0,9.0,0.0
304,0.0,0.0,0.0,0.0,0.0,-0.14684295206702647,0.0,0,0,0,0,0,-0.11296528613455205,0,0.0,0.0,0.0,0.0,0.0,-9.0,0.0
305,0.0,0.0,0.0,0.0,0.0,-0.14070609884023,0.0,0,0,0,0,0,-0.10479450752454371,0,0.0,0.0,0.0,0.0,0.0,9.0,0.0
306,0.0,0.0,0.0,0.0,0.0,-0.13752284412120908,0.0,0,0,0,0,0,-0.09986619427699975,0,0.0,0.0,0.0,0.0,0.0,9.0,0.0
307,0.0,0.0,0.0,0.0,0.0,-0.1342075420691815,0.0,0,0,0,0,0,-0.09454704994674006,0,0.0,0.0,0.0,0.0,0.0,9.0,0.0
308,0.0,0.0,0.0,0.0,0.0,-0.13056487858769383,0.0,0,0,0,0,0,-0.09109504928334902,0,0.0,0.0,0.0,0.0,0.0,9.0,0.0
309,0.0,0.0,0.0,0.0,0.0,-0.12709138282597632,0.0,0,0,0,0,0,-0.08666203654554223,0,0.0,0.0,0.0,0.0,0.0,9.0,0.0
310,0.0,0.0,0.0,0.0,0.0,-0.12287159379257595,0.0,0,0,0,0,0,-0.08127823888546054,0,0.0,0.0,0.0,0.0,0.0,-1.420723693296506,0.0
311,0.0,0.0,0.0,0.0,0.0,-0.11886060391167419,0.0,0,0,0,0,0,-0.07650784176189634,0,0.0,0.0,0.0,0.0,0.0,9.0,0.0
312,0.0,0.0,0.0,0.0,0.0,-0.11518662892361586,0.0,0,0,0,0,0,-0.07194390535086743,0,0.0,0.0,0.0,0.0,0.0,9.0,0.0
313,0.0,0.0,0.0,0.0,0.0,-0.11062391819626782,0.0,0,0,0,0,0,-0.06808248718626005,0,0.0,0.0,0.0,0.0,0.0,-6.127150587782,0.0
314,0.0,0.0,0.0,0.0,0.0,-0.10599693441478397,0.0,0,0,0,0,0,-0.06237964022021235,0,0.0,0.0,0.0,0.0,0.0,-3.4480914499090307,0.0
315,0.0,0.0,0.0,0.0,0.0,-0.0973367835008423,0.0,0,0,0,0,0,-0.057502964170715314,0,0.0,0.0,0.0,0.0,0.0,9.0,0.0
316,0.0,0.0,0.0,0.0,0.0,-0.0973367835008423,0.0,0,0,0,0,0,-0.054155804755599155,0,0.0,0.0,0.0,0.0,0.0,9.0,0.0
317,0.0,0.0,0.0,0.0,0.0,-0.08860693865227898,0.0,0,0,0,0,0,-0.04621194577024712,0,0.0,0.0,0.0,0.0,0.0,9.0,0.0
318,0.0,0.0,0.0,0.0,0.0,-0.08126724892596116,0.0,0,0,0,0,0,-0.04127169308421235,0,0.0,0.0,0.0,0.0,0.0,9.0,0.0
319,0.0,0.0,0.0,0.0,0.0,-0.08126724892596116,0.0,0,0,0,0,0,-0.036021537758006504,0,0.0,0.0,0.0,0.0,0.0,9.0,0.0
320,0.0,0.0,0.0,0.0,0.0,-0.07695861509276192,0.0,0,0,0,0,0,-0.03194401077217428,0,0.0,0.0,0.0,0.0,0.0,-7.857603210042253,0.0
321,0.0,0.0,0.0,0.0,0.0,-0.06394677783841907,0.0,0,0,0,0,0,-0.02357462121334792,0,0.0,0.0,0.0,0.0,0.0,-9.0,0.0
322,0.0,0.0,0.0,0.0,0.0,-0.056588017187044315,0.0,0,0,0,0,0,-0.014971574378660564,0,0.0,0.0,0.0,0.0,0.0,-9.0,0.0
323,0.0,0.0,0.0,0.0,0.0,-0.05320078523738392,0.0,0,0,0,0,0,-0.00922448270574917,0,0.0,0.0,0.0,0.0,0.0,2.2254676316499125,0.0
324,0.0,0.0,0.0,0.0,0.0,-0.0491608755905375,0.0,0,0,0,0,0,-0.00439812966190352,0,0.0,0.0,0.0,0.0,0.0,-1.7065560940835476,0.0
325,0.0,0.0,0.0,0.0,0.0,-0.0491608755905375,0.0,0,0,0,0,0,-0.0005825540018159833,0,0.0,0.0,0.0,0.0,0.0,-1.7065560940835476,0.0
326,0.0,0.0,0.0,0.0,0.0,-0.04499119743238822,0.0,0,0,0,0,0,0.006879314461226883,0,0.0,0.0,0.0,0.0,0.0,-9.0,0.0
327,0.0,0.0,0.0,0.0,0.0,-0.040590040191760046,0.0,0,0,0,0,0,-1.6378471584460333e-05,0,0.0,0.0,0.0,0.0,0.0,-7.374501376022687,0.0
328,0.0,0.0,0.0,0.0,0.0,-0.03206213856843654,0.0,0,0,0,0,0,-5.4358176264739e-05,0,0.0,0.0,0.0,0.0,0.0,-9.0,0.0
329,0.0,0.0,0.0,0.0,0.0,-0.02871025864059007,0.0,0,0,0,0,0,-7.4049460548866246e-06,0,0.0,0.0,0.0,0.0,0.0,-9.0,0.0
330,0.0,0.0,0.0,0.0,0.0,-0.02564847267524062,0.0,0,0,0,0,0,1.1059710625098803e-05,0,0.0,0.0,0.0,0.0,0.0,-9.0,0.0
331,0.0,0.0,0.0,0.0,0.0,-0.022729571490163636,0.0,0,0,0,0,0,0.002227932169352962,0,0.0,0.0,0.0,0.0,0.0,-9.0,0.0
332,0.0,0.0,0.0,0.0,0.0,-0.019884990686595216,0.0,0,0,0,0,0,0.004201365655485076,0,0.0,0.0,0.0,0.0,0.0,-9.0,0.0
333,0.0,0.0,0.0,0.0,0.0,-0.019884990686595216,0.0,0,0,0,0,0,0.00547260292372829,0,0.0,0.0,0.0,0.0,0.0,-9.0,0.0
334,0.0,0.0,0.0,0.0,0.0,-0.01647993252185831,0.0,0,0,0,0,0,0.007319788640281543,0,0.0,0.0,0.0,0.0,0.0,-3.5537425772580677,0.0
335,0.0,0.0,0.0,0.0,0.0,-0.010657904280879649,0.0,0,0,0,0,0,0.010499571709061233,0,0.0,0.0,0.0,0.0,0.0,-9.0,0.0
336,0.0,0.0,0.0,0.0,0.0,-0.003136679353160865,0.0,0,0,0,0,0,0.014027051066703206,0,0.0,0.0,0.0,0.0,0.0,-9.0,0.0
337,0.0,0.0,0.0,0.0,0.0,-0.003136679353160865,0.0,0,0,0,0,0,0.016867032389503482,0,0.0,0.0,0.0,0.0,0.0,-9.0,0.0
338,0.0,0.0,0.0,0.0,0.0,0.0016152831357452158,0.0,0,0,0,0,0,0.019015591719428335,0,0.0,0.0,0.0,0.0,0.0,-9.0,0.0
339,0.0,0.0,0.0,0.0,0.0,0.004076496162274346,0.0,0,0,0,0,0,0.02166305510989537,0,0.0,0.0,0.0,0.0,0.0,-9.0,0.0
340,0.0,0.0,0.0,0.0,0.0,0.006576176693982028,0.0,0,0,0,0,0,0.02378662087267855,0,0.0,0.0,0.0,0.0,0.0,-5.620693040670068,0.0
341,0.0,0.0,0.0,0.0,0.0,0.012959730983971518,0.0,0,0,0,0,0,0.026657319828811858,0,0.0,0.0,0.0,0.0,0.0,-9.0,0.0
342,0.0,0.0,0.0,0.0,0.0,0.015166398853439844,0.0,0,0,0,0,0,0.028716395589721812,0,0.0,0.0,0.0,0.0,0.0,-9.0,0.0
343,0.0,0.0,0.0,0.0,0.0,0.017320715231792683,0.0,0,0,0,0,0,0.03129371623289897,0,0.0,0.0,0.0,0.0,0.0,-9.0,0.0
344,0.0,0.0,0.0,0.0,0.0,0.022873977435232895,0.0,0,0,0,0,0,0.03601451760496502,0,0.0,0.0,0.0,0.0,0.0,-9.0,0.0
345,0.0,0.0,0.0,0.0,0.0,0.025736930521755852,0.0,0,0,0,0,0,0.039226744714954645,0,0.0,0.0,0.0,0.0,0.0,-9.0,0.0
346,0.0,0.0,0.0,0.0,0.0,0.02744061692618871,0.0,0,0,0,0,0,0.04159154141324116,0,0.0,0.0,0.0,0.0,0.0,-9.0,0.0
347,0.0,0.0,0.0,0.0,0.0,0.03137364127168851,0.0,0,0,0,0,0,0.045046496617138075,0,0.0,0.0,0.0,0.0,0.0,-9.0,0.0
348,0.0,0.0,0.0,0.0,0.0,0.035128666875858805,0.0,0,0,0,0,0,0.047709325362596956,0,0.0,0.0,0.0,0.0,0.0,-9.0,0.0
349,0.0,0.0,0.0,0.0,0.0,0.03707772103154472,0.0,0,0,0,0,0,0.05104990269213241,0,0.0,0.0,0.0,0.0,0.0,-9.0,0.0
350,0.0,0.0,0.0,0.0,0.0,0.04422186909800008,0.0,0,0,0,0,0,0.0564178730426366,0,0.0,0.0,0.0,0.0,0.0,-9.0,0.0
351,0.0,0.0,0.0,0.0,0.0,0.04748273252594437,0.0,0,0,0,0,0,0.060403476575422985,0,0.0,0.0,0.0,0.0,0.0,-9.0,0.0
352,0.0,0.0,0.0,0.0,0.0,0.052614990464308065,0.0,0,0,0,0,0,0.06476924720798401,0,0.0,0.0,0.0,0.0,0.0,-9.0,0.0
353,0.0,0.0,0.0,0.0,0.0,0.05418910944112909,0.0,0,0,0,0,0,0.06650634860892511,0,0.0,0.0,0.0,0.0,0.0,-9.0,0.0
354,0.0,0.0,0.0,0.0,0.0,0.05418910944112909,0.0,0,0,0,0,0,0.068318185748905,0,0.0,0.0,0.0,0.0,0.0,-9.0,0.0
355,0.0,0.0,0.0,0.0,0.0,0.058268188918232156,0.0,0,0,0,0,0,0.07111241523504767,0,0.0,0.0,0.0,0.0,0.0,-9.0,0.0
356,0.0,0.0,0.0,0.0,0.0,0.061795065184877096,0.0,0,0,0,0,0,0.07378947758259283,0,0.0,0.0,0.0,0.0,0.0,-9.0,0.0
357,0.0,0.0,0.0,0.0,0.0,0.06540476679101737,0.0,0,0,0,0,0,0.0764496056444481,0,0.0,0.0,0.0,0.0,0.0,-9.0,0.0
358,0.0,0.0,0.0,0.0,0.0,0.06540476679101737,0.0,0,0,0,0,0,0.07816876224323475,0,0.0,0.0,0.0,0.0,0.0,-9.0,0.0
359,0.0,0.0,0.0,0.0,0.0,0.06708413506271871,0.0,0,0,0,0,0,0.08037035571655328,0,0.0,0.0,0.0,0.0,0.0,-9.0,0.0
360,0.0,0.0,0.0,0.0,0.0,0.06910727080513634,0.0,0,0,0,0,0,0.08163370292918756,0,0.0,0.0,0.0,0.0,0.0,-7.1205251833768255,0.0
361,0.0,0.0,0.0,0.0,0.0,0.06910727080513634,0.0,0,0,0,0,0,0.08318944342340474,0,0.0,0.0,0.0,0.0,0.0,-7.1205251833768255,0.0
362,0.0,0.0,0.0,0.0,0.0,0.07106267397854005,0.0,0,0,0,0,0,0.08484585218305551,0,0.0,0.0,0.0,0.0,0.0,-9.0,0.0
363,0.0,0.0,0.0,0.0,0.0,0.07303253098655205,0.0,0,0,0,0,0,0.0865087689687356,0,0.0,0.0,0.0,0.0,0.0,-9.0,0.0
364,0.0,0.0,0.0,0.0,0.0,0.07514981961484057,0.0,0,0,0,0,0,0.08834342291272906,0,0.0,0.0,0.0,0.0,0.0,-7.625434213007472,0.0
365,0.0,0.0,0.0,0.0,0.0,0.07727831234796678,0.0,0,0,0,0,0,0.08996786790966196,0,0.0,0.0,0.0,0.0,0.0,-9.0,0.0
366,0.0,0.0,0.0,0.0,0.0,0.07727831234796678,0.0,0,0,0,0,0,0.09154508604837612,0,0.0,0.0,0.0,0.0,0.0,-9.0,0.0
367,0.0,0.0,0.0,0.0,0.0,0.07952566366809499,0.0,0,0,0,0,0,0.09338338824752423,0,0.0,0.0,0.0,0.0,0.0,9.0,0.0
368,0.0,0.0,0.0,0.0,0.0,0.07952566366809499,0.0,0,0,0,0,0,0.09475270894901584,0,0.0,0.0,0.0,0.0,0.0,9.0,0.0
369,0.0,0.0,0.0,0.0,0.0,0.08353397895021075,0.0,0,0,0,0,0,0.09626669286736848,0,0.0,0.0,0.0,0.0,0.0,-9.0,0.0
370,0.0,0.0,0.0,0.0,0.0,0.08562011646320489,0.0,0,0,0,0,0,0.098492764131958,0,0.0,0.0,0.0,0.0,0.0,-9.0,0.0
371,0.0,0.0,0.0,0.0,0.0,0.08909125299095777,0.0,0,0,0,0,0,0.1004881850562181,0,0.0,0.0,0.0,0.0,0.0,-9.0,0.0
372,0.0,0.0,0.0,0.0,0.0,0.09081572591106912,0.0,0,0,0,0,0,0.10254881098025373,0,0.0,0.0,0.0,0.0,0.0,-9.0,0.0
373,0.0,0.0,0.0,0.0,0.0,0.0927868915387755,0.0,0,0,0,0,0,0.10471312977282418,0,0.0,0.0,0.0,0.0,0.0,9.0,0.0
374,0.0,0.0,0.0,0.0,0.0,0.09437304180977613,0.0,0,0,0,0,0,0.10667999943582011,0,0.0,0.0,0.0,0.0,0.0,-9.0,0.0
375,0.0,0.0,0.0,0.0,0.0,0.09626576396799713,0.0,0,0,0,0,0,0.10837311722288129,0,0.0,0.0,0.0,0.0,0.0,-9.0,0.0
376,0.0,0.0,0.0,0.0,0.0,0.09810073773741745,0.0,0,0,0,0,0,0.11014123837693729,0,0.0,0.0,0.0,0.0,0.0,-9.0,0.0
377,0.0,0.0,0.0,0.0,0.0,0.10323173123676366,0.0,0,0,0,0,0,0.11392394511790994,0,0.0,0.0,0.0,0.0,0.0,-9.0,0.0
378,0.0,0.0,0.0,0.0,0.0,0.10645441931970989,0.0,0,0,0,0,0,0.11781270321890969,0,0.0,0.0,0.0,0.0,0.0,-9.0,0.0
379,0.0,0.0,0.0,0.0,0.0,0.10960809097156066,0.0,0,0,0,0,0,0.11936024188057243,0,0.0,0.0,0.0,0.0,0.0,-9.0,0.0
380,0.0,0.0,0.0,0.0,0.0,0.11140056416119126,0.0,0,0,0,0,0,0.12103296284198536,0,0.0,0.0,0.0,0.0,0.0,-9.0,0.0
381,0.0,0.0,0.0,0.0,0.0,0.11289883700121539,0.0,0,0,0,0,0,0.12286292181717837,0,0.0,0.0,0.0,0.0,0.0,-9.0,0.0
382,0.0,0.0,0.0,0.0,0.0,0.11728221792850668,0.0,0,0,0,0,0,0.1271319219772766,0,0.0,0.0,0.0,0.0,0.0,-9.0,0.0
383,0.0,0.0,0.0,0.0,0.0,0.12027471539069712,0.0,0,0,0,0,0,0.12948628312957206,0,0.0,0.0,0.0,0.0,0.0,-9.0,0.0
384,0.0,0.0,0.0,0.0,0.0,0.12183109245638768,0.0,0,0,0,0,0,0.13187704426078267,0,0.0,0.0,0.0,0.0,0.0,-9.0,0.0
385,0.0,0.0,0.0,0.0,0.0,0.12509465196971004,0.0,0,0,0,0,0,0.1344855720784002,0,0.0,0.0,0.0,0.0,0.0,-9.0,0.0
386,0.0,0.0,0.0,0.0,0.0,0.1267038413587107,0.0,0,0,0,0,0,0.13676151311239193,0,0.0,0.0,0.0,0.0,0.0,-9.0,0.0
387,0.0,0.0,0.0,0.0,0.0,0.12972227042974183,0.0,0,0,0,0,0,0.13859467098585557,0,0.0,0.0,0.0,0.0,0.0,-9.0,0.0
388,0.0,0.0,0.0,0.0,0.0,0.1311730358013543,0.0,0,0,0,0,0,0.14032759876214576,0,0.0,0.0,0.0,0.0,0.0,-9.0,0.0
389,0.0,0.0,0.0,0.0,0.0,0.13266505378845572,0.0,0,0,0,0,0,0.1420017132601076,0,0.0,0.0,0.0,0.0,0.0,-9.0,0.0
390,0.0,0.0,0.0,0.0,0.0,0.13430448192500588,0.0,0,0,0,0,0,0.1434867356415027,0,0.0,0.0,0.0,0.0,0.0,-8.301252048746647,0.0
391,0.0,0.0,0.0,0.0,0.0,0.135825095834881,0.0,0,0,0,0,0,0.14493512217412458,0,0.0,0.0,0.0,0.0,0.0,-9.0,0.0
392,0.0,0.0,0.0,0.0,0.0,0.13724564949772589,0.0,0,0,0,0,0,0.14660387911631148,0,0.0,0.0,0.0,0.0,0.0,-9.0,0.0
393,0.0,0.0,0.0,0.0,0.0,0.139004872449922,0.0,0,0,0,0,0,0.1480128476115794,0,0.0,0.0,0.0,0.0,0.0,9.0,0.0
394,0.0,0.0,0.0,0.0,0.0,0.14065918278061584,0.0,0,0,0,0,0,0.14933885119199605,0,0.0,0.0,0.0,0.0,0.0,9.0,0.0
395,0.0,0.0,0.0,0.0,0.0,0.14202706177381774,0.0,0,0,0,0,0,0.1508498465411505,0,0.0,0.0,0.0,0.0,0.0,-9.0,0.0
396,0.0,0.0,0.0,0.0,0.0,0.14202706177381774,0.0,0,0,0,0,0,0.15231558115943655,0,0.0,0.0,0.0,0.0,0.0,-9.0,0.0
397,0.0,0.0,0.0,0.0,0.0,0.14356027392584902,0.0,0,0,0,0,0,0.15381573412045774,0,0.0,0.0,0.0,0.0,0.0,-9.0,0.0
398,0.0,0.0,0.0,0.0,0.0,0.14531953590113744,0.0,0,0,0,0,0,0.15532938842246138,0,0.0,0.0,0.0,0.0,0.0,-8.474815063407739,0.0
399,0.0,0.0,0.0,0.0,0.0,0.1471130263701026,0.0,0,0,0,0,0,0.1573718718963431,0,0.0,0.0,0.0,0.0,0.0,-9.0,0.0
400,0.0,0.0,0.0,0.0,0.0,0.14893010069880042,0.0,0,0,0,0,0,0.1595502002486761,0,0.0,0.0,0.0,0.0,0.0,-9.0,0.0
401,0.0,0.0,0.0,0.0,0.0,0.15359949552882046,0.0,0,0,0,0,0,0.1629276364536701,0,0.0,0.0,0.0,0.0,0.0,-9.0,0.0
402,0.0,0.0,0.0,0.0,0.0,0.15482399877704456,0.0,0,0,0,0,0,0.16465929373423507,0,0.0,0.0,0.0,0.0,0.0,-9.0,0.0
403,0.0,0.0,0.0,0.0,0.0,0.15634403897275106,0.0,0,0,0,0,0,0.1663005888504736,0,0.0,0.0,0.0,0.0,0.0,-9.0,0.0
404,0.0,0.0,0.0,0.0,0.0,0.1594344171684252,0.0,0,0,0,0,0,0.16840623125692997,0,0.0,0.0,0.0,0.0,0.0,-9.0,0.0
405,0.0,0.0,0.0,0.0,0.0,0.1609685164144734,0.0,0,0,0,0,0,0.1705198388738639,0,0.0,0.0,0.0,0.0,0.0,-9.0,0.0
406,0.0,0.0,0.0,0.0,0.0,0.16394198912871705,0.0,0,0,0,0,0,0.1728944964306939,0,0.0,0.0,0.0,0.0,0.0,-9.0,0.0
407,0.0,0.0,0.0,0.0,0.0,0.16546771907685454,0.0,0,0,0,0,0,0.17433859814486224,0,0.0,0.0,0.0,0.0,0.0,-9.0,0.0
408,0.0,0.0,0.0,0.0,0.0,0.16719036706550305,0.0,0,0,0,0,0,0.17600591070777818,0,0.0,0.0,0.0,0.0,0.0,-9.0,0.0
409,0.0,0.0,0.0,0.0,0.0,0.16872025129501722,0.0,0,0,0,0,0,0.1773997099398724,0,0.0,0.0,0.0,0.0,0.0,-9.0,0.0
410,0.0,0.0,0.0,0.0,0.0,0.1703627381247701,0.0,0,0,0,0,0,0.1788510162608081,0,0.0,0.0,0.0,0.0,0.0,-9.0,0.0
411,0.0,0.0,0.0,0.0,0.0,0.17338279565799297,0.0,0,0,0,0,0,0.1812859424886657,0,0.0,0.0,0.0,0.0,0.0,-9.0,0.0
412,0.0,0.0,0.0,0.0,0.0,0.17487992007232922,0.0,0,0,0,0,0,0.18272919129586915,0,0.0,0.0,0.0,0.0,0.0,-9.0,0.0
413,0.0,0.0,0.0,0.0,0.0,0.17631817128034388,0.0,0,0,0,0,0,0.18436017864682672,0,0.0,0.0,0.0,0.0,0.0,-9.0,0.0
414,0.0,0.0,0.0,0.0,0.0,0.1778743996757326,0.0,0,0,0,0,0,0.1863591651526544,0,0.0,0.0,0.0,0.0,0.0,-9.0,0.0
415,0.0,0.0,0.0,0.0,0.0,0.1807340601322105,0.0,0,0,0,0,0,0.18778741011030678,0,0.0,0.0,0.0,0.0,0.0,-9.0,0.0
416,0.0,0.0,0.0,0.0,0.0,0.1822146885508964,0.0,0,0,0,0,0,0.18942479350368543,0,0.0,0.0,0.0,0.0,0.0,-9.0,0.0
417,0.0,0.0,0.0,0.0,0.0,0.18353769045891344,0.0,0,0,0,0,0,0.1912596043890273,0,0.0,0.0,0.0,0.0,0.0,-9.0,0.0
418,0.0,0.0,0.0,0.0,0.0,0.18714319620599973,0.0,0,0,0,0,0,0.19474365003742325,0,0.0,0.0,0.0,0.0,0.0,-9.0,0.0
419,0.0,0.0,0.0,0.0,0.0,0.18832791610406208,0.0,0,0,0,0,0,0.19628644266512663,0,0.0,0.0,0.0,0.0,0.0,-9.0,0.0
420,0.0,0.0,0.0,0.0,0.0,0.19089771702119052,0.0,0,0,0,0,0,0.19822206631012662,0,0.0,0.0,0.0,0.0,0.0,-9.0,0.0
421,0.0,0.0,0.0,0.0,0.0,0.19461238554631688,0.0,0,0,0,0,0,0.20187013495300837,0,0.0,0.0,0.0,0.0,0.0,-9.0,0.0
422,0.0,0.0,0.0,0.0,0.0,0.1959799378520657,0.0,0,0,0,0,0,0.20343171239767693,0,0.0,0.0,0.0,0.0,0.0,-9.0,0.0
423,0.0,0.0,0.0,0.0,0.0,0.19732670800230423,0.0,0,0,0,0,0,0.2047463738220193,0,0.0,0.0,0.0,0.0,0.0,-9.0,0.0
424,0.0,0.0,0.0,0.0,0.0,0.20003496505142326,0.0,0,0,0,0,0,0.20763698244662585,0,0.0,0.0,0.0,0.0,0.0,-9.0,0.0
425,0.0,0.0,0.0,0.0,0.0,0.2011275676111861,0.0,0,0,0,0,0,0.20883508913323293,0,0.0,0.0,0.0,0.0,0.0,-9.0,0.0
426,0.0,0.0,0.0,0.0,0.0,0.20384747376180368,0.0,0,0,0,0,0,0.21098273254766867,0,0.0,0.0,0.0,0.0,0.0,-9.0,0.0
427,0.0,0.0,0.0,0.0,0.0,0.20629939542557985,0.0,0,0,0,0,0,0.21326606027516384,0,0.0,0.0,0.0,0.0,0.0,-9.0,0.0
428,0.0,0.0,0.0,0.0,0.0,0.20629939542557985,0.0,0,0,0,0,0,0.21451900512445227,0,0.0,0.0,0.0,0.0,0.0,-9.0,0.0
429,0.0,0.0,0.0,0.0,0.0,0.20921486678844836,0.0,0,0,0,0,0,0.2162732020198782,0,0.0,0.0,0.0,0.0,0.0,-9.0,0.0
430,0.0,0.0,0.0,0.0,0.0,0.21064527974940184,0.0,0,0,0,0,0,0.2176366564856841,0,0.0,0.0,0.0,0.0,0.0,-9.0,0.0
431,0.0,0.0,0.0,0.0,0.0,0.2120974542276759,0.0,0,0,0,0,0,0.21889837222069986,0,0.0,0.0,0.0,0.0,0.0,-9.0,0.0
432,0.0,0.0,0.0,0.0,0.0,0.21354032941946066,0.0,0,0,0,0,0,0.22006892350964777,0,0.0,0.0,0.0,0.0,0.0,-9.0,0.0
433,0.0,0.0,0.0,0.0,0.0,0.21499322290279466,0.0,0,0,0,0,0,0.22133863166967258,0,0.0,0.0,0.0,0.0,0.0,-9.0,0.0
434,0.0,0.0,0.0,0.0,0.0,0.21499322290279466,0.0,0,0,0,0,0,0.22243093106327336,0,0.0,0.0,0.0,0.0,0.0,-9.0,0.0
435,0.0,0.0,0.0,0.0,0.0,0.2178969775394055,0.0,0,0,0,0,0,0.22359097579576434,0,0.0,0.0,0.0,0.0,0.0,-9.0,0.0
436,0.0,0.0,0.0,0.0,0.0,0.21923724206858974,0.0,0,0,0,0,0,0.2255334325956949,0,0.0,0.0,0.0,0.0,0.0,-9.0,0.0
437,0.0,0.0,0.0,0.0,0.0,0.2216384773451363,0.0,0,0,0,0,0,0.22704778978844262,0,0.0,0.0,0.0,0.0,0.0,-9.0,0.0
438,0.0,0.0,0.0,0.0,0.0,0.22289128165067762,0.0,0,0,0,0,0,0.22866784789924885,0,0.0,0.0,0.0,0.0,0.0,-9.0,0.0
439,0.0,0.0,0.0,0.0,0.0,0.22420580793972889,0.0,0,0,0,0,0,0.23026459255501158,0,0.0,0.0,0.0,0.0,0.0,-9.0,0.0
440,0.0,0.0,0.0,0.0,0.0,0.22650980414757882,0.0,0,0,0,0,0,0.23244151356904896,0,0.0,0.0,0.0,0.0,0.0,-9.0,0.0
441,0.0,0.0,0.0,0.0,0.0,0.22759231511737,0.0,0,0,0,0,0,0.2335935123752114,0,0.0,0.0,0.0,0.0,0.0,-9.0,0.0
442,0.0,0.0,0.0,0.0,0.0,0.23000120067345176,0.0,0,0,0,0,0,0.2357319156329175,0,0.0,0.0,0.0,0.0,0.0,-9.0,0.0
443,0.0,0.0,0.0,0.0,0.0,0.23127111329155348,0.0,0,0,0,0,0,0.2372793284862102,0,0.0,0.0,0.0,0.0,0.0,-9.0,0.0
444,0.0,0.0,0.0,0.0,0.0,0.23127111329155348,0.0,0,0,0,0,0,0.23839176179940072,0,0.0,0.0,0.0,0.0,0.0,-9.0,0.0
445,0.0,0.0,0.0,0.0,0.0,0.23253524438497486,0.0,0,0,0,0,0,0.23965462593597114,0,0.0,0.0,0.0,0.0,0.0,-9.0,0.0
446,0.0,0.0,0.0,0.0,0.0,0.2362236703991023,0.0,0,0,0,0,0,0.2421355788819753,0,0.0,0.0,0.0,0.0,0.0,-9.0,0.0
447,0.0,0.0,0.0,0.0,0.0,0.24019419808020093,0.0,0,0,0,0,0,0.24558666453961342,0,0.0,0.0,0.0,0.0,0.0,-9.0,0.0
448,0.0,0.0,0.0,0.0,0.0,0.2412709448679644,0.0,0,0,0,0,0,0.24722971839411412,0,0.0,0.0,0.0,0.0,0.0,-9.0,0.0
449,0.0,0.0,0.0,0.0,0.0,0.2425849263707196,0.0,0,0,0,0,0,0.24819433487524054,0,0.0,0.0,0.0,0.0,0.0,-8.809243980192482,0.0
450,0.0,0.0,0.0,0.0,0.0,0.24403233379625977,0.0,0,0,0,0,0,0.24935800478241552,0,0.0,0.0,0.0,0.0,0.0,9.0,0.0
451,0.0,0.0,0.0,0.0,0.0,0.2450413350620506,0.0,0,0,0,0,0,0.2503937614417806,0,0.0,0.0,0.0,0.0,0.0,-9.0,0.0
452,0.0,0.0,0.0,0.0,0.0,0.24608279760383578,0.0,0,0,0,0,0,0.25130974768179004,0,0.0,0.0,0.0,0.0,0.0,-9.0,0.0
453,0.0,0.0,0.0,0.0,0.0,0.2476343801635421,0.0,0,0,0,0,0,0.2523926070973579,0,0.0,0.0,0.0,0.0,0.0,9.0,0.0
454,0.0,0.0,0.0,0.0,0.0,0.24864792312045836,0.0,0,0,0,0,0,0.25327878245488633,0,0.0,0.0,0.0,0.0,0.0,-9.0,0.0
455,0.0,0.0,0.0,0.0,0.0,0.24968142764670542,0.0,0,0,0,0,0,0.25430295144513254,0,0.0,0.0,0.0,0.0,0.0,-9.0,0.0
456,0.0,0.0,0.0,0.0,0.0,0.2516398966405955,0.0,0,0,0,0,0,0.2555090093435055,0,0.0,0.0,0.0,0.0,0.0,-9.0,0.0
457,0.0,0.0,0.0,0.0,0.0,0.2516398966405955,0.0,0,0,0,0,0,0.2562900789160961,0,0.0,0.0,0.0,0.0,0.0,-9.0,0.0
458,0.0,0.0,0.0,0.0,0.0,0.2527233243608604,0.0,0,0,0,0,0,0.25736743625246394,0,0.0,0.0,0.0,0.0,0.0,-9.0,0.0
459,0.0,0.0,0.0,0.0,0.0,0.2536979096131011,0.0,0,0,0,0,0,0.2582742379237875,0,0.0,0.0,0.0,0.0,0.0,-9.0,0.0
460,0.0,0.0,0.0,0.0,0.0,0.2556620110291945,0.0,0,0,0,0,0,0.25921688431952306,0,0.0,0.0,0.0,0.0,0.0,-9.0,0.0
461,0.0,0.0,0.0,0.0,0.0,0.257606052685901,0.0,0,0,0,0,0,0.26044411017553865,0,0.0,0.0,0.0,0.0,0.0,-9.0,0.0
462,0.0,0.0,0.0,0.0,0.0,0.257606052685901,0.0,0,0,0,0,0,0.2614471943999124,0,0.0,0.0,0.0,0.0,0.0,-9.0,0.0
463,0.0,0.0,0.0,0.0,0.0,0.259552119691862,0.0,0,0,0,0,0,0.26288920657198045,0,0.0,0.0,0.0,0.0,0.0,-9.0,0.0
464,0.0,0.0,0.0,0.0,0.0,0.26038287044057284,0.0,0,0,0,0,0,0.26372151221909634,0,0.0,0.0,0.0,0.0,0.0,-9.0,0.0
465,0.0,0.0,0.0,0.0,0.0,0.26119657535918517,0.0,0,0,0,0,0,0.26457136721227337,0,0.0,0.0,0.0,0.0,0.0,-9.0,0.0
466,0.0,0.0,0.0,0.0,0.0,0.262029706243891,0.0,0,0,0,0,0,0.265409345276601,0,0.0,0.0,0.0,0.0,0.0,-9.0,0.0
467,0.0,0.0,0.0,0.0,0.0,0.264779396207941,0.0,0,0,0,0,0,0.2667957864114835,0,0.0,0.0,0.0,0.0,0.0,-9.0,0.0
468,0.0,0.0,0.0,0.0,0.0,0.2655243079806624,0.0,0,0,0,0,0,0.26764520886340953,0,0.0,0.0,0.0,0.0,0.0,-9.0,0.0
469,0.0,0.0,0.0,0.0,0.0,0.2662474870820404,0.0,0,0,0,0,0,0.2685634731129006,0,0.0,0.0,0.0,0.0,0.0,-9.0,0.0
470,0.0,0.0,0.0,0.0,0.0,0.26777205394084014,0.0,0,0,0,0,0,0.2702428239852116,0,0.0,0.0,0.0,0.0,0.0,-9.0,0.0
471,0.0,0.0,0.0,0.0,0.0,0.26862503209834365,0.0,0,0,0,0,0,0.2711394042975249,0,0.0,0.0,0.0,0.0,0.0,-9.0,0.0
472,0.0,0.0,0.0,0.0,0.0,0.26974173535307866,0.0,0,0,0,0,0,0.27203667403368836,0,0.0,0.0,0.0,0.0,0.0,9.0,0.0
473,0.0,0.0,0.0,0.0,0.0,0.2703885749297159,0.0,0,0,0,0,0,0.27273567704547846,0,0.0,0.0,0.0,0.0,0.0,-9.0,0.0
474,0.0,0.0,0.0,0.0,0.0,0.2717570326229115,0.0,0,0,0,0,0,0.27374526783737657,0,0.0,0.0,0.0,0.0,0.0,-9.0,0.0
475,0.0,0.0,0.0,0.0,0.0,0.2725722813488103,0.0,0,0,0,0,0,0.2745036362383288,0,0.0,0.0,0.0,0.0,0.0,-9.0,0.0
476,0.0,0.0,0.0,0.0,0.0,0.2735191459861781,0.0,0,0,0,0,0,0.275410234902399,0,0.0,0.0,0.0,0.0,0.0,-9.0,0.0
477,0.0,0.0,0.0,0.0,0.0,0.2742729812817437,0.0,0,0,0,0,0,0.2760703489489424,0,0.0,0.0,0.0,0.0,0.0,-9.0,0.0
478,0.0,0.0,0.0,0.0,0.0,0.2749845979195831,0.0,0,0,0,0,0,0.2768163454932145,0,0.0,0.0,0.0,0.0,0.0,-9.0,0.0
479,0.0,0.0,0.0,0.0,0.0,0.2749845979195831,0.0,0,0,0,0,0,0.27756307182929174,0,0.0,0.0,0.0,0.0,0.0,-9.0,0.0
480,0.0,0.0,0.0,0.0,0.0,0.2760761049675775,0.0,0,0,0,0,0,0.2782126156586089,0,0.0,0.0,0.0,0.0,0.0,9.0,0.0
481,0.0,0.0,0.0,0.0,0.0,0.27682452193569596,0.0,0,0,0,0,0,0.27938175184135217,0,0.0,0.0,0.0,0.0,0.0,-9.0,0.0
482,0.0,0.0,0.0,0.0,0.0,0.27819988197194867,0.0,0,0,0,0,0,0.2807446378226547,0,0.0,0.0,0.0,0.0,0.0,-9.0,0.0
483,0.0,0.0,0.0,0.0,0.0,0.27962941051995216,0.0,0,0,0,0,0,0.281963311218482,0,0.0,0.0,0.0,0.0,0.0,-9.0,0.0
484,0.0,0.0,0.0,0.0,0.0,0.2811494420696512,0.0,0,0,0,0,0,0.2828674368871166,0,0.0,0.0,0.0,0.0,0.0,-9.0,0.0
485,0.0,0.0,0.0,0.0,0.0,0.28184821927964077,0.0,0,0,0,0,0,0.28355571433667637,0,0.0,0.0,0.0,0.0,0.0,-9.0,0.0
486,0.0,0.0,0.0,0.0,0.0,0.28329274880460265,0.0,0,0,0,0,0,0.28450349616338055,0,0.0,0.0,0.0,0.0,0.0,-9.0,0.0
487,0.0,0.0,0.0,0.0,0.0,0.2839362052589287,0.0,0,0,0,0,0,0.2849802622326655,0,0.0,0.0,0.0,0.0,0.0,-9.0,0.0
488,0.0,0.0,0.0,0.0,0.0,0.28457362987980517,0.0,0,0,0,0,0,0.28566955535703314,0,0.0,0.0,0.0,0.0,0.0,-9.0,0.0
489,0.0,0.0,0.0,0.0,0.0,0.2856553126229775,0.0,0,0,0,0,0,0.28630030750536006,0,0.0,0.0,0.0,0.0,0.0,9.0,0.0
490,0.0,0.0,0.0,0.0,0.0,0.2861792182942784,0.0,0,0,0,0,0,0.2869093565833478,0,0.0,0.0,0.0,0.0,0.0,-9.0,0.0
491,0.0,0.0,0.0,0.0,0.0,0.28691174054252144,0.0,0,0,0,0,0,0.28756184152099085,0,0.0,0.0,0.0,0.0,0.0,-9.0,0.0
492,0.0,0.0,0.0,0.0,0.0,0.2884744210176855,0.0,0,0,0,0,0,0.28818776913505667,0,0.0,0.0,0.0,0.0,0.0,-9.0,0.0
493,0.0,0.0,0.0,0.0,0.0,0.28916745900846763,0.0,0,0,0,0,0,0.28886419076422765,0,0.0,0.0,0.0,0.0,0.0,-9.0,0.0
494,0.0,0.0,0.0,0.0,0.0,0.28965190401689433,0.0,0,0,0,0,0,0.2892909705528957,0,0.0,0.0,0.0,0.0,0.0,-9.0,0.0
495,0.0,0.0,0.0,0.0,0.0,0.29076424366969,0.0,0,0,0,0,0,0.28977492356457485,0,0.0,0.0,0.0,0.0,0.0,-9.0,0.0
496,0.0,0.0,0.0,0.0,0.0,0.2911926222277259,0.0,0,0,0,0,0,0.2903550713391987,0,0.0,0.0,0.0,0.0,0.0,-9.0,0.0
497,0.0,0.0,0.0,0.0,0.0,0.29208000179213656,0.0,0,0,0,0,0,0.2914653344213914,0,0.0,0.0,0.0,0.0,0.0,-9.0,0.0
498,0.0,0.0,0.0,0.0,0.0,0.2927338236416057,0.0,0,0,0,0,0,0.29200488857357926,0,0.0,0.0,0.0,0.0,0.0,9.0,0.0
499,0.0,0.0,0.0,0.0,0.0,0.29353060182981405,0.0,0,0,0,0,0,0.2928946939613477,0,0.0,0.0,0.0,0.0,0.0,-9.0,0.0
500,0.0,0.0,0.0,0.0,0.0,0.29454232408354386,0.0,0,0,0,0,0,0.29334321898195975,0,0.0,0.0,0.0,0.0,0.0,-9.0,0.0
501,0.0,0.0,0.0,0.0,0.0,0.29454232408354386,0.0,0,0,0,0,0,0.2937502317491294,0,0.0,0.0,0.0,0.0,0.0,-9.0,0.0
502,0.0,0.0,0.0,0.0,0.0,0.29558859946498117,0.0,0,0,0,0,0,0.29428706157897533,0,0.0,0.0,0.0,0.0,0.0,-9.0,0.0
503,0.0,0.0,0.0,0.0,0.0,0.2965353340012671,0.0,0,0,0,0,0,0.29486681589254343,0,0.0,0.0,0.0,0.0,0.0,-9.0,0.0
504,0.0,0.0,0.0,0.0,0.0,0.29683001282610544,0.0,0,0,0,0,0,0.2952375189372048,0,0.0,0.0,0.0,0.0,0.0,-9.0,0.0
505,0.0,0.0,0.0,0.0,0.0,0.29741746171098704,0.0,0,0,0,0,0,0.29553992676645163,0,0.0,0.0,0.0,0.0,0.0,-9.0,0.0
506,0.0,0.0,0.0,0.0,0.0,0.2977931515228702,0.0,0,0,0,0,0,0.2959201462870706,0,0.0,0.0,0.0,0.0,0.0,-9.0,0.0
507,0.0,0.0,0.0,0.0,0.0,0.2983715670769058,0.0,0,0,0,0,0,0.29622521725100387,0,0.0,0.0,0.0,0.0,0.0,9.0,0.0
508,0.0,0.0,0.0,0.0,0.0,0.29890095334711564,0.0,0,0,0,0,0,0.2968458724785498,0,0.0,0.0,0.0,0.0,0.0,-9.0,0.0
509,0.0,0.0,0.0,0.0,0.0,0.2992216323143202,0.0,0,0,0,0,0,0.29708243884764146,0,0.0,0.0,0.0,0.0,0.0,-9.0,0.0
510,0.0,0.0,0.0,0.0,0.0,0.2992216323143202,0.0,0,0,0,0,0,0.29731509811299434,0,0.0,0.0,0.0,0.0,0.0,-9.0,0.0
511,0.0,0.0,0.0,0.0,0.0,0.299522946445399,0.0,0,0,0,0,0,0.29758238039546775,0,0.0,0.0,0.0,0.0,0.0,-9.0,0.0
512,0.0,0.0,0.0,0.0,0.0,0.30045230620067187,0.0,0,0,0,0,0,0.2980620112758923,0,0.0,0.0,0.0,0.0,0.0,-9.0,0.0
513,0.0,0.0,0.0,0.0,0.0,0.30045230620067187,0.0,0,0,0,0,0,0.2982453929539959,0,0.0,0.0,0.0,0.0,0.0,-9.0,0.0
514,0.0,0.0,0.0,0.0,0.0,0.3009781137568268,0.0,0,0,0,0,0,0.2984646024386972,0,0.0,0.0,0.0,0.0,0.0,-9.0,0.0
515,0.0,0.0,0.0,0.0,0.0,0.30130509859958554,0.0,0,0,0,0,0,0.2986235847152845,0,0.0,0.0,0.0,0.0,0.0,-9.0,0.0
516,0.0,0.0,0.0,0.0,0.0,0.30130509859958554,0.0,0,0,0,0,0,0.2987903955958206,0,0.0,0.0,0.0,0.0,0.0,-9.0,0.0
517,0.0,0.0,0.0,0.0,0.0,0.3014479809804813,0.0,0,0,0,0,0,0.29894874998248266,0,0.0,0.0,0.0,0.0,0.0,-9.0,0.0
518,0.0,0.0,0.0,0.0,0.0,0.3018733137780849,0.0,0,0,0,0,0,0.2991306943800581,0,0.0,0.0,0.0,0.0,0.0,-9.0,0.0
519,0.0,0.0,0.0,0.0,0.0,0.3018733137780849,0.0,0,0,0,0,0,0.29928432054958076,0,0.0,0.0,0.0,0.0,0.0,-9.0,0.0
520,0.0,0.0,0.0,0.0,0.0,0.30222237767656335,0.0,0,0,0,0,0,0.2994008004512855,0,0.0,0.0,0.0,0.0,0.0,-0.39106189417897763,0.0
521,0.0,0.0,0.0,0.0,0.0,0.3025466173539426,0.0,0,0,0,0,0,0.2995603002664875,0,0.0,0.0,0.0,0.0,0.0,-9.0,0.0
522,0.0,0.0,0.0,0.0,0.0,0.30280037913503044,0.0,0,0,0,0,0,0.29964874143071685,0,0.0,0.0,0.0,0.0,0.0,-9.0,0.0
523,0.0,0.0,0.0,0.0,0.0,0.30295979832471964,0.0,0,0,0,0,0,0.2997367249234499,0,0.0,0.0,0.0,0.0,0.0,-9.0,0.0
524,0.0,0.0,0.0,0.0,0.0,0.303139190654119,0.0,0,0,0,0,0,0.2998249026895757,0,0.0,0.0,0.0,0.0,0.0,-9.0,0.0
525,0.0,0.0,0.0,0.0,0.0,0.30329308138370603,0.0,0,0,0,0,0,0.299879386325542,0,0.0,0.0,0.0,0.0,0.0,-9.0,0.0
526,0.0,0.0,0.0,0.0,0.0,0.3035829349594463,0.0,0,0,0,0,0,0.29994574249729,0,0.0,0.0,0.0,0.0,0.0,-9.0,0.0
527,0.0,0.0,0.0,0.0,0.0,0.30382335644932024,0.0,0,0,0,0,0,0.29999035075072544,0,0.0,0.0,0.0,0.0,0.0,-9.0,0.0
528,0.0,0.0,0.0,0.0,0.0,0.30382335644932024,0.0,0,0,0,0,0,0.29999962703879185,0,0.0,0.0,0.0,0.0,0.0,-9.0,0.0
529,0.0,0.0,0.0,0.0,0.0,0.30404927548437755,0.0,0,0,0,0,0,0.2999944690643669,0,0.0,0.0,0.0,0.0,0.0,-9.0,0.0
530,0.0,0.0,0.0,0.0,0.0,0.30404927548437755,0.0,0,0,0,0,0,0.29997466247952187,0,0.0,0.0,0.0,0.0,0.0,-9.0,0.0
531,0.0,0.0,0.0,0.0,0.0,0.3041387897017014,0.0,0,0,0,0,0,0.2999497729175089,0,0.0,0.0,0.0,0.0,0.0,-9.0,0.0
532,0.0,0.0,0.0,0.0,0.0,0.3041387897017014,0.0,0,0,0,0,0,0.29990972957489415,0,0.0,0.0,0.0,0.0,0.0,-9.0,0.0
533,0.0,0.0,0.0,0.0,0.0,0.3041190090941548,0.0,0,0,0,0,0,0.29984587164110565,0,0.0,0.0,0.0,0.0,0.0,-9.0,0.0
534,0.0,0.0,0.0,0.0,0.0,0.304229085225729,0.0,0,0,0,0,0,0.29972968515645704,0,0.0,0.0,0.0,0.0,0.0,-9.0,0.0
535,0.0,0.0,0.0,0.0,0.0,0.304229085225729,0.0,0,0,0,0,0,0.29966038633133313,0,0.0,0.0,0.0,0.0,0.0,-9.0,0.0
536,0.0,0.0,0.0,0.0,0.0,0.3040826837902415,0.0,0,0,0,0,0,0.29957545325107177,0,0.0,0.0,0.0,0.0,0.0,-9.0,0.0
537,0.0,0.0,0.0,0.0,0.0,0.3040826837902415,0.0,0,0,0,0,0,0.29949522633975284,0,0.0,0.0,0.0,0.0,0.0,-9.0,0.0
538,0.0,0.0,0.0,0.0,0.0,0.30377899674912,0.0,0,0,0,0,0,0.2993903450811642,0,0.0,0.0,0.0,0.0,0.0,3.211502006035223,0.0
539,0.0,0.0,0.0,0.0,0.0,0.3036867005313235,0.0,0,0,0,0,0,0.2992463399119514,0,0.0,0.0,0.0,0.0,0.0,-9.0,0.0
540,0.0,0.0,0.0,0.0,0.0,0.30326430443187036,0.0,0,0,0,0,0,0.2991124162738509,0,0.0,0.0,0.0,0.0,0.0,1.8680304715624185,0.0
541,0.0,0.0,0.0,0.0,0.0,0.3032239181140044,0.0,0,0,0,0,0,0.2989537498303841,0,0.0,0.0,0.0,0.0,0.0,-9.0,0.0
542,0.0,0.0,0.0,0.0,0.0,0.3028121910021362,0.0,0,0,0,0,0,0.2987188970645151,0,0.0,0.0,0.0,0.0,0.0,-9.0,0.0
543,0.0,0.0,0.0,0.0,0.0,0.3028581848741956,0.0,0,0,0,0,0,0.2985124333958668,0,0.0,0.0,0.0,0.0,0.0,9.0,0.0
544,0.0,0.0,0.0,0.0,0.0,0.3029604045122438,0.0,0,0,0,0,0,0.29818075974109676,0,0.0,0.0,0.0,0.0,0.0,5.819298316464959,0.0
545,0.0,0.0,0.0,0.0,0.0,0.3030260215211067,0.0,0,0,0,0,0,0.2978645545820282,0,0.0,0.0,0.0,0.0,0.0,6.037151694754458,0.0
546,0.0,0.0,0.0,0.0,0.0,0.3030230991604146,0.0,0,0,0,0,0,0.2975556435414737,0,0.0,0.0,0.0,0.0,0.0,6.561953768913517,0.0
547,0.0,0.0,0.0,0.0,0.0,0.3029365080034756,0.0,0,0,0,0,0,0.2971063407381946,0,0.0,0.0,0.0,0.0,0.0,6.067303070604764,0.0
548,0.0,0.0,0.0,0.0,0.0,0.30288439385259913,0.0,0,0,0,0,0,0.29669103376033484,0,0.0,0.0,0.0,0.0,0.0,6.224855641168815,0.0
549,0.0,0.0,0.0,0.0,0.0,0.30221655374929934,0.0,0,0,0,0,0,0.2960185427348801,0,0.0,0.0,0.0,0.0,0.0,6.316063973497638,0.0
550,0.0,0.0,0.0,0.0,0.0,0.30196862402000413,0.0,0,0,0,0,0,0.29554840861885007,0,0.0,0.0,0.0,0.0,0.0,6.307400768515638,0.0
551,0.0,0.0,0.0,0.0,0.0,0.3016919678481278,0.0,0,0,0,0,0,0.2946842314975281,0,0.0,0.0,0.0,0.0,0.0,5.87234580736612,0.0
552,0.0,0.0,0.0,0.0,0.0,0.30155236595844936,0.0,0,0,0,0,0,0.2943125747752798,0,0.0,0.0,0.0,0.0,0.0,6.1761368830774925,0.0
553,0.0,0.0,0.0,0.0,0.0,0.3013655563158535,0.0,0,0,0,0,0,0.29399843641534096,0,0.0,0.0,0.0,0.0,0.0,5.302182144275884,0.0
554,0.0,0.0,0.0,0.0,0.0,0.3011068377966142,0.0,0,0,0,0,0,0.2936417407084634,0,0.0,0.0,0.0,0.0,0.0,6.299855897838961,0.0
555,0.0,0.0,0.0,0.0,0.0,0.3006002089122646,0.0,0,0,0,0,0,0.2931069822833151,0,0.0,0.0,0.0,0.0,0.0,-9.0,0.0
556,0.0,0.0,0.0,0.0,0.0,0.2994298385733831,0.0,0,0,0,0,0,0.29236484880847785,0,0.0,0.0,0.0,0.0,0.0,6.2240757587645374,0.0
557,0.0,0.0,0.0,0.0,0.0,0.298997124197907,0.0,0,0,0,0,0,0.291653133147813,0,0.0,0.0,0.0,0.0,0.0,6.264303739743834,0.0
558,0.0,0.0,0.0,0.0,0.0,0.298783227407176,0.0,0,0,0,0,0,0.2912711320753916,0,0.0,0.0,0.0,0.0,0.0,4.918114147487833,0.0
559,0.0,0.0,0.0,0.0,0.0,0.29853138849122196,0.0,0,0,0,0,0,0.290871919565224,0,0.0,0.0,0.0,0.0,0.0,6.323223180881106,0.0
560,0.0,0.0,0.0,0.0,0.0,0.29825259000070936,0.0,0,0,0,0,0,0.2904402779014296,0,0.0,0.0,0.0,0.0,0.0,5.0902746854345775,0.0
561,0.0,0.0,0.0,0.0,0.0,0.2979516026807234,0.0,0,0,0,0,0,0.289809527184241,0,0.0,0.0,0.0,0.0,0.0,6.579167767905146,0.0
562,0.0,0.0,0.0,0.0,0.0,0.2974012120159433,0.0,0,0,0,0,0,0.2893249613813842,0,0.0,0.0,0.0,0.0,0.0,-9.0,0.0
563,0.0,0.0,0.0,0.0,0.0,0.29634193352195926,0.0,0,0,0,0,0,0.2888444112245322,0,0.0,0.0,0.0,0.0,0.0,-7.779269338702939,0.0
564,0.0,0.0,0.0,0.0,0.0,0.295875585655593,0.0,0,0,0,0,0,0.28823744007143415,0,0.0,0.0,0.0,0.0,0.0,6.83749406027772,0.0
565,0.0,0.0,0.0,0.0,0.0,0.29562640435529275,0.0,0,0,0,0,0,0.28764967848053574,0,0.0,0.0,0.0,0.0,0.0,4.934526452911939,0.0
566,0.0,0.0,0.0,0.0,0.0,0.29498377945950427,0.0,0,0,0,0,0,0.28711339478183107,0,0.0,0.0,0.0,0.0,0.0,-4.425028341304952,0.0
567,0.0,0.0,0.0,0.0,0.0,0.29442894304638934,0.0,0,0,0,0,0,0.2865546756756121,0,0.0,0.0,0.0,0.0,0.0,-9.0,0.0
568,0.0,0.0,0.0,0.0,0.0,0.2933793739728765,0.0,0,0,0,0,0,0.2857970263621368,0,0.0,0.0,0.0,0.0,0.0,6.331119831163181,0.0
569,0.0,0.0,0.0,0.0,0.0,0.2927246671048458,0.0,0,0,0,0,0,0.285295402403703,0,0.0,0.0,0.0,0.0,0.0,-2.428706031098864,0.0
570,0.0,0.0,0.0,0.0,0.0,0.29251993921816677,0.0,0,0,0,0,0,0.284752680444441,0,0.0,0.0,0.0,0.0,0.0,5.646952584617935,0.0
571,0.0,0.0,0.0,0.0,0.0,0.2922030100381079,0.0,0,0,0,0,0,0.28412430416225953,0,0.0,0.0,0.0,0.0,0.0,5.730520150237382,0.0
572,0.0,0.0,0.0,0.0,0.0,0.29099055391793627,0.0,0,0,0,0,0,0.2829922024503443,0,0.0,0.0,0.0,0.0,0.0,6.470109240160632,0.0
573,0.0,0.0,0.0,0.0,0.0,0.290048981531954,0.0,0,0,0,0,0,0.28180522359670523,0,0.0,0.0,0.0,0.0,0.0,6.193002019069201,0.0
574,0.0,0.0,0.0,0.0,0.0,0.290048981531954,0.0,0,0,0,0,0,0.28112520697656607,0,0.0,0.0,0.0,0.0,0.0,6.193002019069201,0.0
575,0.0,0.0,0.0,0.0,0.0,0.2893504927292989,0.0,0,0,0,0,0,0.28056784920445965,0,0.0,0.0,0.0,0.0,0.0,2.3784805536959057,0.0
576,0.0,0.0,0.0,0.0,0.0,0.2887683700736492,0.0,0,0,0,0,0,0.27975223281349004,0,0.0,0.0,0.0,0.0,0.0,-0.4508319742836904,0.0
577,0.0,0.0,0.0,0.0,0.0,0.28811156597802956,0.0,0,0,0,0,0,0.27911422770318356,0,0.0,0.0,0.0,0.0,0.0,-9.0,0.0
578,0.0,0.0,0.0,0.0,0.0,0.2867185245963091,0.0,0,0,0,0,0,0.2784708780749218,0,0.0,0.0,0.0,0.0,0.0,-4.93823989377395,0.0
579,0.0,0.0,0.0,0.0,0.0,0.2867185245963091,0.0,0,0,0,0,0,0.2778038448350761,0,0.0,0.0,0.0,0.0,0.0,-4.93823989377395,0.0
580,0.0,0.0,0.0,0.0,0.0,0.2855823299226765,0.0,0,0,0,0,0,0.27661266009550106,0,0.0,0.0,0.0,0.0,0.0,-0.9120873517575008,0.0
581,0.0,0.0,0.0,0.0,0.0,0.2855823299226765,0.0,0,0,0,0,0,0.27611432890451243,0,0.0,0.0,0.0,0.0,0.0,-0.9120873517575008,0.0
582,0.0,0.0,0.0,0.0,0.0,0.28498236106038455,0.0,0,0,0,0,0,0.2751412011358255,0,0.0,0.0,0.0,0.0,0.0,-9.0,0.0
583,0.0,0.0,0.0,0.0,0.0,0.28391887979333763,0.0,0,0,0,0,0,0.2742212536553444,0,0.0,0.0,0.0,0.0,0.0,-2.526512734020967,0.0
584,0.0,0.0,0.0,0.0,0.0,0.2826951559880486,0.0,0,0,0,0,0,0.27262068334874834,0,0.0,0.0,0.0,0.0,0.0,6.3583782281725485,0.0
585,0.0,0.0,0.0,0.0,0.0,0.2818951787800925,0.0,0,0,0,0,0,0.27157318050269125,0,0.0,0.0,0.0,0.0,0.0,-4.137374893449433,0.0
586,0.0,0.0,0.0,0.0,0.0,0.2813739586544557,0.0,0,0,0,0,0,0.2706704469140331,0,0.0,0.0,0.0,0.0,0.0,3.9071640441582525,0.0
587,0.0,0.0,0.0,0.0,0.0,0.28045358631674056,0.0,0,0,0,0,0,0.26974207403897604,0,0.0,0.0,0.0,0.0,0.0,-4.506559113227281,0.0
588,0.0,0.0,0.0,0.0,0.0,0.27930470716306655,0.0,0,0,0,0,0,0.2686086946537227,0,0.0,0.0,0.0,0.0,0.0,6.407120317949422,0.0
589,0.0,0.0,0.0,0.0,0.0,0.2778607471066836,0.0,0,0,0,0,0,0.2675896162683003,0,0.0,0.0,0.0,0.0,0.0,7.436028717404139,0.0
590,0.0,0.0,0.0,0.0,0.0,0.2772960628702057,0.0,0,0,0,0,0,0.2668484612530441,0,0.0,0.0,0.0,0.0,0.0,4.384200751037867,0.0
591,0.0,0.0,0.0,0.0,0.0,0.27565401035515436,0.0,0,0,0,0,0,0.2642562458314394,0,0.0,0.0,0.0,0.0,0.0,5.759979184928392,0.0
592,0.0,0.0,0.0,0.0,0.0,0.27428180311104455,0.0,0,0,0,0,0,0.26293141851202156,0,0.0,0.0,0.0,0.0,0.0,6.903269492698284,0.0
593,0.0,0.0,0.0,0.0,0.0,0.2736228489916366,0.0,0,0,0,0,0,0.26132841184015476,0,0.0,0.0,0.0,0.0,0.0,4.091074955948871,0.0
594,0.0,0.0,0.0,0.0,0.0,0.27101481656547755,0.0,0,0,0,0,0,0.25910513191431944,0,0.0,0.0,0.0,0.0,0.0,5.8324947664751665,0.0
595,0.0,0.0,0.0,0.0,0.0,0.2696020503391221,0.0,0,0,0,0,0,0.25731001182859287,0,0.0,0.0,0.0,0.0,0.0,6.190343955387305,0.0
596,0.0,0.0,0.0,0.0,0.0,0.2685235939222057,0.0,0,0,0,0,0,0.2563434435826047,0,0.0,0.0,0.0,0.0,0.0,5.2619262460822265,0.0
597,0.0,0.0,0.0,0.0,0.0,0.2675191593438111,0.0,0,0,0,0,0,0.2551464233435119,0,0.0,0.0,0.0,0.0,0.0,-1.0734219146257304,0.0
598,0.0,0.0,0.0,0.0,0.0,0.2668336477036348,0.0,0,0,0,0,0,0.2542629952804633,0,0.0,0.0,0.0,0.0,0.0,6.634697522945706,0.0
599,0.0,0.0,0.0,0.0,0.0,0.266027272562428,0.0,0,0,0,0,0,0.25308550135011554,0,0.0,0.0,0.0,0.0,0.0,3.2869988891932964,0.0
600,0.0,0.0,0.0,0.0,0.0,0.2648559382867912,0.0,0,0,0,0,0,0.25164715779295443,0,0.0,0.0,0.0,0.0,0.0,5.110480665932152,0.0
601,0.0,0.0,0.0,0.0,0.0,0.2637545208688614,0.0,0,0,0,0,0,0.24978690157773822,0,0.0,0.0,0.0,0.0,0.0,-3.1913407390018165,0.0
602,0.0,0.0,0.0,0.0,0.0,0.2609848435351054,0.0,0,0,0,0,0,0.24704320437745214,0,0.0,0.0,0.0,0.0,0.0,6.084963128412163,0.0
603,0.0,0.0,0.0,0.0,0.0,0.2586429037481244,0.0,0,0,0,0,0,0.244649763976767,0,0.0,0.0,0.0,0.0,0.0,4.519804519912546,0.0
604,0.0,0.0,0.0,0.0,0.0,0.25721525651557897,0.0,0,0,0,0,0,0.24328473957038943,0,0.0,0.0,0.0,0.0,0.0,5.502475956453544,0.0
605,0.0,0.0,0.0,0.0,0.0,0.2563618180172771,0.0,0,0,0,0,0,0.24155895326129426,0,0.0,0.0,0.0,0.0,0.0,4.897281657444374,0.0
606,0.0,0.0,0.0,0.0,0.0,0.254137092801221,0.0,0,0,0,0,0,0.24016148338268836,0,0.0,0.0,0.0,0.0,0.0,6.3078978612761025,0.0
607,0.0,0.0,0.0,0.0,0.0,0.25196215002564504,0.0,0,0,0,0,0,0.23801600394151584,0,0.0,0.0,0.0,0.0,0.0,4.412599221259107,0.0
608,0.0,0.0,0.0,0.0,0.0,0.25196215002564504,0.0,0,0,0,0,0,0.23697956230985318,0,0.0,0.0,0.0,0.0,0.0,4.412599221259107,0.0
609,0.0,0.0,0.0,0.0,0.0,0.25023565209673837,0.0,0,0,0,0,0,0.23576074576471512,0,0.0,0.0,0.0,0.0,0.0,4.137205623574193,0.0
610,0.0,0.0,0.0,0.0,0.0,0.24799778399667538,0.0,0,0,0,0,0,0.23434050281092011,0,0.0,0.0,0.0,0.0,0.0,9.0,0.0
611,0.0,0.0,0.0,0.0,0.0,0.24799778399667538,0.0,0,0,0,0,0,0.23328413435660977,0,0.0,0.0,0.0,0.0,0.0,9.0,0.0
612,0.0,0.0,0.0,0.0,0.0,0.24613003616925067,0.0,0,0,0,0,0,0.23142567473809983,0,0.0,0.0,0.0,0.0,0.0,6.541060335118932,0.0
613,0.0,0.0,0.0,0.0,0.0,0.24426081106454056,0.0,0,0,0,0,0,0.2287323629065501,0,0.0,0.0,0.0,0.0,0.0,6.601318504750247,0.0
614,0.0,0.0,0.0,0.0,0.0,0.2423716909457596,0.0,0,0,0,0,0,0.22721540984044966,0,0.0,0.0,0.0,0.0,0.0,3.1779964808036616,0.0
615,0.0,0.0,0.0,0.0,0.0,0.2410355268218245,0.0,0,0,0,0,0,0.2257212507558613,0,0.0,0.0,0.0,0.0,0.0,-2.045590272503616,0.0
616,0.0,0.0,0.0,0.0,0.0,0.2397981664796145,0.0,0,0,0,0,0,0.22450060767677965,0,0.0,0.0,0.0,0.0,0.0,-9.0,0.0
617,0.0,0.0,0.0,0.0,0.0,0.23735206792309338,0.0,0,0,0,0,0,0.22251808396965123,0,0.0,0.0,0.0,0.0,0.0,7.708165995011111,0.0
618,0.0,0.0,0.0,0.0,0.0,0.23645216465487273,0.0,0,0,0,0,0,0.22132108327028194,0,0.0,0.0,0.0,0.0,0.0,1.5686138108332917,0.0
619,0.0,0.0,0.0,0.0,0.0,0.2351589267519847,0.0,0,0,0,0,0,0.2197498389801306,0,0.0,0.0,0.0,0.0,0.0,-9.0,0.0
620,0.0,0.0,0.0,0.0,0.0,0.2337692577378725,0.0,0,0,0,0,0,0.21818366160493446,0,0.0,0.0,0.0,0.0,0.0,-9.0,0.0
621,0.0,0.0,0.0,0.0,0.0,0.23128603987512086,0.0,0,0,0,0,0,0.21684212692255653,0,0.0,0.0,0.0,0.0,0.0,0.32715590389998717,0.0
622,0.0,0.0,0.0,0.0,0.0,0.23128603987512086,0.0,0,0,0,0,0,0.21553672613497424,0,0.0,0.0,0.0,0.0,0.0,0.32715590389998717,0.0
623,0.0,0.0,0.0,0.0,0.0,0.22885291227364846,0.0,0,0,0,0,0,0.21426399650484765,0,0.0,0.0,0.0,0.0,0.0,3.6152518875527027,0.0
624,0.0,0.0,0.0,0.0,0.0,0.22747669373440083,0.0,0,0,0,0,0,0.2130262620046969,0,0.0,0.0,0.0,0.0,0.0,1.3189719358585645,0.0
625,0.0,0.0,0.0,0.0,0.0,0.22747669373440083,0.0,0,0,0,0,0,0.21159727437879094,0,0.0,0.0,0.0,0.0,0.0,1.3189719358585645,0.0
626,0.0,0.0,0.0,0.0,0.0,0.22649053784203943,0.0,0,0,0,0,0,0.21036371436028764,0,0.0,0.0,0.0,0.0,0.0,7.50974132595435,0.0
627,0.0,0.0,0.0,0.0,0.0,0.22388042110249717,0.0,0,0,0,0,0,0.20909934722148074,0,0.0,0.0,0.0,0.0,0.0,2.974907908242839,0.0
628,0.0,0.0,0.0,0.0,0.0,0.22284467771194905,0.0,0,0,0,0,0,0.20763408029858602,0,0.0,0.0,0.0,0.0,0.0,5.019978920812829,0.0
629,0.0,0.0,0.0,0.0,0.0,0.22284467771194905,0.0,0,0,0,0,0,0.20639633001705826,0,0.0,0.0,0.0,0.0,0.0,5.019978920812829,0.0
630,0.0,0.0,0.0,0.0,0.0,0.22027026157210106,0.0,0,0,0,0,0,0.20461008111288145,0,0.0,0.0,0.0,0.0,0.0,6.135171615920985,0.0
631,0.0,0.0,0.0,0.0,0.0,0.2191066073518435,0.0,0,0,0,0,0,0.20236718583670477,0,0.0,0.0,0.0,0.0,0.0,5.91938097083484,0.0
632,0.0,0.0,0.0,0.0,0.0,0.2168016341571608,0.0,0,0,0,0,0,0.200474187929371,0,0.0,0.0,0.0,0.0,0.0,4.038242603744152,0.0
633,0.0,0.0,0.0,0.0,0.0,0.21451331593783962,0.0,0,0,0,0,0,0.19847650957742533,0,0.0,0.0,0.0,0.0,0.0,5.810879867198705,0.0
634,0.0,0.0,0.0,0.0,0.0,0.2130587753330273,0.0,0,0,0,0,0,0.1964442600995759,0,0.0,0.0,0.0,0.0,0.0,8.148235575441822,0.0
635,0.0,0.0,0.0,0.0,0.0,0.21201262248313935,0.0,0,0,0,0,0,0.19502649646523879,0,0.0,0.0,0.0,0.0,0.0,4.3178755196299665,0.0
636,0.0,0.0,0.0,0.0,0.0,0.20894714572851214,0.0,0,0,0,0,0,0.19251767922118676,0,0.0,0.0,0.0,0.0,0.0,3.755745076525937,0.0
637,0.0,0.0,0.0,0.0,0.0,0.20773348323579377,0.0,0,0,0,0,0,0.19087875084668177,0,0.0,0.0,0.0,0.0,0.0,3.5596072274248804,0.0
638,0.0,0.0,0.0,0.0,0.0,0.20509967243676908,0.0,0,0,0,0,0,0.18863233499829962,0,0.0,0.0,0.0,0.0,0.0,6.297293119667459,0.0
639,0.0,0.0,0.0,0.0,0.0,0.203852026271929,0.0,0,0,0,0,0,0.1870681257362324,0,0.0,0.0,0.0,0.0,0.0,6.043618787581365,0.0
640,0.0,0.0,0.0,0.0,0.0,0.203852026271929,0.0,0,0,0,0,0,0.18542108944287614,0,0.0,0.0,0.0,0.0,0.0,6.043618787581365,0.0
641,0.0,0.0,0.0,0.0,0.0,0.20261236033783803,0.0,0,0,0,0,0,0.1834135467737614,0,0.0,0.0,0.0,0.0,0.0,5.984031280797792,0.0
642,0.0,0.0,0.0,0.0,0.0,0.1996307182961834,0.0,0,0,0,0,0,0.1817523132301174,0,0.0,0.0,0.0,0.0,0.0,-1.2820546787162137,0.0
643,0.0,0.0,0.0,0.0,0.0,0.19811005581059948,0.0,0,0,0,0,0,0.17935152660343406,0,0.0,0.0,0.0,0.0,0.0,-9.0,0.0
644,0.0,0.0,0.0,0.0,0.0,0.19522331544375948,0.0,0,0,0,0,0,0.1778284261543498,0,0.0,0.0,0.0,0.0,0.0,-2.592486641609726,0.0
645,0.0,0.0,0.0,0.0,0.0,0.19244933251605456,0.0,0,0,0,0,0,0.17616153437813575,0,0.0,0.0,0.0,0.0,0.0,4.183863177474484,0.0
646,0.0,0.0,0.0,0.0,0.0,0.19244933251605456,0.0,0,0,0,0,0,0.17452164898915293,0,0.0,0.0,0.0,0.0,0.0,4.183863177474484,0.0
647,0.0,0.0,0.0,0.0,0.0,0.19125698538559188,0.0,0,0,0,0,0,0.17323610677435244,0,0.0,0.0,0.0,0.0,0.0,4.022494543655034,0.0
648,0.0,0.0,0.0,0.0,0.0,0.18988408937253265,0.0,0,0,0,0,0,0.17185302192808324,0,0.0,0.0,0.0,0.0,0.0,2.507261239420978,0.0
649,0.0,0.0,0.0,0.0,0.0,0.18855851258886247,0.0,0,0,0,0,0,0.17042597694422537,0,0.0,0.0,0.0,0.0,0.0,5.736273391475396,0.0
650,0.0,0.0,0.0,0.0,0.0,0.1859077411452965,0.0,0,0,0,0,0,0.16880466462090252,0,0.0,0.0,0.0,0.0,0.0,6.221585752863393,0.0
651,0.0,0.0,0.0,0.0,0.0,0.18433455804867016,0.0,0,0,0,0,0,0.1674146033698348,0,0.0,0.0,0.0,0.0,0.0,-3.0773306365451796,0.0
652,0.0,0.0,0.0,0.0,0.0,0.18164660870739535,0.0,0,0,0,0,0,0.1650868893941535,0,0.0,0.0,0.0,0.0,0.0,4.130009535704144,0.0
653,0.0,0.0,0.0,0.0,0.0,0.17801096325911736,0.0,0,0,0,0,0,0.16083092464531387,0,0.0,0.0,0.0,0.0,0.0,5.520831476656435,0.0
654,0.0,0.0,0.0,0.0,0.0,0.1755714927279044,0.0,0,0,0,0,0,0.1582892220522665,0,0.0,0.0,0.0,0.0,0.0,3.2364318206970575,0.0
655,0.0,0.0,0.0,0.0,0.0,0.17288394470329038,0.0,0,0,0,0,0,0.15512445108353312,0,0.0,0.0,0.0,0.0,0.0,6.359680217429319,0.0
656,0.0,0.0,0.0,0.0,0.0,0.17038299270466073,0.0,0,0,0,0,0,0.1518698776683971,0,0.0,0.0,0.0,0.0,0.0,6.479032162359545,0.0
657,0.0,0.0,0.0,0.0,0.0,0.16757081280692798,0.0,0,0,0,0,0,0.14936085009656674,0,0.0,0.0,0.0,0.0,0.0,6.937765229704718,0.0
658,0.0,0.0,0.0,0.0,0.0,0.16493595052860854,0.0,0,0,0,0,0,0.14655588638339392,0,0.0,0.0,0.0,0.0,0.0,6.246833274818672,0.0
659,0.0,0.0,0.0,0.0,0.0,0.16227936676049382,0.0,0,0,0,0,0,0.14469115285176337,0,0.0,0.0,0.0,0.0,0.0,6.296383622334453,0.0
660,0.0,0.0,0.0,0.0,0.0,0.1608811577721898,0.0,0,0,0,0,0,0.14292557124299854,0,0.0,0.0,0.0,0.0,0.0,5.528279345965324,0.0
661,0.0,0.0,0.0,0.0,0.0,0.15920133052095764,0.0,0,0,0,0,0,0.14097339650303334,0,0.0,0.0,0.0,0.0,0.0,8.21816249907097,0.0
662,0.0,0.0,0.0,0.0,0.0,0.15920133052095764,0.0,0,0,0,0,0,0.13920827506651495,0,0.0,0.0,0.0,0.0,0.0,8.21816249907097,0.0
663,0.0,0.0,0.0,0.0,0.0,0.1577803346085389,0.0,0,0,0,0,0,0.13769232370082032,0,0.0,0.0,0.0,0.0,0.0,4.992004341326619,0.0
664,0.0,0.0,0.0,0.0,0.0,0.15447216978265743,0.0,0,0,0,0,0,0.13576359983797057,0,0.0,0.0,0.0,0.0,0.0,4.042440973961739,0.0
665,0.0,0.0,0.0,0.0,0.0,0.15264971007073136,0.0,0,0,0,0,0,0.1342216115199387,0,0.0,0.0,0.0,0.0,0.0,5.2677174873226305,0.0
666,0.0,0.0,0.0,0.0,0.0,0.15116867229834874,0.0,0,0,0,0,0,0.13267278792546117,0,0.0,0.0,0.0,0.0,0.0,5.639262244859025,0.0
667,0.0,0.0,0.0,0.0,0.0,0.14942192473712446,0.0,0,0,0,0,0,0.13075812772953352,0,0.0,0.0,0.0,0.0,0.0,9.0,0.0
668,0.0,0.0,0.0,0.0,0.0,0.14798909139612526,0.0,0,0,0,0,0,0.1288879832764665,0,0.0,0.0,0.0,0.0,0.0,1.8459804888223272,0.0
669,0.0,0.0,0.0,0.0,0.0,0.14611595754361417,0.0,0,0,0,0,0,0.1272526475497592,0,0.0,0.0,0.0,0.0,0.0,3.316815670097437,0.0
670,0.0,0.0,0.0,0.0,0.0,0.14474818332141925,0.0,0,0,0,0,0,0.1253235890909265,0,0.0,0.0,0.0,0.0,0.0,3.3827989776644367,0.0
671,0.0,0.0,0.0,0.0,0.0,0.1433141787677501,0.0,0,0,0,0,0,0.1237909147667879,0,0.0,0.0,0.0,0.0,0.0,5.291444545423854,0.0
672,0.0,0.0,0.0,0.0,0.0,0.14038203109261094,0.0,0,0,0,0,0,0.12153019474483581,0,0.0,0.0,0.0,0.0,0.0,6.221585312044573,0.0
673,0.0,0.0,0.0,0.0,0.0,0.13863366564175994,0.0,0,0,0,0,0,0.11990601670750048,0,0.0,0.0,0.0,0.0,0.0,9.0,0.0
674,0.0,0.0,0.0,0.0,0.0,0.13863366564175994,0.0,0,0,0,0,0,0.11859126483780798,0,0.0,0.0,0.0,0.0,0.0,9.0,0.0
675,0.0,0.0,0.0,0.0,0.0,0.13663106290028715,0.0,0,0,0,0,0,0.1171064880684419,0,0.0,0.0,0.0,0.0,0.0,-9.0,0.0
676,0.0,0.0,0.0,0.0,0.0,0.13663106290028715,0.0,0,0,0,0,0,0.11550097390687054,0,0.0,0.0,0.0,0.0,0.0,4.5572028470923405,0.0
677,0.0,0.0,0.0,0.0,0.0,0.13297449674394812,0.0,0,0,0,0,0,0.11392413588175011,0,0.0,0.0,0.0,0.0,0.0,7.34186091994068,0.0
678,0.0,0.0,0.0,0.0,0.0,0.13144659187838847,0.0,0,0,0,0,0,0.11238181149574482,0,0.0,0.0,0.0,0.0,0.0,2.5028966771157295,0.0
679,0.0,0.0,0.0,0.0,0.0,0.1299148420199696,0.0,0,0,0,0,0,0.11042772194720912,0,0.0,0.0,0.0,0.0,0.0,4.2307808233396305,0.0
680,0.0,0.0,0.0,0.0,0.0,0.12804089379360128,0.0,0,0,0,0,0,0.10900829638768057,0,0.0,0.0,0.0,0.0,0.0,2.419792395168452,0.0
681,0.0,0.0,0.0,0.0,0.0,0.126281816028599,0.0,0,0,0,0,0,0.10690594413848468,0,0.0,0.0,0.0,0.0,0.0,2.0917789316594675,0.0
682,0.0,0.0,0.0,0.0,0.0,0.12471584672348968,0.0,0,0,0,0,0,0.10447409637337317,0,0.0,0.0,0.0,0.0,0.0,6.982388738459251,0.0
683,0.0,0.0,0.0,0.0,0.0,0.12325357779267065,0.0,0,0,0,0,0,0.10209060349624803,0,0.0,0.0,0.0,0.0,0.0,4.00161903765877,0.0
684,0.0,0.0,0.0,0.0,0.0,0.12168234190909288,0.0,0,0,0,0,0,0.10003805664562707,0,0.0,0.0,0.0,0.0,0.0,3.742287491995577,0.0
685,0.0,0.0,0.0,0.0,0.0,0.11964067489591024,0.0,0,0,0,0,0,0.09799226773879932,0,0.0,0.0,0.0,0.0,0.0,9.0,0.0
686,0.0,0.0,0.0,0.0,0.0,0.11801171658945009,0.0,0,0,0,0,0,0.09562051797447431,0,0.0,0.0,0.0,0.0,0.0,3.258342488479591,0.0
687,0.0,0.0,0.0,0.0,0.0,0.11450622963986845,0.0,0,0,0,0,0,0.09334286292184706,0,0.0,0.0,0.0,0.0,0.0,3.4653810195634756,0.0
688,0.0,0.0,0.0,0.0,0.0,0.11450622963986845,0.0,0,0,0,0,0,0.09116962824662246,0,0.0,0.0,0.0,0.0,0.0,3.4653810195634756,0.0
689,0.0,0.0,0.0,0.0,0.0,0.11271547535978321,0.0,0,0,0,0,0,0.08943087234269258,0,0.0,0.0,0.0,0.0,0.0,6.320714932498829,0.0
690,0.0,0.0,0.0,0.0,0.0,0.11087487659501605,0.0,0,0,0,0,0,0.08787552039326911,0,0.0,0.0,0.0,0.0,0.0,5.130451223023751,0.0
691,0.0,0.0,0.0,0.0,0.0,0.10702542925976388,0.0,0,0,0,0,0,0.0853545819279302,0,0.0,0.0,0.0,0.0,0.0,2.4059149370609014,0.0
692,0.0,0.0,0.0,0.0,0.0,0.10204275634132465,0.0,0,0,0,0,0,0.08056629471570127,0,0.0,0.0,0.0,0.0,0.0,4.618766227582077,0.0
693,0.0,0.0,0.0,0.0,0.0,0.09897801380556892,0.0,0,0,0,0,0,0.07731281426164564,0,0.0,0.0,0.0,0.0,0.0,1.9582110071876921,0.0
694,0.0,0.0,0.0,0.0,0.0,0.09533873309973728,0.0,0,0,0,0,0,0.07383278091060792,0,0.0,0.0,0.0,0.0,0.0,5.411197928914457,0.0
695,0.0,0.0,0.0,0.0,0.0,0.09346649667502405,0.0,0,0,0,0,0,0.07070155372940601,0,0.0,0.0,0.0,0.0,0.0,0.5968474842085825,0.0
696,0.0,0.0,0.0,0.0,0.0,0.0918311987511693,0.0,0,0,0,0,0,0.06886633496714914,0,0.0,0.0,0.0,0.0,0.0,6.644245757450943,0.0
697,0.0,0.0,0.0,0.0,0.0,0.08820403349162476,0.0,0,0,0,0,0,0.0660477590967466,0,0.0,0.0,0.0,0.0,0.0,2.9646035118277965,0.0
698,0.0,0.0,0.0,0.0,0.0,0.08289830259831987,0.0,0,0,0,0,0,0.060999862481198666,0,0.0,0.0,0.0,0.0,0.0,5.215896959880091,0.0
699,0.0,0.0,0.0,0.0,0.0,0.08131127268291749,0.0,0,0,0,0,0,0.058767617681875176,0,0.0,0.0,0.0,0.0,0.0,-9.0,0.0
700,0.0,0.0,0.0,0.0,0.0,0.07932567922132172,0.0,0,0,0,0,0,0.05685967289129499,0,0.0,0.0,0.0,0.0,0.0,-9.0,0.0
701,0.0,0.0,0.0,0.0,0.0,0.07712872520066583,0.0,0,0,0,0,0,0.054976663166633986,0,0.0,0.0,0.0,0.0,0.0,-0.7092327538010594,0.0
702,0.0,0.0,0.0,0.0,0.0,0.07539931166219915,0.0,0,0,0,0,0,0.05287543070821893,0,0.0,0.0,0.0,0.0,0.0,5.830475379615406,0.0
703,0.0,0.0,0.0,0.0,0.0,0.07170364198095402,0.0,0,0,0,0,0,0.0511428539634226,0,0.0,0.0,0.0,0.0,0.0,4.780892327847644,0.0
704,0.0,0.0,0.0,0.0,0.0,0.06997102972458169,0.0,0,0,0,0,0,0.04934469304080354,0,0.0,0.0,0.0,0.0,0.0,5.537090625094343,0.0
705,0.0,0.0,0.0,0.0,0.0,0.06799670550440329,0.0,0,0,0,0,0,0.0466968188816053,0,0.0,0.0,0.0,0.0,0.0,9.0,0.0
706,0.0,0.0,0.0,0.0,0.0,0.06455850184322909,0.0,0,0,0,0,0,0.04309989410679076,0,0.0,0.0,0.0,0.0,0.0,2.7921367642232138,0.0
707,0.0,0.0,0.0,0.0,0.0,0.06146690289442791,0.0,0,0,0,0,0,0.040102035512191464,0,0.0,0.0,0.0,0.0,0.0,6.627932001274888,0.0
708,0.0,0.0,0.0,0.0,0.0,0.058251711259702965,0.0,0,0,0,0,0,0.03653838782249823,0,0.0,0.0,0.0,0.0,0.0,3.2521056193079283,0.0
709,0.0,0.0,0.0,0.0,0.0,0.05651131996693959,0.0,0,0,0,0,0,0.0346570346510252,0,0.0,0.0,0.0,0.0,0.0,-9.0,0.0
710,0.0,0.0,0.0,0.0,0.0,0.05308921310749337,0.0,0,0,0,0,0,0.0327622406774205,0,0.0,0.0,0.0,0.0,0.0,6.595560540260343,0.0
711,0.0,0.0,0.0,0.0,0.0,0.05142344012254707,0.0,0,0,0,0,0,0.030853451696406905,0,0.0,0.0,0.0,0.0,0.0,2.1743561934144457,0.0
712,0.0,0.0,0.0,0.0,0.0,0.04946180192295646,0.0,0,0,0,0,0,0.029044660968267466,0,0.0,0.0,0.0,0.0,0.0,1.9336020091437944,0.0
713,0.0,0.0,0.0,0.0,0.0,0.047568606933501734,0.0,0,0,0,0,0,0.027209517503642686,0,0.0,0.0,0.0,0.0,0.0,2.3535386913993026,0.0
714,0.0,0.0,0.0,0.0,0.0,0.04560904050073322,0.0,0,0,0,0,0,0.02504714313538638,0,0.0,0.0,0.0,0.0,0.0,6.520488882665622,0.0
715,0.0,0.0,0.0,0.0,0.0,0.044134950629037384,0.0,0,0,0,0,0,0.023219694802355407,0,0.0,0.0,0.0,0.0,0.0,4.2396710386031575,0.0
716,0.0,0.0,0.0,0.0,0.0,0.04075852751610842,0.0,0,0,0,0,0,0.021507757700104296,0,0.0,0.0,0.0,0.0,0.0,2.829317165126716,0.0
717,0.0,0.0,0.0,0.0,0.0,0.039240629590566733,0.0,0,0,0,0,0,0.01883679640606125,0,0.0,0.0,0.0,0.0,0.0,3.9721211380299515,0.0
718,0.0,0.0,0.0,0.0,0.0,0.03590352758330173,0.0,0,0,0,0,0,0.01605086203103384,0,0.0,0.0,0.0,0.0,0.0,6.372905111231198,0.0
719,0.0,0.0,0.0,0.0,0.0,0.03267733445520005,0.0,0,0,0,0,0,0.01282255212680997,0,0.0,0.0,0.0,0.0,0.0,6.577514151931329,0.0
720,0.0,0.0,0.0,0.0,0.0,0.030946726443068506,0.0,0,0,0,0,0,0.010818136843727948,0,0.0,0.0,0.0,0.0,0.0,-0.8851253153096812,0.0
721,0.0,0.0,0.0,0.0,0.0,0.02798848207894622,0.0,0,0,0,0,0,0.008462686246522078,0,0.0,0.0,0.0,0.0,0.0,2.5578163654035286,0.0
722,0.0,0.0,0.0,0.0,0.0,0.02798848207894622,0.0,0,0,0,0,0,0.00691553175461674,0,0.0,0.0,0.0,0.0,0.0,2.5578163654035286,0.0
723,0.0,0.0,0.0,0.0,0.0,0.02611395518546722,0.0,0,0,0,0,0,0.005525898370118028,0,0.0,0.0,0.0,0.0,0.0,9.0,0.0
724,0.0,0.0,0.0,0.0,0.0,0.02611395518546722,0.0,0,0,0,0,0,0.003716376587272626,0,0.0,0.0,0.0,0.0,0.0,9.0,0.0
725,0.0,0.0,0.0,0.0,0.0,0.024360560875345882,0.0,0,0,0,0,0,0.001699570876158724,0,0.0,0.0,0.0,0.0,0.0,1.252286864815889,0.0
726,0.0,0.0,0.0,0.0,0.0,0.020541500027780657,0.0,0,0,0,0,0,-6.073800551378295e-05,0,0.0,0.0,0.0,0.0,0.0,2.2151636483003543,0.0
727,0.0,0.0,0.0,0.0,0.0,0.017097884424055465,0.0,0,0,0,0,0,-0.0029484041461089036,0,0.0,0.0,0.0,0.0,0.0,5.35237457151946,0.0
728,0.0,0.0,0.0,0.0,0.0,0.015445573818373859,0.0,0,0,0,0,0,-0.005221913839512624,0,0.0,0.0,0.0,0.0,0.0,6.170036364640721,0.0
729,0.0,0.0,0.0,0.0,0.0,0.013863441936372567,0.0,0,0,0,0,0,-0.007900464508606337,0,0.0,0.0,0.0,0.0,0.0,0.7159120486959043,0.0
730,0.0,0.0,0.0,0.0,0.0,0.010265908516694289,0.0,0,0,0,0,0,-0.010378245432824354,0,0.0,0.0,0.0,0.0,0.0,2.615733270075413,0.0
731,0.0,0.0,0.0,0.0,0.0,0.006869048399404498,0.0,0,0,0,0,0,-0.013550970379423778,0,0.0,0.0,0.0,0.0,0.0,6.21134260995087,0.0
732,0.0,0.0,0.0,0.0,0.0,0.003739039858536408,0.0,0,0,0,0,0,-0.01603998453246826,0,0.0,0.0,0.0,0.0,0.0,3.717470850352954,0.0
733,0.0,0.0,0.0,0.0,0.0,0.002163724532285194,0.0,0,0,0,0,0,-0.01967325368461038,0,0.0,0.0,0.0,0.0,0.0,2.865876441334568,0.0
734,0.0,0.0,0.0,0.0,0.0,0.0005714811624502047,0.0,0,0,0,0,0,-0.021391141158503896,0,0.0,0.0,0.0,0.0,0.0,-0.07796886318169816,0.0
735,0.0,0.0,0.0,0.0,0.0,-0.0011593853258800024,0.0,0,0,0,0,0,-0.023699629363358076,0,0.0,0.0,0.0,0.0,0.0,5.930202583190091,0.0
736,0.0,0.0,0.0,0.0,0.0,-0.003121209113033707,0.0,0,0,0,0,0,-0.025586003617831428,0,0.0,0.0,0.0,0.0,0.0,7.047391800480204,0.0
737,0.0,0.0,0.0,0.0,0.0,-0.004790334727556633,0.0,0,0,0,0,0,-0.027465823927113116,0,0.0,0.0,0.0,0.0,0.0,1.686953280055145,0.0
738,0.0,0.0,0.0,0.0,0.0,-0.006818243290413584,0.0,0,0,0,0,0,-0.029451625609182398,0,0.0,0.0,0.0,0.0,0.0,-9.0,0.0
739,0.0,0.0,0.0,0.0,0.0,-0.008717649881439193,0.0,0,0,0,0,0,-0.031148931909832454,0,0.0,0.0,0.0,0.0,0.0,3.542325156047199,0.0
740,0.0,0.0,0.0,0.0,0.0,-0.010553113490264998,0.0,0,0,0,0,0,-0.03285910187275995,0,0.0,0.0,0.0,0.0,0.0,2.195661620374253,0.0
741,0.0,0.0,0.0,0.0,0.0,-0.012568688169635855,0.0,0,0,0,0,0,-0.03488288516445992,0,0.0,0.0,0.0,0.0,0.0,-9.0,0.0
742,0.0,0.0,0.0,0.0,0.0,-0.016417783674163466,0.0,0,0,0,0,0,-0.03789353084958169,0,0.0,0.0,0.0,0.0,0.0,6.295079582990544,0.0
743,0.0,0.0,0.0,0.0,0.0,-0.018374794254010673,0.0,0,0,0,0,0,-0.04078852741829698,0,0.0,0.0,0.0,0.0,0.0,9.0,0.0
744,0.0,0.0,0.0,0.0,0.0,-0.02495755895777929,0.0,0,0,0,0,0,-0.046588417658408994,0,0.0,0.0,0.0,0.0,0.0,4.584062458267902,0.0
745,0.0,0.0,0.0,0.0,0.0,-0.027950352961739533,0.0,0,0,0,0,0,-0.049792044449725834,0,0.0,0.0,0.0,0.0,0.0,3.7508015521766054,0.0
746,0.0,0.0,0.0,0.0,0.0,-0.02971376666522918,0.0,0,0,0,0,0,-0.05185171340558846,0,0.0,0.0,0.0,0.0,0.0,1.9450727985687613,0.0
747,0.0,0.0,0.0,0.0,0.0,-0.03340711545744934,0.0,0,0,0,0,0,-0.05466462694077346,0,0.0,0.0,0.0,0.0,0.0,7.107887590585815,0.0
748,0.0,0.0,0.0,0.0,0.0,-0.035408646324939674,0.0,0,0,0,0,0,-0.05781540498865139,0,0.0,0.0,0.0,0.0,0.0,5.324363059706993,0.0
749,0.0,0.0,0.0,0.0,0.0,-0.03868725611034041,0.0,0,0,0,0,0,-0.060296810195340576,0,0.0,0.0,0.0,0.0,0.0,1.9431209036241057,0.0
750,0.0,0.0,0.0,0.0,0.0,-0.04071506327316943,0.0,0,0,0,0,0,-0.06229209594682032,0,0.0,0.0,0.0,0.0,0.0,1.1360988015084152,0.0
751,0.0,0.0,0.0,0.0,0.0,-0.04260355324130938,0.0,0,0,0,0,0,-0.06448456946493489,0,0.0,0.0,0.0,0.0,0.0,-9.0,0.0
752,0.0,0.0,0.0,0.0,0.0,-0.04607118678254185,0.0,0,0,0,0,0,-0.06753613454678777,0,0.0,0.0,0.0,0.0,0.0,2.907823814708515,0.0
753,0.0,0.0,0.0,0.0,0.0,-0.049225974336430944,0.0,0,0,0,0,0,-0.07156761615925351,0,0.0,0.0,0.0,0.0,0.0,6.323319459690429,0.0
754,0.0,0.0,0.0,0.0,0.0,-0.0526300338086374,0.0,0,0,0,0,0,-0.0744025632546743,0,0.0,0.0,0.0,0.0,0.0,1.9767314922650112,0.0
755,0.0,0.0,0.0,0.0,0.0,-0.05592878264473722,0.0,0,0,0,0,0,-0.0770157089255926,0,0.0,0.0,0.0,0.0,0.0,2.6126383117007856,0.0
756,0.0,0.0,0.0,0.0,0.0,-0.05758006006260441,0.0,0,0,0,0,0,-0.07877779990794635,0,0.0,0.0,0.0,0.0,0.0,7.548268838990344,0.0
757,0.0,0.0,0.0,0.0,0.0,-0.06080636957360053,0.0,0,0,0,0,0,-0.08231054690402109,0,0.0,0.0,0.0,0.0,0.0,3.5903669394392628,0.0
758,0.0,0.0,0.0,0.0,0.0,-0.06397510079962654,0.0,0,0,0,0,0,-0.0846406339719737,0,0.0,0.0,0.0,0.0,0.0,0.5102649999343836,0.0
759,0.0,0.0,0.0,0.0,0.0,-0.06703810594685411,0.0,0,0,0,0,0,-0.08667968578538653,0,0.0,0.0,0.0,0.0,0.0,5.46896820099535,0.0
760,0.0,0.0,0.0,0.0,0.0,-0.06889079082530447,0.0,0,0,0,0,0,-0.08911659300688775,0,0.0,0.0,0.0,0.0,0.0,9.0,0.0
761,0.0,0.0,0.0,0.0,0.0,-0.07030690611481027,0.0,0,0,0,0,0,-0.09131080677494786,0,0.0,0.0,0.0,0.0,0.0,3.7081061697091027,0.0
762,0.0,0.0,0.0,0.0,0.0,-0.0720631175562545,0.0,0,0,0,0,0,-0.09286327502710486,0,0.0,0.0,0.0,0.0,0.0,6.954942073645061,0.0
763,0.0,0.0,0.0,0.0,0.0,-0.0720631175562545,0.0,0,0,0,0,0,-0.09438994088100303,0,0.0,0.0,0.0,0.0,0.0,6.954942073645061,0.0
764,0.0,0.0,0.0,0.0,0.0,-0.07572439759395522,0.0,0,0,0,0,0,-0.09748001056437226,0,0.0,0.0,0.0,0.0,0.0,2.5891297212492357,0.0
765,0.0,0.0,0.0,0.0,0.0,-0.07928438827485529,0.0,0,0,0,0,0,-0.10066166115693227,0,0.0,0.0,0.0,0.0,0.0,3.0490448332009175,0.0
766,0.0,0.0,0.0,0.0,0.0,-0.08103476691357159,0.0,0,0,0,0,0,-0.1021944228150065,0,0.0,0.0,0.0,0.0,0.0,-9.0,0.0
767,0.0,0.0,0.0,0.0,0.0,-0.08443323345987075,0.0,0,0,0,0,0,-0.10528827851929139,0,0.0,0.0,0.0,0.0,0.0,5.934452080131879,0.0
768,0.0,0.0,0.0,0.0,0.0,-0.08642666740136029,0.0,0,0,0,0,0,-0.10732771074319279,0,0.0,0.0,0.0,0.0,0.0,2.12316729744622,0.0
769,0.0,0.0,0.0,0.0,0.0,-0.08982134420539634,0.0,0,0,0,0,0,-0.10918434918055839,0,0.0,0.0,0.0,0.0,0.0,7.816737814020783,0.0
770,0.0,0.0,0.0,0.0,0.0,-0.09132440191081415,0.0,0,0,0,0,0,-0.1114039669767165,0,0.0,0.0,0.0,0.0,0.0,5.187529786113835,0.0
771,0.0,0.0,0.0,0.0,0.0,-0.09325667852655783,0.0,0,0,0,0,0,-0.11298979272874016,0,0.0,0.0,0.0,0.0,0.0,1.6685669671257826,0.0
772,0.0,0.0,0.0,0.0,0.0,-0.095037678532921,0.0,0,0,0,0,0,-0.11476856044694649,0,0.0,0.0,0.0,0.0,0.0,-0.864433302499547,0.0
773,0.0,0.0,0.0,0.0,0.0,-0.09801293689268142,0.0,0,0,0,0,0,-0.11845800862954102,0,0.0,0.0,0.0,0.0,0.0,3.1394393792640427,0.0
774,0.0,0.0,0.0,0.0,0.0,-0.10111712792083338,0.0,0,0,0,0,0,-0.12001669472105098,0,0.0,0.0,0.0,0.0,0.0,7.7221881107515,0.0
775,0.0,0.0,0.0,0.0,0.0,-0.10288883341304711,0.0,0,0,0,0,0,-0.12151713835501993,0,0.0,0.0,0.0,0.0,0.0,9.0,0.0
776,0.0,0.0,0.0,0.0,0.0,-0.10472011730728781,0.0,0,0,0,0,0,-0.12444785445558904,0,0.0,0.0,0.0,0.0,0.0,4.002637013490861,0.0
777,0.0,0.0,0.0,0.0,0.0,-0.1074404961271469,0.0,0,0,0,0,0,-0.12612972378835385,0,0.0,0.0,0.0,0.0,0.0,2.1337763236004017,0.0
778,0.0,0.0,0.0,0.0,0.0,-0.10888015218473512,0.0,0,0,0,0,0,-0.12762878012792656,0,0.0,0.0,0.0,0.0,0.0,7.183481362243081,0.0
779,0.0,0.0,0.0,0.0,0.0,-0.11027662223454371,0.0,0,0,0,0,0,-0.12925985762004888,0,0.0,0.0,0.0,0.0,0.0,3.8717702177943734,0.0
780,0.0,0.0,0.0,0.0,0.0,-0.11245914074530639,0.0,0,0,0,0,0,-0.13112756976014367,0,0.0,0.0,0.0,0.0,0.0,-6.1482246092982145,0.0
781,0.0,0.0,0.0,0.0,0.0,-0.11407067430274243,0.0,0,0,0,0,0,-0.13276352877530956,0,0.0,0.0,0.0,0.0,0.0,3.8038566814229107,0.0
782,0.0,0.0,0.0,0.0,0.0,-0.11549639100288012,0.0,0,0,0,0,0,-0.13479487507736743,0,0.0,0.0,0.0,0.0,0.0,7.722100796864675,0.0
783,0.0,0.0,0.0,0.0,0.0,-0.11868726059967294,0.0,0,0,0,0,0,-0.13717197240682122,0,0.0,0.0,0.0,0.0,0.0,4.42148653716141,0.0
784,0.0,0.0,0.0,0.0,0.0,-0.11868726059967294,0.0,0,0,0,0,0,-0.13885191545106157,0,0.0,0.0,0.0,0.0,0.0,4.42148653716141,0.0
785,0.0,0.0,0.0,0.0,0.0,-0.12043287111977641,0.0,0,0,0,0,0,-0.14040896367154962,0,0.0,0.0,0.0,0.0,0.0,3.2389482361656157,0.0
786,0.0,0.0,0.0,0.0,0.0,-0.1237646454704322,0.0,0,0,0,0,0,-0.14310153073810963,0,0.0,0.0,0.0,0.0,0.0,7.392875419459129,0.0
787,0.0,0.0,0.0,0.0,0.0,-0.1255151695998249,0.0,0,0,0,0,0,-0.14476565489184887,0,0.0,0.0,0.0,0.0,0.0,9.0,0.0
788,0.0,0.0,0.0,0.0,0.0,-0.12690801316358868,0.0,0,0,0,0,0,-0.14622776005842394,0,0.0,0.0,0.0,0.0,0.0,3.636005814656542,0.0
789,0.0,0.0,0.0,0.0,0.0,-0.13001994047849674,0.0,0,0,0,0,0,-0.147849982308073,0,0.0,0.0,0.0,0.0,0.0,4.608375646816057,0.0
790,0.0,0.0,0.0,0.0,0.0,-0.1312921031195442,0.0,0,0,0,0,0,-0.1495018831397866,0,0.0,0.0,0.0,0.0,0.0,5.03303804433499,0.0
791,0.0,0.0,0.0,0.0,0.0,-0.1312921031195442,0.0,0,0,0,0,0,-0.15078407097478375,0,0.0,0.0,0.0,0.0,0.0,5.03303804433499,0.0
792,0.0,0.0,0.0,0.0,0.0,-0.13261248117884872,0.0,0,0,0,0,0,-0.1524716680329108,0,0.0,0.0,0.0,0.0,0.0,3.4832907735228265,0.0
793,0.0,0.0,0.0,0.0,0.0,-0.13408271291818874,0.0,0,0,0,0,0,-0.15383598907967666,0,0.0,0.0,0.0,0.0,0.0,5.9174024177781614,0.0
794,0.0,0.0,0.0,0.0,0.0,-0.1356452881359429,0.0,0,0,0,0,0,-0.15512751786677428,0,0.0,0.0,0.0,0.0,0.0,1.3070029280284714,0.0
795,0.0,0.0,0.0,0.0,0.0,-0.13862223236001636,0.0,0,0,0,0,0,-0.15781787103496353,0,0.0,0.0,0.0,0.0,0.0,3.6364763343334627,0.0
796,0.0,0.0,0.0,0.0,0.0,-0.1414010369296994,0.0,0,0,0,0,0,-0.1599081494771319,0,0.0,0.0,0.0,0.0,0.0,3.143332185998583,0.0
797,0.0,0.0,0.0,0.0,0.0,-0.1427506828877858,0.0,0,0,0,0,0,-0.16194582049731626,0,0.0,0.0,0.0,0.0,0.0,2.3963669277288835,0.0
798,0.0,0.0,0.0,0.0,0.0,-0.1458705827421083,0.0,0,0,0,0,0,-0.16451758944160724,0,0.0,0.0,0.0,0.0,0.0,4.69208077341116,0.0
799,0.0,0.0,0.0,0.0,0.0,-0.14750457859698152,0.0,0,0,0,0,0,-0.16647611304986773,0,0.0,0.0,0.0,0.0,0.0,-1.7095374660447622,0.0
800,0.0,0.0,0.0,0.0,0.0,-0.1501548222233442,0.0,0,0,0,0,0,-0.16982770808896983,0,0.0,0.0,0.0,0.0,0.0,5.994582368532281,0.0
801,0.0,0.0,0.0,0.0,0.0,-0.15297300493521782,0.0,0,0,0,0,0,-0.17319716834137608,0,0.0,0.0,0.0,0.0,0.0,3.0769244802376687,0.0
802,0.0,0.0,0.0,0.0,0.0,-0.15608123949680586,0.0,0,0,0,0,0,-0.17544236029020893,0,0.0,0.0,0.0,0.0,0.0,7.720723110187659,0.0
803,0.0,0.0,0.0,0.0,0.0,-0.15785419352668395,0.0,0,0,0,0,0,-0.17710207535368389,0,0.0,0.0,0.0,0.0,0.0,9.0,0.0
804,0.0,0.0,0.0,0.0,0.0,-0.15947231952519392,0.0,0,0,0,0,0,-0.1789506470543026,0,0.0,0.0,0.0,0.0,0.0,-9.0,0.0
805,0.0,0.0,0.0,0.0,0.0,-0.16240232584711922,0.0,0,0,0,0,0,-0.18195758746899537,0,0.0,0.0,0.0,0.0,0.0,6.6674643703684415,0.0
806,0.0,0.0,0.0,0.0,0.0,-0.163945371867106,0.0,0,0,0,0,0,-0.18348938986646293,0,0.0,0.0,0.0,0.0,0.0,-9.0,0.0
807,0.0,0.0,0.0,0.0,0.0,-0.16720308662316619,0.0,0,0,0,0,0,-0.18635852709629155,0,0.0,0.0,0.0,0.0,0.0,3.5377480210136265,0.0
808,0.0,0.0,0.0,0.0,0.0,-0.16896717714567266,0.0,0,0,0,0,0,-0.1877975674962515,0,0.0,0.0,0.0,0.0,0.0,9.0,0.0
809,0.0,0.0,0.0,0.0,0.0,-0.17033982576393125,0.0,0,0,0,0,0,-0.18911531931828024,0,0.0,0.0,0.0,0.0,0.0,3.6642038561340167,0.0
810,0.0,0.0,0.0,0.0,0.0,-0.17345195936258495,0.0,0,0,0,0,0,-0.1914277783516923,0,0.0,0.0,0.0,0.0,0.0,4.768015016509103,0.0
811,0.0,0.0,0.0,0.0,0.0,-0.17636207785179359,0.0,0,0,0,0,0,-0.1931257544050563,0,0.0,0.0,0.0,0.0,0.0,3.9944720512651495,0.0
812,0.0,0.0,0.0,0.0,0.0,-0.17795707641927816,0.0,0,0,0,0,0,-0.19513466274963845,0,0.0,0.0,0.0,0.0,0.0,5.653598197586639,0.0
813,0.0,0.0,0.0,0.0,0.0,-0.17944606621172277,0.0,0,0,0,0,0,-0.19662438866090357,0,0.0,0.0,0.0,0.0,0.0,-2.3742683083697154,0.0
814,0.0,0.0,0.0,0.0,0.0,-0.18303257296091857,0.0,0,0,0,0,0,-0.2000224744048869,0,0.0,0.0,0.0,0.0,0.0,4.839424516665557,0.0
815,0.0,0.0,0.0,0.0,0.0,-0.18425684573368972,0.0,0,0,0,0,0,-0.20153541491788937,0,0.0,0.0,0.0,0.0,0.0,2.159661601994447,0.0
816,0.0,0.0,0.0,0.0,0.0,-0.18699802016701383,0.0,0,0,0,0,0,-0.20432692477898873,0,0.0,0.0,0.0,0.0,0.0,6.885049636283939,0.0
817,0.0,0.0,0.0,0.0,0.0,-0.18849617982576028,0.0,0,0,0,0,0,-0.20545421510078657,0,0.0,0.0,0.0,0.0,0.0,-2.0413571285957315,0.0
818,0.0,0.0,0.0,0.0,0.0,-0.18849617982576028,0.0,0,0,0,0,0,-0.20679514853422726,0,0.0,0.0,0.0,0.0,0.0,-2.0413571285957315,0.0
819,0.0,0.0,0.0,0.0,0.0,-0.18977499121021424,0.0,0,0,0,0,0,-0.20804314478061361,0,0.0,0.0,0.0,0.0,0.0,5.107546709722763,0.0
820,0.0,0.0,0.0,0.0,0.0,-0.19115831659622096,0.0,0,0,0,0,0,-0.2094027188876086,0,0.0,0.0,0.0,0.0,0.0,4.1342481059795855,0.0
821,0.0,0.0,0.0,0.0,0.0,-0.19407763890697183,0.0,0,0,0,0,0,-0.21120889589678746,0,0.0,0.0,0.0,0.0,0.0,6.255207658831473,0.0
822,0.0,0.0,0.0,0.0,0.0,-0.19407763890697183,0.0,0,0,0,0,0,-0.21202797601918238,0,0.0,0.0,0.0,0.0,0.0,6.255207658831473,0.0
823,0.0,0.0,0.0,0.0,0.0,-0.19694141285728062,0.0,0,0,0,0,0,-0.21407652130426105,0,0.0,0.0,0.0,0.0,0.0,3.7397403036418932,0.0
824,0.0,0.0,0.0,0.0,0.0,-0.1995296535410871,0.0,0,0,0,0,0,-0.21600720663573655,0,0.0,0.0,0.0,0.0,0.0,8.530757718838771,0.0
825,0.0,0.0,0.0,0.0,0.0,-0.20066197182426126,0.0,0,0,0,0,0,-0.2173577390055774,0,0.0,0.0,0.0,0.0,0.0,5.594917318118133,0.0
826,0.0,0.0,0.0,0.0,0.0,-0.20066197182426126,0.0,0,0,0,0,0,-0.21860920508576176,0,0.0,0.0,0.0,0.0,0.0,5.594917318118133,0.0
827,0.0,0.0,0.0,0.0,0.0,-0.20235935438857933,0.0,0,0,0,0,0,-0.21982193812272277,0,0.0,0.0,0.0,0.0,0.0,9.0,0.0
828,0.0,0.0,0.0,0.0,0.0,-0.20509762617163307,0.0,0,0,0,0,0,-0.22137521088598533,0,0.0,0.0,0.0,0.0,0.0,5.146175772224743,0.0
829,0.0,0.0,0.0,0.0,0.0,-0.20764149453804936,0.0,0,0,0,0,0,-0.22350345098718952,0,0.0,0.0,0.0,0.0,0.0,5.8889067572689715,0.0
830,0.0,0.0,0.0,0.0,0.0,-0.20902485881300237,0.0,0,0,0,0,0,-0.22465772206719267,0,0.0,0.0,0.0,0.0,0.0,-3.5580745715466358,0.0
831,0.0,0.0,0.0,0.0,0.0,-0.21007778396394983,0.0,0,0,0,0,0,-0.2254813981283798,0,0.0,0.0,0.0,0.0,0.0,3.983699625961737,0.0
832,0.0,0.0,0.0,0.0,0.0,-0.21007778396394983,0.0,0,0,0,0,0,-0.22645051345932415,0,0.0,0.0,0.0,0.0,0.0,3.983699625961737,0.0
833,0.0,0.0,0.0,0.0,0.0,-0.21175122417429915,0.0,0,0,0,0,0,-0.22741529990548323,0,0.0,0.0,0.0,0.0,0.0,-9.0,0.0
834,0.0,0.0,0.0,0.0,0.0,-0.21320301528874364,0.0,0,0,0,0,0,-0.22881628258337594,0,0.0,0.0,0.0,0.0,0.0,-9.0,0.0
835,0.0,0.0,0.0,0.0,0.0,-0.21427777078172205,0.0,0,0,0,0,0,-0.22993454983057132,0,0.0,0.0,0.0,0.0,0.0,3.797619709652431,0.0
836,0.0,0.0,0.0,0.0,0.0,-0.21565108137667455,0.0,0,0,0,0,0,-0.23142500699437818,0,0.0,0.0,0.0,0.0,0.0,3.6739788889833687,0.0
837,0.0,0.0,0.0,0.0,0.0,-0.21666047526977206,0.0,0,0,0,0,0,-0.23265595318654503,0,0.0,0.0,0.0,0.0,0.0,5.618177942521649,0.0
838,0.0,0.0,0.0,0.0,0.0,-0.21806698953888848,0.0,0,0,0,0,0,-0.2337879297021336,0,0.0,0.0,0.0,0.0,0.0,2.7526356777617393,0.0
839,0.0,0.0,0.0,0.0,0.0,-0.21950015244811816,0.0,0,0,0,0,0,-0.23496336340884832,0,0.0,0.0,0.0,0.0,0.0,-3.4919240691339,0.0
840,0.0,0.0,0.0,0.0,0.0,-0.22136064188110982,0.0,0,0,0,0,0,-0.23606877245342922,0,0.0,0.0,0.0,0.0,0.0,6.184372730580199,0.0
841,0.0,0.0,0.0,0.0,0.0,-0.2223385821707593,0.0,0,0,0,0,0,-0.2370557347323862,0,0.0,0.0,0.0,0.0,0.0,4.25113604898347,0.0
842,0.0,0.0,0.0,0.0,0.0,-0.2233543028152276,0.0,0,0,0,0,0,-0.2381562666736654,0,0.0,0.0,0.0,0.0,0.0,7.088929600819968,0.0
843,0.0,0.0,0.0,0.0,0.0,-0.2247339509269306,0.0,0,0,0,0,0,-0.23972226666500818,0,0.0,0.0,0.0,0.0,0.0,-4.63855455813284,0.0
844,0.0,0.0,0.0,0.0,0.0,-0.22706395213594455,0.0,0,0,0,0,0,-0.24127738730290732,0,0.0,0.0,0.0,0.0,0.0,2.9340456470514154,0.0
845,0.0,0.0,0.0,0.0,0.0,-0.22790366566859088,0.0,0,0,0,0,0,-0.24270799877769966,0,0.0,0.0,0.0,0.0,0.0,6.231846716049908,0.0
846,0.0,0.0,0.0,0.0,0.0,-0.23033999548511197,0.0,0,0,0,0,0,-0.2442365469340028,0,0.0,0.0,0.0,0.0,0.0,3.7673644411009253,0.0
847,0.0,0.0,0.0,0.0,0.0,-0.23156718170675905,0.0,0,0,0,0,0,-0.24605362251767954,0,0.0,0.0,0.0,0.0,0.0,3.725605196803757,0.0
848,0.0,0.0,0.0,0.0,0.0,-0.2334410530466604,0.0,0,0,0,0,0,-0.24805885883358123,0,0.0,0.0,0.0,0.0,0.0,5.804305323374574,0.0
849,0.0,0.0,0.0,0.0,0.0,-0.2346937545216221,0.0,0,0,0,0,0,-0.2495237901867065,0,0.0,0.0,0.0,0.0,0.0,-2.677407547839504,0.0
850,0.0,0.0,0.0,0.0,0.0,-0.23748480268857186,0.0,0,0,0,0,0,-0.252040461634671,0,0.0,0.0,0.0,0.0,0.0,5.677672336937431,0.0
851,0.0,0.0,0.0,0.0,0.0,-0.23873726182180555,0.0,0,0,0,0,0,-0.2535281943240332,0,0.0,0.0,0.0,0.0,0.0,8.744841759309232,0.0
852,0.0,0.0,0.0,0.0,0.0,-0.24102970916611888,0.0,0,0,0,0,0,-0.2552159136487828,0,0.0,0.0,0.0,0.0,0.0,6.156970482889737,0.0
853,0.0,0.0,0.0,0.0,0.0,-0.24208067264511968,0.0,0,0,0,0,0,-0.2562827631086536,0,0.0,0.0,0.0,0.0,0.0,-9.0,0.0
854,0.0,0.0,0.0,0.0,0.0,-0.24208067264511968,0.0,0,0,0,0,0,-0.25713010304430495,0,0.0,0.0,0.0,0.0,0.0,-9.0,0.0
855,0.0,0.0,0.0,0.0,0.0,-0.24367635618256678,0.0,0,0,0,0,0,-0.2584845470660295,0,0.0,0.0,0.0,0.0,0.0,-1.3061501857305453,0.0
856,0.0,0.0,0.0,0.0,0.0,-0.24555806957318982,0.0,0,0,0,0,0,-0.25951269469428273,0,0.0,0.0,0.0,0.0,0.0,4.038969587543602,0.0
857,0.0,0.0,0.0,0.0,0.0,-0.24653433250032197,0.0,0,0,0,0,0,-0.26071190013122664,0,0.0,0.0,0.0,0.0,0.0,4.736013240482369,0.0
858,0.0,0.0,0.0,0.0,0.0,-0.24749790285007212,0.0,0,0,0,0,0,-0.2616425455311667,0,0.0,0.0,0.0,0.0,0.0,6.451703257368609,0.0
859,0.0,0.0,0.0,0.0,0.0,-0.24846188241187228,0.0,0,0,0,0,0,-0.262899916422453,0,0.0,0.0,0.0,0.0,0.0,3.4066312173839175,0.0
860,0.0,0.0,0.0,0.0,0.0,-0.2503396792126331,0.0,0,0,0,0,0,-0.26387985499281663,0,0.0,0.0,0.0,0.0,0.0,5.8345254595993055,0.0
861,0.0,0.0,0.0,0.0,0.0,-0.25125001654822743,0.0,0,0,0,0,0,-0.265151570876964,0,0.0,0.0,0.0,0.0,0.0,5.912268194117299,0.0
862,0.0,0.0,0.0,0.0,0.0,-0.2523675966185275,0.0,0,0,0,0,0,-0.26657767345021915,0,0.0,0.0,0.0,0.0,0.0,-9.0,0.0
863,0.0,0.0,0.0,0.0,0.0,-0.2541499355421539,0.0,0,0,0,0,0,-0.26772291650193425,0,0.0,0.0,0.0,0.0,0.0,2.547795889058006,0.0
864,0.0,0.0,0.0,0.0,0.0,-0.2552575005460618,0.0,0,0,0,0,0,-0.2685465416098601,0,0.0,0.0,0.0,0.0,0.0,-9.0,0.0
865,0.0,0.0,0.0,0.0,0.0,-0.2552575005460618,0.0,0,0,0,0,0,-0.26940542774212956,0,0.0,0.0,0.0,0.0,0.0,-9.0,0.0
866,0.0,0.0,0.0,0.0,0.0,-0.25754789663823185,0.0,0,0,0,0,0,-0.2705852593960287,0,0.0,0.0,0.0,0.0,0.0,-2.455690979190931,0.0
867,0.0,0.0,0.0,0.0,0.0,-0.26011252658270134,0.0,0,0,0,0,0,-0.2723298528731914,0,0.0,0.0,0.0,0.0,0.0,5.048378476468412,0.0
868,0.0,0.0,0.0,0.0,0.0,-0.2611129866805282,0.0,0,0,0,0,0,-0.2732636233415417,0,0.0,0.0,0.0,0.0,0.0,-2.5878970415473423,0.0
869,0.0,0.0,0.0,0.0,0.0,-0.26318179007604225,0.0,0,0,0,0,0,-0.27485754963596576,0,0.0,0.0,0.0,0.0,0.0,5.2511576865912035,0.0
870,0.0,0.0,0.0,0.0,0.0,-0.26318179007604225,0.0,0,0,0,0,0,-0.27543763936519244,0,0.0,0.0,0.0,0.0,0.0,5.2511576865912035,0.0
871,0.0,0.0,0.0,0.0,0.0,-0.2642341086936346,0.0,0,0,0,0,0,-0.27608261743755075,0,0.0,0.0,0.0,0.0,0.0,8.498131494166971,0.0
872,0.0,0.0,0.0,0.0,0.0,-0.26512731700553793,0.0,0,0,0,0,0,-0.2769056316965714,0,0.0,0.0,0.0,0.0,0.0,7.483896806187176,0.0
