EmanuelSamir/lab201_ws_projsamir/sawyer_dev/data/sawyer/vel_sin_motion/test_joint4/prediction_data_joint4.csv
,j1,j2,j3,j4,j5,j6,j7,v1,v2,v3,v4,v5,v6,v7,jd1,jd2,jd3,jd4,jd5,jd6,jd7,e1,e2,e3,e4,e5,e6,e7
0,0.0,0.0,0.0,0.0,0.0,0.0,0.0,0.0,0.0,0.0,0.0,0.0,0.0,0.0,0.0,0.0,0.0,0.0,0.0,0.0,0.0,0.0,0.0,0.0,0.0,0.0,0.0,0.0
1,0.0,0.0,0.0,-0.0041240234375,0.0,0.0,0.0,0.0,0.0,0.0,-0.001,0.0,0.0,0.0,0.0,0.0,0.0,0.00010255629875908857,0.0,0.0,0.0,0.0,0.0,0.0,-13.88,0.0,0.0,0.0
2,0.0,0.0,0.0,-0.0041240234375,0.0,0.0,0.0,0.0,0.0,0.0,-0.001,0.0,0.0,0.0,0.0,0.0,0.0,0.005843920026636701,0.0,0.0,0.0,0.0,0.0,0.0,-13.88,0.0,0.0,0.0
3,0.0,0.0,0.0,-0.0041240234375,0.0,0.0,0.0,0.0,0.0,0.0,-0.001,0.0,0.0,0.0,0.0,0.0,0.0,0.013311623215815456,0.0,0.0,0.0,0.0,0.0,0.0,-13.904,0.0,0.0,0.0
4,0.0,0.0,0.0,-0.0041240234375,0.0,0.0,0.0,0.0,0.0,0.0,-0.001,0.0,0.0,0.0,0.0,0.0,0.0,0.020813551253768613,0.0,0.0,0.0,0.0,0.0,0.0,-13.88,0.0,0.0,0.0
5,0.0,0.0,0.0,-0.0035458984375,0.0,0.0,0.0,0.0,0.0,0.0,0.015,0.0,0.0,0.0,0.0,0.0,0.0,0.02813195806891875,0.0,0.0,0.0,0.0,0.0,0.0,-12.6,0.0,0.0,0.0
6,0.0,0.0,0.0,-0.0013720703125,0.0,0.0,0.0,0.0,0.0,0.0,0.12,0.0,0.0,0.0,0.0,0.0,0.0,0.035507510516527854,0.0,0.0,0.0,0.0,0.0,0.0,-11.18,0.0,0.0,0.0
7,0.0,0.0,0.0,0.00166796875,0.0,0.0,0.0,0.0,0.0,0.0,0.256,0.0,0.0,0.0,0.0,0.0,0.0,0.04303064067631162,0.0,0.0,0.0,0.0,0.0,0.0,-10.84,0.0,0.0,0.0
8,0.0,0.0,0.0,0.0054306640625,0.0,0.0,0.0,0.0,0.0,0.0,0.328,0.0,0.0,0.0,0.0,0.0,0.0,0.05032981664652294,0.0,0.0,0.0,0.0,0.0,0.0,-10.244,0.0,0.0,0.0
9,0.0,0.0,0.0,0.0100693359375,0.0,0.0,0.0,0.0,0.0,0.0,0.422,0.0,0.0,0.0,0.0,0.0,0.0,0.057629628441420375,0.0,0.0,0.0,0.0,0.0,0.0,-10.448,0.0,0.0,0.0
10,0.0,0.0,0.0,0.01499609375,0.0,0.0,0.0,0.0,0.0,0.0,0.486,0.0,0.0,0.0,0.0,0.0,0.0,0.0650040016045695,0.0,0.0,0.0,0.0,0.0,0.0,-9.856,0.0,0.0,0.0
11,0.0,0.0,0.0,0.0202109375,0.0,0.0,0.0,0.0,0.0,0.0,0.497,0.0,0.0,0.0,0.0,0.0,0.0,0.07212211734089254,0.0,0.0,0.0,0.0,0.0,0.0,-9.328,0.0,0.0,0.0
12,0.0,0.0,0.0,0.0264375,0.0,0.0,0.0,0.0,0.0,0.0,0.565,0.0,0.0,0.0,0.0,0.0,0.0,0.07930297952420279,0.0,0.0,0.0,0.0,0.0,0.0,-9.032,0.0,0.0,0.0
13,0.0,0.0,0.0,0.0264375,0.0,0.0,0.0,0.0,0.0,0.0,0.565,0.0,0.0,0.0,0.0,0.0,0.0,0.08650854233141997,0.0,0.0,0.0,0.0,0.0,0.0,-9.032,0.0,0.0,0.0
14,0.0,0.0,0.0,0.0397646484375,0.0,0.0,0.0,0.0,0.0,0.0,0.661,0.0,0.0,0.0,0.0,0.0,0.0,0.09475336156646352,0.0,0.0,0.0,0.0,0.0,0.0,-10.84,0.0,0.0,0.0
15,0.0,0.0,0.0,0.046568359375,0.0,0.0,0.0,0.0,0.0,0.0,0.682,0.0,0.0,0.0,0.0,0.0,0.0,0.10058796268531305,0.0,0.0,0.0,0.0,0.0,0.0,-11.112,0.0,0.0,0.0
16,0.0,0.0,0.0,0.0532373046875,0.0,0.0,0.0,0.0,0.0,0.0,0.687,0.0,0.0,0.0,0.0,0.0,0.0,0.10781416501269324,0.0,0.0,0.0,0.0,0.0,0.0,-10.588,0.0,0.0,0.0
17,0.0,0.0,0.0,0.060626953125,0.0,0.0,0.0,0.0,0.0,0.0,0.691,0.0,0.0,0.0,0.0,0.0,0.0,0.11453741354329795,0.0,0.0,0.0,0.0,0.0,0.0,-9.604,0.0,0.0,0.0
18,0.0,0.0,0.0,0.0680087890625,0.0,0.0,0.0,0.0,0.0,0.0,0.753,0.0,0.0,0.0,0.0,0.0,0.0,0.12141711291899923,0.0,0.0,0.0,0.0,0.0,0.0,-11.252,0.0,0.0,0.0
19,0.0,0.0,0.0,0.074830078125,0.0,0.0,0.0,0.0,0.0,0.0,0.708,0.0,0.0,0.0,0.0,0.0,0.0,0.12809838909514357,0.0,0.0,0.0,0.0,0.0,0.0,-11.684,0.0,0.0,0.0
20,0.0,0.0,0.0,0.0822109375,0.0,0.0,0.0,0.0,0.0,0.0,0.712,0.0,0.0,0.0,0.0,0.0,0.0,0.13482839129374086,0.0,0.0,0.0,0.0,0.0,0.0,-12.784,0.0,0.0,0.0
21,0.0,0.0,0.0,0.0891591796875,0.0,0.0,0.0,0.0,0.0,0.0,0.727,0.0,0.0,0.0,0.0,0.0,0.0,0.1414212100534343,0.0,0.0,0.0,0.0,0.0,0.0,-12.784,0.0,0.0,0.0
22,0.0,0.0,0.0,0.096125,0.0,0.0,0.0,0.0,0.0,0.0,0.697,0.0,0.0,0.0,0.0,0.0,0.0,0.14791114489240695,0.0,0.0,0.0,0.0,0.0,0.0,-13.08,0.0,0.0,0.0
23,0.0,0.0,0.0,0.103064453125,0.0,0.0,0.0,0.0,0.0,0.0,0.708,0.0,0.0,0.0,0.0,0.0,0.0,0.15433842103422096,0.0,0.0,0.0,0.0,0.0,0.0,-14.796,0.0,0.0,0.0
24,0.0,0.0,0.0,0.1098681640625,0.0,0.0,0.0,0.0,0.0,0.0,0.679,0.0,0.0,0.0,0.0,0.0,0.0,0.16099608230774645,0.0,0.0,0.0,0.0,0.0,0.0,-14.864,0.0,0.0,0.0
25,0.0,0.0,0.0,0.117123046875,0.0,0.0,0.0,0.0,0.0,0.0,0.709,0.0,0.0,0.0,0.0,0.0,0.0,0.16698019254720786,0.0,0.0,0.0,0.0,0.0,0.0,-14.932,0.0,0.0,0.0
26,0.0,0.0,0.0,0.1240712890625,0.0,0.0,0.0,0.0,0.0,0.0,0.721,0.0,0.0,0.0,0.0,0.0,0.0,0.17302757567297297,0.0,0.0,0.0,0.0,0.0,0.0,-14.084,0.0,0.0,0.0
27,0.0,0.0,0.0,0.13073046875,0.0,0.0,0.0,0.0,0.0,0.0,0.688,0.0,0.0,0.0,0.0,0.0,0.0,0.1790687725832725,0.0,0.0,0.0,0.0,0.0,0.0,-15.16,0.0,0.0,0.0
28,0.0,0.0,0.0,0.1369658203125,0.0,0.0,0.0,0.0,0.0,0.0,0.643,0.0,0.0,0.0,0.0,0.0,0.0,0.18520711757130134,0.0,0.0,0.0,0.0,0.0,0.0,-15.32,0.0,0.0,0.0
29,0.0,0.0,0.0,0.1440576171875,0.0,0.0,0.0,0.0,0.0,0.0,0.669,0.0,0.0,0.0,0.0,0.0,0.0,0.19078371475635775,0.0,0.0,0.0,0.0,0.0,0.0,-15.528,0.0,0.0,0.0
30,0.0,0.0,0.0,0.1504375,0.0,0.0,0.0,0.0,0.0,0.0,0.678,0.0,0.0,0.0,0.0,0.0,0.0,0.19650875474230747,0.0,0.0,0.0,0.0,0.0,0.0,-15.092,0.0,0.0,0.0
31,0.0,0.0,0.0,0.15725,0.0,0.0,0.0,0.0,0.0,0.0,0.653,0.0,0.0,0.0,0.0,0.0,0.0,0.2021122821468778,0.0,0.0,0.0,0.0,0.0,0.0,-15.548,0.0,0.0,0.0
32,0.0,0.0,0.0,0.16333203125,0.0,0.0,0.0,0.0,0.0,0.0,0.666,0.0,0.0,0.0,0.0,0.0,0.0,0.20748360557766318,0.0,0.0,0.0,0.0,0.0,0.0,-17.54,0.0,0.0,0.0
33,0.0,0.0,0.0,0.1694130859375,0.0,0.0,0.0,0.0,0.0,0.0,0.597,0.0,0.0,0.0,0.0,0.0,0.0,0.21285942467009955,0.0,0.0,0.0,0.0,0.0,0.0,-16.328,0.0,0.0,0.0
34,0.0,0.0,0.0,0.1762265625,0.0,0.0,0.0,0.0,0.0,0.0,0.653,0.0,0.0,0.0,0.0,0.0,0.0,0.21803299876052706,0.0,0.0,0.0,0.0,0.0,0.0,-16.028,0.0,0.0,0.0
35,0.0,0.0,0.0,0.18201953125,0.0,0.0,0.0,0.0,0.0,0.0,0.641,0.0,0.0,0.0,0.0,0.0,0.0,0.2230478512532633,0.0,0.0,0.0,0.0,0.0,0.0,-14.588,0.0,0.0,0.0
36,0.0,0.0,0.0,0.1882451171875,0.0,0.0,0.0,0.0,0.0,0.0,0.605,0.0,0.0,0.0,0.0,0.0,0.0,0.2279846214700809,0.0,0.0,0.0,0.0,0.0,0.0,-15.228,0.0,0.0,0.0
37,0.0,0.0,0.0,0.19389453125,0.0,0.0,0.0,0.0,0.0,0.0,0.602,0.0,0.0,0.0,0.0,0.0,0.0,0.23271123111657546,0.0,0.0,0.0,0.0,0.0,0.0,-15.732,0.0,0.0,0.0
38,0.0,0.0,0.0,0.19389453125,0.0,0.0,0.0,0.0,0.0,0.0,0.602,0.0,0.0,0.0,0.0,0.0,0.0,0.23734764808581368,0.0,0.0,0.0,0.0,0.0,0.0,-15.732,0.0,0.0,0.0
39,0.0,0.0,0.0,0.20548046875,0.0,0.0,0.0,0.0,0.0,0.0,0.586,0.0,0.0,0.0,0.0,0.0,0.0,0.24179104663097192,0.0,0.0,0.0,0.0,0.0,0.0,-14.04,0.0,0.0,0.0
40,0.0,0.0,0.0,0.2106953125,0.0,0.0,0.0,0.0,0.0,0.0,0.555,0.0,0.0,0.0,0.0,0.0,0.0,0.24621518789948887,0.0,0.0,0.0,0.0,0.0,0.0,-13.88,0.0,0.0,0.0
41,0.0,0.0,0.0,0.216353515625,0.0,0.0,0.0,0.0,0.0,0.0,0.541,0.0,0.0,0.0,0.0,0.0,0.0,0.2503092758711656,0.0,0.0,0.0,0.0,0.0,0.0,-14.568,0.0,0.0,0.0
42,0.0,0.0,0.0,0.221712890625,0.0,0.0,0.0,0.0,0.0,0.0,0.553,0.0,0.0,0.0,0.0,0.0,0.0,0.2543147200397116,0.0,0.0,0.0,0.0,0.0,0.0,-15.32,0.0,0.0,0.0
43,0.0,0.0,0.0,0.2270732421875,0.0,0.0,0.0,0.0,0.0,0.0,0.537,0.0,0.0,0.0,0.0,0.0,0.0,0.2581897767283284,0.0,0.0,0.0,0.0,0.0,0.0,-14.956,0.0,0.0,0.0
44,0.0,0.0,0.0,0.232568359375,0.0,0.0,0.0,0.0,0.0,0.0,0.546,0.0,0.0,0.0,0.0,0.0,0.0,0.2620624388623555,0.0,0.0,0.0,0.0,0.0,0.0,-13.628,0.0,0.0,0.0
45,0.0,0.0,0.0,0.2382265625,0.0,0.0,0.0,0.0,0.0,0.0,0.57,0.0,0.0,0.0,0.0,0.0,0.0,0.2654535712464359,0.0,0.0,0.0,0.0,0.0,0.0,-13.032,0.0,0.0,0.0
46,0.0,0.0,0.0,0.243296875,0.0,0.0,0.0,0.0,0.0,0.0,0.542,0.0,0.0,0.0,0.0,0.0,0.0,0.26882286400359007,0.0,0.0,0.0,0.0,0.0,0.0,-12.784,0.0,0.0,0.0
47,0.0,0.0,0.0,0.2488017578125,0.0,0.0,0.0,0.0,0.0,0.0,0.527,0.0,0.0,0.0,0.0,0.0,0.0,0.2720414087546461,0.0,0.0,0.0,0.0,0.0,0.0,-13.148,0.0,0.0,0.0
48,0.0,0.0,0.0,0.2540078125,0.0,0.0,0.0,0.0,0.0,0.0,0.545,0.0,0.0,0.0,0.0,0.0,0.0,0.2751216324208559,0.0,0.0,0.0,0.0,0.0,0.0,-13.172,0.0,0.0,0.0
49,0.0,0.0,0.0,0.259232421875,0.0,0.0,0.0,0.0,0.0,0.0,0.513,0.0,0.0,0.0,0.0,0.0,0.0,0.2779891868245268,0.0,0.0,0.0,0.0,0.0,0.0,-12.232,0.0,0.0,0.0
50,0.0,0.0,0.0,0.2647373046875,0.0,0.0,0.0,0.0,0.0,0.0,0.537,0.0,0.0,0.0,0.0,0.0,0.0,0.28070138824466323,0.0,0.0,0.0,0.0,0.0,0.0,-12.188,0.0,0.0,0.0
51,0.0,0.0,0.0,0.269943359375,0.0,0.0,0.0,0.0,0.0,0.0,0.546,0.0,0.0,0.0,0.0,0.0,0.0,0.28332390956334474,0.0,0.0,0.0,0.0,0.0,0.0,-12.484,0.0,0.0,0.0
52,0.0,0.0,0.0,0.27487890625,0.0,0.0,0.0,0.0,0.0,0.0,0.518,0.0,0.0,0.0,0.0,0.0,0.0,0.2856121737635919,0.0,0.0,0.0,0.0,0.0,0.0,-13.696,0.0,0.0,0.0
53,0.0,0.0,0.0,0.2789306640625,0.0,0.0,0.0,0.0,0.0,0.0,0.463,0.0,0.0,0.0,0.0,0.0,0.0,0.28782505712877765,0.0,0.0,0.0,0.0,0.0,0.0,-14.932,0.0,0.0,0.0
54,0.0,0.0,0.0,0.28255859375,0.0,0.0,0.0,0.0,0.0,0.0,0.381,0.0,0.0,0.0,0.0,0.0,0.0,0.2898099136819337,0.0,0.0,0.0,0.0,0.0,0.0,-15.3,0.0,0.0,0.0
55,0.0,0.0,0.0,0.28558984375,0.0,0.0,0.0,0.0,0.0,0.0,0.34,0.0,0.0,0.0,0.0,0.0,0.0,0.29165386313040625,0.0,0.0,0.0,0.0,0.0,0.0,-15.8,0.0,0.0,0.0
56,0.0,0.0,0.0,0.2881982421875,0.0,0.0,0.0,0.0,0.0,0.0,0.285,0.0,0.0,0.0,0.0,0.0,0.0,0.2933015291612661,0.0,0.0,0.0,0.0,0.0,0.0,-15.984,0.0,0.0,0.0
57,0.0,0.0,0.0,0.2910947265625,0.0,0.0,0.0,0.0,0.0,0.0,0.275,0.0,0.0,0.0,0.0,0.0,0.0,0.2947717899250851,0.0,0.0,0.0,0.0,0.0,0.0,-16.556,0.0,0.0,0.0
58,0.0,0.0,0.0,0.2932783203125,0.0,0.0,0.0,0.0,0.0,0.0,0.263,0.0,0.0,0.0,0.0,0.0,0.0,0.2960700640963892,0.0,0.0,0.0,0.0,0.0,0.0,-17.54,0.0,0.0,0.0
59,0.0,0.0,0.0,0.2948662109375,0.0,0.0,0.0,0.0,0.0,0.0,0.192,0.0,0.0,0.0,0.0,0.0,0.0,0.2971733708723173,0.0,0.0,0.0,0.0,0.0,0.0,-17.196,0.0,0.0,0.0
60,0.0,0.0,0.0,0.296462890625,0.0,0.0,0.0,0.0,0.0,0.0,0.166,0.0,0.0,0.0,0.0,0.0,0.0,0.2981023637656808,0.0,0.0,0.0,0.0,0.0,0.0,-17.036,0.0,0.0,0.0
61,0.0,0.0,0.0,0.2973291015625,0.0,0.0,0.0,0.0,0.0,0.0,0.123,0.0,0.0,0.0,0.0,0.0,0.0,0.29888322398140854,0.0,0.0,0.0,0.0,0.0,0.0,-16.74,0.0,0.0,0.0
62,0.0,0.0,0.0,0.2979072265625,0.0,0.0,0.0,0.0,0.0,0.0,0.076,0.0,0.0,0.0,0.0,0.0,0.0,0.2994045029642751,0.0,0.0,0.0,0.0,0.0,0.0,-16.716,0.0,0.0,0.0
63,0.0,0.0,0.0,0.2980517578125,0.0,0.0,0.0,0.0,0.0,0.0,0.041,0.0,0.0,0.0,0.0,0.0,0.0,0.29978092309382903,0.0,0.0,0.0,0.0,0.0,0.0,-16.672,0.0,0.0,0.0
64,0.0,0.0,0.0,0.298205078125,0.0,0.0,0.0,0.0,0.0,0.0,0.021,0.0,0.0,0.0,0.0,0.0,0.0,0.2999734563182934,0.0,0.0,0.0,0.0,0.0,0.0,-16.44,0.0,0.0,0.0
65,0.0,0.0,0.0,0.2980517578125,0.0,0.0,0.0,0.0,0.0,0.0,-0.007,0.0,0.0,0.0,0.0,0.0,0.0,0.2999800539976659,0.0,0.0,0.0,0.0,0.0,0.0,-15.868,0.0,0.0,0.0
66,0.0,0.0,0.0,0.2977626953125,0.0,0.0,0.0,0.0,0.0,0.0,-0.021,0.0,0.0,0.0,0.0,0.0,0.0,0.29980233020338626,0.0,0.0,0.0,0.0,0.0,0.0,-15.344,0.0,0.0,0.0
67,0.0,0.0,0.0,0.2976181640625,0.0,0.0,0.0,0.0,0.0,0.0,-0.022,0.0,0.0,0.0,0.0,0.0,0.0,0.2994421780544366,0.0,0.0,0.0,0.0,0.0,0.0,-15.068,0.0,0.0,0.0
68,0.0,0.0,0.0,0.2976181640625,0.0,0.0,0.0,0.0,0.0,0.0,-0.01,0.0,0.0,0.0,0.0,0.0,0.0,0.29888971016491905,0.0,0.0,0.0,0.0,0.0,0.0,-14.908,0.0,0.0,0.0
69,0.0,0.0,0.0,0.2974736328125,0.0,0.0,0.0,0.0,0.0,0.0,-0.01,0.0,0.0,0.0,0.0,0.0,0.0,0.29816578063840304,0.0,0.0,0.0,0.0,0.0,0.0,-14.568,0.0,0.0,0.0
70,0.0,0.0,0.0,0.297185546875,0.0,0.0,0.0,0.0,0.0,0.0,-0.023,0.0,0.0,0.0,0.0,0.0,0.0,0.2972528176712405,0.0,0.0,0.0,0.0,0.0,0.0,-14.156,0.0,0.0,0.0
71,0.0,0.0,0.0,0.297185546875,0.0,0.0,0.0,0.0,0.0,0.0,-0.023,0.0,0.0,0.0,0.0,0.0,0.0,0.2961466545539115,0.0,0.0,0.0,0.0,0.0,0.0,-14.156,0.0,0.0,0.0
72,0.0,0.0,0.0,0.296462890625,0.0,0.0,0.0,0.0,0.0,0.0,-0.038,0.0,0.0,0.0,0.0,0.0,0.0,0.2948761376163651,0.0,0.0,0.0,0.0,0.0,0.0,-13.356,0.0,0.0,0.0
73,0.0,0.0,0.0,0.2961748046875,0.0,0.0,0.0,0.0,0.0,0.0,-0.035,0.0,0.0,0.0,0.0,0.0,0.0,0.2934124307329951,0.0,0.0,0.0,0.0,0.0,0.0,-12.944,0.0,0.0,0.0
74,0.0,0.0,0.0,0.2958857421875,0.0,0.0,0.0,0.0,0.0,0.0,-0.027,0.0,0.0,0.0,0.0,0.0,0.0,0.29176556947284876,0.0,0.0,0.0,0.0,0.0,0.0,-13.216,0.0,0.0,0.0
75,0.0,0.0,0.0,0.29501953125,0.0,0.0,0.0,0.0,0.0,0.0,-0.049,0.0,0.0,0.0,0.0,0.0,0.0,0.28995519537488573,0.0,0.0,0.0,0.0,0.0,0.0,-14.248,0.0,0.0,0.0
76,0.0,0.0,0.0,0.29356640625,0.0,0.0,0.0,0.0,0.0,0.0,-0.116,0.0,0.0,0.0,0.0,0.0,0.0,0.2879615586319031,0.0,0.0,0.0,0.0,0.0,0.0,-14.612,0.0,0.0,0.0
77,0.0,0.0,0.0,0.29181640625,0.0,0.0,0.0,0.0,0.0,0.0,-0.155,0.0,0.0,0.0,0.0,0.0,0.0,0.2857859104876027,0.0,0.0,0.0,0.0,0.0,0.0,-15.276,0.0,0.0,0.0
78,0.0,0.0,0.0,0.289939453125,0.0,0.0,0.0,0.0,0.0,0.0,-0.185,0.0,0.0,0.0,0.0,0.0,0.0,0.28342872948828135,0.0,0.0,0.0,0.0,0.0,0.0,-14.612,0.0,0.0,0.0
79,0.0,0.0,0.0,0.2879091796875,0.0,0.0,0.0,0.0,0.0,0.0,-0.199,0.0,0.0,0.0,0.0,0.0,0.0,0.28090284074431465,0.0,0.0,0.0,0.0,0.0,0.0,-14.864,0.0,0.0,0.0
80,0.0,0.0,0.0,0.28558984375,0.0,0.0,0.0,0.0,0.0,0.0,-0.215,0.0,0.0,0.0,0.0,0.0,0.0,0.27820691954020865,0.0,0.0,0.0,0.0,0.0,0.0,-14.864,0.0,0.0,0.0
81,0.0,0.0,0.0,0.283712890625,0.0,0.0,0.0,0.0,0.0,0.0,-0.209,0.0,0.0,0.0,0.0,0.0,0.0,0.2752893603288928,0.0,0.0,0.0,0.0,0.0,0.0,-15.436,0.0,0.0,0.0
82,0.0,0.0,0.0,0.28110546875,0.0,0.0,0.0,0.0,0.0,0.0,-0.218,0.0,0.0,0.0,0.0,0.0,0.0,0.2722578955056271,0.0,0.0,0.0,0.0,0.0,0.0,-16.168,0.0,0.0,0.0
83,0.0,0.0,0.0,0.278498046875,0.0,0.0,0.0,0.0,0.0,0.0,-0.278,0.0,0.0,0.0,0.0,0.0,0.0,0.2690777705679484,0.0,0.0,0.0,0.0,0.0,0.0,-15.16,0.0,0.0,0.0
84,0.0,0.0,0.0,0.2758896484375,0.0,0.0,0.0,0.0,0.0,0.0,-0.256,0.0,0.0,0.0,0.0,0.0,0.0,0.26567722090261947,0.0,0.0,0.0,0.0,0.0,0.0,-15.276,0.0,0.0,0.0
85,0.0,0.0,0.0,0.27283984375,0.0,0.0,0.0,0.0,0.0,0.0,-0.282,0.0,0.0,0.0,0.0,0.0,0.0,0.2621374274727913,0.0,0.0,0.0,0.0,0.0,0.0,-14.888,0.0,0.0,0.0
86,0.0,0.0,0.0,0.2693662109375,0.0,0.0,0.0,0.0,0.0,0.0,-0.321,0.0,0.0,0.0,0.0,0.0,0.0,0.25846040131550213,0.0,0.0,0.0,0.0,0.0,0.0,-15.504,0.0,0.0,0.0
87,0.0,0.0,0.0,0.265748046875,0.0,0.0,0.0,0.0,0.0,0.0,-0.354,0.0,0.0,0.0,0.0,0.0,0.0,0.25456632818955416,0.0,0.0,0.0,0.0,0.0,0.0,-15.64,0.0,0.0,0.0
88,0.0,0.0,0.0,0.26212890625,0.0,0.0,0.0,0.0,0.0,0.0,-0.365,0.0,0.0,0.0,0.0,0.0,0.0,0.25058138435752003,0.0,0.0,0.0,0.0,0.0,0.0,-15.48,0.0,0.0,0.0
89,0.0,0.0,0.0,0.258078125,0.0,0.0,0.0,0.0,0.0,0.0,-0.385,0.0,0.0,0.0,0.0,0.0,0.0,0.2464119609376156,0.0,0.0,0.0,0.0,0.0,0.0,-14.748,0.0,0.0,0.0
90,0.0,0.0,0.0,0.2544501953125,0.0,0.0,0.0,0.0,0.0,0.0,-0.399,0.0,0.0,0.0,0.0,0.0,0.0,0.24204064524242602,0.0,0.0,0.0,0.0,0.0,0.0,-14.064,0.0,0.0,0.0
91,0.0,0.0,0.0,0.250966796875,0.0,0.0,0.0,0.0,0.0,0.0,-0.352,0.0,0.0,0.0,0.0,0.0,0.0,0.2376164865369952,0.0,0.0,0.0,0.0,0.0,0.0,-14.864,0.0,0.0,0.0
92,0.0,0.0,0.0,0.246337890625,0.0,0.0,0.0,0.0,0.0,0.0,-0.394,0.0,0.0,0.0,0.0,0.0,0.0,0.2329450493042635,0.0,0.0,0.0,0.0,0.0,0.0,-15.548,0.0,0.0,0.0
93,0.0,0.0,0.0,0.2417001953125,0.0,0.0,0.0,0.0,0.0,0.0,-0.472,0.0,0.0,0.0,0.0,0.0,0.0,0.22822590648747085,0.0,0.0,0.0,0.0,0.0,0.0,-15.228,0.0,0.0,0.0
94,0.0,0.0,0.0,0.2372158203125,0.0,0.0,0.0,0.0,0.0,0.0,-0.458,0.0,0.0,0.0,0.0,0.0,0.0,0.22216081834632864,0.0,0.0,0.0,0.0,0.0,0.0,-15.048,0.0,0.0,0.0
95,0.0,0.0,0.0,0.2321357421875,0.0,0.0,0.0,0.0,0.0,0.0,-0.474,0.0,0.0,0.0,0.0,0.0,0.0,0.21828093628892012,0.0,0.0,0.0,0.0,0.0,0.0,-15.412,0.0,0.0,0.0
96,0.0,0.0,0.0,0.2270732421875,0.0,0.0,0.0,0.0,0.0,0.0,-0.524,0.0,0.0,0.0,0.0,0.0,0.0,0.2131011818711442,0.0,0.0,0.0,0.0,0.0,0.0,-14.428,0.0,0.0,0.0
97,0.0,0.0,0.0,0.2233017578125,0.0,0.0,0.0,0.0,0.0,0.0,-0.449,0.0,0.0,0.0,0.0,0.0,0.0,0.2078569530427696,0.0,0.0,0.0,0.0,0.0,0.0,-15.276,0.0,0.0,0.0
98,0.0,0.0,0.0,0.2233017578125,0.0,0.0,0.0,0.0,0.0,0.0,-0.449,0.0,0.0,0.0,0.0,0.0,0.0,0.20227883883351797,0.0,0.0,0.0,0.0,0.0,0.0,-15.276,0.0,0.0,0.0
99,0.0,0.0,0.0,0.2127255859375,0.0,0.0,0.0,0.0,0.0,0.0,-0.531,0.0,0.0,0.0,0.0,0.0,0.0,0.1968903942595363,0.0,0.0,0.0,0.0,0.0,0.0,-15.368,0.0,0.0,0.0
100,0.0,0.0,0.0,0.2075107421875,0.0,0.0,0.0,0.0,0.0,0.0,-0.55,0.0,0.0,0.0,0.0,0.0,0.0,0.19122396817661583,0.0,0.0,0.0,0.0,0.0,0.0,-15.024,0.0,0.0,0.0
101,0.0,0.0,0.0,0.201861328125,0.0,0.0,0.0,0.0,0.0,0.0,-0.542,0.0,0.0,0.0,0.0,0.0,0.0,0.18490905282330744,0.0,0.0,0.0,0.0,0.0,0.0,-13.924,0.0,0.0,0.0
102,0.0,0.0,0.0,0.1963662109375,0.0,0.0,0.0,0.0,0.0,0.0,-0.563,0.0,0.0,0.0,0.0,0.0,0.0,0.17951456744158112,0.0,0.0,0.0,0.0,0.0,0.0,-13.812,0.0,0.0,0.0
103,0.0,0.0,0.0,0.190708984375,0.0,0.0,0.0,0.0,0.0,0.0,-0.567,0.0,0.0,0.0,0.0,0.0,0.0,0.1732605255665321,0.0,0.0,0.0,0.0,0.0,0.0,-14.016,0.0,0.0,0.0
104,0.0,0.0,0.0,0.1854931640625,0.0,0.0,0.0,0.0,0.0,0.0,-0.546,0.0,0.0,0.0,0.0,0.0,0.0,0.16733434369619996,0.0,0.0,0.0,0.0,0.0,0.0,-14.408,0.0,0.0,0.0
105,0.0,0.0,0.0,0.1794111328125,0.0,0.0,0.0,0.0,0.0,0.0,-0.56,0.0,0.0,0.0,0.0,0.0,0.0,0.1609761200002846,0.0,0.0,0.0,0.0,0.0,0.0,-14.976,0.0,0.0,0.0
106,0.0,0.0,0.0,0.1731767578125,0.0,0.0,0.0,0.0,0.0,0.0,-0.631,0.0,0.0,0.0,0.0,0.0,0.0,0.15470261828260234,0.0,0.0,0.0,0.0,0.0,0.0,-14.476,0.0,0.0,0.0
107,0.0,0.0,0.0,0.1673828125,0.0,0.0,0.0,0.0,0.0,0.0,-0.603,0.0,0.0,0.0,0.0,0.0,0.0,0.14838815309236467,0.0,0.0,0.0,0.0,0.0,0.0,-14.976,0.0,0.0,0.0
108,0.0,0.0,0.0,0.1613017578125,0.0,0.0,0.0,0.0,0.0,0.0,-0.591,0.0,0.0,0.0,0.0,0.0,0.0,0.1418142397376675,0.0,0.0,0.0,0.0,0.0,0.0,-14.796,0.0,0.0,0.0
109,0.0,0.0,0.0,0.15594140625,0.0,0.0,0.0,0.0,0.0,0.0,-0.586,0.0,0.0,0.0,0.0,0.0,0.0,0.1352356966373266,0.0,0.0,0.0,0.0,0.0,0.0,-14.52,0.0,0.0,0.0
110,0.0,0.0,0.0,0.1502841796875,0.0,0.0,0.0,0.0,0.0,0.0,-0.548,0.0,0.0,0.0,0.0,0.0,0.0,0.12847172976828125,0.0,0.0,0.0,0.0,0.0,0.0,-15.388,0.0,0.0,0.0
111,0.0,0.0,0.0,0.1437685546875,0.0,0.0,0.0,0.0,0.0,0.0,-0.609,0.0,0.0,0.0,0.0,0.0,0.0,0.12180715195803667,0.0,0.0,0.0,0.0,0.0,0.0,-14.612,0.0,0.0,0.0
112,0.0,0.0,0.0,0.13754296875,0.0,0.0,0.0,0.0,0.0,0.0,-0.64,0.0,0.0,0.0,0.0,0.0,0.0,0.11451472828674147,0.0,0.0,0.0,0.0,0.0,0.0,-14.064,0.0,0.0,0.0
113,0.0,0.0,0.0,0.13754296875,0.0,0.0,0.0,0.0,0.0,0.0,-0.64,0.0,0.0,0.0,0.0,0.0,0.0,0.1079468927305149,0.0,0.0,0.0,0.0,0.0,0.0,-14.064,0.0,0.0,0.0
114,0.0,0.0,0.0,0.1253701171875,0.0,0.0,0.0,0.0,0.0,0.0,-0.622,0.0,0.0,0.0,0.0,0.0,0.0,0.10099952117129277,0.0,0.0,0.0,0.0,0.0,0.0,-13.356,0.0,0.0,0.0
115,0.0,0.0,0.0,0.1197216796875,0.0,0.0,0.0,0.0,0.0,0.0,-0.589,0.0,0.0,0.0,0.0,0.0,0.0,0.09391838708756578,0.0,0.0,0.0,0.0,0.0,0.0,-14.04,0.0,0.0,0.0
116,0.0,0.0,0.0,0.113486328125,0.0,0.0,0.0,0.0,0.0,0.0,-0.592,0.0,0.0,0.0,0.0,0.0,0.0,0.0869426415299371,0.0,0.0,0.0,0.0,0.0,0.0,-15.528,0.0,0.0,0.0
117,0.0,0.0,0.0,0.1071162109375,0.0,0.0,0.0,0.0,0.0,0.0,-0.644,0.0,0.0,0.0,0.0,0.0,0.0,0.07980316373270903,0.0,0.0,0.0,0.0,0.0,0.0,-14.796,0.0,0.0,0.0
118,0.0,0.0,0.0,0.1011875,0.0,0.0,0.0,0.0,0.0,0.0,-0.617,0.0,0.0,0.0,0.0,0.0,0.0,0.07258733203470685,0.0,0.0,0.0,0.0,0.0,0.0,-14.796,0.0,0.0,0.0
119,0.0,0.0,0.0,0.0949521484375,0.0,0.0,0.0,0.0,0.0,0.0,-0.614,0.0,0.0,0.0,0.0,0.0,0.0,0.06536228332949681,0.0,0.0,0.0,0.0,0.0,0.0,-13.652,0.0,0.0,0.0
120,0.0,0.0,0.0,0.08945703125,0.0,0.0,0.0,0.0,0.0,0.0,-0.598,0.0,0.0,0.0,0.0,0.0,0.0,0.05797221687244518,0.0,0.0,0.0,0.0,0.0,0.0,-13.628,0.0,0.0,0.0
121,0.0,0.0,0.0,0.08380859375,0.0,0.0,0.0,0.0,0.0,0.0,-0.548,0.0,0.0,0.0,0.0,0.0,0.0,0.05075231010771403,0.0,0.0,0.0,0.0,0.0,0.0,-14.976,0.0,0.0,0.0
122,0.0,0.0,0.0,0.0774375,0.0,0.0,0.0,0.0,0.0,0.0,-0.608,0.0,0.0,0.0,0.0,0.0,0.0,0.043443197305186775,0.0,0.0,0.0,0.0,0.0,0.0,-14.108,0.0,0.0,0.0
123,0.0,0.0,0.0,0.0717802734375,0.0,0.0,0.0,0.0,0.0,0.0,-0.607,0.0,0.0,0.0,0.0,0.0,0.0,0.03602115747697599,0.0,0.0,0.0,0.0,0.0,0.0,-14.292,0.0,0.0,0.0
124,0.0,0.0,0.0,0.0654091796875,0.0,0.0,0.0,0.0,0.0,0.0,-0.598,0.0,0.0,0.0,0.0,0.0,0.0,0.028509204386200134,0.0,0.0,0.0,0.0,0.0,0.0,-13.628,0.0,0.0,0.0
125,0.0,0.0,0.0,0.0596162109375,0.0,0.0,0.0,0.0,0.0,0.0,-0.632,0.0,0.0,0.0,0.0,0.0,0.0,0.021225011024836954,0.0,0.0,0.0,0.0,0.0,0.0,-12.896,0.0,0.0,0.0
126,0.0,0.0,0.0,0.0539677734375,0.0,0.0,0.0,0.0,0.0,0.0,-0.57,0.0,0.0,0.0,0.0,0.0,0.0,0.013823998912790623,0.0,0.0,0.0,0.0,0.0,0.0,-14.568,0.0,0.0,0.0
127,0.0,0.0,0.0,0.047876953125,0.0,0.0,0.0,0.0,0.0,0.0,-0.592,0.0,0.0,0.0,0.0,0.0,0.0,0.006375872938133124,0.0,0.0,0.0,0.0,0.0,0.0,-14.816,0.0,0.0,0.0
128,0.0,0.0,0.0,0.047876953125,0.0,0.0,0.0,0.0,0.0,0.0,-0.592,0.0,0.0,0.0,0.0,0.0,0.0,-0.0011601127318343935,0.0,0.0,0.0,0.0,0.0,0.0,-14.816,0.0,0.0,0.0
129,0.0,0.0,0.0,0.036435546875,0.0,0.0,0.0,0.0,0.0,0.0,-0.564,0.0,0.0,0.0,0.0,0.0,0.0,-0.008706007805907271,0.0,0.0,0.0,0.0,0.0,0.0,-14.908,0.0,0.0,0.0
130,0.0,0.0,0.0,0.0304892578125,0.0,0.0,0.0,0.0,0.0,0.0,-0.614,0.0,0.0,0.0,0.0,0.0,0.0,-0.016157806291460748,0.0,0.0,0.0,0.0,0.0,0.0,-13.696,0.0,0.0,0.0
131,0.0,0.0,0.0,0.02512890625,0.0,0.0,0.0,0.0,0.0,0.0,-0.566,0.0,0.0,0.0,0.0,0.0,0.0,-0.023363825775729447,0.0,0.0,0.0,0.0,0.0,0.0,-14.176,0.0,0.0,0.0
132,0.0,0.0,0.0,0.0189033203125,0.0,0.0,0.0,0.0,0.0,0.0,-0.577,0.0,0.0,0.0,0.0,0.0,0.0,-0.030847886775430967,0.0,0.0,0.0,0.0,0.0,0.0,-14.544,0.0,0.0,0.0
133,0.0,0.0,0.0,0.013263671875,0.0,0.0,0.0,0.0,0.0,0.0,-0.606,0.0,0.0,0.0,0.0,0.0,0.0,-0.03834725949974146,0.0,0.0,0.0,0.0,0.0,0.0,-13.744,0.0,0.0,0.0
134,0.0,0.0,0.0,0.00760546875,0.0,0.0,0.0,0.0,0.0,0.0,-0.562,0.0,0.0,0.0,0.0,0.0,0.0,-0.04556491350624306,0.0,0.0,0.0,0.0,0.0,0.0,-14.656,0.0,0.0,0.0
135,0.0,0.0,0.0,0.0012353515625,0.0,0.0,0.0,0.0,0.0,0.0,-0.609,0.0,0.0,0.0,0.0,0.0,0.0,-0.05299302382366037,0.0,0.0,0.0,0.0,0.0,0.0,-13.628,0.0,0.0,0.0
136,0.0,0.0,0.0,-0.0041240234375,0.0,0.0,0.0,0.0,0.0,0.0,-0.599,0.0,0.0,0.0,0.0,0.0,0.0,-0.060225230971594906,0.0,0.0,0.0,0.0,0.0,0.0,-13.924,0.0,0.0,0.0
137,0.0,0.0,0.0,-0.010359375,0.0,0.0,0.0,0.0,0.0,0.0,-0.567,0.0,0.0,0.0,0.0,0.0,0.0,-0.06754372093071702,0.0,0.0,0.0,0.0,0.0,0.0,-15.208,0.0,0.0,0.0
138,0.0,0.0,0.0,-0.01615234375,0.0,0.0,0.0,0.0,0.0,0.0,-0.622,0.0,0.0,0.0,0.0,0.0,0.0,-0.07476889959386061,0.0,0.0,0.0,0.0,0.0,0.0,-14.384,0.0,0.0,0.0
139,0.0,0.0,0.0,-0.0213671875,0.0,0.0,0.0,0.0,0.0,0.0,-0.553,0.0,0.0,0.0,0.0,0.0,0.0,-0.08193310354437608,0.0,0.0,0.0,0.0,0.0,0.0,-15.572,0.0,0.0,0.0
140,0.0,0.0,0.0,-0.02759375,0.0,0.0,0.0,0.0,0.0,0.0,-0.57,0.0,0.0,0.0,0.0,0.0,0.0,-0.08903072563533124,0.0,0.0,0.0,0.0,0.0,0.0,-14.68,0.0,0.0,0.0
141,0.0,0.0,0.0,-0.0329541015625,0.0,0.0,0.0,0.0,0.0,0.0,-0.595,0.0,0.0,0.0,0.0,0.0,0.0,-0.0961149542182164,0.0,0.0,0.0,0.0,0.0,0.0,-14.224,0.0,0.0,0.0
142,0.0,0.0,0.0,-0.0386025390625,0.0,0.0,0.0,0.0,0.0,0.0,-0.536,0.0,0.0,0.0,0.0,0.0,0.0,-0.10311295275821401,0.0,0.0,0.0,0.0,0.0,0.0,-15.092,0.0,0.0,0.0
143,0.0,0.0,0.0,-0.04497265625,0.0,0.0,0.0,0.0,0.0,0.0,-0.618,0.0,0.0,0.0,0.0,0.0,0.0,-0.11003584049177116,0.0,0.0,0.0,0.0,0.0,0.0,-14.016,0.0,0.0,0.0
144,0.0,0.0,0.0,-0.0501884765625,0.0,0.0,0.0,0.0,0.0,0.0,-0.592,0.0,0.0,0.0,0.0,0.0,0.0,-0.11695425117866554,0.0,0.0,0.0,0.0,0.0,0.0,-14.108,0.0,0.0,0.0
145,0.0,0.0,0.0,-0.056423828125,0.0,0.0,0.0,0.0,0.0,0.0,-0.561,0.0,0.0,0.0,0.0,0.0,0.0,-0.12377146393396163,0.0,0.0,0.0,0.0,0.0,0.0,-14.428,0.0,0.0,0.0
146,0.0,0.0,0.0,-0.062361328125,0.0,0.0,0.0,0.0,0.0,0.0,-0.631,0.0,0.0,0.0,0.0,0.0,0.0,-0.13048038602041698,0.0,0.0,0.0,0.0,0.0,0.0,-13.56,0.0,0.0,0.0
147,0.0,0.0,0.0,-0.067865234375,0.0,0.0,0.0,0.0,0.0,0.0,-0.567,0.0,0.0,0.0,0.0,0.0,0.0,-0.13715206268922023,0.0,0.0,0.0,0.0,0.0,0.0,-14.864,0.0,0.0,0.0
148,0.0,0.0,0.0,-0.0743896484375,0.0,0.0,0.0,0.0,0.0,0.0,-0.598,0.0,0.0,0.0,0.0,0.0,0.0,-0.14372940065921852,0.0,0.0,0.0,0.0,0.0,0.0,-14.908,0.0,0.0,0.0
149,0.0,0.0,0.0,-0.0800380859375,0.0,0.0,0.0,0.0,0.0,0.0,-0.627,0.0,0.0,0.0,0.0,0.0,0.0,-0.150207198183233,0.0,0.0,0.0,0.0,0.0,0.0,-14.384,0.0,0.0,0.0
150,0.0,0.0,0.0,-0.0856865234375,0.0,0.0,0.0,0.0,0.0,0.0,-0.55,0.0,0.0,0.0,0.0,0.0,0.0,-0.15659148084510505,0.0,0.0,0.0,0.0,0.0,0.0,-15.276,0.0,0.0,0.0
151,0.0,0.0,0.0,-0.0917685546875,0.0,0.0,0.0,0.0,0.0,0.0,-0.61,0.0,0.0,0.0,0.0,0.0,0.0,-0.1629630196127726,0.0,0.0,0.0,0.0,0.0,0.0,-13.996,0.0,0.0,0.0
152,0.0,0.0,0.0,-0.096984375,0.0,0.0,0.0,0.0,0.0,0.0,-0.568,0.0,0.0,0.0,0.0,0.0,0.0,-0.1690947804451069,0.0,0.0,0.0,0.0,0.0,0.0,-14.544,0.0,0.0,0.0
153,0.0,0.0,0.0,-0.1032099609375,0.0,0.0,0.0,0.0,0.0,0.0,-0.556,0.0,0.0,0.0,0.0,0.0,0.0,-0.17518462959875172,0.0,0.0,0.0,0.0,0.0,0.0,-14.888,0.0,0.0,0.0
154,0.0,0.0,0.0,-0.1092919921875,0.0,0.0,0.0,0.0,0.0,0.0,-0.633,0.0,0.0,0.0,0.0,0.0,0.0,-0.1811923038857458,0.0,0.0,0.0,0.0,0.0,0.0,-13.628,0.0,0.0,0.0
155,0.0,0.0,0.0,-0.1147958984375,0.0,0.0,0.0,0.0,0.0,0.0,-0.578,0.0,0.0,0.0,0.0,0.0,0.0,-0.1870975461447319,0.0,0.0,0.0,0.0,0.0,0.0,-14.2,0.0,0.0,0.0
156,0.0,0.0,0.0,-0.1213203125,0.0,0.0,0.0,0.0,0.0,0.0,-0.603,0.0,0.0,0.0,0.0,0.0,0.0,-0.19286593665144489,0.0,0.0,0.0,0.0,0.0,0.0,-13.468,0.0,0.0,0.0
157,0.0,0.0,0.0,-0.12696875,0.0,0.0,0.0,0.0,0.0,0.0,-0.619,0.0,0.0,0.0,0.0,0.0,0.0,-0.19848120917239953,0.0,0.0,0.0,0.0,0.0,0.0,-13.604,0.0,0.0,0.0
158,0.0,0.0,0.0,-0.12696875,0.0,0.0,0.0,0.0,0.0,0.0,-0.619,0.0,0.0,0.0,0.0,0.0,0.0,-0.2040360674670812,0.0,0.0,0.0,0.0,0.0,0.0,-13.604,0.0,0.0,0.0
159,0.0,0.0,0.0,-0.1391318359375,0.0,0.0,0.0,0.0,0.0,0.0,-0.621,0.0,0.0,0.0,0.0,0.0,0.0,-0.2093672768118166,0.0,0.0,0.0,0.0,0.0,0.0,-14.568,0.0,0.0,0.0
160,0.0,0.0,0.0,-0.1444921875,0.0,0.0,0.0,0.0,0.0,0.0,-0.599,0.0,0.0,0.0,0.0,0.0,0.0,-0.21463595178608652,0.0,0.0,0.0,0.0,0.0,0.0,-14.68,0.0,0.0,0.0
161,0.0,0.0,0.0,-0.1504296875,0.0,0.0,0.0,0.0,0.0,0.0,-0.56,0.0,0.0,0.0,0.0,0.0,0.0,-0.2197845655438313,0.0,0.0,0.0,0.0,0.0,0.0,-14.636,0.0,0.0,0.0
162,0.0,0.0,0.0,-0.1563671875,0.0,0.0,0.0,0.0,0.0,0.0,-0.606,0.0,0.0,0.0,0.0,0.0,0.0,-0.22669298576083888,0.0,0.0,0.0,0.0,0.0,0.0,-13.88,0.0,0.0,0.0
163,0.0,0.0,0.0,-0.1617265625,0.0,0.0,0.0,0.0,0.0,0.0,-0.561,0.0,0.0,0.0,0.0,0.0,0.0,-0.23002870642996112,0.0,0.0,0.0,0.0,0.0,0.0,-14.568,0.0,0.0,0.0
164,0.0,0.0,0.0,-0.1681064453125,0.0,0.0,0.0,0.0,0.0,0.0,-0.58,0.0,0.0,0.0,0.0,0.0,0.0,-0.23437466073034324,0.0,0.0,0.0,0.0,0.0,0.0,-14.612,0.0,0.0,0.0
165,0.0,0.0,0.0,-0.1737548828125,0.0,0.0,0.0,0.0,0.0,0.0,-0.622,0.0,0.0,0.0,0.0,0.0,0.0,-0.23893586754651586,0.0,0.0,0.0,0.0,0.0,0.0,-13.516,0.0,0.0,0.0
166,0.0,0.0,0.0,-0.1795390625,0.0,0.0,0.0,0.0,0.0,0.0,-0.573,0.0,0.0,0.0,0.0,0.0,0.0,-0.24335039293213803,0.0,0.0,0.0,0.0,0.0,0.0,-14.268,0.0,0.0,0.0
167,0.0,0.0,0.0,-0.18591015625,0.0,0.0,0.0,0.0,0.0,0.0,-0.609,0.0,0.0,0.0,0.0,0.0,0.0,-0.24763110318471154,0.0,0.0,0.0,0.0,0.0,0.0,-13.536,0.0,0.0,0.0
168,0.0,0.0,0.0,-0.1914228515625,0.0,0.0,0.0,0.0,0.0,0.0,-0.607,0.0,0.0,0.0,0.0,0.0,0.0,-0.25176841997651517,0.0,0.0,0.0,0.0,0.0,0.0,-13.696,0.0,0.0,0.0
169,0.0,0.0,0.0,-0.1973603515625,0.0,0.0,0.0,0.0,0.0,0.0,-0.566,0.0,0.0,0.0,0.0,0.0,0.0,-0.25572458815298416,0.0,0.0,0.0,0.0,0.0,0.0,-15.024,0.0,0.0,0.0
170,0.0,0.0,0.0,-0.2034423828125,0.0,0.0,0.0,0.0,0.0,0.0,-0.615,0.0,0.0,0.0,0.0,0.0,0.0,-0.25953404168784044,0.0,0.0,0.0,0.0,0.0,0.0,-14.2,0.0,0.0,0.0
171,0.0,0.0,0.0,-0.2089462890625,0.0,0.0,0.0,0.0,0.0,0.0,-0.581,0.0,0.0,0.0,0.0,0.0,0.0,-0.2631865738257219,0.0,0.0,0.0,0.0,0.0,0.0,-14.52,0.0,0.0,0.0
172,0.0,0.0,0.0,-0.214892578125,0.0,0.0,0.0,0.0,0.0,0.0,-0.561,0.0,0.0,0.0,0.0,0.0,0.0,-0.2667538349061278,0.0,0.0,0.0,0.0,0.0,0.0,-14.544,0.0,0.0,0.0
173,0.0,0.0,0.0,-0.2206767578125,0.0,0.0,0.0,0.0,0.0,0.0,-0.6,0.0,0.0,0.0,0.0,0.0,0.0,-0.27001793915872635,0.0,0.0,0.0,0.0,0.0,0.0,-13.764,0.0,0.0,0.0
174,0.0,0.0,0.0,-0.226181640625,0.0,0.0,0.0,0.0,0.0,0.0,-0.572,0.0,0.0,0.0,0.0,0.0,0.0,-0.27319997037526506,0.0,0.0,0.0,0.0,0.0,0.0,-14.452,0.0,0.0,0.0
175,0.0,0.0,0.0,-0.2324072265625,0.0,0.0,0.0,0.0,0.0,0.0,-0.583,0.0,0.0,0.0,0.0,0.0,0.0,-0.276167574349308,0.0,0.0,0.0,0.0,0.0,0.0,-14.156,0.0,0.0,0.0
176,0.0,0.0,0.0,-0.238208984375,0.0,0.0,0.0,0.0,0.0,0.0,-0.608,0.0,0.0,0.0,0.0,0.0,0.0,-0.2789829512243791,0.0,0.0,0.0,0.0,0.0,0.0,-13.192,0.0,0.0,0.0
177,0.0,0.0,0.0,-0.244146484375,0.0,0.0,0.0,0.0,0.0,0.0,-0.589,0.0,0.0,0.0,0.0,0.0,0.0,-0.28164198882154984,0.0,0.0,0.0,0.0,0.0,0.0,-13.904,0.0,0.0,0.0
178,0.0,0.0,0.0,-0.250228515625,0.0,0.0,0.0,0.0,0.0,0.0,-0.606,0.0,0.0,0.0,0.0,0.0,0.0,-0.2841354253707793,0.0,0.0,0.0,0.0,0.0,0.0,-13.652,0.0,0.0,0.0
179,0.0,0.0,0.0,-0.2560126953125,0.0,0.0,0.0,0.0,0.0,0.0,-0.6,0.0,0.0,0.0,0.0,0.0,0.0,-0.2864065718881055,0.0,0.0,0.0,0.0,0.0,0.0,-13.836,0.0,0.0,0.0
180,0.0,0.0,0.0,-0.2618056640625,0.0,0.0,0.0,0.0,0.0,0.0,-0.582,0.0,0.0,0.0,0.0,0.0,0.0,-0.28853755349355775,0.0,0.0,0.0,0.0,0.0,0.0,-14.772,0.0,0.0,0.0
181,0.0,0.0,0.0,-0.267751953125,0.0,0.0,0.0,0.0,0.0,0.0,-0.596,0.0,0.0,0.0,0.0,0.0,0.0,-0.29048700355392393,0.0,0.0,0.0,0.0,0.0,0.0,-14.132,0.0,0.0,0.0
182,0.0,0.0,0.0,-0.273400390625,0.0,0.0,0.0,0.0,0.0,0.0,-0.587,0.0,0.0,0.0,0.0,0.0,0.0,-0.29225279631279694,0.0,0.0,0.0,0.0,0.0,0.0,-14.292,0.0,0.0,0.0
183,0.0,0.0,0.0,-0.2791845703125,0.0,0.0,0.0,0.0,0.0,0.0,-0.573,0.0,0.0,0.0,0.0,0.0,0.0,-0.2938450179779466,0.0,0.0,0.0,0.0,0.0,0.0,-14.36,0.0,0.0,0.0
184,0.0,0.0,0.0,-0.2849775390625,0.0,0.0,0.0,0.0,0.0,0.0,-0.582,0.0,0.0,0.0,0.0,0.0,0.0,-0.2952568586058605,0.0,0.0,0.0,0.0,0.0,0.0,-13.88,0.0,0.0,0.0
185,0.0,0.0,0.0,-0.2907802734375,0.0,0.0,0.0,0.0,0.0,0.0,-0.582,0.0,0.0,0.0,0.0,0.0,0.0,-0.2964852550843697,0.0,0.0,0.0,0.0,0.0,0.0,-14.108,0.0,0.0,0.0
186,0.0,0.0,0.0,-0.2965732421875,0.0,0.0,0.0,0.0,0.0,0.0,-0.586,0.0,0.0,0.0,0.0,0.0,0.0,-0.2975259445146472,0.0,0.0,0.0,0.0,0.0,0.0,-13.628,0.0,0.0,0.0
187,0.0,0.0,0.0,-0.301923828125,0.0,0.0,0.0,0.0,0.0,0.0,-0.577,0.0,0.0,0.0,0.0,0.0,0.0,-0.2983924890391981,0.0,0.0,0.0,0.0,0.0,0.0,-11.912,0.0,0.0,0.0
188,0.0,0.0,0.0,-0.3055419921875,0.0,0.0,0.0,0.0,0.0,0.0,-0.468,0.0,0.0,0.0,0.0,0.0,0.0,-0.29907397374338074,0.0,0.0,0.0,0.0,0.0,0.0,-10.36,0.0,0.0,0.0
189,0.0,0.0,0.0,-0.307427734375,0.0,0.0,0.0,0.0,0.0,0.0,-0.291,0.0,0.0,0.0,0.0,0.0,0.0,-0.29956172448235746,0.0,0.0,0.0,0.0,0.0,0.0,-9.396,0.0,0.0,0.0
190,0.0,0.0,0.0,-0.3082939453125,0.0,0.0,0.0,0.0,0.0,0.0,-0.15,0.0,0.0,0.0,0.0,0.0,0.0,-0.2998717098918495,0.0,0.0,0.0,0.0,0.0,0.0,-9.032,0.0,0.0,0.0
191,0.0,0.0,0.0,-0.3082939453125,0.0,0.0,0.0,0.0,0.0,0.0,-0.046,0.0,0.0,0.0,0.0,0.0,0.0,-0.29999746370379465,0.0,0.0,0.0,0.0,0.0,0.0,-9.352,0.0,0.0,0.0
192,0.0,0.0,0.0,-0.308150390625,0.0,0.0,0.0,0.0,0.0,0.0,0.006,0.0,0.0,0.0,0.0,0.0,0.0,-0.29993706093875977,0.0,0.0,0.0,0.0,0.0,0.0,-9.512,0.0,0.0,0.0
193,0.0,0.0,0.0,-0.3082939453125,0.0,0.0,0.0,0.0,0.0,0.0,-0.001,0.0,0.0,0.0,0.0,0.0,0.0,-0.2996897253293496,0.0,0.0,0.0,0.0,0.0,0.0,-8.848,0.0,0.0,0.0
194,0.0,0.0,0.0,-0.307572265625,0.0,0.0,0.0,0.0,0.0,0.0,0.014,0.0,0.0,0.0,0.0,0.0,0.0,-0.2992608381966843,0.0,0.0,0.0,0.0,0.0,0.0,-7.156,0.0,0.0,0.0
195,0.0,0.0,0.0,-0.3056865234375,0.0,0.0,0.0,0.0,0.0,0.0,0.131,0.0,0.0,0.0,0.0,0.0,0.0,-0.29865102647777647,0.0,0.0,0.0,0.0,0.0,0.0,-7.66,0.0,0.0,0.0
196,0.0,0.0,0.0,-0.3039541015625,0.0,0.0,0.0,0.0,0.0,0.0,0.184,0.0,0.0,0.0,0.0,0.0,0.0,-0.29782912311824006,0.0,0.0,0.0,0.0,0.0,0.0,-8.824,0.0,0.0,0.0
197,0.0,0.0,0.0,-0.3025009765625,0.0,0.0,0.0,0.0,0.0,0.0,0.158,0.0,0.0,0.0,0.0,0.0,0.0,-0.2968650741342402,0.0,0.0,0.0,0.0,0.0,0.0,-10.656,0.0,0.0,0.0
198,0.0,0.0,0.0,-0.301779296875,0.0,0.0,0.0,0.0,0.0,0.0,0.126,0.0,0.0,0.0,0.0,0.0,0.0,-0.29565483922273045,0.0,0.0,0.0,0.0,0.0,0.0,-11.892,0.0,0.0,0.0
199,0.0,0.0,0.0,-0.301779296875,0.0,0.0,0.0,0.0,0.0,0.0,0.034,0.0,0.0,0.0,0.0,0.0,0.0,-0.29435611156618385,0.0,0.0,0.0,0.0,0.0,0.0,-11.548,0.0,0.0,0.0
200,0.0,0.0,0.0,-0.301779296875,0.0,0.0,0.0,0.0,0.0,0.0,-0.001,0.0,0.0,0.0,0.0,0.0,0.0,-0.29283266920120266,0.0,0.0,0.0,0.0,0.0,0.0,-11.136,0.0,0.0,0.0
201,0.0,0.0,0.0,-0.301779296875,0.0,0.0,0.0,0.0,0.0,0.0,-0.001,0.0,0.0,0.0,0.0,0.0,0.0,-0.29111975422844244,0.0,0.0,0.0,0.0,0.0,0.0,-11.136,0.0,0.0,0.0
202,0.0,0.0,0.0,-0.30048046875,0.0,0.0,0.0,0.0,0.0,0.0,0.067,0.0,0.0,0.0,0.0,0.0,0.0,-0.28925834104460757,0.0,0.0,0.0,0.0,0.0,0.0,-13.056,0.0,0.0,0.0
203,0.0,0.0,0.0,-0.2996142578125,0.0,0.0,0.0,0.0,0.0,0.0,0.074,0.0,0.0,0.0,0.0,0.0,0.0,-0.28716386400343424,0.0,0.0,0.0,0.0,0.0,0.0,-13.284,0.0,0.0,0.0
204,0.0,0.0,0.0,-0.2983056640625,0.0,0.0,0.0,0.0,0.0,0.0,0.106,0.0,0.0,0.0,0.0,0.0,0.0,-0.2849465385883283,0.0,0.0,0.0,0.0,0.0,0.0,-13.332,0.0,0.0,0.0
205,0.0,0.0,0.0,-0.297294921875,0.0,0.0,0.0,0.0,0.0,0.0,0.123,0.0,0.0,0.0,0.0,0.0,0.0,-0.28252430699712505,0.0,0.0,0.0,0.0,0.0,0.0,-13.032,0.0,0.0,0.0
206,0.0,0.0,0.0,-0.295697265625,0.0,0.0,0.0,0.0,0.0,0.0,0.11,0.0,0.0,0.0,0.0,0.0,0.0,-0.2799491342562398,0.0,0.0,0.0,0.0,0.0,0.0,-11.936,0.0,0.0,0.0
207,0.0,0.0,0.0,-0.2932431640625,0.0,0.0,0.0,0.0,0.0,0.0,0.202,0.0,0.0,0.0,0.0,0.0,0.0,-0.2771836633079658,0.0,0.0,0.0,0.0,0.0,0.0,-12.872,0.0,0.0,0.0
208,0.0,0.0,0.0,-0.291068359375,0.0,0.0,0.0,0.0,0.0,0.0,0.234,0.0,0.0,0.0,0.0,0.0,0.0,-0.2741915274884106,0.0,0.0,0.0,0.0,0.0,0.0,-13.216,0.0,0.0,0.0
209,0.0,0.0,0.0,-0.2884609375,0.0,0.0,0.0,0.0,0.0,0.0,0.235,0.0,0.0,0.0,0.0,0.0,0.0,-0.2711615484654134,0.0,0.0,0.0,0.0,0.0,0.0,-13.492,0.0,0.0,0.0
210,0.0,0.0,0.0,-0.2855556640625,0.0,0.0,0.0,0.0,0.0,0.0,0.279,0.0,0.0,0.0,0.0,0.0,0.0,-0.26787329461377296,0.0,0.0,0.0,0.0,0.0,0.0,-13.308,0.0,0.0,0.0
211,0.0,0.0,0.0,-0.2823701171875,0.0,0.0,0.0,0.0,0.0,0.0,0.303,0.0,0.0,0.0,0.0,0.0,0.0,-0.264164124164682,0.0,0.0,0.0,0.0,0.0,0.0,-12.828,0.0,0.0,0.0
212,0.0,0.0,0.0,-0.2793291015625,0.0,0.0,0.0,0.0,0.0,0.0,0.318,0.0,0.0,0.0,0.0,0.0,0.0,-0.2608605074099873,0.0,0.0,0.0,0.0,0.0,0.0,-13.468,0.0,0.0,0.0
213,0.0,0.0,0.0,-0.2759990234375,0.0,0.0,0.0,0.0,0.0,0.0,0.308,0.0,0.0,0.0,0.0,0.0,0.0,-0.25690750068830814,0.0,0.0,0.0,0.0,0.0,0.0,-13.764,0.0,0.0,0.0
214,0.0,0.0,0.0,-0.272380859375,0.0,0.0,0.0,0.0,0.0,0.0,0.354,0.0,0.0,0.0,0.0,0.0,0.0,-0.2531645490726101,0.0,0.0,0.0,0.0,0.0,0.0,-14.748,0.0,0.0,0.0
215,0.0,0.0,0.0,-0.2690517578125,0.0,0.0,0.0,0.0,0.0,0.0,0.344,0.0,0.0,0.0,0.0,0.0,0.0,-0.24908913359325113,0.0,0.0,0.0,0.0,0.0,0.0,-13.788,0.0,0.0,0.0
216,0.0,0.0,0.0,-0.2647109375,0.0,0.0,0.0,0.0,0.0,0.0,0.377,0.0,0.0,0.0,0.0,0.0,0.0,-0.24484212630369362,0.0,0.0,0.0,0.0,0.0,0.0,-12.988,0.0,0.0,0.0
217,0.0,0.0,0.0,-0.260794921875,0.0,0.0,0.0,0.0,0.0,0.0,0.43,0.0,0.0,0.0,0.0,0.0,0.0,-0.2405414727981817,0.0,0.0,0.0,0.0,0.0,0.0,-13.468,0.0,0.0,0.0
218,0.0,0.0,0.0,-0.2570322265625,0.0,0.0,0.0,0.0,0.0,0.0,0.375,0.0,0.0,0.0,0.0,0.0,0.0,-0.2359512940560542,0.0,0.0,0.0,0.0,0.0,0.0,-12.44,0.0,0.0,0.0
219,0.0,0.0,0.0,-0.2519609375,0.0,0.0,0.0,0.0,0.0,0.0,0.439,0.0,0.0,0.0,0.0,0.0,0.0,-0.23130915975871086,0.0,0.0,0.0,0.0,0.0,0.0,-12.324,0.0,0.0,0.0
220,0.0,0.0,0.0,-0.24762109375,0.0,0.0,0.0,0.0,0.0,0.0,0.484,0.0,0.0,0.0,0.0,0.0,0.0,-0.22638019672500423,0.0,0.0,0.0,0.0,0.0,0.0,-12.964,0.0,0.0,0.0
221,0.0,0.0,0.0,-0.243416015625,0.0,0.0,0.0,0.0,0.0,0.0,0.411,0.0,0.0,0.0,0.0,0.0,0.0,-0.22153765799635766,0.0,0.0,0.0,0.0,0.0,0.0,-11.96,0.0,0.0,0.0
222,0.0,0.0,0.0,-0.238642578125,0.0,0.0,0.0,0.0,0.0,0.0,0.461,0.0,0.0,0.0,0.0,0.0,0.0,-0.21647136430588979,0.0,0.0,0.0,0.0,0.0,0.0,-13.56,0.0,0.0,0.0
223,0.0,0.0,0.0,-0.23487109375,0.0,0.0,0.0,0.0,0.0,0.0,0.437,0.0,0.0,0.0,0.0,0.0,0.0,-0.21122537659602375,0.0,0.0,0.0,0.0,0.0,0.0,-13.104,0.0,0.0,0.0
224,0.0,0.0,0.0,-0.230087890625,0.0,0.0,0.0,0.0,0.0,0.0,0.407,0.0,0.0,0.0,0.0,0.0,0.0,-0.2058978735833884,0.0,0.0,0.0,0.0,0.0,0.0,-11.684,0.0,0.0,0.0
225,0.0,0.0,0.0,-0.2244482421875,0.0,0.0,0.0,0.0,0.0,0.0,0.528,0.0,0.0,0.0,0.0,0.0,0.0,-0.2004164310772542,0.0,0.0,0.0,0.0,0.0,0.0,-12.28,0.0,0.0,0.0
226,0.0,0.0,0.0,-0.2192333984375,0.0,0.0,0.0,0.0,0.0,0.0,0.549,0.0,0.0,0.0,0.0,0.0,0.0,-0.19484242412312328,0.0,0.0,0.0,0.0,0.0,0.0,-12.28,0.0,0.0,0.0
227,0.0,0.0,0.0,-0.214306640625,0.0,0.0,0.0,0.0,0.0,0.0,0.515,0.0,0.0,0.0,0.0,0.0,0.0,-0.18917270652648488,0.0,0.0,0.0,0.0,0.0,0.0,-14.384,0.0,0.0,0.0
228,0.0,0.0,0.0,-0.2095244140625,0.0,0.0,0.0,0.0,0.0,0.0,0.48,0.0,0.0,0.0,0.0,0.0,0.0,-0.18324835470524944,0.0,0.0,0.0,0.0,0.0,0.0,-14.956,0.0,0.0,0.0
229,0.0,0.0,0.0,-0.20430859375,0.0,0.0,0.0,0.0,0.0,0.0,0.498,0.0,0.0,0.0,0.0,0.0,0.0,-0.1773188220607207,0.0,0.0,0.0,0.0,0.0,0.0,-13.516,0.0,0.0,0.0
230,0.0,0.0,0.0,-0.1989580078125,0.0,0.0,0.0,0.0,0.0,0.0,0.531,0.0,0.0,0.0,0.0,0.0,0.0,-0.17129002851230826,0.0,0.0,0.0,0.0,0.0,0.0,-11.732,0.0,0.0,0.0
231,0.0,0.0,0.0,-0.1925869140625,0.0,0.0,0.0,0.0,0.0,0.0,0.58,0.0,0.0,0.0,0.0,0.0,0.0,-0.1650996187080377,0.0,0.0,0.0,0.0,0.0,0.0,-11.364,0.0,0.0,0.0
232,0.0,0.0,0.0,-0.185765625,0.0,0.0,0.0,0.0,0.0,0.0,0.665,0.0,0.0,0.0,0.0,0.0,0.0,-0.15871770212926137,0.0,0.0,0.0,0.0,0.0,0.0,-12.988,0.0,0.0,0.0
233,0.0,0.0,0.0,-0.1796923828125,0.0,0.0,0.0,0.0,0.0,0.0,0.656,0.0,0.0,0.0,0.0,0.0,0.0,-0.1525003827981725,0.0,0.0,0.0,0.0,0.0,0.0,-14.408,0.0,0.0,0.0
234,0.0,0.0,0.0,-0.1740439453125,0.0,0.0,0.0,0.0,0.0,0.0,0.589,0.0,0.0,0.0,0.0,0.0,0.0,-0.14600562673172357,0.0,0.0,0.0,0.0,0.0,0.0,-13.628,0.0,0.0,0.0
235,0.0,0.0,0.0,-0.1682509765625,0.0,0.0,0.0,0.0,0.0,0.0,0.577,0.0,0.0,0.0,0.0,0.0,0.0,-0.13951355370974194,0.0,0.0,0.0,0.0,0.0,0.0,-12.6,0.0,0.0,0.0
236,0.0,0.0,0.0,-0.16216015625,0.0,0.0,0.0,0.0,0.0,0.0,0.591,0.0,0.0,0.0,0.0,0.0,0.0,-0.13288356958079894,0.0,0.0,0.0,0.0,0.0,0.0,-11.732,0.0,0.0,0.0
237,0.0,0.0,0.0,-0.1555009765625,0.0,0.0,0.0,0.0,0.0,0.0,0.636,0.0,0.0,0.0,0.0,0.0,0.0,-0.1261739236578193,0.0,0.0,0.0,0.0,0.0,0.0,-12.692,0.0,0.0,0.0
238,0.0,0.0,0.0,-0.148841796875,0.0,0.0,0.0,0.0,0.0,0.0,0.677,0.0,0.0,0.0,0.0,0.0,0.0,-0.11932174764543005,0.0,0.0,0.0,0.0,0.0,0.0,-15.228,0.0,0.0,0.0
239,0.0,0.0,0.0,-0.142615234375,0.0,0.0,0.0,0.0,0.0,0.0,0.641,0.0,0.0,0.0,0.0,0.0,0.0,-0.11254662932344252,0.0,0.0,0.0,0.0,0.0,0.0,-15.504,0.0,0.0,0.0
240,0.0,0.0,0.0,-0.1362353515625,0.0,0.0,0.0,0.0,0.0,0.0,0.638,0.0,0.0,0.0,0.0,0.0,0.0,-0.10560937335770014,0.0,0.0,0.0,0.0,0.0,0.0,-14.704,0.0,0.0,0.0
241,0.0,0.0,0.0,-0.1305869140625,0.0,0.0,0.0,0.0,0.0,0.0,0.609,0.0,0.0,0.0,0.0,0.0,0.0,-0.09854721433358213,0.0,0.0,0.0,0.0,0.0,0.0,-13.216,0.0,0.0,0.0
242,0.0,0.0,0.0,-0.124216796875,0.0,0.0,0.0,0.0,0.0,0.0,0.595,0.0,0.0,0.0,0.0,0.0,0.0,-0.09153887683906661,0.0,0.0,0.0,0.0,0.0,0.0,-12.624,0.0,0.0,0.0
243,0.0,0.0,0.0,-0.1176923828125,0.0,0.0,0.0,0.0,0.0,0.0,0.65,0.0,0.0,0.0,0.0,0.0,0.0,-0.08443925440404593,0.0,0.0,0.0,0.0,0.0,0.0,-14.452,0.0,0.0,0.0
244,0.0,0.0,0.0,-0.111611328125,0.0,0.0,0.0,0.0,0.0,0.0,0.633,0.0,0.0,0.0,0.0,0.0,0.0,-0.07725771543018932,0.0,0.0,0.0,0.0,0.0,0.0,-14.496,0.0,0.0,0.0
245,0.0,0.0,0.0,-0.105240234375,0.0,0.0,0.0,0.0,0.0,0.0,0.626,0.0,0.0,0.0,0.0,0.0,0.0,-0.07004344625227775,0.0,0.0,0.0,0.0,0.0,0.0,-14.476,0.0,0.0,0.0
246,0.0,0.0,0.0,-0.099736328125,0.0,0.0,0.0,0.0,0.0,0.0,0.605,0.0,0.0,0.0,0.0,0.0,0.0,-0.06281834498545663,0.0,0.0,0.0,0.0,0.0,0.0,-14.132,0.0,0.0,0.0
247,0.0,0.0,0.0,-0.094078125,0.0,0.0,0.0,0.0,0.0,0.0,0.556,0.0,0.0,0.0,0.0,0.0,0.0,-0.055521973413409996,0.0,0.0,0.0,0.0,0.0,0.0,-13.492,0.0,0.0,0.0
248,0.0,0.0,0.0,-0.08799609375,0.0,0.0,0.0,0.0,0.0,0.0,0.596,0.0,0.0,0.0,0.0,0.0,0.0,-0.04813924067123539,0.0,0.0,0.0,0.0,0.0,0.0,-15.092,0.0,0.0,0.0
249,0.0,0.0,0.0,-0.0820595703125,0.0,0.0,0.0,0.0,0.0,0.0,0.605,0.0,0.0,0.0,0.0,0.0,0.0,-0.04080081537142679,0.0,0.0,0.0,0.0,0.0,0.0,-15.16,0.0,0.0,0.0
250,0.0,0.0,0.0,-0.0755439453125,0.0,0.0,0.0,0.0,0.0,0.0,0.618,0.0,0.0,0.0,0.0,0.0,0.0,-0.03341908975315311,0.0,0.0,0.0,0.0,0.0,0.0,-15.068,0.0,0.0,0.0
251,0.0,0.0,0.0,-0.06988671875,0.0,0.0,0.0,0.0,0.0,0.0,0.621,0.0,0.0,0.0,0.0,0.0,0.0,-0.025991538890046764,0.0,0.0,0.0,0.0,0.0,0.0,-14.36,0.0,0.0,0.0
252,0.0,0.0,0.0,-0.0643916015625,0.0,0.0,0.0,0.0,0.0,0.0,0.557,0.0,0.0,0.0,0.0,0.0,0.0,-0.0185888063119184,0.0,0.0,0.0,0.0,0.0,0.0,-13.696,0.0,0.0,0.0
253,0.0,0.0,0.0,-0.0584541015625,0.0,0.0,0.0,0.0,0.0,0.0,0.579,0.0,0.0,0.0,0.0,0.0,0.0,-0.011158379753204963,0.0,0.0,0.0,0.0,0.0,0.0,-14.316,0.0,0.0,0.0
254,0.0,0.0,0.0,-0.05294921875,0.0,0.0,0.0,0.0,0.0,0.0,0.572,0.0,0.0,0.0,0.0,0.0,0.0,-0.0037083169250476155,0.0,0.0,0.0,0.0,0.0,0.0,-13.744,0.0,0.0,0.0
255,0.0,0.0,0.0,-0.0468583984375,0.0,0.0,0.0,0.0,0.0,0.0,0.575,0.0,0.0,0.0,0.0,0.0,0.0,0.003731437476775712,0.0,0.0,0.0,0.0,0.0,0.0,-13.56,0.0,0.0,0.0
256,0.0,0.0,0.0,-0.0412099609375,0.0,0.0,0.0,0.0,0.0,0.0,0.601,0.0,0.0,0.0,0.0,0.0,0.0,6.543068793459316e-05,0.0,0.0,0.0,0.0,0.0,0.0,-13.996,0.0,0.0,0.0
257,0.0,0.0,0.0,-0.0357060546875,0.0,0.0,0.0,0.0,0.0,0.0,0.556,0.0,0.0,0.0,0.0,0.0,0.0,0.00906596966872255,0.0,0.0,0.0,0.0,0.0,0.0,-14.016,0.0,0.0,0.0
258,0.0,0.0,0.0,-0.0357060546875,0.0,0.0,0.0,0.0,0.0,0.0,0.556,0.0,0.0,0.0,0.0,0.0,0.0,0.018158043587491197,0.0,0.0,0.0,0.0,0.0,0.0,-14.016,0.0,0.0,0.0
259,0.0,0.0,0.0,-0.024552734375,0.0,0.0,0.0,0.0,0.0,0.0,0.562,0.0,0.0,0.0,0.0,0.0,0.0,0.027202766224596425,0.0,0.0,0.0,0.0,0.0,0.0,-14.588,0.0,0.0,0.0
260,0.0,0.0,0.0,-0.018615234375,0.0,0.0,0.0,0.0,0.0,0.0,0.555,0.0,0.0,0.0,0.0,0.0,0.0,0.036219824332944635,0.0,0.0,0.0,0.0,0.0,0.0,-14.108,0.0,0.0,0.0
261,0.0,0.0,0.0,-0.0125341796875,0.0,0.0,0.0,0.0,0.0,0.0,0.615,0.0,0.0,0.0,0.0,0.0,0.0,0.04573104100170246,0.0,0.0,0.0,0.0,0.0,0.0,-13.88,0.0,0.0,0.0
262,0.0,0.0,0.0,-0.0070205078125,0.0,0.0,0.0,0.0,0.0,0.0,0.584,0.0,0.0,0.0,0.0,0.0,0.0,0.05433312305325528,0.0,0.0,0.0,0.0,0.0,0.0,-13.356,0.0,0.0,0.0
263,0.0,0.0,0.0,-0.0010830078125,0.0,0.0,0.0,0.0,0.0,0.0,0.572,0.0,0.0,0.0,0.0,0.0,0.0,0.06312311109387074,0.0,0.0,0.0,0.0,0.0,0.0,-13.764,0.0,0.0,0.0
264,0.0,0.0,0.0,0.0042763671875,0.0,0.0,0.0,0.0,0.0,0.0,0.576,0.0,0.0,0.0,0.0,0.0,0.0,0.07195287534537737,0.0,0.0,0.0,0.0,0.0,0.0,-13.676,0.0,0.0,0.0
265,0.0,0.0,0.0,0.009626953125,0.0,0.0,0.0,0.0,0.0,0.0,0.528,0.0,0.0,0.0,0.0,0.0,0.0,0.08076497276073848,0.0,0.0,0.0,0.0,0.0,0.0,-12.552,0.0,0.0,0.0
266,0.0,0.0,0.0,0.0158623046875,0.0,0.0,0.0,0.0,0.0,0.0,0.58,0.0,0.0,0.0,0.0,0.0,0.0,0.08944630779966688,0.0,0.0,0.0,0.0,0.0,0.0,-12.964,0.0,0.0,0.0
267,0.0,0.0,0.0,0.0212216796875,0.0,0.0,0.0,0.0,0.0,0.0,0.59,0.0,0.0,0.0,0.0,0.0,0.0,0.09807710205621946,0.0,0.0,0.0,0.0,0.0,0.0,-13.376,0.0,0.0,0.0
268,0.0,0.0,0.0,0.0271591796875,0.0,0.0,0.0,0.0,0.0,0.0,0.561,0.0,0.0,0.0,0.0,0.0,0.0,0.10674104869197829,0.0,0.0,0.0,0.0,0.0,0.0,-13.812,0.0,0.0,0.0
269,0.0,0.0,0.0,0.0329521484375,0.0,0.0,0.0,0.0,0.0,0.0,0.602,0.0,0.0,0.0,0.0,0.0,0.0,0.11513798875834419,0.0,0.0,0.0,0.0,0.0,0.0,-15.0,0.0,0.0,0.0
270,0.0,0.0,0.0,0.0383212890625,0.0,0.0,0.0,0.0,0.0,0.0,0.563,0.0,0.0,0.0,0.0,0.0,0.0,0.12388187979850983,0.0,0.0,0.0,0.0,0.0,0.0,-14.248,0.0,0.0,0.0
271,0.0,0.0,0.0,0.0445478515625,0.0,0.0,0.0,0.0,0.0,0.0,0.57,0.0,0.0,0.0,0.0,0.0,0.0,0.1317850815705465,0.0,0.0,0.0,0.0,0.0,0.0,-13.744,0.0,0.0,0.0
272,0.0,0.0,0.0,0.05062890625,0.0,0.0,0.0,0.0,0.0,0.0,0.629,0.0,0.0,0.0,0.0,0.0,0.0,0.13973970658088028,0.0,0.0,0.0,0.0,0.0,0.0,-13.652,0.0,0.0,0.0
273,0.0,0.0,0.0,0.056431640625,0.0,0.0,0.0,0.0,0.0,0.0,0.586,0.0,0.0,0.0,0.0,0.0,0.0,0.1477995317137332,0.0,0.0,0.0,0.0,0.0,0.0,-13.104,0.0,0.0,0.0
274,0.0,0.0,0.0,0.0626572265625,0.0,0.0,0.0,0.0,0.0,0.0,0.608,0.0,0.0,0.0,0.0,0.0,0.0,0.15568123131714315,0.0,0.0,0.0,0.0,0.0,0.0,-14.04,0.0,0.0,0.0
275,0.0,0.0,0.0,0.068162109375,0.0,0.0,0.0,0.0,0.0,0.0,0.601,0.0,0.0,0.0,0.0,0.0,0.0,0.16334910781687711,0.0,0.0,0.0,0.0,0.0,0.0,-13.516,0.0,0.0,0.0
276,0.0,0.0,0.0,0.0739453125,0.0,0.0,0.0,0.0,0.0,0.0,0.554,0.0,0.0,0.0,0.0,0.0,0.0,0.17098766613970443,0.0,0.0,0.0,0.0,0.0,0.0,-12.896,0.0,0.0,0.0
277,0.0,0.0,0.0,0.0800361328125,0.0,0.0,0.0,0.0,0.0,0.0,0.605,0.0,0.0,0.0,0.0,0.0,0.0,0.17823669280904744,0.0,0.0,0.0,0.0,0.0,0.0,-13.012,0.0,0.0,0.0
278,0.0,0.0,0.0,0.085541015625,0.0,0.0,0.0,0.0,0.0,0.0,0.584,0.0,0.0,0.0,0.0,0.0,0.0,0.1855934696367144,0.0,0.0,0.0,0.0,0.0,0.0,-13.356,0.0,0.0,0.0
279,0.0,0.0,0.0,0.091623046875,0.0,0.0,0.0,0.0,0.0,0.0,0.576,0.0,0.0,0.0,0.0,0.0,0.0,0.19248653341951039,0.0,0.0,0.0,0.0,0.0,0.0,-14.224,0.0,0.0,0.0
280,0.0,0.0,0.0,0.0975693359375,0.0,0.0,0.0,0.0,0.0,0.0,0.621,0.0,0.0,0.0,0.0,0.0,0.0,0.1994480780133315,0.0,0.0,0.0,0.0,0.0,0.0,-15.116,0.0,0.0,0.0
281,0.0,0.0,0.0,0.103353515625,0.0,0.0,0.0,0.0,0.0,0.0,0.575,0.0,0.0,0.0,0.0,0.0,0.0,0.20616481432149844,0.0,0.0,0.0,0.0,0.0,0.0,-14.52,0.0,0.0,0.0
282,0.0,0.0,0.0,0.1097236328125,0.0,0.0,0.0,0.0,0.0,0.0,0.602,0.0,0.0,0.0,0.0,0.0,0.0,0.21257778523724313,0.0,0.0,0.0,0.0,0.0,0.0,-14.064,0.0,0.0,0.0
283,0.0,0.0,0.0,0.115525390625,0.0,0.0,0.0,0.0,0.0,0.0,0.627,0.0,0.0,0.0,0.0,0.0,0.0,0.2190256205042824,0.0,0.0,0.0,0.0,0.0,0.0,-13.764,0.0,0.0,0.0
284,0.0,0.0,0.0,0.121462890625,0.0,0.0,0.0,0.0,0.0,0.0,0.583,0.0,0.0,0.0,0.0,0.0,0.0,0.22508119716758784,0.0,0.0,0.0,0.0,0.0,0.0,-13.424,0.0,0.0,0.0
285,0.0,0.0,0.0,0.127689453125,0.0,0.0,0.0,0.0,0.0,0.0,0.619,0.0,0.0,0.0,0.0,0.0,0.0,0.23093277926364797,0.0,0.0,0.0,0.0,0.0,0.0,-13.856,0.0,0.0,0.0
286,0.0,0.0,0.0,0.133337890625,0.0,0.0,0.0,0.0,0.0,0.0,0.595,0.0,0.0,0.0,0.0,0.0,0.0,0.23662929353240986,0.0,0.0,0.0,0.0,0.0,0.0,-13.444,0.0,0.0,0.0
287,0.0,0.0,0.0,0.1392841796875,0.0,0.0,0.0,0.0,0.0,0.0,0.577,0.0,0.0,0.0,0.0,0.0,0.0,0.24210580309472082,0.0,0.0,0.0,0.0,0.0,0.0,-13.192,0.0,0.0,0.0
288,0.0,0.0,0.0,0.1450771484375,0.0,0.0,0.0,0.0,0.0,0.0,0.598,0.0,0.0,0.0,0.0,0.0,0.0,0.24751993230655003,0.0,0.0,0.0,0.0,0.0,0.0,-13.468,0.0,0.0,0.0
289,0.0,0.0,0.0,0.1507255859375,0.0,0.0,0.0,0.0,0.0,0.0,0.569,0.0,0.0,0.0,0.0,0.0,0.0,0.25242193712942984,0.0,0.0,0.0,0.0,0.0,0.0,-13.356,0.0,0.0,0.0
290,0.0,0.0,0.0,0.15681640625,0.0,0.0,0.0,0.0,0.0,0.0,0.591,0.0,0.0,0.0,0.0,0.0,0.0,0.2572040290384317,0.0,0.0,0.0,0.0,0.0,0.0,-14.292,0.0,0.0,0.0
291,0.0,0.0,0.0,0.1626005859375,0.0,0.0,0.0,0.0,0.0,0.0,0.606,0.0,0.0,0.0,0.0,0.0,0.0,0.26177719437542535,0.0,0.0,0.0,0.0,0.0,0.0,-14.748,0.0,0.0,0.0
292,0.0,0.0,0.0,0.1686826171875,0.0,0.0,0.0,0.0,0.0,0.0,0.581,0.0,0.0,0.0,0.0,0.0,0.0,0.266142541839869,0.0,0.0,0.0,0.0,0.0,0.0,-14.336,0.0,0.0,0.0
293,0.0,0.0,0.0,0.1747646484375,0.0,0.0,0.0,0.0,0.0,0.0,0.616,0.0,0.0,0.0,0.0,0.0,0.0,0.27013256935536295,0.0,0.0,0.0,0.0,0.0,0.0,-13.856,0.0,0.0,0.0
294,0.0,0.0,0.0,0.180421875,0.0,0.0,0.0,0.0,0.0,0.0,0.593,0.0,0.0,0.0,0.0,0.0,0.0,0.27400968853944957,0.0,0.0,0.0,0.0,0.0,0.0,-13.356,0.0,0.0,0.0
295,0.0,0.0,0.0,0.18621484375,0.0,0.0,0.0,0.0,0.0,0.0,0.576,0.0,0.0,0.0,0.0,0.0,0.0,0.27753940326061255,0.0,0.0,0.0,0.0,0.0,0.0,-13.216,0.0,0.0,0.0
296,0.0,0.0,0.0,0.1920078125,0.0,0.0,0.0,0.0,0.0,0.0,0.588,0.0,0.0,0.0,0.0,0.0,0.0,0.2808542093112146,0.0,0.0,0.0,0.0,0.0,0.0,-13.24,0.0,0.0,0.0
297,0.0,0.0,0.0,0.197810546875,0.0,0.0,0.0,0.0,0.0,0.0,0.581,0.0,0.0,0.0,0.0,0.0,0.0,0.2839104179320241,0.0,0.0,0.0,0.0,0.0,0.0,-13.124,0.0,0.0,0.0
298,0.0,0.0,0.0,0.203748046875,0.0,0.0,0.0,0.0,0.0,0.0,0.594,0.0,0.0,0.0,0.0,0.0,0.0,0.2867446113201663,0.0,0.0,0.0,0.0,0.0,0.0,-13.172,0.0,0.0,0.0
299,0.0,0.0,0.0,0.209396484375,0.0,0.0,0.0,0.0,0.0,0.0,0.581,0.0,0.0,0.0,0.0,0.0,0.0,0.2892734103616576,0.0,0.0,0.0,0.0,0.0,0.0,-13.516,0.0,0.0,0.0
300,0.0,0.0,0.0,0.2151982421875,0.0,0.0,0.0,0.0,0.0,0.0,0.565,0.0,0.0,0.0,0.0,0.0,0.0,0.29155441499945456,0.0,0.0,0.0,0.0,0.0,0.0,-13.468,0.0,0.0,0.0
301,0.0,0.0,0.0,0.2209912109375,0.0,0.0,0.0,0.0,0.0,0.0,0.587,0.0,0.0,0.0,0.0,0.0,0.0,0.29357539361215945,0.0,0.0,0.0,0.0,0.0,0.0,-14.084,0.0,0.0,0.0
302,0.0,0.0,0.0,0.226775390625,0.0,0.0,0.0,0.0,0.0,0.0,0.582,0.0,0.0,0.0,0.0,0.0,0.0,0.29529290087643983,0.0,0.0,0.0,0.0,0.0,0.0,-14.268,0.0,0.0,0.0
303,0.0,0.0,0.0,0.232857421875,0.0,0.0,0.0,0.0,0.0,0.0,0.597,0.0,0.0,0.0,0.0,0.0,0.0,0.29677250681392636,0.0,0.0,0.0,0.0,0.0,0.0,-13.904,0.0,0.0,0.0
304,0.0,0.0,0.0,0.2389482421875,0.0,0.0,0.0,0.0,0.0,0.0,0.617,0.0,0.0,0.0,0.0,0.0,0.0,0.297963429176463,0.0,0.0,0.0,0.0,0.0,0.0,-13.424,0.0,0.0,0.0
305,0.0,0.0,0.0,0.2445966796875,0.0,0.0,0.0,0.0,0.0,0.0,0.587,0.0,0.0,0.0,0.0,0.0,0.0,0.2989023483335593,0.0,0.0,0.0,0.0,0.0,0.0,-13.08,0.0,0.0,0.0
306,0.0,0.0,0.0,0.2503896484375,0.0,0.0,0.0,0.0,0.0,0.0,0.574,0.0,0.0,0.0,0.0,0.0,0.0,0.29952452966654475,0.0,0.0,0.0,0.0,0.0,0.0,-13.08,0.0,0.0,0.0
307,0.0,0.0,0.0,0.2563359375,0.0,0.0,0.0,0.0,0.0,0.0,0.593,0.0,0.0,0.0,0.0,0.0,0.0,0.29989880150301845,0.0,0.0,0.0,0.0,0.0,0.0,-12.804,0.0,0.0,0.0
308,0.0,0.0,0.0,0.26212890625,0.0,0.0,0.0,0.0,0.0,0.0,0.586,0.0,0.0,0.0,0.0,0.0,0.0,0.29999642348288474,0.0,0.0,0.0,0.0,0.0,0.0,-12.92,0.0,0.0,0.0
309,0.0,0.0,0.0,0.267921875,0.0,0.0,0.0,0.0,0.0,0.0,0.582,0.0,0.0,0.0,0.0,0.0,0.0,0.2998193277448557,0.0,0.0,0.0,0.0,0.0,0.0,-12.736,0.0,0.0,0.0
310,0.0,0.0,0.0,0.273724609375,0.0,0.0,0.0,0.0,0.0,0.0,0.582,0.0,0.0,0.0,0.0,0.0,0.0,0.2993672794351641,0.0,0.0,0.0,0.0,0.0,0.0,-13.264,0.0,0.0,0.0
311,0.0,0.0,0.0,0.279517578125,0.0,0.0,0.0,0.0,0.0,0.0,0.583,0.0,0.0,0.0,0.0,0.0,0.0,0.2986369613555909,0.0,0.0,0.0,0.0,0.0,0.0,-13.764,0.0,0.0,0.0
312,0.0,0.0,0.0,0.2853017578125,0.0,0.0,0.0,0.0,0.0,0.0,0.582,0.0,0.0,0.0,0.0,0.0,0.0,0.2976384712727665,0.0,0.0,0.0,0.0,0.0,0.0,-13.88,0.0,0.0,0.0
313,0.0,0.0,0.0,0.2913828125,0.0,0.0,0.0,0.0,0.0,0.0,0.595,0.0,0.0,0.0,0.0,0.0,0.0,0.29636484973124966,0.0,0.0,0.0,0.0,0.0,0.0,-14.156,0.0,0.0,0.0
314,0.0,0.0,0.0,0.296751953125,0.0,0.0,0.0,0.0,0.0,0.0,0.592,0.0,0.0,0.0,0.0,0.0,0.0,0.29482191913084355,0.0,0.0,0.0,0.0,0.0,0.0,-15.48,0.0,0.0,0.0
315,0.0,0.0,0.0,0.30008203125,0.0,0.0,0.0,0.0,0.0,0.0,0.462,0.0,0.0,0.0,0.0,0.0,0.0,0.29300314415601025,0.0,0.0,0.0,0.0,0.0,0.0,-16.76,0.0,0.0,0.0
316,0.0,0.0,0.0,0.302400390625,0.0,0.0,0.0,0.0,0.0,0.0,0.289,0.0,0.0,0.0,0.0,0.0,0.0,0.2909176076676388,0.0,0.0,0.0,0.0,0.0,0.0,-17.608,0.0,0.0,0.0
317,0.0,0.0,0.0,0.302544921875,0.0,0.0,0.0,0.0,0.0,0.0,0.154,0.0,0.0,0.0,0.0,0.0,0.0,0.2885711414846591,0.0,0.0,0.0,0.0,0.0,0.0,-19.324,0.0,0.0,0.0
318,0.0,0.0,0.0,0.3016787109375,0.0,0.0,0.0,0.0,0.0,0.0,-0.041,0.0,0.0,0.0,0.0,0.0,0.0,0.2858328016125826,0.0,0.0,0.0,0.0,0.0,0.0,-18.204,0.0,0.0,0.0
319,0.0,0.0,0.0,0.3010927734375,0.0,0.0,0.0,0.0,0.0,0.0,-0.075,0.0,0.0,0.0,0.0,0.0,0.0,0.2830661065424385,0.0,0.0,0.0,0.0,0.0,0.0,-17.952,0.0,0.0,0.0
320,0.0,0.0,0.0,0.2999375,0.0,0.0,0.0,0.0,0.0,0.0,-0.08,0.0,0.0,0.0,0.0,0.0,0.0,0.27989580436377576,0.0,0.0,0.0,0.0,0.0,0.0,-19.756,0.0,0.0,0.0
321,0.0,0.0,0.0,0.2980517578125,0.0,0.0,0.0,0.0,0.0,0.0,-0.148,0.0,0.0,0.0,0.0,0.0,0.0,0.27652089494626647,0.0,0.0,0.0,0.0,0.0,0.0,-20.72,0.0,0.0,0.0
322,0.0,0.0,0.0,0.2960302734375,0.0,0.0,0.0,0.0,0.0,0.0,-0.196,0.0,0.0,0.0,0.0,0.0,0.0,0.27288730334035577,0.0,0.0,0.0,0.0,0.0,0.0,-21.244,0.0,0.0,0.0
323,0.0,0.0,0.0,0.2931337890625,0.0,0.0,0.0,0.0,0.0,0.0,-0.234,0.0,0.0,0.0,0.0,0.0,0.0,0.26896951356371457,0.0,0.0,0.0,0.0,0.0,0.0,-21.108,0.0,0.0,0.0
324,0.0,0.0,0.0,0.289505859375,0.0,0.0,0.0,0.0,0.0,0.0,-0.324,0.0,0.0,0.0,0.0,0.0,0.0,0.2648462019242002,0.0,0.0,0.0,0.0,0.0,0.0,-19.916,0.0,0.0,0.0
325,0.0,0.0,0.0,0.2861767578125,0.0,0.0,0.0,0.0,0.0,0.0,-0.361,0.0,0.0,0.0,0.0,0.0,0.0,0.2603504669939816,0.0,0.0,0.0,0.0,0.0,0.0,-19.348,0.0,0.0,0.0
326,0.0,0.0,0.0,0.2822607421875,0.0,0.0,0.0,0.0,0.0,0.0,-0.355,0.0,0.0,0.0,0.0,0.0,0.0,0.25581881981620336,0.0,0.0,0.0,0.0,0.0,0.0,-20.056,0.0,0.0,0.0
327,0.0,0.0,0.0,0.2774873046875,0.0,0.0,0.0,0.0,0.0,0.0,-0.427,0.0,0.0,0.0,0.0,0.0,0.0,0.25080086440682414,0.0,0.0,0.0,0.0,0.0,0.0,-18.98,0.0,0.0,0.0
328,0.0,0.0,0.0,0.27255078125,0.0,0.0,0.0,0.0,0.0,0.0,-0.486,0.0,0.0,0.0,0.0,0.0,0.0,0.24566782931326703,0.0,0.0,0.0,0.0,0.0,0.0,-18.636,0.0,0.0,0.0
329,0.0,0.0,0.0,0.2661806640625,0.0,0.0,0.0,0.0,0.0,0.0,-0.557,0.0,0.0,0.0,0.0,0.0,0.0,0.24055992020975342,0.0,0.0,0.0,0.0,0.0,0.0,-18.544,0.0,0.0,0.0
330,0.0,0.0,0.0,0.2600986328125,0.0,0.0,0.0,0.0,0.0,0.0,-0.639,0.0,0.0,0.0,0.0,0.0,0.0,0.23496536110193555,0.0,0.0,0.0,0.0,0.0,0.0,-16.624,0.0,0.0,0.0
331,0.0,0.0,0.0,0.2545947265625,0.0,0.0,0.0,0.0,0.0,0.0,-0.582,0.0,0.0,0.0,0.0,0.0,0.0,0.22877159653983353,0.0,0.0,0.0,0.0,0.0,0.0,-15.96,0.0,0.0,0.0
332,0.0,0.0,0.0,0.24850390625,0.0,0.0,0.0,0.0,0.0,0.0,-0.579,0.0,0.0,0.0,0.0,0.0,0.0,0.22323023513679296,0.0,0.0,0.0,0.0,0.0,0.0,-15.388,0.0,0.0,0.0
333,0.0,0.0,0.0,0.24227734375,0.0,0.0,0.0,0.0,0.0,0.0,-0.618,0.0,0.0,0.0,0.0,0.0,0.0,0.2171080879227471,0.0,0.0,0.0,0.0,0.0,0.0,-16.188,0.0,0.0,0.0
334,0.0,0.0,0.0,0.234896484375,0.0,0.0,0.0,0.0,0.0,0.0,-0.68,0.0,0.0,0.0,0.0,0.0,0.0,0.21071869344172706,0.0,0.0,0.0,0.0,0.0,0.0,-17.724,0.0,0.0,0.0
335,0.0,0.0,0.0,0.227794921875,0.0,0.0,0.0,0.0,0.0,0.0,-0.74,0.0,0.0,0.0,0.0,0.0,0.0,0.20418465469296715,0.0,0.0,0.0,0.0,0.0,0.0,-15.388,0.0,0.0,0.0
336,0.0,0.0,0.0,0.2215693359375,0.0,0.0,0.0,0.0,0.0,0.0,-0.669,0.0,0.0,0.0,0.0,0.0,0.0,0.1974274407394007,0.0,0.0,0.0,0.0,0.0,0.0,-13.996,0.0,0.0,0.0
337,0.0,0.0,0.0,0.2146025390625,0.0,0.0,0.0,0.0,0.0,0.0,-0.655,0.0,0.0,0.0,0.0,0.0,0.0,0.19047818493204513,0.0,0.0,0.0,0.0,0.0,0.0,-14.132,0.0,0.0,0.0
338,0.0,0.0,0.0,0.2072216796875,0.0,0.0,0.0,0.0,0.0,0.0,-0.722,0.0,0.0,0.0,0.0,0.0,0.0,0.18337215748855695,0.0,0.0,0.0,0.0,0.0,0.0,-14.864,0.0,0.0,0.0
339,0.0,0.0,0.0,0.2002734375,0.0,0.0,0.0,0.0,0.0,0.0,-0.728,0.0,0.0,0.0,0.0,0.0,0.0,0.1761300289938576,0.0,0.0,0.0,0.0,0.0,0.0,-14.636,0.0,0.0,0.0
340,0.0,0.0,0.0,0.1934609375,0.0,0.0,0.0,0.0,0.0,0.0,-0.683,0.0,0.0,0.0,0.0,0.0,0.0,0.16853404647292855,0.0,0.0,0.0,0.0,0.0,0.0,-13.332,0.0,0.0,0.0
341,0.0,0.0,0.0,0.18621484375,0.0,0.0,0.0,0.0,0.0,0.0,-0.707,0.0,0.0,0.0,0.0,0.0,0.0,0.1610857952531667,0.0,0.0,0.0,0.0,0.0,0.0,-11.776,0.0,0.0,0.0
342,0.0,0.0,0.0,0.178833984375,0.0,0.0,0.0,0.0,0.0,0.0,-0.745,0.0,0.0,0.0,0.0,0.0,0.0,0.15324524237810322,0.0,0.0,0.0,0.0,0.0,0.0,-12.372,0.0,0.0,0.0
343,0.0,0.0,0.0,0.1715791015625,0.0,0.0,0.0,0.0,0.0,0.0,-0.734,0.0,0.0,0.0,0.0,0.0,0.0,0.14547684262732494,0.0,0.0,0.0,0.0,0.0,0.0,-13.72,0.0,0.0,0.0
344,0.0,0.0,0.0,0.1653525390625,0.0,0.0,0.0,0.0,0.0,0.0,-0.686,0.0,0.0,0.0,0.0,0.0,0.0,0.13745665835299994,0.0,0.0,0.0,0.0,0.0,0.0,-12.92,0.0,0.0,0.0
345,0.0,0.0,0.0,0.158982421875,0.0,0.0,0.0,0.0,0.0,0.0,-0.624,0.0,0.0,0.0,0.0,0.0,0.0,0.12932342669826427,0.0,0.0,0.0,0.0,0.0,0.0,-12.896,0.0,0.0,0.0
346,0.0,0.0,0.0,0.151880859375,0.0,0.0,0.0,0.0,0.0,0.0,-0.686,0.0,0.0,0.0,0.0,0.0,0.0,0.12108321147597548,0.0,0.0,0.0,0.0,0.0,0.0,-12.44,0.0,0.0,0.0
347,0.0,0.0,0.0,0.1453662109375,0.0,0.0,0.0,0.0,0.0,0.0,-0.689,0.0,0.0,0.0,0.0,0.0,0.0,0.11274662672634526,0.0,0.0,0.0,0.0,0.0,0.0,-13.032,0.0,0.0,0.0
348,0.0,0.0,0.0,0.1391396484375,0.0,0.0,0.0,0.0,0.0,0.0,-0.647,0.0,0.0,0.0,0.0,0.0,0.0,0.10421718322584315,0.0,0.0,0.0,0.0,0.0,0.0,-12.212,0.0,0.0,0.0
349,0.0,0.0,0.0,0.133337890625,0.0,0.0,0.0,0.0,0.0,0.0,-0.608,0.0,0.0,0.0,0.0,0.0,0.0,0.09566556933743102,0.0,0.0,0.0,0.0,0.0,0.0,-11.572,0.0,0.0,0.0
350,0.0,0.0,0.0,0.1269677734375,0.0,0.0,0.0,0.0,0.0,0.0,-0.603,0.0,0.0,0.0,0.0,0.0,0.0,0.08702506396472383,0.0,0.0,0.0,0.0,0.0,0.0,-12.052,0.0,0.0,0.0
351,0.0,0.0,0.0,0.1205966796875,0.0,0.0,0.0,0.0,0.0,0.0,-0.644,0.0,0.0,0.0,0.0,0.0,0.0,0.07825291053409378,0.0,0.0,0.0,0.0,0.0,0.0,-12.532,0.0,0.0,0.0
352,0.0,0.0,0.0,0.114361328125,0.0,0.0,0.0,0.0,0.0,0.0,-0.632,0.0,0.0,0.0,0.0,0.0,0.0,0.06947495966743701,0.0,0.0,0.0,0.0,0.0,0.0,-13.172,0.0,0.0,0.0
353,0.0,0.0,0.0,0.108568359375,0.0,0.0,0.0,0.0,0.0,0.0,-0.614,0.0,0.0,0.0,0.0,0.0,0.0,0.060606741332833176,0.0,0.0,0.0,0.0,0.0,0.0,-12.372,0.0,0.0,0.0
354,0.0,0.0,0.0,0.103353515625,0.0,0.0,0.0,0.0,0.0,0.0,-0.561,0.0,0.0,0.0,0.0,0.0,0.0,0.05155339984165774,0.0,0.0,0.0,0.0,0.0,0.0,-12.872,0.0,0.0,0.0
355,0.0,0.0,0.0,0.0975693359375,0.0,0.0,0.0,0.0,0.0,0.0,-0.551,0.0,0.0,0.0,0.0,0.0,0.0,0.04268689149584161,0.0,0.0,0.0,0.0,0.0,0.0,-13.72,0.0,0.0,0.0
356,0.0,0.0,0.0,0.0923447265625,0.0,0.0,0.0,0.0,0.0,0.0,-0.558,0.0,0.0,0.0,0.0,0.0,0.0,0.033683768066434,0.0,0.0,0.0,0.0,0.0,0.0,-14.452,0.0,0.0,0.0
357,0.0,0.0,0.0,0.086849609375,0.0,0.0,0.0,0.0,0.0,0.0,-0.531,0.0,0.0,0.0,0.0,0.0,0.0,0.024656286253263035,0.0,0.0,0.0,0.0,0.0,0.0,-14.84,0.0,0.0,0.0
358,0.0,0.0,0.0,0.0813447265625,0.0,0.0,0.0,0.0,0.0,0.0,-0.565,0.0,0.0,0.0,0.0,0.0,0.0,0.015567968257262433,0.0,0.0,0.0,0.0,0.0,0.0,-13.468,0.0,0.0,0.0
359,0.0,0.0,0.0,0.0761298828125,0.0,0.0,0.0,0.0,0.0,0.0,-0.535,0.0,0.0,0.0,0.0,0.0,0.0,0.00646984699401031,0.0,0.0,0.0,0.0,0.0,0.0,-13.356,0.0,0.0,0.0
360,0.0,0.0,0.0,0.0706162109375,0.0,0.0,0.0,0.0,0.0,0.0,-0.533,0.0,0.0,0.0,0.0,0.0,0.0,-0.002596969086030144,0.0,0.0,0.0,0.0,0.0,0.0,-14.132,0.0,0.0,0.0
361,0.0,0.0,0.0,0.0654091796875,0.0,0.0,0.0,0.0,0.0,0.0,-0.552,0.0,0.0,0.0,0.0,0.0,0.0,-0.01170038181316178,0.0,0.0,0.0,0.0,0.0,0.0,-14.612,0.0,0.0,0.0
362,0.0,0.0,0.0,0.0600498046875,0.0,0.0,0.0,0.0,0.0,0.0,-0.527,0.0,0.0,0.0,0.0,0.0,0.0,-0.020759513343276737,0.0,0.0,0.0,0.0,0.0,0.0,-15.116,0.0,0.0,0.0
363,0.0,0.0,0.0,0.0542568359375,0.0,0.0,0.0,0.0,0.0,0.0,-0.559,0.0,0.0,0.0,0.0,0.0,0.0,-0.02982121797857734,0.0,0.0,0.0,0.0,0.0,0.0,-14.2,0.0,0.0,0.0
364,0.0,0.0,0.0,0.0488876953125,0.0,0.0,0.0,0.0,0.0,0.0,-0.568,0.0,0.0,0.0,0.0,0.0,0.0,-0.038843059095620594,0.0,0.0,0.0,0.0,0.0,0.0,-14.248,0.0,0.0,0.0
365,0.0,0.0,0.0,0.043681640625,0.0,0.0,0.0,0.0,0.0,0.0,-0.53,0.0,0.0,0.0,0.0,0.0,0.0,-0.04783550800101893,0.0,0.0,0.0,0.0,0.0,0.0,-15.024,0.0,0.0,0.0
366,0.0,0.0,0.0,0.0383212890625,0.0,0.0,0.0,0.0,0.0,0.0,-0.534,0.0,0.0,0.0,0.0,0.0,0.0,-0.056745766909852856,0.0,0.0,0.0,0.0,0.0,0.0,-15.708,0.0,0.0,0.0
367,0.0,0.0,0.0,0.0329521484375,0.0,0.0,0.0,0.0,0.0,0.0,-0.542,0.0,0.0,0.0,0.0,0.0,0.0,-0.06564879538270445,0.0,0.0,0.0,0.0,0.0,0.0,-15.916,0.0,0.0,0.0
368,0.0,0.0,0.0,0.0275927734375,0.0,0.0,0.0,0.0,0.0,0.0,-0.536,0.0,0.0,0.0,0.0,0.0,0.0,-0.07450807512045178,0.0,0.0,0.0,0.0,0.0,0.0,-15.068,0.0,0.0,0.0
369,0.0,0.0,0.0,0.0216552734375,0.0,0.0,0.0,0.0,0.0,0.0,-0.572,0.0,0.0,0.0,0.0,0.0,0.0,-0.08327781297054848,0.0,0.0,0.0,0.0,0.0,0.0,-14.156,0.0,0.0,0.0
370,0.0,0.0,0.0,0.01616015625,0.0,0.0,0.0,0.0,0.0,0.0,-0.579,0.0,0.0,0.0,0.0,0.0,0.0,-0.09202554030726304,0.0,0.0,0.0,0.0,0.0,0.0,-14.52,0.0,0.0,0.0
371,0.0,0.0,0.0,0.010501953125,0.0,0.0,0.0,0.0,0.0,0.0,-0.556,0.0,0.0,0.0,0.0,0.0,0.0,-0.10077751293423017,0.0,0.0,0.0,0.0,0.0,0.0,-15.0,0.0,0.0,0.0
372,0.0,0.0,0.0,0.004708984375,0.0,0.0,0.0,0.0,0.0,0.0,-0.577,0.0,0.0,0.0,0.0,0.0,0.0,-0.10909707229652335,0.0,0.0,0.0,0.0,0.0,0.0,-15.344,0.0,0.0,0.0
373,0.0,0.0,0.0,-0.0010830078125,0.0,0.0,0.0,0.0,0.0,0.0,-0.583,0.0,0.0,0.0,0.0,0.0,0.0,-0.11754751292627338,0.0,0.0,0.0,0.0,0.0,0.0,-14.956,0.0,0.0,0.0
374,0.0,0.0,0.0,-0.0070205078125,0.0,0.0,0.0,0.0,0.0,0.0,-0.587,0.0,0.0,0.0,0.0,0.0,0.0,-0.12590921779911196,0.0,0.0,0.0,0.0,0.0,0.0,-14.496,0.0,0.0,0.0
375,0.0,0.0,0.0,-0.013111328125,0.0,0.0,0.0,0.0,0.0,0.0,-0.604,0.0,0.0,0.0,0.0,0.0,0.0,-0.13415614943621704,0.0,0.0,0.0,0.0,0.0,0.0,-14.976,0.0,0.0,0.0
376,0.0,0.0,0.0,-0.018759765625,0.0,0.0,0.0,0.0,0.0,0.0,-0.593,0.0,0.0,0.0,0.0,0.0,0.0,-0.1420908969701376,0.0,0.0,0.0,0.0,0.0,0.0,-15.436,0.0,0.0,0.0
377,0.0,0.0,0.0,-0.024408203125,0.0,0.0,0.0,0.0,0.0,0.0,-0.567,0.0,0.0,0.0,0.0,0.0,0.0,-0.15005617696939136,0.0,0.0,0.0,0.0,0.0,0.0,-15.868,0.0,0.0,0.0
378,0.0,0.0,0.0,-0.030201171875,0.0,0.0,0.0,0.0,0.0,0.0,-0.577,0.0,0.0,0.0,0.0,0.0,0.0,-0.15789126615690888,0.0,0.0,0.0,0.0,0.0,0.0,-15.252,0.0,0.0,0.0
379,0.0,0.0,0.0,-0.035994140625,0.0,0.0,0.0,0.0,0.0,0.0,-0.584,0.0,0.0,0.0,0.0,0.0,0.0,-0.16545815996191296,0.0,0.0,0.0,0.0,0.0,0.0,-14.568,0.0,0.0,0.0
380,0.0,0.0,0.0,-0.0422294921875,0.0,0.0,0.0,0.0,0.0,0.0,-0.603,0.0,0.0,0.0,0.0,0.0,0.0,-0.17300433326408704,0.0,0.0,0.0,0.0,0.0,0.0,-14.496,0.0,0.0,0.0
381,0.0,0.0,0.0,-0.048302734375,0.0,0.0,0.0,0.0,0.0,0.0,-0.629,0.0,0.0,0.0,0.0,0.0,0.0,-0.1804023997490501,0.0,0.0,0.0,0.0,0.0,0.0,-13.856,0.0,0.0,0.0
382,0.0,0.0,0.0,-0.0543935546875,0.0,0.0,0.0,0.0,0.0,0.0,-0.606,0.0,0.0,0.0,0.0,0.0,0.0,-0.18758139889993175,0.0,0.0,0.0,0.0,0.0,0.0,-14.384,0.0,0.0,0.0
383,0.0,0.0,0.0,-0.060619140625,0.0,0.0,0.0,0.0,0.0,0.0,-0.617,0.0,0.0,0.0,0.0,0.0,0.0,-0.19451612001362514,0.0,0.0,0.0,0.0,0.0,0.0,-13.948,0.0,0.0,0.0
384,0.0,0.0,0.0,-0.066412109375,0.0,0.0,0.0,0.0,0.0,0.0,-0.61,0.0,0.0,0.0,0.0,0.0,0.0,-0.2025965401844931,0.0,0.0,0.0,0.0,0.0,0.0,-13.948,0.0,0.0,0.0
385,0.0,0.0,0.0,-0.072638671875,0.0,0.0,0.0,0.0,0.0,0.0,-0.604,0.0,0.0,0.0,0.0,0.0,0.0,-0.20798137447100165,0.0,0.0,0.0,0.0,0.0,0.0,-14.568,0.0,0.0,0.0
386,0.0,0.0,0.0,-0.0788740234375,0.0,0.0,0.0,0.0,0.0,0.0,-0.637,0.0,0.0,0.0,0.0,0.0,0.0,-0.21439774152907912,0.0,0.0,0.0,0.0,0.0,0.0,-14.408,0.0,0.0,0.0
387,0.0,0.0,0.0,-0.0848115234375,0.0,0.0,0.0,0.0,0.0,0.0,-0.603,0.0,0.0,0.0,0.0,0.0,0.0,-0.22068055830216002,0.0,0.0,0.0,0.0,0.0,0.0,-14.656,0.0,0.0,0.0
388,0.0,0.0,0.0,-0.0908935546875,0.0,0.0,0.0,0.0,0.0,0.0,-0.607,0.0,0.0,0.0,0.0,0.0,0.0,-0.2269496051755308,0.0,0.0,0.0,0.0,0.0,0.0,-14.176,0.0,0.0,0.0
389,0.0,0.0,0.0,-0.09655078125,0.0,0.0,0.0,0.0,0.0,0.0,-0.597,0.0,0.0,0.0,0.0,0.0,0.0,-0.23258112450642165,0.0,0.0,0.0,0.0,0.0,0.0,-13.812,0.0,0.0,0.0
390,0.0,0.0,0.0,-0.10234375,0.0,0.0,0.0,0.0,0.0,0.0,-0.569,0.0,0.0,0.0,0.0,0.0,0.0,-0.23822217254382821,0.0,0.0,0.0,0.0,0.0,0.0,-14.336,0.0,0.0,0.0
391,0.0,0.0,0.0,-0.1085703125,0.0,0.0,0.0,0.0,0.0,0.0,-0.613,0.0,0.0,0.0,0.0,0.0,0.0,-0.24373140503705573,0.0,0.0,0.0,0.0,0.0,0.0,-13.996,0.0,0.0,0.0
392,0.0,0.0,0.0,-0.11436328125,0.0,0.0,0.0,0.0,0.0,0.0,-0.604,0.0,0.0,0.0,0.0,0.0,0.0,-0.24882987830992948,0.0,0.0,0.0,0.0,0.0,0.0,-13.996,0.0,0.0,0.0
393,0.0,0.0,0.0,-0.1204541015625,0.0,0.0,0.0,0.0,0.0,0.0,-0.597,0.0,0.0,0.0,0.0,0.0,0.0,-0.25378874235672977,0.0,0.0,0.0,0.0,0.0,0.0,-13.924,0.0,0.0,0.0
394,0.0,0.0,0.0,-0.1263916015625,0.0,0.0,0.0,0.0,0.0,0.0,-0.612,0.0,0.0,0.0,0.0,0.0,0.0,-0.2585417046819713,0.0,0.0,0.0,0.0,0.0,0.0,-13.492,0.0,0.0,0.0
395,0.0,0.0,0.0,-0.13203125,0.0,0.0,0.0,0.0,0.0,0.0,-0.577,0.0,0.0,0.0,0.0,0.0,0.0,-0.2629873153896947,0.0,0.0,0.0,0.0,0.0,0.0,-14.36,0.0,0.0,0.0
396,0.0,0.0,0.0,-0.1381123046875,0.0,0.0,0.0,0.0,0.0,0.0,-0.594,0.0,0.0,0.0,0.0,0.0,0.0,-0.26725836698890143,0.0,0.0,0.0,0.0,0.0,0.0,-15.068,0.0,0.0,0.0
397,0.0,0.0,0.0,-0.1437705078125,0.0,0.0,0.0,0.0,0.0,0.0,-0.598,0.0,0.0,0.0,0.0,0.0,0.0,-0.2712597489089759,0.0,0.0,0.0,0.0,0.0,0.0,-14.772,0.0,0.0,0.0
398,0.0,0.0,0.0,-0.1495634765625,0.0,0.0,0.0,0.0,0.0,0.0,-0.567,0.0,0.0,0.0,0.0,0.0,0.0,-0.2751465421779465,0.0,0.0,0.0,0.0,0.0,0.0,-14.888,0.0,0.0,0.0
399,0.0,0.0,0.0,-0.1553564453125,0.0,0.0,0.0,0.0,0.0,0.0,-0.587,0.0,0.0,0.0,0.0,0.0,0.0,-0.27851727113198105,0.0,0.0,0.0,0.0,0.0,0.0,-14.016,0.0,0.0,0.0
400,0.0,0.0,0.0,-0.1607158203125,0.0,0.0,0.0,0.0,0.0,0.0,-0.566,0.0,0.0,0.0,0.0,0.0,0.0,-0.2817564959775505,0.0,0.0,0.0,0.0,0.0,0.0,-14.108,0.0,0.0,0.0
401,0.0,0.0,0.0,-0.1667978515625,0.0,0.0,0.0,0.0,0.0,0.0,-0.562,0.0,0.0,0.0,0.0,0.0,0.0,-0.28476106896856956,0.0,0.0,0.0,0.0,0.0,0.0,-14.52,0.0,0.0,0.0
402,0.0,0.0,0.0,-0.1725908203125,0.0,0.0,0.0,0.0,0.0,0.0,-0.605,0.0,0.0,0.0,0.0,0.0,0.0,-0.2874803892176057,0.0,0.0,0.0,0.0,0.0,0.0,-13.72,0.0,0.0,0.0
403,0.0,0.0,0.0,-0.178240234375,0.0,0.0,0.0,0.0,0.0,0.0,-0.576,0.0,0.0,0.0,0.0,0.0,0.0,-0.2899503030546392,0.0,0.0,0.0,0.0,0.0,0.0,-14.084,0.0,0.0,0.0
404,0.0,0.0,0.0,-0.1844658203125,0.0,0.0,0.0,0.0,0.0,0.0,-0.593,0.0,0.0,0.0,0.0,0.0,0.0,-0.29217120035095334,0.0,0.0,0.0,0.0,0.0,0.0,-13.652,0.0,0.0,0.0
405,0.0,0.0,0.0,-0.1901240234375,0.0,0.0,0.0,0.0,0.0,0.0,-0.607,0.0,0.0,0.0,0.0,0.0,0.0,-0.2940743534871195,0.0,0.0,0.0,0.0,0.0,0.0,-13.4,0.0,0.0,0.0
406,0.0,0.0,0.0,-0.1959169921875,0.0,0.0,0.0,0.0,0.0,0.0,-0.575,0.0,0.0,0.0,0.0,0.0,0.0,-0.29574294454542194,0.0,0.0,0.0,0.0,0.0,0.0,-14.428,0.0,0.0,0.0
407,0.0,0.0,0.0,-0.201998046875,0.0,0.0,0.0,0.0,0.0,0.0,-0.602,0.0,0.0,0.0,0.0,0.0,0.0,-0.29713437206499643,0.0,0.0,0.0,0.0,0.0,0.0,-14.588,0.0,0.0,0.0
408,0.0,0.0,0.0,-0.2076376953125,0.0,0.0,0.0,0.0,0.0,0.0,-0.588,0.0,0.0,0.0,0.0,0.0,0.0,-0.2982582476234415,0.0,0.0,0.0,0.0,0.0,0.0,-14.612,0.0,0.0,0.0
409,0.0,0.0,0.0,-0.2132958984375,0.0,0.0,0.0,0.0,0.0,0.0,-0.564,0.0,0.0,0.0,0.0,0.0,0.0,-0.299091527978511,0.0,0.0,0.0,0.0,0.0,0.0,-14.612,0.0,0.0,0.0
410,0.0,0.0,0.0,-0.2192333984375,0.0,0.0,0.0,0.0,0.0,0.0,-0.591,0.0,0.0,0.0,0.0,0.0,0.0,-0.2996596362818611,0.0,0.0,0.0,0.0,0.0,0.0,-13.948,0.0,0.0,0.0
411,0.0,0.0,0.0,-0.2247373046875,0.0,0.0,0.0,0.0,0.0,0.0,-0.574,0.0,0.0,0.0,0.0,0.0,0.0,-0.29995680331692204,0.0,0.0,0.0,0.0,0.0,0.0,-14.156,0.0,0.0,0.0
412,0.0,0.0,0.0,-0.2308193359375,0.0,0.0,0.0,0.0,0.0,0.0,-0.577,0.0,0.0,0.0,0.0,0.0,0.0,-0.2999746271426498,0.0,0.0,0.0,0.0,0.0,0.0,-14.452,0.0,0.0,0.0
413,0.0,0.0,0.0,-0.236603515625,0.0,0.0,0.0,0.0,0.0,0.0,-0.604,0.0,0.0,0.0,0.0,0.0,0.0,-0.2997179873691938,0.0,0.0,0.0,0.0,0.0,0.0,-13.516,0.0,0.0,0.0
414,0.0,0.0,0.0,-0.2425498046875,0.0,0.0,0.0,0.0,0.0,0.0,-0.585,0.0,0.0,0.0,0.0,0.0,0.0,-0.29917386850703886,0.0,0.0,0.0,0.0,0.0,0.0,-13.948,0.0,0.0,0.0
415,0.0,0.0,0.0,-0.2484873046875,0.0,0.0,0.0,0.0,0.0,0.0,-0.602,0.0,0.0,0.0,0.0,0.0,0.0,-0.2983791709422781,0.0,0.0,0.0,0.0,0.0,0.0,-13.812,0.0,0.0,0.0
416,0.0,0.0,0.0,-0.2542802734375,0.0,0.0,0.0,0.0,0.0,0.0,-0.597,0.0,0.0,0.0,0.0,0.0,0.0,-0.29729273882268825,0.0,0.0,0.0,0.0,0.0,0.0,-13.764,0.0,0.0,0.0
417,0.0,0.0,0.0,-0.2602177734375,0.0,0.0,0.0,0.0,0.0,0.0,-0.586,0.0,0.0,0.0,0.0,0.0,0.0,-0.2959596271256583,0.0,0.0,0.0,0.0,0.0,0.0,-14.636,0.0,0.0,0.0
418,0.0,0.0,0.0,-0.2602177734375,0.0,0.0,0.0,0.0,0.0,0.0,-0.586,0.0,0.0,0.0,0.0,0.0,0.0,-0.2943146344430085,0.0,0.0,0.0,0.0,0.0,0.0,-14.636,0.0,0.0,0.0
419,0.0,0.0,0.0,-0.2719482421875,0.0,0.0,0.0,0.0,0.0,0.0,-0.59,0.0,0.0,0.0,0.0,0.0,0.0,-0.2924284689738574,0.0,0.0,0.0,0.0,0.0,0.0,-14.176,0.0,0.0,0.0
420,0.0,0.0,0.0,-0.2775966796875,0.0,0.0,0.0,0.0,0.0,0.0,-0.569,0.0,0.0,0.0,0.0,0.0,0.0,-0.29024800070861256,0.0,0.0,0.0,0.0,0.0,0.0,-14.316,0.0,0.0,0.0
421,0.0,0.0,0.0,-0.2835341796875,0.0,0.0,0.0,0.0,0.0,0.0,-0.585,0.0,0.0,0.0,0.0,0.0,0.0,-0.2878173074439634,0.0,0.0,0.0,0.0,0.0,0.0,-13.812,0.0,0.0,0.0
422,0.0,0.0,0.0,-0.2893271484375,0.0,0.0,0.0,0.0,0.0,0.0,-0.588,0.0,0.0,0.0,0.0,0.0,0.0,-0.2851149854475376,0.0,0.0,0.0,0.0,0.0,0.0,-14.016,0.0,0.0,0.0
423,0.0,0.0,0.0,-0.2949755859375,0.0,0.0,0.0,0.0,0.0,0.0,-0.581,0.0,0.0,0.0,0.0,0.0,0.0,-0.2821660573710132,0.0,0.0,0.0,0.0,0.0,0.0,-13.4,0.0,0.0,0.0
424,0.0,0.0,0.0,-0.29902734375,0.0,0.0,0.0,0.0,0.0,0.0,-0.516,0.0,0.0,0.0,0.0,0.0,0.0,-0.2789329325653176,0.0,0.0,0.0,0.0,0.0,0.0,-10.036,0.0,0.0,0.0
425,0.0,0.0,0.0,-0.300046875,0.0,0.0,0.0,0.0,0.0,0.0,-0.284,0.0,0.0,0.0,0.0,0.0,0.0,-0.2755127306477151,0.0,0.0,0.0,0.0,0.0,0.0,-7.66,0.0,0.0,0.0
426,0.0,0.0,0.0,-0.29990234375,0.0,0.0,0.0,0.0,0.0,0.0,-0.049,0.0,0.0,0.0,0.0,0.0,0.0,-0.2717848240850648,0.0,0.0,0.0,0.0,0.0,0.0,-7.82,0.0,0.0,0.0
427,0.0,0.0,0.0,-0.2993251953125,0.0,0.0,0.0,0.0,0.0,0.0,0.024,0.0,0.0,0.0,0.0,0.0,0.0,-0.2677924107472817,0.0,0.0,0.0,0.0,0.0,0.0,-8.092,0.0,0.0,0.0
428,0.0,0.0,0.0,-0.2978720703125,0.0,0.0,0.0,0.0,0.0,0.0,0.102,0.0,0.0,0.0,0.0,0.0,0.0,-0.2635283968340737,0.0,0.0,0.0,0.0,0.0,0.0,-8.916,0.0,0.0,0.0
429,0.0,0.0,0.0,-0.2965732421875,0.0,0.0,0.0,0.0,0.0,0.0,0.14,0.0,0.0,0.0,0.0,0.0,0.0,-0.2591512001574244,0.0,0.0,0.0,0.0,0.0,0.0,-7.476,0.0,0.0,0.0
430,0.0,0.0,0.0,-0.2946875,0.0,0.0,0.0,0.0,0.0,0.0,0.144,0.0,0.0,0.0,0.0,0.0,0.0,-0.25439736713617644,0.0,0.0,0.0,0.0,0.0,0.0,-5.076,0.0,0.0,0.0
431,0.0,0.0,0.0,-0.2907802734375,0.0,0.0,0.0,0.0,0.0,0.0,0.274,0.0,0.0,0.0,0.0,0.0,0.0,-0.24950992812907014,0.0,0.0,0.0,0.0,0.0,0.0,-4.868,0.0,0.0,0.0
432,0.0,0.0,0.0,-0.28598828125,0.0,0.0,0.0,0.0,0.0,0.0,0.426,0.0,0.0,0.0,0.0,0.0,0.0,-0.24436344296355372,0.0,0.0,0.0,0.0,0.0,0.0,-6.792,0.0,0.0,0.0
433,0.0,0.0,0.0,-0.2810703125,0.0,0.0,0.0,0.0,0.0,0.0,0.489,0.0,0.0,0.0,0.0,0.0,0.0,-0.2389310965989508,0.0,0.0,0.0,0.0,0.0,0.0,-8.644,0.0,0.0,0.0
434,0.0,0.0,0.0,-0.27585546875,0.0,0.0,0.0,0.0,0.0,0.0,0.504,0.0,0.0,0.0,0.0,0.0,0.0,-0.23332937040688742,0.0,0.0,0.0,0.0,0.0,0.0,-8.848,0.0,0.0,0.0
435,0.0,0.0,0.0,-0.2697822265625,0.0,0.0,0.0,0.0,0.0,0.0,0.56,0.0,0.0,0.0,0.0,0.0,0.0,-0.2275361973355281,0.0,0.0,0.0,0.0,0.0,0.0,-7.272,0.0,0.0,0.0
436,0.0,0.0,0.0,-0.263412109375,0.0,0.0,0.0,0.0,0.0,0.0,0.634,0.0,0.0,0.0,0.0,0.0,0.0,-0.22153353095009023,0.0,0.0,0.0,0.0,0.0,0.0,-7.04,0.0,0.0,0.0
437,0.0,0.0,0.0,-0.2570322265625,0.0,0.0,0.0,0.0,0.0,0.0,0.631,0.0,0.0,0.0,0.0,0.0,0.0,-0.2152918870608616,0.0,0.0,0.0,0.0,0.0,0.0,-7.636,0.0,0.0,0.0
438,0.0,0.0,0.0,-0.2500751953125,0.0,0.0,0.0,0.0,0.0,0.0,0.665,0.0,0.0,0.0,0.0,0.0,0.0,-0.2087162231857596,0.0,0.0,0.0,0.0,0.0,0.0,-9.716,0.0,0.0,0.0
439,0.0,0.0,0.0,-0.242982421875,0.0,0.0,0.0,0.0,0.0,0.0,0.706,0.0,0.0,0.0,0.0,0.0,0.0,-0.20223163412478046,0.0,0.0,0.0,0.0,0.0,0.0,-10.448,0.0,0.0,0.0
440,0.0,0.0,0.0,-0.2351591796875,0.0,0.0,0.0,0.0,0.0,0.0,0.737,0.0,0.0,0.0,0.0,0.0,0.0,-0.19539170164236205,0.0,0.0,0.0,0.0,0.0,0.0,-8.984,0.0,0.0,0.0
441,0.0,0.0,0.0,-0.22719140625,0.0,0.0,0.0,0.0,0.0,0.0,0.808,0.0,0.0,0.0,0.0,0.0,0.0,-0.1884719509526,0.0,0.0,0.0,0.0,0.0,0.0,-11.02,0.0,0.0,0.0
442,0.0,0.0,0.0,-0.2206767578125,0.0,0.0,0.0,0.0,0.0,0.0,0.738,0.0,0.0,0.0,0.0,0.0,0.0,-0.18133530189357436,0.0,0.0,0.0,0.0,0.0,0.0,-12.828,0.0,0.0,0.0
443,0.0,0.0,0.0,-0.2130068359375,0.0,0.0,0.0,0.0,0.0,0.0,0.692,0.0,0.0,0.0,0.0,0.0,0.0,-0.1740227342269349,0.0,0.0,0.0,0.0,0.0,0.0,-13.492,0.0,0.0,0.0
444,0.0,0.0,0.0,-0.20430859375,0.0,0.0,0.0,0.0,0.0,0.0,0.828,0.0,0.0,0.0,0.0,0.0,0.0,-0.1664647394644438,0.0,0.0,0.0,0.0,0.0,0.0,-14.016,0.0,0.0,0.0
445,0.0,0.0,0.0,-0.196927734375,0.0,0.0,0.0,0.0,0.0,0.0,0.824,0.0,0.0,0.0,0.0,0.0,0.0,-0.1589236563845531,0.0,0.0,0.0,0.0,0.0,0.0,-13.492,0.0,0.0,0.0
446,0.0,0.0,0.0,-0.1901240234375,0.0,0.0,0.0,0.0,0.0,0.0,0.704,0.0,0.0,0.0,0.0,0.0,0.0,-0.151130455344515,0.0,0.0,0.0,0.0,0.0,0.0,-14.384,0.0,0.0,0.0
447,0.0,0.0,0.0,-0.182291015625,0.0,0.0,0.0,0.0,0.0,0.0,0.732,0.0,0.0,0.0,0.0,0.0,0.0,-0.14321314022040565,0.0,0.0,0.0,0.0,0.0,0.0,-15.62,0.0,0.0,0.0
448,0.0,0.0,0.0,-0.1743330078125,0.0,0.0,0.0,0.0,0.0,0.0,0.8,0.0,0.0,0.0,0.0,0.0,0.0,-0.13428908362375871,0.0,0.0,0.0,0.0,0.0,0.0,-15.388,0.0,0.0,0.0
449,0.0,0.0,0.0,-0.167095703125,0.0,0.0,0.0,0.0,0.0,0.0,0.77,0.0,0.0,0.0,0.0,0.0,0.0,-0.12698197190995303,0.0,0.0,0.0,0.0,0.0,0.0,-15.184,0.0,0.0,0.0
450,0.0,0.0,0.0,-0.1608603515625,0.0,0.0,0.0,0.0,0.0,0.0,0.688,0.0,0.0,0.0,0.0,0.0,0.0,-0.11863676296539122,0.0,0.0,0.0,0.0,0.0,0.0,-17.54,0.0,0.0,0.0
451,0.0,0.0,0.0,-0.1539033203125,0.0,0.0,0.0,0.0,0.0,0.0,0.64,0.0,0.0,0.0,0.0,0.0,0.0,-0.11029531507803082,0.0,0.0,0.0,0.0,0.0,0.0,-16.624,0.0,0.0,0.0
452,0.0,0.0,0.0,-0.1462333984375,0.0,0.0,0.0,0.0,0.0,0.0,0.737,0.0,0.0,0.0,0.0,0.0,0.0,-0.10177376716057523,0.0,0.0,0.0,0.0,0.0,0.0,-17.608,0.0,0.0,0.0
453,0.0,0.0,0.0,-0.1395654296875,0.0,0.0,0.0,0.0,0.0,0.0,0.733,0.0,0.0,0.0,0.0,0.0,0.0,-0.0931421067189166,0.0,0.0,0.0,0.0,0.0,0.0,-17.08,0.0,0.0,0.0
454,0.0,0.0,0.0,-0.1334833984375,0.0,0.0,0.0,0.0,0.0,0.0,0.638,0.0,0.0,0.0,0.0,0.0,0.0,-0.08452693794469195,0.0,0.0,0.0,0.0,0.0,0.0,-18.02,0.0,0.0,0.0
455,0.0,0.0,0.0,-0.12682421875,0.0,0.0,0.0,0.0,0.0,0.0,0.639,0.0,0.0,0.0,0.0,0.0,0.0,-0.07574584823603696,0.0,0.0,0.0,0.0,0.0,0.0,-17.768,0.0,0.0,0.0
456,0.0,0.0,0.0,-0.1200205078125,0.0,0.0,0.0,0.0,0.0,0.0,0.679,0.0,0.0,0.0,0.0,0.0,0.0,-0.06693901634386862,0.0,0.0,0.0,0.0,0.0,0.0,-16.716,0.0,0.0,0.0
457,0.0,0.0,0.0,-0.11378515625,0.0,0.0,0.0,0.0,0.0,0.0,0.661,0.0,0.0,0.0,0.0,0.0,0.0,-0.05805509685239371,0.0,0.0,0.0,0.0,0.0,0.0,-16.008,0.0,0.0,0.0
458,0.0,0.0,0.0,-0.10813671875,0.0,0.0,0.0,0.0,0.0,0.0,0.607,0.0,0.0,0.0,0.0,0.0,0.0,-0.049099789150531335,0.0,0.0,0.0,0.0,0.0,0.0,-16.992,0.0,0.0,0.0
459,0.0,0.0,0.0,-0.1026328125,0.0,0.0,0.0,0.0,0.0,0.0,0.561,0.0,0.0,0.0,0.0,0.0,0.0,-0.04013192389145483,0.0,0.0,0.0,0.0,0.0,0.0,-17.448,0.0,0.0,0.0
460,0.0,0.0,0.0,-0.09683984375,0.0,0.0,0.0,0.0,0.0,0.0,0.553,0.0,0.0,0.0,0.0,0.0,0.0,-0.031108423023611675,0.0,0.0,0.0,0.0,0.0,0.0,-15.94,0.0,0.0,0.0
461,0.0,0.0,0.0,-0.091037109375,0.0,0.0,0.0,0.0,0.0,0.0,0.595,0.0,0.0,0.0,0.0,0.0,0.0,-0.02204730061981209,0.0,0.0,0.0,0.0,0.0,0.0,-15.368,0.0,0.0,0.0
462,0.0,0.0,0.0,-0.0858310546875,0.0,0.0,0.0,0.0,0.0,0.0,0.556,0.0,0.0,0.0,0.0,0.0,0.0,-0.012982140207543949,0.0,0.0,0.0,0.0,0.0,0.0,-15.388,0.0,0.0,0.0
463,0.0,0.0,0.0,-0.080470703125,0.0,0.0,0.0,0.0,0.0,0.0,0.525,0.0,0.0,0.0,0.0,0.0,0.0,-0.003906168719076096,0.0,0.0,0.0,0.0,0.0,0.0,-16.236,0.0,0.0,0.0
464,0.0,0.0,0.0,-0.0753994140625,0.0,0.0,0.0,0.0,0.0,0.0,0.532,0.0,0.0,0.0,0.0,0.0,0.0,0.0052344690960040696,0.0,0.0,0.0,0.0,0.0,0.0,-16.648,0.0,0.0,0.0
465,0.0,0.0,0.0,-0.07047265625,0.0,0.0,0.0,0.0,0.0,0.0,0.499,0.0,0.0,0.0,0.0,0.0,0.0,1.813342318514996e-05,0.0,0.0,0.0,0.0,0.0,0.0,-14.2,0.0,0.0,0.0
466,0.0,0.0,0.0,-0.06496875,0.0,0.0,0.0,0.0,0.0,0.0,0.521,0.0,0.0,0.0,0.0,0.0,0.0,0.0027820124955488337,0.0,0.0,0.0,0.0,0.0,0.0,-12.712,0.0,0.0,0.0
467,0.0,0.0,0.0,-0.0597529296875,0.0,0.0,0.0,0.0,0.0,0.0,0.55,0.0,0.0,0.0,0.0,0.0,0.0,0.00557494285199936,0.0,0.0,0.0,0.0,0.0,0.0,-13.332,0.0,0.0,0.0
468,0.0,0.0,0.0,-0.0548359375,0.0,0.0,0.0,0.0,0.0,0.0,0.507,0.0,0.0,0.0,0.0,0.0,0.0,0.00836048463898987,0.0,0.0,0.0,0.0,0.0,0.0,-13.628,0.0,0.0,0.0
469,0.0,0.0,0.0,-0.0497548828125,0.0,0.0,0.0,0.0,0.0,0.0,0.505,0.0,0.0,0.0,0.0,0.0,0.0,0.011141322630225634,0.0,0.0,0.0,0.0,0.0,0.0,-14.704,0.0,0.0,0.0
470,0.0,0.0,0.0,-0.0454150390625,0.0,0.0,0.0,0.0,0.0,0.0,0.476,0.0,0.0,0.0,0.0,0.0,0.0,0.013922927446480363,0.0,0.0,0.0,0.0,0.0,0.0,-12.92,0.0,0.0,0.0
471,0.0,0.0,0.0,-0.04034375,0.0,0.0,0.0,0.0,0.0,0.0,0.457,0.0,0.0,0.0,0.0,0.0,0.0,0.016710230462892134,0.0,0.0,0.0,0.0,0.0,0.0,-11.752,0.0,0.0,0.0
472,0.0,0.0,0.0,-0.03483984375,0.0,0.0,0.0,0.0,0.0,0.0,0.538,0.0,0.0,0.0,0.0,0.0,0.0,0.019487801928734356,0.0,0.0,0.0,0.0,0.0,0.0,-12.552,0.0,0.0,0.0
473,0.0,0.0,0.0,-0.029470703125,0.0,0.0,0.0,0.0,0.0,0.0,0.545,0.0,0.0,0.0,0.0,0.0,0.0,0.0222653527657573,0.0,0.0,0.0,0.0,0.0,0.0,-13.676,0.0,0.0,0.0
474,0.0,0.0,0.0,-0.0239755859375,0.0,0.0,0.0,0.0,0.0,0.0,0.539,0.0,0.0,0.0,0.0,0.0,0.0,0.025043434798065485,0.0,0.0,0.0,0.0,0.0,0.0,-14.68,0.0,0.0,0.0
475,0.0,0.0,0.0,-0.018904296875,0.0,0.0,0.0,0.0,0.0,0.0,0.544,0.0,0.0,0.0,0.0,0.0,0.0,0.027840254948919976,0.0,0.0,0.0,0.0,0.0,0.0,-14.636,0.0,0.0,0.0
476,0.0,0.0,0.0,-0.0136884765625,0.0,0.0,0.0,0.0,0.0,0.0,0.51,0.0,0.0,0.0,0.0,0.0,0.0,0.03058441859466333,0.0,0.0,0.0,0.0,0.0,0.0,-11.8,0.0,0.0,0.0
477,0.0,0.0,0.0,-0.00788671875,0.0,0.0,0.0,0.0,0.0,0.0,0.549,0.0,0.0,0.0,0.0,0.0,0.0,0.03338164597034625,0.0,0.0,0.0,0.0,0.0,0.0,-11.548,0.0,0.0,0.0
478,0.0,0.0,0.0,-0.00788671875,0.0,0.0,0.0,0.0,0.0,0.0,0.549,0.0,0.0,0.0,0.0,0.0,0.0,0.03616209078535676,0.0,0.0,0.0,0.0,0.0,0.0,-11.548,0.0,0.0,0.0
479,0.0,0.0,0.0,0.003833984375,0.0,0.0,0.0,0.0,0.0,0.0,0.592,0.0,0.0,0.0,0.0,0.0,0.0,0.038894667044157824,0.0,0.0,0.0,0.0,0.0,0.0,-13.148,0.0,0.0,0.0
480,0.0,0.0,0.0,0.009482421875,0.0,0.0,0.0,0.0,0.0,0.0,0.582,0.0,0.0,0.0,0.0,0.0,0.0,0.04165678919258057,0.0,0.0,0.0,0.0,0.0,0.0,-13.604,0.0,0.0,0.0
481,0.0,0.0,0.0,0.01499609375,0.0,0.0,0.0,0.0,0.0,0.0,0.558,0.0,0.0,0.0,0.0,0.0,0.0,0.04445032815620623,0.0,0.0,0.0,0.0,0.0,0.0,-12.348,0.0,0.0,0.0
482,0.0,0.0,0.0,0.02064453125,0.0,0.0,0.0,0.0,0.0,0.0,0.556,0.0,0.0,0.0,0.0,0.0,0.0,0.0471639722480579,0.0,0.0,0.0,0.0,0.0,0.0,-11.912,0.0,0.0,0.0
483,0.0,0.0,0.0,0.0267265625,0.0,0.0,0.0,0.0,0.0,0.0,0.584,0.0,0.0,0.0,0.0,0.0,0.0,0.0499373940951864,0.0,0.0,0.0,0.0,0.0,0.0,-12.736,0.0,0.0,0.0
484,0.0,0.0,0.0,0.0329521484375,0.0,0.0,0.0,0.0,0.0,0.0,0.611,0.0,0.0,0.0,0.0,0.0,0.0,0.052686947014160525,0.0,0.0,0.0,0.0,0.0,0.0,-13.996,0.0,0.0,0.0
485,0.0,0.0,0.0,0.0391875,0.0,0.0,0.0,0.0,0.0,0.0,0.631,0.0,0.0,0.0,0.0,0.0,0.0,0.05542704488819618,0.0,0.0,0.0,0.0,0.0,0.0,-15.276,0.0,0.0,0.0
486,0.0,0.0,0.0,0.04469140625,0.0,0.0,0.0,0.0,0.0,0.0,0.597,0.0,0.0,0.0,0.0,0.0,0.0,0.05812763163412477,0.0,0.0,0.0,0.0,0.0,0.0,-15.756,0.0,0.0,0.0
487,0.0,0.0,0.0,0.0491767578125,0.0,0.0,0.0,0.0,0.0,0.0,0.515,0.0,0.0,0.0,0.0,0.0,0.0,0.06088148052837012,0.0,0.0,0.0,0.0,0.0,0.0,-15.504,0.0,0.0,0.0
488,0.0,0.0,0.0,0.0532373046875,0.0,0.0,0.0,0.0,0.0,0.0,0.429,0.0,0.0,0.0,0.0,0.0,0.0,0.06362207002769008,0.0,0.0,0.0,0.0,0.0,0.0,-14.704,0.0,0.0,0.0
489,0.0,0.0,0.0,0.0575859375,0.0,0.0,0.0,0.0,0.0,0.0,0.421,0.0,0.0,0.0,0.0,0.0,0.0,0.06631144214072264,0.0,0.0,0.0,0.0,0.0,0.0,-14.772,0.0,0.0,0.0
490,0.0,0.0,0.0,0.061060546875,0.0,0.0,0.0,0.0,0.0,0.0,0.41,0.0,0.0,0.0,0.0,0.0,0.0,0.06901202989562757,0.0,0.0,0.0,0.0,0.0,0.0,-16.304,0.0,0.0,0.0
491,0.0,0.0,0.0,0.0638125,0.0,0.0,0.0,0.0,0.0,0.0,0.309,0.0,0.0,0.0,0.0,0.0,0.0,0.07175735494400584,0.0,0.0,0.0,0.0,0.0,0.0,-16.304,0.0,0.0,0.0
492,0.0,0.0,0.0,0.067142578125,0.0,0.0,0.0,0.0,0.0,0.0,0.306,0.0,0.0,0.0,0.0,0.0,0.0,0.07450275502945872,0.0,0.0,0.0,0.0,0.0,0.0,-16.6,0.0,0.0,0.0
493,0.0,0.0,0.0,0.06960546875,0.0,0.0,0.0,0.0,0.0,0.0,0.303,0.0,0.0,0.0,0.0,0.0,0.0,0.07712579271644326,0.0,0.0,0.0,0.0,0.0,0.0,-16.672,0.0,0.0,0.0
494,0.0,0.0,0.0,0.0717802734375,0.0,0.0,0.0,0.0,0.0,0.0,0.217,0.0,0.0,0.0,0.0,0.0,0.0,0.07983998617733895,0.0,0.0,0.0,0.0,0.0,0.0,-15.504,0.0,0.0,0.0
495,0.0,0.0,0.0,0.074830078125,0.0,0.0,0.0,0.0,0.0,0.0,0.265,0.0,0.0,0.0,0.0,0.0,0.0,0.08252768716015672,0.0,0.0,0.0,0.0,0.0,0.0,-16.212,0.0,0.0,0.0
496,0.0,0.0,0.0,0.0768515625,0.0,0.0,0.0,0.0,0.0,0.0,0.274,0.0,0.0,0.0,0.0,0.0,0.0,0.08521804852391944,0.0,0.0,0.0,0.0,0.0,0.0,-16.808,0.0,0.0,0.0
497,0.0,0.0,0.0,0.0787373046875,0.0,0.0,0.0,0.0,0.0,0.0,0.188,0.0,0.0,0.0,0.0,0.0,0.0,0.08785594733177612,0.0,0.0,0.0,0.0,0.0,0.0,-15.732,0.0,0.0,0.0
498,0.0,0.0,0.0,0.081056640625,0.0,0.0,0.0,0.0,0.0,0.0,0.217,0.0,0.0,0.0,0.0,0.0,0.0,0.09050537215758246,0.0,0.0,0.0,0.0,0.0,0.0,-15.8,0.0,0.0,0.0
499,0.0,0.0,0.0,0.0825,0.0,0.0,0.0,0.0,0.0,0.0,0.193,0.0,0.0,0.0,0.0,0.0,0.0,0.0932221871612926,0.0,0.0,0.0,0.0,0.0,0.0,-14.496,0.0,0.0,0.0
500,0.0,0.0,0.0,0.0848193359375,0.0,0.0,0.0,0.0,0.0,0.0,0.168,0.0,0.0,0.0,0.0,0.0,0.0,0.09581362383146629,0.0,0.0,0.0,0.0,0.0,0.0,-13.536,0.0,0.0,0.0
501,0.0,0.0,0.0,0.0871376953125,0.0,0.0,0.0,0.0,0.0,0.0,0.249,0.0,0.0,0.0,0.0,0.0,0.0,0.09845560264830089,0.0,0.0,0.0,0.0,0.0,0.0,-15.208,0.0,0.0,0.0
502,0.0,0.0,0.0,0.0887265625,0.0,0.0,0.0,0.0,0.0,0.0,0.189,0.0,0.0,0.0,0.0,0.0,0.0,0.10110424800322386,0.0,0.0,0.0,0.0,0.0,0.0,-14.588,0.0,0.0,0.0
503,0.0,0.0,0.0,0.090900390625,0.0,0.0,0.0,0.0,0.0,0.0,0.183,0.0,0.0,0.0,0.0,0.0,0.0,0.10369616532749036,0.0,0.0,0.0,0.0,0.0,0.0,-15.0,0.0,0.0,0.0
504,0.0,0.0,0.0,0.092498046875,0.0,0.0,0.0,0.0,0.0,0.0,0.201,0.0,0.0,0.0,0.0,0.0,0.0,0.10633298687859388,0.0,0.0,0.0,0.0,0.0,0.0,-14.52,0.0,0.0,0.0
505,0.0,0.0,0.0,0.09423046875,0.0,0.0,0.0,0.0,0.0,0.0,0.16,0.0,0.0,0.0,0.0,0.0,0.0,0.10890728390620236,0.0,0.0,0.0,0.0,0.0,0.0,-13.356,0.0,0.0,0.0
506,0.0,0.0,0.0,0.096703125,0.0,0.0,0.0,0.0,0.0,0.0,0.212,0.0,0.0,0.0,0.0,0.0,0.0,0.11148138062109876,0.0,0.0,0.0,0.0,0.0,0.0,-13.744,0.0,0.0,0.0
507,0.0,0.0,0.0,0.099166015625,0.0,0.0,0.0,0.0,0.0,0.0,0.246,0.0,0.0,0.0,0.0,0.0,0.0,0.11406534183701152,0.0,0.0,0.0,0.0,0.0,0.0,-14.084,0.0,0.0,0.0
508,0.0,0.0,0.0,0.099166015625,0.0,0.0,0.0,0.0,0.0,0.0,0.246,0.0,0.0,0.0,0.0,0.0,0.0,0.1173033413706044,0.0,0.0,0.0,0.0,0.0,0.0,-14.084,0.0,0.0,0.0
509,0.0,0.0,0.0,0.1040751953125,0.0,0.0,0.0,0.0,0.0,0.0,0.247,0.0,0.0,0.0,0.0,0.0,0.0,0.1194283585202034,0.0,0.0,0.0,0.0,0.0,0.0,-13.788,0.0,0.0,0.0
510,0.0,0.0,0.0,0.10625,0.0,0.0,0.0,0.0,0.0,0.0,0.248,0.0,0.0,0.0,0.0,0.0,0.0,0.12176631383339817,0.0,0.0,0.0,0.0,0.0,0.0,-13.56,0.0,0.0,0.0
511,0.0,0.0,0.0,0.108712890625,0.0,0.0,0.0,0.0,0.0,0.0,0.222,0.0,0.0,0.0,0.0,0.0,0.0,0.12434418550699726,0.0,0.0,0.0,0.0,0.0,0.0,-12.464,0.0,0.0,0.0
512,0.0,0.0,0.0,0.11175390625,0.0,0.0,0.0,0.0,0.0,0.0,0.275,0.0,0.0,0.0,0.0,0.0,0.0,0.12686437212162302,0.0,0.0,0.0,0.0,0.0,0.0,-12.392,0.0,0.0,0.0
513,0.0,0.0,0.0,0.113775390625,0.0,0.0,0.0,0.0,0.0,0.0,0.268,0.0,0.0,0.0,0.0,0.0,0.0,0.12936986738593007,0.0,0.0,0.0,0.0,0.0,0.0,-12.552,0.0,0.0,0.0
514,0.0,0.0,0.0,0.116248046875,0.0,0.0,0.0,0.0,0.0,0.0,0.213,0.0,0.0,0.0,0.0,0.0,0.0,0.13189517076718457,0.0,0.0,0.0,0.0,0.0,0.0,-12.028,0.0,0.0,0.0
515,0.0,0.0,0.0,0.11885546875,0.0,0.0,0.0,0.0,0.0,0.0,0.267,0.0,0.0,0.0,0.0,0.0,0.0,0.13437402323360653,0.0,0.0,0.0,0.0,0.0,0.0,-12.668,0.0,0.0,0.0
516,0.0,0.0,0.0,0.1208857421875,0.0,0.0,0.0,0.0,0.0,0.0,0.236,0.0,0.0,0.0,0.0,0.0,0.0,0.13683997363747685,0.0,0.0,0.0,0.0,0.0,0.0,-12.212,0.0,0.0,0.0
517,0.0,0.0,0.0,0.1234931640625,0.0,0.0,0.0,0.0,0.0,0.0,0.218,0.0,0.0,0.0,0.0,0.0,0.0,0.13933430599184596,0.0,0.0,0.0,0.0,0.0,0.0,-12.348,0.0,0.0,0.0
518,0.0,0.0,0.0,0.125947265625,0.0,0.0,0.0,0.0,0.0,0.0,0.27,0.0,0.0,0.0,0.0,0.0,0.0,0.1417869154711345,0.0,0.0,0.0,0.0,0.0,0.0,-13.536,0.0,0.0,0.0
519,0.0,0.0,0.0,0.1281220703125,0.0,0.0,0.0,0.0,0.0,0.0,0.227,0.0,0.0,0.0,0.0,0.0,0.0,0.14421567584088885,0.0,0.0,0.0,0.0,0.0,0.0,-12.804,0.0,0.0,0.0
520,0.0,0.0,0.0,0.1310185546875,0.0,0.0,0.0,0.0,0.0,0.0,0.248,0.0,0.0,0.0,0.0,0.0,0.0,0.14667473645691106,0.0,0.0,0.0,0.0,0.0,0.0,-13.696,0.0,0.0,0.0
521,0.0,0.0,0.0,0.133048828125,0.0,0.0,0.0,0.0,0.0,0.0,0.256,0.0,0.0,0.0,0.0,0.0,0.0,0.14909065420207807,0.0,0.0,0.0,0.0,0.0,0.0,-13.836,0.0,0.0,0.0
522,0.0,0.0,0.0,0.1355126953125,0.0,0.0,0.0,0.0,0.0,0.0,0.213,0.0,0.0,0.0,0.0,0.0,0.0,0.1515020551540729,0.0,0.0,0.0,0.0,0.0,0.0,-12.896,0.0,0.0,0.0
523,0.0,0.0,0.0,0.1355126953125,0.0,0.0,0.0,0.0,0.0,0.0,0.213,0.0,0.0,0.0,0.0,0.0,0.0,0.153920171764713,0.0,0.0,0.0,0.0,0.0,0.0,-12.896,0.0,0.0,0.0
524,0.0,0.0,0.0,0.1410166015625,0.0,0.0,0.0,0.0,0.0,0.0,0.277,0.0,0.0,0.0,0.0,0.0,0.0,0.1562915109167565,0.0,0.0,0.0,0.0,0.0,0.0,-13.172,0.0,0.0,0.0
525,0.0,0.0,0.0,0.1439130859375,0.0,0.0,0.0,0.0,0.0,0.0,0.254,0.0,0.0,0.0,0.0,0.0,0.0,0.1586389235353867,0.0,0.0,0.0,0.0,0.0,0.0,-12.828,0.0,0.0,0.0
526,0.0,0.0,0.0,0.1468095703125,0.0,0.0,0.0,0.0,0.0,0.0,0.306,0.0,0.0,0.0,0.0,0.0,0.0,0.16101894492655136,0.0,0.0,0.0,0.0,0.0,0.0,-14.176,0.0,0.0,0.0
527,0.0,0.0,0.0,0.14883984375,0.0,0.0,0.0,0.0,0.0,0.0,0.239,0.0,0.0,0.0,0.0,0.0,0.0,0.1633584645937087,0.0,0.0,0.0,0.0,0.0,0.0,-13.216,0.0,0.0,0.0
528,0.0,0.0,0.0,0.14883984375,0.0,0.0,0.0,0.0,0.0,0.0,0.239,0.0,0.0,0.0,0.0,0.0,0.0,0.1657340566963778,0.0,0.0,0.0,0.0,0.0,0.0,-13.216,0.0,0.0,0.0
529,0.0,0.0,0.0,0.1544892578125,0.0,0.0,0.0,0.0,0.0,0.0,0.303,0.0,0.0,0.0,0.0,0.0,0.0,0.16799398041679056,0.0,0.0,0.0,0.0,0.0,0.0,-14.748,0.0,0.0,0.0
530,0.0,0.0,0.0,0.1566728515625,0.0,0.0,0.0,0.0,0.0,0.0,0.228,0.0,0.0,0.0,0.0,0.0,0.0,0.17031458344735842,0.0,0.0,0.0,0.0,0.0,0.0,-13.924,0.0,0.0,0.0
531,0.0,0.0,0.0,0.160001953125,0.0,0.0,0.0,0.0,0.0,0.0,0.274,0.0,0.0,0.0,0.0,0.0,0.0,0.17262144052543926,0.0,0.0,0.0,0.0,0.0,0.0,-15.092,0.0,0.0,0.0
532,0.0,0.0,0.0,0.16216796875,0.0,0.0,0.0,0.0,0.0,0.0,0.29,0.0,0.0,0.0,0.0,0.0,0.0,0.17485744235203843,0.0,0.0,0.0,0.0,0.0,0.0,-15.388,0.0,0.0,0.0
533,0.0,0.0,0.0,0.164630859375,0.0,0.0,0.0,0.0,0.0,0.0,0.221,0.0,0.0,0.0,0.0,0.0,0.0,0.1771287421437764,0.0,0.0,0.0,0.0,0.0,0.0,-14.52,0.0,0.0,0.0
534,0.0,0.0,0.0,0.167671875,0.0,0.0,0.0,0.0,0.0,0.0,0.277,0.0,0.0,0.0,0.0,0.0,0.0,0.1793465985575822,0.0,0.0,0.0,0.0,0.0,0.0,-15.276,0.0,0.0,0.0
535,0.0,0.0,0.0,0.1701357421875,0.0,0.0,0.0,0.0,0.0,0.0,0.281,0.0,0.0,0.0,0.0,0.0,0.0,0.18164711645725548,0.0,0.0,0.0,0.0,0.0,0.0,-14.336,0.0,0.0,0.0
536,0.0,0.0,0.0,0.1727431640625,0.0,0.0,0.0,0.0,0.0,0.0,0.25,0.0,0.0,0.0,0.0,0.0,0.0,0.18378534640414781,0.0,0.0,0.0,0.0,0.0,0.0,-14.2,0.0,0.0,0.0
537,0.0,0.0,0.0,0.1747646484375,0.0,0.0,0.0,0.0,0.0,0.0,0.249,0.0,0.0,0.0,0.0,0.0,0.0,0.18597847792519054,0.0,0.0,0.0,0.0,0.0,0.0,-14.544,0.0,0.0,0.0
538,0.0,0.0,0.0,0.1747646484375,0.0,0.0,0.0,0.0,0.0,0.0,0.249,0.0,0.0,0.0,0.0,0.0,0.0,0.18816582699704473,0.0,0.0,0.0,0.0,0.0,0.0,-14.544,0.0,0.0,0.0
539,0.0,0.0,0.0,0.178978515625,0.0,0.0,0.0,0.0,0.0,0.0,0.213,0.0,0.0,0.0,0.0,0.0,0.0,0.1903268477911959,0.0,0.0,0.0,0.0,0.0,0.0,-13.424,0.0,0.0,0.0
540,0.0,0.0,0.0,0.1807109375,0.0,0.0,0.0,0.0,0.0,0.0,0.194,0.0,0.0,0.0,0.0,0.0,0.0,0.192472993522722,0.0,0.0,0.0,0.0,0.0,0.0,-13.308,0.0,0.0,0.0
541,0.0,0.0,0.0,0.1828857421875,0.0,0.0,0.0,0.0,0.0,0.0,0.192,0.0,0.0,0.0,0.0,0.0,0.0,0.1946218371714812,0.0,0.0,0.0,0.0,0.0,0.0,-13.516,0.0,0.0,0.0
542,0.0,0.0,0.0,0.184916015625,0.0,0.0,0.0,0.0,0.0,0.0,0.226,0.0,0.0,0.0,0.0,0.0,0.0,0.19669861411708858,0.0,0.0,0.0,0.0,0.0,0.0,-14.248,0.0,0.0,0.0
543,0.0,0.0,0.0,0.18650390625,0.0,0.0,0.0,0.0,0.0,0.0,0.176,0.0,0.0,0.0,0.0,0.0,0.0,0.19878888672120978,0.0,0.0,0.0,0.0,0.0,0.0,-13.468,0.0,0.0,0.0
544,0.0,0.0,0.0,0.18650390625,0.0,0.0,0.0,0.0,0.0,0.0,0.176,0.0,0.0,0.0,0.0,0.0,0.0,0.2008834069702319,0.0,0.0,0.0,0.0,0.0,0.0,-13.468,0.0,0.0,0.0
545,0.0,0.0,0.0,0.190275390625,0.0,0.0,0.0,0.0,0.0,0.0,0.186,0.0,0.0,0.0,0.0,0.0,0.0,0.20293258829679073,0.0,0.0,0.0,0.0,0.0,0.0,-13.264,0.0,0.0,0.0
546,0.0,0.0,0.0,0.19244140625,0.0,0.0,0.0,0.0,0.0,0.0,0.178,0.0,0.0,0.0,0.0,0.0,0.0,0.2049689717430944,0.0,0.0,0.0,0.0,0.0,0.0,-12.896,0.0,0.0,0.0
547,0.0,0.0,0.0,0.1944716796875,0.0,0.0,0.0,0.0,0.0,0.0,0.215,0.0,0.0,0.0,0.0,0.0,0.0,0.20699361244318376,0.0,0.0,0.0,0.0,0.0,0.0,-13.468,0.0,0.0,0.0
548,0.0,0.0,0.0,0.1963662109375,0.0,0.0,0.0,0.0,0.0,0.0,0.213,0.0,0.0,0.0,0.0,0.0,0.0,0.2090188091615381,0.0,0.0,0.0,0.0,0.0,0.0,-13.744,0.0,0.0,0.0
549,0.0,0.0,0.0,0.1983876953125,0.0,0.0,0.0,0.0,0.0,0.0,0.193,0.0,0.0,0.0,0.0,0.0,0.0,0.21099180813464255,0.0,0.0,0.0,0.0,0.0,0.0,-13.24,0.0,0.0,0.0
550,0.0,0.0,0.0,0.20041796875,0.0,0.0,0.0,0.0,0.0,0.0,0.206,0.0,0.0,0.0,0.0,0.0,0.0,0.21296281884696017,0.0,0.0,0.0,0.0,0.0,0.0,-12.852,0.0,0.0,0.0
551,0.0,0.0,0.0,0.202150390625,0.0,0.0,0.0,0.0,0.0,0.0,0.198,0.0,0.0,0.0,0.0,0.0,0.0,0.21492260747708292,0.0,0.0,0.0,0.0,0.0,0.0,-12.828,0.0,0.0,0.0
552,0.0,0.0,0.0,0.2041806640625,0.0,0.0,0.0,0.0,0.0,0.0,0.175,0.0,0.0,0.0,0.0,0.0,0.0,0.21686244686301742,0.0,0.0,0.0,0.0,0.0,0.0,-12.348,0.0,0.0,0.0
553,0.0,0.0,0.0,0.20635546875,0.0,0.0,0.0,0.0,0.0,0.0,0.214,0.0,0.0,0.0,0.0,0.0,0.0,0.21877370721389902,0.0,0.0,0.0,0.0,0.0,0.0,-13.24,0.0,0.0,0.0
554,0.0,0.0,0.0,0.207943359375,0.0,0.0,0.0,0.0,0.0,0.0,0.188,0.0,0.0,0.0,0.0,0.0,0.0,0.22067226252515262,0.0,0.0,0.0,0.0,0.0,0.0,-12.804,0.0,0.0,0.0
555,0.0,0.0,0.0,0.2099736328125,0.0,0.0,0.0,0.0,0.0,0.0,0.18,0.0,0.0,0.0,0.0,0.0,0.0,0.2225502381872752,0.0,0.0,0.0,0.0,0.0,0.0,-13.216,0.0,0.0,0.0
556,0.0,0.0,0.0,0.2115615234375,0.0,0.0,0.0,0.0,0.0,0.0,0.187,0.0,0.0,0.0,0.0,0.0,0.0,0.22441126569637979,0.0,0.0,0.0,0.0,0.0,0.0,-12.784,0.0,0.0,0.0
557,0.0,0.0,0.0,0.213736328125,0.0,0.0,0.0,0.0,0.0,0.0,0.19,0.0,0.0,0.0,0.0,0.0,0.0,0.22624865824093993,0.0,0.0,0.0,0.0,0.0,0.0,-13.356,0.0,0.0,0.0
558,0.0,0.0,0.0,0.2157763671875,0.0,0.0,0.0,0.0,0.0,0.0,0.208,0.0,0.0,0.0,0.0,0.0,0.0,0.2280683906005823,0.0,0.0,0.0,0.0,0.0,0.0,-13.696,0.0,0.0,0.0
559,0.0,0.0,0.0,0.2179501953125,0.0,0.0,0.0,0.0,0.0,0.0,0.206,0.0,0.0,0.0,0.0,0.0,0.0,0.22986328988408308,0.0,0.0,0.0,0.0,0.0,0.0,-14.248,0.0,0.0,0.0
560,0.0,0.0,0.0,0.2198271484375,0.0,0.0,0.0,0.0,0.0,0.0,0.209,0.0,0.0,0.0,0.0,0.0,0.0,0.23164536001092678,0.0,0.0,0.0,0.0,0.0,0.0,-14.428,0.0,0.0,0.0
561,0.0,0.0,0.0,0.222001953125,0.0,0.0,0.0,0.0,0.0,0.0,0.194,0.0,0.0,0.0,0.0,0.0,0.0,0.23340824764271584,0.0,0.0,0.0,0.0,0.0,0.0,-13.972,0.0,0.0,0.0
562,0.0,0.0,0.0,0.2240322265625,0.0,0.0,0.0,0.0,0.0,0.0,0.221,0.0,0.0,0.0,0.0,0.0,0.0,0.23513939720609425,0.0,0.0,0.0,0.0,0.0,0.0,-14.292,0.0,0.0,0.0
563,0.0,0.0,0.0,0.2259091796875,0.0,0.0,0.0,0.0,0.0,0.0,0.197,0.0,0.0,0.0,0.0,0.0,0.0,0.23686401261278878,0.0,0.0,0.0,0.0,0.0,0.0,-14.248,0.0,0.0,0.0
564,0.0,0.0,0.0,0.2285166015625,0.0,0.0,0.0,0.0,0.0,0.0,0.215,0.0,0.0,0.0,0.0,0.0,0.0,0.2385658344255204,0.0,0.0,0.0,0.0,0.0,0.0,-14.588,0.0,0.0,0.0
565,0.0,0.0,0.0,0.2304033203125,0.0,0.0,0.0,0.0,0.0,0.0,0.23,0.0,0.0,0.0,0.0,0.0,0.0,0.2402402227704741,0.0,0.0,0.0,0.0,0.0,0.0,-14.452,0.0,0.0,0.0
566,0.0,0.0,0.0,0.232423828125,0.0,0.0,0.0,0.0,0.0,0.0,0.203,0.0,0.0,0.0,0.0,0.0,0.0,0.24189596873683955,0.0,0.0,0.0,0.0,0.0,0.0,-14.156,0.0,0.0,0.0
567,0.0,0.0,0.0,0.234166015625,0.0,0.0,0.0,0.0,0.0,0.0,0.191,0.0,0.0,0.0,0.0,0.0,0.0,0.24353223510197172,0.0,0.0,0.0,0.0,0.0,0.0,-14.04,0.0,0.0,0.0
568,0.0,0.0,0.0,0.2359072265625,0.0,0.0,0.0,0.0,0.0,0.0,0.176,0.0,0.0,0.0,0.0,0.0,0.0,0.2451533095281247,0.0,0.0,0.0,0.0,0.0,0.0,-13.56,0.0,0.0,0.0
569,0.0,0.0,0.0,0.23750390625,0.0,0.0,0.0,0.0,0.0,0.0,0.173,0.0,0.0,0.0,0.0,0.0,0.0,0.246744845151108,0.0,0.0,0.0,0.0,0.0,0.0,-13.676,0.0,0.0,0.0
570,0.0,0.0,0.0,0.2388037109375,0.0,0.0,0.0,0.0,0.0,0.0,0.141,0.0,0.0,0.0,0.0,0.0,0.0,0.24831866618247475,0.0,0.0,0.0,0.0,0.0,0.0,-13.308,0.0,0.0,0.0
571,0.0,0.0,0.0,0.240544921875,0.0,0.0,0.0,0.0,0.0,0.0,0.152,0.0,0.0,0.0,0.0,0.0,0.0,0.24998449479581736,0.0,0.0,0.0,0.0,0.0,0.0,-13.56,0.0,0.0,0.0
572,0.0,0.0,0.0,0.2418447265625,0.0,0.0,0.0,0.0,0.0,0.0,0.16,0.0,0.0,0.0,0.0,0.0,0.0,0.2514128870124111,0.0,0.0,0.0,0.0,0.0,0.0,-13.492,0.0,0.0,0.0
573,0.0,0.0,0.0,0.24373046875,0.0,0.0,0.0,0.0,0.0,0.0,0.147,0.0,0.0,0.0,0.0,0.0,0.0,0.2529193471583501,0.0,0.0,0.0,0.0,0.0,0.0,-13.468,0.0,0.0,0.0
574,0.0,0.0,0.0,0.2448857421875,0.0,0.0,0.0,0.0,0.0,0.0,0.157,0.0,0.0,0.0,0.0,0.0,0.0,0.254418576892774,0.0,0.0,0.0,0.0,0.0,0.0,-13.516,0.0,0.0,0.0
575,0.0,0.0,0.0,0.246482421875,0.0,0.0,0.0,0.0,0.0,0.0,0.136,0.0,0.0,0.0,0.0,0.0,0.0,0.2558691610749972,0.0,0.0,0.0,0.0,0.0,0.0,-13.424,0.0,0.0,0.0
576,0.0,0.0,0.0,0.2477822265625,0.0,0.0,0.0,0.0,0.0,0.0,0.143,0.0,0.0,0.0,0.0,0.0,0.0,0.2573111695854052,0.0,0.0,0.0,0.0,0.0,0.0,-13.444,0.0,0.0,0.0
577,0.0,0.0,0.0,0.2490908203125,0.0,0.0,0.0,0.0,0.0,0.0,0.134,0.0,0.0,0.0,0.0,0.0,0.0,0.2587310656761503,0.0,0.0,0.0,0.0,0.0,0.0,-13.192,0.0,0.0,0.0
578,0.0,0.0,0.0,0.2503896484375,0.0,0.0,0.0,0.0,0.0,0.0,0.14,0.0,0.0,0.0,0.0,0.0,0.0,0.26013947845566965,0.0,0.0,0.0,0.0,0.0,0.0,-13.4,0.0,0.0,0.0
579,0.0,0.0,0.0,0.2516982421875,0.0,0.0,0.0,0.0,0.0,0.0,0.126,0.0,0.0,0.0,0.0,0.0,0.0,0.2615056223302115,0.0,0.0,0.0,0.0,0.0,0.0,-13.012,0.0,0.0,0.0
580,0.0,0.0,0.0,0.2531416015625,0.0,0.0,0.0,0.0,0.0,0.0,0.139,0.0,0.0,0.0,0.0,0.0,0.0,0.26286959130001847,0.0,0.0,0.0,0.0,0.0,0.0,-13.284,0.0,0.0,0.0
581,0.0,0.0,0.0,0.25415234375,0.0,0.0,0.0,0.0,0.0,0.0,0.125,0.0,0.0,0.0,0.0,0.0,0.0,0.26419573272402164,0.0,0.0,0.0,0.0,0.0,0.0,-12.896,0.0,0.0,0.0
582,0.0,0.0,0.0,0.2556142578125,0.0,0.0,0.0,0.0,0.0,0.0,0.123,0.0,0.0,0.0,0.0,0.0,0.0,0.2655000675384407,0.0,0.0,0.0,0.0,0.0,0.0,-12.852,0.0,0.0,0.0
583,0.0,0.0,0.0,0.2569140625,0.0,0.0,0.0,0.0,0.0,0.0,0.139,0.0,0.0,0.0,0.0,0.0,0.0,0.2667853580568721,0.0,0.0,0.0,0.0,0.0,0.0,-12.988,0.0,0.0,0.0
584,0.0,0.0,0.0,0.2582216796875,0.0,0.0,0.0,0.0,0.0,0.0,0.121,0.0,0.0,0.0,0.0,0.0,0.0,0.2680568707812435,0.0,0.0,0.0,0.0,0.0,0.0,-12.896,0.0,0.0,0.0
585,0.0,0.0,0.0,0.259521484375,0.0,0.0,0.0,0.0,0.0,0.0,0.132,0.0,0.0,0.0,0.0,0.0,0.0,0.2692998155804947,0.0,0.0,0.0,0.0,0.0,0.0,-13.032,0.0,0.0,0.0
586,0.0,0.0,0.0,0.2606767578125,0.0,0.0,0.0,0.0,0.0,0.0,0.128,0.0,0.0,0.0,0.0,0.0,0.0,0.27051121658762045,0.0,0.0,0.0,0.0,0.0,0.0,-12.944,0.0,0.0,0.0
587,0.0,0.0,0.0,0.26212890625,0.0,0.0,0.0,0.0,0.0,0.0,0.125,0.0,0.0,0.0,0.0,0.0,0.0,0.2717023986025424,0.0,0.0,0.0,0.0,0.0,0.0,-12.784,0.0,0.0,0.0
588,0.0,0.0,0.0,0.2632841796875,0.0,0.0,0.0,0.0,0.0,0.0,0.138,0.0,0.0,0.0,0.0,0.0,0.0,0.2729342165531849,0.0,0.0,0.0,0.0,0.0,0.0,-12.852,0.0,0.0,0.0
589,0.0,0.0,0.0,0.2644482421875,0.0,0.0,0.0,0.0,0.0,0.0,0.127,0.0,0.0,0.0,0.0,0.0,0.0,0.2740214872081762,0.0,0.0,0.0,0.0,0.0,0.0,-13.056,0.0,0.0,0.0
590,0.0,0.0,0.0,0.265748046875,0.0,0.0,0.0,0.0,0.0,0.0,0.126,0.0,0.0,0.0,0.0,0.0,0.0,0.27514149320784875,0.0,0.0,0.0,0.0,0.0,0.0,-12.784,0.0,0.0,0.0
591,0.0,0.0,0.0,0.267046875,0.0,0.0,0.0,0.0,0.0,0.0,0.128,0.0,0.0,0.0,0.0,0.0,0.0,0.27626847907477153,0.0,0.0,0.0,0.0,0.0,0.0,-12.896,0.0,0.0,0.0
592,0.0,0.0,0.0,0.2682109375,0.0,0.0,0.0,0.0,0.0,0.0,0.116,0.0,0.0,0.0,0.0,0.0,0.0,0.2773151197752885,0.0,0.0,0.0,0.0,0.0,0.0,-12.692,0.0,0.0,0.0
593,0.0,0.0,0.0,0.2693662109375,0.0,0.0,0.0,0.0,0.0,0.0,0.118,0.0,0.0,0.0,0.0,0.0,0.0,0.27840495894717576,0.0,0.0,0.0,0.0,0.0,0.0,-12.896,0.0,0.0,0.0
594,0.0,0.0,0.0,0.2703857421875,0.0,0.0,0.0,0.0,0.0,0.0,0.112,0.0,0.0,0.0,0.0,0.0,0.0,0.2793953236089818,0.0,0.0,0.0,0.0,0.0,0.0,-13.012,0.0,0.0,0.0
595,0.0,0.0,0.0,0.271541015625,0.0,0.0,0.0,0.0,0.0,0.0,0.11,0.0,0.0,0.0,0.0,0.0,0.0,0.2803969418742431,0.0,0.0,0.0,0.0,0.0,0.0,-13.148,0.0,0.0,0.0
596,0.0,0.0,0.0,0.272984375,0.0,0.0,0.0,0.0,0.0,0.0,0.121,0.0,0.0,0.0,0.0,0.0,0.0,0.2813792421888349,0.0,0.0,0.0,0.0,0.0,0.0,-13.124,0.0,0.0,0.0
597,0.0,0.0,0.0,0.2740126953125,0.0,0.0,0.0,0.0,0.0,0.0,0.124,0.0,0.0,0.0,0.0,0.0,0.0,0.2823342758088267,0.0,0.0,0.0,0.0,0.0,0.0,-13.4,0.0,0.0,0.0
598,0.0,0.0,0.0,0.2750234375,0.0,0.0,0.0,0.0,0.0,0.0,0.109,0.0,0.0,0.0,0.0,0.0,0.0,0.28326491219525524,0.0,0.0,0.0,0.0,0.0,0.0,-13.56,0.0,0.0,0.0
599,0.0,0.0,0.0,0.2763232421875,0.0,0.0,0.0,0.0,0.0,0.0,0.11,0.0,0.0,0.0,0.0,0.0,0.0,0.2841569733769472,0.0,0.0,0.0,0.0,0.0,0.0,-13.696,0.0,0.0,0.0
600,0.0,0.0,0.0,0.2771982421875,0.0,0.0,0.0,0.0,0.0,0.0,0.118,0.0,0.0,0.0,0.0,0.0,0.0,0.28504217447922725,0.0,0.0,0.0,0.0,0.0,0.0,-13.924,0.0,0.0,0.0
601,0.0,0.0,0.0,0.278064453125,0.0,0.0,0.0,0.0,0.0,0.0,0.093,0.0,0.0,0.0,0.0,0.0,0.0,0.28590314569239805,0.0,0.0,0.0,0.0,0.0,0.0,-13.676,0.0,0.0,0.0
602,0.0,0.0,0.0,0.2792197265625,0.0,0.0,0.0,0.0,0.0,0.0,0.097,0.0,0.0,0.0,0.0,0.0,0.0,0.28673061921075205,0.0,0.0,0.0,0.0,0.0,0.0,-13.836,0.0,0.0,0.0
603,0.0,0.0,0.0,0.2802392578125,0.0,0.0,0.0,0.0,0.0,0.0,0.111,0.0,0.0,0.0,0.0,0.0,0.0,0.287537803000998,0.0,0.0,0.0,0.0,0.0,0.0,-14.04,0.0,0.0,0.0
604,0.0,0.0,0.0,0.28125,0.0,0.0,0.0,0.0,0.0,0.0,0.096,0.0,0.0,0.0,0.0,0.0,0.0,0.28832704338475845,0.0,0.0,0.0,0.0,0.0,0.0,-13.856,0.0,0.0,0.0
605,0.0,0.0,0.0,0.2822607421875,0.0,0.0,0.0,0.0,0.0,0.0,0.108,0.0,0.0,0.0,0.0,0.0,0.0,0.2890780027858116,0.0,0.0,0.0,0.0,0.0,0.0,-13.996,0.0,0.0,0.0
606,0.0,0.0,0.0,0.2831357421875,0.0,0.0,0.0,0.0,0.0,0.0,0.095,0.0,0.0,0.0,0.0,0.0,0.0,0.2898078262294279,0.0,0.0,0.0,0.0,0.0,0.0,-14.108,0.0,0.0,0.0
607,0.0,0.0,0.0,0.284001953125,0.0,0.0,0.0,0.0,0.0,0.0,0.088,0.0,0.0,0.0,0.0,0.0,0.0,0.2905190167594984,0.0,0.0,0.0,0.0,0.0,0.0,-14.292,0.0,0.0,0.0
608,0.0,0.0,0.0,0.2847236328125,0.0,0.0,0.0,0.0,0.0,0.0,0.07,0.0,0.0,0.0,0.0,0.0,0.0,0.29120677091627023,0.0,0.0,0.0,0.0,0.0,0.0,-14.2,0.0,0.0,0.0
609,0.0,0.0,0.0,0.2854453125,0.0,0.0,0.0,0.0,0.0,0.0,0.076,0.0,0.0,0.0,0.0,0.0,0.0,0.2918583703774513,0.0,0.0,0.0,0.0,0.0,0.0,-14.336,0.0,0.0,0.0
610,0.0,0.0,0.0,0.2863212890625,0.0,0.0,0.0,0.0,0.0,0.0,0.074,0.0,0.0,0.0,0.0,0.0,0.0,0.2924907894385962,0.0,0.0,0.0,0.0,0.0,0.0,-14.2,0.0,0.0,0.0
611,0.0,0.0,0.0,0.2871875,0.0,0.0,0.0,0.0,0.0,0.0,0.084,0.0,0.0,0.0,0.0,0.0,0.0,0.2931118440367946,0.0,0.0,0.0,0.0,0.0,0.0,-14.428,0.0,0.0,0.0
612,0.0,0.0,0.0,0.2879091796875,0.0,0.0,0.0,0.0,0.0,0.0,0.081,0.0,0.0,0.0,0.0,0.0,0.0,0.2936763394251832,0.0,0.0,0.0,0.0,0.0,0.0,-14.588,0.0,0.0,0.0
613,0.0,0.0,0.0,0.288630859375,0.0,0.0,0.0,0.0,0.0,0.0,0.077,0.0,0.0,0.0,0.0,0.0,0.0,0.2942422974748415,0.0,0.0,0.0,0.0,0.0,0.0,-14.772,0.0,0.0,0.0
614,0.0,0.0,0.0,0.2892177734375,0.0,0.0,0.0,0.0,0.0,0.0,0.071,0.0,0.0,0.0,0.0,0.0,0.0,0.29476761814350505,0.0,0.0,0.0,0.0,0.0,0.0,-14.728,0.0,0.0,0.0
615,0.0,0.0,0.0,0.289794921875,0.0,0.0,0.0,0.0,0.0,0.0,0.055,0.0,0.0,0.0,0.0,0.0,0.0,0.2952736517193632,0.0,0.0,0.0,0.0,0.0,0.0,-14.588,0.0,0.0,0.0
616,0.0,0.0,0.0,0.2903720703125,0.0,0.0,0.0,0.0,0.0,0.0,0.058,0.0,0.0,0.0,0.0,0.0,0.0,0.29575012839067866,0.0,0.0,0.0,0.0,0.0,0.0,-14.496,0.0,0.0,0.0
617,0.0,0.0,0.0,0.2908056640625,0.0,0.0,0.0,0.0,0.0,0.0,0.048,0.0,0.0,0.0,0.0,0.0,0.0,0.2962038991681963,0.0,0.0,0.0,0.0,0.0,0.0,-14.408,0.0,0.0,0.0
618,0.0,0.0,0.0,0.29123828125,0.0,0.0,0.0,0.0,0.0,0.0,0.047,0.0,0.0,0.0,0.0,0.0,0.0,0.29663674590818107,0.0,0.0,0.0,0.0,0.0,0.0,-14.588,0.0,0.0,0.0
619,0.0,0.0,0.0,0.291671875,0.0,0.0,0.0,0.0,0.0,0.0,0.045,0.0,0.0,0.0,0.0,0.0,0.0,0.2970380655348974,0.0,0.0,0.0,0.0,0.0,0.0,-14.52,0.0,0.0,0.0
620,0.0,0.0,0.0,0.2921142578125,0.0,0.0,0.0,0.0,0.0,0.0,0.042,0.0,0.0,0.0,0.0,0.0,0.0,0.2974217977531968,0.0,0.0,0.0,0.0,0.0,0.0,-14.428,0.0,0.0,0.0
621,0.0,0.0,0.0,0.292546875,0.0,0.0,0.0,0.0,0.0,0.0,0.037,0.0,0.0,0.0,0.0,0.0,0.0,0.297771629860564,0.0,0.0,0.0,0.0,0.0,0.0,-14.384,0.0,0.0,0.0
622,0.0,0.0,0.0,0.2928359375,0.0,0.0,0.0,0.0,0.0,0.0,0.038,0.0,0.0,0.0,0.0,0.0,0.0,0.2980931769288763,0.0,0.0,0.0,0.0,0.0,0.0,-14.384,0.0,0.0,0.0
623,0.0,0.0,0.0,0.2931337890625,0.0,0.0,0.0,0.0,0.0,0.0,0.03,0.0,0.0,0.0,0.0,0.0,0.0,0.2983935891496343,0.0,0.0,0.0,0.0,0.0,0.0,-14.248,0.0,0.0,0.0
624,0.0,0.0,0.0,0.29356640625,0.0,0.0,0.0,0.0,0.0,0.0,0.031,0.0,0.0,0.0,0.0,0.0,0.0,0.29867191526418985,0.0,0.0,0.0,0.0,0.0,0.0,-13.88,0.0,0.0,0.0
625,0.0,0.0,0.0,0.2937109375,0.0,0.0,0.0,0.0,0.0,0.0,0.037,0.0,0.0,0.0,0.0,0.0,0.0,0.29891914329186975,0.0,0.0,0.0,0.0,0.0,0.0,-13.948,0.0,0.0,0.0
626,0.0,0.0,0.0,0.294,0.0,0.0,0.0,0.0,0.0,0.0,0.024,0.0,0.0,0.0,0.0,0.0,0.0,0.2991427795802303,0.0,0.0,0.0,0.0,0.0,0.0,-13.948,0.0,0.0,0.0
627,0.0,0.0,0.0,0.2942890625,0.0,0.0,0.0,0.0,0.0,0.0,0.02,0.0,0.0,0.0,0.0,0.0,0.0,0.2993406135379492,0.0,0.0,0.0,0.0,0.0,0.0,-13.812,0.0,0.0,0.0
628,0.0,0.0,0.0,0.2944326171875,0.0,0.0,0.0,0.0,0.0,0.0,0.024,0.0,0.0,0.0,0.0,0.0,0.0,0.29951615141869453,0.0,0.0,0.0,0.0,0.0,0.0,-13.948,0.0,0.0,0.0
629,0.0,0.0,0.0,0.2944326171875,0.0,0.0,0.0,0.0,0.0,0.0,0.011,0.0,0.0,0.0,0.0,0.0,0.0,0.2996573392109982,0.0,0.0,0.0,0.0,0.0,0.0,-13.764,0.0,0.0,0.0
630,0.0,0.0,0.0,0.2947216796875,0.0,0.0,0.0,0.0,0.0,0.0,0.008,0.0,0.0,0.0,0.0,0.0,0.0,0.29977783396778207,0.0,0.0,0.0,0.0,0.0,0.0,-13.696,0.0,0.0,0.0
631,0.0,0.0,0.0,0.2948662109375,0.0,0.0,0.0,0.0,0.0,0.0,0.021,0.0,0.0,0.0,0.0,0.0,0.0,0.2998719184715697,0.0,0.0,0.0,0.0,0.0,0.0,-13.604,0.0,0.0,0.0
632,0.0,0.0,0.0,0.29501953125,0.0,0.0,0.0,0.0,0.0,0.0,0.015,0.0,0.0,0.0,0.0,0.0,0.0,0.2999403544057703,0.0,0.0,0.0,0.0,0.0,0.0,-13.628,0.0,0.0,0.0
633,0.0,0.0,0.0,0.2951640625,0.0,0.0,0.0,0.0,0.0,0.0,0.018,0.0,0.0,0.0,0.0,0.0,0.0,0.299984449485436,0.0,0.0,0.0,0.0,0.0,0.0,-13.764,0.0,0.0,0.0
634,0.0,0.0,0.0,0.2951640625,0.0,0.0,0.0,0.0,0.0,0.0,0.008,0.0,0.0,0.0,0.0,0.0,0.0,0.29999984801898755,0.0,0.0,0.0,0.0,0.0,0.0,-13.812,0.0,0.0,0.0
635,0.0,0.0,0.0,0.29530859375,0.0,0.0,0.0,0.0,0.0,0.0,0.008,0.0,0.0,0.0,0.0,0.0,0.0,0.2999905703528618,0.0,0.0,0.0,0.0,0.0,0.0,-13.604,0.0,0.0,0.0
636,0.0,0.0,0.0,0.295453125,0.0,0.0,0.0,0.0,0.0,0.0,0.014,0.0,0.0,0.0,0.0,0.0,0.0,0.299955742599784,0.0,0.0,0.0,0.0,0.0,0.0,-13.492,0.0,0.0,0.0
637,0.0,0.0,0.0,0.2955966796875,0.0,0.0,0.0,0.0,0.0,0.0,0.015,0.0,0.0,0.0,0.0,0.0,0.0,0.2998944548527229,0.0,0.0,0.0,0.0,0.0,0.0,-13.696,0.0,0.0,0.0
638,0.0,0.0,0.0,0.2955966796875,0.0,0.0,0.0,0.0,0.0,0.0,0.008,0.0,0.0,0.0,0.0,0.0,0.0,0.2998072493080201,0.0,0.0,0.0,0.0,0.0,0.0,-13.788,0.0,0.0,0.0
639,0.0,0.0,0.0,0.2955966796875,0.0,0.0,0.0,0.0,0.0,0.0,-0.001,0.0,0.0,0.0,0.0,0.0,0.0,0.2996952492496799,0.0,0.0,0.0,0.0,0.0,0.0,-13.788,0.0,0.0,0.0
640,0.0,0.0,0.0,0.2955966796875,0.0,0.0,0.0,0.0,0.0,0.0,-0.001,0.0,0.0,0.0,0.0,0.0,0.0,0.29955642044993136,0.0,0.0,0.0,0.0,0.0,0.0,-13.72,0.0,0.0,0.0
641,0.0,0.0,0.0,0.2955966796875,0.0,0.0,0.0,0.0,0.0,0.0,-0.001,0.0,0.0,0.0,0.0,0.0,0.0,0.2993908721284032,0.0,0.0,0.0,0.0,0.0,0.0,-13.652,0.0,0.0,0.0
642,0.0,0.0,0.0,0.2955966796875,0.0,0.0,0.0,0.0,0.0,0.0,-0.001,0.0,0.0,0.0,0.0,0.0,0.0,0.2992024084374481,0.0,0.0,0.0,0.0,0.0,0.0,-13.72,0.0,0.0,0.0
643,0.0,0.0,0.0,0.2955966796875,0.0,0.0,0.0,0.0,0.0,0.0,-0.001,0.0,0.0,0.0,0.0,0.0,0.0,0.2989864491230971,0.0,0.0,0.0,0.0,0.0,0.0,-13.744,0.0,0.0,0.0
644,0.0,0.0,0.0,0.2955966796875,0.0,0.0,0.0,0.0,0.0,0.0,-0.001,0.0,0.0,0.0,0.0,0.0,0.0,0.2987443372879957,0.0,0.0,0.0,0.0,0.0,0.0,-13.812,0.0,0.0,0.0
645,0.0,0.0,0.0,0.2955966796875,0.0,0.0,0.0,0.0,0.0,0.0,-0.001,0.0,0.0,0.0,0.0,0.0,0.0,0.2984771615776249,0.0,0.0,0.0,0.0,0.0,0.0,-13.812,0.0,0.0,0.0
646,0.0,0.0,0.0,0.2955966796875,0.0,0.0,0.0,0.0,0.0,0.0,-0.001,0.0,0.0,0.0,0.0,0.0,0.0,0.29818378848300886,0.0,0.0,0.0,0.0,0.0,0.0,-13.744,0.0,0.0,0.0
647,0.0,0.0,0.0,0.295453125,0.0,0.0,0.0,0.0,0.0,0.0,-0.009,0.0,0.0,0.0,0.0,0.0,0.0,0.29786573426499846,0.0,0.0,0.0,0.0,0.0,0.0,-13.652,0.0,0.0,0.0
648,0.0,0.0,0.0,0.295453125,0.0,0.0,0.0,0.0,0.0,0.0,-0.008,0.0,0.0,0.0,0.0,0.0,0.0,0.29744779635309926,0.0,0.0,0.0,0.0,0.0,0.0,-13.536,0.0,0.0,0.0
649,0.0,0.0,0.0,0.295453125,0.0,0.0,0.0,0.0,0.0,0.0,-0.001,0.0,0.0,0.0,0.0,0.0,0.0,0.297148796249039,0.0,0.0,0.0,0.0,0.0,0.0,-13.516,0.0,0.0,0.0
650,0.0,0.0,0.0,0.295453125,0.0,0.0,0.0,0.0,0.0,0.0,-0.001,0.0,0.0,0.0,0.0,0.0,0.0,0.29675419530665154,0.0,0.0,0.0,0.0,0.0,0.0,-13.468,0.0,0.0,0.0
651,0.0,0.0,0.0,0.295453125,0.0,0.0,0.0,0.0,0.0,0.0,-0.001,0.0,0.0,0.0,0.0,0.0,0.0,0.2963310495719943,0.0,0.0,0.0,0.0,0.0,0.0,-13.468,0.0,0.0,0.0
652,0.0,0.0,0.0,0.295453125,0.0,0.0,0.0,0.0,0.0,0.0,-0.001,0.0,0.0,0.0,0.0,0.0,0.0,0.29588674833766426,0.0,0.0,0.0,0.0,0.0,0.0,-13.536,0.0,0.0,0.0
653,0.0,0.0,0.0,0.295453125,0.0,0.0,0.0,0.0,0.0,0.0,-0.001,0.0,0.0,0.0,0.0,0.0,0.0,0.29541335839390925,0.0,0.0,0.0,0.0,0.0,0.0,-13.468,0.0,0.0,0.0
654,0.0,0.0,0.0,0.295453125,0.0,0.0,0.0,0.0,0.0,0.0,-0.001,0.0,0.0,0.0,0.0,0.0,0.0,0.29483198813292527,0.0,0.0,0.0,0.0,0.0,0.0,-13.56,0.0,0.0,0.0
655,0.0,0.0,0.0,0.295453125,0.0,0.0,0.0,0.0,0.0,0.0,-0.001,0.0,0.0,0.0,0.0,0.0,0.0,0.29439175627246866,0.0,0.0,0.0,0.0,0.0,0.0,-13.744,0.0,0.0,0.0
656,0.0,0.0,0.0,0.29501953125,0.0,0.0,0.0,0.0,0.0,0.0,-0.017,0.0,0.0,0.0,0.0,0.0,0.0,0.2938434454018237,0.0,0.0,0.0,0.0,0.0,0.0,-14.084,0.0,0.0,0.0
657,0.0,0.0,0.0,0.2947216796875,0.0,0.0,0.0,0.0,0.0,0.0,-0.034,0.0,0.0,0.0,0.0,0.0,0.0,0.29326980108271505,0.0,0.0,0.0,0.0,0.0,0.0,-14.064,0.0,0.0,0.0
658,0.0,0.0,0.0,0.2942890625,0.0,0.0,0.0,0.0,0.0,0.0,-0.035,0.0,0.0,0.0,0.0,0.0,0.0,0.2926644159934922,0.0,0.0,0.0,0.0,0.0,0.0,-14.292,0.0,0.0,0.0
659,0.0,0.0,0.0,0.29385546875,0.0,0.0,0.0,0.0,0.0,0.0,-0.046,0.0,0.0,0.0,0.0,0.0,0.0,0.29204586965928175,0.0,0.0,0.0,0.0,0.0,0.0,-14.084,0.0,0.0,0.0
660,0.0,0.0,0.0,0.29356640625,0.0,0.0,0.0,0.0,0.0,0.0,-0.04,0.0,0.0,0.0,0.0,0.0,0.0,0.29139374846358307,0.0,0.0,0.0,0.0,0.0,0.0,-14.292,0.0,0.0,0.0
661,0.0,0.0,0.0,0.2931337890625,0.0,0.0,0.0,0.0,0.0,0.0,-0.035,0.0,0.0,0.0,0.0,0.0,0.0,0.290720391728745,0.0,0.0,0.0,0.0,0.0,0.0,-15.048,0.0,0.0,0.0
662,0.0,0.0,0.0,0.29240234375,0.0,0.0,0.0,0.0,0.0,0.0,-0.061,0.0,0.0,0.0,0.0,0.0,0.0,0.290022581355965,0.0,0.0,0.0,0.0,0.0,0.0,-15.184,0.0,0.0,0.0
663,0.0,0.0,0.0,0.29181640625,0.0,0.0,0.0,0.0,0.0,0.0,-0.066,0.0,0.0,0.0,0.0,0.0,0.0,0.28929853006834555,0.0,0.0,0.0,0.0,0.0,0.0,-15.068,0.0,0.0,0.0
664,0.0,0.0,0.0,0.2909501953125,0.0,0.0,0.0,0.0,0.0,0.0,-0.075,0.0,0.0,0.0,0.0,0.0,0.0,0.28848139043524146,0.0,0.0,0.0,0.0,0.0,0.0,-14.932,0.0,0.0,0.0
665,0.0,0.0,0.0,0.290228515625,0.0,0.0,0.0,0.0,0.0,0.0,-0.082,0.0,0.0,0.0,0.0,0.0,0.0,0.28777203081413427,0.0,0.0,0.0,0.0,0.0,0.0,-14.36,0.0,0.0,0.0
666,0.0,0.0,0.0,0.289505859375,0.0,0.0,0.0,0.0,0.0,0.0,-0.065,0.0,0.0,0.0,0.0,0.0,0.0,0.2869733073594223,0.0,0.0,0.0,0.0,0.0,0.0,-14.816,0.0,0.0,0.0
667,0.0,0.0,0.0,0.288630859375,0.0,0.0,0.0,0.0,0.0,0.0,-0.076,0.0,0.0,0.0,0.0,0.0,0.0,0.28614931582430436,0.0,0.0,0.0,0.0,0.0,0.0,-15.048,0.0,0.0,0.0
668,0.0,0.0,0.0,0.2877646484375,0.0,0.0,0.0,0.0,0.0,0.0,-0.09,0.0,0.0,0.0,0.0,0.0,0.0,0.28529861778270915,0.0,0.0,0.0,0.0,0.0,0.0,-14.728,0.0,0.0,0.0
