EmanuelSamir/lab201_ws_projsamir/sawyer_dev/data/sawyer/vel_sin_motion/test_joint4/training_data_joint4.csv
,j1,j2,j3,j4,j5,j6,j7,v1,v2,v3,v4,v5,v6,v7,jd1,jd2,jd3,jd4,jd5,jd6,jd7,e1,e2,e3,e4,e5,e6,e7
0,0.0,0.0,0.0,0.0,0.0,0.0,0.0,0.0,0.0,0.0,0.0,0.0,0.0,0.0,0.0,0.0,0.0,0.0,0.0,0.0,0.0,0.0,0.0,0.0,0.0,0.0,0.0,0.0
1,0.0,0.0,0.0,-0.0041240234375,0.0,0.0,0.0,0.0,0.0,0.0,-0.001,0.0,0.0,0.0,0.0,0.0,0.0,8.138323432791054e-05,0.0,0.0,0.0,0.0,0.0,0.0,-13.836,0.0,0.0,0.0
2,0.0,0.0,0.0,-0.0041240234375,0.0,0.0,0.0,0.0,0.0,0.0,-0.001,0.0,0.0,0.0,0.0,0.0,0.0,0.0036896002179942432,0.0,0.0,0.0,0.0,0.0,0.0,-13.836,0.0,0.0,0.0
3,0.0,0.0,0.0,-0.0041240234375,0.0,0.0,0.0,0.0,0.0,0.0,-0.001,0.0,0.0,0.0,0.0,0.0,0.0,0.011858708024741735,0.0,0.0,0.0,0.0,0.0,0.0,-13.88,0.0,0.0,0.0
4,0.0,0.0,0.0,-0.0041240234375,0.0,0.0,0.0,0.0,0.0,0.0,-0.001,0.0,0.0,0.0,0.0,0.0,0.0,0.019892998949517127,0.0,0.0,0.0,0.0,0.0,0.0,-13.904,0.0,0.0,0.0
5,0.0,0.0,0.0,-0.0041240234375,0.0,0.0,0.0,0.0,0.0,0.0,-0.001,0.0,0.0,0.0,0.0,0.0,0.0,0.027884888994204236,0.0,0.0,0.0,0.0,0.0,0.0,-13.744,0.0,0.0,0.0
6,0.0,0.0,0.0,-0.0035458984375,0.0,0.0,0.0,0.0,0.0,0.0,0.018,0.0,0.0,0.0,0.0,0.0,0.0,0.03591041203125223,0.0,0.0,0.0,0.0,0.0,0.0,-12.76,0.0,0.0,0.0
7,0.0,0.0,0.0,-0.00166015625,0.0,0.0,0.0,0.0,0.0,0.0,0.106,0.0,0.0,0.0,0.0,0.0,0.0,0.04394335929035594,0.0,0.0,0.0,0.0,0.0,0.0,-11.548,0.0,0.0,0.0
8,0.0,0.0,0.0,0.0012353515625,0.0,0.0,0.0,0.0,0.0,0.0,0.228,0.0,0.0,0.0,0.0,0.0,0.0,0.051822294954110976,0.0,0.0,0.0,0.0,0.0,0.0,-10.588,0.0,0.0,0.0
9,0.0,0.0,0.0,0.004998046875,0.0,0.0,0.0,0.0,0.0,0.0,0.329,0.0,0.0,0.0,0.0,0.0,0.0,0.05978267809011488,0.0,0.0,0.0,0.0,0.0,0.0,-10.084,0.0,0.0,0.0
10,0.0,0.0,0.0,0.009482421875,0.0,0.0,0.0,0.0,0.0,0.0,0.414,0.0,0.0,0.0,0.0,0.0,0.0,0.06855408978976558,0.0,0.0,0.0,0.0,0.0,0.0,-10.312,0.0,0.0,0.0
11,0.0,0.0,0.0,0.0142734375,0.0,0.0,0.0,0.0,0.0,0.0,0.466,0.0,0.0,0.0,0.0,0.0,0.0,0.07540729470873002,0.0,0.0,0.0,0.0,0.0,0.0,-9.716,0.0,0.0,0.0
12,0.0,0.0,0.0,0.0193447265625,0.0,0.0,0.0,0.0,0.0,0.0,0.496,0.0,0.0,0.0,0.0,0.0,0.0,0.08324105254257497,0.0,0.0,0.0,0.0,0.0,0.0,-9.192,0.0,0.0,0.0
13,0.0,0.0,0.0,0.0320859375,0.0,0.0,0.0,0.0,0.0,0.0,0.639,0.0,0.0,0.0,0.0,0.0,0.0,0.09481657373363726,0.0,0.0,0.0,0.0,0.0,0.0,-9.948,0.0,0.0,0.0
14,0.0,0.0,0.0,0.0320859375,0.0,0.0,0.0,0.0,0.0,0.0,0.639,0.0,0.0,0.0,0.0,0.0,0.0,0.0987438963801986,0.0,0.0,0.0,0.0,0.0,0.0,-9.948,0.0,0.0,0.0
15,0.0,0.0,0.0,0.0388984375,0.0,0.0,0.0,0.0,0.0,0.0,0.671,0.0,0.0,0.0,0.0,0.0,0.0,0.10609188049956629,0.0,0.0,0.0,0.0,0.0,0.0,-10.908,0.0,0.0,0.0
16,0.0,0.0,0.0,0.0457021484375,0.0,0.0,0.0,0.0,0.0,0.0,0.685,0.0,0.0,0.0,0.0,0.0,0.0,0.11357499682851653,0.0,0.0,0.0,0.0,0.0,0.0,-11.228,0.0,0.0,0.0
17,0.0,0.0,0.0,0.052361328125,0.0,0.0,0.0,0.0,0.0,0.0,0.686,0.0,0.0,0.0,0.0,0.0,0.0,0.12104641001893515,0.0,0.0,0.0,0.0,0.0,0.0,-10.36,0.0,0.0,0.0
18,0.0,0.0,0.0,0.0596162109375,0.0,0.0,0.0,0.0,0.0,0.0,0.684,0.0,0.0,0.0,0.0,0.0,0.0,0.12835147235933478,0.0,0.0,0.0,0.0,0.0,0.0,-9.58,0.0,0.0,0.0
19,0.0,0.0,0.0,0.066998046875,0.0,0.0,0.0,0.0,0.0,0.0,0.74,0.0,0.0,0.0,0.0,0.0,0.0,0.13558096980121273,0.0,0.0,0.0,0.0,0.0,0.0,-10.312,0.0,0.0,0.0
20,0.0,0.0,0.0,0.0738017578125,0.0,0.0,0.0,0.0,0.0,0.0,0.716,0.0,0.0,0.0,0.0,0.0,0.0,0.14269088764134596,0.0,0.0,0.0,0.0,0.0,0.0,-11.64,0.0,0.0,0.0
21,0.0,0.0,0.0,0.0812001953125,0.0,0.0,0.0,0.0,0.0,0.0,0.708,0.0,0.0,0.0,0.0,0.0,0.0,0.1497725384710145,0.0,0.0,0.0,0.0,0.0,0.0,-12.304,0.0,0.0,0.0
22,0.0,0.0,0.0,0.0881484375,0.0,0.0,0.0,0.0,0.0,0.0,0.723,0.0,0.0,0.0,0.0,0.0,0.0,0.15669545411888627,0.0,0.0,0.0,0.0,0.0,0.0,-12.576,0.0,0.0,0.0
23,0.0,0.0,0.0,0.09510546875,0.0,0.0,0.0,0.0,0.0,0.0,0.703,0.0,0.0,0.0,0.0,0.0,0.0,0.16350208500024718,0.0,0.0,0.0,0.0,0.0,0.0,-13.24,0.0,0.0,0.0
24,0.0,0.0,0.0,0.1019091796875,0.0,0.0,0.0,0.0,0.0,0.0,0.7,0.0,0.0,0.0,0.0,0.0,0.0,0.17013253503777334,0.0,0.0,0.0,0.0,0.0,0.0,-14.52,0.0,0.0,0.0
25,0.0,0.0,0.0,0.108857421875,0.0,0.0,0.0,0.0,0.0,0.0,0.679,0.0,0.0,0.0,0.0,0.0,0.0,0.17667462947050833,0.0,0.0,0.0,0.0,0.0,0.0,-14.728,0.0,0.0,0.0
26,0.0,0.0,0.0,0.116103515625,0.0,0.0,0.0,0.0,0.0,0.0,0.717,0.0,0.0,0.0,0.0,0.0,0.0,0.1831442120040055,0.0,0.0,0.0,0.0,0.0,0.0,-14.384,0.0,0.0,0.0
27,0.0,0.0,0.0,0.123060546875,0.0,0.0,0.0,0.0,0.0,0.0,0.716,0.0,0.0,0.0,0.0,0.0,0.0,0.18946499866574465,0.0,0.0,0.0,0.0,0.0,0.0,-14.016,0.0,0.0,0.0
28,0.0,0.0,0.0,0.1297197265625,0.0,0.0,0.0,0.0,0.0,0.0,0.695,0.0,0.0,0.0,0.0,0.0,0.0,0.195622089958972,0.0,0.0,0.0,0.0,0.0,0.0,-15.068,0.0,0.0,0.0
29,0.0,0.0,0.0,0.135955078125,0.0,0.0,0.0,0.0,0.0,0.0,0.642,0.0,0.0,0.0,0.0,0.0,0.0,0.20164203081227794,0.0,0.0,0.0,0.0,0.0,0.0,-15.208,0.0,0.0,0.0
30,0.0,0.0,0.0,0.1427587890625,0.0,0.0,0.0,0.0,0.0,0.0,0.65,0.0,0.0,0.0,0.0,0.0,0.0,0.20750518100468457,0.0,0.0,0.0,0.0,0.0,0.0,-14.976,0.0,0.0,0.0
31,0.0,0.0,0.0,0.1492734375,0.0,0.0,0.0,0.0,0.0,0.0,0.677,0.0,0.0,0.0,0.0,0.0,0.0,0.21330507193499684,0.0,0.0,0.0,0.0,0.0,0.0,-15.136,0.0,0.0,0.0
32,0.0,0.0,0.0,0.15594140625,0.0,0.0,0.0,0.0,0.0,0.0,0.652,0.0,0.0,0.0,0.0,0.0,0.0,0.21882477511439374,0.0,0.0,0.0,0.0,0.0,0.0,-15.708,0.0,0.0,0.0
33,0.0,0.0,0.0,0.1623125,0.0,0.0,0.0,0.0,0.0,0.0,0.667,0.0,0.0,0.0,0.0,0.0,0.0,0.224321981701936,0.0,0.0,0.0,0.0,0.0,0.0,-17.516,0.0,0.0,0.0
34,0.0,0.0,0.0,0.1683935546875,0.0,0.0,0.0,0.0,0.0,0.0,0.621,0.0,0.0,0.0,0.0,0.0,0.0,0.22954001858451448,0.0,0.0,0.0,0.0,0.0,0.0,-17.08,0.0,0.0,0.0
35,0.0,0.0,0.0,0.1750625,0.0,0.0,0.0,0.0,0.0,0.0,0.648,0.0,0.0,0.0,0.0,0.0,0.0,0.23463576475952602,0.0,0.0,0.0,0.0,0.0,0.0,-15.984,0.0,0.0,0.0
36,0.0,0.0,0.0,0.1812978515625,0.0,0.0,0.0,0.0,0.0,0.0,0.65,0.0,0.0,0.0,0.0,0.0,0.0,0.23956921173732237,0.0,0.0,0.0,0.0,0.0,0.0,-14.476,0.0,0.0,0.0
37,0.0,0.0,0.0,0.1875234375,0.0,0.0,0.0,0.0,0.0,0.0,0.621,0.0,0.0,0.0,0.0,0.0,0.0,0.24433980739149094,0.0,0.0,0.0,0.0,0.0,0.0,-15.068,0.0,0.0,0.0
38,0.0,0.0,0.0,0.1931630859375,0.0,0.0,0.0,0.0,0.0,0.0,0.609,0.0,0.0,0.0,0.0,0.0,0.0,0.24891418306733798,0.0,0.0,0.0,0.0,0.0,0.0,-15.572,0.0,0.0,0.0
39,0.0,0.0,0.0,0.199109375,0.0,0.0,0.0,0.0,0.0,0.0,0.577,0.0,0.0,0.0,0.0,0.0,0.0,0.2533118173432535,0.0,0.0,0.0,0.0,0.0,0.0,-15.092,0.0,0.0,0.0
40,0.0,0.0,0.0,0.2047578125,0.0,0.0,0.0,0.0,0.0,0.0,0.591,0.0,0.0,0.0,0.0,0.0,0.0,0.25757489196967853,0.0,0.0,0.0,0.0,0.0,0.0,-14.292,0.0,0.0,0.0
41,0.0,0.0,0.0,0.2101181640625,0.0,0.0,0.0,0.0,0.0,0.0,0.554,0.0,0.0,0.0,0.0,0.0,0.0,0.261577051330104,0.0,0.0,0.0,0.0,0.0,0.0,-13.856,0.0,0.0,0.0
42,0.0,0.0,0.0,0.2157763671875,0.0,0.0,0.0,0.0,0.0,0.0,0.545,0.0,0.0,0.0,0.0,0.0,0.0,0.2654153678265495,0.0,0.0,0.0,0.0,0.0,0.0,-14.2,0.0,0.0,0.0
43,0.0,0.0,0.0,0.2212802734375,0.0,0.0,0.0,0.0,0.0,0.0,0.567,0.0,0.0,0.0,0.0,0.0,0.0,0.26917509254998634,0.0,0.0,0.0,0.0,0.0,0.0,-15.16,0.0,0.0,0.0
44,0.0,0.0,0.0,0.226630859375,0.0,0.0,0.0,0.0,0.0,0.0,0.542,0.0,0.0,0.0,0.0,0.0,0.0,0.272540811069249,0.0,0.0,0.0,0.0,0.0,0.0,-15.092,0.0,0.0,0.0
45,0.0,0.0,0.0,0.2321357421875,0.0,0.0,0.0,0.0,0.0,0.0,0.547,0.0,0.0,0.0,0.0,0.0,0.0,0.27582002914364095,0.0,0.0,0.0,0.0,0.0,0.0,-13.88,0.0,0.0,0.0
46,0.0,0.0,0.0,0.23779296875,0.0,0.0,0.0,0.0,0.0,0.0,0.564,0.0,0.0,0.0,0.0,0.0,0.0,0.27888358072956093,0.0,0.0,0.0,0.0,0.0,0.0,-13.056,0.0,0.0,0.0
47,0.0,0.0,0.0,0.2428642578125,0.0,0.0,0.0,0.0,0.0,0.0,0.538,0.0,0.0,0.0,0.0,0.0,0.0,0.28175617727417657,0.0,0.0,0.0,0.0,0.0,0.0,-12.692,0.0,0.0,0.0
48,0.0,0.0,0.0,0.24821484375,0.0,0.0,0.0,0.0,0.0,0.0,0.526,0.0,0.0,0.0,0.0,0.0,0.0,0.2844228682133392,0.0,0.0,0.0,0.0,0.0,0.0,-12.896,0.0,0.0,0.0
49,0.0,0.0,0.0,0.2535751953125,0.0,0.0,0.0,0.0,0.0,0.0,0.545,0.0,0.0,0.0,0.0,0.0,0.0,0.2868693091890828,0.0,0.0,0.0,0.0,0.0,0.0,-13.012,0.0,0.0,0.0
50,0.0,0.0,0.0,0.2587998046875,0.0,0.0,0.0,0.0,0.0,0.0,0.524,0.0,0.0,0.0,0.0,0.0,0.0,0.28911023020056376,0.0,0.0,0.0,0.0,0.0,0.0,-12.44,0.0,0.0,0.0
51,0.0,0.0,0.0,0.2641591796875,0.0,0.0,0.0,0.0,0.0,0.0,0.535,0.0,0.0,0.0,0.0,0.0,0.0,0.2911636395978121,0.0,0.0,0.0,0.0,0.0,0.0,-12.44,0.0,0.0,0.0
52,0.0,0.0,0.0,0.2695107421875,0.0,0.0,0.0,0.0,0.0,0.0,0.541,0.0,0.0,0.0,0.0,0.0,0.0,0.29299914123959414,0.0,0.0,0.0,0.0,0.0,0.0,-12.392,0.0,0.0,0.0
53,0.0,0.0,0.0,0.27487890625,0.0,0.0,0.0,0.0,0.0,0.0,0.532,0.0,0.0,0.0,0.0,0.0,0.0,0.29463569759583225,0.0,0.0,0.0,0.0,0.0,0.0,-12.736,0.0,0.0,0.0
54,0.0,0.0,0.0,0.2803837890625,0.0,0.0,0.0,0.0,0.0,0.0,0.551,0.0,0.0,0.0,0.0,0.0,0.0,0.2960417876686665,0.0,0.0,0.0,0.0,0.0,0.0,-13.332,0.0,0.0,0.0
55,0.0,0.0,0.0,0.2857431640625,0.0,0.0,0.0,0.0,0.0,0.0,0.551,0.0,0.0,0.0,0.0,0.0,0.0,0.2972354540936082,0.0,0.0,0.0,0.0,0.0,0.0,-13.788,0.0,0.0,0.0
56,0.0,0.0,0.0,0.2905166015625,0.0,0.0,0.0,0.0,0.0,0.0,0.521,0.0,0.0,0.0,0.0,0.0,0.0,0.29821477062401636,0.0,0.0,0.0,0.0,0.0,0.0,-15.092,0.0,0.0,0.0
57,0.0,0.0,0.0,0.2942890625,0.0,0.0,0.0,0.0,0.0,0.0,0.434,0.0,0.0,0.0,0.0,0.0,0.0,0.2989863110463709,0.0,0.0,0.0,0.0,0.0,0.0,-15.62,0.0,0.0,0.0
58,0.0,0.0,0.0,0.2974736328125,0.0,0.0,0.0,0.0,0.0,0.0,0.362,0.0,0.0,0.0,0.0,0.0,0.0,0.2995394856785641,0.0,0.0,0.0,0.0,0.0,0.0,-16.28,0.0,0.0,0.0
59,0.0,0.0,0.0,0.299359375,0.0,0.0,0.0,0.0,0.0,0.0,0.265,0.0,0.0,0.0,0.0,0.0,0.0,0.29987720445556154,0.0,0.0,0.0,0.0,0.0,0.0,-16.488,0.0,0.0,0.0
60,0.0,0.0,0.0,0.3006591796875,0.0,0.0,0.0,0.0,0.0,0.0,0.162,0.0,0.0,0.0,0.0,0.0,0.0,0.29999962504966327,0.0,0.0,0.0,0.0,0.0,0.0,-16.648,0.0,0.0,0.0
61,0.0,0.0,0.0,0.3013896484375,0.0,0.0,0.0,0.0,0.0,0.0,0.107,0.0,0.0,0.0,0.0,0.0,0.0,0.299906903911187,0.0,0.0,0.0,0.0,0.0,0.0,-17.448,0.0,0.0,0.0
62,0.0,0.0,0.0,0.3013896484375,0.0,0.0,0.0,0.0,0.0,0.0,0.039,0.0,0.0,0.0,0.0,0.0,0.0,0.2995956861052144,0.0,0.0,0.0,0.0,0.0,0.0,-17.7,0.0,0.0,0.0
63,0.0,0.0,0.0,0.30124609375,0.0,0.0,0.0,0.0,0.0,0.0,-0.009,0.0,0.0,0.0,0.0,0.0,0.0,0.29906642869581046,0.0,0.0,0.0,0.0,0.0,0.0,-17.54,0.0,0.0,0.0
64,0.0,0.0,0.0,0.3008037109375,0.0,0.0,0.0,0.0,0.0,0.0,-0.02,0.0,0.0,0.0,0.0,0.0,0.0,0.29832776377398756,0.0,0.0,0.0,0.0,0.0,0.0,-17.356,0.0,0.0,0.0
65,0.0,0.0,0.0,0.30008203125,0.0,0.0,0.0,0.0,0.0,0.0,-0.05,0.0,0.0,0.0,0.0,0.0,0.0,0.29737832805036163,0.0,0.0,0.0,0.0,0.0,0.0,-17.312,0.0,0.0,0.0
66,0.0,0.0,0.0,0.299359375,0.0,0.0,0.0,0.0,0.0,0.0,-0.077,0.0,0.0,0.0,0.0,0.0,0.0,0.2962068381363249,0.0,0.0,0.0,0.0,0.0,0.0,-16.692,0.0,0.0,0.0
67,0.0,0.0,0.0,0.2989267578125,0.0,0.0,0.0,0.0,0.0,0.0,-0.058,0.0,0.0,0.0,0.0,0.0,0.0,0.29480972043823545,0.0,0.0,0.0,0.0,0.0,0.0,-16.488,0.0,0.0,0.0
68,0.0,0.0,0.0,0.2984931640625,0.0,0.0,0.0,0.0,0.0,0.0,-0.046,0.0,0.0,0.0,0.0,0.0,0.0,0.2931977170842357,0.0,0.0,0.0,0.0,0.0,0.0,-15.62,0.0,0.0,0.0
69,0.0,0.0,0.0,0.2980517578125,0.0,0.0,0.0,0.0,0.0,0.0,-0.046,0.0,0.0,0.0,0.0,0.0,0.0,0.2914328102176831,0.0,0.0,0.0,0.0,0.0,0.0,-14.728,0.0,0.0,0.0
70,0.0,0.0,0.0,0.2974736328125,0.0,0.0,0.0,0.0,0.0,0.0,-0.04,0.0,0.0,0.0,0.0,0.0,0.0,0.28940582845530777,0.0,0.0,0.0,0.0,0.0,0.0,-15.344,0.0,0.0,0.0
71,0.0,0.0,0.0,0.2961748046875,0.0,0.0,0.0,0.0,0.0,0.0,-0.093,0.0,0.0,0.0,0.0,0.0,0.0,0.28717622848373164,0.0,0.0,0.0,0.0,0.0,0.0,-15.528,0.0,0.0,0.0
72,0.0,0.0,0.0,0.2947216796875,0.0,0.0,0.0,0.0,0.0,0.0,-0.143,0.0,0.0,0.0,0.0,0.0,0.0,0.28474472845395227,0.0,0.0,0.0,0.0,0.0,0.0,-15.32,0.0,0.0,0.0
73,0.0,0.0,0.0,0.29269140625,0.0,0.0,0.0,0.0,0.0,0.0,-0.168,0.0,0.0,0.0,0.0,0.0,0.0,0.2820808563182113,0.0,0.0,0.0,0.0,0.0,0.0,-15.412,0.0,0.0,0.0
74,0.0,0.0,0.0,0.2906611328125,0.0,0.0,0.0,0.0,0.0,0.0,-0.209,0.0,0.0,0.0,0.0,0.0,0.0,0.2792774492057822,0.0,0.0,0.0,0.0,0.0,0.0,-15.276,0.0,0.0,0.0
75,0.0,0.0,0.0,0.2881982421875,0.0,0.0,0.0,0.0,0.0,0.0,-0.216,0.0,0.0,0.0,0.0,0.0,0.0,0.2762317645878574,0.0,0.0,0.0,0.0,0.0,0.0,-15.664,0.0,0.0,0.0
76,0.0,0.0,0.0,0.2858876953125,0.0,0.0,0.0,0.0,0.0,0.0,-0.247,0.0,0.0,0.0,0.0,0.0,0.0,0.2729898365307038,0.0,0.0,0.0,0.0,0.0,0.0,-15.368,0.0,0.0,0.0
77,0.0,0.0,0.0,0.2834248046875,0.0,0.0,0.0,0.0,0.0,0.0,-0.236,0.0,0.0,0.0,0.0,0.0,0.0,0.2695332780390074,0.0,0.0,0.0,0.0,0.0,0.0,-15.64,0.0,0.0,0.0
78,0.0,0.0,0.0,0.2800947265625,0.0,0.0,0.0,0.0,0.0,0.0,-0.281,0.0,0.0,0.0,0.0,0.0,0.0,0.26590813528603663,0.0,0.0,0.0,0.0,0.0,0.0,-15.48,0.0,0.0,0.0
79,0.0,0.0,0.0,0.2769091796875,0.0,0.0,0.0,0.0,0.0,0.0,-0.334,0.0,0.0,0.0,0.0,0.0,0.0,0.26208936887980594,0.0,0.0,0.0,0.0,0.0,0.0,-14.496,0.0,0.0,0.0
80,0.0,0.0,0.0,0.273869140625,0.0,0.0,0.0,0.0,0.0,0.0,-0.305,0.0,0.0,0.0,0.0,0.0,0.0,0.25763993687220954,0.0,0.0,0.0,0.0,0.0,0.0,-14.568,0.0,0.0,0.0
81,0.0,0.0,0.0,0.269798828125,0.0,0.0,0.0,0.0,0.0,0.0,-0.348,0.0,0.0,0.0,0.0,0.0,0.0,0.25390591915468425,0.0,0.0,0.0,0.0,0.0,0.0,-15.3,0.0,0.0,0.0
82,0.0,0.0,0.0,0.265603515625,0.0,0.0,0.0,0.0,0.0,0.0,-0.427,0.0,0.0,0.0,0.0,0.0,0.0,0.2494939402439066,0.0,0.0,0.0,0.0,0.0,0.0,-14.176,0.0,0.0,0.0
83,0.0,0.0,0.0,0.2622734375,0.0,0.0,0.0,0.0,0.0,0.0,-0.377,0.0,0.0,0.0,0.0,0.0,0.0,0.24493410178266609,0.0,0.0,0.0,0.0,0.0,0.0,-14.588,0.0,0.0,0.0
84,0.0,0.0,0.0,0.2574912109375,0.0,0.0,0.0,0.0,0.0,0.0,-0.392,0.0,0.0,0.0,0.0,0.0,0.0,0.24023502654816134,0.0,0.0,0.0,0.0,0.0,0.0,-14.796,0.0,0.0,0.0
85,0.0,0.0,0.0,0.2529970703125,0.0,0.0,0.0,0.0,0.0,0.0,-0.491,0.0,0.0,0.0,0.0,0.0,0.0,0.23526131885689983,0.0,0.0,0.0,0.0,0.0,0.0,-12.964,0.0,0.0,0.0
86,0.0,0.0,0.0,0.24937890625,0.0,0.0,0.0,0.0,0.0,0.0,-0.4,0.0,0.0,0.0,0.0,0.0,0.0,0.23018437636376957,0.0,0.0,0.0,0.0,0.0,0.0,-14.132,0.0,0.0,0.0
87,0.0,0.0,0.0,0.2441630859375,0.0,0.0,0.0,0.0,0.0,0.0,-0.43,0.0,0.0,0.0,0.0,0.0,0.0,0.22496889446476015,0.0,0.0,0.0,0.0,0.0,0.0,-14.544,0.0,0.0,0.0
88,0.0,0.0,0.0,0.2388037109375,0.0,0.0,0.0,0.0,0.0,0.0,-0.537,0.0,0.0,0.0,0.0,0.0,0.0,0.21955280258993876,0.0,0.0,0.0,0.0,0.0,0.0,-15.252,0.0,0.0,0.0
89,0.0,0.0,0.0,0.233732421875,0.0,0.0,0.0,0.0,0.0,0.0,-0.535,0.0,0.0,0.0,0.0,0.0,0.0,0.21398692530423152,0.0,0.0,0.0,0.0,0.0,0.0,-15.48,0.0,0.0,0.0
90,0.0,0.0,0.0,0.2292392578125,0.0,0.0,0.0,0.0,0.0,0.0,-0.488,0.0,0.0,0.0,0.0,0.0,0.0,0.2082258565282176,0.0,0.0,0.0,0.0,0.0,0.0,-14.336,0.0,0.0,0.0
91,0.0,0.0,0.0,0.2241767578125,0.0,0.0,0.0,0.0,0.0,0.0,-0.467,0.0,0.0,0.0,0.0,0.0,0.0,0.20238987925749102,0.0,0.0,0.0,0.0,0.0,0.0,-15.048,0.0,0.0,0.0
92,0.0,0.0,0.0,0.21881640625,0.0,0.0,0.0,0.0,0.0,0.0,-0.529,0.0,0.0,0.0,0.0,0.0,0.0,0.19637267372195472,0.0,0.0,0.0,0.0,0.0,0.0,-15.344,0.0,0.0,0.0
93,0.0,0.0,0.0,0.2134482421875,0.0,0.0,0.0,0.0,0.0,0.0,-0.527,0.0,0.0,0.0,0.0,0.0,0.0,0.19023962373755257,0.0,0.0,0.0,0.0,0.0,0.0,-16.624,0.0,0.0,0.0
94,0.0,0.0,0.0,0.2070771484375,0.0,0.0,0.0,0.0,0.0,0.0,-0.59,0.0,0.0,0.0,0.0,0.0,0.0,0.18398242631684053,0.0,0.0,0.0,0.0,0.0,0.0,-15.528,0.0,0.0,0.0
95,0.0,0.0,0.0,0.2012841796875,0.0,0.0,0.0,0.0,0.0,0.0,-0.617,0.0,0.0,0.0,0.0,0.0,0.0,0.17755353099497134,0.0,0.0,0.0,0.0,0.0,0.0,-14.132,0.0,0.0,0.0
96,0.0,0.0,0.0,0.1956357421875,0.0,0.0,0.0,0.0,0.0,0.0,-0.579,0.0,0.0,0.0,0.0,0.0,0.0,0.1709872987933144,0.0,0.0,0.0,0.0,0.0,0.0,-13.536,0.0,0.0,0.0
97,0.0,0.0,0.0,0.189833984375,0.0,0.0,0.0,0.0,0.0,0.0,-0.575,0.0,0.0,0.0,0.0,0.0,0.0,0.16425903782753573,0.0,0.0,0.0,0.0,0.0,0.0,-14.2,0.0,0.0,0.0
98,0.0,0.0,0.0,0.183896484375,0.0,0.0,0.0,0.0,0.0,0.0,-0.587,0.0,0.0,0.0,0.0,0.0,0.0,0.15755506159268004,0.0,0.0,0.0,0.0,0.0,0.0,-14.888,0.0,0.0,0.0
99,0.0,0.0,0.0,0.177525390625,0.0,0.0,0.0,0.0,0.0,0.0,-0.617,0.0,0.0,0.0,0.0,0.0,0.0,0.15064054404612098,0.0,0.0,0.0,0.0,0.0,0.0,-15.94,0.0,0.0,0.0
100,0.0,0.0,0.0,0.170857421875,0.0,0.0,0.0,0.0,0.0,0.0,-0.661,0.0,0.0,0.0,0.0,0.0,0.0,0.14348804261495984,0.0,0.0,0.0,0.0,0.0,0.0,-14.796,0.0,0.0,0.0
101,0.0,0.0,0.0,0.164919921875,0.0,0.0,0.0,0.0,0.0,0.0,-0.642,0.0,0.0,0.0,0.0,0.0,0.0,0.1364704390043288,0.0,0.0,0.0,0.0,0.0,0.0,-13.904,0.0,0.0,0.0
102,0.0,0.0,0.0,0.158693359375,0.0,0.0,0.0,0.0,0.0,0.0,-0.603,0.0,0.0,0.0,0.0,0.0,0.0,0.12925258936349904,0.0,0.0,0.0,0.0,0.0,0.0,-14.568,0.0,0.0,0.0
103,0.0,0.0,0.0,0.1528916015625,0.0,0.0,0.0,0.0,0.0,0.0,-0.616,0.0,0.0,0.0,0.0,0.0,0.0,0.12190886634303741,0.0,0.0,0.0,0.0,0.0,0.0,-14.384,0.0,0.0,0.0
104,0.0,0.0,0.0,0.1470986328125,0.0,0.0,0.0,0.0,0.0,0.0,-0.579,0.0,0.0,0.0,0.0,0.0,0.0,0.11459471878996053,0.0,0.0,0.0,0.0,0.0,0.0,-15.8,0.0,0.0,0.0
105,0.0,0.0,0.0,0.140439453125,0.0,0.0,0.0,0.0,0.0,0.0,-0.627,0.0,0.0,0.0,0.0,0.0,0.0,0.10703515562632805,0.0,0.0,0.0,0.0,0.0,0.0,-14.084,0.0,0.0,0.0
106,0.0,0.0,0.0,0.1344931640625,0.0,0.0,0.0,0.0,0.0,0.0,-0.641,0.0,0.0,0.0,0.0,0.0,0.0,0.09952763175295108,0.0,0.0,0.0,0.0,0.0,0.0,-13.284,0.0,0.0,0.0
107,0.0,0.0,0.0,0.1279775390625,0.0,0.0,0.0,0.0,0.0,0.0,-0.613,0.0,0.0,0.0,0.0,0.0,0.0,0.09185749104017797,0.0,0.0,0.0,0.0,0.0,0.0,-13.4,0.0,0.0,0.0
108,0.0,0.0,0.0,0.121896484375,0.0,0.0,0.0,0.0,0.0,0.0,-0.647,0.0,0.0,0.0,0.0,0.0,0.0,0.08417614171164643,0.0,0.0,0.0,0.0,0.0,0.0,-12.964,0.0,0.0,0.0
109,0.0,0.0,0.0,0.116248046875,0.0,0.0,0.0,0.0,0.0,0.0,-0.588,0.0,0.0,0.0,0.0,0.0,0.0,0.07640545360955853,0.0,0.0,0.0,0.0,0.0,0.0,-14.728,0.0,0.0,0.0
110,0.0,0.0,0.0,0.1039306640625,0.0,0.0,0.0,0.0,0.0,0.0,-0.627,0.0,0.0,0.0,0.0,0.0,0.0,0.06680705887153922,0.0,0.0,0.0,0.0,0.0,0.0,-14.316,0.0,0.0,0.0
111,0.0,0.0,0.0,0.1039306640625,0.0,0.0,0.0,0.0,0.0,0.0,-0.627,0.0,0.0,0.0,0.0,0.0,0.0,0.06076027969761191,0.0,0.0,0.0,0.0,0.0,0.0,-14.316,0.0,0.0,0.0
112,0.0,0.0,0.0,0.097857421875,0.0,0.0,0.0,0.0,0.0,0.0,-0.594,0.0,0.0,0.0,0.0,0.0,0.0,0.05289507832541062,0.0,0.0,0.0,0.0,0.0,0.0,-14.452,0.0,0.0,0.0
113,0.0,0.0,0.0,0.0917666015625,0.0,0.0,0.0,0.0,0.0,0.0,-0.622,0.0,0.0,0.0,0.0,0.0,0.0,0.0448714683008948,0.0,0.0,0.0,0.0,0.0,0.0,-13.72,0.0,0.0,0.0
114,0.0,0.0,0.0,0.0862626953125,0.0,0.0,0.0,0.0,0.0,0.0,-0.579,0.0,0.0,0.0,0.0,0.0,0.0,0.036892985425640075,0.0,0.0,0.0,0.0,0.0,0.0,-14.36,0.0,0.0,0.0
115,0.0,0.0,0.0,0.080333984375,0.0,0.0,0.0,0.0,0.0,0.0,-0.571,0.0,0.0,0.0,0.0,0.0,0.0,0.02893109154863435,0.0,0.0,0.0,0.0,0.0,0.0,-14.268,0.0,0.0,0.0
116,0.0,0.0,0.0,0.0745322265625,0.0,0.0,0.0,0.0,0.0,0.0,-0.604,0.0,0.0,0.0,0.0,0.0,0.0,0.02093670033915922,0.0,0.0,0.0,0.0,0.0,0.0,-13.444,0.0,0.0,0.0
117,0.0,0.0,0.0,0.0685947265625,0.0,0.0,0.0,0.0,0.0,0.0,-0.582,0.0,0.0,0.0,0.0,0.0,0.0,0.012830880633383298,0.0,0.0,0.0,0.0,0.0,0.0,-14.156,0.0,0.0,0.0
118,0.0,0.0,0.0,0.062369140625,0.0,0.0,0.0,0.0,0.0,0.0,-0.616,0.0,0.0,0.0,0.0,0.0,0.0,0.004689755069790125,0.0,0.0,0.0,0.0,0.0,0.0,-13.56,0.0,0.0,0.0
119,0.0,0.0,0.0,0.0567197265625,0.0,0.0,0.0,0.0,0.0,0.0,-0.601,0.0,0.0,0.0,0.0,0.0,0.0,-0.0032252791665551006,0.0,0.0,0.0,0.0,0.0,0.0,-13.584,0.0,0.0,0.0
120,0.0,0.0,0.0,0.0507734375,0.0,0.0,0.0,0.0,0.0,0.0,-0.577,0.0,0.0,0.0,0.0,0.0,0.0,-0.011406980382912628,0.0,0.0,0.0,0.0,0.0,0.0,-14.636,0.0,0.0,0.0
121,0.0,0.0,0.0,0.04498046875,0.0,0.0,0.0,0.0,0.0,0.0,-0.601,0.0,0.0,0.0,0.0,0.0,0.0,-0.019304377423367495,0.0,0.0,0.0,0.0,0.0,0.0,-13.996,0.0,0.0,0.0
122,0.0,0.0,0.0,0.03962109375,0.0,0.0,0.0,0.0,0.0,0.0,-0.554,0.0,0.0,0.0,0.0,0.0,0.0,-0.027441818988968875,0.0,0.0,0.0,0.0,0.0,0.0,-15.116,0.0,0.0,0.0
123,0.0,0.0,0.0,0.0335390625,0.0,0.0,0.0,0.0,0.0,0.0,-0.575,0.0,0.0,0.0,0.0,0.0,0.0,-0.035799648408031556,0.0,0.0,0.0,0.0,0.0,0.0,-14.68,0.0,0.0,0.0
124,0.0,0.0,0.0,0.028169921875,0.0,0.0,0.0,0.0,0.0,0.0,-0.589,0.0,0.0,0.0,0.0,0.0,0.0,-0.04336393384799444,0.0,0.0,0.0,0.0,0.0,0.0,-14.108,0.0,0.0,0.0
125,0.0,0.0,0.0,0.0223857421875,0.0,0.0,0.0,0.0,0.0,0.0,-0.546,0.0,0.0,0.0,0.0,0.0,0.0,-0.051281652353247276,0.0,0.0,0.0,0.0,0.0,0.0,-14.52,0.0,0.0,0.0
126,0.0,0.0,0.0,0.0163037109375,0.0,0.0,0.0,0.0,0.0,0.0,-0.605,0.0,0.0,0.0,0.0,0.0,0.0,-0.059220506215235315,0.0,0.0,0.0,0.0,0.0,0.0,-13.72,0.0,0.0,0.0
127,0.0,0.0,0.0,0.011080078125,0.0,0.0,0.0,0.0,0.0,0.0,-0.568,0.0,0.0,0.0,0.0,0.0,0.0,-0.06705338637397733,0.0,0.0,0.0,0.0,0.0,0.0,-14.176,0.0,0.0,0.0
128,0.0,0.0,0.0,0.004853515625,0.0,0.0,0.0,0.0,0.0,0.0,-0.564,0.0,0.0,0.0,0.0,0.0,0.0,-0.07486668901755021,0.0,0.0,0.0,0.0,0.0,0.0,-14.636,0.0,0.0,0.0
129,0.0,0.0,0.0,-0.0007939453125,0.0,0.0,0.0,0.0,0.0,0.0,-0.613,0.0,0.0,0.0,0.0,0.0,0.0,-0.08262158589957586,0.0,0.0,0.0,0.0,0.0,0.0,-13.788,0.0,0.0,0.0
130,0.0,0.0,0.0,-0.006443359375,0.0,0.0,0.0,0.0,0.0,0.0,-0.559,0.0,0.0,0.0,0.0,0.0,0.0,-0.09038326262249782,0.0,0.0,0.0,0.0,0.0,0.0,-14.68,0.0,0.0,0.0
131,0.0,0.0,0.0,-0.012822265625,0.0,0.0,0.0,0.0,0.0,0.0,-0.606,0.0,0.0,0.0,0.0,0.0,0.0,-0.09797827200093313,0.0,0.0,0.0,0.0,0.0,0.0,-14.636,0.0,0.0,0.0
132,0.0,0.0,0.0,-0.0181826171875,0.0,0.0,0.0,0.0,0.0,0.0,-0.601,0.0,0.0,0.0,0.0,0.0,0.0,-0.10555051171049418,0.0,0.0,0.0,0.0,0.0,0.0,-14.796,0.0,0.0,0.0
133,0.0,0.0,0.0,-0.0238310546875,0.0,0.0,0.0,0.0,0.0,0.0,-0.537,0.0,0.0,0.0,0.0,0.0,0.0,-0.1136289598984843,0.0,0.0,0.0,0.0,0.0,0.0,-15.596,0.0,0.0,0.0
134,0.0,0.0,0.0,-0.029759765625,0.0,0.0,0.0,0.0,0.0,0.0,-0.594,0.0,0.0,0.0,0.0,0.0,0.0,-0.12046601378068014,0.0,0.0,0.0,0.0,0.0,0.0,-14.476,0.0,0.0,0.0
135,0.0,0.0,0.0,-0.034984375,0.0,0.0,0.0,0.0,0.0,0.0,-0.558,0.0,0.0,0.0,0.0,0.0,0.0,-0.12780208094831133,0.0,0.0,0.0,0.0,0.0,0.0,-14.772,0.0,0.0,0.0
136,0.0,0.0,0.0,-0.0412099609375,0.0,0.0,0.0,0.0,0.0,0.0,-0.57,0.0,0.0,0.0,0.0,0.0,0.0,-0.13506461601352238,0.0,0.0,0.0,0.0,0.0,0.0,-14.544,0.0,0.0,0.0
137,0.0,0.0,0.0,-0.0471474609375,0.0,0.0,0.0,0.0,0.0,0.0,-0.63,0.0,0.0,0.0,0.0,0.0,0.0,-0.14221076921667294,0.0,0.0,0.0,0.0,0.0,0.0,-13.764,0.0,0.0,0.0
138,0.0,0.0,0.0,-0.0528056640625,0.0,0.0,0.0,0.0,0.0,0.0,-0.569,0.0,0.0,0.0,0.0,0.0,0.0,-0.1491810459792245,0.0,0.0,0.0,0.0,0.0,0.0,-14.612,0.0,0.0,0.0
139,0.0,0.0,0.0,-0.05903125,0.0,0.0,0.0,0.0,0.0,0.0,-0.603,0.0,0.0,0.0,0.0,0.0,0.0,-0.15610018547106932,0.0,0.0,0.0,0.0,0.0,0.0,-13.812,0.0,0.0,0.0
140,0.0,0.0,0.0,-0.0646796875,0.0,0.0,0.0,0.0,0.0,0.0,-0.608,0.0,0.0,0.0,0.0,0.0,0.0,-0.16296465177034605,0.0,0.0,0.0,0.0,0.0,0.0,-13.924,0.0,0.0,0.0
141,0.0,0.0,0.0,-0.0706171875,0.0,0.0,0.0,0.0,0.0,0.0,-0.568,0.0,0.0,0.0,0.0,0.0,0.0,-0.16965173675733333,0.0,0.0,0.0,0.0,0.0,0.0,-14.864,0.0,0.0,0.0
142,0.0,0.0,0.0,-0.0769970703125,0.0,0.0,0.0,0.0,0.0,0.0,-0.629,0.0,0.0,0.0,0.0,0.0,0.0,-0.17623871369509134,0.0,0.0,0.0,0.0,0.0,0.0,-14.316,0.0,0.0,0.0
143,0.0,0.0,0.0,-0.0825009765625,0.0,0.0,0.0,0.0,0.0,0.0,-0.595,0.0,0.0,0.0,0.0,0.0,0.0,-0.18313292622377367,0.0,0.0,0.0,0.0,0.0,0.0,-15.0,0.0,0.0,0.0
144,0.0,0.0,0.0,-0.08857421875,0.0,0.0,0.0,0.0,0.0,0.0,-0.575,0.0,0.0,0.0,0.0,0.0,0.0,-0.18900429549588957,0.0,0.0,0.0,0.0,0.0,0.0,-14.544,0.0,0.0,0.0
145,0.0,0.0,0.0,-0.09422265625,0.0,0.0,0.0,0.0,0.0,0.0,-0.6,0.0,0.0,0.0,0.0,0.0,0.0,-0.19532065444318975,0.0,0.0,0.0,0.0,0.0,0.0,-13.924,0.0,0.0,0.0
146,0.0,0.0,0.0,-0.099736328125,0.0,0.0,0.0,0.0,0.0,0.0,-0.55,0.0,0.0,0.0,0.0,0.0,0.0,-0.20122822653523603,0.0,0.0,0.0,0.0,0.0,0.0,-14.864,0.0,0.0,0.0
147,0.0,0.0,0.0,-0.1061064453125,0.0,0.0,0.0,0.0,0.0,0.0,-0.599,0.0,0.0,0.0,0.0,0.0,0.0,-0.20718484774497334,0.0,0.0,0.0,0.0,0.0,0.0,-14.384,0.0,0.0,0.0
148,0.0,0.0,0.0,-0.1117548828125,0.0,0.0,0.0,0.0,0.0,0.0,-0.614,0.0,0.0,0.0,0.0,0.0,0.0,-0.21301587247065068,0.0,0.0,0.0,0.0,0.0,0.0,-13.56,0.0,0.0,0.0
149,0.0,0.0,0.0,-0.1178369140625,0.0,0.0,0.0,0.0,0.0,0.0,-0.579,0.0,0.0,0.0,0.0,0.0,0.0,-0.2185123873409415,0.0,0.0,0.0,0.0,0.0,0.0,-14.316,0.0,0.0,0.0
150,0.0,0.0,0.0,-0.124072265625,0.0,0.0,0.0,0.0,0.0,0.0,-0.631,0.0,0.0,0.0,0.0,0.0,0.0,-0.2240750410052484,0.0,0.0,0.0,0.0,0.0,0.0,-13.356,0.0,0.0,0.0
151,0.0,0.0,0.0,-0.129576171875,0.0,0.0,0.0,0.0,0.0,0.0,-0.586,0.0,0.0,0.0,0.0,0.0,0.0,-0.22918107188239567,0.0,0.0,0.0,0.0,0.0,0.0,-14.016,0.0,0.0,0.0
152,0.0,0.0,0.0,-0.135802734375,0.0,0.0,0.0,0.0,0.0,0.0,-0.579,0.0,0.0,0.0,0.0,0.0,0.0,-0.23431353363484608,0.0,0.0,0.0,0.0,0.0,0.0,-14.932,0.0,0.0,0.0
153,0.0,0.0,0.0,-0.1415869140625,0.0,0.0,0.0,0.0,0.0,0.0,-0.616,0.0,0.0,0.0,0.0,0.0,0.0,-0.23927101840739912,0.0,0.0,0.0,0.0,0.0,0.0,-14.248,0.0,0.0,0.0
154,0.0,0.0,0.0,-0.147244140625,0.0,0.0,0.0,0.0,0.0,0.0,-0.569,0.0,0.0,0.0,0.0,0.0,0.0,-0.24399428737746992,0.0,0.0,0.0,0.0,0.0,0.0,-15.344,0.0,0.0,0.0
155,0.0,0.0,0.0,-0.153326171875,0.0,0.0,0.0,0.0,0.0,0.0,-0.591,0.0,0.0,0.0,0.0,0.0,0.0,-0.24864040568849918,0.0,0.0,0.0,0.0,0.0,0.0,-14.248,0.0,0.0,0.0
156,0.0,0.0,0.0,-0.158685546875,0.0,0.0,0.0,0.0,0.0,0.0,-0.592,0.0,0.0,0.0,0.0,0.0,0.0,-0.2530307733583041,0.0,0.0,0.0,0.0,0.0,0.0,-13.972,0.0,0.0,0.0
157,0.0,0.0,0.0,-0.1644794921875,0.0,0.0,0.0,0.0,0.0,0.0,-0.547,0.0,0.0,0.0,0.0,0.0,0.0,-0.2572571665405501,0.0,0.0,0.0,0.0,0.0,0.0,-14.656,0.0,0.0,0.0
158,0.0,0.0,0.0,-0.1707138671875,0.0,0.0,0.0,0.0,0.0,0.0,-0.612,0.0,0.0,0.0,0.0,0.0,0.0,-0.26130996946901713,0.0,0.0,0.0,0.0,0.0,0.0,-13.948,0.0,0.0,0.0
159,0.0,0.0,0.0,-0.1762099609375,0.0,0.0,0.0,0.0,0.0,0.0,-0.588,0.0,0.0,0.0,0.0,0.0,0.0,-0.2651693447024229,0.0,0.0,0.0,0.0,0.0,0.0,-14.04,0.0,0.0,0.0
160,0.0,0.0,0.0,-0.182291015625,0.0,0.0,0.0,0.0,0.0,0.0,-0.579,0.0,0.0,0.0,0.0,0.0,0.0,-0.2688909792907439,0.0,0.0,0.0,0.0,0.0,0.0,-14.084,0.0,0.0,0.0
161,0.0,0.0,0.0,-0.188228515625,0.0,0.0,0.0,0.0,0.0,0.0,-0.62,0.0,0.0,0.0,0.0,0.0,0.0,-0.27231782640057023,0.0,0.0,0.0,0.0,0.0,0.0,-13.376,0.0,0.0,0.0
162,0.0,0.0,0.0,-0.19388671875,0.0,0.0,0.0,0.0,0.0,0.0,-0.578,0.0,0.0,0.0,0.0,0.0,0.0,-0.2755999940826583,0.0,0.0,0.0,0.0,0.0,0.0,-14.292,0.0,0.0,0.0
163,0.0,0.0,0.0,-0.2001123046875,0.0,0.0,0.0,0.0,0.0,0.0,-0.592,0.0,0.0,0.0,0.0,0.0,0.0,-0.2787684638450983,0.0,0.0,0.0,0.0,0.0,0.0,-14.796,0.0,0.0,0.0
164,0.0,0.0,0.0,-0.2057607421875,0.0,0.0,0.0,0.0,0.0,0.0,-0.608,0.0,0.0,0.0,0.0,0.0,0.0,-0.28155279906774333,0.0,0.0,0.0,0.0,0.0,0.0,-14.268,0.0,0.0,0.0
165,0.0,0.0,0.0,-0.211400390625,0.0,0.0,0.0,0.0,0.0,0.0,-0.563,0.0,0.0,0.0,0.0,0.0,0.0,-0.2842458227575397,0.0,0.0,0.0,0.0,0.0,0.0,-14.656,0.0,0.0,0.0
166,0.0,0.0,0.0,-0.2174912109375,0.0,0.0,0.0,0.0,0.0,0.0,-0.589,0.0,0.0,0.0,0.0,0.0,0.0,-0.2867210076250409,0.0,0.0,0.0,0.0,0.0,0.0,-14.084,0.0,0.0,0.0
167,0.0,0.0,0.0,-0.22299609375,0.0,0.0,0.0,0.0,0.0,0.0,-0.59,0.0,0.0,0.0,0.0,0.0,0.0,-0.2889773531654007,0.0,0.0,0.0,0.0,0.0,0.0,-13.972,0.0,0.0,0.0
168,0.0,0.0,0.0,-0.22893359375,0.0,0.0,0.0,0.0,0.0,0.0,-0.569,0.0,0.0,0.0,0.0,0.0,0.0,-0.29103093515631934,0.0,0.0,0.0,0.0,0.0,0.0,-14.52,0.0,0.0,0.0
169,0.0,0.0,0.0,-0.23487109375,0.0,0.0,0.0,0.0,0.0,0.0,-0.601,0.0,0.0,0.0,0.0,0.0,0.0,-0.2928928311624313,0.0,0.0,0.0,0.0,0.0,0.0,-13.696,0.0,0.0,0.0
170,0.0,0.0,0.0,-0.2406728515625,0.0,0.0,0.0,0.0,0.0,0.0,-0.591,0.0,0.0,0.0,0.0,0.0,0.0,-0.29452608388353474,0.0,0.0,0.0,0.0,0.0,0.0,-13.696,0.0,0.0,0.0
171,0.0,0.0,0.0,-0.2467451171875,0.0,0.0,0.0,0.0,0.0,0.0,-0.596,0.0,0.0,0.0,0.0,0.0,0.0,-0.29594136810811295,0.0,0.0,0.0,0.0,0.0,0.0,-13.676,0.0,0.0,0.0
172,0.0,0.0,0.0,-0.2526826171875,0.0,0.0,0.0,0.0,0.0,0.0,-0.61,0.0,0.0,0.0,0.0,0.0,0.0,-0.2971637315518369,0.0,0.0,0.0,0.0,0.0,0.0,-13.4,0.0,0.0,0.0
173,0.0,0.0,0.0,-0.2584755859375,0.0,0.0,0.0,0.0,0.0,0.0,-0.58,0.0,0.0,0.0,0.0,0.0,0.0,-0.2981970543876559,0.0,0.0,0.0,0.0,0.0,0.0,-14.36,0.0,0.0,0.0
174,0.0,0.0,0.0,-0.2644228515625,0.0,0.0,0.0,0.0,0.0,0.0,-0.6,0.0,0.0,0.0,0.0,0.0,0.0,-0.29894074953065464,0.0,0.0,0.0,0.0,0.0,0.0,-14.568,0.0,0.0,0.0
175,0.0,0.0,0.0,-0.2702158203125,0.0,0.0,0.0,0.0,0.0,0.0,-0.599,0.0,0.0,0.0,0.0,0.0,0.0,-0.2995114825484642,0.0,0.0,0.0,0.0,0.0,0.0,-14.108,0.0,0.0,0.0
176,0.0,0.0,0.0,-0.27585546875,0.0,0.0,0.0,0.0,0.0,0.0,-0.57,0.0,0.0,0.0,0.0,0.0,0.0,-0.29985926139264535,0.0,0.0,0.0,0.0,0.0,0.0,-14.224,0.0,0.0,0.0
177,0.0,0.0,0.0,-0.2816484375,0.0,0.0,0.0,0.0,0.0,0.0,-0.574,0.0,0.0,0.0,0.0,0.0,0.0,-0.2999981886489476,0.0,0.0,0.0,0.0,0.0,0.0,-14.016,0.0,0.0,0.0
178,0.0,0.0,0.0,-0.2874501953125,0.0,0.0,0.0,0.0,0.0,0.0,-0.583,0.0,0.0,0.0,0.0,0.0,0.0,-0.29991803125201805,0.0,0.0,0.0,0.0,0.0,0.0,-13.948,0.0,0.0,0.0
179,0.0,0.0,0.0,-0.2933876953125,0.0,0.0,0.0,0.0,0.0,0.0,-0.584,0.0,0.0,0.0,0.0,0.0,0.0,-0.29962507933317667,0.0,0.0,0.0,0.0,0.0,0.0,-14.248,0.0,0.0,0.0
180,0.0,0.0,0.0,-0.2993251953125,0.0,0.0,0.0,0.0,0.0,0.0,-0.599,0.0,0.0,0.0,0.0,0.0,0.0,-0.29911068271563357,0.0,0.0,0.0,0.0,0.0,0.0,-13.308,0.0,0.0,0.0
181,0.0,0.0,0.0,-0.30496484375,0.0,0.0,0.0,0.0,0.0,0.0,-0.595,0.0,0.0,0.0,0.0,0.0,0.0,-0.29838771409143705,0.0,0.0,0.0,0.0,0.0,0.0,-12.668,0.0,0.0,0.0
182,0.0,0.0,0.0,-0.3088720703125,0.0,0.0,0.0,0.0,0.0,0.0,-0.511,0.0,0.0,0.0,0.0,0.0,0.0,-0.29744580402302606,0.0,0.0,0.0,0.0,0.0,0.0,-10.404,0.0,0.0,0.0
183,0.0,0.0,0.0,-0.3100361328125,0.0,0.0,0.0,0.0,0.0,0.0,-0.277,0.0,0.0,0.0,0.0,0.0,0.0,-0.29628575412402636,0.0,0.0,0.0,0.0,0.0,0.0,-8.3,0.0,0.0,0.0
184,0.0,0.0,0.0,-0.3094580078125,0.0,0.0,0.0,0.0,0.0,0.0,-0.039,0.0,0.0,0.0,0.0,0.0,0.0,-0.2949254705709587,0.0,0.0,0.0,0.0,0.0,0.0,-7.544,0.0,0.0,0.0
185,0.0,0.0,0.0,-0.3082939453125,0.0,0.0,0.0,0.0,0.0,0.0,0.083,0.0,0.0,0.0,0.0,0.0,0.0,-0.2933076674855242,0.0,0.0,0.0,0.0,0.0,0.0,-8.3,0.0,0.0,0.0
186,0.0,0.0,0.0,-0.3071396484375,0.0,0.0,0.0,0.0,0.0,0.0,0.118,0.0,0.0,0.0,0.0,0.0,0.0,-0.291551914422234,0.0,0.0,0.0,0.0,0.0,0.0,-8.984,0.0,0.0,0.0
187,0.0,0.0,0.0,-0.3065615234375,0.0,0.0,0.0,0.0,0.0,0.0,0.096,0.0,0.0,0.0,0.0,0.0,0.0,-0.2895347293594242,0.0,0.0,0.0,0.0,0.0,0.0,-9.26,0.0,0.0,0.0
188,0.0,0.0,0.0,-0.3068505859375,0.0,0.0,0.0,0.0,0.0,0.0,0.019,0.0,0.0,0.0,0.0,0.0,0.0,-0.2873273144329954,0.0,0.0,0.0,0.0,0.0,0.0,-8.46,0.0,0.0,0.0
189,0.0,0.0,0.0,-0.30612890625,0.0,0.0,0.0,0.0,0.0,0.0,0.007,0.0,0.0,0.0,0.0,0.0,0.0,-0.28491072026751213,0.0,0.0,0.0,0.0,0.0,0.0,-7.844,0.0,0.0,0.0
190,0.0,0.0,0.0,-0.305109375,0.0,0.0,0.0,0.0,0.0,0.0,0.091,0.0,0.0,0.0,0.0,0.0,0.0,-0.2819063231080365,0.0,0.0,0.0,0.0,0.0,0.0,-9.444,0.0,0.0,0.0
191,0.0,0.0,0.0,-0.303087890625,0.0,0.0,0.0,0.0,0.0,0.0,0.132,0.0,0.0,0.0,0.0,0.0,0.0,-0.2794747603518545,0.0,0.0,0.0,0.0,0.0,0.0,-9.168,0.0,0.0,0.0
192,0.0,0.0,0.0,-0.30048046875,0.0,0.0,0.0,0.0,0.0,0.0,0.24,0.0,0.0,0.0,0.0,0.0,0.0,-0.27642816675210696,0.0,0.0,0.0,0.0,0.0,0.0,-10.928,0.0,0.0,0.0
193,0.0,0.0,0.0,-0.296716796875,0.0,0.0,0.0,0.0,0.0,0.0,0.164,0.0,0.0,0.0,0.0,0.0,0.0,-0.27278301046755477,0.0,0.0,0.0,0.0,0.0,0.0,-9.672,0.0,0.0,0.0
194,0.0,0.0,0.0,-0.296716796875,0.0,0.0,0.0,0.0,0.0,0.0,0.164,0.0,0.0,0.0,0.0,0.0,0.0,-0.26978756945009463,0.0,0.0,0.0,0.0,0.0,0.0,-9.672,0.0,0.0,0.0
195,0.0,0.0,0.0,-0.29396484375,0.0,0.0,0.0,0.0,0.0,0.0,0.281,0.0,0.0,0.0,0.0,0.0,0.0,-0.2661858686303155,0.0,0.0,0.0,0.0,0.0,0.0,-10.588,0.0,0.0,0.0
196,0.0,0.0,0.0,-0.291212890625,0.0,0.0,0.0,0.0,0.0,0.0,0.265,0.0,0.0,0.0,0.0,0.0,0.0,-0.26238324371495425,0.0,0.0,0.0,0.0,0.0,0.0,-9.788,0.0,0.0,0.0
197,0.0,0.0,0.0,-0.28715234375,0.0,0.0,0.0,0.0,0.0,0.0,0.342,0.0,0.0,0.0,0.0,0.0,0.0,-0.25835947207159793,0.0,0.0,0.0,0.0,0.0,0.0,-10.928,0.0,0.0,0.0
198,0.0,0.0,0.0,-0.28295703125,0.0,0.0,0.0,0.0,0.0,0.0,0.417,0.0,0.0,0.0,0.0,0.0,0.0,-0.25418444618735714,0.0,0.0,0.0,0.0,0.0,0.0,-12.164,0.0,0.0,0.0
199,0.0,0.0,0.0,-0.2790400390625,0.0,0.0,0.0,0.0,0.0,0.0,0.405,0.0,0.0,0.0,0.0,0.0,0.0,-0.24983929957734502,0.0,0.0,0.0,0.0,0.0,0.0,-12.416,0.0,0.0,0.0
200,0.0,0.0,0.0,-0.2745556640625,0.0,0.0,0.0,0.0,0.0,0.0,0.421,0.0,0.0,0.0,0.0,0.0,0.0,-0.24527655876414625,0.0,0.0,0.0,0.0,0.0,0.0,-12.44,0.0,0.0,0.0
201,0.0,0.0,0.0,-0.2703603515625,0.0,0.0,0.0,0.0,0.0,0.0,0.445,0.0,0.0,0.0,0.0,0.0,0.0,-0.24056379281682072,0.0,0.0,0.0,0.0,0.0,0.0,-13.308,0.0,0.0,0.0
202,0.0,0.0,0.0,-0.2658662109375,0.0,0.0,0.0,0.0,0.0,0.0,0.428,0.0,0.0,0.0,0.0,0.0,0.0,-0.23566169243006624,0.0,0.0,0.0,0.0,0.0,0.0,-12.624,0.0,0.0,0.0
203,0.0,0.0,0.0,-0.260650390625,0.0,0.0,0.0,0.0,0.0,0.0,0.48,0.0,0.0,0.0,0.0,0.0,0.0,-0.23051678456275668,0.0,0.0,0.0,0.0,0.0,0.0,-12.964,0.0,0.0,0.0
204,0.0,0.0,0.0,-0.255291015625,0.0,0.0,0.0,0.0,0.0,0.0,0.531,0.0,0.0,0.0,0.0,0.0,0.0,-0.22531460271134315,0.0,0.0,0.0,0.0,0.0,0.0,-12.712,0.0,0.0,0.0
205,0.0,0.0,0.0,-0.249208984375,0.0,0.0,0.0,0.0,0.0,0.0,0.565,0.0,0.0,0.0,0.0,0.0,0.0,-0.21995423622905746,0.0,0.0,0.0,0.0,0.0,0.0,-11.82,0.0,0.0,0.0
206,0.0,0.0,0.0,-0.243126953125,0.0,0.0,0.0,0.0,0.0,0.0,0.623,0.0,0.0,0.0,0.0,0.0,0.0,-0.21438866350342162,0.0,0.0,0.0,0.0,0.0,0.0,-13.604,0.0,0.0,0.0
207,0.0,0.0,0.0,-0.238498046875,0.0,0.0,0.0,0.0,0.0,0.0,0.549,0.0,0.0,0.0,0.0,0.0,0.0,-0.208605553829032,0.0,0.0,0.0,0.0,0.0,0.0,-14.908,0.0,0.0,0.0
208,0.0,0.0,0.0,-0.2332734375,0.0,0.0,0.0,0.0,0.0,0.0,0.475,0.0,0.0,0.0,0.0,0.0,0.0,-0.20282788088993522,0.0,0.0,0.0,0.0,0.0,0.0,-13.88,0.0,0.0,0.0
209,0.0,0.0,0.0,-0.2276337890625,0.0,0.0,0.0,0.0,0.0,0.0,0.555,0.0,0.0,0.0,0.0,0.0,0.0,-0.1968351904462983,0.0,0.0,0.0,0.0,0.0,0.0,-14.084,0.0,0.0,0.0
210,0.0,0.0,0.0,-0.2225625,0.0,0.0,0.0,0.0,0.0,0.0,0.538,0.0,0.0,0.0,0.0,0.0,0.0,-0.19064735425121865,0.0,0.0,0.0,0.0,0.0,0.0,-12.92,0.0,0.0,0.0
211,0.0,0.0,0.0,-0.2159033203125,0.0,0.0,0.0,0.0,0.0,0.0,0.572,0.0,0.0,0.0,0.0,0.0,0.0,-0.18444361007691798,0.0,0.0,0.0,0.0,0.0,0.0,-13.104,0.0,0.0,0.0
212,0.0,0.0,0.0,-0.2093798828125,0.0,0.0,0.0,0.0,0.0,0.0,0.679,0.0,0.0,0.0,0.0,0.0,0.0,-0.1779903465921849,0.0,0.0,0.0,0.0,0.0,0.0,-15.892,0.0,0.0,0.0
213,0.0,0.0,0.0,-0.203875,0.0,0.0,0.0,0.0,0.0,0.0,0.607,0.0,0.0,0.0,0.0,0.0,0.0,-0.17139290068615828,0.0,0.0,0.0,0.0,0.0,0.0,-15.78,0.0,0.0,0.0
214,0.0,0.0,0.0,-0.1977939453125,0.0,0.0,0.0,0.0,0.0,0.0,0.572,0.0,0.0,0.0,0.0,0.0,0.0,-0.16477109190785866,0.0,0.0,0.0,0.0,0.0,0.0,-14.384,0.0,0.0,0.0
215,0.0,0.0,0.0,-0.1915673828125,0.0,0.0,0.0,0.0,0.0,0.0,0.626,0.0,0.0,0.0,0.0,0.0,0.0,-0.15799930968779716,0.0,0.0,0.0,0.0,0.0,0.0,-12.944,0.0,0.0,0.0
216,0.0,0.0,0.0,-0.18504296875,0.0,0.0,0.0,0.0,0.0,0.0,0.633,0.0,0.0,0.0,0.0,0.0,0.0,-0.15108156386018862,0.0,0.0,0.0,0.0,0.0,0.0,-12.14,0.0,0.0,0.0
217,0.0,0.0,0.0,-0.1783837890625,0.0,0.0,0.0,0.0,0.0,0.0,0.657,0.0,0.0,0.0,0.0,0.0,0.0,-0.14407281056068924,0.0,0.0,0.0,0.0,0.0,0.0,-14.292,0.0,0.0,0.0
218,0.0,0.0,0.0,-0.1724462890625,0.0,0.0,0.0,0.0,0.0,0.0,0.645,0.0,0.0,0.0,0.0,0.0,0.0,-0.13699531842517906,0.0,0.0,0.0,0.0,0.0,0.0,-15.528,0.0,0.0,0.0
219,0.0,0.0,0.0,-0.166509765625,0.0,0.0,0.0,0.0,0.0,0.0,0.594,0.0,0.0,0.0,0.0,0.0,0.0,-0.12978535680177994,0.0,0.0,0.0,0.0,0.0,0.0,-14.336,0.0,0.0,0.0
220,0.0,0.0,0.0,-0.1604189453125,0.0,0.0,0.0,0.0,0.0,0.0,0.607,0.0,0.0,0.0,0.0,0.0,0.0,-0.1223335297445438,0.0,0.0,0.0,0.0,0.0,0.0,-13.264,0.0,0.0,0.0
221,0.0,0.0,0.0,-0.154634765625,0.0,0.0,0.0,0.0,0.0,0.0,0.608,0.0,0.0,0.0,0.0,0.0,0.0,-0.1151105793495331,0.0,0.0,0.0,0.0,0.0,0.0,-13.376,0.0,0.0,0.0
222,0.0,0.0,0.0,-0.148697265625,0.0,0.0,0.0,0.0,0.0,0.0,0.581,0.0,0.0,0.0,0.0,0.0,0.0,-0.10759120422733136,0.0,0.0,0.0,0.0,0.0,0.0,-14.476,0.0,0.0,0.0
223,0.0,0.0,0.0,-0.142326171875,0.0,0.0,0.0,0.0,0.0,0.0,0.617,0.0,0.0,0.0,0.0,0.0,0.0,-0.10002691254758946,0.0,0.0,0.0,0.0,0.0,0.0,-16.188,0.0,0.0,0.0
224,0.0,0.0,0.0,-0.1363798828125,0.0,0.0,0.0,0.0,0.0,0.0,0.627,0.0,0.0,0.0,0.0,0.0,0.0,-0.09244716634889732,0.0,0.0,0.0,0.0,0.0,0.0,-15.46,0.0,0.0,0.0
225,0.0,0.0,0.0,-0.1304423828125,0.0,0.0,0.0,0.0,0.0,0.0,0.591,0.0,0.0,0.0,0.0,0.0,0.0,-0.084772175838631,0.0,0.0,0.0,0.0,0.0,0.0,-13.516,0.0,0.0,0.0
226,0.0,0.0,0.0,-0.124361328125,0.0,0.0,0.0,0.0,0.0,0.0,0.61,0.0,0.0,0.0,0.0,0.0,0.0,-0.07702471044293487,0.0,0.0,0.0,0.0,0.0,0.0,-13.676,0.0,0.0,0.0
227,0.0,0.0,0.0,-0.1191455078125,0.0,0.0,0.0,0.0,0.0,0.0,0.572,0.0,0.0,0.0,0.0,0.0,0.0,-0.06917870337297811,0.0,0.0,0.0,0.0,0.0,0.0,-14.132,0.0,0.0,0.0
228,0.0,0.0,0.0,-0.1130546875,0.0,0.0,0.0,0.0,0.0,0.0,0.559,0.0,0.0,0.0,0.0,0.0,0.0,-0.061338382072687395,0.0,0.0,0.0,0.0,0.0,0.0,-14.496,0.0,0.0,0.0
229,0.0,0.0,0.0,-0.1071171875,0.0,0.0,0.0,0.0,0.0,0.0,0.617,0.0,0.0,0.0,0.0,0.0,0.0,-0.053455784804844926,0.0,0.0,0.0,0.0,0.0,0.0,-14.452,0.0,0.0,0.0
230,0.0,0.0,0.0,-0.1016220703125,0.0,0.0,0.0,0.0,0.0,0.0,0.578,0.0,0.0,0.0,0.0,0.0,0.0,-0.0455005403366384,0.0,0.0,0.0,0.0,0.0,0.0,-13.264,0.0,0.0,0.0
231,0.0,0.0,0.0,-0.09553125,0.0,0.0,0.0,0.0,0.0,0.0,0.572,0.0,0.0,0.0,0.0,0.0,0.0,-0.037543637305564946,0.0,0.0,0.0,0.0,0.0,0.0,-13.924,0.0,0.0,0.0
232,0.0,0.0,0.0,-0.0903154296875,0.0,0.0,0.0,0.0,0.0,0.0,0.577,0.0,0.0,0.0,0.0,0.0,0.0,-0.029534212412376422,0.0,0.0,0.0,0.0,0.0,0.0,-14.956,0.0,0.0,0.0
233,0.0,0.0,0.0,-0.0848115234375,0.0,0.0,0.0,0.0,0.0,0.0,0.53,0.0,0.0,0.0,0.0,0.0,0.0,-0.021448714952612243,0.0,0.0,0.0,0.0,0.0,0.0,-14.68,0.0,0.0,0.0
234,0.0,0.0,0.0,-0.0787294921875,0.0,0.0,0.0,0.0,0.0,0.0,0.581,0.0,0.0,0.0,0.0,0.0,0.0,-0.013477146767153064,0.0,0.0,0.0,0.0,0.0,0.0,-14.496,0.0,0.0,0.0
235,0.0,0.0,0.0,-0.073072265625,0.0,0.0,0.0,0.0,0.0,0.0,0.592,0.0,0.0,0.0,0.0,0.0,0.0,-0.005426751042283996,0.0,0.0,0.0,0.0,0.0,0.0,-13.284,0.0,0.0,0.0
236,0.0,0.0,0.0,-0.0672880859375,0.0,0.0,0.0,0.0,0.0,0.0,0.57,0.0,0.0,0.0,0.0,0.0,0.0,0.0026202628603807757,0.0,0.0,0.0,0.0,0.0,0.0,-12.988,0.0,0.0,0.0
237,0.0,0.0,0.0,-0.0614951171875,0.0,0.0,0.0,0.0,0.0,0.0,0.595,0.0,0.0,0.0,0.0,0.0,0.0,1.2370070266101762e-05,0.0,0.0,0.0,0.0,0.0,0.0,-14.336,0.0,0.0,0.0
238,0.0,0.0,0.0,-0.056423828125,0.0,0.0,0.0,0.0,0.0,0.0,0.547,0.0,0.0,0.0,0.0,0.0,0.0,0.0019224061280537447,0.0,0.0,0.0,0.0,0.0,0.0,-13.788,0.0,0.0,0.0
239,0.0,0.0,0.0,-0.05062109375,0.0,0.0,0.0,0.0,0.0,0.0,0.542,0.0,0.0,0.0,0.0,0.0,0.0,0.0038580219989518836,0.0,0.0,0.0,0.0,0.0,0.0,-13.332,0.0,0.0,0.0
240,0.0,0.0,0.0,-0.04497265625,0.0,0.0,0.0,0.0,0.0,0.0,0.58,0.0,0.0,0.0,0.0,0.0,0.0,0.005786902563359491,0.0,0.0,0.0,0.0,0.0,0.0,-12.416,0.0,0.0,0.0
241,0.0,0.0,0.0,-0.0394775390625,0.0,0.0,0.0,0.0,0.0,0.0,0.551,0.0,0.0,0.0,0.0,0.0,0.0,0.007715359955928803,0.0,0.0,0.0,0.0,0.0,0.0,-12.576,0.0,0.0,0.0
242,0.0,0.0,0.0,-0.0333955078125,0.0,0.0,0.0,0.0,0.0,0.0,0.588,0.0,0.0,0.0,0.0,0.0,0.0,0.009634673739082543,0.0,0.0,0.0,0.0,0.0,0.0,-14.452,0.0,0.0,0.0
243,0.0,0.0,0.0,-0.0278828125,0.0,0.0,0.0,0.0,0.0,0.0,0.587,0.0,0.0,0.0,0.0,0.0,0.0,0.011575925126334615,0.0,0.0,0.0,0.0,0.0,0.0,-15.3,0.0,0.0,0.0
244,0.0,0.0,0.0,-0.0222333984375,0.0,0.0,0.0,0.0,0.0,0.0,0.552,0.0,0.0,0.0,0.0,0.0,0.0,0.01349895884407554,0.0,0.0,0.0,0.0,0.0,0.0,-14.384,0.0,0.0,0.0
245,0.0,0.0,0.0,-0.01615234375,0.0,0.0,0.0,0.0,0.0,0.0,0.597,0.0,0.0,0.0,0.0,0.0,0.0,0.01542428424948512,0.0,0.0,0.0,0.0,0.0,0.0,-13.856,0.0,0.0,0.0
246,0.0,0.0,0.0,-0.010359375,0.0,0.0,0.0,0.0,0.0,0.0,0.594,0.0,0.0,0.0,0.0,0.0,0.0,0.017361919048729024,0.0,0.0,0.0,0.0,0.0,0.0,-12.692,0.0,0.0,0.0
247,0.0,0.0,0.0,-0.0042685546875,0.0,0.0,0.0,0.0,0.0,0.0,0.593,0.0,0.0,0.0,0.0,0.0,0.0,0.019283821310374767,0.0,0.0,0.0,0.0,0.0,0.0,-13.376,0.0,0.0,0.0
248,0.0,0.0,0.0,0.0018125,0.0,0.0,0.0,0.0,0.0,0.0,0.622,0.0,0.0,0.0,0.0,0.0,0.0,0.021198553190667737,0.0,0.0,0.0,0.0,0.0,0.0,-14.292,0.0,0.0,0.0
249,0.0,0.0,0.0,0.00731640625,0.0,0.0,0.0,0.0,0.0,0.0,0.576,0.0,0.0,0.0,0.0,0.0,0.0,0.023118423764866884,0.0,0.0,0.0,0.0,0.0,0.0,-13.468,0.0,0.0,0.0
250,0.0,0.0,0.0,0.013263671875,0.0,0.0,0.0,0.0,0.0,0.0,0.578,0.0,0.0,0.0,0.0,0.0,0.0,0.025037113217557982,0.0,0.0,0.0,0.0,0.0,0.0,-13.332,0.0,0.0,0.0
251,0.0,0.0,0.0,0.017892578125,0.0,0.0,0.0,0.0,0.0,0.0,0.557,0.0,0.0,0.0,0.0,0.0,0.0,0.02696493936055096,0.0,0.0,0.0,0.0,0.0,0.0,-14.656,0.0,0.0,0.0
252,0.0,0.0,0.0,0.0213662109375,0.0,0.0,0.0,0.0,0.0,0.0,0.407,0.0,0.0,0.0,0.0,0.0,0.0,0.028885739021926402,0.0,0.0,0.0,0.0,0.0,0.0,-15.436,0.0,0.0,0.0
253,0.0,0.0,0.0,0.024984375,0.0,0.0,0.0,0.0,0.0,0.0,0.356,0.0,0.0,0.0,0.0,0.0,0.0,0.030886672872419824,0.0,0.0,0.0,0.0,0.0,0.0,-17.172,0.0,0.0,0.0
254,0.0,0.0,0.0,0.0273037109375,0.0,0.0,0.0,0.0,0.0,0.0,0.316,0.0,0.0,0.0,0.0,0.0,0.0,0.03272321836718115,0.0,0.0,0.0,0.0,0.0,0.0,-17.312,0.0,0.0,0.0
255,0.0,0.0,0.0,0.029478515625,0.0,0.0,0.0,0.0,0.0,0.0,0.217,0.0,0.0,0.0,0.0,0.0,0.0,0.03463978568478558,0.0,0.0,0.0,0.0,0.0,0.0,-16.692,0.0,0.0,0.0
256,0.0,0.0,0.0,0.0317978515625,0.0,0.0,0.0,0.0,0.0,0.0,0.225,0.0,0.0,0.0,0.0,0.0,0.0,0.03657158071802599,0.0,0.0,0.0,0.0,0.0,0.0,-17.676,0.0,0.0,0.0
257,0.0,0.0,0.0,0.03368359375,0.0,0.0,0.0,0.0,0.0,0.0,0.22,0.0,0.0,0.0,0.0,0.0,0.0,0.03849841726616282,0.0,0.0,0.0,0.0,0.0,0.0,-18.704,0.0,0.0,0.0
258,0.0,0.0,0.0,0.0349912109375,0.0,0.0,0.0,0.0,0.0,0.0,0.165,0.0,0.0,0.0,0.0,0.0,0.0,0.04038458998845829,0.0,0.0,0.0,0.0,0.0,0.0,-19.024,0.0,0.0,0.0
259,0.0,0.0,0.0,0.036291015625,0.0,0.0,0.0,0.0,0.0,0.0,0.133,0.0,0.0,0.0,0.0,0.0,0.0,0.04229476960048667,0.0,0.0,0.0,0.0,0.0,0.0,-18.224,0.0,0.0,0.0
260,0.0,0.0,0.0,0.037599609375,0.0,0.0,0.0,0.0,0.0,0.0,0.127,0.0,0.0,0.0,0.0,0.0,0.0,0.04422112171298829,0.0,0.0,0.0,0.0,0.0,0.0,-17.24,0.0,0.0,0.0
261,0.0,0.0,0.0,0.03904296875,0.0,0.0,0.0,0.0,0.0,0.0,0.134,0.0,0.0,0.0,0.0,0.0,0.0,0.04609799206040253,0.0,0.0,0.0,0.0,0.0,0.0,-16.512,0.0,0.0,0.0
262,0.0,0.0,0.0,0.0404873046875,0.0,0.0,0.0,0.0,0.0,0.0,0.159,0.0,0.0,0.0,0.0,0.0,0.0,0.04802362947654694,0.0,0.0,0.0,0.0,0.0,0.0,-17.86,0.0,0.0,0.0
263,0.0,0.0,0.0,0.0416513671875,0.0,0.0,0.0,0.0,0.0,0.0,0.121,0.0,0.0,0.0,0.0,0.0,0.0,0.0499563977359829,0.0,0.0,0.0,0.0,0.0,0.0,-17.012,0.0,0.0,0.0
264,0.0,0.0,0.0,0.0430947265625,0.0,0.0,0.0,0.0,0.0,0.0,0.132,0.0,0.0,0.0,0.0,0.0,0.0,0.05183037396410056,0.0,0.0,0.0,0.0,0.0,0.0,-16.648,0.0,0.0,0.0
265,0.0,0.0,0.0,0.043681640625,0.0,0.0,0.0,0.0,0.0,0.0,0.114,0.0,0.0,0.0,0.0,0.0,0.0,0.0537472836331493,0.0,0.0,0.0,0.0,0.0,0.0,-15.32,0.0,0.0,0.0
266,0.0,0.0,0.0,0.0448359375,0.0,0.0,0.0,0.0,0.0,0.0,0.074,0.0,0.0,0.0,0.0,0.0,0.0,0.055599931071165905,0.0,0.0,0.0,0.0,0.0,0.0,-13.904,0.0,0.0,0.0
267,0.0,0.0,0.0,0.0462802734375,0.0,0.0,0.0,0.0,0.0,0.0,0.131,0.0,0.0,0.0,0.0,0.0,0.0,0.057519123254443125,0.0,0.0,0.0,0.0,0.0,0.0,-14.52,0.0,0.0,0.0
268,0.0,0.0,0.0,0.0474443359375,0.0,0.0,0.0,0.0,0.0,0.0,0.129,0.0,0.0,0.0,0.0,0.0,0.0,0.05941428414054245,0.0,0.0,0.0,0.0,0.0,0.0,-13.652,0.0,0.0,0.0
269,0.0,0.0,0.0,0.0487431640625,0.0,0.0,0.0,0.0,0.0,0.0,0.131,0.0,0.0,0.0,0.0,0.0,0.0,0.06128019622081634,0.0,0.0,0.0,0.0,0.0,0.0,-13.696,0.0,0.0,0.0
270,0.0,0.0,0.0,0.0497626953125,0.0,0.0,0.0,0.0,0.0,0.0,0.119,0.0,0.0,0.0,0.0,0.0,0.0,0.0631723188653624,0.0,0.0,0.0,0.0,0.0,0.0,-13.104,0.0,0.0,0.0
271,0.0,0.0,0.0,0.0507734375,0.0,0.0,0.0,0.0,0.0,0.0,0.09,0.0,0.0,0.0,0.0,0.0,0.0,0.06505369030416336,0.0,0.0,0.0,0.0,0.0,0.0,-12.28,0.0,0.0,0.0
272,0.0,0.0,0.0,0.0522177734375,0.0,0.0,0.0,0.0,0.0,0.0,0.126,0.0,0.0,0.0,0.0,0.0,0.0,0.06695533168530658,0.0,0.0,0.0,0.0,0.0,0.0,-12.508,0.0,0.0,0.0
273,0.0,0.0,0.0,0.0533818359375,0.0,0.0,0.0,0.0,0.0,0.0,0.132,0.0,0.0,0.0,0.0,0.0,0.0,0.06893618430049979,0.0,0.0,0.0,0.0,0.0,0.0,-12.508,0.0,0.0,0.0
274,0.0,0.0,0.0,0.054833984375,0.0,0.0,0.0,0.0,0.0,0.0,0.129,0.0,0.0,0.0,0.0,0.0,0.0,0.07070429113012631,0.0,0.0,0.0,0.0,0.0,0.0,-12.14,0.0,0.0,0.0
275,0.0,0.0,0.0,0.056576171875,0.0,0.0,0.0,0.0,0.0,0.0,0.164,0.0,0.0,0.0,0.0,0.0,0.0,0.0725718062422718,0.0,0.0,0.0,0.0,0.0,0.0,-12.12,0.0,0.0,0.0
276,0.0,0.0,0.0,0.0581640625,0.0,0.0,0.0,0.0,0.0,0.0,0.168,0.0,0.0,0.0,0.0,0.0,0.0,0.07445112868084311,0.0,0.0,0.0,0.0,0.0,0.0,-11.98,0.0,0.0,0.0
277,0.0,0.0,0.0,0.0600498046875,0.0,0.0,0.0,0.0,0.0,0.0,0.16,0.0,0.0,0.0,0.0,0.0,0.0,0.07632378503518861,0.0,0.0,0.0,0.0,0.0,0.0,-11.912,0.0,0.0,0.0
278,0.0,0.0,0.0,0.0617822265625,0.0,0.0,0.0,0.0,0.0,0.0,0.185,0.0,0.0,0.0,0.0,0.0,0.0,0.07817075802367521,0.0,0.0,0.0,0.0,0.0,0.0,-12.508,0.0,0.0,0.0
279,0.0,0.0,0.0,0.0632353515625,0.0,0.0,0.0,0.0,0.0,0.0,0.164,0.0,0.0,0.0,0.0,0.0,0.0,0.08004203545584222,0.0,0.0,0.0,0.0,0.0,0.0,-12.052,0.0,0.0,0.0
280,0.0,0.0,0.0,0.0655537109375,0.0,0.0,0.0,0.0,0.0,0.0,0.184,0.0,0.0,0.0,0.0,0.0,0.0,0.08200051740390193,0.0,0.0,0.0,0.0,0.0,0.0,-12.096,0.0,0.0,0.0
281,0.0,0.0,0.0,0.0675751953125,0.0,0.0,0.0,0.0,0.0,0.0,0.225,0.0,0.0,0.0,0.0,0.0,0.0,0.08374060306684933,0.0,0.0,0.0,0.0,0.0,0.0,-12.212,0.0,0.0,0.0
282,0.0,0.0,0.0,0.06931640625,0.0,0.0,0.0,0.0,0.0,0.0,0.185,0.0,0.0,0.0,0.0,0.0,0.0,0.08559708615535845,0.0,0.0,0.0,0.0,0.0,0.0,-12.644,0.0,0.0,0.0
283,0.0,0.0,0.0,0.0735126953125,0.0,0.0,0.0,0.0,0.0,0.0,0.221,0.0,0.0,0.0,0.0,0.0,0.0,0.08759018784375437,0.0,0.0,0.0,0.0,0.0,0.0,-13.172,0.0,0.0,0.0
284,0.0,0.0,0.0,0.0735126953125,0.0,0.0,0.0,0.0,0.0,0.0,0.221,0.0,0.0,0.0,0.0,0.0,0.0,0.08927492505299577,0.0,0.0,0.0,0.0,0.0,0.0,-13.172,0.0,0.0,0.0
285,0.0,0.0,0.0,0.0754072265625,0.0,0.0,0.0,0.0,0.0,0.0,0.189,0.0,0.0,0.0,0.0,0.0,0.0,0.0911409144024237,0.0,0.0,0.0,0.0,0.0,0.0,-12.644,0.0,0.0,0.0
286,0.0,0.0,0.0,0.078015625,0.0,0.0,0.0,0.0,0.0,0.0,0.214,0.0,0.0,0.0,0.0,0.0,0.0,0.09295646431749467,0.0,0.0,0.0,0.0,0.0,0.0,-12.6,0.0,0.0,0.0
287,0.0,0.0,0.0,0.080333984375,0.0,0.0,0.0,0.0,0.0,0.0,0.265,0.0,0.0,0.0,0.0,0.0,0.0,0.09479971304737302,0.0,0.0,0.0,0.0,0.0,0.0,-13.356,0.0,0.0,0.0
288,0.0,0.0,0.0,0.08235546875,0.0,0.0,0.0,0.0,0.0,0.0,0.214,0.0,0.0,0.0,0.0,0.0,0.0,0.09662310440869627,0.0,0.0,0.0,0.0,0.0,0.0,-13.652,0.0,0.0,0.0
289,0.0,0.0,0.0,0.0843857421875,0.0,0.0,0.0,0.0,0.0,0.0,0.198,0.0,0.0,0.0,0.0,0.0,0.0,0.0984469091932641,0.0,0.0,0.0,0.0,0.0,0.0,-13.856,0.0,0.0,0.0
290,0.0,0.0,0.0,0.086416015625,0.0,0.0,0.0,0.0,0.0,0.0,0.205,0.0,0.0,0.0,0.0,0.0,0.0,0.10026915925319249,0.0,0.0,0.0,0.0,0.0,0.0,-13.332,0.0,0.0,0.0
291,0.0,0.0,0.0,0.08858203125,0.0,0.0,0.0,0.0,0.0,0.0,0.213,0.0,0.0,0.0,0.0,0.0,0.0,0.10207769772082863,0.0,0.0,0.0,0.0,0.0,0.0,-13.72,0.0,0.0,0.0
292,0.0,0.0,0.0,0.0907568359375,0.0,0.0,0.0,0.0,0.0,0.0,0.211,0.0,0.0,0.0,0.0,0.0,0.0,0.10388002276690801,0.0,0.0,0.0,0.0,0.0,0.0,-13.996,0.0,0.0,0.0
293,0.0,0.0,0.0,0.0930751953125,0.0,0.0,0.0,0.0,0.0,0.0,0.237,0.0,0.0,0.0,0.0,0.0,0.0,0.10573150569297744,0.0,0.0,0.0,0.0,0.0,0.0,-15.528,0.0,0.0,0.0
294,0.0,0.0,0.0,0.0949521484375,0.0,0.0,0.0,0.0,0.0,0.0,0.209,0.0,0.0,0.0,0.0,0.0,0.0,0.10749451730217882,0.0,0.0,0.0,0.0,0.0,0.0,-15.116,0.0,0.0,0.0
295,0.0,0.0,0.0,0.0971357421875,0.0,0.0,0.0,0.0,0.0,0.0,0.205,0.0,0.0,0.0,0.0,0.0,0.0,0.10929606333536446,0.0,0.0,0.0,0.0,0.0,0.0,-15.184,0.0,0.0,0.0
296,0.0,0.0,0.0,0.0988779296875,0.0,0.0,0.0,0.0,0.0,0.0,0.201,0.0,0.0,0.0,0.0,0.0,0.0,0.11109393044891176,0.0,0.0,0.0,0.0,0.0,0.0,-14.816,0.0,0.0,0.0
297,0.0,0.0,0.0,0.10104296875,0.0,0.0,0.0,0.0,0.0,0.0,0.182,0.0,0.0,0.0,0.0,0.0,0.0,0.11289758103517823,0.0,0.0,0.0,0.0,0.0,0.0,-14.656,0.0,0.0,0.0
298,0.0,0.0,0.0,0.103353515625,0.0,0.0,0.0,0.0,0.0,0.0,0.235,0.0,0.0,0.0,0.0,0.0,0.0,0.11466615010075146,0.0,0.0,0.0,0.0,0.0,0.0,-15.984,0.0,0.0,0.0
299,0.0,0.0,0.0,0.1050947265625,0.0,0.0,0.0,0.0,0.0,0.0,0.201,0.0,0.0,0.0,0.0,0.0,0.0,0.11644947469842654,0.0,0.0,0.0,0.0,0.0,0.0,-15.184,0.0,0.0,0.0
300,0.0,0.0,0.0,0.107548828125,0.0,0.0,0.0,0.0,0.0,0.0,0.207,0.0,0.0,0.0,0.0,0.0,0.0,0.11831160216267311,0.0,0.0,0.0,0.0,0.0,0.0,-14.796,0.0,0.0,0.0
301,0.0,0.0,0.0,0.109146484375,0.0,0.0,0.0,0.0,0.0,0.0,0.223,0.0,0.0,0.0,0.0,0.0,0.0,0.11998153498660748,0.0,0.0,0.0,0.0,0.0,0.0,-14.796,0.0,0.0,0.0
302,0.0,0.0,0.0,0.1108876953125,0.0,0.0,0.0,0.0,0.0,0.0,0.147,0.0,0.0,0.0,0.0,0.0,0.0,0.12175356199559466,0.0,0.0,0.0,0.0,0.0,0.0,-13.284,0.0,0.0,0.0
303,0.0,0.0,0.0,0.1127646484375,0.0,0.0,0.0,0.0,0.0,0.0,0.188,0.0,0.0,0.0,0.0,0.0,0.0,0.1235329640366721,0.0,0.0,0.0,0.0,0.0,0.0,-14.496,0.0,0.0,0.0
304,0.0,0.0,0.0,0.113775390625,0.0,0.0,0.0,0.0,0.0,0.0,0.152,0.0,0.0,0.0,0.0,0.0,0.0,0.12525842837859924,0.0,0.0,0.0,0.0,0.0,0.0,-14.108,0.0,0.0,0.0
305,0.0,0.0,0.0,0.115525390625,0.0,0.0,0.0,0.0,0.0,0.0,0.127,0.0,0.0,0.0,0.0,0.0,0.0,0.1270173425145561,0.0,0.0,0.0,0.0,0.0,0.0,-13.72,0.0,0.0,0.0
306,0.0,0.0,0.0,0.1168251953125,0.0,0.0,0.0,0.0,0.0,0.0,0.166,0.0,0.0,0.0,0.0,0.0,0.0,0.12875998772848918,0.0,0.0,0.0,0.0,0.0,0.0,-14.084,0.0,0.0,0.0
307,0.0,0.0,0.0,0.1179892578125,0.0,0.0,0.0,0.0,0.0,0.0,0.121,0.0,0.0,0.0,0.0,0.0,0.0,0.13051483819019438,0.0,0.0,0.0,0.0,0.0,0.0,-13.308,0.0,0.0,0.0
308,0.0,0.0,0.0,0.1198662109375,0.0,0.0,0.0,0.0,0.0,0.0,0.145,0.0,0.0,0.0,0.0,0.0,0.0,0.13223357064267588,0.0,0.0,0.0,0.0,0.0,0.0,-13.764,0.0,0.0,0.0
309,0.0,0.0,0.0,0.121318359375,0.0,0.0,0.0,0.0,0.0,0.0,0.173,0.0,0.0,0.0,0.0,0.0,0.0,0.13397421291891584,0.0,0.0,0.0,0.0,0.0,0.0,-13.972,0.0,0.0,0.0
310,0.0,0.0,0.0,0.1227626953125,0.0,0.0,0.0,0.0,0.0,0.0,0.135,0.0,0.0,0.0,0.0,0.0,0.0,0.1356945982666389,0.0,0.0,0.0,0.0,0.0,0.0,-13.08,0.0,0.0,0.0
311,0.0,0.0,0.0,0.12450390625,0.0,0.0,0.0,0.0,0.0,0.0,0.168,0.0,0.0,0.0,0.0,0.0,0.0,0.137409228043905,0.0,0.0,0.0,0.0,0.0,0.0,-13.604,0.0,0.0,0.0
312,0.0,0.0,0.0,0.125947265625,0.0,0.0,0.0,0.0,0.0,0.0,0.158,0.0,0.0,0.0,0.0,0.0,0.0,0.13912076292600636,0.0,0.0,0.0,0.0,0.0,0.0,-13.032,0.0,0.0,0.0
313,0.0,0.0,0.0,0.127400390625,0.0,0.0,0.0,0.0,0.0,0.0,0.145,0.0,0.0,0.0,0.0,0.0,0.0,0.14083300436973809,0.0,0.0,0.0,0.0,0.0,0.0,-13.148,0.0,0.0,0.0
314,0.0,0.0,0.0,0.12898828125,0.0,0.0,0.0,0.0,0.0,0.0,0.148,0.0,0.0,0.0,0.0,0.0,0.0,0.14251955403383024,0.0,0.0,0.0,0.0,0.0,0.0,-12.944,0.0,0.0,0.0
315,0.0,0.0,0.0,0.1305859375,0.0,0.0,0.0,0.0,0.0,0.0,0.162,0.0,0.0,0.0,0.0,0.0,0.0,0.14421446019051104,0.0,0.0,0.0,0.0,0.0,0.0,-12.964,0.0,0.0,0.0
316,0.0,0.0,0.0,0.131884765625,0.0,0.0,0.0,0.0,0.0,0.0,0.146,0.0,0.0,0.0,0.0,0.0,0.0,0.14591742353017303,0.0,0.0,0.0,0.0,0.0,0.0,-13.192,0.0,0.0,0.0
317,0.0,0.0,0.0,0.1339150390625,0.0,0.0,0.0,0.0,0.0,0.0,0.159,0.0,0.0,0.0,0.0,0.0,0.0,0.1475979560944307,0.0,0.0,0.0,0.0,0.0,0.0,-12.784,0.0,0.0,0.0
318,0.0,0.0,0.0,0.135810546875,0.0,0.0,0.0,0.0,0.0,0.0,0.197,0.0,0.0,0.0,0.0,0.0,0.0,0.14926370413412146,0.0,0.0,0.0,0.0,0.0,0.0,-13.308,0.0,0.0,0.0
319,0.0,0.0,0.0,0.137109375,0.0,0.0,0.0,0.0,0.0,0.0,0.161,0.0,0.0,0.0,0.0,0.0,0.0,0.15093953354752254,0.0,0.0,0.0,0.0,0.0,0.0,-13.376,0.0,0.0,0.0
320,0.0,0.0,0.0,0.1389951171875,0.0,0.0,0.0,0.0,0.0,0.0,0.153,0.0,0.0,0.0,0.0,0.0,0.0,0.15261224737443627,0.0,0.0,0.0,0.0,0.0,0.0,-12.944,0.0,0.0,0.0
321,0.0,0.0,0.0,0.140728515625,0.0,0.0,0.0,0.0,0.0,0.0,0.191,0.0,0.0,0.0,0.0,0.0,0.0,0.15426233554533061,0.0,0.0,0.0,0.0,0.0,0.0,-13.056,0.0,0.0,0.0
322,0.0,0.0,0.0,0.1420361328125,0.0,0.0,0.0,0.0,0.0,0.0,0.155,0.0,0.0,0.0,0.0,0.0,0.0,0.155922289770018,0.0,0.0,0.0,0.0,0.0,0.0,-12.44,0.0,0.0,0.0
323,0.0,0.0,0.0,0.1442021484375,0.0,0.0,0.0,0.0,0.0,0.0,0.17,0.0,0.0,0.0,0.0,0.0,0.0,0.15756864625278413,0.0,0.0,0.0,0.0,0.0,0.0,-12.736,0.0,0.0,0.0
324,0.0,0.0,0.0,0.146087890625,0.0,0.0,0.0,0.0,0.0,0.0,0.213,0.0,0.0,0.0,0.0,0.0,0.0,0.1592081635853655,0.0,0.0,0.0,0.0,0.0,0.0,-13.424,0.0,0.0,0.0
325,0.0,0.0,0.0,0.1478291015625,0.0,0.0,0.0,0.0,0.0,0.0,0.17,0.0,0.0,0.0,0.0,0.0,0.0,0.16082447384770635,0.0,0.0,0.0,0.0,0.0,0.0,-13.104,0.0,0.0,0.0
326,0.0,0.0,0.0,0.1498505859375,0.0,0.0,0.0,0.0,0.0,0.0,0.188,0.0,0.0,0.0,0.0,0.0,0.0,0.16244543254402505,0.0,0.0,0.0,0.0,0.0,0.0,-13.468,0.0,0.0,0.0
327,0.0,0.0,0.0,0.1513037109375,0.0,0.0,0.0,0.0,0.0,0.0,0.181,0.0,0.0,0.0,0.0,0.0,0.0,0.16406956475622883,0.0,0.0,0.0,0.0,0.0,0.0,-13.836,0.0,0.0,0.0
328,0.0,0.0,0.0,0.1531806640625,0.0,0.0,0.0,0.0,0.0,0.0,0.16,0.0,0.0,0.0,0.0,0.0,0.0,0.1656733705331838,0.0,0.0,0.0,0.0,0.0,0.0,-13.424,0.0,0.0,0.0
329,0.0,0.0,0.0,0.1552109375,0.0,0.0,0.0,0.0,0.0,0.0,0.198,0.0,0.0,0.0,0.0,0.0,0.0,0.1672852799558541,0.0,0.0,0.0,0.0,0.0,0.0,-14.496,0.0,0.0,0.0
330,0.0,0.0,0.0,0.1566728515625,0.0,0.0,0.0,0.0,0.0,0.0,0.18,0.0,0.0,0.0,0.0,0.0,0.0,0.16887842887040808,0.0,0.0,0.0,0.0,0.0,0.0,-14.336,0.0,0.0,0.0
331,0.0,0.0,0.0,0.158693359375,0.0,0.0,0.0,0.0,0.0,0.0,0.173,0.0,0.0,0.0,0.0,0.0,0.0,0.17048540994013067,0.0,0.0,0.0,0.0,0.0,0.0,-14.408,0.0,0.0,0.0
332,0.0,0.0,0.0,0.160580078125,0.0,0.0,0.0,0.0,0.0,0.0,0.203,0.0,0.0,0.0,0.0,0.0,0.0,0.17204854554084614,0.0,0.0,0.0,0.0,0.0,0.0,-14.748,0.0,0.0,0.0
333,0.0,0.0,0.0,0.16216796875,0.0,0.0,0.0,0.0,0.0,0.0,0.173,0.0,0.0,0.0,0.0,0.0,0.0,0.17364390329184104,0.0,0.0,0.0,0.0,0.0,0.0,-14.588,0.0,0.0,0.0
334,0.0,0.0,0.0,0.1641982421875,0.0,0.0,0.0,0.0,0.0,0.0,0.174,0.0,0.0,0.0,0.0,0.0,0.0,0.1751927911760468,0.0,0.0,0.0,0.0,0.0,0.0,-14.704,0.0,0.0,0.0
335,0.0,0.0,0.0,0.166083984375,0.0,0.0,0.0,0.0,0.0,0.0,0.197,0.0,0.0,0.0,0.0,0.0,0.0,0.17675643577855651,0.0,0.0,0.0,0.0,0.0,0.0,-15.024,0.0,0.0,0.0
336,0.0,0.0,0.0,0.16781640625,0.0,0.0,0.0,0.0,0.0,0.0,0.185,0.0,0.0,0.0,0.0,0.0,0.0,0.1783152372769878,0.0,0.0,0.0,0.0,0.0,0.0,-14.656,0.0,0.0,0.0
337,0.0,0.0,0.0,0.1697021484375,0.0,0.0,0.0,0.0,0.0,0.0,0.179,0.0,0.0,0.0,0.0,0.0,0.0,0.17986464240813232,0.0,0.0,0.0,0.0,0.0,0.0,-14.408,0.0,0.0,0.0
338,0.0,0.0,0.0,0.1712900390625,0.0,0.0,0.0,0.0,0.0,0.0,0.18,0.0,0.0,0.0,0.0,0.0,0.0,0.18140578761351112,0.0,0.0,0.0,0.0,0.0,0.0,-14.476,0.0,0.0,0.0
339,0.0,0.0,0.0,0.1727431640625,0.0,0.0,0.0,0.0,0.0,0.0,0.153,0.0,0.0,0.0,0.0,0.0,0.0,0.18293807415579938,0.0,0.0,0.0,0.0,0.0,0.0,-14.064,0.0,0.0,0.0
340,0.0,0.0,0.0,0.17404296875,0.0,0.0,0.0,0.0,0.0,0.0,0.145,0.0,0.0,0.0,0.0,0.0,0.0,0.18447284573756736,0.0,0.0,0.0,0.0,0.0,0.0,-13.72,0.0,0.0,0.0
341,0.0,0.0,0.0,0.17550390625,0.0,0.0,0.0,0.0,0.0,0.0,0.135,0.0,0.0,0.0,0.0,0.0,0.0,0.1859726147002998,0.0,0.0,0.0,0.0,0.0,0.0,-13.516,0.0,0.0,0.0
342,0.0,0.0,0.0,0.1768037109375,0.0,0.0,0.0,0.0,0.0,0.0,0.134,0.0,0.0,0.0,0.0,0.0,0.0,0.1875058693717517,0.0,0.0,0.0,0.0,0.0,0.0,-13.584,0.0,0.0,0.0
343,0.0,0.0,0.0,0.1781123046875,0.0,0.0,0.0,0.0,0.0,0.0,0.14,0.0,0.0,0.0,0.0,0.0,0.0,0.18902123675345991,0.0,0.0,0.0,0.0,0.0,0.0,-13.628,0.0,0.0,0.0
344,0.0,0.0,0.0,0.1795556640625,0.0,0.0,0.0,0.0,0.0,0.0,0.135,0.0,0.0,0.0,0.0,0.0,0.0,0.19048914628975044,0.0,0.0,0.0,0.0,0.0,0.0,-13.284,0.0,0.0,0.0
345,0.0,0.0,0.0,0.18085546875,0.0,0.0,0.0,0.0,0.0,0.0,0.135,0.0,0.0,0.0,0.0,0.0,0.0,0.1919743676222169,0.0,0.0,0.0,0.0,0.0,0.0,-13.492,0.0,0.0,0.0
346,0.0,0.0,0.0,0.181875,0.0,0.0,0.0,0.0,0.0,0.0,0.117,0.0,0.0,0.0,0.0,0.0,0.0,0.19345296366310075,0.0,0.0,0.0,0.0,0.0,0.0,-13.492,0.0,0.0,0.0
347,0.0,0.0,0.0,0.183173828125,0.0,0.0,0.0,0.0,0.0,0.0,0.111,0.0,0.0,0.0,0.0,0.0,0.0,0.19492799816953862,0.0,0.0,0.0,0.0,0.0,0.0,-12.852,0.0,0.0,0.0
348,0.0,0.0,0.0,0.184771484375,0.0,0.0,0.0,0.0,0.0,0.0,0.15,0.0,0.0,0.0,0.0,0.0,0.0,0.19638205969555514,0.0,0.0,0.0,0.0,0.0,0.0,-13.216,0.0,0.0,0.0
349,0.0,0.0,0.0,0.1857822265625,0.0,0.0,0.0,0.0,0.0,0.0,0.132,0.0,0.0,0.0,0.0,0.0,0.0,0.1978327599531363,0.0,0.0,0.0,0.0,0.0,0.0,-13.216,0.0,0.0,0.0
350,0.0,0.0,0.0,0.18737890625,0.0,0.0,0.0,0.0,0.0,0.0,0.127,0.0,0.0,0.0,0.0,0.0,0.0,0.19930123730001384,0.0,0.0,0.0,0.0,0.0,0.0,-13.172,0.0,0.0,0.0
351,0.0,0.0,0.0,0.1888232421875,0.0,0.0,0.0,0.0,0.0,0.0,0.165,0.0,0.0,0.0,0.0,0.0,0.0,0.20071637998548733,0.0,0.0,0.0,0.0,0.0,0.0,-13.216,0.0,0.0,0.0
352,0.0,0.0,0.0,0.1901220703125,0.0,0.0,0.0,0.0,0.0,0.0,0.139,0.0,0.0,0.0,0.0,0.0,0.0,0.20214811820554182,0.0,0.0,0.0,0.0,0.0,0.0,-12.736,0.0,0.0,0.0
353,0.0,0.0,0.0,0.1917197265625,0.0,0.0,0.0,0.0,0.0,0.0,0.139,0.0,0.0,0.0,0.0,0.0,0.0,0.20362871896031495,0.0,0.0,0.0,0.0,0.0,0.0,-12.964,0.0,0.0,0.0
354,0.0,0.0,0.0,0.1931630859375,0.0,0.0,0.0,0.0,0.0,0.0,0.154,0.0,0.0,0.0,0.0,0.0,0.0,0.20498994253048483,0.0,0.0,0.0,0.0,0.0,0.0,-13.192,0.0,0.0,0.0
355,0.0,0.0,0.0,0.1943271484375,0.0,0.0,0.0,0.0,0.0,0.0,0.133,0.0,0.0,0.0,0.0,0.0,0.0,0.20638625159319748,0.0,0.0,0.0,0.0,0.0,0.0,-13.424,0.0,0.0,0.0
356,0.0,0.0,0.0,0.1957802734375,0.0,0.0,0.0,0.0,0.0,0.0,0.118,0.0,0.0,0.0,0.0,0.0,0.0,0.20778317898889595,0.0,0.0,0.0,0.0,0.0,0.0,-12.804,0.0,0.0,0.0
357,0.0,0.0,0.0,0.197376953125,0.0,0.0,0.0,0.0,0.0,0.0,0.16,0.0,0.0,0.0,0.0,0.0,0.0,0.20917318168556356,0.0,0.0,0.0,0.0,0.0,0.0,-13.148,0.0,0.0,0.0
358,0.0,0.0,0.0,0.1986767578125,0.0,0.0,0.0,0.0,0.0,0.0,0.147,0.0,0.0,0.0,0.0,0.0,0.0,0.21054195374398602,0.0,0.0,0.0,0.0,0.0,0.0,-12.76,0.0,0.0,0.0
359,0.0,0.0,0.0,0.2005625,0.0,0.0,0.0,0.0,0.0,0.0,0.155,0.0,0.0,0.0,0.0,0.0,0.0,0.211908034832702,0.0,0.0,0.0,0.0,0.0,0.0,-13.032,0.0,0.0,0.0
360,0.0,0.0,0.0,0.202005859375,0.0,0.0,0.0,0.0,0.0,0.0,0.169,0.0,0.0,0.0,0.0,0.0,0.0,0.21329741827990112,0.0,0.0,0.0,0.0,0.0,0.0,-13.492,0.0,0.0,0.0
361,0.0,0.0,0.0,0.203314453125,0.0,0.0,0.0,0.0,0.0,0.0,0.135,0.0,0.0,0.0,0.0,0.0,0.0,0.2146309970592829,0.0,0.0,0.0,0.0,0.0,0.0,-12.92,0.0,0.0,0.0
362,0.0,0.0,0.0,0.2047578125,0.0,0.0,0.0,0.0,0.0,0.0,0.152,0.0,0.0,0.0,0.0,0.0,0.0,0.2159715836540844,0.0,0.0,0.0,0.0,0.0,0.0,-13.032,0.0,0.0,0.0
363,0.0,0.0,0.0,0.20606640625,0.0,0.0,0.0,0.0,0.0,0.0,0.132,0.0,0.0,0.0,0.0,0.0,0.0,0.21733561267421356,0.0,0.0,0.0,0.0,0.0,0.0,-12.692,0.0,0.0,0.0
364,0.0,0.0,0.0,0.2073662109375,0.0,0.0,0.0,0.0,0.0,0.0,0.133,0.0,0.0,0.0,0.0,0.0,0.0,0.2186281640019779,0.0,0.0,0.0,0.0,0.0,0.0,-13.216,0.0,0.0,0.0
365,0.0,0.0,0.0,0.208818359375,0.0,0.0,0.0,0.0,0.0,0.0,0.131,0.0,0.0,0.0,0.0,0.0,0.0,0.21998964134976257,0.0,0.0,0.0,0.0,0.0,0.0,-13.192,0.0,0.0,0.0
366,0.0,0.0,0.0,0.2102626953125,0.0,0.0,0.0,0.0,0.0,0.0,0.146,0.0,0.0,0.0,0.0,0.0,0.0,0.22125218558287216,0.0,0.0,0.0,0.0,0.0,0.0,-13.516,0.0,0.0,0.0
367,0.0,0.0,0.0,0.2115615234375,0.0,0.0,0.0,0.0,0.0,0.0,0.139,0.0,0.0,0.0,0.0,0.0,0.0,0.22257721674643688,0.0,0.0,0.0,0.0,0.0,0.0,-13.604,0.0,0.0,0.0
368,0.0,0.0,0.0,0.2130146484375,0.0,0.0,0.0,0.0,0.0,0.0,0.134,0.0,0.0,0.0,0.0,0.0,0.0,0.22384435322598953,0.0,0.0,0.0,0.0,0.0,0.0,-13.584,0.0,0.0,0.0
369,0.0,0.0,0.0,0.2146025390625,0.0,0.0,0.0,0.0,0.0,0.0,0.161,0.0,0.0,0.0,0.0,0.0,0.0,0.22511670905429573,0.0,0.0,0.0,0.0,0.0,0.0,-13.996,0.0,0.0,0.0
370,0.0,0.0,0.0,0.216064453125,0.0,0.0,0.0,0.0,0.0,0.0,0.149,0.0,0.0,0.0,0.0,0.0,0.0,0.22640240293407915,0.0,0.0,0.0,0.0,0.0,0.0,-14.292,0.0,0.0,0.0
371,0.0,0.0,0.0,0.2175087890625,0.0,0.0,0.0,0.0,0.0,0.0,0.145,0.0,0.0,0.0,0.0,0.0,0.0,0.2276581451772233,0.0,0.0,0.0,0.0,0.0,0.0,-14.176,0.0,0.0,0.0
372,0.0,0.0,0.0,0.2189609375,0.0,0.0,0.0,0.0,0.0,0.0,0.145,0.0,0.0,0.0,0.0,0.0,0.0,0.22890755457562628,0.0,0.0,0.0,0.0,0.0,0.0,-14.2,0.0,0.0,0.0
373,0.0,0.0,0.0,0.2202607421875,0.0,0.0,0.0,0.0,0.0,0.0,0.142,0.0,0.0,0.0,0.0,0.0,0.0,0.23018242432730257,0.0,0.0,0.0,0.0,0.0,0.0,-14.04,0.0,0.0,0.0
374,0.0,0.0,0.0,0.2215693359375,0.0,0.0,0.0,0.0,0.0,0.0,0.129,0.0,0.0,0.0,0.0,0.0,0.0,0.23137679805171335,0.0,0.0,0.0,0.0,0.0,0.0,-14.268,0.0,0.0,0.0
375,0.0,0.0,0.0,0.2230126953125,0.0,0.0,0.0,0.0,0.0,0.0,0.126,0.0,0.0,0.0,0.0,0.0,0.0,0.2326039842876472,0.0,0.0,0.0,0.0,0.0,0.0,-14.2,0.0,0.0,0.0
376,0.0,0.0,0.0,0.2241767578125,0.0,0.0,0.0,0.0,0.0,0.0,0.142,0.0,0.0,0.0,0.0,0.0,0.0,0.2338144872129575,0.0,0.0,0.0,0.0,0.0,0.0,-14.68,0.0,0.0,0.0
377,0.0,0.0,0.0,0.226630859375,0.0,0.0,0.0,0.0,0.0,0.0,0.127,0.0,0.0,0.0,0.0,0.0,0.0,0.2352113382795002,0.0,0.0,0.0,0.0,0.0,0.0,-14.428,0.0,0.0,0.0
378,0.0,0.0,0.0,0.226630859375,0.0,0.0,0.0,0.0,0.0,0.0,0.127,0.0,0.0,0.0,0.0,0.0,0.0,0.23621344280244136,0.0,0.0,0.0,0.0,0.0,0.0,-14.428,0.0,0.0,0.0
379,0.0,0.0,0.0,0.227939453125,0.0,0.0,0.0,0.0,0.0,0.0,0.128,0.0,0.0,0.0,0.0,0.0,0.0,0.2373907470839687,0.0,0.0,0.0,0.0,0.0,0.0,-14.248,0.0,0.0,0.0
380,0.0,0.0,0.0,0.2292392578125,0.0,0.0,0.0,0.0,0.0,0.0,0.128,0.0,0.0,0.0,0.0,0.0,0.0,0.23857996024712042,0.0,0.0,0.0,0.0,0.0,0.0,-14.268,0.0,0.0,0.0
381,0.0,0.0,0.0,0.230546875,0.0,0.0,0.0,0.0,0.0,0.0,0.132,0.0,0.0,0.0,0.0,0.0,0.0,0.2397384663586408,0.0,0.0,0.0,0.0,0.0,0.0,-14.452,0.0,0.0,0.0
382,0.0,0.0,0.0,0.2318466796875,0.0,0.0,0.0,0.0,0.0,0.0,0.135,0.0,0.0,0.0,0.0,0.0,0.0,0.24089483763746491,0.0,0.0,0.0,0.0,0.0,0.0,-14.248,0.0,0.0,0.0
383,0.0,0.0,0.0,0.2331552734375,0.0,0.0,0.0,0.0,0.0,0.0,0.129,0.0,0.0,0.0,0.0,0.0,0.0,0.24204043185957985,0.0,0.0,0.0,0.0,0.0,0.0,-14.176,0.0,0.0,0.0
384,0.0,0.0,0.0,0.2343095703125,0.0,0.0,0.0,0.0,0.0,0.0,0.12,0.0,0.0,0.0,0.0,0.0,0.0,0.2431741720308728,0.0,0.0,0.0,0.0,0.0,0.0,-13.536,0.0,0.0,0.0
385,0.0,0.0,0.0,0.2354736328125,0.0,0.0,0.0,0.0,0.0,0.0,0.127,0.0,0.0,0.0,0.0,0.0,0.0,0.24429846222968923,0.0,0.0,0.0,0.0,0.0,0.0,-13.788,0.0,0.0,0.0
386,0.0,0.0,0.0,0.236349609375,0.0,0.0,0.0,0.0,0.0,0.0,0.098,0.0,0.0,0.0,0.0,0.0,0.0,0.24540498786117265,0.0,0.0,0.0,0.0,0.0,0.0,-13.444,0.0,0.0,0.0
387,0.0,0.0,0.0,0.23750390625,0.0,0.0,0.0,0.0,0.0,0.0,0.097,0.0,0.0,0.0,0.0,0.0,0.0,0.2465140410415427,0.0,0.0,0.0,0.0,0.0,0.0,-13.424,0.0,0.0,0.0
388,0.0,0.0,0.0,0.2382265625,0.0,0.0,0.0,0.0,0.0,0.0,0.101,0.0,0.0,0.0,0.0,0.0,0.0,0.2476028209666146,0.0,0.0,0.0,0.0,0.0,0.0,-13.376,0.0,0.0,0.0
389,0.0,0.0,0.0,0.239236328125,0.0,0.0,0.0,0.0,0.0,0.0,0.086,0.0,0.0,0.0,0.0,0.0,0.0,0.24868923372383459,0.0,0.0,0.0,0.0,0.0,0.0,-13.192,0.0,0.0,0.0
390,0.0,0.0,0.0,0.2402568359375,0.0,0.0,0.0,0.0,0.0,0.0,0.1,0.0,0.0,0.0,0.0,0.0,0.0,0.24979776790030522,0.0,0.0,0.0,0.0,0.0,0.0,-13.264,0.0,0.0,0.0
391,0.0,0.0,0.0,0.2414111328125,0.0,0.0,0.0,0.0,0.0,0.0,0.102,0.0,0.0,0.0,0.0,0.0,0.0,0.2508367090344245,0.0,0.0,0.0,0.0,0.0,0.0,-12.988,0.0,0.0,0.0
392,0.0,0.0,0.0,0.2424306640625,0.0,0.0,0.0,0.0,0.0,0.0,0.112,0.0,0.0,0.0,0.0,0.0,0.0,0.2518791621851716,0.0,0.0,0.0,0.0,0.0,0.0,-13.148,0.0,0.0,0.0
393,0.0,0.0,0.0,0.243296875,0.0,0.0,0.0,0.0,0.0,0.0,0.099,0.0,0.0,0.0,0.0,0.0,0.0,0.252946573916663,0.0,0.0,0.0,0.0,0.0,0.0,-13.124,0.0,0.0,0.0
394,0.0,0.0,0.0,0.2443076171875,0.0,0.0,0.0,0.0,0.0,0.0,0.092,0.0,0.0,0.0,0.0,0.0,0.0,0.2539510605978203,0.0,0.0,0.0,0.0,0.0,0.0,-13.08,0.0,0.0,0.0
395,0.0,0.0,0.0,0.245173828125,0.0,0.0,0.0,0.0,0.0,0.0,0.09,0.0,0.0,0.0,0.0,0.0,0.0,0.25497102356566403,0.0,0.0,0.0,0.0,0.0,0.0,-12.872,0.0,0.0,0.0
396,0.0,0.0,0.0,0.2460498046875,0.0,0.0,0.0,0.0,0.0,0.0,0.095,0.0,0.0,0.0,0.0,0.0,0.0,0.25599024043123875,0.0,0.0,0.0,0.0,0.0,0.0,-12.92,0.0,0.0,0.0
397,0.0,0.0,0.0,0.246916015625,0.0,0.0,0.0,0.0,0.0,0.0,0.083,0.0,0.0,0.0,0.0,0.0,0.0,0.2569900208143168,0.0,0.0,0.0,0.0,0.0,0.0,-12.92,0.0,0.0,0.0
398,0.0,0.0,0.0,0.2479267578125,0.0,0.0,0.0,0.0,0.0,0.0,0.09,0.0,0.0,0.0,0.0,0.0,0.0,0.2579746851292899,0.0,0.0,0.0,0.0,0.0,0.0,-12.736,0.0,0.0,0.0
399,0.0,0.0,0.0,0.2488017578125,0.0,0.0,0.0,0.0,0.0,0.0,0.1,0.0,0.0,0.0,0.0,0.0,0.0,0.25895553001371,0.0,0.0,0.0,0.0,0.0,0.0,-12.988,0.0,0.0,0.0
400,0.0,0.0,0.0,0.24966796875,0.0,0.0,0.0,0.0,0.0,0.0,0.081,0.0,0.0,0.0,0.0,0.0,0.0,0.2599314892116766,0.0,0.0,0.0,0.0,0.0,0.0,-12.484,0.0,0.0,0.0
401,0.0,0.0,0.0,0.2508232421875,0.0,0.0,0.0,0.0,0.0,0.0,0.11,0.0,0.0,0.0,0.0,0.0,0.0,0.2608783504604082,0.0,0.0,0.0,0.0,0.0,0.0,-12.872,0.0,0.0,0.0
402,0.0,0.0,0.0,0.2516982421875,0.0,0.0,0.0,0.0,0.0,0.0,0.1,0.0,0.0,0.0,0.0,0.0,0.0,0.2618289934712749,0.0,0.0,0.0,0.0,0.0,0.0,-12.712,0.0,0.0,0.0
403,0.0,0.0,0.0,0.252853515625,0.0,0.0,0.0,0.0,0.0,0.0,0.101,0.0,0.0,0.0,0.0,0.0,0.0,0.2627787573917969,0.0,0.0,0.0,0.0,0.0,0.0,-12.784,0.0,0.0,0.0
404,0.0,0.0,0.0,0.2540078125,0.0,0.0,0.0,0.0,0.0,0.0,0.12,0.0,0.0,0.0,0.0,0.0,0.0,0.26368718952353004,0.0,0.0,0.0,0.0,0.0,0.0,-12.828,0.0,0.0,0.0
405,0.0,0.0,0.0,0.2551806640625,0.0,0.0,0.0,0.0,0.0,0.0,0.11,0.0,0.0,0.0,0.0,0.0,0.0,0.2646234678878505,0.0,0.0,0.0,0.0,0.0,0.0,-12.828,0.0,0.0,0.0
406,0.0,0.0,0.0,0.2560478515625,0.0,0.0,0.0,0.0,0.0,0.0,0.108,0.0,0.0,0.0,0.0,0.0,0.0,0.26550752456906557,0.0,0.0,0.0,0.0,0.0,0.0,-12.964,0.0,0.0,0.0
407,0.0,0.0,0.0,0.2572021484375,0.0,0.0,0.0,0.0,0.0,0.0,0.1,0.0,0.0,0.0,0.0,0.0,0.0,0.26639826317068865,0.0,0.0,0.0,0.0,0.0,0.0,-12.964,0.0,0.0,0.0
408,0.0,0.0,0.0,0.2582216796875,0.0,0.0,0.0,0.0,0.0,0.0,0.107,0.0,0.0,0.0,0.0,0.0,0.0,0.26728521601444155,0.0,0.0,0.0,0.0,0.0,0.0,-13.192,0.0,0.0,0.0
409,0.0,0.0,0.0,0.259087890625,0.0,0.0,0.0,0.0,0.0,0.0,0.09,0.0,0.0,0.0,0.0,0.0,0.0,0.26815900197844394,0.0,0.0,0.0,0.0,0.0,0.0,-12.872,0.0,0.0,0.0
410,0.0,0.0,0.0,0.2603876953125,0.0,0.0,0.0,0.0,0.0,0.0,0.11,0.0,0.0,0.0,0.0,0.0,0.0,0.2690262139343802,0.0,0.0,0.0,0.0,0.0,0.0,-13.032,0.0,0.0,0.0
411,0.0,0.0,0.0,0.2614072265625,0.0,0.0,0.0,0.0,0.0,0.0,0.118,0.0,0.0,0.0,0.0,0.0,0.0,0.269858595781501,0.0,0.0,0.0,0.0,0.0,0.0,-13.24,0.0,0.0,0.0
412,0.0,0.0,0.0,0.2622734375,0.0,0.0,0.0,0.0,0.0,0.0,0.095,0.0,0.0,0.0,0.0,0.0,0.0,0.2706998584729421,0.0,0.0,0.0,0.0,0.0,0.0,-13.468,0.0,0.0,0.0
413,0.0,0.0,0.0,0.2631396484375,0.0,0.0,0.0,0.0,0.0,0.0,0.09,0.0,0.0,0.0,0.0,0.0,0.0,0.2715722909842435,0.0,0.0,0.0,0.0,0.0,0.0,-13.536,0.0,0.0,0.0
414,0.0,0.0,0.0,0.265025390625,0.0,0.0,0.0,0.0,0.0,0.0,0.094,0.0,0.0,0.0,0.0,0.0,0.0,0.272515136419943,0.0,0.0,0.0,0.0,0.0,0.0,-13.216,0.0,0.0,0.0
415,0.0,0.0,0.0,0.265025390625,0.0,0.0,0.0,0.0,0.0,0.0,0.094,0.0,0.0,0.0,0.0,0.0,0.0,0.27313805756121085,0.0,0.0,0.0,0.0,0.0,0.0,-13.216,0.0,0.0,0.0
416,0.0,0.0,0.0,0.265748046875,0.0,0.0,0.0,0.0,0.0,0.0,0.079,0.0,0.0,0.0,0.0,0.0,0.0,0.27393250042541606,0.0,0.0,0.0,0.0,0.0,0.0,-13.424,0.0,0.0,0.0
417,0.0,0.0,0.0,0.2664697265625,0.0,0.0,0.0,0.0,0.0,0.0,0.072,0.0,0.0,0.0,0.0,0.0,0.0,0.2747267116956058,0.0,0.0,0.0,0.0,0.0,0.0,-13.376,0.0,0.0,0.0
418,0.0,0.0,0.0,0.2672001953125,0.0,0.0,0.0,0.0,0.0,0.0,0.075,0.0,0.0,0.0,0.0,0.0,0.0,0.27548251951398584,0.0,0.0,0.0,0.0,0.0,0.0,-13.216,0.0,0.0,0.0
419,0.0,0.0,0.0,0.2676337890625,0.0,0.0,0.0,0.0,0.0,0.0,0.06,0.0,0.0,0.0,0.0,0.0,0.0,0.2762411117890448,0.0,0.0,0.0,0.0,0.0,0.0,-13.012,0.0,0.0,0.0
420,0.0,0.0,0.0,0.26835546875,0.0,0.0,0.0,0.0,0.0,0.0,0.056,0.0,0.0,0.0,0.0,0.0,0.0,0.2770001880336729,0.0,0.0,0.0,0.0,0.0,0.0,-12.484,0.0,0.0,0.0
421,0.0,0.0,0.0,0.2692216796875,0.0,0.0,0.0,0.0,0.0,0.0,0.088,0.0,0.0,0.0,0.0,0.0,0.0,0.2777736436733632,0.0,0.0,0.0,0.0,0.0,0.0,-13.056,0.0,0.0,0.0
422,0.0,0.0,0.0,0.269798828125,0.0,0.0,0.0,0.0,0.0,0.0,0.069,0.0,0.0,0.0,0.0,0.0,0.0,0.2784894403765311,0.0,0.0,0.0,0.0,0.0,0.0,-12.736,0.0,0.0,0.0
423,0.0,0.0,0.0,0.2706748046875,0.0,0.0,0.0,0.0,0.0,0.0,0.075,0.0,0.0,0.0,0.0,0.0,0.0,0.27916112526740444,0.0,0.0,0.0,0.0,0.0,0.0,-13.104,0.0,0.0,0.0
424,0.0,0.0,0.0,0.271396484375,0.0,0.0,0.0,0.0,0.0,0.0,0.074,0.0,0.0,0.0,0.0,0.0,0.0,0.27985826441610856,0.0,0.0,0.0,0.0,0.0,0.0,-12.692,0.0,0.0,0.0
425,0.0,0.0,0.0,0.2722626953125,0.0,0.0,0.0,0.0,0.0,0.0,0.076,0.0,0.0,0.0,0.0,0.0,0.0,0.2805436552733284,0.0,0.0,0.0,0.0,0.0,0.0,-12.624,0.0,0.0,0.0
426,0.0,0.0,0.0,0.2726953125,0.0,0.0,0.0,0.0,0.0,0.0,0.073,0.0,0.0,0.0,0.0,0.0,0.0,0.2812210801865422,0.0,0.0,0.0,0.0,0.0,0.0,-12.828,0.0,0.0,0.0
427,0.0,0.0,0.0,0.2735712890625,0.0,0.0,0.0,0.0,0.0,0.0,0.059,0.0,0.0,0.0,0.0,0.0,0.0,0.2818919657473845,0.0,0.0,0.0,0.0,0.0,0.0,-12.668,0.0,0.0,0.0
428,0.0,0.0,0.0,0.2744462890625,0.0,0.0,0.0,0.0,0.0,0.0,0.09,0.0,0.0,0.0,0.0,0.0,0.0,0.2825415467162011,0.0,0.0,0.0,0.0,0.0,0.0,-13.332,0.0,0.0,0.0
429,0.0,0.0,0.0,0.2750234375,0.0,0.0,0.0,0.0,0.0,0.0,0.066,0.0,0.0,0.0,0.0,0.0,0.0,0.2831847127116842,0.0,0.0,0.0,0.0,0.0,0.0,-12.964,0.0,0.0,0.0
430,0.0,0.0,0.0,0.2758896484375,0.0,0.0,0.0,0.0,0.0,0.0,0.077,0.0,0.0,0.0,0.0,0.0,0.0,0.2838146598953209,0.0,0.0,0.0,0.0,0.0,0.0,-13.24,0.0,0.0,0.0
431,0.0,0.0,0.0,0.276765625,0.0,0.0,0.0,0.0,0.0,0.0,0.092,0.0,0.0,0.0,0.0,0.0,0.0,0.2844325864505637,0.0,0.0,0.0,0.0,0.0,0.0,-13.356,0.0,0.0,0.0
432,0.0,0.0,0.0,0.2776318359375,0.0,0.0,0.0,0.0,0.0,0.0,0.086,0.0,0.0,0.0,0.0,0.0,0.0,0.285042658317451,0.0,0.0,0.0,0.0,0.0,0.0,-13.696,0.0,0.0,0.0
433,0.0,0.0,0.0,0.278353515625,0.0,0.0,0.0,0.0,0.0,0.0,0.081,0.0,0.0,0.0,0.0,0.0,0.0,0.2856566931311216,0.0,0.0,0.0,0.0,0.0,0.0,-13.744,0.0,0.0,0.0
434,0.0,0.0,0.0,0.2792197265625,0.0,0.0,0.0,0.0,0.0,0.0,0.077,0.0,0.0,0.0,0.0,0.0,0.0,0.2862205682122251,0.0,0.0,0.0,0.0,0.0,0.0,-13.924,0.0,0.0,0.0
435,0.0,0.0,0.0,0.2798056640625,0.0,0.0,0.0,0.0,0.0,0.0,0.07,0.0,0.0,0.0,0.0,0.0,0.0,0.2867948728138932,0.0,0.0,0.0,0.0,0.0,0.0,-13.764,0.0,0.0,0.0
436,0.0,0.0,0.0,0.2805283203125,0.0,0.0,0.0,0.0,0.0,0.0,0.066,0.0,0.0,0.0,0.0,0.0,0.0,0.28735122497599996,0.0,0.0,0.0,0.0,0.0,0.0,-13.948,0.0,0.0,0.0
437,0.0,0.0,0.0,0.28110546875,0.0,0.0,0.0,0.0,0.0,0.0,0.064,0.0,0.0,0.0,0.0,0.0,0.0,0.28790437566930255,0.0,0.0,0.0,0.0,0.0,0.0,-14.084,0.0,0.0,0.0
438,0.0,0.0,0.0,0.2818271484375,0.0,0.0,0.0,0.0,0.0,0.0,0.068,0.0,0.0,0.0,0.0,0.0,0.0,0.28843664738415015,0.0,0.0,0.0,0.0,0.0,0.0,-14.336,0.0,0.0,0.0
439,0.0,0.0,0.0,0.2824052734375,0.0,0.0,0.0,0.0,0.0,0.0,0.065,0.0,0.0,0.0,0.0,0.0,0.0,0.2889617461972088,0.0,0.0,0.0,0.0,0.0,0.0,-14.384,0.0,0.0,0.0
440,0.0,0.0,0.0,0.2831357421875,0.0,0.0,0.0,0.0,0.0,0.0,0.061,0.0,0.0,0.0,0.0,0.0,0.0,0.28949166742000615,0.0,0.0,0.0,0.0,0.0,0.0,-14.316,0.0,0.0,0.0
441,0.0,0.0,0.0,0.283712890625,0.0,0.0,0.0,0.0,0.0,0.0,0.061,0.0,0.0,0.0,0.0,0.0,0.0,0.2899754941386312,0.0,0.0,0.0,0.0,0.0,0.0,-14.408,0.0,0.0,0.0
442,0.0,0.0,0.0,0.284291015625,0.0,0.0,0.0,0.0,0.0,0.0,0.056,0.0,0.0,0.0,0.0,0.0,0.0,0.2904657124918063,0.0,0.0,0.0,0.0,0.0,0.0,-14.316,0.0,0.0,0.0
443,0.0,0.0,0.0,0.2848681640625,0.0,0.0,0.0,0.0,0.0,0.0,0.063,0.0,0.0,0.0,0.0,0.0,0.0,0.2909423329512237,0.0,0.0,0.0,0.0,0.0,0.0,-14.52,0.0,0.0,0.0
444,0.0,0.0,0.0,0.2853017578125,0.0,0.0,0.0,0.0,0.0,0.0,0.055,0.0,0.0,0.0,0.0,0.0,0.0,0.2914047078802704,0.0,0.0,0.0,0.0,0.0,0.0,-14.568,0.0,0.0,0.0
445,0.0,0.0,0.0,0.2857431640625,0.0,0.0,0.0,0.0,0.0,0.0,0.046,0.0,0.0,0.0,0.0,0.0,0.0,0.29185689735539,0.0,0.0,0.0,0.0,0.0,0.0,-14.36,0.0,0.0,0.0
446,0.0,0.0,0.0,0.2861767578125,0.0,0.0,0.0,0.0,0.0,0.0,0.041,0.0,0.0,0.0,0.0,0.0,0.0,0.2922982849693681,0.0,0.0,0.0,0.0,0.0,0.0,-14.384,0.0,0.0,0.0
447,0.0,0.0,0.0,0.286609375,0.0,0.0,0.0,0.0,0.0,0.0,0.043,0.0,0.0,0.0,0.0,0.0,0.0,0.2927239769625675,0.0,0.0,0.0,0.0,0.0,0.0,-14.316,0.0,0.0,0.0
448,0.0,0.0,0.0,0.28704296875,0.0,0.0,0.0,0.0,0.0,0.0,0.046,0.0,0.0,0.0,0.0,0.0,0.0,0.2931416133813298,0.0,0.0,0.0,0.0,0.0,0.0,-14.336,0.0,0.0,0.0
449,0.0,0.0,0.0,0.2876201171875,0.0,0.0,0.0,0.0,0.0,0.0,0.044,0.0,0.0,0.0,0.0,0.0,0.0,0.2935453377992675,0.0,0.0,0.0,0.0,0.0,0.0,-14.316,0.0,0.0,0.0
450,0.0,0.0,0.0,0.2880537109375,0.0,0.0,0.0,0.0,0.0,0.0,0.048,0.0,0.0,0.0,0.0,0.0,0.0,0.2939367522138014,0.0,0.0,0.0,0.0,0.0,0.0,-14.384,0.0,0.0,0.0
451,0.0,0.0,0.0,0.288486328125,0.0,0.0,0.0,0.0,0.0,0.0,0.042,0.0,0.0,0.0,0.0,0.0,0.0,0.2943165981414202,0.0,0.0,0.0,0.0,0.0,0.0,-14.108,0.0,0.0,0.0
452,0.0,0.0,0.0,0.2889287109375,0.0,0.0,0.0,0.0,0.0,0.0,0.046,0.0,0.0,0.0,0.0,0.0,0.0,0.2946839872110299,0.0,0.0,0.0,0.0,0.0,0.0,-13.996,0.0,0.0,0.0
453,0.0,0.0,0.0,0.2893623046875,0.0,0.0,0.0,0.0,0.0,0.0,0.047,0.0,0.0,0.0,0.0,0.0,0.0,0.29504144781501085,0.0,0.0,0.0,0.0,0.0,0.0,-14.108,0.0,0.0,0.0
454,0.0,0.0,0.0,0.289939453125,0.0,0.0,0.0,0.0,0.0,0.0,0.046,0.0,0.0,0.0,0.0,0.0,0.0,0.2953828882097375,0.0,0.0,0.0,0.0,0.0,0.0,-13.924,0.0,0.0,0.0
455,0.0,0.0,0.0,0.290228515625,0.0,0.0,0.0,0.0,0.0,0.0,0.048,0.0,0.0,0.0,0.0,0.0,0.0,0.2957154321610453,0.0,0.0,0.0,0.0,0.0,0.0,-14.132,0.0,0.0,0.0
456,0.0,0.0,0.0,0.2906611328125,0.0,0.0,0.0,0.0,0.0,0.0,0.034,0.0,0.0,0.0,0.0,0.0,0.0,0.2960341891371482,0.0,0.0,0.0,0.0,0.0,0.0,-14.2,0.0,0.0,0.0
457,0.0,0.0,0.0,0.2909501953125,0.0,0.0,0.0,0.0,0.0,0.0,0.036,0.0,0.0,0.0,0.0,0.0,0.0,0.29634070496172965,0.0,0.0,0.0,0.0,0.0,0.0,-14.176,0.0,0.0,0.0
458,0.0,0.0,0.0,0.29123828125,0.0,0.0,0.0,0.0,0.0,0.0,0.034,0.0,0.0,0.0,0.0,0.0,0.0,0.2966336756014252,0.0,0.0,0.0,0.0,0.0,0.0,-14.108,0.0,0.0,0.0
459,0.0,0.0,0.0,0.29152734375,0.0,0.0,0.0,0.0,0.0,0.0,0.027,0.0,0.0,0.0,0.0,0.0,0.0,0.29691531881047967,0.0,0.0,0.0,0.0,0.0,0.0,-14.132,0.0,0.0,0.0
460,0.0,0.0,0.0,0.2919697265625,0.0,0.0,0.0,0.0,0.0,0.0,0.034,0.0,0.0,0.0,0.0,0.0,0.0,0.2971848463974463,0.0,0.0,0.0,0.0,0.0,0.0,-14.292,0.0,0.0,0.0
461,0.0,0.0,0.0,0.2922587890625,0.0,0.0,0.0,0.0,0.0,0.0,0.03,0.0,0.0,0.0,0.0,0.0,0.0,0.2974430685116216,0.0,0.0,0.0,0.0,0.0,0.0,-14.268,0.0,0.0,0.0
462,0.0,0.0,0.0,0.292546875,0.0,0.0,0.0,0.0,0.0,0.0,0.031,0.0,0.0,0.0,0.0,0.0,0.0,0.2976880616062547,0.0,0.0,0.0,0.0,0.0,0.0,-14.316,0.0,0.0,0.0
463,0.0,0.0,0.0,0.2928359375,0.0,0.0,0.0,0.0,0.0,0.0,0.032,0.0,0.0,0.0,0.0,0.0,0.0,0.2979251832291839,0.0,0.0,0.0,0.0,0.0,0.0,-14.2,0.0,0.0,0.0
464,0.0,0.0,0.0,0.2931337890625,0.0,0.0,0.0,0.0,0.0,0.0,0.027,0.0,0.0,0.0,0.0,0.0,0.0,0.29814245032772996,0.0,0.0,0.0,0.0,0.0,0.0,-14.336,0.0,0.0,0.0
465,0.0,0.0,0.0,0.2932783203125,0.0,0.0,0.0,0.0,0.0,0.0,0.023,0.0,0.0,0.0,0.0,0.0,0.0,0.298350047027724,0.0,0.0,0.0,0.0,0.0,0.0,-14.108,0.0,0.0,0.0
466,0.0,0.0,0.0,0.29356640625,0.0,0.0,0.0,0.0,0.0,0.0,0.027,0.0,0.0,0.0,0.0,0.0,0.0,0.29854590701638767,0.0,0.0,0.0,0.0,0.0,0.0,-14.248,0.0,0.0,0.0
467,0.0,0.0,0.0,0.2937109375,0.0,0.0,0.0,0.0,0.0,0.0,0.022,0.0,0.0,0.0,0.0,0.0,0.0,0.2987295849981281,0.0,0.0,0.0,0.0,0.0,0.0,-14.224,0.0,0.0,0.0
468,0.0,0.0,0.0,0.29385546875,0.0,0.0,0.0,0.0,0.0,0.0,0.009,0.0,0.0,0.0,0.0,0.0,0.0,0.2989006936952019,0.0,0.0,0.0,0.0,0.0,0.0,-14.016,0.0,0.0,0.0
469,0.0,0.0,0.0,0.294,0.0,0.0,0.0,0.0,0.0,0.0,0.018,0.0,0.0,0.0,0.0,0.0,0.0,0.29905943394286894,0.0,0.0,0.0,0.0,0.0,0.0,-14.132,0.0,0.0,0.0
470,0.0,0.0,0.0,0.29414453125,0.0,0.0,0.0,0.0,0.0,0.0,0.012,0.0,0.0,0.0,0.0,0.0,0.0,0.2992062148459495,0.0,0.0,0.0,0.0,0.0,0.0,-13.856,0.0,0.0,0.0
471,0.0,0.0,0.0,0.2942890625,0.0,0.0,0.0,0.0,0.0,0.0,0.014,0.0,0.0,0.0,0.0,0.0,0.0,0.2993400937293738,0.0,0.0,0.0,0.0,0.0,0.0,-13.764,0.0,0.0,0.0
472,0.0,0.0,0.0,0.2944326171875,0.0,0.0,0.0,0.0,0.0,0.0,0.014,0.0,0.0,0.0,0.0,0.0,0.0,0.299461835472582,0.0,0.0,0.0,0.0,0.0,0.0,-13.856,0.0,0.0,0.0
473,0.0,0.0,0.0,0.2944326171875,0.0,0.0,0.0,0.0,0.0,0.0,0.009,0.0,0.0,0.0,0.0,0.0,0.0,0.299571916416586,0.0,0.0,0.0,0.0,0.0,0.0,-13.836,0.0,0.0,0.0
474,0.0,0.0,0.0,0.2945771484375,0.0,0.0,0.0,0.0,0.0,0.0,0.01,0.0,0.0,0.0,0.0,0.0,0.0,0.2996678826129351,0.0,0.0,0.0,0.0,0.0,0.0,-13.56,0.0,0.0,0.0
475,0.0,0.0,0.0,0.2947216796875,0.0,0.0,0.0,0.0,0.0,0.0,0.013,0.0,0.0,0.0,0.0,0.0,0.0,0.29975219434347944,0.0,0.0,0.0,0.0,0.0,0.0,-13.584,0.0,0.0,0.0
476,0.0,0.0,0.0,0.2947216796875,0.0,0.0,0.0,0.0,0.0,0.0,0.004,0.0,0.0,0.0,0.0,0.0,0.0,0.2998245821730912,0.0,0.0,0.0,0.0,0.0,0.0,-13.468,0.0,0.0,0.0
477,0.0,0.0,0.0,0.2948662109375,0.0,0.0,0.0,0.0,0.0,0.0,0.01,0.0,0.0,0.0,0.0,0.0,0.0,0.2998843544013924,0.0,0.0,0.0,0.0,0.0,0.0,-13.4,0.0,0.0,0.0
478,0.0,0.0,0.0,0.29501953125,0.0,0.0,0.0,0.0,0.0,0.0,0.015,0.0,0.0,0.0,0.0,0.0,0.0,0.2999319205502097,0.0,0.0,0.0,0.0,0.0,0.0,-13.652,0.0,0.0,0.0
479,0.0,0.0,0.0,0.29501953125,0.0,0.0,0.0,0.0,0.0,0.0,0.003,0.0,0.0,0.0,0.0,0.0,0.0,0.29996670904379014,0.0,0.0,0.0,0.0,0.0,0.0,-13.536,0.0,0.0,0.0
480,0.0,0.0,0.0,0.29501953125,0.0,0.0,0.0,0.0,0.0,0.0,-0.001,0.0,0.0,0.0,0.0,0.0,0.0,0.2999893745821378,0.0,0.0,0.0,0.0,0.0,0.0,-13.536,0.0,0.0,0.0
481,0.0,0.0,0.0,0.2951640625,0.0,0.0,0.0,0.0,0.0,0.0,0.009,0.0,0.0,0.0,0.0,0.0,0.0,0.2999993642895997,0.0,0.0,0.0,0.0,0.0,0.0,-13.444,0.0,0.0,0.0
482,0.0,0.0,0.0,0.29530859375,0.0,0.0,0.0,0.0,0.0,0.0,0.013,0.0,0.0,0.0,0.0,0.0,0.0,0.29999705927895254,0.0,0.0,0.0,0.0,0.0,0.0,-13.536,0.0,0.0,0.0
483,0.0,0.0,0.0,0.295453125,0.0,0.0,0.0,0.0,0.0,0.0,0.013,0.0,0.0,0.0,0.0,0.0,0.0,0.2999823815115388,0.0,0.0,0.0,0.0,0.0,0.0,-13.628,0.0,0.0,0.0
484,0.0,0.0,0.0,0.295453125,0.0,0.0,0.0,0.0,0.0,0.0,0.01,0.0,0.0,0.0,0.0,0.0,0.0,0.29995534216401953,0.0,0.0,0.0,0.0,0.0,0.0,-13.744,0.0,0.0,0.0
485,0.0,0.0,0.0,0.295453125,0.0,0.0,0.0,0.0,0.0,0.0,-0.001,0.0,0.0,0.0,0.0,0.0,0.0,0.29991580558945724,0.0,0.0,0.0,0.0,0.0,0.0,-13.696,0.0,0.0,0.0
486,0.0,0.0,0.0,0.295453125,0.0,0.0,0.0,0.0,0.0,0.0,-0.001,0.0,0.0,0.0,0.0,0.0,0.0,0.2998642457404194,0.0,0.0,0.0,0.0,0.0,0.0,-13.696,0.0,0.0,0.0
487,0.0,0.0,0.0,0.295453125,0.0,0.0,0.0,0.0,0.0,0.0,-0.001,0.0,0.0,0.0,0.0,0.0,0.0,0.2997994378958551,0.0,0.0,0.0,0.0,0.0,0.0,-13.764,0.0,0.0,0.0
488,0.0,0.0,0.0,0.295453125,0.0,0.0,0.0,0.0,0.0,0.0,-0.001,0.0,0.0,0.0,0.0,0.0,0.0,0.29972330748847337,0.0,0.0,0.0,0.0,0.0,0.0,-13.788,0.0,0.0,0.0
489,0.0,0.0,0.0,0.295453125,0.0,0.0,0.0,0.0,0.0,0.0,-0.001,0.0,0.0,0.0,0.0,0.0,0.0,0.29963379912650895,0.0,0.0,0.0,0.0,0.0,0.0,-13.812,0.0,0.0,0.0
490,0.0,0.0,0.0,0.295453125,0.0,0.0,0.0,0.0,0.0,0.0,0.006,0.0,0.0,0.0,0.0,0.0,0.0,0.299514994462556,0.0,0.0,0.0,0.0,0.0,0.0,-13.88,0.0,0.0,0.0
491,0.0,0.0,0.0,0.295453125,0.0,0.0,0.0,0.0,0.0,0.0,0.006,0.0,0.0,0.0,0.0,0.0,0.0,0.29941825161090213,0.0,0.0,0.0,0.0,0.0,0.0,-13.88,0.0,0.0,0.0
492,0.0,0.0,0.0,0.295453125,0.0,0.0,0.0,0.0,0.0,0.0,-0.011,0.0,0.0,0.0,0.0,0.0,0.0,0.29929250831011533,0.0,0.0,0.0,0.0,0.0,0.0,-13.812,0.0,0.0,0.0
493,0.0,0.0,0.0,0.295453125,0.0,0.0,0.0,0.0,0.0,0.0,-0.001,0.0,0.0,0.0,0.0,0.0,0.0,0.29915335891193284,0.0,0.0,0.0,0.0,0.0,0.0,-13.696,0.0,0.0,0.0
494,0.0,0.0,0.0,0.295453125,0.0,0.0,0.0,0.0,0.0,0.0,-0.001,0.0,0.0,0.0,0.0,0.0,0.0,0.2990039476261986,0.0,0.0,0.0,0.0,0.0,0.0,-13.812,0.0,0.0,0.0
495,0.0,0.0,0.0,0.295453125,0.0,0.0,0.0,0.0,0.0,0.0,-0.001,0.0,0.0,0.0,0.0,0.0,0.0,0.2988398269118806,0.0,0.0,0.0,0.0,0.0,0.0,-13.604,0.0,0.0,0.0
496,0.0,0.0,0.0,0.295453125,0.0,0.0,0.0,0.0,0.0,0.0,-0.001,0.0,0.0,0.0,0.0,0.0,0.0,0.2986645702965413,0.0,0.0,0.0,0.0,0.0,0.0,-13.696,0.0,0.0,0.0
497,0.0,0.0,0.0,0.295453125,0.0,0.0,0.0,0.0,0.0,0.0,-0.001,0.0,0.0,0.0,0.0,0.0,0.0,0.2984770803801396,0.0,0.0,0.0,0.0,0.0,0.0,-13.628,0.0,0.0,0.0
498,0.0,0.0,0.0,0.29530859375,0.0,0.0,0.0,0.0,0.0,0.0,-0.011,0.0,0.0,0.0,0.0,0.0,0.0,0.29827547140721034,0.0,0.0,0.0,0.0,0.0,0.0,-13.492,0.0,0.0,0.0
499,0.0,0.0,0.0,0.29530859375,0.0,0.0,0.0,0.0,0.0,0.0,-0.005,0.0,0.0,0.0,0.0,0.0,0.0,0.2980626664803813,0.0,0.0,0.0,0.0,0.0,0.0,-13.56,0.0,0.0,0.0
500,0.0,0.0,0.0,0.29530859375,0.0,0.0,0.0,0.0,0.0,0.0,-0.001,0.0,0.0,0.0,0.0,0.0,0.0,0.2978065305028407,0.0,0.0,0.0,0.0,0.0,0.0,-13.492,0.0,0.0,0.0
501,0.0,0.0,0.0,0.29530859375,0.0,0.0,0.0,0.0,0.0,0.0,-0.001,0.0,0.0,0.0,0.0,0.0,0.0,0.29759755245766856,0.0,0.0,0.0,0.0,0.0,0.0,-13.492,0.0,0.0,0.0
502,0.0,0.0,0.0,0.29530859375,0.0,0.0,0.0,0.0,0.0,0.0,-0.001,0.0,0.0,0.0,0.0,0.0,0.0,0.2973524255430676,0.0,0.0,0.0,0.0,0.0,0.0,-13.444,0.0,0.0,0.0
503,0.0,0.0,0.0,0.29530859375,0.0,0.0,0.0,0.0,0.0,0.0,-0.001,0.0,0.0,0.0,0.0,0.0,0.0,0.29708912536137466,0.0,0.0,0.0,0.0,0.0,0.0,-13.516,0.0,0.0,0.0
504,0.0,0.0,0.0,0.29530859375,0.0,0.0,0.0,0.0,0.0,0.0,-0.001,0.0,0.0,0.0,0.0,0.0,0.0,0.2968166907948759,0.0,0.0,0.0,0.0,0.0,0.0,-13.492,0.0,0.0,0.0
505,0.0,0.0,0.0,0.29530859375,0.0,0.0,0.0,0.0,0.0,0.0,-0.001,0.0,0.0,0.0,0.0,0.0,0.0,0.2965217781945479,0.0,0.0,0.0,0.0,0.0,0.0,-13.492,0.0,0.0,0.0
506,0.0,0.0,0.0,0.295453125,0.0,0.0,0.0,0.0,0.0,0.0,0.01,0.0,0.0,0.0,0.0,0.0,0.0,0.2962307598623511,0.0,0.0,0.0,0.0,0.0,0.0,-13.56,0.0,0.0,0.0
507,0.0,0.0,0.0,0.295453125,0.0,0.0,0.0,0.0,0.0,0.0,0.004,0.0,0.0,0.0,0.0,0.0,0.0,0.29591896368191795,0.0,0.0,0.0,0.0,0.0,0.0,-13.56,0.0,0.0,0.0
508,0.0,0.0,0.0,0.295453125,0.0,0.0,0.0,0.0,0.0,0.0,-0.001,0.0,0.0,0.0,0.0,0.0,0.0,0.29559823452251355,0.0,0.0,0.0,0.0,0.0,0.0,-13.604,0.0,0.0,0.0
509,0.0,0.0,0.0,0.295453125,0.0,0.0,0.0,0.0,0.0,0.0,-0.001,0.0,0.0,0.0,0.0,0.0,0.0,0.29526279794048454,0.0,0.0,0.0,0.0,0.0,0.0,-13.584,0.0,0.0,0.0
510,0.0,0.0,0.0,0.295453125,0.0,0.0,0.0,0.0,0.0,0.0,-0.001,0.0,0.0,0.0,0.0,0.0,0.0,0.29491055108637126,0.0,0.0,0.0,0.0,0.0,0.0,-13.788,0.0,0.0,0.0
511,0.0,0.0,0.0,0.295453125,0.0,0.0,0.0,0.0,0.0,0.0,-0.001,0.0,0.0,0.0,0.0,0.0,0.0,0.29455507764313527,0.0,0.0,0.0,0.0,0.0,0.0,-13.856,0.0,0.0,0.0
512,0.0,0.0,0.0,0.295453125,0.0,0.0,0.0,0.0,0.0,0.0,-0.001,0.0,0.0,0.0,0.0,0.0,0.0,0.29418103320635375,0.0,0.0,0.0,0.0,0.0,0.0,-13.788,0.0,0.0,0.0
513,0.0,0.0,0.0,0.295453125,0.0,0.0,0.0,0.0,0.0,0.0,-0.001,0.0,0.0,0.0,0.0,0.0,0.0,0.2937938338584628,0.0,0.0,0.0,0.0,0.0,0.0,-13.764,0.0,0.0,0.0
514,0.0,0.0,0.0,0.29530859375,0.0,0.0,0.0,0.0,0.0,0.0,-0.007,0.0,0.0,0.0,0.0,0.0,0.0,0.2934022996008634,0.0,0.0,0.0,0.0,0.0,0.0,-14.064,0.0,0.0,0.0
515,0.0,0.0,0.0,0.2948662109375,0.0,0.0,0.0,0.0,0.0,0.0,-0.029,0.0,0.0,0.0,0.0,0.0,0.0,0.29299288101072274,0.0,0.0,0.0,0.0,0.0,0.0,-14.588,0.0,0.0,0.0
516,0.0,0.0,0.0,0.2942890625,0.0,0.0,0.0,0.0,0.0,0.0,-0.058,0.0,0.0,0.0,0.0,0.0,0.0,0.29257405463701386,0.0,0.0,0.0,0.0,0.0,0.0,-14.428,0.0,0.0,0.0
517,0.0,0.0,0.0,0.29385546875,0.0,0.0,0.0,0.0,0.0,0.0,-0.047,0.0,0.0,0.0,0.0,0.0,0.0,0.29214030087982457,0.0,0.0,0.0,0.0,0.0,0.0,-14.292,0.0,0.0,0.0
518,0.0,0.0,0.0,0.2934228515625,0.0,0.0,0.0,0.0,0.0,0.0,-0.041,0.0,0.0,0.0,0.0,0.0,0.0,0.2916933187831854,0.0,0.0,0.0,0.0,0.0,0.0,-14.064,0.0,0.0,0.0
519,0.0,0.0,0.0,0.29298046875,0.0,0.0,0.0,0.0,0.0,0.0,-0.043,0.0,0.0,0.0,0.0,0.0,0.0,0.29123803789541663,0.0,0.0,0.0,0.0,0.0,0.0,-14.36,0.0,0.0,0.0
520,0.0,0.0,0.0,0.29269140625,0.0,0.0,0.0,0.0,0.0,0.0,-0.04,0.0,0.0,0.0,0.0,0.0,0.0,0.2907663355348803,0.0,0.0,0.0,0.0,0.0,0.0,-14.568,0.0,0.0,0.0
521,0.0,0.0,0.0,0.2922587890625,0.0,0.0,0.0,0.0,0.0,0.0,-0.04,0.0,0.0,0.0,0.0,0.0,0.0,0.2902837767784278,0.0,0.0,0.0,0.0,0.0,0.0,-14.568,0.0,0.0,0.0
522,0.0,0.0,0.0,0.291671875,0.0,0.0,0.0,0.0,0.0,0.0,-0.046,0.0,0.0,0.0,0.0,0.0,0.0,0.28978274617724836,0.0,0.0,0.0,0.0,0.0,0.0,-14.316,0.0,0.0,0.0
523,0.0,0.0,0.0,0.29123828125,0.0,0.0,0.0,0.0,0.0,0.0,-0.052,0.0,0.0,0.0,0.0,0.0,0.0,0.28925830979265094,0.0,0.0,0.0,0.0,0.0,0.0,-14.04,0.0,0.0,0.0
524,0.0,0.0,0.0,0.2908056640625,0.0,0.0,0.0,0.0,0.0,0.0,-0.045,0.0,0.0,0.0,0.0,0.0,0.0,0.2887777068013174,0.0,0.0,0.0,0.0,0.0,0.0,-13.924,0.0,0.0,0.0
525,0.0,0.0,0.0,0.2905166015625,0.0,0.0,0.0,0.0,0.0,0.0,-0.037,0.0,0.0,0.0,0.0,0.0,0.0,0.28824806533252695,0.0,0.0,0.0,0.0,0.0,0.0,-14.176,0.0,0.0,0.0
526,0.0,0.0,0.0,0.289939453125,0.0,0.0,0.0,0.0,0.0,0.0,-0.042,0.0,0.0,0.0,0.0,0.0,0.0,0.28770995302594204,0.0,0.0,0.0,0.0,0.0,0.0,-14.04,0.0,0.0,0.0
527,0.0,0.0,0.0,0.289505859375,0.0,0.0,0.0,0.0,0.0,0.0,-0.048,0.0,0.0,0.0,0.0,0.0,0.0,0.28715721737292493,0.0,0.0,0.0,0.0,0.0,0.0,-14.064,0.0,0.0,0.0
528,0.0,0.0,0.0,0.2889287109375,0.0,0.0,0.0,0.0,0.0,0.0,-0.049,0.0,0.0,0.0,0.0,0.0,0.0,0.28659366962963456,0.0,0.0,0.0,0.0,0.0,0.0,-14.064,0.0,0.0,0.0
529,0.0,0.0,0.0,0.2881982421875,0.0,0.0,0.0,0.0,0.0,0.0,-0.064,0.0,0.0,0.0,0.0,0.0,0.0,0.2860182483506923,0.0,0.0,0.0,0.0,0.0,0.0,-14.176,0.0,0.0,0.0
530,0.0,0.0,0.0,0.2874755859375,0.0,0.0,0.0,0.0,0.0,0.0,-0.077,0.0,0.0,0.0,0.0,0.0,0.0,0.28542764695583667,0.0,0.0,0.0,0.0,0.0,0.0,-14.408,0.0,0.0,0.0
531,0.0,0.0,0.0,0.2868984375,0.0,0.0,0.0,0.0,0.0,0.0,-0.072,0.0,0.0,0.0,0.0,0.0,0.0,0.2848289506559739,0.0,0.0,0.0,0.0,0.0,0.0,-14.248,0.0,0.0,0.0
532,0.0,0.0,0.0,0.2863212890625,0.0,0.0,0.0,0.0,0.0,0.0,-0.058,0.0,0.0,0.0,0.0,0.0,0.0,0.2842190801570385,0.0,0.0,0.0,0.0,0.0,0.0,-14.224,0.0,0.0,0.0
533,0.0,0.0,0.0,0.2858876953125,0.0,0.0,0.0,0.0,0.0,0.0,-0.053,0.0,0.0,0.0,0.0,0.0,0.0,0.283584127377243,0.0,0.0,0.0,0.0,0.0,0.0,-14.156,0.0,0.0,0.0
534,0.0,0.0,0.0,0.2853017578125,0.0,0.0,0.0,0.0,0.0,0.0,-0.054,0.0,0.0,0.0,0.0,0.0,0.0,0.2829589258956008,0.0,0.0,0.0,0.0,0.0,0.0,-14.496,0.0,0.0,0.0
535,0.0,0.0,0.0,0.2845791015625,0.0,0.0,0.0,0.0,0.0,0.0,-0.064,0.0,0.0,0.0,0.0,0.0,0.0,0.28231417560158356,0.0,0.0,0.0,0.0,0.0,0.0,-14.452,0.0,0.0,0.0
536,0.0,0.0,0.0,0.284146484375,0.0,0.0,0.0,0.0,0.0,0.0,-0.058,0.0,0.0,0.0,0.0,0.0,0.0,0.2816547520349549,0.0,0.0,0.0,0.0,0.0,0.0,-14.36,0.0,0.0,0.0
537,0.0,0.0,0.0,0.2834248046875,0.0,0.0,0.0,0.0,0.0,0.0,-0.054,0.0,0.0,0.0,0.0,0.0,0.0,0.280980488309841,0.0,0.0,0.0,0.0,0.0,0.0,-14.408,0.0,0.0,0.0
538,0.0,0.0,0.0,0.2827021484375,0.0,0.0,0.0,0.0,0.0,0.0,-0.077,0.0,0.0,0.0,0.0,0.0,0.0,0.2803031152068022,0.0,0.0,0.0,0.0,0.0,0.0,-14.384,0.0,0.0,0.0
539,0.0,0.0,0.0,0.2822607421875,0.0,0.0,0.0,0.0,0.0,0.0,-0.061,0.0,0.0,0.0,0.0,0.0,0.0,0.2796091334759335,0.0,0.0,0.0,0.0,0.0,0.0,-14.336,0.0,0.0,0.0
540,0.0,0.0,0.0,0.2815380859375,0.0,0.0,0.0,0.0,0.0,0.0,-0.049,0.0,0.0,0.0,0.0,0.0,0.0,0.27890746257738097,0.0,0.0,0.0,0.0,0.0,0.0,-14.68,0.0,0.0,0.0
541,0.0,0.0,0.0,0.28081640625,0.0,0.0,0.0,0.0,0.0,0.0,-0.078,0.0,0.0,0.0,0.0,0.0,0.0,0.27819024811453585,0.0,0.0,0.0,0.0,0.0,0.0,-14.52,0.0,0.0,0.0
542,0.0,0.0,0.0,0.2799501953125,0.0,0.0,0.0,0.0,0.0,0.0,-0.082,0.0,0.0,0.0,0.0,0.0,0.0,0.27746253410837257,0.0,0.0,0.0,0.0,0.0,0.0,-14.384,0.0,0.0,0.0
543,0.0,0.0,0.0,0.2793642578125,0.0,0.0,0.0,0.0,0.0,0.0,-0.071,0.0,0.0,0.0,0.0,0.0,0.0,0.2767176144579436,0.0,0.0,0.0,0.0,0.0,0.0,-14.428,0.0,0.0,0.0
544,0.0,0.0,0.0,0.278498046875,0.0,0.0,0.0,0.0,0.0,0.0,-0.079,0.0,0.0,0.0,0.0,0.0,0.0,0.2759653183267758,0.0,0.0,0.0,0.0,0.0,0.0,-14.248,0.0,0.0,0.0
545,0.0,0.0,0.0,0.277775390625,0.0,0.0,0.0,0.0,0.0,0.0,-0.082,0.0,0.0,0.0,0.0,0.0,0.0,0.27520601578445136,0.0,0.0,0.0,0.0,0.0,0.0,-14.176,0.0,0.0,0.0
546,0.0,0.0,0.0,0.2771982421875,0.0,0.0,0.0,0.0,0.0,0.0,-0.061,0.0,0.0,0.0,0.0,0.0,0.0,0.2744224915544967,0.0,0.0,0.0,0.0,0.0,0.0,-14.408,0.0,0.0,0.0
547,0.0,0.0,0.0,0.2763232421875,0.0,0.0,0.0,0.0,0.0,0.0,-0.072,0.0,0.0,0.0,0.0,0.0,0.0,0.2736496287698912,0.0,0.0,0.0,0.0,0.0,0.0,-14.176,0.0,0.0,0.0
548,0.0,0.0,0.0,0.2756015625,0.0,0.0,0.0,0.0,0.0,0.0,-0.08,0.0,0.0,0.0,0.0,0.0,0.0,0.272853929207609,0.0,0.0,0.0,0.0,0.0,0.0,-14.292,0.0,0.0,0.0
549,0.0,0.0,0.0,0.2745908203125,0.0,0.0,0.0,0.0,0.0,0.0,-0.089,0.0,0.0,0.0,0.0,0.0,0.0,0.2720469432185221,0.0,0.0,0.0,0.0,0.0,0.0,-14.176,0.0,0.0,0.0
550,0.0,0.0,0.0,0.273724609375,0.0,0.0,0.0,0.0,0.0,0.0,-0.094,0.0,0.0,0.0,0.0,0.0,0.0,0.2712258735206048,0.0,0.0,0.0,0.0,0.0,0.0,-14.268,0.0,0.0,0.0
551,0.0,0.0,0.0,0.27255078125,0.0,0.0,0.0,0.0,0.0,0.0,-0.102,0.0,0.0,0.0,0.0,0.0,0.0,0.2703945815878413,0.0,0.0,0.0,0.0,0.0,0.0,-13.996,0.0,0.0,0.0
552,0.0,0.0,0.0,0.2719736328125,0.0,0.0,0.0,0.0,0.0,0.0,-0.088,0.0,0.0,0.0,0.0,0.0,0.0,0.26955395181670405,0.0,0.0,0.0,0.0,0.0,0.0,-13.628,0.0,0.0,0.0
553,0.0,0.0,0.0,0.270087890625,0.0,0.0,0.0,0.0,0.0,0.0,-0.094,0.0,0.0,0.0,0.0,0.0,0.0,0.26860063954878766,0.0,0.0,0.0,0.0,0.0,0.0,-14.176,0.0,0.0,0.0
554,0.0,0.0,0.0,0.270087890625,0.0,0.0,0.0,0.0,0.0,0.0,-0.094,0.0,0.0,0.0,0.0,0.0,0.0,0.2678371600628335,0.0,0.0,0.0,0.0,0.0,0.0,-14.176,0.0,0.0,0.0
555,0.0,0.0,0.0,0.2692216796875,0.0,0.0,0.0,0.0,0.0,0.0,-0.11,0.0,0.0,0.0,0.0,0.0,0.0,0.26696594343561736,0.0,0.0,0.0,0.0,0.0,0.0,-14.084,0.0,0.0,0.0
556,0.0,0.0,0.0,0.2685,0.0,0.0,0.0,0.0,0.0,0.0,-0.082,0.0,0.0,0.0,0.0,0.0,0.0,0.2660784186296876,0.0,0.0,0.0,0.0,0.0,0.0,-13.652,0.0,0.0,0.0
557,0.0,0.0,0.0,0.2674892578125,0.0,0.0,0.0,0.0,0.0,0.0,-0.078,0.0,0.0,0.0,0.0,0.0,0.0,0.265182573404051,0.0,0.0,0.0,0.0,0.0,0.0,-13.696,0.0,0.0,0.0
558,0.0,0.0,0.0,0.2664697265625,0.0,0.0,0.0,0.0,0.0,0.0,-0.112,0.0,0.0,0.0,0.0,0.0,0.0,0.26427338651670473,0.0,0.0,0.0,0.0,0.0,0.0,-13.676,0.0,0.0,0.0
559,0.0,0.0,0.0,0.265748046875,0.0,0.0,0.0,0.0,0.0,0.0,-0.087,0.0,0.0,0.0,0.0,0.0,0.0,0.2633609844266276,0.0,0.0,0.0,0.0,0.0,0.0,-14.268,0.0,0.0,0.0
560,0.0,0.0,0.0,0.2647373046875,0.0,0.0,0.0,0.0,0.0,0.0,-0.082,0.0,0.0,0.0,0.0,0.0,0.0,0.2624245774896727,0.0,0.0,0.0,0.0,0.0,0.0,-14.428,0.0,0.0,0.0
561,0.0,0.0,0.0,0.2635732421875,0.0,0.0,0.0,0.0,0.0,0.0,-0.116,0.0,0.0,0.0,0.0,0.0,0.0,0.26148641843058545,0.0,0.0,0.0,0.0,0.0,0.0,-13.604,0.0,0.0,0.0
562,0.0,0.0,0.0,0.2629951171875,0.0,0.0,0.0,0.0,0.0,0.0,-0.089,0.0,0.0,0.0,0.0,0.0,0.0,0.2605274397256561,0.0,0.0,0.0,0.0,0.0,0.0,-13.652,0.0,0.0,0.0
563,0.0,0.0,0.0,0.261984375,0.0,0.0,0.0,0.0,0.0,0.0,-0.077,0.0,0.0,0.0,0.0,0.0,0.0,0.25953479205366214,0.0,0.0,0.0,0.0,0.0,0.0,-13.836,0.0,0.0,0.0
564,0.0,0.0,0.0,0.2611181640625,0.0,0.0,0.0,0.0,0.0,0.0,-0.095,0.0,0.0,0.0,0.0,0.0,0.0,0.25860405697337907,0.0,0.0,0.0,0.0,0.0,0.0,-13.836,0.0,0.0,0.0
565,0.0,0.0,0.0,0.2602431640625,0.0,0.0,0.0,0.0,0.0,0.0,-0.083,0.0,0.0,0.0,0.0,0.0,0.0,0.25762204599735244,0.0,0.0,0.0,0.0,0.0,0.0,-14.428,0.0,0.0,0.0
566,0.0,0.0,0.0,0.259087890625,0.0,0.0,0.0,0.0,0.0,0.0,-0.103,0.0,0.0,0.0,0.0,0.0,0.0,0.2566322179223588,0.0,0.0,0.0,0.0,0.0,0.0,-13.72,0.0,0.0,0.0
567,0.0,0.0,0.0,0.2583662109375,0.0,0.0,0.0,0.0,0.0,0.0,-0.097,0.0,0.0,0.0,0.0,0.0,0.0,0.2556231500445145,0.0,0.0,0.0,0.0,0.0,0.0,-13.332,0.0,0.0,0.0
568,0.0,0.0,0.0,0.2573466796875,0.0,0.0,0.0,0.0,0.0,0.0,-0.083,0.0,0.0,0.0,0.0,0.0,0.0,0.2546086431611286,0.0,0.0,0.0,0.0,0.0,0.0,-13.812,0.0,0.0,0.0
569,0.0,0.0,0.0,0.25619140625,0.0,0.0,0.0,0.0,0.0,0.0,-0.118,0.0,0.0,0.0,0.0,0.0,0.0,0.253589687527577,0.0,0.0,0.0,0.0,0.0,0.0,-13.788,0.0,0.0,0.0
570,0.0,0.0,0.0,0.2551806640625,0.0,0.0,0.0,0.0,0.0,0.0,-0.107,0.0,0.0,0.0,0.0,0.0,0.0,0.25254610831347335,0.0,0.0,0.0,0.0,0.0,0.0,-14.248,0.0,0.0,0.0
571,0.0,0.0,0.0,0.25415234375,0.0,0.0,0.0,0.0,0.0,0.0,-0.101,0.0,0.0,0.0,0.0,0.0,0.0,0.25150552052283326,0.0,0.0,0.0,0.0,0.0,0.0,-13.836,0.0,0.0,0.0
572,0.0,0.0,0.0,0.2529970703125,0.0,0.0,0.0,0.0,0.0,0.0,-0.111,0.0,0.0,0.0,0.0,0.0,0.0,0.2504498392834052,0.0,0.0,0.0,0.0,0.0,0.0,-13.516,0.0,0.0,0.0
573,0.0,0.0,0.0,0.2519873046875,0.0,0.0,0.0,0.0,0.0,0.0,-0.104,0.0,0.0,0.0,0.0,0.0,0.0,0.2493761298458458,0.0,0.0,0.0,0.0,0.0,0.0,-13.652,0.0,0.0,0.0
574,0.0,0.0,0.0,0.2508232421875,0.0,0.0,0.0,0.0,0.0,0.0,-0.11,0.0,0.0,0.0,0.0,0.0,0.0,0.2483052993987872,0.0,0.0,0.0,0.0,0.0,0.0,-13.972,0.0,0.0,0.0
575,0.0,0.0,0.0,0.2498125,0.0,0.0,0.0,0.0,0.0,0.0,-0.109,0.0,0.0,0.0,0.0,0.0,0.0,0.24720835889598963,0.0,0.0,0.0,0.0,0.0,0.0,-13.788,0.0,0.0,0.0
576,0.0,0.0,0.0,0.2488017578125,0.0,0.0,0.0,0.0,0.0,0.0,-0.104,0.0,0.0,0.0,0.0,0.0,0.0,0.24611835269134505,0.0,0.0,0.0,0.0,0.0,0.0,-13.72,0.0,0.0,0.0
577,0.0,0.0,0.0,0.2474931640625,0.0,0.0,0.0,0.0,0.0,0.0,-0.123,0.0,0.0,0.0,0.0,0.0,0.0,0.24500128087942255,0.0,0.0,0.0,0.0,0.0,0.0,-13.264,0.0,0.0,0.0
578,0.0,0.0,0.0,0.246337890625,0.0,0.0,0.0,0.0,0.0,0.0,-0.127,0.0,0.0,0.0,0.0,0.0,0.0,0.24388738543860178,0.0,0.0,0.0,0.0,0.0,0.0,-13.264,0.0,0.0,0.0
579,0.0,0.0,0.0,0.245173828125,0.0,0.0,0.0,0.0,0.0,0.0,-0.108,0.0,0.0,0.0,0.0,0.0,0.0,0.2427623775625818,0.0,0.0,0.0,0.0,0.0,0.0,-13.788,0.0,0.0,0.0
580,0.0,0.0,0.0,0.24373046875,0.0,0.0,0.0,0.0,0.0,0.0,-0.133,0.0,0.0,0.0,0.0,0.0,0.0,0.2416274733252082,0.0,0.0,0.0,0.0,0.0,0.0,-13.788,0.0,0.0,0.0
581,0.0,0.0,0.0,0.2425751953125,0.0,0.0,0.0,0.0,0.0,0.0,-0.138,0.0,0.0,0.0,0.0,0.0,0.0,0.2404767830404876,0.0,0.0,0.0,0.0,0.0,0.0,-13.332,0.0,0.0,0.0
582,0.0,0.0,0.0,0.2415556640625,0.0,0.0,0.0,0.0,0.0,0.0,-0.104,0.0,0.0,0.0,0.0,0.0,0.0,0.23931644183243975,0.0,0.0,0.0,0.0,0.0,0.0,-13.4,0.0,0.0,0.0
583,0.0,0.0,0.0,0.2402568359375,0.0,0.0,0.0,0.0,0.0,0.0,-0.12,0.0,0.0,0.0,0.0,0.0,0.0,0.23813316593496783,0.0,0.0,0.0,0.0,0.0,0.0,-13.192,0.0,0.0,0.0
584,0.0,0.0,0.0,0.239390625,0.0,0.0,0.0,0.0,0.0,0.0,-0.111,0.0,0.0,0.0,0.0,0.0,0.0,0.23697467578605164,0.0,0.0,0.0,0.0,0.0,0.0,-13.788,0.0,0.0,0.0
585,0.0,0.0,0.0,0.23808203125,0.0,0.0,0.0,0.0,0.0,0.0,-0.103,0.0,0.0,0.0,0.0,0.0,0.0,0.23578584320710466,0.0,0.0,0.0,0.0,0.0,0.0,-14.384,0.0,0.0,0.0
586,0.0,0.0,0.0,0.2370712890625,0.0,0.0,0.0,0.0,0.0,0.0,-0.126,0.0,0.0,0.0,0.0,0.0,0.0,0.23458555376876083,0.0,0.0,0.0,0.0,0.0,0.0,-13.788,0.0,0.0,0.0
587,0.0,0.0,0.0,0.2360517578125,0.0,0.0,0.0,0.0,0.0,0.0,-0.101,0.0,0.0,0.0,0.0,0.0,0.0,0.23338219579570174,0.0,0.0,0.0,0.0,0.0,0.0,-13.904,0.0,0.0,0.0
588,0.0,0.0,0.0,0.234751953125,0.0,0.0,0.0,0.0,0.0,0.0,-0.114,0.0,0.0,0.0,0.0,0.0,0.0,0.23216328040747525,0.0,0.0,0.0,0.0,0.0,0.0,-13.88,0.0,0.0,0.0
589,0.0,0.0,0.0,0.233732421875,0.0,0.0,0.0,0.0,0.0,0.0,-0.116,0.0,0.0,0.0,0.0,0.0,0.0,0.23093643672196545,0.0,0.0,0.0,0.0,0.0,0.0,-14.248,0.0,0.0,0.0
590,0.0,0.0,0.0,0.232568359375,0.0,0.0,0.0,0.0,0.0,0.0,-0.109,0.0,0.0,0.0,0.0,0.0,0.0,0.22969731827051365,0.0,0.0,0.0,0.0,0.0,0.0,-14.864,0.0,0.0,0.0
591,0.0,0.0,0.0,0.2308359375,0.0,0.0,0.0,0.0,0.0,0.0,-0.088,0.0,0.0,0.0,0.0,0.0,0.0,0.2284587599857707,0.0,0.0,0.0,0.0,0.0,0.0,-14.156,0.0,0.0,0.0
592,0.0,0.0,0.0,0.229671875,0.0,0.0,0.0,0.0,0.0,0.0,-0.094,0.0,0.0,0.0,0.0,0.0,0.0,0.22719098211022515,0.0,0.0,0.0,0.0,0.0,0.0,-14.612,0.0,0.0,0.0
593,0.0,0.0,0.0,0.229671875,0.0,0.0,0.0,0.0,0.0,0.0,-0.094,0.0,0.0,0.0,0.0,0.0,0.0,0.2259156461259888,0.0,0.0,0.0,0.0,0.0,0.0,-14.612,0.0,0.0,0.0
594,0.0,0.0,0.0,0.2273623046875,0.0,0.0,0.0,0.0,0.0,0.0,-0.115,0.0,0.0,0.0,0.0,0.0,0.0,0.22464949232464046,0.0,0.0,0.0,0.0,0.0,0.0,-15.32,0.0,0.0,0.0
595,0.0,0.0,0.0,0.2261982421875,0.0,0.0,0.0,0.0,0.0,0.0,-0.122,0.0,0.0,0.0,0.0,0.0,0.0,0.22337517517978214,0.0,0.0,0.0,0.0,0.0,0.0,-14.476,0.0,0.0,0.0
596,0.0,0.0,0.0,0.22504296875,0.0,0.0,0.0,0.0,0.0,0.0,-0.112,0.0,0.0,0.0,0.0,0.0,0.0,0.22206905546167252,0.0,0.0,0.0,0.0,0.0,0.0,-14.292,0.0,0.0,0.0
597,0.0,0.0,0.0,0.223734375,0.0,0.0,0.0,0.0,0.0,0.0,-0.118,0.0,0.0,0.0,0.0,0.0,0.0,0.2207480766958991,0.0,0.0,0.0,0.0,0.0,0.0,-14.796,0.0,0.0,0.0
598,0.0,0.0,0.0,0.2225791015625,0.0,0.0,0.0,0.0,0.0,0.0,-0.128,0.0,0.0,0.0,0.0,0.0,0.0,0.21947423145258443,0.0,0.0,0.0,0.0,0.0,0.0,-15.32,0.0,0.0,0.0
599,0.0,0.0,0.0,0.2214248046875,0.0,0.0,0.0,0.0,0.0,0.0,-0.116,0.0,0.0,0.0,0.0,0.0,0.0,0.21815741118677542,0.0,0.0,0.0,0.0,0.0,0.0,-15.252,0.0,0.0,0.0
600,0.0,0.0,0.0,0.2201162109375,0.0,0.0,0.0,0.0,0.0,0.0,-0.124,0.0,0.0,0.0,0.0,0.0,0.0,0.21675398786640743,0.0,0.0,0.0,0.0,0.0,0.0,-14.888,0.0,0.0,0.0
601,0.0,0.0,0.0,0.21881640625,0.0,0.0,0.0,0.0,0.0,0.0,-0.131,0.0,0.0,0.0,0.0,0.0,0.0,0.21548385971225867,0.0,0.0,0.0,0.0,0.0,0.0,-14.748,0.0,0.0,0.0
602,0.0,0.0,0.0,0.2173642578125,0.0,0.0,0.0,0.0,0.0,0.0,-0.143,0.0,0.0,0.0,0.0,0.0,0.0,0.2141458415536944,0.0,0.0,0.0,0.0,0.0,0.0,-14.932,0.0,0.0,0.0
603,0.0,0.0,0.0,0.216064453125,0.0,0.0,0.0,0.0,0.0,0.0,-0.143,0.0,0.0,0.0,0.0,0.0,0.0,0.2127860178895321,0.0,0.0,0.0,0.0,0.0,0.0,-14.612,0.0,0.0,0.0
604,0.0,0.0,0.0,0.2146025390625,0.0,0.0,0.0,0.0,0.0,0.0,-0.136,0.0,0.0,0.0,0.0,0.0,0.0,0.2114213190102617,0.0,0.0,0.0,0.0,0.0,0.0,-14.772,0.0,0.0,0.0
605,0.0,0.0,0.0,0.2146025390625,0.0,0.0,0.0,0.0,0.0,0.0,-0.136,0.0,0.0,0.0,0.0,0.0,0.0,0.2100094544200226,0.0,0.0,0.0,0.0,0.0,0.0,-14.772,0.0,0.0,0.0
606,0.0,0.0,0.0,0.211859375,0.0,0.0,0.0,0.0,0.0,0.0,-0.14,0.0,0.0,0.0,0.0,0.0,0.0,0.20864729798134002,0.0,0.0,0.0,0.0,0.0,0.0,-14.016,0.0,0.0,0.0
607,0.0,0.0,0.0,0.2102626953125,0.0,0.0,0.0,0.0,0.0,0.0,-0.138,0.0,0.0,0.0,0.0,0.0,0.0,0.20728124641898904,0.0,0.0,0.0,0.0,0.0,0.0,-14.268,0.0,0.0,0.0
608,0.0,0.0,0.0,0.208818359375,0.0,0.0,0.0,0.0,0.0,0.0,-0.163,0.0,0.0,0.0,0.0,0.0,0.0,0.20587715428495326,0.0,0.0,0.0,0.0,0.0,0.0,-14.292,0.0,0.0,0.0
609,0.0,0.0,0.0,0.2070771484375,0.0,0.0,0.0,0.0,0.0,0.0,-0.151,0.0,0.0,0.0,0.0,0.0,0.0,0.20444375575301035,0.0,0.0,0.0,0.0,0.0,0.0,-14.748,0.0,0.0,0.0
610,0.0,0.0,0.0,0.2053359375,0.0,0.0,0.0,0.0,0.0,0.0,-0.181,0.0,0.0,0.0,0.0,0.0,0.0,0.202988926020897,0.0,0.0,0.0,0.0,0.0,0.0,-13.904,0.0,0.0,0.0
611,0.0,0.0,0.0,0.2038916015625,0.0,0.0,0.0,0.0,0.0,0.0,-0.168,0.0,0.0,0.0,0.0,0.0,0.0,0.2016349703709949,0.0,0.0,0.0,0.0,0.0,0.0,-13.356,0.0,0.0,0.0
612,0.0,0.0,0.0,0.2027373046875,0.0,0.0,0.0,0.0,0.0,0.0,-0.124,0.0,0.0,0.0,0.0,0.0,0.0,0.20020037306652075,0.0,0.0,0.0,0.0,0.0,0.0,-13.332,0.0,0.0,0.0
613,0.0,0.0,0.0,0.2027373046875,0.0,0.0,0.0,0.0,0.0,0.0,-0.124,0.0,0.0,0.0,0.0,0.0,0.0,0.1986590459691179,0.0,0.0,0.0,0.0,0.0,0.0,-13.332,0.0,0.0,0.0
614,0.0,0.0,0.0,0.1996962890625,0.0,0.0,0.0,0.0,0.0,0.0,-0.164,0.0,0.0,0.0,0.0,0.0,0.0,0.19731357298392013,0.0,0.0,0.0,0.0,0.0,0.0,-14.2,0.0,0.0,0.0
615,0.0,0.0,0.0,0.1983876953125,0.0,0.0,0.0,0.0,0.0,0.0,-0.143,0.0,0.0,0.0,0.0,0.0,0.0,0.19584175069546997,0.0,0.0,0.0,0.0,0.0,0.0,-14.176,0.0,0.0,0.0
616,0.0,0.0,0.0,0.1966552734375,0.0,0.0,0.0,0.0,0.0,0.0,-0.15,0.0,0.0,0.0,0.0,0.0,0.0,0.1943935074576402,0.0,0.0,0.0,0.0,0.0,0.0,-13.444,0.0,0.0,0.0
617,0.0,0.0,0.0,0.1947607421875,0.0,0.0,0.0,0.0,0.0,0.0,-0.192,0.0,0.0,0.0,0.0,0.0,0.0,0.19290226696898963,0.0,0.0,0.0,0.0,0.0,0.0,-13.584,0.0,0.0,0.0
618,0.0,0.0,0.0,0.19331640625,0.0,0.0,0.0,0.0,0.0,0.0,-0.174,0.0,0.0,0.0,0.0,0.0,0.0,0.19139942073267532,0.0,0.0,0.0,0.0,0.0,0.0,-13.604,0.0,0.0,0.0
619,0.0,0.0,0.0,0.19215234375,0.0,0.0,0.0,0.0,0.0,0.0,-0.127,0.0,0.0,0.0,0.0,0.0,0.0,0.18991712317399978,0.0,0.0,0.0,0.0,0.0,0.0,-13.788,0.0,0.0,0.0
620,0.0,0.0,0.0,0.190564453125,0.0,0.0,0.0,0.0,0.0,0.0,-0.133,0.0,0.0,0.0,0.0,0.0,0.0,0.18841520307887694,0.0,0.0,0.0,0.0,0.0,0.0,-14.336,0.0,0.0,0.0
621,0.0,0.0,0.0,0.1886787109375,0.0,0.0,0.0,0.0,0.0,0.0,-0.18,0.0,0.0,0.0,0.0,0.0,0.0,0.18694479224111624,0.0,0.0,0.0,0.0,0.0,0.0,-13.764,0.0,0.0,0.0
622,0.0,0.0,0.0,0.1875234375,0.0,0.0,0.0,0.0,0.0,0.0,-0.151,0.0,0.0,0.0,0.0,0.0,0.0,0.18539803044764322,0.0,0.0,0.0,0.0,0.0,0.0,-13.676,0.0,0.0,0.0
623,0.0,0.0,0.0,0.1856376953125,0.0,0.0,0.0,0.0,0.0,0.0,-0.144,0.0,0.0,0.0,0.0,0.0,0.0,0.1838889645252532,0.0,0.0,0.0,0.0,0.0,0.0,-14.132,0.0,0.0,0.0
624,0.0,0.0,0.0,0.183751953125,0.0,0.0,0.0,0.0,0.0,0.0,-0.204,0.0,0.0,0.0,0.0,0.0,0.0,0.18237427025565647,0.0,0.0,0.0,0.0,0.0,0.0,-13.468,0.0,0.0,0.0
625,0.0,0.0,0.0,0.1824521484375,0.0,0.0,0.0,0.0,0.0,0.0,-0.155,0.0,0.0,0.0,0.0,0.0,0.0,0.1808536696668498,0.0,0.0,0.0,0.0,0.0,0.0,-14.016,0.0,0.0,0.0
626,0.0,0.0,0.0,0.18056640625,0.0,0.0,0.0,0.0,0.0,0.0,-0.153,0.0,0.0,0.0,0.0,0.0,0.0,0.17929126356458935,0.0,0.0,0.0,0.0,0.0,0.0,-13.836,0.0,0.0,0.0
627,0.0,0.0,0.0,0.178978515625,0.0,0.0,0.0,0.0,0.0,0.0,-0.183,0.0,0.0,0.0,0.0,0.0,0.0,0.17776026445842097,0.0,0.0,0.0,0.0,0.0,0.0,-13.696,0.0,0.0,0.0
628,0.0,0.0,0.0,0.177525390625,0.0,0.0,0.0,0.0,0.0,0.0,-0.155,0.0,0.0,0.0,0.0,0.0,0.0,0.17620553601149713,0.0,0.0,0.0,0.0,0.0,0.0,-14.176,0.0,0.0,0.0
629,0.0,0.0,0.0,0.1759375,0.0,0.0,0.0,0.0,0.0,0.0,-0.146,0.0,0.0,0.0,0.0,0.0,0.0,0.1746388750143257,0.0,0.0,0.0,0.0,0.0,0.0,-14.224,0.0,0.0,0.0
630,0.0,0.0,0.0,0.1746201171875,0.0,0.0,0.0,0.0,0.0,0.0,-0.154,0.0,0.0,0.0,0.0,0.0,0.0,0.17306745586214067,0.0,0.0,0.0,0.0,0.0,0.0,-14.268,0.0,0.0,0.0
631,0.0,0.0,0.0,0.1733203125,0.0,0.0,0.0,0.0,0.0,0.0,-0.132,0.0,0.0,0.0,0.0,0.0,0.0,0.1714898681311138,0.0,0.0,0.0,0.0,0.0,0.0,-14.496,0.0,0.0,0.0
632,0.0,0.0,0.0,0.1717236328125,0.0,0.0,0.0,0.0,0.0,0.0,-0.145,0.0,0.0,0.0,0.0,0.0,0.0,0.16990679653320953,0.0,0.0,0.0,0.0,0.0,0.0,-14.384,0.0,0.0,0.0
633,0.0,0.0,0.0,0.1702802734375,0.0,0.0,0.0,0.0,0.0,0.0,-0.154,0.0,0.0,0.0,0.0,0.0,0.0,0.16825890230090698,0.0,0.0,0.0,0.0,0.0,0.0,-14.108,0.0,0.0,0.0
634,0.0,0.0,0.0,0.16898046875,0.0,0.0,0.0,0.0,0.0,0.0,-0.129,0.0,0.0,0.0,0.0,0.0,0.0,0.16671231318501675,0.0,0.0,0.0,0.0,0.0,0.0,-14.428,0.0,0.0,0.0
635,0.0,0.0,0.0,0.1672392578125,0.0,0.0,0.0,0.0,0.0,0.0,-0.152,0.0,0.0,0.0,0.0,0.0,0.0,0.16510645967321738,0.0,0.0,0.0,0.0,0.0,0.0,-14.452,0.0,0.0,0.0
636,0.0,0.0,0.0,0.165939453125,0.0,0.0,0.0,0.0,0.0,0.0,-0.16,0.0,0.0,0.0,0.0,0.0,0.0,0.1634833034794991,0.0,0.0,0.0,0.0,0.0,0.0,-14.428,0.0,0.0,0.0
637,0.0,0.0,0.0,0.164486328125,0.0,0.0,0.0,0.0,0.0,0.0,-0.14,0.0,0.0,0.0,0.0,0.0,0.0,0.16186693997704274,0.0,0.0,0.0,0.0,0.0,0.0,-14.588,0.0,0.0,0.0
638,0.0,0.0,0.0,0.16304296875,0.0,0.0,0.0,0.0,0.0,0.0,-0.146,0.0,0.0,0.0,0.0,0.0,0.0,0.16023657291265886,0.0,0.0,0.0,0.0,0.0,0.0,-14.476,0.0,0.0,0.0
639,0.0,0.0,0.0,0.16187890625,0.0,0.0,0.0,0.0,0.0,0.0,-0.128,0.0,0.0,0.0,0.0,0.0,0.0,0.1586056464556504,0.0,0.0,0.0,0.0,0.0,0.0,-14.888,0.0,0.0,0.0
640,0.0,0.0,0.0,0.160291015625,0.0,0.0,0.0,0.0,0.0,0.0,-0.139,0.0,0.0,0.0,0.0,0.0,0.0,0.15696634595867112,0.0,0.0,0.0,0.0,0.0,0.0,-15.092,0.0,0.0,0.0
641,0.0,0.0,0.0,0.158837890625,0.0,0.0,0.0,0.0,0.0,0.0,-0.166,0.0,0.0,0.0,0.0,0.0,0.0,0.1553194253437123,0.0,0.0,0.0,0.0,0.0,0.0,-14.908,0.0,0.0,0.0
642,0.0,0.0,0.0,0.15739453125,0.0,0.0,0.0,0.0,0.0,0.0,-0.142,0.0,0.0,0.0,0.0,0.0,0.0,0.15366841483102509,0.0,0.0,0.0,0.0,0.0,0.0,-14.908,0.0,0.0,0.0
643,0.0,0.0,0.0,0.1554990234375,0.0,0.0,0.0,0.0,0.0,0.0,-0.162,0.0,0.0,0.0,0.0,0.0,0.0,0.1519849435463586,0.0,0.0,0.0,0.0,0.0,0.0,-14.52,0.0,0.0,0.0
644,0.0,0.0,0.0,0.1540556640625,0.0,0.0,0.0,0.0,0.0,0.0,-0.17,0.0,0.0,0.0,0.0,0.0,0.0,0.1503439185239445,0.0,0.0,0.0,0.0,0.0,0.0,-14.636,0.0,0.0,0.0
645,0.0,0.0,0.0,0.152458984375,0.0,0.0,0.0,0.0,0.0,0.0,-0.15,0.0,0.0,0.0,0.0,0.0,0.0,0.14864458069685327,0.0,0.0,0.0,0.0,0.0,0.0,-15.16,0.0,0.0,0.0
646,0.0,0.0,0.0,0.1508701171875,0.0,0.0,0.0,0.0,0.0,0.0,-0.163,0.0,0.0,0.0,0.0,0.0,0.0,0.14698636407638954,0.0,0.0,0.0,0.0,0.0,0.0,-14.932,0.0,0.0,0.0
647,0.0,0.0,0.0,0.148984375,0.0,0.0,0.0,0.0,0.0,0.0,-0.17,0.0,0.0,0.0,0.0,0.0,0.0,0.14529296885947812,0.0,0.0,0.0,0.0,0.0,0.0,-14.84,0.0,0.0,0.0
648,0.0,0.0,0.0,0.1472431640625,0.0,0.0,0.0,0.0,0.0,0.0,-0.185,0.0,0.0,0.0,0.0,0.0,0.0,0.14361352983672784,0.0,0.0,0.0,0.0,0.0,0.0,-14.68,0.0,0.0,0.0
649,0.0,0.0,0.0,0.1452216796875,0.0,0.0,0.0,0.0,0.0,0.0,-0.19,0.0,0.0,0.0,0.0,0.0,0.0,0.1419236130355283,0.0,0.0,0.0,0.0,0.0,0.0,-14.728,0.0,0.0,0.0
650,0.0,0.0,0.0,0.14348046875,0.0,0.0,0.0,0.0,0.0,0.0,-0.189,0.0,0.0,0.0,0.0,0.0,0.0,0.14020726298587316,0.0,0.0,0.0,0.0,0.0,0.0,-14.544,0.0,0.0,0.0
651,0.0,0.0,0.0,0.141748046875,0.0,0.0,0.0,0.0,0.0,0.0,-0.174,0.0,0.0,0.0,0.0,0.0,0.0,0.13850810908908645,0.0,0.0,0.0,0.0,0.0,0.0,-14.336,0.0,0.0,0.0
652,0.0,0.0,0.0,0.140150390625,0.0,0.0,0.0,0.0,0.0,0.0,-0.171,0.0,0.0,0.0,0.0,0.0,0.0,0.13679489950197166,0.0,0.0,0.0,0.0,0.0,0.0,-14.04,0.0,0.0,0.0
653,0.0,0.0,0.0,0.1382734375,0.0,0.0,0.0,0.0,0.0,0.0,-0.171,0.0,0.0,0.0,0.0,0.0,0.0,0.13506963358398813,0.0,0.0,0.0,0.0,0.0,0.0,-14.728,0.0,0.0,0.0
654,0.0,0.0,0.0,0.135955078125,0.0,0.0,0.0,0.0,0.0,0.0,-0.21,0.0,0.0,0.0,0.0,0.0,0.0,0.13334603768690495,0.0,0.0,0.0,0.0,0.0,0.0,-14.476,0.0,0.0,0.0
655,0.0,0.0,0.0,0.1343486328125,0.0,0.0,0.0,0.0,0.0,0.0,-0.209,0.0,0.0,0.0,0.0,0.0,0.0,0.13162036874389452,0.0,0.0,0.0,0.0,0.0,0.0,-13.904,0.0,0.0,0.0
656,0.0,0.0,0.0,0.1327607421875,0.0,0.0,0.0,0.0,0.0,0.0,-0.156,0.0,0.0,0.0,0.0,0.0,0.0,0.12988182826020706,0.0,0.0,0.0,0.0,0.0,0.0,-13.604,0.0,0.0,0.0
657,0.0,0.0,0.0,0.130875,0.0,0.0,0.0,0.0,0.0,0.0,-0.171,0.0,0.0,0.0,0.0,0.0,0.0,0.12813894250037752,0.0,0.0,0.0,0.0,0.0,0.0,-13.744,0.0,0.0,0.0
658,0.0,0.0,0.0,0.12898828125,0.0,0.0,0.0,0.0,0.0,0.0,-0.191,0.0,0.0,0.0,0.0,0.0,0.0,0.12639216852564122,0.0,0.0,0.0,0.0,0.0,0.0,-14.336,0.0,0.0,0.0
659,0.0,0.0,0.0,0.127111328125,0.0,0.0,0.0,0.0,0.0,0.0,-0.192,0.0,0.0,0.0,0.0,0.0,0.0,0.12464297168794194,0.0,0.0,0.0,0.0,0.0,0.0,-14.292,0.0,0.0,0.0
660,0.0,0.0,0.0,0.1253701171875,0.0,0.0,0.0,0.0,0.0,0.0,-0.185,0.0,0.0,0.0,0.0,0.0,0.0,0.12288582756129288,0.0,0.0,0.0,0.0,0.0,0.0,-13.332,0.0,0.0,0.0
661,0.0,0.0,0.0,0.1234931640625,0.0,0.0,0.0,0.0,0.0,0.0,-0.181,0.0,0.0,0.0,0.0,0.0,0.0,0.1211189752210368,0.0,0.0,0.0,0.0,0.0,0.0,-13.216,0.0,0.0,0.0
662,0.0,0.0,0.0,0.121318359375,0.0,0.0,0.0,0.0,0.0,0.0,-0.203,0.0,0.0,0.0,0.0,0.0,0.0,0.11935776315428163,0.0,0.0,0.0,0.0,0.0,0.0,-13.88,0.0,0.0,0.0
663,0.0,0.0,0.0,0.1192880859375,0.0,0.0,0.0,0.0,0.0,0.0,-0.215,0.0,0.0,0.0,0.0,0.0,0.0,0.11755433558585068,0.0,0.0,0.0,0.0,0.0,0.0,-14.132,0.0,0.0,0.0
664,0.0,0.0,0.0,0.1177001953125,0.0,0.0,0.0,0.0,0.0,0.0,-0.184,0.0,0.0,0.0,0.0,0.0,0.0,0.11580429182905169,0.0,0.0,0.0,0.0,0.0,0.0,-14.108,0.0,0.0,0.0
665,0.0,0.0,0.0,0.115814453125,0.0,0.0,0.0,0.0,0.0,0.0,-0.176,0.0,0.0,0.0,0.0,0.0,0.0,0.1140003077066431,0.0,0.0,0.0,0.0,0.0,0.0,-13.332,0.0,0.0,0.0
666,0.0,0.0,0.0,0.1140732421875,0.0,0.0,0.0,0.0,0.0,0.0,-0.177,0.0,0.0,0.0,0.0,0.0,0.0,0.11224501475336883,0.0,0.0,0.0,0.0,0.0,0.0,-14.108,0.0,0.0,0.0
667,0.0,0.0,0.0,0.1121875,0.0,0.0,0.0,0.0,0.0,0.0,-0.183,0.0,0.0,0.0,0.0,0.0,0.0,0.11044633576821436,0.0,0.0,0.0,0.0,0.0,0.0,-14.816,0.0,0.0,0.0
668,0.0,0.0,0.0,0.1108876953125,0.0,0.0,0.0,0.0,0.0,0.0,-0.176,0.0,0.0,0.0,0.0,0.0,0.0,0.10863203611420129,0.0,0.0,0.0,0.0,0.0,0.0,-14.496,0.0,0.0,0.0
669,0.0,0.0,0.0,0.1092900390625,0.0,0.0,0.0,0.0,0.0,0.0,-0.132,0.0,0.0,0.0,0.0,0.0,0.0,0.1068521266454253,0.0,0.0,0.0,0.0,0.0,0.0,-15.184,0.0,0.0,0.0
670,0.0,0.0,0.0,0.1071162109375,0.0,0.0,0.0,0.0,0.0,0.0,-0.189,0.0,0.0,0.0,0.0,0.0,0.0,0.1050507126176953,0.0,0.0,0.0,0.0,0.0,0.0,-14.796,0.0,0.0,0.0
