EmanuelSamir/lab201_ws_projsamir/sawyer_dev/data/sawyer/vel_acel_ns/test_joint4/test_sat.csv
,j1,j2,j3,j4,j5,j6,j7,v1,v2,v3,v4,v5,v6,v7,jd1,jd2,jd3,jd4,jd5,jd6,jd7,e1,e2,e3,e4,e5,e6,e7
0,0.0,0.0,0.0,0.0,0.0,0.0,0.0,0.0,0.0,0.0,0.0,0.0,0.0,0.0,0.0,0.0,0.0,0.0,0.0,0.0,0.0,0.0,0.0,0.0,0.0,0.0,0.0,0.0
1,0.0,0.0,0.0,-0.000361328125,0.0,0.0,0.0,0.0,0.0,0.0,-0.001,0.0,0.0,0.0,0.0,0.0,0.0,8.880615161419519e-05,0.0,0.0,0.0,0.0,0.0,0.0,-13.812,0.0,0.0,0.0
2,0.0,0.0,0.0,-0.000361328125,0.0,0.0,0.0,0.0,0.0,0.0,-0.001,0.0,0.0,0.0,0.0,0.0,0.0,0.004430260675599817,0.0,0.0,0.0,0.0,0.0,0.0,-13.924,0.0,0.0,0.0
3,0.0,0.0,0.0,-0.000361328125,0.0,0.0,0.0,0.0,0.0,0.0,-0.001,0.0,0.0,0.0,0.0,0.0,0.0,0.009271744919381144,0.0,0.0,0.0,0.0,0.0,0.0,-13.88,0.0,0.0,0.0
4,0.0,0.0,0.0,-0.000361328125,0.0,0.0,0.0,0.0,0.0,0.0,-0.001,0.0,0.0,0.0,0.0,0.0,0.0,0.014066351233244862,0.0,0.0,0.0,0.0,0.0,0.0,-13.836,0.0,0.0,0.0
5,0.0,0.0,0.0,-0.000216796875,0.0,0.0,0.0,0.0,0.0,0.0,0.004,0.0,0.0,0.0,0.0,0.0,0.0,0.01887230950754529,0.0,0.0,0.0,0.0,0.0,0.0,-13.652,0.0,0.0,0.0
6,0.0,0.0,0.0,0.0002158203125,0.0,0.0,0.0,0.0,0.0,0.0,0.025,0.0,0.0,0.0,0.0,0.0,0.0,0.023647321383452876,0.0,0.0,0.0,0.0,0.0,0.0,-12.988,0.0,0.0,0.0
7,0.0,0.0,0.0,0.0015234375,0.0,0.0,0.0,0.0,0.0,0.0,0.081,0.0,0.0,0.0,0.0,0.0,0.0,0.028583558215928385,0.0,0.0,0.0,0.0,0.0,0.0,-12.28,0.0,0.0,0.0
8,0.0,0.0,0.0,0.003833984375,0.0,0.0,0.0,0.0,0.0,0.0,0.164,0.0,0.0,0.0,0.0,0.0,0.0,0.033275366325960336,0.0,0.0,0.0,0.0,0.0,0.0,-11.296,0.0,0.0,0.0
9,0.0,0.0,0.0,0.00673046875,0.0,0.0,0.0,0.0,0.0,0.0,0.264,0.0,0.0,0.0,0.0,0.0,0.0,0.03800027760963935,0.0,0.0,0.0,0.0,0.0,0.0,-11.524,0.0,0.0,0.0
10,0.0,0.0,0.0,0.009626953125,0.0,0.0,0.0,0.0,0.0,0.0,0.291,0.0,0.0,0.0,0.0,0.0,0.0,0.042768089402628315,0.0,0.0,0.0,0.0,0.0,0.0,-11.616,0.0,0.0,0.0
11,0.0,0.0,0.0,0.013263671875,0.0,0.0,0.0,0.0,0.0,0.0,0.315,0.0,0.0,0.0,0.0,0.0,0.0,0.047566464666853464,0.0,0.0,0.0,0.0,0.0,0.0,-11.02,0.0,0.0,0.0
12,0.0,0.0,0.0,0.0171708984375,0.0,0.0,0.0,0.0,0.0,0.0,0.386,0.0,0.0,0.0,0.0,0.0,0.0,0.0523065104464103,0.0,0.0,0.0,0.0,0.0,0.0,-10.152,0.0,0.0,0.0
13,0.0,0.0,0.0,0.0217998046875,0.0,0.0,0.0,0.0,0.0,0.0,0.413,0.0,0.0,0.0,0.0,0.0,0.0,0.05708428970266347,0.0,0.0,0.0,0.0,0.0,0.0,-9.444,0.0,0.0,0.0
14,0.0,0.0,0.0,0.0275927734375,0.0,0.0,0.0,0.0,0.0,0.0,0.508,0.0,0.0,0.0,0.0,0.0,0.0,0.06188497514970061,0.0,0.0,0.0,0.0,0.0,0.0,-10.016,0.0,0.0,0.0
15,0.0,0.0,0.0,0.0330966796875,0.0,0.0,0.0,0.0,0.0,0.0,0.578,0.0,0.0,0.0,0.0,0.0,0.0,0.06658277326694306,0.0,0.0,0.0,0.0,0.0,0.0,-11.48,0.0,0.0,0.0
16,0.0,0.0,0.0,0.0386103515625,0.0,0.0,0.0,0.0,0.0,0.0,0.558,0.0,0.0,0.0,0.0,0.0,0.0,0.07128544568314242,0.0,0.0,0.0,0.0,0.0,0.0,-11.752,0.0,0.0,0.0
17,0.0,0.0,0.0,0.0444033203125,0.0,0.0,0.0,0.0,0.0,0.0,0.566,0.0,0.0,0.0,0.0,0.0,0.0,0.07601515344851895,0.0,0.0,0.0,0.0,0.0,0.0,-12.188,0.0,0.0,0.0
18,0.0,0.0,0.0,0.0497626953125,0.0,0.0,0.0,0.0,0.0,0.0,0.567,0.0,0.0,0.0,0.0,0.0,0.0,0.08072724724498465,0.0,0.0,0.0,0.0,0.0,0.0,-11.252,0.0,0.0,0.0
19,0.0,0.0,0.0,0.055123046875,0.0,0.0,0.0,0.0,0.0,0.0,0.539,0.0,0.0,0.0,0.0,0.0,0.0,0.08538319380348361,0.0,0.0,0.0,0.0,0.0,0.0,-11.732,0.0,0.0,0.0
20,0.0,0.0,0.0,0.060771484375,0.0,0.0,0.0,0.0,0.0,0.0,0.545,0.0,0.0,0.0,0.0,0.0,0.0,0.09015182002274488,0.0,0.0,0.0,0.0,0.0,0.0,-11.412,0.0,0.0,0.0
21,0.0,0.0,0.0,0.0672861328125,0.0,0.0,0.0,0.0,0.0,0.0,0.611,0.0,0.0,0.0,0.0,0.0,0.0,0.09477190453274648,0.0,0.0,0.0,0.0,0.0,0.0,-12.232,0.0,0.0,0.0
22,0.0,0.0,0.0,0.072935546875,0.0,0.0,0.0,0.0,0.0,0.0,0.621,0.0,0.0,0.0,0.0,0.0,0.0,0.09943195125228767,0.0,0.0,0.0,0.0,0.0,0.0,-13.032,0.0,0.0,0.0
23,0.0,0.0,0.0,0.0785927734375,0.0,0.0,0.0,0.0,0.0,0.0,0.564,0.0,0.0,0.0,0.0,0.0,0.0,0.10412738118661974,0.0,0.0,0.0,0.0,0.0,0.0,-13.628,0.0,0.0,0.0
24,0.0,0.0,0.0,0.0840966796875,0.0,0.0,0.0,0.0,0.0,0.0,0.567,0.0,0.0,0.0,0.0,0.0,0.0,0.10867288956683943,0.0,0.0,0.0,0.0,0.0,0.0,-13.924,0.0,0.0,0.0
25,0.0,0.0,0.0,0.0900341796875,0.0,0.0,0.0,0.0,0.0,0.0,0.567,0.0,0.0,0.0,0.0,0.0,0.0,0.1132849564117376,0.0,0.0,0.0,0.0,0.0,0.0,-13.24,0.0,0.0,0.0
26,0.0,0.0,0.0,0.09539453125,0.0,0.0,0.0,0.0,0.0,0.0,0.584,0.0,0.0,0.0,0.0,0.0,0.0,0.11792554274003755,0.0,0.0,0.0,0.0,0.0,0.0,-14.976,0.0,0.0,0.0
27,0.0,0.0,0.0,0.1004658203125,0.0,0.0,0.0,0.0,0.0,0.0,0.512,0.0,0.0,0.0,0.0,0.0,0.0,0.1224634001214868,0.0,0.0,0.0,0.0,0.0,0.0,-15.184,0.0,0.0,0.0
28,0.0,0.0,0.0,0.1063935546875,0.0,0.0,0.0,0.0,0.0,0.0,0.551,0.0,0.0,0.0,0.0,0.0,0.0,0.12701627075635077,0.0,0.0,0.0,0.0,0.0,0.0,-16.44,0.0,0.0,0.0
29,0.0,0.0,0.0,0.1110322265625,0.0,0.0,0.0,0.0,0.0,0.0,0.554,0.0,0.0,0.0,0.0,0.0,0.0,0.1315707987660783,0.0,0.0,0.0,0.0,0.0,0.0,-16.716,0.0,0.0,0.0
30,0.0,0.0,0.0,0.116103515625,0.0,0.0,0.0,0.0,0.0,0.0,0.461,0.0,0.0,0.0,0.0,0.0,0.0,0.13609368792423795,0.0,0.0,0.0,0.0,0.0,0.0,-14.268,0.0,0.0,0.0
31,0.0,0.0,0.0,0.1226181640625,0.0,0.0,0.0,0.0,0.0,0.0,0.588,0.0,0.0,0.0,0.0,0.0,0.0,0.14061669689523815,0.0,0.0,0.0,0.0,0.0,0.0,-15.048,0.0,0.0,0.0
32,0.0,0.0,0.0,0.127111328125,0.0,0.0,0.0,0.0,0.0,0.0,0.575,0.0,0.0,0.0,0.0,0.0,0.0,0.14508494325929627,0.0,0.0,0.0,0.0,0.0,0.0,-15.96,0.0,0.0,0.0
33,0.0,0.0,0.0,0.1321826171875,0.0,0.0,0.0,0.0,0.0,0.0,0.455,0.0,0.0,0.0,0.0,0.0,0.0,0.14951895856823258,0.0,0.0,0.0,0.0,0.0,0.0,-15.32,0.0,0.0,0.0
34,0.0,0.0,0.0,0.13783203125,0.0,0.0,0.0,0.0,0.0,0.0,0.552,0.0,0.0,0.0,0.0,0.0,0.0,0.1539526327383348,0.0,0.0,0.0,0.0,0.0,0.0,-16.832,0.0,0.0,0.0
35,0.0,0.0,0.0,0.141892578125,0.0,0.0,0.0,0.0,0.0,0.0,0.499,0.0,0.0,0.0,0.0,0.0,0.0,0.15839153594882693,0.0,0.0,0.0,0.0,0.0,0.0,-14.728,0.0,0.0,0.0
36,0.0,0.0,0.0,0.1470986328125,0.0,0.0,0.0,0.0,0.0,0.0,0.451,0.0,0.0,0.0,0.0,0.0,0.0,0.16287881774724788,0.0,0.0,0.0,0.0,0.0,0.0,-14.084,0.0,0.0,0.0
37,0.0,0.0,0.0,0.152169921875,0.0,0.0,0.0,0.0,0.0,0.0,0.533,0.0,0.0,0.0,0.0,0.0,0.0,0.1671502742854839,0.0,0.0,0.0,0.0,0.0,0.0,-16.052,0.0,0.0,0.0
38,0.0,0.0,0.0,0.15594140625,0.0,0.0,0.0,0.0,0.0,0.0,0.446,0.0,0.0,0.0,0.0,0.0,0.0,0.17155229776514772,0.0,0.0,0.0,0.0,0.0,0.0,-16.236,0.0,0.0,0.0
39,0.0,0.0,0.0,0.160435546875,0.0,0.0,0.0,0.0,0.0,0.0,0.398,0.0,0.0,0.0,0.0,0.0,0.0,0.17582642725472974,0.0,0.0,0.0,0.0,0.0,0.0,-15.8,0.0,0.0,0.0
40,0.0,0.0,0.0,0.164630859375,0.0,0.0,0.0,0.0,0.0,0.0,0.459,0.0,0.0,0.0,0.0,0.0,0.0,0.18014775340481703,0.0,0.0,0.0,0.0,0.0,0.0,-16.304,0.0,0.0,0.0
41,0.0,0.0,0.0,0.1679609375,0.0,0.0,0.0,0.0,0.0,0.0,0.384,0.0,0.0,0.0,0.0,0.0,0.0,0.18442803706656988,0.0,0.0,0.0,0.0,0.0,0.0,-15.388,0.0,0.0,0.0
42,0.0,0.0,0.0,0.172310546875,0.0,0.0,0.0,0.0,0.0,0.0,0.365,0.0,0.0,0.0,0.0,0.0,0.0,0.18868328167473475,0.0,0.0,0.0,0.0,0.0,0.0,-14.588,0.0,0.0,0.0
43,0.0,0.0,0.0,0.1772373046875,0.0,0.0,0.0,0.0,0.0,0.0,0.472,0.0,0.0,0.0,0.0,0.0,0.0,0.19288146130998218,0.0,0.0,0.0,0.0,0.0,0.0,-15.068,0.0,0.0,0.0
44,0.0,0.0,0.0,0.1811533203125,0.0,0.0,0.0,0.0,0.0,0.0,0.447,0.0,0.0,0.0,0.0,0.0,0.0,0.19705243600794836,0.0,0.0,0.0,0.0,0.0,0.0,-13.924,0.0,0.0,0.0
45,0.0,0.0,0.0,0.1852041015625,0.0,0.0,0.0,0.0,0.0,0.0,0.4,0.0,0.0,0.0,0.0,0.0,0.0,0.20121865062333494,0.0,0.0,0.0,0.0,0.0,0.0,-13.468,0.0,0.0,0.0
46,0.0,0.0,0.0,0.1889677734375,0.0,0.0,0.0,0.0,0.0,0.0,0.409,0.0,0.0,0.0,0.0,0.0,0.0,0.20534837929608965,0.0,0.0,0.0,0.0,0.0,0.0,-14.064,0.0,0.0,0.0
47,0.0,0.0,0.0,0.1918642578125,0.0,0.0,0.0,0.0,0.0,0.0,0.338,0.0,0.0,0.0,0.0,0.0,0.0,0.20945561721859415,0.0,0.0,0.0,0.0,0.0,0.0,-14.064,0.0,0.0,0.0
48,0.0,0.0,0.0,0.1953466796875,0.0,0.0,0.0,0.0,0.0,0.0,0.298,0.0,0.0,0.0,0.0,0.0,0.0,0.21358045313026974,0.0,0.0,0.0,0.0,0.0,0.0,-13.08,0.0,0.0,0.0
49,0.0,0.0,0.0,0.1995517578125,0.0,0.0,0.0,0.0,0.0,0.0,0.39,0.0,0.0,0.0,0.0,0.0,0.0,0.21755498016608785,0.0,0.0,0.0,0.0,0.0,0.0,-13.172,0.0,0.0,0.0
50,0.0,0.0,0.0,0.203025390625,0.0,0.0,0.0,0.0,0.0,0.0,0.388,0.0,0.0,0.0,0.0,0.0,0.0,0.22160795342302914,0.0,0.0,0.0,0.0,0.0,0.0,-13.012,0.0,0.0,0.0
51,0.0,0.0,0.0,0.20635546875,0.0,0.0,0.0,0.0,0.0,0.0,0.343,0.0,0.0,0.0,0.0,0.0,0.0,0.2256746622561633,0.0,0.0,0.0,0.0,0.0,0.0,-13.516,0.0,0.0,0.0
52,0.0,0.0,0.0,0.2099736328125,0.0,0.0,0.0,0.0,0.0,0.0,0.343,0.0,0.0,0.0,0.0,0.0,0.0,0.2295239572494833,0.0,0.0,0.0,0.0,0.0,0.0,-13.332,0.0,0.0,0.0
53,0.0,0.0,0.0,0.213591796875,0.0,0.0,0.0,0.0,0.0,0.0,0.369,0.0,0.0,0.0,0.0,0.0,0.0,0.23342137894715376,0.0,0.0,0.0,0.0,0.0,0.0,-13.516,0.0,0.0,0.0
54,0.0,0.0,0.0,0.216353515625,0.0,0.0,0.0,0.0,0.0,0.0,0.323,0.0,0.0,0.0,0.0,0.0,0.0,0.23739243263525692,0.0,0.0,0.0,0.0,0.0,0.0,-13.104,0.0,0.0,0.0
55,0.0,0.0,0.0,0.2202607421875,0.0,0.0,0.0,0.0,0.0,0.0,0.32,0.0,0.0,0.0,0.0,0.0,0.0,0.24116036635873167,0.0,0.0,0.0,0.0,0.0,0.0,-13.08,0.0,0.0,0.0
56,0.0,0.0,0.0,0.2240322265625,0.0,0.0,0.0,0.0,0.0,0.0,0.399,0.0,0.0,0.0,0.0,0.0,0.0,0.2449694391778862,0.0,0.0,0.0,0.0,0.0,0.0,-14.224,0.0,0.0,0.0
57,0.0,0.0,0.0,0.227505859375,0.0,0.0,0.0,0.0,0.0,0.0,0.358,0.0,0.0,0.0,0.0,0.0,0.0,0.24881462511196176,0.0,0.0,0.0,0.0,0.0,0.0,-13.172,0.0,0.0,0.0
58,0.0,0.0,0.0,0.232279296875,0.0,0.0,0.0,0.0,0.0,0.0,0.413,0.0,0.0,0.0,0.0,0.0,0.0,0.2524704654470542,0.0,0.0,0.0,0.0,0.0,0.0,-13.536,0.0,0.0,0.0
59,0.0,0.0,0.0,0.2357626953125,0.0,0.0,0.0,0.0,0.0,0.0,0.436,0.0,0.0,0.0,0.0,0.0,0.0,0.2562172744299906,0.0,0.0,0.0,0.0,0.0,0.0,-13.604,0.0,0.0,0.0
60,0.0,0.0,0.0,0.239236328125,0.0,0.0,0.0,0.0,0.0,0.0,0.332,0.0,0.0,0.0,0.0,0.0,0.0,0.2612159891036922,0.0,0.0,0.0,0.0,0.0,0.0,-12.232,0.0,0.0,0.0
61,0.0,0.0,0.0,0.24373046875,0.0,0.0,0.0,0.0,0.0,0.0,0.402,0.0,0.0,0.0,0.0,0.0,0.0,0.26346324930582815,0.0,0.0,0.0,0.0,0.0,0.0,-12.576,0.0,0.0,0.0
62,0.0,0.0,0.0,0.2476376953125,0.0,0.0,0.0,0.0,0.0,0.0,0.429,0.0,0.0,0.0,0.0,0.0,0.0,0.26706877820112535,0.0,0.0,0.0,0.0,0.0,0.0,-12.76,0.0,0.0,0.0
63,0.0,0.0,0.0,0.250966796875,0.0,0.0,0.0,0.0,0.0,0.0,0.363,0.0,0.0,0.0,0.0,0.0,0.0,0.2707066039163066,0.0,0.0,0.0,0.0,0.0,0.0,-12.6,0.0,0.0,0.0
64,0.0,0.0,0.0,0.2551806640625,0.0,0.0,0.0,0.0,0.0,0.0,0.37,0.0,0.0,0.0,0.0,0.0,0.0,0.2741462810078557,0.0,0.0,0.0,0.0,0.0,0.0,-12.712,0.0,0.0,0.0
65,0.0,0.0,0.0,0.259087890625,0.0,0.0,0.0,0.0,0.0,0.0,0.422,0.0,0.0,0.0,0.0,0.0,0.0,0.27762395305592164,0.0,0.0,0.0,0.0,0.0,0.0,-13.856,0.0,0.0,0.0
66,0.0,0.0,0.0,0.2622734375,0.0,0.0,0.0,0.0,0.0,0.0,0.347,0.0,0.0,0.0,0.0,0.0,0.0,0.28108097752658995,0.0,0.0,0.0,0.0,0.0,0.0,-12.988,0.0,0.0,0.0
67,0.0,0.0,0.0,0.2663251953125,0.0,0.0,0.0,0.0,0.0,0.0,0.355,0.0,0.0,0.0,0.0,0.0,0.0,0.2844596059362137,0.0,0.0,0.0,0.0,0.0,0.0,-12.76,0.0,0.0,0.0
68,0.0,0.0,0.0,0.270087890625,0.0,0.0,0.0,0.0,0.0,0.0,0.406,0.0,0.0,0.0,0.0,0.0,0.0,0.28783128190912904,0.0,0.0,0.0,0.0,0.0,0.0,-13.628,0.0,0.0,0.0
69,0.0,0.0,0.0,0.273724609375,0.0,0.0,0.0,0.0,0.0,0.0,0.361,0.0,0.0,0.0,0.0,0.0,0.0,0.29116672061838705,0.0,0.0,0.0,0.0,0.0,0.0,-13.192,0.0,0.0,0.0
70,0.0,0.0,0.0,0.2774873046875,0.0,0.0,0.0,0.0,0.0,0.0,0.375,0.0,0.0,0.0,0.0,0.0,0.0,0.2944089033278012,0.0,0.0,0.0,0.0,0.0,0.0,-14.064,0.0,0.0,0.0
71,0.0,0.0,0.0,0.280671875,0.0,0.0,0.0,0.0,0.0,0.0,0.355,0.0,0.0,0.0,0.0,0.0,0.0,0.2976270809185148,0.0,0.0,0.0,0.0,0.0,0.0,-14.568,0.0,0.0,0.0
72,0.0,0.0,0.0,0.284291015625,0.0,0.0,0.0,0.0,0.0,0.0,0.339,0.0,0.0,0.0,0.0,0.0,0.0,0.30083902256248485,0.0,0.0,0.0,0.0,0.0,0.0,-14.36,0.0,0.0,0.0
73,0.0,0.0,0.0,0.2874755859375,0.0,0.0,0.0,0.0,0.0,0.0,0.347,0.0,0.0,0.0,0.0,0.0,0.0,0.30394800064726374,0.0,0.0,0.0,0.0,0.0,0.0,-14.976,0.0,0.0,0.0
74,0.0,0.0,0.0,0.2910947265625,0.0,0.0,0.0,0.0,0.0,0.0,0.343,0.0,0.0,0.0,0.0,0.0,0.0,0.30706979531034034,0.0,0.0,0.0,0.0,0.0,0.0,-14.612,0.0,0.0,0.0
75,0.0,0.0,0.0,0.2947216796875,0.0,0.0,0.0,0.0,0.0,0.0,0.364,0.0,0.0,0.0,0.0,0.0,0.0,0.31012877347162987,0.0,0.0,0.0,0.0,0.0,0.0,-14.568,0.0,0.0,0.0
76,0.0,0.0,0.0,0.298205078125,0.0,0.0,0.0,0.0,0.0,0.0,0.346,0.0,0.0,0.0,0.0,0.0,0.0,0.3131591053308884,0.0,0.0,0.0,0.0,0.0,0.0,-13.216,0.0,0.0,0.0
77,0.0,0.0,0.0,0.30124609375,0.0,0.0,0.0,0.0,0.0,0.0,0.348,0.0,0.0,0.0,0.0,0.0,0.0,0.3161040126030199,0.0,0.0,0.0,0.0,0.0,0.0,-13.676,0.0,0.0,0.0
78,0.0,0.0,0.0,0.3041328125,0.0,0.0,0.0,0.0,0.0,0.0,0.288,0.0,0.0,0.0,0.0,0.0,0.0,0.3190398110870528,0.0,0.0,0.0,0.0,0.0,0.0,-12.76,0.0,0.0,0.0
79,0.0,0.0,0.0,0.3074716796875,0.0,0.0,0.0,0.0,0.0,0.0,0.312,0.0,0.0,0.0,0.0,0.0,0.0,0.3218884267287219,0.0,0.0,0.0,0.0,0.0,0.0,-12.896,0.0,0.0,0.0
80,0.0,0.0,0.0,0.310359375,0.0,0.0,0.0,0.0,0.0,0.0,0.317,0.0,0.0,0.0,0.0,0.0,0.0,0.3247228677103265,0.0,0.0,0.0,0.0,0.0,0.0,-13.516,0.0,0.0,0.0
81,0.0,0.0,0.0,0.3131201171875,0.0,0.0,0.0,0.0,0.0,0.0,0.28,0.0,0.0,0.0,0.0,0.0,0.0,0.3274854395357231,0.0,0.0,0.0,0.0,0.0,0.0,-13.676,0.0,0.0,0.0
82,0.0,0.0,0.0,0.315873046875,0.0,0.0,0.0,0.0,0.0,0.0,0.277,0.0,0.0,0.0,0.0,0.0,0.0,0.33023204067108874,0.0,0.0,0.0,0.0,0.0,0.0,-13.424,0.0,0.0,0.0
83,0.0,0.0,0.0,0.3189130859375,0.0,0.0,0.0,0.0,0.0,0.0,0.292,0.0,0.0,0.0,0.0,0.0,0.0,0.33289976182330333,0.0,0.0,0.0,0.0,0.0,0.0,-13.536,0.0,0.0,0.0
84,0.0,0.0,0.0,0.321232421875,0.0,0.0,0.0,0.0,0.0,0.0,0.278,0.0,0.0,0.0,0.0,0.0,0.0,0.33556089903011804,0.0,0.0,0.0,0.0,0.0,0.0,-13.444,0.0,0.0,0.0
85,0.0,0.0,0.0,0.323984375,0.0,0.0,0.0,0.0,0.0,0.0,0.247,0.0,0.0,0.0,0.0,0.0,0.0,0.33814458184976387,0.0,0.0,0.0,0.0,0.0,0.0,-12.668,0.0,0.0,0.0
86,0.0,0.0,0.0,0.327025390625,0.0,0.0,0.0,0.0,0.0,0.0,0.293,0.0,0.0,0.0,0.0,0.0,0.0,0.3406631958882245,0.0,0.0,0.0,0.0,0.0,0.0,-13.468,0.0,0.0,0.0
87,0.0,0.0,0.0,0.329046875,0.0,0.0,0.0,0.0,0.0,0.0,0.264,0.0,0.0,0.0,0.0,0.0,0.0,0.34318091140388085,0.0,0.0,0.0,0.0,0.0,0.0,-13.628,0.0,0.0,0.0
88,0.0,0.0,0.0,0.3315107421875,0.0,0.0,0.0,0.0,0.0,0.0,0.217,0.0,0.0,0.0,0.0,0.0,0.0,0.34559692195071523,0.0,0.0,0.0,0.0,0.0,0.0,-12.624,0.0,0.0,0.0
89,0.0,0.0,0.0,0.334271484375,0.0,0.0,0.0,0.0,0.0,0.0,0.265,0.0,0.0,0.0,0.0,0.0,0.0,0.3479755410096392,0.0,0.0,0.0,0.0,0.0,0.0,-13.056,0.0,0.0,0.0
90,0.0,0.0,0.0,0.3361572265625,0.0,0.0,0.0,0.0,0.0,0.0,0.238,0.0,0.0,0.0,0.0,0.0,0.0,0.3503328942209633,0.0,0.0,0.0,0.0,0.0,0.0,-12.896,0.0,0.0,0.0
91,0.0,0.0,0.0,0.3387646484375,0.0,0.0,0.0,0.0,0.0,0.0,0.216,0.0,0.0,0.0,0.0,0.0,0.0,0.35262962436756284,0.0,0.0,0.0,0.0,0.0,0.0,-12.692,0.0,0.0,0.0
92,0.0,0.0,0.0,0.3413642578125,0.0,0.0,0.0,0.0,0.0,0.0,0.263,0.0,0.0,0.0,0.0,0.0,0.0,0.354864453494288,0.0,0.0,0.0,0.0,0.0,0.0,-13.652,0.0,0.0,0.0
93,0.0,0.0,0.0,0.3436826171875,0.0,0.0,0.0,0.0,0.0,0.0,0.25,0.0,0.0,0.0,0.0,0.0,0.0,0.35705189489428074,0.0,0.0,0.0,0.0,0.0,0.0,-13.744,0.0,0.0,0.0
94,0.0,0.0,0.0,0.346291015625,0.0,0.0,0.0,0.0,0.0,0.0,0.247,0.0,0.0,0.0,0.0,0.0,0.0,0.35921762153616665,0.0,0.0,0.0,0.0,0.0,0.0,-13.536,0.0,0.0,0.0
95,0.0,0.0,0.0,0.34875390625,0.0,0.0,0.0,0.0,0.0,0.0,0.253,0.0,0.0,0.0,0.0,0.0,0.0,0.3612750110671605,0.0,0.0,0.0,0.0,0.0,0.0,-13.764,0.0,0.0,0.0
96,0.0,0.0,0.0,0.3510732421875,0.0,0.0,0.0,0.0,0.0,0.0,0.24,0.0,0.0,0.0,0.0,0.0,0.0,0.3633183786077144,0.0,0.0,0.0,0.0,0.0,0.0,-13.996,0.0,0.0,0.0
97,0.0,0.0,0.0,0.3535361328125,0.0,0.0,0.0,0.0,0.0,0.0,0.242,0.0,0.0,0.0,0.0,0.0,0.0,0.36531245270271584,0.0,0.0,0.0,0.0,0.0,0.0,-13.696,0.0,0.0,0.0
98,0.0,0.0,0.0,0.356,0.0,0.0,0.0,0.0,0.0,0.0,0.245,0.0,0.0,0.0,0.0,0.0,0.0,0.3672308064487555,0.0,0.0,0.0,0.0,0.0,0.0,-13.4,0.0,0.0,0.0
99,0.0,0.0,0.0,0.3581748046875,0.0,0.0,0.0,0.0,0.0,0.0,0.233,0.0,0.0,0.0,0.0,0.0,0.0,0.3690952285583489,0.0,0.0,0.0,0.0,0.0,0.0,-13.376,0.0,0.0,0.0
100,0.0,0.0,0.0,0.36033984375,0.0,0.0,0.0,0.0,0.0,0.0,0.227,0.0,0.0,0.0,0.0,0.0,0.0,0.37093570775271834,0.0,0.0,0.0,0.0,0.0,0.0,-13.192,0.0,0.0,0.0
101,0.0,0.0,0.0,0.3622255859375,0.0,0.0,0.0,0.0,0.0,0.0,0.207,0.0,0.0,0.0,0.0,0.0,0.0,0.37276252963964995,0.0,0.0,0.0,0.0,0.0,0.0,-13.216,0.0,0.0,0.0
102,0.0,0.0,0.0,0.3641123046875,0.0,0.0,0.0,0.0,0.0,0.0,0.182,0.0,0.0,0.0,0.0,0.0,0.0,0.37439387628102916,0.0,0.0,0.0,0.0,0.0,0.0,-13.172,0.0,0.0,0.0
103,0.0,0.0,0.0,0.36598828125,0.0,0.0,0.0,0.0,0.0,0.0,0.199,0.0,0.0,0.0,0.0,0.0,0.0,0.37608252349830407,0.0,0.0,0.0,0.0,0.0,0.0,-13.216,0.0,0.0,0.0
104,0.0,0.0,0.0,0.3675859375,0.0,0.0,0.0,0.0,0.0,0.0,0.171,0.0,0.0,0.0,0.0,0.0,0.0,0.3777075304011488,0.0,0.0,0.0,0.0,0.0,0.0,-13.032,0.0,0.0,0.0
105,0.0,0.0,0.0,0.369462890625,0.0,0.0,0.0,0.0,0.0,0.0,0.171,0.0,0.0,0.0,0.0,0.0,0.0,0.3792359255025693,0.0,0.0,0.0,0.0,0.0,0.0,-13.264,0.0,0.0,0.0
106,0.0,0.0,0.0,0.3709248046875,0.0,0.0,0.0,0.0,0.0,0.0,0.171,0.0,0.0,0.0,0.0,0.0,0.0,0.38075958465465365,0.0,0.0,0.0,0.0,0.0,0.0,-13.332,0.0,0.0,0.0
107,0.0,0.0,0.0,0.3723681640625,0.0,0.0,0.0,0.0,0.0,0.0,0.146,0.0,0.0,0.0,0.0,0.0,0.0,0.3821659296978218,0.0,0.0,0.0,0.0,0.0,0.0,-12.988,0.0,0.0,0.0
108,0.0,0.0,0.0,0.3739658203125,0.0,0.0,0.0,0.0,0.0,0.0,0.159,0.0,0.0,0.0,0.0,0.0,0.0,0.38356329068246037,0.0,0.0,0.0,0.0,0.0,0.0,-13.308,0.0,0.0,0.0
109,0.0,0.0,0.0,0.3752646484375,0.0,0.0,0.0,0.0,0.0,0.0,0.144,0.0,0.0,0.0,0.0,0.0,0.0,0.38489367890579307,0.0,0.0,0.0,0.0,0.0,0.0,-13.104,0.0,0.0,0.0
110,0.0,0.0,0.0,0.3768623046875,0.0,0.0,0.0,0.0,0.0,0.0,0.135,0.0,0.0,0.0,0.0,0.0,0.0,0.38617537866922,0.0,0.0,0.0,0.0,0.0,0.0,-12.784,0.0,0.0,0.0
111,0.0,0.0,0.0,0.3781611328125,0.0,0.0,0.0,0.0,0.0,0.0,0.154,0.0,0.0,0.0,0.0,0.0,0.0,0.38739988373424733,0.0,0.0,0.0,0.0,0.0,0.0,-13.032,0.0,0.0,0.0
112,0.0,0.0,0.0,0.3794609375,0.0,0.0,0.0,0.0,0.0,0.0,0.127,0.0,0.0,0.0,0.0,0.0,0.0,0.38856630834664596,0.0,0.0,0.0,0.0,0.0,0.0,-12.692,0.0,0.0,0.0
113,0.0,0.0,0.0,0.380625,0.0,0.0,0.0,0.0,0.0,0.0,0.127,0.0,0.0,0.0,0.0,0.0,0.0,0.389675915072294,0.0,0.0,0.0,0.0,0.0,0.0,-12.76,0.0,0.0,0.0
114,0.0,0.0,0.0,0.381923828125,0.0,0.0,0.0,0.0,0.0,0.0,0.122,0.0,0.0,0.0,0.0,0.0,0.0,0.3907293785952497,0.0,0.0,0.0,0.0,0.0,0.0,-12.736,0.0,0.0,0.0
115,0.0,0.0,0.0,0.383087890625,0.0,0.0,0.0,0.0,0.0,0.0,0.125,0.0,0.0,0.0,0.0,0.0,0.0,0.39174544486005547,0.0,0.0,0.0,0.0,0.0,0.0,-12.828,0.0,0.0,0.0
116,0.0,0.0,0.0,0.3842431640625,0.0,0.0,0.0,0.0,0.0,0.0,0.119,0.0,0.0,0.0,0.0,0.0,0.0,0.39267717092392634,0.0,0.0,0.0,0.0,0.0,0.0,-12.712,0.0,0.0,0.0
117,0.0,0.0,0.0,0.3853984375,0.0,0.0,0.0,0.0,0.0,0.0,0.11,0.0,0.0,0.0,0.0,0.0,0.0,0.3935641767616452,0.0,0.0,0.0,0.0,0.0,0.0,-12.76,0.0,0.0,0.0
118,0.0,0.0,0.0,0.3862734375,0.0,0.0,0.0,0.0,0.0,0.0,0.106,0.0,0.0,0.0,0.0,0.0,0.0,0.39443384255317876,0.0,0.0,0.0,0.0,0.0,0.0,-12.76,0.0,0.0,0.0
119,0.0,0.0,0.0,0.3871396484375,0.0,0.0,0.0,0.0,0.0,0.0,0.088,0.0,0.0,0.0,0.0,0.0,0.0,0.39516322052292346,0.0,0.0,0.0,0.0,0.0,0.0,-12.416,0.0,0.0,0.0
120,0.0,0.0,0.0,0.388150390625,0.0,0.0,0.0,0.0,0.0,0.0,0.089,0.0,0.0,0.0,0.0,0.0,0.0,0.39587963508492524,0.0,0.0,0.0,0.0,0.0,0.0,-12.6,0.0,0.0,0.0
121,0.0,0.0,0.0,0.3890166015625,0.0,0.0,0.0,0.0,0.0,0.0,0.091,0.0,0.0,0.0,0.0,0.0,0.0,0.3965462414535584,0.0,0.0,0.0,0.0,0.0,0.0,-12.552,0.0,0.0,0.0
122,0.0,0.0,0.0,0.390044921875,0.0,0.0,0.0,0.0,0.0,0.0,0.099,0.0,0.0,0.0,0.0,0.0,0.0,0.39713779820188755,0.0,0.0,0.0,0.0,0.0,0.0,-12.804,0.0,0.0,0.0
123,0.0,0.0,0.0,0.3907666015625,0.0,0.0,0.0,0.0,0.0,0.0,0.089,0.0,0.0,0.0,0.0,0.0,0.0,0.39768480243285687,0.0,0.0,0.0,0.0,0.0,0.0,-12.944,0.0,0.0,0.0
124,0.0,0.0,0.0,0.3914892578125,0.0,0.0,0.0,0.0,0.0,0.0,0.073,0.0,0.0,0.0,0.0,0.0,0.0,0.39817468970405173,0.0,0.0,0.0,0.0,0.0,0.0,-12.76,0.0,0.0,0.0
125,0.0,0.0,0.0,0.3922109375,0.0,0.0,0.0,0.0,0.0,0.0,0.076,0.0,0.0,0.0,0.0,0.0,0.0,0.3986017609896063,0.0,0.0,0.0,0.0,0.0,0.0,-12.624,0.0,0.0,0.0
126,0.0,0.0,0.0,0.3926533203125,0.0,0.0,0.0,0.0,0.0,0.0,0.055,0.0,0.0,0.0,0.0,0.0,0.0,0.3989747332793189,0.0,0.0,0.0,0.0,0.0,0.0,-12.484,0.0,0.0,0.0
127,0.0,0.0,0.0,0.39323046875,0.0,0.0,0.0,0.0,0.0,0.0,0.054,0.0,0.0,0.0,0.0,0.0,0.0,0.3992905687928248,0.0,0.0,0.0,0.0,0.0,0.0,-12.624,0.0,0.0,0.0
128,0.0,0.0,0.0,0.3938076171875,0.0,0.0,0.0,0.0,0.0,0.0,0.059,0.0,0.0,0.0,0.0,0.0,0.0,0.3995455764431981,0.0,0.0,0.0,0.0,0.0,0.0,-12.668,0.0,0.0,0.0
129,0.0,0.0,0.0,0.3942412109375,0.0,0.0,0.0,0.0,0.0,0.0,0.054,0.0,0.0,0.0,0.0,0.0,0.0,0.39974690869687335,0.0,0.0,0.0,0.0,0.0,0.0,-12.92,0.0,0.0,0.0
130,0.0,0.0,0.0,0.3945302734375,0.0,0.0,0.0,0.0,0.0,0.0,0.037,0.0,0.0,0.0,0.0,0.0,0.0,0.3998891523069393,0.0,0.0,0.0,0.0,0.0,0.0,-12.92,0.0,0.0,0.0
131,0.0,0.0,0.0,0.394818359375,0.0,0.0,0.0,0.0,0.0,0.0,0.021,0.0,0.0,0.0,0.0,0.0,0.0,0.3999729698150163,0.0,0.0,0.0,0.0,0.0,0.0,-12.944,0.0,0.0,0.0
132,0.0,0.0,0.0,0.394818359375,0.0,0.0,0.0,0.0,0.0,0.0,0.018,0.0,0.0,0.0,0.0,0.0,0.0,0.39999996534701737,0.0,0.0,0.0,0.0,0.0,0.0,-12.736,0.0,0.0,0.0
133,0.0,0.0,0.0,0.394962890625,0.0,0.0,0.0,0.0,0.0,0.0,0.01,0.0,0.0,0.0,0.0,0.0,0.0,0.3999690540191227,0.0,0.0,0.0,0.0,0.0,0.0,-12.644,0.0,0.0,0.0
134,0.0,0.0,0.0,0.395107421875,0.0,0.0,0.0,0.0,0.0,0.0,0.016,0.0,0.0,0.0,0.0,0.0,0.0,0.3998815342241828,0.0,0.0,0.0,0.0,0.0,0.0,-12.668,0.0,0.0,0.0
135,0.0,0.0,0.0,0.395251953125,0.0,0.0,0.0,0.0,0.0,0.0,0.012,0.0,0.0,0.0,0.0,0.0,0.0,0.3997353050590505,0.0,0.0,0.0,0.0,0.0,0.0,-12.576,0.0,0.0,0.0
136,0.0,0.0,0.0,0.395251953125,0.0,0.0,0.0,0.0,0.0,0.0,0.009,0.0,0.0,0.0,0.0,0.0,0.0,0.3995327489675785,0.0,0.0,0.0,0.0,0.0,0.0,-12.736,0.0,0.0,0.0
137,0.0,0.0,0.0,0.395251953125,0.0,0.0,0.0,0.0,0.0,0.0,-0.001,0.0,0.0,0.0,0.0,0.0,0.0,0.3992696112762585,0.0,0.0,0.0,0.0,0.0,0.0,-12.6,0.0,0.0,0.0
138,0.0,0.0,0.0,0.395251953125,0.0,0.0,0.0,0.0,0.0,0.0,-0.001,0.0,0.0,0.0,0.0,0.0,0.0,0.39895211776282874,0.0,0.0,0.0,0.0,0.0,0.0,-12.552,0.0,0.0,0.0
139,0.0,0.0,0.0,0.395107421875,0.0,0.0,0.0,0.0,0.0,0.0,-0.011,0.0,0.0,0.0,0.0,0.0,0.0,0.39857667009189973,0.0,0.0,0.0,0.0,0.0,0.0,-12.392,0.0,0.0,0.0
140,0.0,0.0,0.0,0.395107421875,0.0,0.0,0.0,0.0,0.0,0.0,-0.005,0.0,0.0,0.0,0.0,0.0,0.0,0.3981416627734922,0.0,0.0,0.0,0.0,0.0,0.0,-12.232,0.0,0.0,0.0
141,0.0,0.0,0.0,0.395107421875,0.0,0.0,0.0,0.0,0.0,0.0,-0.001,0.0,0.0,0.0,0.0,0.0,0.0,0.3976537674120662,0.0,0.0,0.0,0.0,0.0,0.0,-12.28,0.0,0.0,0.0
142,0.0,0.0,0.0,0.395107421875,0.0,0.0,0.0,0.0,0.0,0.0,-0.001,0.0,0.0,0.0,0.0,0.0,0.0,0.3971090170754179,0.0,0.0,0.0,0.0,0.0,0.0,-12.232,0.0,0.0,0.0
143,0.0,0.0,0.0,0.394962890625,0.0,0.0,0.0,0.0,0.0,0.0,-0.005,0.0,0.0,0.0,0.0,0.0,0.0,0.3964901208457547,0.0,0.0,0.0,0.0,0.0,0.0,-12.164,0.0,0.0,0.0
144,0.0,0.0,0.0,0.395107421875,0.0,0.0,0.0,0.0,0.0,0.0,-0.006,0.0,0.0,0.0,0.0,0.0,0.0,0.395840783675077,0.0,0.0,0.0,0.0,0.0,0.0,-12.164,0.0,0.0,0.0
145,0.0,0.0,0.0,0.395107421875,0.0,0.0,0.0,0.0,0.0,0.0,0.01,0.0,0.0,0.0,0.0,0.0,0.0,0.3951186940569331,0.0,0.0,0.0,0.0,0.0,0.0,-12.256,0.0,0.0,0.0
146,0.0,0.0,0.0,0.395107421875,0.0,0.0,0.0,0.0,0.0,0.0,-0.001,0.0,0.0,0.0,0.0,0.0,0.0,0.39434123300127866,0.0,0.0,0.0,0.0,0.0,0.0,-12.348,0.0,0.0,0.0
147,0.0,0.0,0.0,0.394962890625,0.0,0.0,0.0,0.0,0.0,0.0,-0.004,0.0,0.0,0.0,0.0,0.0,0.0,0.39350417594568676,0.0,0.0,0.0,0.0,0.0,0.0,-12.692,0.0,0.0,0.0
148,0.0,0.0,0.0,0.3943857421875,0.0,0.0,0.0,0.0,0.0,0.0,-0.03,0.0,0.0,0.0,0.0,0.0,0.0,0.3926129512887464,0.0,0.0,0.0,0.0,0.0,0.0,-13.216,0.0,0.0,0.0
149,0.0,0.0,0.0,0.3936630859375,0.0,0.0,0.0,0.0,0.0,0.0,-0.07,0.0,0.0,0.0,0.0,0.0,0.0,0.39167155048815955,0.0,0.0,0.0,0.0,0.0,0.0,-13.08,0.0,0.0,0.0
150,0.0,0.0,0.0,0.39294140625,0.0,0.0,0.0,0.0,0.0,0.0,-0.074,0.0,0.0,0.0,0.0,0.0,0.0,0.39067114047996776,0.0,0.0,0.0,0.0,0.0,0.0,-13.264,0.0,0.0,0.0
151,0.0,0.0,0.0,0.391921875,0.0,0.0,0.0,0.0,0.0,0.0,-0.079,0.0,0.0,0.0,0.0,0.0,0.0,0.38960167452903893,0.0,0.0,0.0,0.0,0.0,0.0,-13.856,0.0,0.0,0.0
152,0.0,0.0,0.0,0.3909111328125,0.0,0.0,0.0,0.0,0.0,0.0,-0.114,0.0,0.0,0.0,0.0,0.0,0.0,0.3884897411945973,0.0,0.0,0.0,0.0,0.0,0.0,-13.628,0.0,0.0,0.0
153,0.0,0.0,0.0,0.390189453125,0.0,0.0,0.0,0.0,0.0,0.0,-0.081,0.0,0.0,0.0,0.0,0.0,0.0,0.38732997532584257,0.0,0.0,0.0,0.0,0.0,0.0,-14.04,0.0,0.0,0.0
154,0.0,0.0,0.0,0.3890166015625,0.0,0.0,0.0,0.0,0.0,0.0,-0.091,0.0,0.0,0.0,0.0,0.0,0.0,0.38610535356523146,0.0,0.0,0.0,0.0,0.0,0.0,-14.176,0.0,0.0,0.0
155,0.0,0.0,0.0,0.388005859375,0.0,0.0,0.0,0.0,0.0,0.0,-0.118,0.0,0.0,0.0,0.0,0.0,0.0,0.38481663986410997,0.0,0.0,0.0,0.0,0.0,0.0,-13.948,0.0,0.0,0.0
156,0.0,0.0,0.0,0.3867060546875,0.0,0.0,0.0,0.0,0.0,0.0,-0.111,0.0,0.0,0.0,0.0,0.0,0.0,0.3834489753594814,0.0,0.0,0.0,0.0,0.0,0.0,-13.972,0.0,0.0,0.0
157,0.0,0.0,0.0,0.3853984375,0.0,0.0,0.0,0.0,0.0,0.0,-0.135,0.0,0.0,0.0,0.0,0.0,0.0,0.3820877626547747,0.0,0.0,0.0,0.0,0.0,0.0,-13.604,0.0,0.0,0.0
158,0.0,0.0,0.0,0.3845322265625,0.0,0.0,0.0,0.0,0.0,0.0,-0.109,0.0,0.0,0.0,0.0,0.0,0.0,0.38063877978796623,0.0,0.0,0.0,0.0,0.0,0.0,-13.652,0.0,0.0,0.0
159,0.0,0.0,0.0,0.3827900390625,0.0,0.0,0.0,0.0,0.0,0.0,-0.123,0.0,0.0,0.0,0.0,0.0,0.0,0.37915006920605665,0.0,0.0,0.0,0.0,0.0,0.0,-14.108,0.0,0.0,0.0
160,0.0,0.0,0.0,0.3812021484375,0.0,0.0,0.0,0.0,0.0,0.0,-0.176,0.0,0.0,0.0,0.0,0.0,0.0,0.3775682830539564,0.0,0.0,0.0,0.0,0.0,0.0,-13.628,0.0,0.0,0.0
161,0.0,0.0,0.0,0.3797587890625,0.0,0.0,0.0,0.0,0.0,0.0,-0.152,0.0,0.0,0.0,0.0,0.0,0.0,0.3759641655904507,0.0,0.0,0.0,0.0,0.0,0.0,-13.56,0.0,0.0,0.0
162,0.0,0.0,0.0,0.377873046875,0.0,0.0,0.0,0.0,0.0,0.0,-0.164,0.0,0.0,0.0,0.0,0.0,0.0,0.3743086471147852,0.0,0.0,0.0,0.0,0.0,0.0,-13.356,0.0,0.0,0.0
163,0.0,0.0,0.0,0.376275390625,0.0,0.0,0.0,0.0,0.0,0.0,-0.18,0.0,0.0,0.0,0.0,0.0,0.0,0.372584689006189,0.0,0.0,0.0,0.0,0.0,0.0,-13.104,0.0,0.0,0.0
164,0.0,0.0,0.0,0.3743984375,0.0,0.0,0.0,0.0,0.0,0.0,-0.166,0.0,0.0,0.0,0.0,0.0,0.0,0.3708082594138277,0.0,0.0,0.0,0.0,0.0,0.0,-13.764,0.0,0.0,0.0
165,0.0,0.0,0.0,0.3725126953125,0.0,0.0,0.0,0.0,0.0,0.0,-0.191,0.0,0.0,0.0,0.0,0.0,0.0,0.368987301104297,0.0,0.0,0.0,0.0,0.0,0.0,-13.376,0.0,0.0,0.0
166,0.0,0.0,0.0,0.3707802734375,0.0,0.0,0.0,0.0,0.0,0.0,-0.186,0.0,0.0,0.0,0.0,0.0,0.0,0.36712512501069805,0.0,0.0,0.0,0.0,0.0,0.0,-13.308,0.0,0.0,0.0
167,0.0,0.0,0.0,0.3688857421875,0.0,0.0,0.0,0.0,0.0,0.0,-0.184,0.0,0.0,0.0,0.0,0.0,0.0,0.3651635137593361,0.0,0.0,0.0,0.0,0.0,0.0,-12.6,0.0,0.0,0.0
168,0.0,0.0,0.0,0.3670087890625,0.0,0.0,0.0,0.0,0.0,0.0,-0.185,0.0,0.0,0.0,0.0,0.0,0.0,0.3631839368121163,0.0,0.0,0.0,0.0,0.0,0.0,-13.192,0.0,0.0,0.0
169,0.0,0.0,0.0,0.364689453125,0.0,0.0,0.0,0.0,0.0,0.0,-0.219,0.0,0.0,0.0,0.0,0.0,0.0,0.36113765464538694,0.0,0.0,0.0,0.0,0.0,0.0,-13.676,0.0,0.0,0.0
170,0.0,0.0,0.0,0.363091796875,0.0,0.0,0.0,0.0,0.0,0.0,-0.204,0.0,0.0,0.0,0.0,0.0,0.0,0.3590593079132017,0.0,0.0,0.0,0.0,0.0,0.0,-13.444,0.0,0.0,0.0
171,0.0,0.0,0.0,0.3610712890625,0.0,0.0,0.0,0.0,0.0,0.0,-0.165,0.0,0.0,0.0,0.0,0.0,0.0,0.35691462677982455,0.0,0.0,0.0,0.0,0.0,0.0,-14.248,0.0,0.0,0.0
172,0.0,0.0,0.0,0.358751953125,0.0,0.0,0.0,0.0,0.0,0.0,-0.229,0.0,0.0,0.0,0.0,0.0,0.0,0.3547117219397639,0.0,0.0,0.0,0.0,0.0,0.0,-13.924,0.0,0.0,0.0
173,0.0,0.0,0.0,0.3570107421875,0.0,0.0,0.0,0.0,0.0,0.0,-0.208,0.0,0.0,0.0,0.0,0.0,0.0,0.35249265213260117,0.0,0.0,0.0,0.0,0.0,0.0,-14.04,0.0,0.0,0.0
174,0.0,0.0,0.0,0.3549892578125,0.0,0.0,0.0,0.0,0.0,0.0,-0.184,0.0,0.0,0.0,0.0,0.0,0.0,0.3501770949135434,0.0,0.0,0.0,0.0,0.0,0.0,-14.612,0.0,0.0,0.0
175,0.0,0.0,0.0,0.352669921875,0.0,0.0,0.0,0.0,0.0,0.0,-0.225,0.0,0.0,0.0,0.0,0.0,0.0,0.3478464611414059,0.0,0.0,0.0,0.0,0.0,0.0,-14.496,0.0,0.0,0.0
176,0.0,0.0,0.0,0.350486328125,0.0,0.0,0.0,0.0,0.0,0.0,-0.221,0.0,0.0,0.0,0.0,0.0,0.0,0.3454343855637311,0.0,0.0,0.0,0.0,0.0,0.0,-14.268,0.0,0.0,0.0
177,0.0,0.0,0.0,0.34846484375,0.0,0.0,0.0,0.0,0.0,0.0,-0.211,0.0,0.0,0.0,0.0,0.0,0.0,0.3429242064472638,0.0,0.0,0.0,0.0,0.0,0.0,-14.156,0.0,0.0,0.0
178,0.0,0.0,0.0,0.346291015625,0.0,0.0,0.0,0.0,0.0,0.0,-0.217,0.0,0.0,0.0,0.0,0.0,0.0,0.34052224172967976,0.0,0.0,0.0,0.0,0.0,0.0,-13.948,0.0,0.0,0.0
179,0.0,0.0,0.0,0.3439716796875,0.0,0.0,0.0,0.0,0.0,0.0,-0.221,0.0,0.0,0.0,0.0,0.0,0.0,0.33797092355186464,0.0,0.0,0.0,0.0,0.0,0.0,-14.2,0.0,0.0,0.0
180,0.0,0.0,0.0,0.34165234375,0.0,0.0,0.0,0.0,0.0,0.0,-0.234,0.0,0.0,0.0,0.0,0.0,0.0,0.33537292521190826,0.0,0.0,0.0,0.0,0.0,0.0,-14.156,0.0,0.0,0.0
181,0.0,0.0,0.0,0.3390537109375,0.0,0.0,0.0,0.0,0.0,0.0,-0.25,0.0,0.0,0.0,0.0,0.0,0.0,0.33272563873384364,0.0,0.0,0.0,0.0,0.0,0.0,-14.292,0.0,0.0,0.0
182,0.0,0.0,0.0,0.3363017578125,0.0,0.0,0.0,0.0,0.0,0.0,-0.267,0.0,0.0,0.0,0.0,0.0,0.0,0.3300602466939167,0.0,0.0,0.0,0.0,0.0,0.0,-13.788,0.0,0.0,0.0
183,0.0,0.0,0.0,0.333982421875,0.0,0.0,0.0,0.0,0.0,0.0,-0.262,0.0,0.0,0.0,0.0,0.0,0.0,0.32732687650040043,0.0,0.0,0.0,0.0,0.0,0.0,-13.332,0.0,0.0,0.0
184,0.0,0.0,0.0,0.3315107421875,0.0,0.0,0.0,0.0,0.0,0.0,-0.236,0.0,0.0,0.0,0.0,0.0,0.0,0.3245186732921897,0.0,0.0,0.0,0.0,0.0,0.0,-14.016,0.0,0.0,0.0
185,0.0,0.0,0.0,0.3287578125,0.0,0.0,0.0,0.0,0.0,0.0,-0.257,0.0,0.0,0.0,0.0,0.0,0.0,0.3216814459934586,0.0,0.0,0.0,0.0,0.0,0.0,-14.176,0.0,0.0,0.0
186,0.0,0.0,0.0,0.3261591796875,0.0,0.0,0.0,0.0,0.0,0.0,-0.278,0.0,0.0,0.0,0.0,0.0,0.0,0.31881997195327677,0.0,0.0,0.0,0.0,0.0,0.0,-14.428,0.0,0.0,0.0
187,0.0,0.0,0.0,0.3235517578125,0.0,0.0,0.0,0.0,0.0,0.0,-0.259,0.0,0.0,0.0,0.0,0.0,0.0,0.3159153635097636,0.0,0.0,0.0,0.0,0.0,0.0,-14.176,0.0,0.0,0.0
188,0.0,0.0,0.0,0.3202216796875,0.0,0.0,0.0,0.0,0.0,0.0,-0.29,0.0,0.0,0.0,0.0,0.0,0.0,0.31294276824238815,0.0,0.0,0.0,0.0,0.0,0.0,-14.612,0.0,0.0,0.0
189,0.0,0.0,0.0,0.317037109375,0.0,0.0,0.0,0.0,0.0,0.0,-0.34,0.0,0.0,0.0,0.0,0.0,0.0,0.30946747857047524,0.0,0.0,0.0,0.0,0.0,0.0,-13.356,0.0,0.0,0.0
190,0.0,0.0,0.0,0.3147177734375,0.0,0.0,0.0,0.0,0.0,0.0,-0.275,0.0,0.0,0.0,0.0,0.0,0.0,0.306885798051892,0.0,0.0,0.0,0.0,0.0,0.0,-13.856,0.0,0.0,0.0
191,0.0,0.0,0.0,0.311234375,0.0,0.0,0.0,0.0,0.0,0.0,-0.285,0.0,0.0,0.0,0.0,0.0,0.0,0.3037778827318471,0.0,0.0,0.0,0.0,0.0,0.0,-13.924,0.0,0.0,0.0
192,0.0,0.0,0.0,0.308337890625,0.0,0.0,0.0,0.0,0.0,0.0,-0.336,0.0,0.0,0.0,0.0,0.0,0.0,0.30057890966046424,0.0,0.0,0.0,0.0,0.0,0.0,-13.056,0.0,0.0,0.0
193,0.0,0.0,0.0,0.3051533203125,0.0,0.0,0.0,0.0,0.0,0.0,-0.281,0.0,0.0,0.0,0.0,0.0,0.0,0.2974121513636952,0.0,0.0,0.0,0.0,0.0,0.0,-14.428,0.0,0.0,0.0
194,0.0,0.0,0.0,0.30124609375,0.0,0.0,0.0,0.0,0.0,0.0,-0.362,0.0,0.0,0.0,0.0,0.0,0.0,0.29421679222665975,0.0,0.0,0.0,0.0,0.0,0.0,-14.016,0.0,0.0,0.0
195,0.0,0.0,0.0,0.298205078125,0.0,0.0,0.0,0.0,0.0,0.0,-0.361,0.0,0.0,0.0,0.0,0.0,0.0,0.2908921084131553,0.0,0.0,0.0,0.0,0.0,0.0,-14.108,0.0,0.0,0.0
196,0.0,0.0,0.0,0.2947216796875,0.0,0.0,0.0,0.0,0.0,0.0,-0.324,0.0,0.0,0.0,0.0,0.0,0.0,0.2876358912183424,0.0,0.0,0.0,0.0,0.0,0.0,-14.476,0.0,0.0,0.0
197,0.0,0.0,0.0,0.29152734375,0.0,0.0,0.0,0.0,0.0,0.0,-0.346,0.0,0.0,0.0,0.0,0.0,0.0,0.2842630769374143,0.0,0.0,0.0,0.0,0.0,0.0,-13.88,0.0,0.0,0.0
198,0.0,0.0,0.0,0.2889287109375,0.0,0.0,0.0,0.0,0.0,0.0,-0.289,0.0,0.0,0.0,0.0,0.0,0.0,0.2808763050771489,0.0,0.0,0.0,0.0,0.0,0.0,-14.156,0.0,0.0,0.0
199,0.0,0.0,0.0,0.2854453125,0.0,0.0,0.0,0.0,0.0,0.0,-0.3,0.0,0.0,0.0,0.0,0.0,0.0,0.2774576638509292,0.0,0.0,0.0,0.0,0.0,0.0,-14.888,0.0,0.0,0.0
200,0.0,0.0,0.0,0.2819716796875,0.0,0.0,0.0,0.0,0.0,0.0,-0.357,0.0,0.0,0.0,0.0,0.0,0.0,0.27397432778959735,0.0,0.0,0.0,0.0,0.0,0.0,-14.452,0.0,0.0,0.0
201,0.0,0.0,0.0,0.2787861328125,0.0,0.0,0.0,0.0,0.0,0.0,-0.327,0.0,0.0,0.0,0.0,0.0,0.0,0.27043294007905166,0.0,0.0,0.0,0.0,0.0,0.0,-14.156,0.0,0.0,0.0
202,0.0,0.0,0.0,0.2753125,0.0,0.0,0.0,0.0,0.0,0.0,-0.335,0.0,0.0,0.0,0.0,0.0,0.0,0.266874320175835,0.0,0.0,0.0,0.0,0.0,0.0,-13.72,0.0,0.0,0.0
203,0.0,0.0,0.0,0.2716845703125,0.0,0.0,0.0,0.0,0.0,0.0,-0.364,0.0,0.0,0.0,0.0,0.0,0.0,0.2633179674795021,0.0,0.0,0.0,0.0,0.0,0.0,-13.88,0.0,0.0,0.0
204,0.0,0.0,0.0,0.2685,0.0,0.0,0.0,0.0,0.0,0.0,-0.349,0.0,0.0,0.0,0.0,0.0,0.0,0.25966321817759414,0.0,0.0,0.0,0.0,0.0,0.0,-13.444,0.0,0.0,0.0
205,0.0,0.0,0.0,0.265025390625,0.0,0.0,0.0,0.0,0.0,0.0,-0.326,0.0,0.0,0.0,0.0,0.0,0.0,0.25595997193825104,0.0,0.0,0.0,0.0,0.0,0.0,-14.428,0.0,0.0,0.0
206,0.0,0.0,0.0,0.260974609375,0.0,0.0,0.0,0.0,0.0,0.0,-0.382,0.0,0.0,0.0,0.0,0.0,0.0,0.25229841754225285,0.0,0.0,0.0,0.0,0.0,0.0,-14.268,0.0,0.0,0.0
207,0.0,0.0,0.0,0.2573466796875,0.0,0.0,0.0,0.0,0.0,0.0,-0.39,0.0,0.0,0.0,0.0,0.0,0.0,0.24851237575277813,0.0,0.0,0.0,0.0,0.0,0.0,-13.812,0.0,0.0,0.0
208,0.0,0.0,0.0,0.2540078125,0.0,0.0,0.0,0.0,0.0,0.0,-0.356,0.0,0.0,0.0,0.0,0.0,0.0,0.2447591527939728,0.0,0.0,0.0,0.0,0.0,0.0,-13.356,0.0,0.0,0.0
209,0.0,0.0,0.0,0.2502451171875,0.0,0.0,0.0,0.0,0.0,0.0,-0.34,0.0,0.0,0.0,0.0,0.0,0.0,0.2409454939928194,0.0,0.0,0.0,0.0,0.0,0.0,-14.568,0.0,0.0,0.0
210,0.0,0.0,0.0,0.2459052734375,0.0,0.0,0.0,0.0,0.0,0.0,-0.416,0.0,0.0,0.0,0.0,0.0,0.0,0.23708368914665312,0.0,0.0,0.0,0.0,0.0,0.0,-13.764,0.0,0.0,0.0
211,0.0,0.0,0.0,0.2424306640625,0.0,0.0,0.0,0.0,0.0,0.0,-0.398,0.0,0.0,0.0,0.0,0.0,0.0,0.2331963464362509,0.0,0.0,0.0,0.0,0.0,0.0,-14.496,0.0,0.0,0.0
212,0.0,0.0,0.0,0.23779296875,0.0,0.0,0.0,0.0,0.0,0.0,-0.395,0.0,0.0,0.0,0.0,0.0,0.0,0.22928369457420106,0.0,0.0,0.0,0.0,0.0,0.0,-14.704,0.0,0.0,0.0
213,0.0,0.0,0.0,0.233732421875,0.0,0.0,0.0,0.0,0.0,0.0,-0.453,0.0,0.0,0.0,0.0,0.0,0.0,0.22531152212949085,0.0,0.0,0.0,0.0,0.0,0.0,-13.88,0.0,0.0,0.0
214,0.0,0.0,0.0,0.2301142578125,0.0,0.0,0.0,0.0,0.0,0.0,-0.391,0.0,0.0,0.0,0.0,0.0,0.0,0.22122854864944608,0.0,0.0,0.0,0.0,0.0,0.0,-14.568,0.0,0.0,0.0
215,0.0,0.0,0.0,0.226630859375,0.0,0.0,0.0,0.0,0.0,0.0,-0.35,0.0,0.0,0.0,0.0,0.0,0.0,0.2173390693616819,0.0,0.0,0.0,0.0,0.0,0.0,-14.888,0.0,0.0,0.0
216,0.0,0.0,0.0,0.2228681640625,0.0,0.0,0.0,0.0,0.0,0.0,-0.363,0.0,0.0,0.0,0.0,0.0,0.0,0.21330559867421545,0.0,0.0,0.0,0.0,0.0,0.0,-15.276,0.0,0.0,0.0
217,0.0,0.0,0.0,0.21925,0.0,0.0,0.0,0.0,0.0,0.0,-0.384,0.0,0.0,0.0,0.0,0.0,0.0,0.2091848214306929,0.0,0.0,0.0,0.0,0.0,0.0,-14.496,0.0,0.0,0.0
218,0.0,0.0,0.0,0.2150537109375,0.0,0.0,0.0,0.0,0.0,0.0,-0.372,0.0,0.0,0.0,0.0,0.0,0.0,0.20512139161329387,0.0,0.0,0.0,0.0,0.0,0.0,-14.52,0.0,0.0,0.0
219,0.0,0.0,0.0,0.2104072265625,0.0,0.0,0.0,0.0,0.0,0.0,-0.45,0.0,0.0,0.0,0.0,0.0,0.0,0.20091702704495262,0.0,0.0,0.0,0.0,0.0,0.0,-13.424,0.0,0.0,0.0
220,0.0,0.0,0.0,0.2065,0.0,0.0,0.0,0.0,0.0,0.0,-0.433,0.0,0.0,0.0,0.0,0.0,0.0,0.19679346463936762,0.0,0.0,0.0,0.0,0.0,0.0,-14.064,0.0,0.0,0.0
221,0.0,0.0,0.0,0.202294921875,0.0,0.0,0.0,0.0,0.0,0.0,-0.404,0.0,0.0,0.0,0.0,0.0,0.0,0.19265225204100325,0.0,0.0,0.0,0.0,0.0,0.0,-14.336,0.0,0.0,0.0
222,0.0,0.0,0.0,0.1980986328125,0.0,0.0,0.0,0.0,0.0,0.0,-0.429,0.0,0.0,0.0,0.0,0.0,0.0,0.18842340991486772,0.0,0.0,0.0,0.0,0.0,0.0,-14.316,0.0,0.0,0.0
223,0.0,0.0,0.0,0.19375,0.0,0.0,0.0,0.0,0.0,0.0,-0.428,0.0,0.0,0.0,0.0,0.0,0.0,0.18412211761622113,0.0,0.0,0.0,0.0,0.0,0.0,-14.292,0.0,0.0,0.0
224,0.0,0.0,0.0,0.189833984375,0.0,0.0,0.0,0.0,0.0,0.0,-0.423,0.0,0.0,0.0,0.0,0.0,0.0,0.1798699998637196,0.0,0.0,0.0,0.0,0.0,0.0,-13.744,0.0,0.0,0.0
225,0.0,0.0,0.0,0.1854931640625,0.0,0.0,0.0,0.0,0.0,0.0,-0.414,0.0,0.0,0.0,0.0,0.0,0.0,0.17558196718156902,0.0,0.0,0.0,0.0,0.0,0.0,-13.676,0.0,0.0,0.0
226,0.0,0.0,0.0,0.1810087890625,0.0,0.0,0.0,0.0,0.0,0.0,-0.444,0.0,0.0,0.0,0.0,0.0,0.0,0.17125658945684374,0.0,0.0,0.0,0.0,0.0,0.0,-13.904,0.0,0.0,0.0
227,0.0,0.0,0.0,0.1765146484375,0.0,0.0,0.0,0.0,0.0,0.0,-0.447,0.0,0.0,0.0,0.0,0.0,0.0,0.16688824654482015,0.0,0.0,0.0,0.0,0.0,0.0,-15.092,0.0,0.0,0.0
228,0.0,0.0,0.0,0.172021484375,0.0,0.0,0.0,0.0,0.0,0.0,-0.458,0.0,0.0,0.0,0.0,0.0,0.0,0.16252975982365686,0.0,0.0,0.0,0.0,0.0,0.0,-14.176,0.0,0.0,0.0
229,0.0,0.0,0.0,0.1683935546875,0.0,0.0,0.0,0.0,0.0,0.0,-0.419,0.0,0.0,0.0,0.0,0.0,0.0,0.158087381870168,0.0,0.0,0.0,0.0,0.0,0.0,-13.948,0.0,0.0,0.0
230,0.0,0.0,0.0,0.1641982421875,0.0,0.0,0.0,0.0,0.0,0.0,-0.379,0.0,0.0,0.0,0.0,0.0,0.0,0.15371295757048303,0.0,0.0,0.0,0.0,0.0,0.0,-14.796,0.0,0.0,0.0
231,0.0,0.0,0.0,0.159857421875,0.0,0.0,0.0,0.0,0.0,0.0,-0.442,0.0,0.0,0.0,0.0,0.0,0.0,0.1493030546931514,0.0,0.0,0.0,0.0,0.0,0.0,-14.408,0.0,0.0,0.0
232,0.0,0.0,0.0,0.15651953125,0.0,0.0,0.0,0.0,0.0,0.0,-0.393,0.0,0.0,0.0,0.0,0.0,0.0,0.14479099808262705,0.0,0.0,0.0,0.0,0.0,0.0,-14.316,0.0,0.0,0.0
233,0.0,0.0,0.0,0.152314453125,0.0,0.0,0.0,0.0,0.0,0.0,-0.358,0.0,0.0,0.0,0.0,0.0,0.0,0.14032279929721408,0.0,0.0,0.0,0.0,0.0,0.0,-14.156,0.0,0.0,0.0
234,0.0,0.0,0.0,0.147541015625,0.0,0.0,0.0,0.0,0.0,0.0,-0.459,0.0,0.0,0.0,0.0,0.0,0.0,0.13578309006483938,0.0,0.0,0.0,0.0,0.0,0.0,-13.492,0.0,0.0,0.0
235,0.0,0.0,0.0,0.143046875,0.0,0.0,0.0,0.0,0.0,0.0,-0.47,0.0,0.0,0.0,0.0,0.0,0.0,0.1304873902529333,0.0,0.0,0.0,0.0,0.0,0.0,-14.748,0.0,0.0,0.0
236,0.0,0.0,0.0,0.1382734375,0.0,0.0,0.0,0.0,0.0,0.0,-0.458,0.0,0.0,0.0,0.0,0.0,0.0,0.12678859825301766,0.0,0.0,0.0,0.0,0.0,0.0,-14.292,0.0,0.0,0.0
237,0.0,0.0,0.0,0.1340595703125,0.0,0.0,0.0,0.0,0.0,0.0,-0.458,0.0,0.0,0.0,0.0,0.0,0.0,0.12223308807657152,0.0,0.0,0.0,0.0,0.0,0.0,-13.652,0.0,0.0,0.0
238,0.0,0.0,0.0,0.1297197265625,0.0,0.0,0.0,0.0,0.0,0.0,-0.427,0.0,0.0,0.0,0.0,0.0,0.0,0.11757962730493139,0.0,0.0,0.0,0.0,0.0,0.0,-14.84,0.0,0.0,0.0
239,0.0,0.0,0.0,0.12479296875,0.0,0.0,0.0,0.0,0.0,0.0,-0.469,0.0,0.0,0.0,0.0,0.0,0.0,0.11296906338295992,0.0,0.0,0.0,0.0,0.0,0.0,-14.748,0.0,0.0,0.0
240,0.0,0.0,0.0,0.1203076171875,0.0,0.0,0.0,0.0,0.0,0.0,-0.478,0.0,0.0,0.0,0.0,0.0,0.0,0.10841836190569909,0.0,0.0,0.0,0.0,0.0,0.0,-14.636,0.0,0.0,0.0
241,0.0,0.0,0.0,0.116103515625,0.0,0.0,0.0,0.0,0.0,0.0,-0.436,0.0,0.0,0.0,0.0,0.0,0.0,0.10377642661017115,0.0,0.0,0.0,0.0,0.0,0.0,-13.836,0.0,0.0,0.0
242,0.0,0.0,0.0,0.1118984375,0.0,0.0,0.0,0.0,0.0,0.0,-0.418,0.0,0.0,0.0,0.0,0.0,0.0,0.09915116676955647,0.0,0.0,0.0,0.0,0.0,0.0,-14.612,0.0,0.0,0.0
243,0.0,0.0,0.0,0.1068271484375,0.0,0.0,0.0,0.0,0.0,0.0,-0.467,0.0,0.0,0.0,0.0,0.0,0.0,0.09444168020283508,0.0,0.0,0.0,0.0,0.0,0.0,-15.228,0.0,0.0,0.0
244,0.0,0.0,0.0,0.1023427734375,0.0,0.0,0.0,0.0,0.0,0.0,-0.492,0.0,0.0,0.0,0.0,0.0,0.0,0.08982077619568107,0.0,0.0,0.0,0.0,0.0,0.0,-15.64,0.0,0.0,0.0
245,0.0,0.0,0.0,0.098001953125,0.0,0.0,0.0,0.0,0.0,0.0,-0.44,0.0,0.0,0.0,0.0,0.0,0.0,0.08511117742418485,0.0,0.0,0.0,0.0,0.0,0.0,-14.568,0.0,0.0,0.0
246,0.0,0.0,0.0,0.0933642578125,0.0,0.0,0.0,0.0,0.0,0.0,-0.444,0.0,0.0,0.0,0.0,0.0,0.0,0.08040667589503897,0.0,0.0,0.0,0.0,0.0,0.0,-14.248,0.0,0.0,0.0
247,0.0,0.0,0.0,0.0881484375,0.0,0.0,0.0,0.0,0.0,0.0,-0.496,0.0,0.0,0.0,0.0,0.0,0.0,0.07567493456319914,0.0,0.0,0.0,0.0,0.0,0.0,-13.88,0.0,0.0,0.0
248,0.0,0.0,0.0,0.083953125,0.0,0.0,0.0,0.0,0.0,0.0,-0.485,0.0,0.0,0.0,0.0,0.0,0.0,0.07099874636542575,0.0,0.0,0.0,0.0,0.0,0.0,-14.544,0.0,0.0,0.0
249,0.0,0.0,0.0,0.0787373046875,0.0,0.0,0.0,0.0,0.0,0.0,-0.456,0.0,0.0,0.0,0.0,0.0,0.0,0.06629412163137385,0.0,0.0,0.0,0.0,0.0,0.0,-15.368,0.0,0.0,0.0
250,0.0,0.0,0.0,0.0733681640625,0.0,0.0,0.0,0.0,0.0,0.0,-0.543,0.0,0.0,0.0,0.0,0.0,0.0,0.06139832720212088,0.0,0.0,0.0,0.0,0.0,0.0,-13.836,0.0,0.0,0.0
251,0.0,0.0,0.0,0.0694609375,0.0,0.0,0.0,0.0,0.0,0.0,-0.475,0.0,0.0,0.0,0.0,0.0,0.0,0.05679443967363084,0.0,0.0,0.0,0.0,0.0,0.0,-13.444,0.0,0.0,0.0
252,0.0,0.0,0.0,0.0649677734375,0.0,0.0,0.0,0.0,0.0,0.0,-0.411,0.0,0.0,0.0,0.0,0.0,0.0,0.052024802525453134,0.0,0.0,0.0,0.0,0.0,0.0,-14.176,0.0,0.0,0.0
253,0.0,0.0,0.0,0.0599052734375,0.0,0.0,0.0,0.0,0.0,0.0,-0.493,0.0,0.0,0.0,0.0,0.0,0.0,0.04722240070932637,0.0,0.0,0.0,0.0,0.0,0.0,-14.176,0.0,0.0,0.0
254,0.0,0.0,0.0,0.055412109375,0.0,0.0,0.0,0.0,0.0,0.0,-0.483,0.0,0.0,0.0,0.0,0.0,0.0,0.042484662512023035,0.0,0.0,0.0,0.0,0.0,0.0,-15.388,0.0,0.0,0.0
255,0.0,0.0,0.0,0.0497626953125,0.0,0.0,0.0,0.0,0.0,0.0,-0.494,0.0,0.0,0.0,0.0,0.0,0.0,0.037696910946889595,0.0,0.0,0.0,0.0,0.0,0.0,-15.756,0.0,0.0,0.0
256,0.0,0.0,0.0,0.0442587890625,0.0,0.0,0.0,0.0,0.0,0.0,-0.576,0.0,0.0,0.0,0.0,0.0,0.0,0.03295251835879775,0.0,0.0,0.0,0.0,0.0,0.0,-13.856,0.0,0.0,0.0
257,0.0,0.0,0.0,0.0400537109375,0.0,0.0,0.0,0.0,0.0,0.0,-0.487,0.0,0.0,0.0,0.0,0.0,0.0,0.028130164787463243,0.0,0.0,0.0,0.0,0.0,0.0,-14.52,0.0,0.0,0.0
258,0.0,0.0,0.0,0.0349912109375,0.0,0.0,0.0,0.0,0.0,0.0,-0.455,0.0,0.0,0.0,0.0,0.0,0.0,0.023386641163448598,0.0,0.0,0.0,0.0,0.0,0.0,-15.0,0.0,0.0,0.0
259,0.0,0.0,0.0,0.0304892578125,0.0,0.0,0.0,0.0,0.0,0.0,-0.494,0.0,0.0,0.0,0.0,0.0,0.0,0.01857362538454992,0.0,0.0,0.0,0.0,0.0,0.0,-14.748,0.0,0.0,0.0
260,0.0,0.0,0.0,0.0258603515625,0.0,0.0,0.0,0.0,0.0,0.0,-0.443,0.0,0.0,0.0,0.0,0.0,0.0,0.013743502027450059,0.0,0.0,0.0,0.0,0.0,0.0,-15.732,0.0,0.0,0.0
261,0.0,0.0,0.0,0.0200673828125,0.0,0.0,0.0,0.0,0.0,0.0,-0.527,0.0,0.0,0.0,0.0,0.0,0.0,0.009009308256410517,0.0,0.0,0.0,0.0,0.0,0.0,-13.924,0.0,0.0,0.0
262,0.0,0.0,0.0,0.0165927734375,0.0,0.0,0.0,0.0,0.0,0.0,-0.504,0.0,0.0,0.0,0.0,0.0,0.0,0.004185508002490641,0.0,0.0,0.0,0.0,0.0,0.0,-11.572,0.0,0.0,0.0
263,0.0,0.0,0.0,0.0141298828125,0.0,0.0,0.0,0.0,0.0,0.0,-0.286,0.0,0.0,0.0,0.0,0.0,0.0,-0.0006576694079052852,0.0,0.0,0.0,0.0,0.0,0.0,-12.052,0.0,0.0,0.0
264,0.0,0.0,0.0,0.009626953125,0.0,0.0,0.0,0.0,0.0,0.0,-0.322,0.0,0.0,0.0,0.0,0.0,0.0,-0.005451659847974437,0.0,0.0,0.0,0.0,0.0,0.0,-14.336,0.0,0.0,0.0
265,0.0,0.0,0.0,0.005142578125,0.0,0.0,0.0,0.0,0.0,0.0,-0.477,0.0,0.0,0.0,0.0,0.0,0.0,-0.010266603794169524,0.0,0.0,0.0,0.0,0.0,0.0,-15.092,0.0,0.0,0.0
266,0.0,0.0,0.0,0.00050390625,0.0,0.0,0.0,0.0,0.0,0.0,-0.436,0.0,0.0,0.0,0.0,0.0,0.0,-0.01503683155279388,0.0,0.0,0.0,0.0,0.0,0.0,-15.8,0.0,0.0,0.0
267,0.0,0.0,0.0,-0.005865234375,0.0,0.0,0.0,0.0,0.0,0.0,-0.544,0.0,0.0,0.0,0.0,0.0,0.0,-0.019822635210534897,0.0,0.0,0.0,0.0,0.0,0.0,-12.828,0.0,0.0,0.0
268,0.0,0.0,0.0,-0.0107919921875,0.0,0.0,0.0,0.0,0.0,0.0,-0.595,0.0,0.0,0.0,0.0,0.0,0.0,-0.024632895394505132,0.0,0.0,0.0,0.0,0.0,0.0,-13.012,0.0,0.0,0.0
269,0.0,0.0,0.0,-0.01571875,0.0,0.0,0.0,0.0,0.0,0.0,-0.481,0.0,0.0,0.0,0.0,0.0,0.0,-0.029380690544494305,0.0,0.0,0.0,0.0,0.0,0.0,-16.212,0.0,0.0,0.0
270,0.0,0.0,0.0,-0.0209345703125,0.0,0.0,0.0,0.0,0.0,0.0,-0.521,0.0,0.0,0.0,0.0,0.0,0.0,-0.03418567179909323,0.0,0.0,0.0,0.0,0.0,0.0,-17.06,0.0,0.0,0.0
271,0.0,0.0,0.0,-0.0255634765625,0.0,0.0,0.0,0.0,0.0,0.0,-0.502,0.0,0.0,0.0,0.0,0.0,0.0,-0.03897122392442409,0.0,0.0,0.0,0.0,0.0,0.0,-16.9,0.0,0.0,0.0
272,0.0,0.0,0.0,-0.0310771484375,0.0,0.0,0.0,0.0,0.0,0.0,-0.496,0.0,0.0,0.0,0.0,0.0,0.0,-0.04382133660533132,0.0,0.0,0.0,0.0,0.0,0.0,-15.0,0.0,0.0,0.0
273,0.0,0.0,0.0,-0.0362919921875,0.0,0.0,0.0,0.0,0.0,0.0,-0.552,0.0,0.0,0.0,0.0,0.0,0.0,-0.04850579219802135,0.0,0.0,0.0,0.0,0.0,0.0,-13.536,0.0,0.0,0.0
274,0.0,0.0,0.0,-0.0410654296875,0.0,0.0,0.0,0.0,0.0,0.0,-0.496,0.0,0.0,0.0,0.0,0.0,0.0,-0.05331008481014793,0.0,0.0,0.0,0.0,0.0,0.0,-14.976,0.0,0.0,0.0
275,0.0,0.0,0.0,-0.04628125,0.0,0.0,0.0,0.0,0.0,0.0,-0.507,0.0,0.0,0.0,0.0,0.0,0.0,-0.05806851587331305,0.0,0.0,0.0,0.0,0.0,0.0,-15.048,0.0,0.0,0.0
276,0.0,0.0,0.0,-0.05119921875,0.0,0.0,0.0,0.0,0.0,0.0,-0.511,0.0,0.0,0.0,0.0,0.0,0.0,-0.06280296990982208,0.0,0.0,0.0,0.0,0.0,0.0,-15.068,0.0,0.0,0.0
277,0.0,0.0,0.0,-0.056423828125,0.0,0.0,0.0,0.0,0.0,0.0,-0.501,0.0,0.0,0.0,0.0,0.0,0.0,-0.06749333953014552,0.0,0.0,0.0,0.0,0.0,0.0,-14.156,0.0,0.0,0.0
278,0.0,0.0,0.0,-0.0613505859375,0.0,0.0,0.0,0.0,0.0,0.0,-0.519,0.0,0.0,0.0,0.0,0.0,0.0,-0.07223799814198191,0.0,0.0,0.0,0.0,0.0,0.0,-12.988,0.0,0.0,0.0
279,0.0,0.0,0.0,-0.06540234375,0.0,0.0,0.0,0.0,0.0,0.0,-0.464,0.0,0.0,0.0,0.0,0.0,0.0,-0.07695611385966067,0.0,0.0,0.0,0.0,0.0,0.0,-12.872,0.0,0.0,0.0
280,0.0,0.0,0.0,-0.0700400390625,0.0,0.0,0.0,0.0,0.0,0.0,-0.428,0.0,0.0,0.0,0.0,0.0,0.0,-0.08163344861836162,0.0,0.0,0.0,0.0,0.0,0.0,-14.384,0.0,0.0,0.0
281,0.0,0.0,0.0,-0.075111328125,0.0,0.0,0.0,0.0,0.0,0.0,-0.495,0.0,0.0,0.0,0.0,0.0,0.0,-0.08634565030539161,0.0,0.0,0.0,0.0,0.0,0.0,-14.772,0.0,0.0,0.0
282,0.0,0.0,0.0,-0.0797490234375,0.0,0.0,0.0,0.0,0.0,0.0,-0.488,0.0,0.0,0.0,0.0,0.0,0.0,-0.09106504044548343,0.0,0.0,0.0,0.0,0.0,0.0,-14.956,0.0,0.0,0.0
283,0.0,0.0,0.0,-0.0848115234375,0.0,0.0,0.0,0.0,0.0,0.0,-0.485,0.0,0.0,0.0,0.0,0.0,0.0,-0.09569131761298723,0.0,0.0,0.0,0.0,0.0,0.0,-13.696,0.0,0.0,0.0
284,0.0,0.0,0.0,-0.08916015625,0.0,0.0,0.0,0.0,0.0,0.0,-0.486,0.0,0.0,0.0,0.0,0.0,0.0,-0.10034582195725372,0.0,0.0,0.0,0.0,0.0,0.0,-13.24,0.0,0.0,0.0
285,0.0,0.0,0.0,-0.0935009765625,0.0,0.0,0.0,0.0,0.0,0.0,-0.424,0.0,0.0,0.0,0.0,0.0,0.0,-0.10502717096263309,0.0,0.0,0.0,0.0,0.0,0.0,-14.656,0.0,0.0,0.0
286,0.0,0.0,0.0,-0.0981474609375,0.0,0.0,0.0,0.0,0.0,0.0,-0.463,0.0,0.0,0.0,0.0,0.0,0.0,-0.10957579725875484,0.0,0.0,0.0,0.0,0.0,0.0,-14.016,0.0,0.0,0.0
287,0.0,0.0,0.0,-0.10277734375,0.0,0.0,0.0,0.0,0.0,0.0,-0.452,0.0,0.0,0.0,0.0,0.0,0.0,-0.11423572611096439,0.0,0.0,0.0,0.0,0.0,0.0,-15.136,0.0,0.0,0.0
288,0.0,0.0,0.0,-0.1079921875,0.0,0.0,0.0,0.0,0.0,0.0,-0.497,0.0,0.0,0.0,0.0,0.0,0.0,-0.11882244989123068,0.0,0.0,0.0,0.0,0.0,0.0,-13.356,0.0,0.0,0.0
289,0.0,0.0,0.0,-0.1121884765625,0.0,0.0,0.0,0.0,0.0,0.0,-0.486,0.0,0.0,0.0,0.0,0.0,0.0,-0.12338480736214977,0.0,0.0,0.0,0.0,0.0,0.0,-13.012,0.0,0.0,0.0
290,0.0,0.0,0.0,-0.117404296875,0.0,0.0,0.0,0.0,0.0,0.0,-0.456,0.0,0.0,0.0,0.0,0.0,0.0,-0.12800441600138246,0.0,0.0,0.0,0.0,0.0,0.0,-14.636,0.0,0.0,0.0
291,0.0,0.0,0.0,-0.1220419921875,0.0,0.0,0.0,0.0,0.0,0.0,-0.517,0.0,0.0,0.0,0.0,0.0,0.0,-0.13389324313179787,0.0,0.0,0.0,0.0,0.0,0.0,-14.04,0.0,0.0,0.0
292,0.0,0.0,0.0,-0.1262470703125,0.0,0.0,0.0,0.0,0.0,0.0,-0.437,0.0,0.0,0.0,0.0,0.0,0.0,-0.1372549183391172,0.0,0.0,0.0,0.0,0.0,0.0,-15.184,0.0,0.0,0.0
293,0.0,0.0,0.0,-0.1317421875,0.0,0.0,0.0,0.0,0.0,0.0,-0.482,0.0,0.0,0.0,0.0,0.0,0.0,-0.1415581735185265,0.0,0.0,0.0,0.0,0.0,0.0,-13.88,0.0,0.0,0.0
294,0.0,0.0,0.0,-0.135513671875,0.0,0.0,0.0,0.0,0.0,0.0,-0.485,0.0,0.0,0.0,0.0,0.0,0.0,-0.14598897304292865,0.0,0.0,0.0,0.0,0.0,0.0,-12.76,0.0,0.0,0.0
295,0.0,0.0,0.0,-0.1391318359375,0.0,0.0,0.0,0.0,0.0,0.0,-0.354,0.0,0.0,0.0,0.0,0.0,0.0,-0.15044151237916206,0.0,0.0,0.0,0.0,0.0,0.0,-14.68,0.0,0.0,0.0
296,0.0,0.0,0.0,-0.14434765625,0.0,0.0,0.0,0.0,0.0,0.0,-0.443,0.0,0.0,0.0,0.0,0.0,0.0,-0.15488700512564688,0.0,0.0,0.0,0.0,0.0,0.0,-15.048,0.0,0.0,0.0
297,0.0,0.0,0.0,-0.148408203125,0.0,0.0,0.0,0.0,0.0,0.0,-0.481,0.0,0.0,0.0,0.0,0.0,0.0,-0.1593215469833131,0.0,0.0,0.0,0.0,0.0,0.0,-15.596,0.0,0.0,0.0
298,0.0,0.0,0.0,-0.153037109375,0.0,0.0,0.0,0.0,0.0,0.0,-0.426,0.0,0.0,0.0,0.0,0.0,0.0,-0.16365931988621774,0.0,0.0,0.0,0.0,0.0,0.0,-14.976,0.0,0.0,0.0
299,0.0,0.0,0.0,-0.1573779296875,0.0,0.0,0.0,0.0,0.0,0.0,-0.472,0.0,0.0,0.0,0.0,0.0,0.0,-0.16804035873779033,0.0,0.0,0.0,0.0,0.0,0.0,-11.66,0.0,0.0,0.0
300,0.0,0.0,0.0,-0.1607158203125,0.0,0.0,0.0,0.0,0.0,0.0,-0.374,0.0,0.0,0.0,0.0,0.0,0.0,-0.17241605529147985,0.0,0.0,0.0,0.0,0.0,0.0,-13.744,0.0,0.0,0.0
301,0.0,0.0,0.0,-0.166076171875,0.0,0.0,0.0,0.0,0.0,0.0,-0.428,0.0,0.0,0.0,0.0,0.0,0.0,-0.17670978276750726,0.0,0.0,0.0,0.0,0.0,0.0,-14.864,0.0,0.0,0.0
302,0.0,0.0,0.0,-0.1699833984375,0.0,0.0,0.0,0.0,0.0,0.0,-0.491,0.0,0.0,0.0,0.0,0.0,0.0,-0.18100101477130326,0.0,0.0,0.0,0.0,0.0,0.0,-14.176,0.0,0.0,0.0
303,0.0,0.0,0.0,-0.1741884765625,0.0,0.0,0.0,0.0,0.0,0.0,-0.375,0.0,0.0,0.0,0.0,0.0,0.0,-0.18528456689760012,0.0,0.0,0.0,0.0,0.0,0.0,-15.228,0.0,0.0,0.0
304,0.0,0.0,0.0,-0.1798369140625,0.0,0.0,0.0,0.0,0.0,0.0,-0.511,0.0,0.0,0.0,0.0,0.0,0.0,-0.18950434900937327,0.0,0.0,0.0,0.0,0.0,0.0,-12.712,0.0,0.0,0.0
305,0.0,0.0,0.0,-0.183599609375,0.0,0.0,0.0,0.0,0.0,0.0,-0.491,0.0,0.0,0.0,0.0,0.0,0.0,-0.19372955097017347,0.0,0.0,0.0,0.0,0.0,0.0,-13.628,0.0,0.0,0.0
306,0.0,0.0,0.0,-0.1879404296875,0.0,0.0,0.0,0.0,0.0,0.0,-0.391,0.0,0.0,0.0,0.0,0.0,0.0,-0.1982677132904313,0.0,0.0,0.0,0.0,0.0,0.0,-14.656,0.0,0.0,0.0
307,0.0,0.0,0.0,-0.19214453125,0.0,0.0,0.0,0.0,0.0,0.0,-0.449,0.0,0.0,0.0,0.0,0.0,0.0,-0.20203128421776212,0.0,0.0,0.0,0.0,0.0,0.0,-13.744,0.0,0.0,0.0
308,0.0,0.0,0.0,-0.1959169921875,0.0,0.0,0.0,0.0,0.0,0.0,-0.385,0.0,0.0,0.0,0.0,0.0,0.0,-0.20620126241165315,0.0,0.0,0.0,0.0,0.0,0.0,-15.848,0.0,0.0,0.0
309,0.0,0.0,0.0,-0.201267578125,0.0,0.0,0.0,0.0,0.0,0.0,-0.46,0.0,0.0,0.0,0.0,0.0,0.0,-0.2103292593914338,0.0,0.0,0.0,0.0,0.0,0.0,-14.36,0.0,0.0,0.0
310,0.0,0.0,0.0,-0.20518359375,0.0,0.0,0.0,0.0,0.0,0.0,-0.491,0.0,0.0,0.0,0.0,0.0,0.0,-0.21435387001776235,0.0,0.0,0.0,0.0,0.0,0.0,-13.24,0.0,0.0,0.0
311,0.0,0.0,0.0,-0.208658203125,0.0,0.0,0.0,0.0,0.0,0.0,-0.354,0.0,0.0,0.0,0.0,0.0,0.0,-0.21837482548768505,0.0,0.0,0.0,0.0,0.0,0.0,-14.636,0.0,0.0,0.0
312,0.0,0.0,0.0,-0.2132958984375,0.0,0.0,0.0,0.0,0.0,0.0,-0.412,0.0,0.0,0.0,0.0,0.0,0.0,-0.22249546576855042,0.0,0.0,0.0,0.0,0.0,0.0,-13.88,0.0,0.0,0.0
313,0.0,0.0,0.0,-0.2164814453125,0.0,0.0,0.0,0.0,0.0,0.0,-0.408,0.0,0.0,0.0,0.0,0.0,0.0,-0.22644061506739868,0.0,0.0,0.0,0.0,0.0,0.0,-14.36,0.0,0.0,0.0
314,0.0,0.0,0.0,-0.220099609375,0.0,0.0,0.0,0.0,0.0,0.0,-0.321,0.0,0.0,0.0,0.0,0.0,0.0,-0.23029073540373074,0.0,0.0,0.0,0.0,0.0,0.0,-14.568,0.0,0.0,0.0
315,0.0,0.0,0.0,-0.2248818359375,0.0,0.0,0.0,0.0,0.0,0.0,-0.427,0.0,0.0,0.0,0.0,0.0,0.0,-0.2342364964326299,0.0,0.0,0.0,0.0,0.0,0.0,-13.148,0.0,0.0,0.0
316,0.0,0.0,0.0,-0.2292216796875,0.0,0.0,0.0,0.0,0.0,0.0,-0.461,0.0,0.0,0.0,0.0,0.0,0.0,-0.23808037519160577,0.0,0.0,0.0,0.0,0.0,0.0,-13.88,0.0,0.0,0.0
317,0.0,0.0,0.0,-0.2335625,0.0,0.0,0.0,0.0,0.0,0.0,-0.438,0.0,0.0,0.0,0.0,0.0,0.0,-0.2419727076710738,0.0,0.0,0.0,0.0,0.0,0.0,-13.628,0.0,0.0,0.0
318,0.0,0.0,0.0,-0.2377763671875,0.0,0.0,0.0,0.0,0.0,0.0,-0.434,0.0,0.0,0.0,0.0,0.0,0.0,-0.24583708877828708,0.0,0.0,0.0,0.0,0.0,0.0,-13.444,0.0,0.0,0.0
319,0.0,0.0,0.0,-0.2415390625,0.0,0.0,0.0,0.0,0.0,0.0,-0.404,0.0,0.0,0.0,0.0,0.0,0.0,-0.24948008515944575,0.0,0.0,0.0,0.0,0.0,0.0,-13.836,0.0,0.0,0.0
320,0.0,0.0,0.0,-0.2451572265625,0.0,0.0,0.0,0.0,0.0,0.0,-0.38,0.0,0.0,0.0,0.0,0.0,0.0,-0.25325086689866416,0.0,0.0,0.0,0.0,0.0,0.0,-13.536,0.0,0.0,0.0
321,0.0,0.0,0.0,-0.248919921875,0.0,0.0,0.0,0.0,0.0,0.0,-0.357,0.0,0.0,0.0,0.0,0.0,0.0,-0.25698506794052384,0.0,0.0,0.0,0.0,0.0,0.0,-14.292,0.0,0.0,0.0
322,0.0,0.0,0.0,-0.2531162109375,0.0,0.0,0.0,0.0,0.0,0.0,-0.409,0.0,0.0,0.0,0.0,0.0,0.0,-0.2606171017063687,0.0,0.0,0.0,0.0,0.0,0.0,-13.628,0.0,0.0,0.0
323,0.0,0.0,0.0,-0.25658984375,0.0,0.0,0.0,0.0,0.0,0.0,-0.393,0.0,0.0,0.0,0.0,0.0,0.0,-0.26423133590536185,0.0,0.0,0.0,0.0,0.0,0.0,-13.444,0.0,0.0,0.0
324,0.0,0.0,0.0,-0.260650390625,0.0,0.0,0.0,0.0,0.0,0.0,-0.364,0.0,0.0,0.0,0.0,0.0,0.0,-0.26797163128461765,0.0,0.0,0.0,0.0,0.0,0.0,-13.72,0.0,0.0,0.0
325,0.0,0.0,0.0,-0.2647109375,0.0,0.0,0.0,0.0,0.0,0.0,-0.421,0.0,0.0,0.0,0.0,0.0,0.0,-0.2713248140442232,0.0,0.0,0.0,0.0,0.0,0.0,-13.788,0.0,0.0,0.0
326,0.0,0.0,0.0,-0.268041015625,0.0,0.0,0.0,0.0,0.0,0.0,-0.382,0.0,0.0,0.0,0.0,0.0,0.0,-0.27487359534034955,0.0,0.0,0.0,0.0,0.0,0.0,-14.084,0.0,0.0,0.0
327,0.0,0.0,0.0,-0.27108203125,0.0,0.0,0.0,0.0,0.0,0.0,-0.321,0.0,0.0,0.0,0.0,0.0,0.0,-0.2783480707499764,0.0,0.0,0.0,0.0,0.0,0.0,-13.652,0.0,0.0,0.0
328,0.0,0.0,0.0,-0.2745556640625,0.0,0.0,0.0,0.0,0.0,0.0,-0.31,0.0,0.0,0.0,0.0,0.0,0.0,-0.2817567906944207,0.0,0.0,0.0,0.0,0.0,0.0,-14.176,0.0,0.0,0.0
329,0.0,0.0,0.0,-0.278318359375,0.0,0.0,0.0,0.0,0.0,0.0,-0.371,0.0,0.0,0.0,0.0,0.0,0.0,-0.2851464827812527,0.0,0.0,0.0,0.0,0.0,0.0,-14.2,0.0,0.0,0.0
330,0.0,0.0,0.0,-0.2816484375,0.0,0.0,0.0,0.0,0.0,0.0,-0.362,0.0,0.0,0.0,0.0,0.0,0.0,-0.28849377351931127,0.0,0.0,0.0,0.0,0.0,0.0,-13.468,0.0,0.0,0.0
331,0.0,0.0,0.0,-0.2848330078125,0.0,0.0,0.0,0.0,0.0,0.0,-0.32,0.0,0.0,0.0,0.0,0.0,0.0,-0.2918004977029763,0.0,0.0,0.0,0.0,0.0,0.0,-12.944,0.0,0.0,0.0
332,0.0,0.0,0.0,-0.28831640625,0.0,0.0,0.0,0.0,0.0,0.0,-0.334,0.0,0.0,0.0,0.0,0.0,0.0,-0.2950686893058591,0.0,0.0,0.0,0.0,0.0,0.0,-12.712,0.0,0.0,0.0
333,0.0,0.0,0.0,-0.291646484375,0.0,0.0,0.0,0.0,0.0,0.0,-0.345,0.0,0.0,0.0,0.0,0.0,0.0,-0.2983165682114092,0.0,0.0,0.0,0.0,0.0,0.0,-13.56,0.0,0.0,0.0
334,0.0,0.0,0.0,-0.2951201171875,0.0,0.0,0.0,0.0,0.0,0.0,-0.341,0.0,0.0,0.0,0.0,0.0,0.0,-0.3014892120165649,0.0,0.0,0.0,0.0,0.0,0.0,-14.36,0.0,0.0,0.0
335,0.0,0.0,0.0,-0.2983056640625,0.0,0.0,0.0,0.0,0.0,0.0,-0.346,0.0,0.0,0.0,0.0,0.0,0.0,-0.3045973975877682,0.0,0.0,0.0,0.0,0.0,0.0,-13.216,0.0,0.0,0.0
336,0.0,0.0,0.0,-0.301779296875,0.0,0.0,0.0,0.0,0.0,0.0,-0.331,0.0,0.0,0.0,0.0,0.0,0.0,-0.30766848137888125,0.0,0.0,0.0,0.0,0.0,0.0,-13.628,0.0,0.0,0.0
337,0.0,0.0,0.0,-0.30496484375,0.0,0.0,0.0,0.0,0.0,0.0,-0.342,0.0,0.0,0.0,0.0,0.0,0.0,-0.3107067393587394,0.0,0.0,0.0,0.0,0.0,0.0,-12.828,0.0,0.0,0.0
338,0.0,0.0,0.0,-0.307716796875,0.0,0.0,0.0,0.0,0.0,0.0,-0.297,0.0,0.0,0.0,0.0,0.0,0.0,-0.313733758872048,0.0,0.0,0.0,0.0,0.0,0.0,-13.788,0.0,0.0,0.0
339,0.0,0.0,0.0,-0.31061328125,0.0,0.0,0.0,0.0,0.0,0.0,-0.296,0.0,0.0,0.0,0.0,0.0,0.0,-0.3167124875477978,0.0,0.0,0.0,0.0,0.0,0.0,-13.4,0.0,0.0,0.0
340,0.0,0.0,0.0,-0.313220703125,0.0,0.0,0.0,0.0,0.0,0.0,-0.273,0.0,0.0,0.0,0.0,0.0,0.0,-0.3195830751038147,0.0,0.0,0.0,0.0,0.0,0.0,-13.604,0.0,0.0,0.0
341,0.0,0.0,0.0,-0.3167041015625,0.0,0.0,0.0,0.0,0.0,0.0,-0.294,0.0,0.0,0.0,0.0,0.0,0.0,-0.32244922555103234,0.0,0.0,0.0,0.0,0.0,0.0,-13.628,0.0,0.0,0.0
342,0.0,0.0,0.0,-0.3197451171875,0.0,0.0,0.0,0.0,0.0,0.0,-0.34,0.0,0.0,0.0,0.0,0.0,0.0,-0.3252651963440012,0.0,0.0,0.0,0.0,0.0,0.0,-13.104,0.0,0.0,0.0
343,0.0,0.0,0.0,-0.3227861328125,0.0,0.0,0.0,0.0,0.0,0.0,-0.298,0.0,0.0,0.0,0.0,0.0,0.0,-0.32808052972739676,0.0,0.0,0.0,0.0,0.0,0.0,-14.108,0.0,0.0,0.0
344,0.0,0.0,0.0,-0.3259716796875,0.0,0.0,0.0,0.0,0.0,0.0,-0.318,0.0,0.0,0.0,0.0,0.0,0.0,-0.33074771664795355,0.0,0.0,0.0,0.0,0.0,0.0,-13.492,0.0,0.0,0.0
345,0.0,0.0,0.0,-0.3279921875,0.0,0.0,0.0,0.0,0.0,0.0,-0.278,0.0,0.0,0.0,0.0,0.0,0.0,-0.3334321151016033,0.0,0.0,0.0,0.0,0.0,0.0,-13.192,0.0,0.0,0.0
346,0.0,0.0,0.0,-0.330744140625,0.0,0.0,0.0,0.0,0.0,0.0,-0.222,0.0,0.0,0.0,0.0,0.0,0.0,-0.33605018155832855,0.0,0.0,0.0,0.0,0.0,0.0,-14.728,0.0,0.0,0.0
347,0.0,0.0,0.0,-0.3336416015625,0.0,0.0,0.0,0.0,0.0,0.0,-0.299,0.0,0.0,0.0,0.0,0.0,0.0,-0.3386544367153532,0.0,0.0,0.0,0.0,0.0,0.0,-13.604,0.0,0.0,0.0
348,0.0,0.0,0.0,-0.335662109375,0.0,0.0,0.0,0.0,0.0,0.0,-0.249,0.0,0.0,0.0,0.0,0.0,0.0,-0.3411699006131459,0.0,0.0,0.0,0.0,0.0,0.0,-13.856,0.0,0.0,0.0
349,0.0,0.0,0.0,-0.33884765625,0.0,0.0,0.0,0.0,0.0,0.0,-0.245,0.0,0.0,0.0,0.0,0.0,0.0,-0.34368271713464005,0.0,0.0,0.0,0.0,0.0,0.0,-14.156,0.0,0.0,0.0
350,0.0,0.0,0.0,-0.3416083984375,0.0,0.0,0.0,0.0,0.0,0.0,-0.315,0.0,0.0,0.0,0.0,0.0,0.0,-0.3460788432429075,0.0,0.0,0.0,0.0,0.0,0.0,-12.736,0.0,0.0,0.0
351,0.0,0.0,0.0,-0.3434951171875,0.0,0.0,0.0,0.0,0.0,0.0,-0.24,0.0,0.0,0.0,0.0,0.0,0.0,-0.3484706283995985,0.0,0.0,0.0,0.0,0.0,0.0,-12.736,0.0,0.0,0.0
352,0.0,0.0,0.0,-0.3458046875,0.0,0.0,0.0,0.0,0.0,0.0,-0.201,0.0,0.0,0.0,0.0,0.0,0.0,-0.35082060917222146,0.0,0.0,0.0,0.0,0.0,0.0,-13.308,0.0,0.0,0.0
353,0.0,0.0,0.0,-0.348556640625,0.0,0.0,0.0,0.0,0.0,0.0,-0.26,0.0,0.0,0.0,0.0,0.0,0.0,-0.3530709727155348,0.0,0.0,0.0,0.0,0.0,0.0,-13.4,0.0,0.0,0.0
354,0.0,0.0,0.0,-0.3511650390625,0.0,0.0,0.0,0.0,0.0,0.0,-0.267,0.0,0.0,0.0,0.0,0.0,0.0,-0.35530292083681353,0.0,0.0,0.0,0.0,0.0,0.0,-14.016,0.0,0.0,0.0
355,0.0,0.0,0.0,-0.3537724609375,0.0,0.0,0.0,0.0,0.0,0.0,-0.259,0.0,0.0,0.0,0.0,0.0,0.0,-0.3575159245903087,0.0,0.0,0.0,0.0,0.0,0.0,-13.444,0.0,0.0,0.0
356,0.0,0.0,0.0,-0.35608203125,0.0,0.0,0.0,0.0,0.0,0.0,-0.255,0.0,0.0,0.0,0.0,0.0,0.0,-0.35960002213319986,0.0,0.0,0.0,0.0,0.0,0.0,-12.692,0.0,0.0,0.0
357,0.0,0.0,0.0,-0.35782421875,0.0,0.0,0.0,0.0,0.0,0.0,-0.215,0.0,0.0,0.0,0.0,0.0,0.0,-0.3616965147926925,0.0,0.0,0.0,0.0,0.0,0.0,-12.232,0.0,0.0,0.0
358,0.0,0.0,0.0,-0.359412109375,0.0,0.0,0.0,0.0,0.0,0.0,-0.171,0.0,0.0,0.0,0.0,0.0,0.0,-0.36372812726113835,0.0,0.0,0.0,0.0,0.0,0.0,-13.376,0.0,0.0,0.0
359,0.0,0.0,0.0,-0.361875,0.0,0.0,0.0,0.0,0.0,0.0,-0.191,0.0,0.0,0.0,0.0,0.0,0.0,-0.36570267782652,0.0,0.0,0.0,0.0,0.0,0.0,-14.612,0.0,0.0,0.0
360,0.0,0.0,0.0,-0.3641943359375,0.0,0.0,0.0,0.0,0.0,0.0,-0.252,0.0,0.0,0.0,0.0,0.0,0.0,-0.36762279830728445,0.0,0.0,0.0,0.0,0.0,0.0,-13.604,0.0,0.0,0.0
361,0.0,0.0,0.0,-0.3662158203125,0.0,0.0,0.0,0.0,0.0,0.0,-0.216,0.0,0.0,0.0,0.0,0.0,0.0,-0.369472472468111,0.0,0.0,0.0,0.0,0.0,0.0,-13.516,0.0,0.0,0.0
362,0.0,0.0,0.0,-0.36883203125,0.0,0.0,0.0,0.0,0.0,0.0,-0.232,0.0,0.0,0.0,0.0,0.0,0.0,-0.37128002044869934,0.0,0.0,0.0,0.0,0.0,0.0,-12.552,0.0,0.0,0.0
363,0.0,0.0,0.0,-0.37071875,0.0,0.0,0.0,0.0,0.0,0.0,-0.238,0.0,0.0,0.0,0.0,0.0,0.0,-0.373055341530347,0.0,0.0,0.0,0.0,0.0,0.0,-12.14,0.0,0.0,0.0
364,0.0,0.0,0.0,-0.372017578125,0.0,0.0,0.0,0.0,0.0,0.0,-0.154,0.0,0.0,0.0,0.0,0.0,0.0,-0.3747558178746273,0.0,0.0,0.0,0.0,0.0,0.0,-13.836,0.0,0.0,0.0
365,0.0,0.0,0.0,-0.3739033203125,0.0,0.0,0.0,0.0,0.0,0.0,-0.16,0.0,0.0,0.0,0.0,0.0,0.0,-0.3764014587312424,0.0,0.0,0.0,0.0,0.0,0.0,-13.492,0.0,0.0,0.0
366,0.0,0.0,0.0,-0.375203125,0.0,0.0,0.0,0.0,0.0,0.0,-0.176,0.0,0.0,0.0,0.0,0.0,0.0,-0.37800255060743815,0.0,0.0,0.0,0.0,0.0,0.0,-12.304,0.0,0.0,0.0
367,0.0,0.0,0.0,-0.3767998046875,0.0,0.0,0.0,0.0,0.0,0.0,-0.131,0.0,0.0,0.0,0.0,0.0,0.0,-0.37954998560292474,0.0,0.0,0.0,0.0,0.0,0.0,-12.872,0.0,0.0,0.0
368,0.0,0.0,0.0,-0.3789658203125,0.0,0.0,0.0,0.0,0.0,0.0,-0.185,0.0,0.0,0.0,0.0,0.0,0.0,-0.38103148334729675,0.0,0.0,0.0,0.0,0.0,0.0,-12.692,0.0,0.0,0.0
369,0.0,0.0,0.0,-0.3808515625,0.0,0.0,0.0,0.0,0.0,0.0,-0.215,0.0,0.0,0.0,0.0,0.0,0.0,-0.38245995747081984,0.0,0.0,0.0,0.0,0.0,0.0,-12.92,0.0,0.0,0.0
370,0.0,0.0,0.0,-0.382294921875,0.0,0.0,0.0,0.0,0.0,0.0,-0.166,0.0,0.0,0.0,0.0,0.0,0.0,-0.3838499504375565,0.0,0.0,0.0,0.0,0.0,0.0,-13.104,0.0,0.0,0.0
371,0.0,0.0,0.0,-0.3835947265625,0.0,0.0,0.0,0.0,0.0,0.0,-0.137,0.0,0.0,0.0,0.0,0.0,0.0,-0.3851626197859942,0.0,0.0,0.0,0.0,0.0,0.0,-12.6,0.0,0.0,0.0
372,0.0,0.0,0.0,-0.3849033203125,0.0,0.0,0.0,0.0,0.0,0.0,-0.129,0.0,0.0,0.0,0.0,0.0,0.0,-0.3864289414488918,0.0,0.0,0.0,0.0,0.0,0.0,-12.668,0.0,0.0,0.0
373,0.0,0.0,0.0,-0.38605859375,0.0,0.0,0.0,0.0,0.0,0.0,-0.131,0.0,0.0,0.0,0.0,0.0,0.0,-0.3876450536602797,0.0,0.0,0.0,0.0,0.0,0.0,-13.148,0.0,0.0,0.0
374,0.0,0.0,0.0,-0.387068359375,0.0,0.0,0.0,0.0,0.0,0.0,-0.111,0.0,0.0,0.0,0.0,0.0,0.0,-0.38879897374143846,0.0,0.0,0.0,0.0,0.0,0.0,-13.744,0.0,0.0,0.0
375,0.0,0.0,0.0,-0.388521484375,0.0,0.0,0.0,0.0,0.0,0.0,-0.122,0.0,0.0,0.0,0.0,0.0,0.0,-0.3899009302963923,0.0,0.0,0.0,0.0,0.0,0.0,-13.652,0.0,0.0,0.0
376,0.0,0.0,0.0,-0.3895322265625,0.0,0.0,0.0,0.0,0.0,0.0,-0.13,0.0,0.0,0.0,0.0,0.0,0.0,-0.3909506213076035,0.0,0.0,0.0,0.0,0.0,0.0,-12.736,0.0,0.0,0.0
377,0.0,0.0,0.0,-0.3903984375,0.0,0.0,0.0,0.0,0.0,0.0,-0.087,0.0,0.0,0.0,0.0,0.0,0.0,-0.3919317349889272,0.0,0.0,0.0,0.0,0.0,0.0,-13.148,0.0,0.0,0.0
378,0.0,0.0,0.0,-0.39141796875,0.0,0.0,0.0,0.0,0.0,0.0,-0.099,0.0,0.0,0.0,0.0,0.0,0.0,-0.3928587235099345,0.0,0.0,0.0,0.0,0.0,0.0,-13.124,0.0,0.0,0.0
379,0.0,0.0,0.0,-0.3919951171875,0.0,0.0,0.0,0.0,0.0,0.0,-0.089,0.0,0.0,0.0,0.0,0.0,0.0,-0.3937417637652021,0.0,0.0,0.0,0.0,0.0,0.0,-13.376,0.0,0.0,0.0
380,0.0,0.0,0.0,-0.3925732421875,0.0,0.0,0.0,0.0,0.0,0.0,-0.053,0.0,0.0,0.0,0.0,0.0,0.0,-0.39455915305766803,0.0,0.0,0.0,0.0,0.0,0.0,-13.72,0.0,0.0,0.0
381,0.0,0.0,0.0,-0.393439453125,0.0,0.0,0.0,0.0,0.0,0.0,-0.068,0.0,0.0,0.0,0.0,0.0,0.0,-0.3953090204310954,0.0,0.0,0.0,0.0,0.0,0.0,-13.536,0.0,0.0,0.0
382,0.0,0.0,0.0,-0.394314453125,0.0,0.0,0.0,0.0,0.0,0.0,-0.09,0.0,0.0,0.0,0.0,0.0,0.0,-0.39602012270776504,0.0,0.0,0.0,0.0,0.0,0.0,-13.584,0.0,0.0,0.0
383,0.0,0.0,0.0,-0.3948916015625,0.0,0.0,0.0,0.0,0.0,0.0,-0.079,0.0,0.0,0.0,0.0,0.0,0.0,-0.3966641881324302,0.0,0.0,0.0,0.0,0.0,0.0,-13.744,0.0,0.0,0.0
384,0.0,0.0,0.0,-0.3956142578125,0.0,0.0,0.0,0.0,0.0,0.0,-0.069,0.0,0.0,0.0,0.0,0.0,0.0,-0.39725180375756897,0.0,0.0,0.0,0.0,0.0,0.0,-13.88,0.0,0.0,0.0
385,0.0,0.0,0.0,-0.3962001953125,0.0,0.0,0.0,0.0,0.0,0.0,-0.063,0.0,0.0,0.0,0.0,0.0,0.0,-0.3977894779930142,0.0,0.0,0.0,0.0,0.0,0.0,-13.676,0.0,0.0,0.0
386,0.0,0.0,0.0,-0.3964892578125,0.0,0.0,0.0,0.0,0.0,0.0,-0.048,0.0,0.0,0.0,0.0,0.0,0.0,-0.39826257443870305,0.0,0.0,0.0,0.0,0.0,0.0,-13.836,0.0,0.0,0.0
387,0.0,0.0,0.0,-0.39706640625,0.0,0.0,0.0,0.0,0.0,0.0,-0.042,0.0,0.0,0.0,0.0,0.0,0.0,-0.3986779329862574,0.0,0.0,0.0,0.0,0.0,0.0,-13.836,0.0,0.0,0.0
388,0.0,0.0,0.0,-0.39735546875,0.0,0.0,0.0,0.0,0.0,0.0,-0.04,0.0,0.0,0.0,0.0,0.0,0.0,-0.3990578829404899,0.0,0.0,0.0,0.0,0.0,0.0,-13.56,0.0,0.0,0.0
389,0.0,0.0,0.0,-0.3976533203125,0.0,0.0,0.0,0.0,0.0,0.0,-0.027,0.0,0.0,0.0,0.0,0.0,0.0,-0.3993473155959408,0.0,0.0,0.0,0.0,0.0,0.0,-13.88,0.0,0.0,0.0
390,0.0,0.0,0.0,-0.3980859375,0.0,0.0,0.0,0.0,0.0,0.0,-0.04,0.0,0.0,0.0,0.0,0.0,0.0,-0.39958969718428883,0.0,0.0,0.0,0.0,0.0,0.0,-13.88,0.0,0.0,0.0
391,0.0,0.0,0.0,-0.39851953125,0.0,0.0,0.0,0.0,0.0,0.0,-0.049,0.0,0.0,0.0,0.0,0.0,0.0,-0.39978388199602977,0.0,0.0,0.0,0.0,0.0,0.0,-13.676,0.0,0.0,0.0
392,0.0,0.0,0.0,-0.3986640625,0.0,0.0,0.0,0.0,0.0,0.0,-0.033,0.0,0.0,0.0,0.0,0.0,0.0,-0.3999097367096764,0.0,0.0,0.0,0.0,0.0,0.0,-13.444,0.0,0.0,0.0
393,0.0,0.0,0.0,-0.39880859375,0.0,0.0,0.0,0.0,0.0,0.0,-0.017,0.0,0.0,0.0,0.0,0.0,0.0,-0.39998297410473854,0.0,0.0,0.0,0.0,0.0,0.0,-13.56,0.0,0.0,0.0
394,0.0,0.0,0.0,-0.3990966796875,0.0,0.0,0.0,0.0,0.0,0.0,-0.022,0.0,0.0,0.0,0.0,0.0,0.0,-0.39999843103989074,0.0,0.0,0.0,0.0,0.0,0.0,-13.516,0.0,0.0,0.0
395,0.0,0.0,0.0,-0.3990966796875,0.0,0.0,0.0,0.0,0.0,0.0,-0.014,0.0,0.0,0.0,0.0,0.0,0.0,-0.3999562656662703,0.0,0.0,0.0,0.0,0.0,0.0,-13.856,0.0,0.0,0.0
396,0.0,0.0,0.0,-0.3993857421875,0.0,0.0,0.0,0.0,0.0,0.0,-0.014,0.0,0.0,0.0,0.0,0.0,0.0,-0.39985582368158945,0.0,0.0,0.0,0.0,0.0,0.0,-13.72,0.0,0.0,0.0
397,0.0,0.0,0.0,-0.3995302734375,0.0,0.0,0.0,0.0,0.0,0.0,-0.014,0.0,0.0,0.0,0.0,0.0,0.0,-0.3996998463564898,0.0,0.0,0.0,0.0,0.0,0.0,-13.4,0.0,0.0,0.0
398,0.0,0.0,0.0,-0.3995302734375,0.0,0.0,0.0,0.0,0.0,0.0,-0.011,0.0,0.0,0.0,0.0,0.0,0.0,-0.39947851288858494,0.0,0.0,0.0,0.0,0.0,0.0,-13.308,0.0,0.0,0.0
399,0.0,0.0,0.0,-0.3993857421875,0.0,0.0,0.0,0.0,0.0,0.0,-0.001,0.0,0.0,0.0,0.0,0.0,0.0,-0.399208214178321,0.0,0.0,0.0,0.0,0.0,0.0,-13.308,0.0,0.0,0.0
400,0.0,0.0,0.0,-0.3993857421875,0.0,0.0,0.0,0.0,0.0,0.0,0.01,0.0,0.0,0.0,0.0,0.0,0.0,-0.398862828835886,0.0,0.0,0.0,0.0,0.0,0.0,-13.492,0.0,0.0,0.0
401,0.0,0.0,0.0,-0.3993857421875,0.0,0.0,0.0,0.0,0.0,0.0,-0.001,0.0,0.0,0.0,0.0,0.0,0.0,-0.3984956875711072,0.0,0.0,0.0,0.0,0.0,0.0,-13.536,0.0,0.0,0.0
402,0.0,0.0,0.0,-0.3993857421875,0.0,0.0,0.0,0.0,0.0,0.0,-0.001,0.0,0.0,0.0,0.0,0.0,0.0,-0.3980473159448697,0.0,0.0,0.0,0.0,0.0,0.0,-13.604,0.0,0.0,0.0
403,0.0,0.0,0.0,-0.3993857421875,0.0,0.0,0.0,0.0,0.0,0.0,-0.001,0.0,0.0,0.0,0.0,0.0,0.0,-0.39754889548049005,0.0,0.0,0.0,0.0,0.0,0.0,-13.56,0.0,0.0,0.0
404,0.0,0.0,0.0,-0.3993857421875,0.0,0.0,0.0,0.0,0.0,0.0,-0.001,0.0,0.0,0.0,0.0,0.0,0.0,-0.396980363548066,0.0,0.0,0.0,0.0,0.0,0.0,-13.628,0.0,0.0,0.0
405,0.0,0.0,0.0,-0.3992412109375,0.0,0.0,0.0,0.0,0.0,0.0,0.008,0.0,0.0,0.0,0.0,0.0,0.0,-0.39637034494286466,0.0,0.0,0.0,0.0,0.0,0.0,-13.764,0.0,0.0,0.0
406,0.0,0.0,0.0,-0.3992412109375,0.0,0.0,0.0,0.0,0.0,0.0,0.007,0.0,0.0,0.0,0.0,0.0,0.0,-0.39569910072276104,0.0,0.0,0.0,0.0,0.0,0.0,-13.812,0.0,0.0,0.0
407,0.0,0.0,0.0,-0.3992412109375,0.0,0.0,0.0,0.0,0.0,0.0,-0.001,0.0,0.0,0.0,0.0,0.0,0.0,-0.39496551852403394,0.0,0.0,0.0,0.0,0.0,0.0,-13.764,0.0,0.0,0.0
408,0.0,0.0,0.0,-0.3992412109375,0.0,0.0,0.0,0.0,0.0,0.0,-0.001,0.0,0.0,0.0,0.0,0.0,0.0,-0.3941868286159269,0.0,0.0,0.0,0.0,0.0,0.0,-13.904,0.0,0.0,0.0
409,0.0,0.0,0.0,-0.3990966796875,0.0,0.0,0.0,0.0,0.0,0.0,0.006,0.0,0.0,0.0,0.0,0.0,0.0,-0.39334102905923435,0.0,0.0,0.0,0.0,0.0,0.0,-13.788,0.0,0.0,0.0
410,0.0,0.0,0.0,-0.3990966796875,0.0,0.0,0.0,0.0,0.0,0.0,0.01,0.0,0.0,0.0,0.0,0.0,0.0,-0.39242110093071286,0.0,0.0,0.0,0.0,0.0,0.0,-13.696,0.0,0.0,0.0
411,0.0,0.0,0.0,-0.39880859375,0.0,0.0,0.0,0.0,0.0,0.0,0.013,0.0,0.0,0.0,0.0,0.0,0.0,-0.3914802615758727,0.0,0.0,0.0,0.0,0.0,0.0,-13.604,0.0,0.0,0.0
412,0.0,0.0,0.0,-0.398375,0.0,0.0,0.0,0.0,0.0,0.0,0.033,0.0,0.0,0.0,0.0,0.0,0.0,-0.3904600385062821,0.0,0.0,0.0,0.0,0.0,0.0,-13.332,0.0,0.0,0.0
413,0.0,0.0,0.0,-0.3976533203125,0.0,0.0,0.0,0.0,0.0,0.0,0.051,0.0,0.0,0.0,0.0,0.0,0.0,-0.3893809832600782,0.0,0.0,0.0,0.0,0.0,0.0,-13.08,0.0,0.0,0.0
414,0.0,0.0,0.0,-0.396921875,0.0,0.0,0.0,0.0,0.0,0.0,0.068,0.0,0.0,0.0,0.0,0.0,0.0,-0.38827588013205216,0.0,0.0,0.0,0.0,0.0,0.0,-13.192,0.0,0.0,0.0
415,0.0,0.0,0.0,-0.3962001953125,0.0,0.0,0.0,0.0,0.0,0.0,0.081,0.0,0.0,0.0,0.0,0.0,0.0,-0.38708926400992794,0.0,0.0,0.0,0.0,0.0,0.0,-12.828,0.0,0.0,0.0
416,0.0,0.0,0.0,-0.3951806640625,0.0,0.0,0.0,0.0,0.0,0.0,0.091,0.0,0.0,0.0,0.0,0.0,0.0,-0.3858392267187585,0.0,0.0,0.0,0.0,0.0,0.0,-12.552,0.0,0.0,0.0
417,0.0,0.0,0.0,-0.394025390625,0.0,0.0,0.0,0.0,0.0,0.0,0.107,0.0,0.0,0.0,0.0,0.0,0.0,-0.3845545782257353,0.0,0.0,0.0,0.0,0.0,0.0,-12.508,0.0,0.0,0.0
418,0.0,0.0,0.0,-0.393005859375,0.0,0.0,0.0,0.0,0.0,0.0,0.111,0.0,0.0,0.0,0.0,0.0,0.0,-0.38319177652878383,0.0,0.0,0.0,0.0,0.0,0.0,-12.552,0.0,0.0,0.0
419,0.0,0.0,0.0,-0.39170703125,0.0,0.0,0.0,0.0,0.0,0.0,0.107,0.0,0.0,0.0,0.0,0.0,0.0,-0.38179269566413515,0.0,0.0,0.0,0.0,0.0,0.0,-12.6,0.0,0.0,0.0
420,0.0,0.0,0.0,-0.3905517578125,0.0,0.0,0.0,0.0,0.0,0.0,0.119,0.0,0.0,0.0,0.0,0.0,0.0,-0.3803525779211132,0.0,0.0,0.0,0.0,0.0,0.0,-12.896,0.0,0.0,0.0
421,0.0,0.0,0.0,-0.3892431640625,0.0,0.0,0.0,0.0,0.0,0.0,0.126,0.0,0.0,0.0,0.0,0.0,0.0,-0.378835507878285,0.0,0.0,0.0,0.0,0.0,0.0,-12.624,0.0,0.0,0.0
422,0.0,0.0,0.0,-0.3877998046875,0.0,0.0,0.0,0.0,0.0,0.0,0.14,0.0,0.0,0.0,0.0,0.0,0.0,-0.3772490817657113,0.0,0.0,0.0,0.0,0.0,0.0,-12.784,0.0,0.0,0.0
423,0.0,0.0,0.0,-0.3864912109375,0.0,0.0,0.0,0.0,0.0,0.0,0.138,0.0,0.0,0.0,0.0,0.0,0.0,-0.37564109230344744,0.0,0.0,0.0,0.0,0.0,0.0,-12.896,0.0,0.0,0.0
424,0.0,0.0,0.0,-0.3849033203125,0.0,0.0,0.0,0.0,0.0,0.0,0.143,0.0,0.0,0.0,0.0,0.0,0.0,-0.3739626016800186,0.0,0.0,0.0,0.0,0.0,0.0,-12.736,0.0,0.0,0.0
425,0.0,0.0,0.0,-0.383162109375,0.0,0.0,0.0,0.0,0.0,0.0,0.171,0.0,0.0,0.0,0.0,0.0,0.0,-0.37222728366983326,0.0,0.0,0.0,0.0,0.0,0.0,-12.784,0.0,0.0,0.0
426,0.0,0.0,0.0,-0.38128515625,0.0,0.0,0.0,0.0,0.0,0.0,0.165,0.0,0.0,0.0,0.0,0.0,0.0,-0.37044911609031955,0.0,0.0,0.0,0.0,0.0,0.0,-12.624,0.0,0.0,0.0
427,0.0,0.0,0.0,-0.3796875,0.0,0.0,0.0,0.0,0.0,0.0,0.172,0.0,0.0,0.0,0.0,0.0,0.0,-0.3686088453784965,0.0,0.0,0.0,0.0,0.0,0.0,-12.76,0.0,0.0,0.0
428,0.0,0.0,0.0,-0.377810546875,0.0,0.0,0.0,0.0,0.0,0.0,0.18,0.0,0.0,0.0,0.0,0.0,0.0,-0.36672684264396316,0.0,0.0,0.0,0.0,0.0,0.0,-12.872,0.0,0.0,0.0
429,0.0,0.0,0.0,-0.3762138671875,0.0,0.0,0.0,0.0,0.0,0.0,0.167,0.0,0.0,0.0,0.0,0.0,0.0,-0.36477789473140176,0.0,0.0,0.0,0.0,0.0,0.0,-12.988,0.0,0.0,0.0
430,0.0,0.0,0.0,-0.374625,0.0,0.0,0.0,0.0,0.0,0.0,0.168,0.0,0.0,0.0,0.0,0.0,0.0,-0.36277976729108213,0.0,0.0,0.0,0.0,0.0,0.0,-12.644,0.0,0.0,0.0
431,0.0,0.0,0.0,-0.3730283203125,0.0,0.0,0.0,0.0,0.0,0.0,0.17,0.0,0.0,0.0,0.0,0.0,0.0,-0.36072571515514795,0.0,0.0,0.0,0.0,0.0,0.0,-13.08,0.0,0.0,0.0
432,0.0,0.0,0.0,-0.3710068359375,0.0,0.0,0.0,0.0,0.0,0.0,0.17,0.0,0.0,0.0,0.0,0.0,0.0,-0.3586272733902849,0.0,0.0,0.0,0.0,0.0,0.0,-12.692,0.0,0.0,0.0
433,0.0,0.0,0.0,-0.36912109375,0.0,0.0,0.0,0.0,0.0,0.0,0.199,0.0,0.0,0.0,0.0,0.0,0.0,-0.3564818913990562,0.0,0.0,0.0,0.0,0.0,0.0,-12.828,0.0,0.0,0.0
434,0.0,0.0,0.0,-0.3668017578125,0.0,0.0,0.0,0.0,0.0,0.0,0.21,0.0,0.0,0.0,0.0,0.0,0.0,-0.35426916352103827,0.0,0.0,0.0,0.0,0.0,0.0,-13.056,0.0,0.0,0.0
435,0.0,0.0,0.0,-0.364916015625,0.0,0.0,0.0,0.0,0.0,0.0,0.199,0.0,0.0,0.0,0.0,0.0,0.0,-0.35194935158292573,0.0,0.0,0.0,0.0,0.0,0.0,-13.24,0.0,0.0,0.0
436,0.0,0.0,0.0,-0.3628857421875,0.0,0.0,0.0,0.0,0.0,0.0,0.194,0.0,0.0,0.0,0.0,0.0,0.0,-0.3497393595209269,0.0,0.0,0.0,0.0,0.0,0.0,-12.6,0.0,0.0,0.0
437,0.0,0.0,0.0,-0.360576171875,0.0,0.0,0.0,0.0,0.0,0.0,0.218,0.0,0.0,0.0,0.0,0.0,0.0,-0.34737237717077063,0.0,0.0,0.0,0.0,0.0,0.0,-12.44,0.0,0.0,0.0
438,0.0,0.0,0.0,-0.3586904296875,0.0,0.0,0.0,0.0,0.0,0.0,0.209,0.0,0.0,0.0,0.0,0.0,0.0,-0.34493938035722205,0.0,0.0,0.0,0.0,0.0,0.0,-12.324,0.0,0.0,0.0
439,0.0,0.0,0.0,-0.3566689453125,0.0,0.0,0.0,0.0,0.0,0.0,0.205,0.0,0.0,0.0,0.0,0.0,0.0,-0.34249966352626093,0.0,0.0,0.0,0.0,0.0,0.0,-12.532,0.0,0.0,0.0
440,0.0,0.0,0.0,-0.354494140625,0.0,0.0,0.0,0.0,0.0,0.0,0.224,0.0,0.0,0.0,0.0,0.0,0.0,-0.34001400984123764,0.0,0.0,0.0,0.0,0.0,0.0,-12.872,0.0,0.0,0.0
441,0.0,0.0,0.0,-0.3523193359375,0.0,0.0,0.0,0.0,0.0,0.0,0.213,0.0,0.0,0.0,0.0,0.0,0.0,-0.337438878481011,0.0,0.0,0.0,0.0,0.0,0.0,-12.804,0.0,0.0,0.0
442,0.0,0.0,0.0,-0.350009765625,0.0,0.0,0.0,0.0,0.0,0.0,0.221,0.0,0.0,0.0,0.0,0.0,0.0,-0.3348497435761384,0.0,0.0,0.0,0.0,0.0,0.0,-12.644,0.0,0.0,0.0
443,0.0,0.0,0.0,-0.3478349609375,0.0,0.0,0.0,0.0,0.0,0.0,0.233,0.0,0.0,0.0,0.0,0.0,0.0,-0.33218856500015853,0.0,0.0,0.0,0.0,0.0,0.0,-12.988,0.0,0.0,0.0
444,0.0,0.0,0.0,-0.3449384765625,0.0,0.0,0.0,0.0,0.0,0.0,0.236,0.0,0.0,0.0,0.0,0.0,0.0,-0.3295033430775175,0.0,0.0,0.0,0.0,0.0,0.0,-12.896,0.0,0.0,0.0
445,0.0,0.0,0.0,-0.342474609375,0.0,0.0,0.0,0.0,0.0,0.0,0.259,0.0,0.0,0.0,0.0,0.0,0.0,-0.32677084497338393,0.0,0.0,0.0,0.0,0.0,0.0,-13.444,0.0,0.0,0.0
446,0.0,0.0,0.0,-0.34015625,0.0,0.0,0.0,0.0,0.0,0.0,0.247,0.0,0.0,0.0,0.0,0.0,0.0,-0.32396634431935745,0.0,0.0,0.0,0.0,0.0,0.0,-13.284,0.0,0.0,0.0
447,0.0,0.0,0.0,-0.337259765625,0.0,0.0,0.0,0.0,0.0,0.0,0.263,0.0,0.0,0.0,0.0,0.0,0.0,-0.3211187977440222,0.0,0.0,0.0,0.0,0.0,0.0,-13.376,0.0,0.0,0.0
448,0.0,0.0,0.0,-0.3346513671875,0.0,0.0,0.0,0.0,0.0,0.0,0.263,0.0,0.0,0.0,0.0,0.0,0.0,-0.31825786354244784,0.0,0.0,0.0,0.0,0.0,0.0,-13.172,0.0,0.0,0.0
449,0.0,0.0,0.0,-0.331611328125,0.0,0.0,0.0,0.0,0.0,0.0,0.286,0.0,0.0,0.0,0.0,0.0,0.0,-0.3153261594176517,0.0,0.0,0.0,0.0,0.0,0.0,-13.468,0.0,0.0,0.0
450,0.0,0.0,0.0,-0.3287138671875,0.0,0.0,0.0,0.0,0.0,0.0,0.294,0.0,0.0,0.0,0.0,0.0,0.0,-0.31231905552900824,0.0,0.0,0.0,0.0,0.0,0.0,-13.308,0.0,0.0,0.0
451,0.0,0.0,0.0,-0.325529296875,0.0,0.0,0.0,0.0,0.0,0.0,0.304,0.0,0.0,0.0,0.0,0.0,0.0,-0.3093332357542393,0.0,0.0,0.0,0.0,0.0,0.0,-13.216,0.0,0.0,0.0
452,0.0,0.0,0.0,-0.3227861328125,0.0,0.0,0.0,0.0,0.0,0.0,0.305,0.0,0.0,0.0,0.0,0.0,0.0,-0.3062468597407188,0.0,0.0,0.0,0.0,0.0,0.0,-13.652,0.0,0.0,0.0
453,0.0,0.0,0.0,-0.3200341796875,0.0,0.0,0.0,0.0,0.0,0.0,0.263,0.0,0.0,0.0,0.0,0.0,0.0,-0.3030728426178449,0.0,0.0,0.0,0.0,0.0,0.0,-12.736,0.0,0.0,0.0
454,0.0,0.0,0.0,-0.3171376953125,0.0,0.0,0.0,0.0,0.0,0.0,0.298,0.0,0.0,0.0,0.0,0.0,0.0,-0.3000061751944993,0.0,0.0,0.0,0.0,0.0,0.0,-12.552,0.0,0.0,0.0
455,0.0,0.0,0.0,-0.3138076171875,0.0,0.0,0.0,0.0,0.0,0.0,0.32,0.0,0.0,0.0,0.0,0.0,0.0,-0.29680983672573236,0.0,0.0,0.0,0.0,0.0,0.0,-12.852,0.0,0.0,0.0
456,0.0,0.0,0.0,-0.3113349609375,0.0,0.0,0.0,0.0,0.0,0.0,0.286,0.0,0.0,0.0,0.0,0.0,0.0,-0.29354207366460344,0.0,0.0,0.0,0.0,0.0,0.0,-13.032,0.0,0.0,0.0
457,0.0,0.0,0.0,-0.307861328125,0.0,0.0,0.0,0.0,0.0,0.0,0.295,0.0,0.0,0.0,0.0,0.0,0.0,-0.29026098169166364,0.0,0.0,0.0,0.0,0.0,0.0,-13.604,0.0,0.0,0.0
458,0.0,0.0,0.0,-0.30438671875,0.0,0.0,0.0,0.0,0.0,0.0,0.326,0.0,0.0,0.0,0.0,0.0,0.0,-0.28696928248062,0.0,0.0,0.0,0.0,0.0,0.0,-13.032,0.0,0.0,0.0
459,0.0,0.0,0.0,-0.3012021484375,0.0,0.0,0.0,0.0,0.0,0.0,0.342,0.0,0.0,0.0,0.0,0.0,0.0,-0.28357094651049314,0.0,0.0,0.0,0.0,0.0,0.0,-13.284,0.0,0.0,0.0
460,0.0,0.0,0.0,-0.2980166015625,0.0,0.0,0.0,0.0,0.0,0.0,0.313,0.0,0.0,0.0,0.0,0.0,0.0,-0.28012172386075423,0.0,0.0,0.0,0.0,0.0,0.0,-12.944,0.0,0.0,0.0
461,0.0,0.0,0.0,-0.29454296875,0.0,0.0,0.0,0.0,0.0,0.0,0.336,0.0,0.0,0.0,0.0,0.0,0.0,-0.2767400599541958,0.0,0.0,0.0,0.0,0.0,0.0,-13.764,0.0,0.0,0.0
462,0.0,0.0,0.0,-0.291646484375,0.0,0.0,0.0,0.0,0.0,0.0,0.328,0.0,0.0,0.0,0.0,0.0,0.0,-0.27325400620778906,0.0,0.0,0.0,0.0,0.0,0.0,-13.56,0.0,0.0,0.0
463,0.0,0.0,0.0,-0.28831640625,0.0,0.0,0.0,0.0,0.0,0.0,0.305,0.0,0.0,0.0,0.0,0.0,0.0,-0.26961415164439034,0.0,0.0,0.0,0.0,0.0,0.0,-12.532,0.0,0.0,0.0
464,0.0,0.0,0.0,-0.284544921875,0.0,0.0,0.0,0.0,0.0,0.0,0.366,0.0,0.0,0.0,0.0,0.0,0.0,-0.2661286236338795,0.0,0.0,0.0,0.0,0.0,0.0,-12.852,0.0,0.0,0.0
465,0.0,0.0,0.0,-0.28121484375,0.0,0.0,0.0,0.0,0.0,0.0,0.357,0.0,0.0,0.0,0.0,0.0,0.0,-0.2625605284922461,0.0,0.0,0.0,0.0,0.0,0.0,-13.104,0.0,0.0,0.0
466,0.0,0.0,0.0,-0.2775966796875,0.0,0.0,0.0,0.0,0.0,0.0,0.341,0.0,0.0,0.0,0.0,0.0,0.0,-0.2589084123844105,0.0,0.0,0.0,0.0,0.0,0.0,-13.996,0.0,0.0,0.0
467,0.0,0.0,0.0,-0.2742666015625,0.0,0.0,0.0,0.0,0.0,0.0,0.353,0.0,0.0,0.0,0.0,0.0,0.0,-0.25524476072928376,0.0,0.0,0.0,0.0,0.0,0.0,-14.568,0.0,0.0,0.0
468,0.0,0.0,0.0,-0.2709375,0.0,0.0,0.0,0.0,0.0,0.0,0.337,0.0,0.0,0.0,0.0,0.0,0.0,-0.2514739707898529,0.0,0.0,0.0,0.0,0.0,0.0,-13.744,0.0,0.0,0.0
469,0.0,0.0,0.0,-0.2668857421875,0.0,0.0,0.0,0.0,0.0,0.0,0.36,0.0,0.0,0.0,0.0,0.0,0.0,-0.2477213025649806,0.0,0.0,0.0,0.0,0.0,0.0,-12.784,0.0,0.0,0.0
470,0.0,0.0,0.0,-0.2631142578125,0.0,0.0,0.0,0.0,0.0,0.0,0.396,0.0,0.0,0.0,0.0,0.0,0.0,-0.24401391251557547,0.0,0.0,0.0,0.0,0.0,0.0,-13.444,0.0,0.0,0.0
471,0.0,0.0,0.0,-0.259341796875,0.0,0.0,0.0,0.0,0.0,0.0,0.372,0.0,0.0,0.0,0.0,0.0,0.0,-0.24017537836324354,0.0,0.0,0.0,0.0,0.0,0.0,-13.264,0.0,0.0,0.0
472,0.0,0.0,0.0,-0.2555791015625,0.0,0.0,0.0,0.0,0.0,0.0,0.389,0.0,0.0,0.0,0.0,0.0,0.0,-0.23629538446628567,0.0,0.0,0.0,0.0,0.0,0.0,-14.248,0.0,0.0,0.0
473,0.0,0.0,0.0,-0.25210546875,0.0,0.0,0.0,0.0,0.0,0.0,0.366,0.0,0.0,0.0,0.0,0.0,0.0,-0.23243486419338427,0.0,0.0,0.0,0.0,0.0,0.0,-12.872,0.0,0.0,0.0
474,0.0,0.0,0.0,-0.2481982421875,0.0,0.0,0.0,0.0,0.0,0.0,0.371,0.0,0.0,0.0,0.0,0.0,0.0,-0.2284987320303311,0.0,0.0,0.0,0.0,0.0,0.0,-12.76,0.0,0.0,0.0
475,0.0,0.0,0.0,-0.244580078125,0.0,0.0,0.0,0.0,0.0,0.0,0.374,0.0,0.0,0.0,0.0,0.0,0.0,-0.22451044080465202,0.0,0.0,0.0,0.0,0.0,0.0,-12.964,0.0,0.0,0.0
476,0.0,0.0,0.0,-0.2400859375,0.0,0.0,0.0,0.0,0.0,0.0,0.388,0.0,0.0,0.0,0.0,0.0,0.0,-0.22053541126473677,0.0,0.0,0.0,0.0,0.0,0.0,-12.872,0.0,0.0,0.0
477,0.0,0.0,0.0,-0.2357373046875,0.0,0.0,0.0,0.0,0.0,0.0,0.464,0.0,0.0,0.0,0.0,0.0,0.0,-0.2163410751237377,0.0,0.0,0.0,0.0,0.0,0.0,-13.652,0.0,0.0,0.0
478,0.0,0.0,0.0,-0.231974609375,0.0,0.0,0.0,0.0,0.0,0.0,0.416,0.0,0.0,0.0,0.0,0.0,0.0,-0.21246803339941733,0.0,0.0,0.0,0.0,0.0,0.0,-13.788,0.0,0.0,0.0
479,0.0,0.0,0.0,-0.2285,0.0,0.0,0.0,0.0,0.0,0.0,0.363,0.0,0.0,0.0,0.0,0.0,0.0,-0.20843060429605254,0.0,0.0,0.0,0.0,0.0,0.0,-14.108,0.0,0.0,0.0
480,0.0,0.0,0.0,-0.2248818359375,0.0,0.0,0.0,0.0,0.0,0.0,0.345,0.0,0.0,0.0,0.0,0.0,0.0,-0.20428294023230853,0.0,0.0,0.0,0.0,0.0,0.0,-13.124,0.0,0.0,0.0
481,0.0,0.0,0.0,-0.2205322265625,0.0,0.0,0.0,0.0,0.0,0.0,0.398,0.0,0.0,0.0,0.0,0.0,0.0,-0.20015191675230026,0.0,0.0,0.0,0.0,0.0,0.0,-12.872,0.0,0.0,0.0
482,0.0,0.0,0.0,-0.21705859375,0.0,0.0,0.0,0.0,0.0,0.0,0.425,0.0,0.0,0.0,0.0,0.0,0.0,-0.19597425850399514,0.0,0.0,0.0,0.0,0.0,0.0,-13.72,0.0,0.0,0.0
483,0.0,0.0,0.0,-0.2122763671875,0.0,0.0,0.0,0.0,0.0,0.0,0.393,0.0,0.0,0.0,0.0,0.0,0.0,-0.1917829421981483,0.0,0.0,0.0,0.0,0.0,0.0,-13.88,0.0,0.0,0.0
484,0.0,0.0,0.0,-0.207349609375,0.0,0.0,0.0,0.0,0.0,0.0,0.482,0.0,0.0,0.0,0.0,0.0,0.0,-0.18753145348189942,0.0,0.0,0.0,0.0,0.0,0.0,-15.892,0.0,0.0,0.0
485,0.0,0.0,0.0,-0.2041640625,0.0,0.0,0.0,0.0,0.0,0.0,0.441,0.0,0.0,0.0,0.0,0.0,0.0,-0.18326290927356564,0.0,0.0,0.0,0.0,0.0,0.0,-14.68,0.0,0.0,0.0
486,0.0,0.0,0.0,-0.19924609375,0.0,0.0,0.0,0.0,0.0,0.0,0.394,0.0,0.0,0.0,0.0,0.0,0.0,-0.1790145564023143,0.0,0.0,0.0,0.0,0.0,0.0,-12.668,0.0,0.0,0.0
487,0.0,0.0,0.0,-0.1946083984375,0.0,0.0,0.0,0.0,0.0,0.0,0.481,0.0,0.0,0.0,0.0,0.0,0.0,-0.1746925185054591,0.0,0.0,0.0,0.0,0.0,0.0,-13.788,0.0,0.0,0.0
488,0.0,0.0,0.0,-0.1912783203125,0.0,0.0,0.0,0.0,0.0,0.0,0.4,0.0,0.0,0.0,0.0,0.0,0.0,-0.17039627873912105,0.0,0.0,0.0,0.0,0.0,0.0,-13.284,0.0,0.0,0.0
489,0.0,0.0,0.0,-0.18649609375,0.0,0.0,0.0,0.0,0.0,0.0,0.394,0.0,0.0,0.0,0.0,0.0,0.0,-0.1660383030708133,0.0,0.0,0.0,0.0,0.0,0.0,-13.032,0.0,0.0,0.0
490,0.0,0.0,0.0,-0.1820029296875,0.0,0.0,0.0,0.0,0.0,0.0,0.486,0.0,0.0,0.0,0.0,0.0,0.0,-0.16164591606580656,0.0,0.0,0.0,0.0,0.0,0.0,-13.996,0.0,0.0,0.0
491,0.0,0.0,0.0,-0.1783837890625,0.0,0.0,0.0,0.0,0.0,0.0,0.404,0.0,0.0,0.0,0.0,0.0,0.0,-0.15725746700376356,0.0,0.0,0.0,0.0,0.0,0.0,-12.624,0.0,0.0,0.0
492,0.0,0.0,0.0,-0.1737548828125,0.0,0.0,0.0,0.0,0.0,0.0,0.405,0.0,0.0,0.0,0.0,0.0,0.0,-0.15285539683498117,0.0,0.0,0.0,0.0,0.0,0.0,-13.172,0.0,0.0,0.0
493,0.0,0.0,0.0,-0.16926171875,0.0,0.0,0.0,0.0,0.0,0.0,0.463,0.0,0.0,0.0,0.0,0.0,0.0,-0.1475080212937159,0.0,0.0,0.0,0.0,0.0,0.0,-13.172,0.0,0.0,0.0
494,0.0,0.0,0.0,-0.164767578125,0.0,0.0,0.0,0.0,0.0,0.0,0.441,0.0,0.0,0.0,0.0,0.0,0.0,-0.1439206475522393,0.0,0.0,0.0,0.0,0.0,0.0,-12.988,0.0,0.0,0.0
495,0.0,0.0,0.0,-0.1601298828125,0.0,0.0,0.0,0.0,0.0,0.0,0.465,0.0,0.0,0.0,0.0,0.0,0.0,-0.13944944978013205,0.0,0.0,0.0,0.0,0.0,0.0,-14.248,0.0,0.0,0.0
496,0.0,0.0,0.0,-0.15622265625,0.0,0.0,0.0,0.0,0.0,0.0,0.432,0.0,0.0,0.0,0.0,0.0,0.0,-0.1349334422650783,0.0,0.0,0.0,0.0,0.0,0.0,-14.268,0.0,0.0,0.0
497,0.0,0.0,0.0,-0.1518828125,0.0,0.0,0.0,0.0,0.0,0.0,0.406,0.0,0.0,0.0,0.0,0.0,0.0,-0.13040421743496988,0.0,0.0,0.0,0.0,0.0,0.0,-14.016,0.0,0.0,0.0
498,0.0,0.0,0.0,-0.1469560546875,0.0,0.0,0.0,0.0,0.0,0.0,0.474,0.0,0.0,0.0,0.0,0.0,0.0,-0.12585446854090984,0.0,0.0,0.0,0.0,0.0,0.0,-14.748,0.0,0.0,0.0
499,0.0,0.0,0.0,-0.142615234375,0.0,0.0,0.0,0.0,0.0,0.0,0.465,0.0,0.0,0.0,0.0,0.0,0.0,-0.12127926865610167,0.0,0.0,0.0,0.0,0.0,0.0,-13.856,0.0,0.0,0.0
500,0.0,0.0,0.0,-0.13724609375,0.0,0.0,0.0,0.0,0.0,0.0,0.477,0.0,0.0,0.0,0.0,0.0,0.0,-0.11669517567421678,0.0,0.0,0.0,0.0,0.0,0.0,-13.356,0.0,0.0,0.0
501,0.0,0.0,0.0,-0.13247265625,0.0,0.0,0.0,0.0,0.0,0.0,0.523,0.0,0.0,0.0,0.0,0.0,0.0,-0.11211832651773607,0.0,0.0,0.0,0.0,0.0,0.0,-14.064,0.0,0.0,0.0
502,0.0,0.0,0.0,-0.1282685546875,0.0,0.0,0.0,0.0,0.0,0.0,0.449,0.0,0.0,0.0,0.0,0.0,0.0,-0.1074722493045315,0.0,0.0,0.0,0.0,0.0,0.0,-13.492,0.0,0.0,0.0
503,0.0,0.0,0.0,-0.123783203125,0.0,0.0,0.0,0.0,0.0,0.0,0.439,0.0,0.0,0.0,0.0,0.0,0.0,-0.10282719115147013,0.0,0.0,0.0,0.0,0.0,0.0,-13.924,0.0,0.0,0.0
504,0.0,0.0,0.0,-0.11972265625,0.0,0.0,0.0,0.0,0.0,0.0,0.432,0.0,0.0,0.0,0.0,0.0,0.0,-0.09818820470127053,0.0,0.0,0.0,0.0,0.0,0.0,-13.056,0.0,0.0,0.0
505,0.0,0.0,0.0,-0.1153740234375,0.0,0.0,0.0,0.0,0.0,0.0,0.418,0.0,0.0,0.0,0.0,0.0,0.0,-0.09353934997100338,0.0,0.0,0.0,0.0,0.0,0.0,-13.924,0.0,0.0,0.0
506,0.0,0.0,0.0,-0.111177734375,0.0,0.0,0.0,0.0,0.0,0.0,0.422,0.0,0.0,0.0,0.0,0.0,0.0,-0.08886437036122646,0.0,0.0,0.0,0.0,0.0,0.0,-13.584,0.0,0.0,0.0
507,0.0,0.0,0.0,-0.1062509765625,0.0,0.0,0.0,0.0,0.0,0.0,0.456,0.0,0.0,0.0,0.0,0.0,0.0,-0.08420287770883605,0.0,0.0,0.0,0.0,0.0,0.0,-13.376,0.0,0.0,0.0
508,0.0,0.0,0.0,-0.1019111328125,0.0,0.0,0.0,0.0,0.0,0.0,0.48,0.0,0.0,0.0,0.0,0.0,0.0,-0.07949181535006289,0.0,0.0,0.0,0.0,0.0,0.0,-13.812,0.0,0.0,0.0
509,0.0,0.0,0.0,-0.0971279296875,0.0,0.0,0.0,0.0,0.0,0.0,0.442,0.0,0.0,0.0,0.0,0.0,0.0,-0.07472112660301075,0.0,0.0,0.0,0.0,0.0,0.0,-13.264,0.0,0.0,0.0
510,0.0,0.0,0.0,-0.0919130859375,0.0,0.0,0.0,0.0,0.0,0.0,0.515,0.0,0.0,0.0,0.0,0.0,0.0,-0.07005511609064545,0.0,0.0,0.0,0.0,0.0,0.0,-15.024,0.0,0.0,0.0
511,0.0,0.0,0.0,-0.08799609375,0.0,0.0,0.0,0.0,0.0,0.0,0.462,0.0,0.0,0.0,0.0,0.0,0.0,-0.06531636300950942,0.0,0.0,0.0,0.0,0.0,0.0,-14.908,0.0,0.0,0.0
512,0.0,0.0,0.0,-0.0829345703125,0.0,0.0,0.0,0.0,0.0,0.0,0.426,0.0,0.0,0.0,0.0,0.0,0.0,-0.060539665895929996,0.0,0.0,0.0,0.0,0.0,0.0,-14.248,0.0,0.0,0.0
513,0.0,0.0,0.0,-0.07757421875,0.0,0.0,0.0,0.0,0.0,0.0,0.545,0.0,0.0,0.0,0.0,0.0,0.0,-0.05580919122303473,0.0,0.0,0.0,0.0,0.0,0.0,-13.948,0.0,0.0,0.0
514,0.0,0.0,0.0,-0.073658203125,0.0,0.0,0.0,0.0,0.0,0.0,0.474,0.0,0.0,0.0,0.0,0.0,0.0,-0.05103419387347639,0.0,0.0,0.0,0.0,0.0,0.0,-13.012,0.0,0.0,0.0
515,0.0,0.0,0.0,-0.0687314453125,0.0,0.0,0.0,0.0,0.0,0.0,0.423,0.0,0.0,0.0,0.0,0.0,0.0,-0.04605535878094635,0.0,0.0,0.0,0.0,0.0,0.0,-13.284,0.0,0.0,0.0
516,0.0,0.0,0.0,-0.0639580078125,0.0,0.0,0.0,0.0,0.0,0.0,0.507,0.0,0.0,0.0,0.0,0.0,0.0,-0.04155954250042249,0.0,0.0,0.0,0.0,0.0,0.0,-13.88,0.0,0.0,0.0
517,0.0,0.0,0.0,-0.05946484375,0.0,0.0,0.0,0.0,0.0,0.0,0.456,0.0,0.0,0.0,0.0,0.0,0.0,-0.03675769117210777,0.0,0.0,0.0,0.0,0.0,0.0,-12.6,0.0,0.0,0.0
518,0.0,0.0,0.0,-0.0545380859375,0.0,0.0,0.0,0.0,0.0,0.0,0.468,0.0,0.0,0.0,0.0,0.0,0.0,-0.031976956781237825,0.0,0.0,0.0,0.0,0.0,0.0,-13.424,0.0,0.0,0.0
519,0.0,0.0,0.0,-0.0500439453125,0.0,0.0,0.0,0.0,0.0,0.0,0.479,0.0,0.0,0.0,0.0,0.0,0.0,-0.02718100223145531,0.0,0.0,0.0,0.0,0.0,0.0,-13.628,0.0,0.0,0.0
520,0.0,0.0,0.0,-0.0455595703125,0.0,0.0,0.0,0.0,0.0,0.0,0.455,0.0,0.0,0.0,0.0,0.0,0.0,-0.022410940951665924,0.0,0.0,0.0,0.0,0.0,0.0,-14.084,0.0,0.0,0.0
521,0.0,0.0,0.0,-0.0416435546875,0.0,0.0,0.0,0.0,0.0,0.0,0.428,0.0,0.0,0.0,0.0,0.0,0.0,-0.017581887311929705,0.0,0.0,0.0,0.0,0.0,0.0,-13.744,0.0,0.0,0.0
522,0.0,0.0,0.0,-0.0368701171875,0.0,0.0,0.0,0.0,0.0,0.0,0.423,0.0,0.0,0.0,0.0,0.0,0.0,-0.01282427014765325,0.0,0.0,0.0,0.0,0.0,0.0,-12.944,0.0,0.0,0.0
523,0.0,0.0,0.0,-0.031509765625,0.0,0.0,0.0,0.0,0.0,0.0,0.52,0.0,0.0,0.0,0.0,0.0,0.0,-0.008027879194621812,0.0,0.0,0.0,0.0,0.0,0.0,-13.812,0.0,0.0,0.0
524,0.0,0.0,0.0,-0.0264296875,0.0,0.0,0.0,0.0,0.0,0.0,0.518,0.0,0.0,0.0,0.0,0.0,0.0,-0.003139126659476542,0.0,0.0,0.0,0.0,0.0,0.0,-13.812,0.0,0.0,0.0
525,0.0,0.0,0.0,-0.0204921875,0.0,0.0,0.0,0.0,0.0,0.0,0.543,0.0,0.0,0.0,0.0,0.0,0.0,0.0015533726133745939,0.0,0.0,0.0,0.0,0.0,0.0,-15.368,0.0,0.0,0.0
526,0.0,0.0,0.0,-0.0152861328125,0.0,0.0,0.0,0.0,0.0,0.0,0.574,0.0,0.0,0.0,0.0,0.0,0.0,1.9683837882680658e-05,0.0,0.0,0.0,0.0,0.0,0.0,-14.816,0.0,0.0,0.0
527,0.0,0.0,0.0,-0.01050390625,0.0,0.0,0.0,0.0,0.0,0.0,0.504,0.0,0.0,0.0,0.0,0.0,0.0,0.004811323489390008,0.0,0.0,0.0,0.0,0.0,0.0,-13.216,0.0,0.0,0.0
528,0.0,0.0,0.0,-0.006009765625,0.0,0.0,0.0,0.0,0.0,0.0,0.477,0.0,0.0,0.0,0.0,0.0,0.0,0.009590374266628551,0.0,0.0,0.0,0.0,0.0,0.0,-13.492,0.0,0.0,0.0
529,0.0,0.0,0.0,-0.00209375,0.0,0.0,0.0,0.0,0.0,0.0,0.429,0.0,0.0,0.0,0.0,0.0,0.0,0.01440453864837307,0.0,0.0,0.0,0.0,0.0,0.0,-14.224,0.0,0.0,0.0
530,0.0,0.0,0.0,0.0015234375,0.0,0.0,0.0,0.0,0.0,0.0,0.371,0.0,0.0,0.0,0.0,0.0,0.0,0.01922370177896223,0.0,0.0,0.0,0.0,0.0,0.0,-14.796,0.0,0.0,0.0
531,0.0,0.0,0.0,0.0052861328125,0.0,0.0,0.0,0.0,0.0,0.0,0.371,0.0,0.0,0.0,0.0,0.0,0.0,0.023974042001131755,0.0,0.0,0.0,0.0,0.0,0.0,-15.208,0.0,0.0,0.0
532,0.0,0.0,0.0,0.0089052734375,0.0,0.0,0.0,0.0,0.0,0.0,0.375,0.0,0.0,0.0,0.0,0.0,0.0,0.028769845208651196,0.0,0.0,0.0,0.0,0.0,0.0,-14.656,0.0,0.0,0.0
533,0.0,0.0,0.0,0.013263671875,0.0,0.0,0.0,0.0,0.0,0.0,0.389,0.0,0.0,0.0,0.0,0.0,0.0,0.033598214639261874,0.0,0.0,0.0,0.0,0.0,0.0,-13.652,0.0,0.0,0.0
534,0.0,0.0,0.0,0.018037109375,0.0,0.0,0.0,0.0,0.0,0.0,0.467,0.0,0.0,0.0,0.0,0.0,0.0,0.03831287147185753,0.0,0.0,0.0,0.0,0.0,0.0,-13.744,0.0,0.0,0.0
535,0.0,0.0,0.0,0.022087890625,0.0,0.0,0.0,0.0,0.0,0.0,0.445,0.0,0.0,0.0,0.0,0.0,0.0,0.043146518550278255,0.0,0.0,0.0,0.0,0.0,0.0,-14.496,0.0,0.0,0.0
536,0.0,0.0,0.0,0.02600390625,0.0,0.0,0.0,0.0,0.0,0.0,0.396,0.0,0.0,0.0,0.0,0.0,0.0,0.047882905962963615,0.0,0.0,0.0,0.0,0.0,0.0,-14.476,0.0,0.0,0.0
537,0.0,0.0,0.0,0.0302001953125,0.0,0.0,0.0,0.0,0.0,0.0,0.408,0.0,0.0,0.0,0.0,0.0,0.0,0.05263484062449939,0.0,0.0,0.0,0.0,0.0,0.0,-14.2,0.0,0.0,0.0
538,0.0,0.0,0.0,0.034703125,0.0,0.0,0.0,0.0,0.0,0.0,0.432,0.0,0.0,0.0,0.0,0.0,0.0,0.057407315423657485,0.0,0.0,0.0,0.0,0.0,0.0,-13.124,0.0,0.0,0.0
539,0.0,0.0,0.0,0.0397646484375,0.0,0.0,0.0,0.0,0.0,0.0,0.473,0.0,0.0,0.0,0.0,0.0,0.0,0.06215145054313283,0.0,0.0,0.0,0.0,0.0,0.0,-13.584,0.0,0.0,0.0
540,0.0,0.0,0.0,0.0448359375,0.0,0.0,0.0,0.0,0.0,0.0,0.513,0.0,0.0,0.0,0.0,0.0,0.0,0.06692263559866647,0.0,0.0,0.0,0.0,0.0,0.0,-14.452,0.0,0.0,0.0
541,0.0,0.0,0.0,0.0491767578125,0.0,0.0,0.0,0.0,0.0,0.0,0.488,0.0,0.0,0.0,0.0,0.0,0.0,0.07160894701384021,0.0,0.0,0.0,0.0,0.0,0.0,-14.428,0.0,0.0,0.0
542,0.0,0.0,0.0,0.053525390625,0.0,0.0,0.0,0.0,0.0,0.0,0.431,0.0,0.0,0.0,0.0,0.0,0.0,0.07635106834005854,0.0,0.0,0.0,0.0,0.0,0.0,-13.24,0.0,0.0,0.0
543,0.0,0.0,0.0,0.05801953125,0.0,0.0,0.0,0.0,0.0,0.0,0.447,0.0,0.0,0.0,0.0,0.0,0.0,0.08106190674828989,0.0,0.0,0.0,0.0,0.0,0.0,-12.988,0.0,0.0,0.0
544,0.0,0.0,0.0,0.062224609375,0.0,0.0,0.0,0.0,0.0,0.0,0.433,0.0,0.0,0.0,0.0,0.0,0.0,0.08574472911387254,0.0,0.0,0.0,0.0,0.0,0.0,-12.12,0.0,0.0,0.0
545,0.0,0.0,0.0,0.066998046875,0.0,0.0,0.0,0.0,0.0,0.0,0.451,0.0,0.0,0.0,0.0,0.0,0.0,0.09042541012322432,0.0,0.0,0.0,0.0,0.0,0.0,-13.856,0.0,0.0,0.0
546,0.0,0.0,0.0,0.071048828125,0.0,0.0,0.0,0.0,0.0,0.0,0.444,0.0,0.0,0.0,0.0,0.0,0.0,0.09507640404221762,0.0,0.0,0.0,0.0,0.0,0.0,-14.2,0.0,0.0,0.0
547,0.0,0.0,0.0,0.0761298828125,0.0,0.0,0.0,0.0,0.0,0.0,0.445,0.0,0.0,0.0,0.0,0.0,0.0,0.0997388602836744,0.0,0.0,0.0,0.0,0.0,0.0,-13.148,0.0,0.0,0.0
548,0.0,0.0,0.0,0.0812001953125,0.0,0.0,0.0,0.0,0.0,0.0,0.524,0.0,0.0,0.0,0.0,0.0,0.0,0.10440812224647514,0.0,0.0,0.0,0.0,0.0,0.0,-12.644,0.0,0.0,0.0
549,0.0,0.0,0.0,0.085685546875,0.0,0.0,0.0,0.0,0.0,0.0,0.476,0.0,0.0,0.0,0.0,0.0,0.0,0.10901977521654714,0.0,0.0,0.0,0.0,0.0,0.0,-12.12,0.0,0.0,0.0
550,0.0,0.0,0.0,0.091189453125,0.0,0.0,0.0,0.0,0.0,0.0,0.498,0.0,0.0,0.0,0.0,0.0,0.0,0.11360847496343847,0.0,0.0,0.0,0.0,0.0,0.0,-13.836,0.0,0.0,0.0
551,0.0,0.0,0.0,0.096125,0.0,0.0,0.0,0.0,0.0,0.0,0.532,0.0,0.0,0.0,0.0,0.0,0.0,0.11821169053556518,0.0,0.0,0.0,0.0,0.0,0.0,-14.636,0.0,0.0,0.0
552,0.0,0.0,0.0,0.1008984375,0.0,0.0,0.0,0.0,0.0,0.0,0.486,0.0,0.0,0.0,0.0,0.0,0.0,0.12281698444565842,0.0,0.0,0.0,0.0,0.0,0.0,-14.408,0.0,0.0,0.0
553,0.0,0.0,0.0,0.10581640625,0.0,0.0,0.0,0.0,0.0,0.0,0.486,0.0,0.0,0.0,0.0,0.0,0.0,0.12733212253282758,0.0,0.0,0.0,0.0,0.0,0.0,-13.972,0.0,0.0,0.0
554,0.0,0.0,0.0,0.1108876953125,0.0,0.0,0.0,0.0,0.0,0.0,0.503,0.0,0.0,0.0,0.0,0.0,0.0,0.13187627776710645,0.0,0.0,0.0,0.0,0.0,0.0,-12.804,0.0,0.0,0.0
555,0.0,0.0,0.0,0.115669921875,0.0,0.0,0.0,0.0,0.0,0.0,0.499,0.0,0.0,0.0,0.0,0.0,0.0,0.136443372771916,0.0,0.0,0.0,0.0,0.0,0.0,-13.516,0.0,0.0,0.0
556,0.0,0.0,0.0,0.1201640625,0.0,0.0,0.0,0.0,0.0,0.0,0.469,0.0,0.0,0.0,0.0,0.0,0.0,0.1409604383129088,0.0,0.0,0.0,0.0,0.0,0.0,-14.612,0.0,0.0,0.0
557,0.0,0.0,0.0,0.12450390625,0.0,0.0,0.0,0.0,0.0,0.0,0.44,0.0,0.0,0.0,0.0,0.0,0.0,0.14537071621117784,0.0,0.0,0.0,0.0,0.0,0.0,-14.2,0.0,0.0,0.0
558,0.0,0.0,0.0,0.12898828125,0.0,0.0,0.0,0.0,0.0,0.0,0.447,0.0,0.0,0.0,0.0,0.0,0.0,0.14983818773940416,0.0,0.0,0.0,0.0,0.0,0.0,-14.132,0.0,0.0,0.0
559,0.0,0.0,0.0,0.133337890625,0.0,0.0,0.0,0.0,0.0,0.0,0.434,0.0,0.0,0.0,0.0,0.0,0.0,0.15432910597570343,0.0,0.0,0.0,0.0,0.0,0.0,-13.012,0.0,0.0,0.0
560,0.0,0.0,0.0,0.13870703125,0.0,0.0,0.0,0.0,0.0,0.0,0.478,0.0,0.0,0.0,0.0,0.0,0.0,0.15870043411834386,0.0,0.0,0.0,0.0,0.0,0.0,-13.332,0.0,0.0,0.0
561,0.0,0.0,0.0,0.1433359375,0.0,0.0,0.0,0.0,0.0,0.0,0.526,0.0,0.0,0.0,0.0,0.0,0.0,0.16309797421292604,0.0,0.0,0.0,0.0,0.0,0.0,-14.316,0.0,0.0,0.0
562,0.0,0.0,0.0,0.147685546875,0.0,0.0,0.0,0.0,0.0,0.0,0.444,0.0,0.0,0.0,0.0,0.0,0.0,0.167453288835533,0.0,0.0,0.0,0.0,0.0,0.0,-14.016,0.0,0.0,0.0
563,0.0,0.0,0.0,0.1526025390625,0.0,0.0,0.0,0.0,0.0,0.0,0.461,0.0,0.0,0.0,0.0,0.0,0.0,0.17180636699062543,0.0,0.0,0.0,0.0,0.0,0.0,-14.496,0.0,0.0,0.0
564,0.0,0.0,0.0,0.15651953125,0.0,0.0,0.0,0.0,0.0,0.0,0.449,0.0,0.0,0.0,0.0,0.0,0.0,0.17615878129484208,0.0,0.0,0.0,0.0,0.0,0.0,-14.384,0.0,0.0,0.0
565,0.0,0.0,0.0,0.160580078125,0.0,0.0,0.0,0.0,0.0,0.0,0.398,0.0,0.0,0.0,0.0,0.0,0.0,0.1804292991024682,0.0,0.0,0.0,0.0,0.0,0.0,-14.408,0.0,0.0,0.0
566,0.0,0.0,0.0,0.165208984375,0.0,0.0,0.0,0.0,0.0,0.0,0.435,0.0,0.0,0.0,0.0,0.0,0.0,0.18476956821265456,0.0,0.0,0.0,0.0,0.0,0.0,-15.184,0.0,0.0,0.0
567,0.0,0.0,0.0,0.1699912109375,0.0,0.0,0.0,0.0,0.0,0.0,0.478,0.0,0.0,0.0,0.0,0.0,0.0,0.1889798868178554,0.0,0.0,0.0,0.0,0.0,0.0,-14.52,0.0,0.0,0.0
568,0.0,0.0,0.0,0.1746201171875,0.0,0.0,0.0,0.0,0.0,0.0,0.475,0.0,0.0,0.0,0.0,0.0,0.0,0.1931715389588177,0.0,0.0,0.0,0.0,0.0,0.0,-13.812,0.0,0.0,0.0
569,0.0,0.0,0.0,0.178400390625,0.0,0.0,0.0,0.0,0.0,0.0,0.423,0.0,0.0,0.0,0.0,0.0,0.0,0.19733272035240987,0.0,0.0,0.0,0.0,0.0,0.0,-14.064,0.0,0.0,0.0
570,0.0,0.0,0.0,0.1825966796875,0.0,0.0,0.0,0.0,0.0,0.0,0.39,0.0,0.0,0.0,0.0,0.0,0.0,0.20154376652539235,0.0,0.0,0.0,0.0,0.0,0.0,-13.264,0.0,0.0,0.0
571,0.0,0.0,0.0,0.1866484375,0.0,0.0,0.0,0.0,0.0,0.0,0.431,0.0,0.0,0.0,0.0,0.0,0.0,0.20567453811683115,0.0,0.0,0.0,0.0,0.0,0.0,-13.924,0.0,0.0,0.0
572,0.0,0.0,0.0,0.190419921875,0.0,0.0,0.0,0.0,0.0,0.0,0.391,0.0,0.0,0.0,0.0,0.0,0.0,0.20977239129728165,0.0,0.0,0.0,0.0,0.0,0.0,-13.056,0.0,0.0,0.0
573,0.0,0.0,0.0,0.1944716796875,0.0,0.0,0.0,0.0,0.0,0.0,0.398,0.0,0.0,0.0,0.0,0.0,0.0,0.21383439194632337,0.0,0.0,0.0,0.0,0.0,0.0,-14.016,0.0,0.0,0.0
574,0.0,0.0,0.0,0.1983876953125,0.0,0.0,0.0,0.0,0.0,0.0,0.391,0.0,0.0,0.0,0.0,0.0,0.0,0.21786143003197755,0.0,0.0,0.0,0.0,0.0,0.0,-13.676,0.0,0.0,0.0
575,0.0,0.0,0.0,0.2024482421875,0.0,0.0,0.0,0.0,0.0,0.0,0.399,0.0,0.0,0.0,0.0,0.0,0.0,0.22188597641363092,0.0,0.0,0.0,0.0,0.0,0.0,-13.696,0.0,0.0,0.0
576,0.0,0.0,0.0,0.20635546875,0.0,0.0,0.0,0.0,0.0,0.0,0.399,0.0,0.0,0.0,0.0,0.0,0.0,0.22589023537484723,0.0,0.0,0.0,0.0,0.0,0.0,-12.736,0.0,0.0,0.0
577,0.0,0.0,0.0,0.2106953125,0.0,0.0,0.0,0.0,0.0,0.0,0.414,0.0,0.0,0.0,0.0,0.0,0.0,0.22982144192444612,0.0,0.0,0.0,0.0,0.0,0.0,-13.012,0.0,0.0,0.0
578,0.0,0.0,0.0,0.2146025390625,0.0,0.0,0.0,0.0,0.0,0.0,0.429,0.0,0.0,0.0,0.0,0.0,0.0,0.23368440014336517,0.0,0.0,0.0,0.0,0.0,0.0,-14.016,0.0,0.0,0.0
579,0.0,0.0,0.0,0.2180947265625,0.0,0.0,0.0,0.0,0.0,0.0,0.373,0.0,0.0,0.0,0.0,0.0,0.0,0.237662776580852,0.0,0.0,0.0,0.0,0.0,0.0,-15.068,0.0,0.0,0.0
580,0.0,0.0,0.0,0.2214248046875,0.0,0.0,0.0,0.0,0.0,0.0,0.336,0.0,0.0,0.0,0.0,0.0,0.0,0.24143217854306231,0.0,0.0,0.0,0.0,0.0,0.0,-14.292,0.0,0.0,0.0
581,0.0,0.0,0.0,0.2256201171875,0.0,0.0,0.0,0.0,0.0,0.0,0.374,0.0,0.0,0.0,0.0,0.0,0.0,0.24525124305480134,0.0,0.0,0.0,0.0,0.0,0.0,-13.744,0.0,0.0,0.0
582,0.0,0.0,0.0,0.2293828125,0.0,0.0,0.0,0.0,0.0,0.0,0.404,0.0,0.0,0.0,0.0,0.0,0.0,0.24906114336663732,0.0,0.0,0.0,0.0,0.0,0.0,-13.72,0.0,0.0,0.0
583,0.0,0.0,0.0,0.233587890625,0.0,0.0,0.0,0.0,0.0,0.0,0.385,0.0,0.0,0.0,0.0,0.0,0.0,0.25279050593993113,0.0,0.0,0.0,0.0,0.0,0.0,-13.124,0.0,0.0,0.0
584,0.0,0.0,0.0,0.23808203125,0.0,0.0,0.0,0.0,0.0,0.0,0.447,0.0,0.0,0.0,0.0,0.0,0.0,0.2564612410613928,0.0,0.0,0.0,0.0,0.0,0.0,-14.084,0.0,0.0,0.0
585,0.0,0.0,0.0,0.241123046875,0.0,0.0,0.0,0.0,0.0,0.0,0.393,0.0,0.0,0.0,0.0,0.0,0.0,0.26015069490795456,0.0,0.0,0.0,0.0,0.0,0.0,-13.88,0.0,0.0,0.0
586,0.0,0.0,0.0,0.2445966796875,0.0,0.0,0.0,0.0,0.0,0.0,0.318,0.0,0.0,0.0,0.0,0.0,0.0,0.26375495285733147,0.0,0.0,0.0,0.0,0.0,0.0,-12.784,0.0,0.0,0.0
587,0.0,0.0,0.0,0.24850390625,0.0,0.0,0.0,0.0,0.0,0.0,0.373,0.0,0.0,0.0,0.0,0.0,0.0,0.26736274513326835,0.0,0.0,0.0,0.0,0.0,0.0,-12.532,0.0,0.0,0.0
588,0.0,0.0,0.0,0.252275390625,0.0,0.0,0.0,0.0,0.0,0.0,0.378,0.0,0.0,0.0,0.0,0.0,0.0,0.27090899542196356,0.0,0.0,0.0,0.0,0.0,0.0,-12.096,0.0,0.0,0.0
589,0.0,0.0,0.0,0.25648046875,0.0,0.0,0.0,0.0,0.0,0.0,0.407,0.0,0.0,0.0,0.0,0.0,0.0,0.27444955773965435,0.0,0.0,0.0,0.0,0.0,0.0,-13.216,0.0,0.0,0.0
590,0.0,0.0,0.0,0.2602431640625,0.0,0.0,0.0,0.0,0.0,0.0,0.406,0.0,0.0,0.0,0.0,0.0,0.0,0.2778874782475464,0.0,0.0,0.0,0.0,0.0,0.0,-14.292,0.0,0.0,0.0
591,0.0,0.0,0.0,0.2635732421875,0.0,0.0,0.0,0.0,0.0,0.0,0.365,0.0,0.0,0.0,0.0,0.0,0.0,0.2813427957931402,0.0,0.0,0.0,0.0,0.0,0.0,-14.408,0.0,0.0,0.0
592,0.0,0.0,0.0,0.267046875,0.0,0.0,0.0,0.0,0.0,0.0,0.33,0.0,0.0,0.0,0.0,0.0,0.0,0.28467884434398844,0.0,0.0,0.0,0.0,0.0,0.0,-12.644,0.0,0.0,0.0
593,0.0,0.0,0.0,0.2705302734375,0.0,0.0,0.0,0.0,0.0,0.0,0.353,0.0,0.0,0.0,0.0,0.0,0.0,0.2880564820445068,0.0,0.0,0.0,0.0,0.0,0.0,-13.056,0.0,0.0,0.0
594,0.0,0.0,0.0,0.2734267578125,0.0,0.0,0.0,0.0,0.0,0.0,0.325,0.0,0.0,0.0,0.0,0.0,0.0,0.29136375748693893,0.0,0.0,0.0,0.0,0.0,0.0,-13.24,0.0,0.0,0.0
595,0.0,0.0,0.0,0.2773427734375,0.0,0.0,0.0,0.0,0.0,0.0,0.333,0.0,0.0,0.0,0.0,0.0,0.0,0.29463362446545693,0.0,0.0,0.0,0.0,0.0,0.0,-13.516,0.0,0.0,0.0
596,0.0,0.0,0.0,0.28110546875,0.0,0.0,0.0,0.0,0.0,0.0,0.394,0.0,0.0,0.0,0.0,0.0,0.0,0.2978546661594396,0.0,0.0,0.0,0.0,0.0,0.0,-14.268,0.0,0.0,0.0
597,0.0,0.0,0.0,0.284291015625,0.0,0.0,0.0,0.0,0.0,0.0,0.348,0.0,0.0,0.0,0.0,0.0,0.0,0.30103918246867883,0.0,0.0,0.0,0.0,0.0,0.0,-14.316,0.0,0.0,0.0
598,0.0,0.0,0.0,0.2876201171875,0.0,0.0,0.0,0.0,0.0,0.0,0.324,0.0,0.0,0.0,0.0,0.0,0.0,0.3042083799850316,0.0,0.0,0.0,0.0,0.0,0.0,-14.384,0.0,0.0,0.0
599,0.0,0.0,0.0,0.2913828125,0.0,0.0,0.0,0.0,0.0,0.0,0.348,0.0,0.0,0.0,0.0,0.0,0.0,0.3072736519477268,0.0,0.0,0.0,0.0,0.0,0.0,-14.2,0.0,0.0,0.0
600,0.0,0.0,0.0,0.2948662109375,0.0,0.0,0.0,0.0,0.0,0.0,0.374,0.0,0.0,0.0,0.0,0.0,0.0,0.31034419064770724,0.0,0.0,0.0,0.0,0.0,0.0,-14.704,0.0,0.0,0.0
601,0.0,0.0,0.0,0.298205078125,0.0,0.0,0.0,0.0,0.0,0.0,0.337,0.0,0.0,0.0,0.0,0.0,0.0,0.3133725172123558,0.0,0.0,0.0,0.0,0.0,0.0,-12.804,0.0,0.0,0.0
602,0.0,0.0,0.0,0.3016787109375,0.0,0.0,0.0,0.0,0.0,0.0,0.355,0.0,0.0,0.0,0.0,0.0,0.0,0.3163106320316796,0.0,0.0,0.0,0.0,0.0,0.0,-13.332,0.0,0.0,0.0
603,0.0,0.0,0.0,0.3044306640625,0.0,0.0,0.0,0.0,0.0,0.0,0.31,0.0,0.0,0.0,0.0,0.0,0.0,0.3192111303599414,0.0,0.0,0.0,0.0,0.0,0.0,-12.964,0.0,0.0,0.0
604,0.0,0.0,0.0,0.3074716796875,0.0,0.0,0.0,0.0,0.0,0.0,0.286,0.0,0.0,0.0,0.0,0.0,0.0,0.3222568070136525,0.0,0.0,0.0,0.0,0.0,0.0,-12.872,0.0,0.0,0.0
605,0.0,0.0,0.0,0.310359375,0.0,0.0,0.0,0.0,0.0,0.0,0.301,0.0,0.0,0.0,0.0,0.0,0.0,0.32491781657468705,0.0,0.0,0.0,0.0,0.0,0.0,-13.08,0.0,0.0,0.0
606,0.0,0.0,0.0,0.3132646484375,0.0,0.0,0.0,0.0,0.0,0.0,0.29,0.0,0.0,0.0,0.0,0.0,0.0,0.32772012374573445,0.0,0.0,0.0,0.0,0.0,0.0,-13.652,0.0,0.0,0.0
607,0.0,0.0,0.0,0.3160166015625,0.0,0.0,0.0,0.0,0.0,0.0,0.288,0.0,0.0,0.0,0.0,0.0,0.0,0.33042532838694205,0.0,0.0,0.0,0.0,0.0,0.0,-13.628,0.0,0.0,0.0
608,0.0,0.0,0.0,0.3189130859375,0.0,0.0,0.0,0.0,0.0,0.0,0.282,0.0,0.0,0.0,0.0,0.0,0.0,0.3330683689406861,0.0,0.0,0.0,0.0,0.0,0.0,-13.856,0.0,0.0,0.0
609,0.0,0.0,0.0,0.321232421875,0.0,0.0,0.0,0.0,0.0,0.0,0.27,0.0,0.0,0.0,0.0,0.0,0.0,0.335714915828386,0.0,0.0,0.0,0.0,0.0,0.0,-14.04,0.0,0.0,0.0
610,0.0,0.0,0.0,0.323984375,0.0,0.0,0.0,0.0,0.0,0.0,0.247,0.0,0.0,0.0,0.0,0.0,0.0,0.3383309109787969,0.0,0.0,0.0,0.0,0.0,0.0,-12.712,0.0,0.0,0.0
611,0.0,0.0,0.0,0.3267373046875,0.0,0.0,0.0,0.0,0.0,0.0,0.281,0.0,0.0,0.0,0.0,0.0,0.0,0.34082964795448323,0.0,0.0,0.0,0.0,0.0,0.0,-13.172,0.0,0.0,0.0
612,0.0,0.0,0.0,0.32919140625,0.0,0.0,0.0,0.0,0.0,0.0,0.262,0.0,0.0,0.0,0.0,0.0,0.0,0.34333126728008356,0.0,0.0,0.0,0.0,0.0,0.0,-13.148,0.0,0.0,0.0
613,0.0,0.0,0.0,0.331654296875,0.0,0.0,0.0,0.0,0.0,0.0,0.247,0.0,0.0,0.0,0.0,0.0,0.0,0.3457862287503136,0.0,0.0,0.0,0.0,0.0,0.0,-13.216,0.0,0.0,0.0
614,0.0,0.0,0.0,0.334126953125,0.0,0.0,0.0,0.0,0.0,0.0,0.246,0.0,0.0,0.0,0.0,0.0,0.0,0.34817825022092413,0.0,0.0,0.0,0.0,0.0,0.0,-13.124,0.0,0.0,0.0
615,0.0,0.0,0.0,0.3363017578125,0.0,0.0,0.0,0.0,0.0,0.0,0.238,0.0,0.0,0.0,0.0,0.0,0.0,0.350499781571787,0.0,0.0,0.0,0.0,0.0,0.0,-13.216,0.0,0.0,0.0
616,0.0,0.0,0.0,0.338611328125,0.0,0.0,0.0,0.0,0.0,0.0,0.223,0.0,0.0,0.0,0.0,0.0,0.0,0.3527964664408508,0.0,0.0,0.0,0.0,0.0,0.0,-12.576,0.0,0.0,0.0
617,0.0,0.0,0.0,0.3412197265625,0.0,0.0,0.0,0.0,0.0,0.0,0.242,0.0,0.0,0.0,0.0,0.0,0.0,0.3550326110428359,0.0,0.0,0.0,0.0,0.0,0.0,-13.124,0.0,0.0,0.0
618,0.0,0.0,0.0,0.3438271484375,0.0,0.0,0.0,0.0,0.0,0.0,0.263,0.0,0.0,0.0,0.0,0.0,0.0,0.3572004526781736,0.0,0.0,0.0,0.0,0.0,0.0,-13.72,0.0,0.0,0.0
619,0.0,0.0,0.0,0.346146484375,0.0,0.0,0.0,0.0,0.0,0.0,0.255,0.0,0.0,0.0,0.0,0.0,0.0,0.3593427341133641,0.0,0.0,0.0,0.0,0.0,0.0,-14.016,0.0,0.0,0.0
620,0.0,0.0,0.0,0.34846484375,0.0,0.0,0.0,0.0,0.0,0.0,0.239,0.0,0.0,0.0,0.0,0.0,0.0,0.3614318581705647,0.0,0.0,0.0,0.0,0.0,0.0,-14.064,0.0,0.0,0.0
621,0.0,0.0,0.0,0.350630859375,0.0,0.0,0.0,0.0,0.0,0.0,0.222,0.0,0.0,0.0,0.0,0.0,0.0,0.36344475754648303,0.0,0.0,0.0,0.0,0.0,0.0,-14.268,0.0,0.0,0.0
622,0.0,0.0,0.0,0.352958984375,0.0,0.0,0.0,0.0,0.0,0.0,0.222,0.0,0.0,0.0,0.0,0.0,0.0,0.3654255927951937,0.0,0.0,0.0,0.0,0.0,0.0,-13.652,0.0,0.0,0.0
623,0.0,0.0,0.0,0.35556640625,0.0,0.0,0.0,0.0,0.0,0.0,0.246,0.0,0.0,0.0,0.0,0.0,0.0,0.36737147338797205,0.0,0.0,0.0,0.0,0.0,0.0,-13.124,0.0,0.0,0.0
624,0.0,0.0,0.0,0.3580302734375,0.0,0.0,0.0,0.0,0.0,0.0,0.254,0.0,0.0,0.0,0.0,0.0,0.0,0.36922517370086677,0.0,0.0,0.0,0.0,0.0,0.0,-13.192,0.0,0.0,0.0
625,0.0,0.0,0.0,0.3601953125,0.0,0.0,0.0,0.0,0.0,0.0,0.244,0.0,0.0,0.0,0.0,0.0,0.0,0.3710584513605646,0.0,0.0,0.0,0.0,0.0,0.0,-13.444,0.0,0.0,0.0
626,0.0,0.0,0.0,0.3622255859375,0.0,0.0,0.0,0.0,0.0,0.0,0.21,0.0,0.0,0.0,0.0,0.0,0.0,0.37283056108884544,0.0,0.0,0.0,0.0,0.0,0.0,-12.896,0.0,0.0,0.0
627,0.0,0.0,0.0,0.364255859375,0.0,0.0,0.0,0.0,0.0,0.0,0.204,0.0,0.0,0.0,0.0,0.0,0.0,0.37453244590665236,0.0,0.0,0.0,0.0,0.0,0.0,-12.964,0.0,0.0,0.0
628,0.0,0.0,0.0,0.36598828125,0.0,0.0,0.0,0.0,0.0,0.0,0.189,0.0,0.0,0.0,0.0,0.0,0.0,0.3761908056131513,0.0,0.0,0.0,0.0,0.0,0.0,-12.712,0.0,0.0,0.0
629,0.0,0.0,0.0,0.367875,0.0,0.0,0.0,0.0,0.0,0.0,0.172,0.0,0.0,0.0,0.0,0.0,0.0,0.37780555876956035,0.0,0.0,0.0,0.0,0.0,0.0,-12.804,0.0,0.0,0.0
630,0.0,0.0,0.0,0.369607421875,0.0,0.0,0.0,0.0,0.0,0.0,0.186,0.0,0.0,0.0,0.0,0.0,0.0,0.3793417325878429,0.0,0.0,0.0,0.0,0.0,0.0,-13.192,0.0,0.0,0.0
631,0.0,0.0,0.0,0.371357421875,0.0,0.0,0.0,0.0,0.0,0.0,0.177,0.0,0.0,0.0,0.0,0.0,0.0,0.38083070457618257,0.0,0.0,0.0,0.0,0.0,0.0,-13.332,0.0,0.0,0.0
632,0.0,0.0,0.0,0.3728017578125,0.0,0.0,0.0,0.0,0.0,0.0,0.162,0.0,0.0,0.0,0.0,0.0,0.0,0.38228420729520524,0.0,0.0,0.0,0.0,0.0,0.0,-13.516,0.0,0.0,0.0
633,0.0,0.0,0.0,0.3743984375,0.0,0.0,0.0,0.0,0.0,0.0,0.145,0.0,0.0,0.0,0.0,0.0,0.0,0.38366622076133916,0.0,0.0,0.0,0.0,0.0,0.0,-12.988,0.0,0.0,0.0
634,0.0,0.0,0.0,0.375986328125,0.0,0.0,0.0,0.0,0.0,0.0,0.164,0.0,0.0,0.0,0.0,0.0,0.0,0.38499022742019734,0.0,0.0,0.0,0.0,0.0,0.0,-13.444,0.0,0.0,0.0
635,0.0,0.0,0.0,0.377294921875,0.0,0.0,0.0,0.0,0.0,0.0,0.146,0.0,0.0,0.0,0.0,0.0,0.0,0.3862831150909189,0.0,0.0,0.0,0.0,0.0,0.0,-13.216,0.0,0.0,0.0
636,0.0,0.0,0.0,0.3787392578125,0.0,0.0,0.0,0.0,0.0,0.0,0.138,0.0,0.0,0.0,0.0,0.0,0.0,0.3874892378468608,0.0,0.0,0.0,0.0,0.0,0.0,-13.172,0.0,0.0,0.0
637,0.0,0.0,0.0,0.3799033203125,0.0,0.0,0.0,0.0,0.0,0.0,0.137,0.0,0.0,0.0,0.0,0.0,0.0,0.3886510483452889,0.0,0.0,0.0,0.0,0.0,0.0,-13.24,0.0,0.0,0.0
638,0.0,0.0,0.0,0.3809130859375,0.0,0.0,0.0,0.0,0.0,0.0,0.106,0.0,0.0,0.0,0.0,0.0,0.0,0.3897697608740252,0.0,0.0,0.0,0.0,0.0,0.0,-12.624,0.0,0.0,0.0
639,0.0,0.0,0.0,0.382212890625,0.0,0.0,0.0,0.0,0.0,0.0,0.114,0.0,0.0,0.0,0.0,0.0,0.0,0.3908020873331286,0.0,0.0,0.0,0.0,0.0,0.0,-12.644,0.0,0.0,0.0
640,0.0,0.0,0.0,0.383232421875,0.0,0.0,0.0,0.0,0.0,0.0,0.116,0.0,0.0,0.0,0.0,0.0,0.0,0.39180325989139975,0.0,0.0,0.0,0.0,0.0,0.0,-12.852,0.0,0.0,0.0
641,0.0,0.0,0.0,0.3845322265625,0.0,0.0,0.0,0.0,0.0,0.0,0.117,0.0,0.0,0.0,0.0,0.0,0.0,0.3927508801332843,0.0,0.0,0.0,0.0,0.0,0.0,-12.964,0.0,0.0,0.0
642,0.0,0.0,0.0,0.38554296875,0.0,0.0,0.0,0.0,0.0,0.0,0.121,0.0,0.0,0.0,0.0,0.0,0.0,0.39362278598010425,0.0,0.0,0.0,0.0,0.0,0.0,-13.032,0.0,0.0,0.0
643,0.0,0.0,0.0,0.38641796875,0.0,0.0,0.0,0.0,0.0,0.0,0.097,0.0,0.0,0.0,0.0,0.0,0.0,0.39445450381021785,0.0,0.0,0.0,0.0,0.0,0.0,-12.944,0.0,0.0,0.0
644,0.0,0.0,0.0,0.3872841796875,0.0,0.0,0.0,0.0,0.0,0.0,0.085,0.0,0.0,0.0,0.0,0.0,0.0,0.39522575762806095,0.0,0.0,0.0,0.0,0.0,0.0,-12.508,0.0,0.0,0.0
645,0.0,0.0,0.0,0.388005859375,0.0,0.0,0.0,0.0,0.0,0.0,0.082,0.0,0.0,0.0,0.0,0.0,0.0,0.3959289010393556,0.0,0.0,0.0,0.0,0.0,0.0,-12.484,0.0,0.0,0.0
646,0.0,0.0,0.0,0.3890166015625,0.0,0.0,0.0,0.0,0.0,0.0,0.082,0.0,0.0,0.0,0.0,0.0,0.0,0.39658402881440397,0.0,0.0,0.0,0.0,0.0,0.0,-12.348,0.0,0.0,0.0
647,0.0,0.0,0.0,0.390044921875,0.0,0.0,0.0,0.0,0.0,0.0,0.101,0.0,0.0,0.0,0.0,0.0,0.0,0.3971844945542493,0.0,0.0,0.0,0.0,0.0,0.0,-12.712,0.0,0.0,0.0
648,0.0,0.0,0.0,0.3907666015625,0.0,0.0,0.0,0.0,0.0,0.0,0.085,0.0,0.0,0.0,0.0,0.0,0.0,0.39771984540059235,0.0,0.0,0.0,0.0,0.0,0.0,-12.692,0.0,0.0,0.0
649,0.0,0.0,0.0,0.3916337890625,0.0,0.0,0.0,0.0,0.0,0.0,0.081,0.0,0.0,0.0,0.0,0.0,0.0,0.39820725012999847,0.0,0.0,0.0,0.0,0.0,0.0,-12.712,0.0,0.0,0.0
650,0.0,0.0,0.0,0.39206640625,0.0,0.0,0.0,0.0,0.0,0.0,0.065,0.0,0.0,0.0,0.0,0.0,0.0,0.39863417233523624,0.0,0.0,0.0,0.0,0.0,0.0,-12.624,0.0,0.0,0.0
651,0.0,0.0,0.0,0.3923642578125,0.0,0.0,0.0,0.0,0.0,0.0,0.041,0.0,0.0,0.0,0.0,0.0,0.0,0.3989974845773,0.0,0.0,0.0,0.0,0.0,0.0,-12.416,0.0,0.0,0.0
652,0.0,0.0,0.0,0.39294140625,0.0,0.0,0.0,0.0,0.0,0.0,0.043,0.0,0.0,0.0,0.0,0.0,0.0,0.3993077545394918,0.0,0.0,0.0,0.0,0.0,0.0,-12.392,0.0,0.0,0.0
653,0.0,0.0,0.0,0.39351953125,0.0,0.0,0.0,0.0,0.0,0.0,0.053,0.0,0.0,0.0,0.0,0.0,0.0,0.39956205207052314,0.0,0.0,0.0,0.0,0.0,0.0,-12.552,0.0,0.0,0.0
654,0.0,0.0,0.0,0.3938076171875,0.0,0.0,0.0,0.0,0.0,0.0,0.049,0.0,0.0,0.0,0.0,0.0,0.0,0.39975836846995794,0.0,0.0,0.0,0.0,0.0,0.0,-12.692,0.0,0.0,0.0
655,0.0,0.0,0.0,0.3942412109375,0.0,0.0,0.0,0.0,0.0,0.0,0.039,0.0,0.0,0.0,0.0,0.0,0.0,0.39989594954969165,0.0,0.0,0.0,0.0,0.0,0.0,-12.76,0.0,0.0,0.0
656,0.0,0.0,0.0,0.394673828125,0.0,0.0,0.0,0.0,0.0,0.0,0.044,0.0,0.0,0.0,0.0,0.0,0.0,0.3999774232661533,0.0,0.0,0.0,0.0,0.0,0.0,-12.896,0.0,0.0,0.0
657,0.0,0.0,0.0,0.394962890625,0.0,0.0,0.0,0.0,0.0,0.0,0.033,0.0,0.0,0.0,0.0,0.0,0.0,0.39999967026921235,0.0,0.0,0.0,0.0,0.0,0.0,-12.692,0.0,0.0,0.0
658,0.0,0.0,0.0,0.395107421875,0.0,0.0,0.0,0.0,0.0,0.0,0.025,0.0,0.0,0.0,0.0,0.0,0.0,0.39996507004206283,0.0,0.0,0.0,0.0,0.0,0.0,-12.784,0.0,0.0,0.0
659,0.0,0.0,0.0,0.395251953125,0.0,0.0,0.0,0.0,0.0,0.0,0.017,0.0,0.0,0.0,0.0,0.0,0.0,0.399872538315372,0.0,0.0,0.0,0.0,0.0,0.0,-12.736,0.0,0.0,0.0
660,0.0,0.0,0.0,0.395251953125,0.0,0.0,0.0,0.0,0.0,0.0,0.004,0.0,0.0,0.0,0.0,0.0,0.0,0.39970129762328876,0.0,0.0,0.0,0.0,0.0,0.0,-12.668,0.0,0.0,0.0
661,0.0,0.0,0.0,0.395251953125,0.0,0.0,0.0,0.0,0.0,0.0,-0.001,0.0,0.0,0.0,0.0,0.0,0.0,0.39951813724378255,0.0,0.0,0.0,0.0,0.0,0.0,-12.644,0.0,0.0,0.0
662,0.0,0.0,0.0,0.395251953125,0.0,0.0,0.0,0.0,0.0,0.0,-0.001,0.0,0.0,0.0,0.0,0.0,0.0,0.3992512339746896,0.0,0.0,0.0,0.0,0.0,0.0,-12.532,0.0,0.0,0.0
663,0.0,0.0,0.0,0.395251953125,0.0,0.0,0.0,0.0,0.0,0.0,-0.001,0.0,0.0,0.0,0.0,0.0,0.0,0.3989258792989938,0.0,0.0,0.0,0.0,0.0,0.0,-12.624,0.0,0.0,0.0
664,0.0,0.0,0.0,0.395251953125,0.0,0.0,0.0,0.0,0.0,0.0,-0.001,0.0,0.0,0.0,0.0,0.0,0.0,0.39854805392151826,0.0,0.0,0.0,0.0,0.0,0.0,-12.668,0.0,0.0,0.0
665,0.0,0.0,0.0,0.395251953125,0.0,0.0,0.0,0.0,0.0,0.0,-0.001,0.0,0.0,0.0,0.0,0.0,0.0,0.3981081492697228,0.0,0.0,0.0,0.0,0.0,0.0,-12.576,0.0,0.0,0.0
666,0.0,0.0,0.0,0.395251953125,0.0,0.0,0.0,0.0,0.0,0.0,-0.001,0.0,0.0,0.0,0.0,0.0,0.0,0.39761827359061974,0.0,0.0,0.0,0.0,0.0,0.0,-12.508,0.0,0.0,0.0
667,0.0,0.0,0.0,0.395107421875,0.0,0.0,0.0,0.0,0.0,0.0,-0.011,0.0,0.0,0.0,0.0,0.0,0.0,0.39706321275371037,0.0,0.0,0.0,0.0,0.0,0.0,-12.28,0.0,0.0,0.0
668,0.0,0.0,0.0,0.395107421875,0.0,0.0,0.0,0.0,0.0,0.0,-0.005,0.0,0.0,0.0,0.0,0.0,0.0,0.39645469523431354,0.0,0.0,0.0,0.0,0.0,0.0,-12.096,0.0,0.0,0.0
