EmanuelSamir/lab201_ws_projsamir/sawyer_dev/data/sawyer/vel_acel_ns/test_joint4/torque_test_joint4.csv
,j1,j2,j3,j4,j5,j6,j7,v1,v2,v3,v4,v5,v6,v7,jd1,jd2,jd3,jd4,jd5,jd6,jd7,e1,e2,e3,e4,e5,e6,e7
0,0.0,0.0,0.0,0.0,0.0,0.0,0.0,0.0,0.0,0.0,0.0,0.0,0.0,0.0,0.0,0.0,0.0,0.0,0.0,0.0,0.0,0.0,0.0,0.0,0.0,0.0,0.0,0.0
1,0.0,0.0,0.0,-0.00759765625,0.0,0.0,0.0,0.0,0.0,0.0,-0.03,0.0,0.0,0.0,0.0,0.0,-1.61,-0.002966258442029357,0.0,0.0,0.0,0.0,0.0,0.0,5.6,0.0,0.0,0.0
2,0.0,0.0,0.0,-0.0077421875,0.0,0.0,0.0,0.0,0.0,0.0,-0.023,0.0,0.0,0.0,0.0,0.0,-1.61,-0.004338014870882034,0.0,0.0,0.0,0.0,0.0,0.0,5.716,0.0,0.0,0.0
3,0.0,0.0,0.0,-0.00788671875,0.0,0.0,0.0,0.0,0.0,0.0,-0.007,0.0,0.0,0.0,0.0,0.0,-1.61,-0.004879818297922611,0.0,0.0,0.0,0.0,0.0,0.0,5.92,0.0,0.0,0.0
4,0.0,0.0,0.0,-0.00803125,0.0,0.0,0.0,0.0,0.0,0.0,-0.011,0.0,0.0,0.0,0.0,0.0,-1.61,-0.005945540964603424,0.0,0.0,0.0,0.0,0.0,0.0,5.328,0.0,0.0,0.0
5,0.0,0.0,0.0,-0.0092041015625,0.0,0.0,0.0,0.0,0.0,0.0,-0.056,0.0,0.0,0.0,0.0,0.0,-1.61,-0.00585805531591177,0.0,0.0,0.0,0.0,0.0,0.0,3.816,0.0,0.0,0.0
6,0.0,0.0,0.0,-0.01021484375,0.0,0.0,0.0,0.0,0.0,0.0,-0.124,0.0,0.0,0.0,0.0,0.0,-1.61,-0.004499811679124832,0.0,0.0,0.0,0.0,0.0,0.0,5.052,0.0,0.0,0.0
7,0.0,0.0,0.0,-0.010359375,0.0,0.0,0.0,0.0,0.0,0.0,-0.056,0.0,0.0,0.0,0.0,0.0,-1.61,-0.0019125351682305336,0.0,0.0,0.0,0.0,0.0,0.0,5.76,0.0,0.0,0.0
8,0.0,0.0,0.0,-0.0106474609375,0.0,0.0,0.0,0.0,0.0,0.0,-0.026,0.0,0.0,0.0,0.0,0.0,-1.61,-0.005655084736645222,0.0,0.0,0.0,0.0,0.0,0.0,7.156,0.0,0.0,0.0
9,0.0,0.0,0.0,-0.01021484375,0.0,0.0,0.0,0.0,0.0,0.0,-0.008,0.0,0.0,0.0,0.0,0.0,-1.61,-0.007614399306476116,0.0,0.0,0.0,0.0,0.0,0.0,8.024,0.0,0.0,0.0
10,0.0,0.0,0.0,-0.0094931640625,0.0,0.0,0.0,0.0,0.0,0.0,0.066,0.0,0.0,0.0,0.0,0.0,-1.61,-0.008215558715164661,0.0,0.0,0.0,0.0,0.0,0.0,6.332,0.0,0.0,0.0
11,0.0,0.0,0.0,-0.0092041015625,0.0,0.0,0.0,0.0,0.0,0.0,0.059,0.0,0.0,0.0,0.0,0.0,-1.61,-0.011969457380473614,0.0,0.0,0.0,0.0,0.0,0.0,4.892,0.0,0.0,0.0
12,0.0,0.0,0.0,-0.0100703125,0.0,0.0,0.0,0.0,0.0,0.0,-0.02,0.0,0.0,0.0,0.0,0.0,-1.61,-0.011241791769862175,0.0,0.0,0.0,0.0,0.0,0.0,2.832,0.0,0.0,0.0
13,0.0,0.0,0.0,-0.0110810546875,0.0,0.0,0.0,0.0,0.0,0.0,-0.099,0.0,0.0,0.0,0.0,0.0,-1.61,-0.00737928319722414,0.0,0.0,0.0,0.0,0.0,0.0,3.132,0.0,0.0,0.0
14,0.0,0.0,0.0,-0.0119560546875,0.0,0.0,0.0,0.0,0.0,0.0,-0.087,0.0,0.0,0.0,0.0,0.0,-1.61,-0.004079204984009266,0.0,0.0,0.0,0.0,0.0,0.0,3.588,0.0,0.0,0.0
15,0.0,0.0,0.0,-0.0138330078125,0.0,0.0,0.0,0.0,0.0,0.0,-0.136,0.0,0.0,0.0,0.0,0.0,-1.61,-0.005587218329310417,0.0,0.0,0.0,0.0,0.0,0.0,4.184,0.0,0.0,0.0
16,0.0,0.0,0.0,-0.0147080078125,0.0,0.0,0.0,0.0,0.0,0.0,-0.167,0.0,0.0,0.0,0.0,0.0,-1.61,-0.004915342666208744,0.0,0.0,0.0,0.0,0.0,0.0,7.224,0.0,0.0,0.0
17,0.0,0.0,0.0,-0.0139775390625,0.0,0.0,0.0,0.0,0.0,0.0,-0.003,0.0,0.0,0.0,0.0,0.0,-1.61,-0.004227247089147568,0.0,0.0,0.0,0.0,0.0,0.0,6.652,0.0,0.0,0.0
18,0.0,0.0,0.0,-0.0139775390625,0.0,0.0,0.0,0.0,0.0,0.0,-0.003,0.0,0.0,0.0,0.0,0.0,-1.61,-0.012269437313079834,0.0,0.0,0.0,0.0,0.0,0.0,6.652,0.0,0.0,0.0
19,0.0,0.0,0.0,-0.0123896484375,0.0,0.0,0.0,0.0,0.0,0.0,0.051,0.0,0.0,0.0,0.0,0.0,-1.61,-0.014474473893642426,0.0,0.0,0.0,0.0,0.0,0.0,7.272,0.0,0.0,0.0
20,0.0,0.0,0.0,-0.01021484375,0.0,0.0,0.0,0.0,0.0,0.0,0.217,0.0,0.0,0.0,0.0,0.0,-1.61,-0.022598817944526672,0.0,0.0,0.0,0.0,0.0,0.0,3.2,0.0,0.0,0.0
21,0.0,0.0,0.0,-0.0119560546875,0.0,0.0,0.0,0.0,0.0,0.0,0.062,0.0,0.0,0.0,0.0,0.0,-1.61,-0.022598817944526672,0.0,0.0,0.0,0.0,0.0,0.0,-1.028,0.0,0.0,0.0
22,0.0,0.0,0.0,-0.0142666015625,0.0,0.0,0.0,0.0,0.0,0.0,-0.228,0.0,0.0,0.0,0.0,0.0,-1.61,-0.014181340113282204,0.0,0.0,0.0,0.0,0.0,0.0,0.18,0.0,0.0,0.0
23,0.0,0.0,0.0,-0.0160078125,0.0,0.0,0.0,0.0,0.0,0.0,-0.19,0.0,0.0,0.0,0.0,0.0,-1.61,-0.0008225692436099052,0.0,0.0,0.0,0.0,0.0,0.0,0.432,0.0,0.0,0.0
24,0.0,0.0,0.0,-0.020203125,0.0,0.0,0.0,0.0,0.0,0.0,-0.275,0.0,0.0,0.0,0.0,0.0,-1.61,-0.004392202943563461,0.0,0.0,0.0,0.0,0.0,0.0,2.672,0.0,0.0,0.0
25,0.0,0.0,0.0,-0.0222333984375,0.0,0.0,0.0,0.0,0.0,0.0,-0.376,0.0,0.0,0.0,0.0,0.0,-1.61,-0.004577783867716789,0.0,0.0,0.0,0.0,0.0,0.0,9.512,0.0,0.0,0.0
26,0.0,0.0,0.0,-0.0207900390625,0.0,0.0,0.0,0.0,0.0,0.0,-0.033,0.0,0.0,0.0,0.0,0.0,-1.61,-0.0022177137434482574,0.0,0.0,0.0,0.0,0.0,0.0,7.524,0.0,0.0,0.0
27,0.0,0.0,0.0,-0.0197705078125,0.0,0.0,0.0,0.0,0.0,0.0,0.129,0.0,0.0,0.0,0.0,0.0,-1.61,-0.01736125908792019,0.0,0.0,0.0,0.0,0.0,0.0,7.088,0.0,0.0,0.0
28,0.0,0.0,0.0,-0.017595703125,0.0,0.0,0.0,0.0,0.0,0.0,0.135,0.0,0.0,0.0,0.0,0.0,-1.61,-0.026296213269233704,0.0,0.0,0.0,0.0,0.0,0.0,5.668,0.0,0.0,0.0
29,0.0,0.0,0.0,-0.0141220703125,0.0,0.0,0.0,0.0,0.0,0.0,0.287,0.0,0.0,0.0,0.0,0.0,-1.61,-0.02451438084244728,0.0,0.0,0.0,0.0,0.0,0.0,2.056,0.0,0.0,0.0
30,0.0,0.0,0.0,-0.0135439453125,0.0,0.0,0.0,0.0,0.0,0.0,0.253,0.0,0.0,0.0,0.0,0.0,-1.61,-0.03129439428448677,0.0,0.0,0.0,0.0,0.0,0.0,-2.284,0.0,0.0,0.0
31,0.0,0.0,0.0,-0.0164404296875,0.0,0.0,0.0,0.0,0.0,0.0,-0.102,0.0,0.0,0.0,0.0,0.0,-1.61,-0.028377141803503036,0.0,0.0,0.0,0.0,0.0,0.0,-3.016,0.0,0.0,0.0
32,0.0,0.0,0.0,-0.018470703125,0.0,0.0,0.0,0.0,0.0,0.0,-0.268,0.0,0.0,0.0,0.0,0.0,-1.61,-0.009281231090426445,0.0,0.0,0.0,0.0,0.0,0.0,-1.988,0.0,0.0,0.0
33,0.0,0.0,0.0,-0.02208984375,0.0,0.0,0.0,0.0,0.0,0.0,-0.245,0.0,0.0,0.0,0.0,0.0,-1.61,-0.0031646285206079483,0.0,0.0,0.0,0.0,0.0,0.0,-1.668,0.0,0.0,0.0
34,0.0,0.0,0.0,-0.02657421875,0.0,0.0,0.0,0.0,0.0,0.0,-0.43,0.0,0.0,0.0,0.0,0.0,-1.61,-0.007846605032682419,0.0,0.0,0.0,0.0,0.0,0.0,4.732,0.0,0.0,0.0
35,0.0,0.0,0.0,-0.026140625,0.0,0.0,0.0,0.0,0.0,0.0,-0.267,0.0,0.0,0.0,0.0,0.0,-1.61,-0.004376990720629692,0.0,0.0,0.0,0.0,0.0,0.0,8.392,0.0,0.0,0.0
36,0.0,0.0,0.0,-0.0241201171875,0.0,0.0,0.0,0.0,0.0,0.0,0.136,0.0,0.0,0.0,0.0,0.0,-1.61,-0.010880367830395699,0.0,0.0,0.0,0.0,0.0,0.0,6.196,0.0,0.0,0.0
37,0.0,0.0,0.0,-0.0219453125,0.0,0.0,0.0,0.0,0.0,0.0,0.196,0.0,0.0,0.0,0.0,0.0,-1.61,-0.031104430556297302,0.0,0.0,0.0,0.0,0.0,0.0,6.472,0.0,0.0,0.0
38,0.0,0.0,0.0,-0.017306640625,0.0,0.0,0.0,0.0,0.0,0.0,0.322,0.0,0.0,0.0,0.0,0.0,-1.61,-0.03291410952806473,0.0,0.0,0.0,0.0,0.0,0.0,2.764,0.0,0.0,0.0
39,0.0,0.0,0.0,-0.0141220703125,0.0,0.0,0.0,0.0,0.0,0.0,0.433,0.0,0.0,0.0,0.0,0.0,-1.61,-0.03691200166940689,0.0,0.0,0.0,0.0,0.0,0.0,-2.832,0.0,0.0,0.0
40,0.0,0.0,0.0,-0.0148525390625,0.0,0.0,0.0,0.0,0.0,0.0,0.156,0.0,0.0,0.0,0.0,0.0,-1.61,-0.04160995036363602,0.0,0.0,0.0,0.0,0.0,0.0,-5.168,0.0,0.0,0.0
41,0.0,0.0,0.0,-0.01615234375,0.0,0.0,0.0,0.0,0.0,0.0,-0.109,0.0,0.0,0.0,0.0,0.0,-1.61,-0.023154694586992264,0.0,0.0,0.0,0.0,0.0,0.0,-4.8,0.0,0.0,0.0
42,0.0,0.0,0.0,-0.018470703125,0.0,0.0,0.0,0.0,0.0,0.0,-0.155,0.0,0.0,0.0,0.0,0.0,-1.61,-0.008627302944660187,0.0,0.0,0.0,0.0,0.0,0.0,-4.16,0.0,0.0,0.0
43,0.0,0.0,0.0,-0.0231005859375,0.0,0.0,0.0,0.0,0.0,0.0,-0.33,0.0,0.0,0.0,0.0,0.0,-1.61,-0.008590452373027802,0.0,0.0,0.0,0.0,0.0,0.0,-1.12,0.0,0.0,0.0
44,0.0,0.0,0.0,-0.02671875,0.0,0.0,0.0,0.0,0.0,0.0,-0.459,0.0,0.0,0.0,0.0,0.0,-1.61,-0.005034113302826881,0.0,0.0,0.0,0.0,0.0,0.0,2.764,0.0,0.0,0.0
45,0.0,0.0,0.0,-0.02628515625,0.0,0.0,0.0,0.0,0.0,0.0,-0.196,0.0,0.0,0.0,0.0,0.0,-1.61,-0.003397444263100624,0.0,0.0,0.0,0.0,0.0,0.0,4.456,0.0,0.0,0.0
46,0.0,0.0,0.0,-0.024697265625,0.0,0.0,0.0,0.0,0.0,0.0,0.099,0.0,0.0,0.0,0.0,0.0,-1.61,-0.014376986771821976,0.0,0.0,0.0,0.0,0.0,0.0,5.076,0.0,0.0,0.0
47,0.0,0.0,0.0,-0.0222333984375,0.0,0.0,0.0,0.0,0.0,0.0,0.189,0.0,0.0,0.0,0.0,0.0,-1.61,-0.029275331646203995,0.0,0.0,0.0,0.0,0.0,0.0,4.756,0.0,0.0,0.0
48,0.0,0.0,0.0,-0.0177490234375,0.0,0.0,0.0,0.0,0.0,0.0,0.334,0.0,0.0,0.0,0.0,0.0,-1.61,-0.0327327623963356,0.0,0.0,0.0,0.0,0.0,0.0,2.512,0.0,0.0,0.0
49,0.0,0.0,0.0,-0.0138330078125,0.0,0.0,0.0,0.0,0.0,0.0,0.451,0.0,0.0,0.0,0.0,0.0,-1.61,-0.03819432109594345,0.0,0.0,0.0,0.0,0.0,0.0,-2.332,0.0,0.0,0.0
50,0.0,0.0,0.0,-0.0138330078125,0.0,0.0,0.0,0.0,0.0,0.0,0.23,0.0,0.0,0.0,0.0,0.0,-1.61,-0.04262198135256767,0.0,0.0,0.0,0.0,0.0,0.0,-5.668,0.0,0.0,0.0
51,0.0,0.0,0.0,-0.0151416015625,0.0,0.0,0.0,0.0,0.0,0.0,-0.068,0.0,0.0,0.0,0.0,0.0,-1.61,-0.027098089456558228,0.0,0.0,0.0,0.0,0.0,0.0,-6.172,0.0,0.0,0.0
52,0.0,0.0,0.0,-0.017306640625,0.0,0.0,0.0,0.0,0.0,0.0,-0.152,0.0,0.0,0.0,0.0,0.0,-1.61,-0.009787033312022686,0.0,0.0,0.0,0.0,0.0,0.0,-5.532,0.0,0.0,0.0
53,0.0,0.0,0.0,-0.02165625,0.0,0.0,0.0,0.0,0.0,0.0,-0.314,0.0,0.0,0.0,0.0,0.0,-1.61,-0.00757744163274765,0.0,0.0,0.0,0.0,0.0,0.0,-1.416,0.0,0.0,0.0
54,0.0,0.0,0.0,-0.024552734375,0.0,0.0,0.0,0.0,0.0,0.0,-0.406,0.0,0.0,0.0,0.0,0.0,-1.61,-0.0042874980717897415,0.0,0.0,0.0,0.0,0.0,0.0,3.724,0.0,0.0,0.0
55,0.0,0.0,0.0,-0.023677734375,0.0,0.0,0.0,0.0,0.0,0.0,-0.128,0.0,0.0,0.0,0.0,0.0,-1.61,-0.0033108890056610107,0.0,0.0,0.0,0.0,0.0,0.0,5.212,0.0,0.0,0.0
56,0.0,0.0,0.0,-0.02208984375,0.0,0.0,0.0,0.0,0.0,0.0,0.123,0.0,0.0,0.0,0.0,0.0,-1.61,-0.015169690363109112,0.0,0.0,0.0,0.0,0.0,0.0,4.848,0.0,0.0,0.0
57,0.0,0.0,0.0,-0.0193369140625,0.0,0.0,0.0,0.0,0.0,0.0,0.203,0.0,0.0,0.0,0.0,0.0,-1.61,-0.028223682194948196,0.0,0.0,0.0,0.0,0.0,0.0,4.228,0.0,0.0,0.0
58,0.0,0.0,0.0,-0.0151416015625,0.0,0.0,0.0,0.0,0.0,0.0,0.34,0.0,0.0,0.0,0.0,0.0,-1.61,-0.030776310712099075,0.0,0.0,0.0,0.0,0.0,0.0,1.348,0.0,0.0,0.0
59,0.0,0.0,0.0,-0.012822265625,0.0,0.0,0.0,0.0,0.0,0.0,0.37,0.0,0.0,0.0,0.0,0.0,-1.61,-0.03600800409913063,0.0,0.0,0.0,0.0,0.0,0.0,-3.908,0.0,0.0,0.0
60,0.0,0.0,0.0,-0.0139775390625,0.0,0.0,0.0,0.0,0.0,0.0,0.075,0.0,0.0,0.0,0.0,0.0,-1.61,-0.03580554574728012,0.0,0.0,0.0,0.0,0.0,0.0,-5.58,0.0,0.0,0.0
61,0.0,0.0,0.0,-0.0151416015625,0.0,0.0,0.0,0.0,0.0,0.0,-0.121,0.0,0.0,0.0,0.0,0.0,-1.61,-0.017022036015987396,0.0,0.0,0.0,0.0,0.0,0.0,-6.152,0.0,0.0,0.0
62,0.0,0.0,0.0,-0.0183271484375,0.0,0.0,0.0,0.0,0.0,0.0,-0.189,0.0,0.0,0.0,0.0,0.0,-1.61,-0.006994047202169895,0.0,0.0,0.0,0.0,0.0,0.0,-5.328,0.0,0.0,0.0
63,0.0,0.0,0.0,-0.023388671875,0.0,0.0,0.0,0.0,0.0,0.0,-0.414,0.0,0.0,0.0,0.0,0.0,-1.61,-0.006760469637811184,0.0,0.0,0.0,0.0,0.0,0.0,0.228,0.0,0.0,0.0
64,0.0,0.0,0.0,-0.0252744140625,0.0,0.0,0.0,0.0,0.0,0.0,-0.403,0.0,0.0,0.0,0.0,0.0,-1.61,-0.001825861632823944,0.0,0.0,0.0,0.0,0.0,0.0,5.1,0.0,0.0,0.0
65,0.0,0.0,0.0,-0.0239755859375,0.0,0.0,0.0,0.0,0.0,0.0,-0.045,0.0,0.0,0.0,0.0,0.0,-1.61,-0.004153579473495483,0.0,0.0,0.0,0.0,0.0,0.0,6.472,0.0,0.0,0.0
66,0.0,0.0,0.0,-0.02208984375,0.0,0.0,0.0,0.0,0.0,0.0,0.16,0.0,0.0,0.0,0.0,0.0,-1.61,-0.01987658254802227,0.0,0.0,0.0,0.0,0.0,0.0,5.58,0.0,0.0,0.0
67,0.0,0.0,0.0,-0.018904296875,0.0,0.0,0.0,0.0,0.0,0.0,0.224,0.0,0.0,0.0,0.0,0.0,-1.61,-0.03065689653158188,0.0,0.0,0.0,0.0,0.0,0.0,4.528,0.0,0.0,0.0
68,0.0,0.0,0.0,-0.018904296875,0.0,0.0,0.0,0.0,0.0,0.0,0.224,0.0,0.0,0.0,0.0,0.0,-1.61,-0.03176223859190941,0.0,0.0,0.0,0.0,0.0,0.0,4.528,0.0,0.0,0.0
69,0.0,0.0,0.0,-0.0121005859375,0.0,0.0,0.0,0.0,0.0,0.0,0.392,0.0,0.0,0.0,0.0,0.0,-1.61,-0.03895758092403412,0.0,0.0,0.0,0.0,0.0,0.0,-3.864,0.0,0.0,0.0
70,0.0,0.0,0.0,-0.013400390625,0.0,0.0,0.0,0.0,0.0,0.0,0.058,0.0,0.0,0.0,0.0,0.0,-1.61,-0.036648012697696686,0.0,0.0,0.0,0.0,0.0,0.0,-5.28,0.0,0.0,0.0
71,0.0,0.0,0.0,-0.0147080078125,0.0,0.0,0.0,0.0,0.0,0.0,-0.131,0.0,0.0,0.0,0.0,0.0,-1.61,-0.01537568960338831,0.0,0.0,0.0,0.0,0.0,0.0,-6.036,0.0,0.0,0.0
72,0.0,0.0,0.0,-0.0178935546875,0.0,0.0,0.0,0.0,0.0,0.0,-0.196,0.0,0.0,0.0,0.0,0.0,-1.61,-0.006046039052307606,0.0,0.0,0.0,0.0,0.0,0.0,-4.688,0.0,0.0,0.0
73,0.0,0.0,0.0,-0.023388671875,0.0,0.0,0.0,0.0,0.0,0.0,-0.423,0.0,0.0,0.0,0.0,0.0,-1.61,-0.0059853848069906235,0.0,0.0,0.0,0.0,0.0,0.0,0.248,0.0,0.0,0.0
74,0.0,0.0,0.0,-0.02628515625,0.0,0.0,0.0,0.0,0.0,0.0,-0.47,0.0,0.0,0.0,0.0,0.0,-1.61,-0.0014677699655294418,0.0,0.0,0.0,0.0,0.0,0.0,3.336,0.0,0.0,0.0
75,0.0,0.0,0.0,-0.0264296875,0.0,0.0,0.0,0.0,0.0,0.0,-0.182,0.0,0.0,0.0,0.0,0.0,-1.61,-0.002546144649386406,0.0,0.0,0.0,0.0,0.0,0.0,5.988,0.0,0.0,0.0
76,0.0,0.0,0.0,-0.0264296875,0.0,0.0,0.0,0.0,0.0,0.0,-0.182,0.0,0.0,0.0,0.0,0.0,-1.61,-0.015206387266516685,0.0,0.0,0.0,0.0,0.0,0.0,5.988,0.0,0.0,0.0
77,0.0,0.0,0.0,-0.0225224609375,0.0,0.0,0.0,0.0,0.0,0.0,0.184,0.0,0.0,0.0,0.0,0.0,-1.61,-0.02696162648499012,0.0,0.0,0.0,0.0,0.0,0.0,5.076,0.0,0.0,0.0
78,0.0,0.0,0.0,-0.018470703125,0.0,0.0,0.0,0.0,0.0,0.0,0.311,0.0,0.0,0.0,0.0,0.0,-1.61,-0.03268725425004959,0.0,0.0,0.0,0.0,0.0,0.0,3.384,0.0,0.0,0.0
79,0.0,0.0,0.0,-0.0141220703125,0.0,0.0,0.0,0.0,0.0,0.0,0.443,0.0,0.0,0.0,0.0,0.0,-1.61,-0.03730873763561249,0.0,0.0,0.0,0.0,0.0,0.0,0.068,0.0,0.0,0.0
80,0.0,0.0,0.0,-0.0141220703125,0.0,0.0,0.0,0.0,0.0,0.0,0.443,0.0,0.0,0.0,0.0,0.0,-1.61,-0.04233204945921898,0.0,0.0,0.0,0.0,0.0,0.0,0.068,0.0,0.0,0.0
81,0.0,0.0,0.0,-0.0141220703125,0.0,0.0,0.0,0.0,0.0,0.0,0.02,0.0,0.0,0.0,0.0,0.0,-1.61,-0.031317755579948425,0.0,0.0,0.0,0.0,0.0,0.0,-5.008,0.0,0.0,0.0
82,0.0,0.0,0.0,-0.0160078125,0.0,0.0,0.0,0.0,0.0,0.0,-0.15,0.0,0.0,0.0,0.0,0.0,-1.61,-0.013774186372756958,0.0,0.0,0.0,0.0,0.0,0.0,-4.252,0.0,0.0,0.0
83,0.0,0.0,0.0,-0.0199150390625,0.0,0.0,0.0,0.0,0.0,0.0,-0.27,0.0,0.0,0.0,0.0,0.0,-1.61,-0.006379452534019947,0.0,0.0,0.0,0.0,0.0,0.0,-1.256,0.0,0.0,0.0
84,0.0,0.0,0.0,-0.0239755859375,0.0,0.0,0.0,0.0,0.0,0.0,-0.413,0.0,0.0,0.0,0.0,0.0,-1.61,-0.004517585039138794,0.0,0.0,0.0,0.0,0.0,0.0,3.636,0.0,0.0,0.0
85,0.0,0.0,0.0,-0.024986328125,0.0,0.0,0.0,0.0,0.0,0.0,-0.3,0.0,0.0,0.0,0.0,0.0,-1.61,-0.0024527423083782196,0.0,0.0,0.0,0.0,0.0,0.0,6.492,0.0,0.0,0.0
86,0.0,0.0,0.0,-0.023533203125,0.0,0.0,0.0,0.0,0.0,0.0,0.007,0.0,0.0,0.0,0.0,0.0,-1.61,-0.00823647528886795,0.0,0.0,0.0,0.0,0.0,0.0,7.292,0.0,0.0,0.0
87,0.0,0.0,0.0,-0.0210791015625,0.0,0.0,0.0,0.0,0.0,0.0,0.19,0.0,0.0,0.0,0.0,0.0,-1.61,-0.02241232432425022,0.0,0.0,0.0,0.0,0.0,0.0,5.9,0.0,0.0,0.0
88,0.0,0.0,0.0,-0.0177490234375,0.0,0.0,0.0,0.0,0.0,0.0,0.28,0.0,0.0,0.0,0.0,0.0,-1.61,-0.03443773835897446,0.0,0.0,0.0,0.0,0.0,0.0,3.496,0.0,0.0,0.0
89,0.0,0.0,0.0,-0.0142666015625,0.0,0.0,0.0,0.0,0.0,0.0,0.349,0.0,0.0,0.0,0.0,0.0,-1.61,-0.03443773835897446,0.0,0.0,0.0,0.0,0.0,0.0,0.044,0.0,0.0,0.0
90,0.0,0.0,0.0,-0.013111328125,0.0,0.0,0.0,0.0,0.0,0.0,0.273,0.0,0.0,0.0,0.0,0.0,-1.61,-0.035766128450632095,0.0,0.0,0.0,0.0,0.0,0.0,-2.628,0.0,0.0,0.0
91,0.0,0.0,0.0,-0.0149970703125,0.0,0.0,0.0,0.0,0.0,0.0,-0.01,0.0,0.0,0.0,0.0,0.0,-1.61,-0.02931748330593109,0.0,0.0,0.0,0.0,0.0,0.0,-4.228,0.0,0.0,0.0
92,0.0,0.0,0.0,-0.0177490234375,0.0,0.0,0.0,0.0,0.0,0.0,-0.234,0.0,0.0,0.0,0.0,0.0,-1.61,-0.01288177166134119,0.0,0.0,0.0,0.0,0.0,0.0,-2.492,0.0,0.0,0.0
93,0.0,0.0,0.0,-0.02151171875,0.0,0.0,0.0,0.0,0.0,0.0,-0.308,0.0,0.0,0.0,0.0,0.0,-1.61,-0.0040215905755758286,0.0,0.0,0.0,0.0,0.0,0.0,-0.82,0.0,0.0,0.0
94,0.0,0.0,0.0,-0.026140625,0.0,0.0,0.0,0.0,0.0,0.0,-0.433,0.0,0.0,0.0,0.0,0.0,-1.61,-0.003825545310974121,0.0,0.0,0.0,0.0,0.0,0.0,3.544,0.0,0.0,0.0
95,0.0,0.0,0.0,-0.0270166015625,0.0,0.0,0.0,0.0,0.0,0.0,-0.334,0.0,0.0,0.0,0.0,0.0,-1.61,-0.00877729058265686,0.0,0.0,0.0,0.0,0.0,0.0,8.528,0.0,0.0,0.0
96,0.0,0.0,0.0,-0.0270166015625,0.0,0.0,0.0,0.0,0.0,0.0,-0.334,0.0,0.0,0.0,0.0,0.0,-1.61,-0.00877729058265686,0.0,0.0,0.0,0.0,0.0,0.0,8.528,0.0,0.0,0.0
97,0.0,0.0,0.0,-0.023388671875,0.0,0.0,0.0,0.0,0.0,0.0,0.176,0.0,0.0,0.0,0.0,0.0,-1.61,-0.026321258395910263,0.0,0.0,0.0,0.0,0.0,0.0,6.676,0.0,0.0,0.0
98,0.0,0.0,0.0,-0.02034765625,0.0,0.0,0.0,0.0,0.0,0.0,0.231,0.0,0.0,0.0,0.0,0.0,-1.61,-0.03301932290196419,0.0,0.0,0.0,0.0,0.0,0.0,3.656,0.0,0.0,0.0
99,0.0,0.0,0.0,-0.0177490234375,0.0,0.0,0.0,0.0,0.0,0.0,0.313,0.0,0.0,0.0,0.0,0.0,-1.61,-0.033680666238069534,0.0,0.0,0.0,0.0,0.0,0.0,0.044,0.0,0.0,0.0
100,0.0,0.0,0.0,-0.0180380859375,0.0,0.0,0.0,0.0,0.0,0.0,0.149,0.0,0.0,0.0,0.0,0.0,-1.61,-0.036726389080286026,0.0,0.0,0.0,0.0,0.0,0.0,-2.56,0.0,0.0,0.0
101,0.0,0.0,0.0,-0.0209345703125,0.0,0.0,0.0,0.0,0.0,0.0,-0.153,0.0,0.0,0.0,0.0,0.0,-1.61,-0.02587774395942688,0.0,0.0,0.0,0.0,0.0,0.0,-2.72,0.0,0.0,0.0
102,0.0,0.0,0.0,-0.0239755859375,0.0,0.0,0.0,0.0,0.0,0.0,-0.299,0.0,0.0,0.0,0.0,0.0,-1.61,-0.01115494966506958,0.0,0.0,0.0,0.0,0.0,0.0,-1.164,0.0,0.0,0.0
103,0.0,0.0,0.0,-0.02802734375,0.0,0.0,0.0,0.0,0.0,0.0,-0.347,0.0,0.0,0.0,0.0,0.0,-1.61,-0.007270229980349541,0.0,0.0,0.0,0.0,0.0,0.0,0.752,0.0,0.0,0.0
104,0.0,0.0,0.0,-0.0310771484375,0.0,0.0,0.0,0.0,0.0,0.0,-0.397,0.0,0.0,0.0,0.0,0.0,-1.61,-0.009230701252818108,0.0,0.0,0.0,0.0,0.0,0.0,7.728,0.0,0.0,0.0
105,0.0,0.0,0.0,-0.030201171875,0.0,0.0,0.0,0.0,0.0,0.0,-0.135,0.0,0.0,0.0,0.0,0.0,-1.61,-0.0101994089782238,0.0,0.0,0.0,0.0,0.0,0.0,9.284,0.0,0.0,0.0
106,0.0,0.0,0.0,-0.0288935546875,0.0,0.0,0.0,0.0,0.0,0.0,0.115,0.0,0.0,0.0,0.0,0.0,-1.61,-0.021334577351808548,0.0,0.0,0.0,0.0,0.0,0.0,7.932,0.0,0.0,0.0
107,0.0,0.0,0.0,-0.0264296875,0.0,0.0,0.0,0.0,0.0,0.0,0.169,0.0,0.0,0.0,0.0,0.0,-1.61,-0.03559423238039017,0.0,0.0,0.0,0.0,0.0,0.0,7.272,0.0,0.0,0.0
108,0.0,0.0,0.0,-0.0229560546875,0.0,0.0,0.0,0.0,0.0,0.0,0.305,0.0,0.0,0.0,0.0,0.0,-1.61,-0.04137656092643738,0.0,0.0,0.0,0.0,0.0,0.0,3.016,0.0,0.0,0.0
109,0.0,0.0,0.0,-0.0212236328125,0.0,0.0,0.0,0.0,0.0,0.0,0.284,0.0,0.0,0.0,0.0,0.0,-1.61,-0.03818855807185173,0.0,0.0,0.0,0.0,0.0,0.0,1.3,0.0,0.0,0.0
110,0.0,0.0,0.0,-0.0226669921875,0.0,0.0,0.0,0.0,0.0,0.0,0.052,0.0,0.0,0.0,0.0,0.0,-1.61,-0.03818855807185173,0.0,0.0,0.0,0.0,0.0,0.0,-2.032,0.0,0.0,0.0
111,0.0,0.0,0.0,-0.0226669921875,0.0,0.0,0.0,0.0,0.0,0.0,0.052,0.0,0.0,0.0,0.0,0.0,-1.61,-0.02426915615797043,0.0,0.0,0.0,0.0,0.0,0.0,-2.032,0.0,0.0,0.0
112,0.0,0.0,0.0,-0.029037109375,0.0,0.0,0.0,0.0,0.0,0.0,-0.317,0.0,0.0,0.0,0.0,0.0,-1.61,-0.011536801233887672,0.0,0.0,0.0,0.0,0.0,0.0,0.088,0.0,0.0,0.0
113,0.0,0.0,0.0,-0.029037109375,0.0,0.0,0.0,0.0,0.0,0.0,-0.317,0.0,0.0,0.0,0.0,0.0,-1.61,-0.011536801233887672,0.0,0.0,0.0,0.0,0.0,0.0,0.088,0.0,0.0,0.0
114,0.0,0.0,0.0,-0.0364365234375,0.0,0.0,0.0,0.0,0.0,0.0,-0.435,0.0,0.0,0.0,0.0,0.0,-1.61,-0.013627452775835991,0.0,0.0,0.0,0.0,0.0,0.0,10.496,0.0,0.0,0.0
115,0.0,0.0,0.0,-0.03483984375,0.0,0.0,0.0,0.0,0.0,0.0,-0.052,0.0,0.0,0.0,0.0,0.0,-1.61,-0.03035467490553856,0.0,0.0,0.0,0.0,0.0,0.0,10.288,0.0,0.0,0.0
116,0.0,0.0,0.0,-0.0336845703125,0.0,0.0,0.0,0.0,0.0,0.0,0.142,0.0,0.0,0.0,0.0,0.0,-1.61,-0.041063062846660614,0.0,0.0,0.0,0.0,0.0,0.0,8.78,0.0,0.0,0.0
117,0.0,0.0,0.0,-0.0309326171875,0.0,0.0,0.0,0.0,0.0,0.0,0.164,0.0,0.0,0.0,0.0,0.0,-1.61,-0.03976494073867798,0.0,0.0,0.0,0.0,0.0,0.0,7.248,0.0,0.0,0.0
118,0.0,0.0,0.0,-0.0278828125,0.0,0.0,0.0,0.0,0.0,0.0,0.312,0.0,0.0,0.0,0.0,0.0,-1.61,-0.03976494073867798,0.0,0.0,0.0,0.0,0.0,0.0,1.78,0.0,0.0,0.0
119,0.0,0.0,0.0,-0.0287490234375,0.0,0.0,0.0,0.0,0.0,0.0,0.162,0.0,0.0,0.0,0.0,0.0,-1.61,-0.04679050296545029,0.0,0.0,0.0,0.0,0.0,0.0,-2.012,0.0,0.0,0.0
120,0.0,0.0,0.0,-0.031798828125,0.0,0.0,0.0,0.0,0.0,0.0,-0.193,0.0,0.0,0.0,0.0,0.0,-1.61,-0.037448685616254807,0.0,0.0,0.0,0.0,0.0,0.0,-1.052,0.0,0.0,0.0
121,0.0,0.0,0.0,-0.03455078125,0.0,0.0,0.0,0.0,0.0,0.0,-0.295,0.0,0.0,0.0,0.0,0.0,-1.61,-0.020036758854985237,0.0,0.0,0.0,0.0,0.0,0.0,0.204,0.0,0.0,0.0
122,0.0,0.0,0.0,-0.03903515625,0.0,0.0,0.0,0.0,0.0,0.0,-0.336,0.0,0.0,0.0,0.0,0.0,-1.61,-0.018023835495114326,0.0,0.0,0.0,0.0,0.0,0.0,1.988,0.0,0.0,0.0
123,0.0,0.0,0.0,-0.043384765625,0.0,0.0,0.0,0.0,0.0,0.0,-0.478,0.0,0.0,0.0,0.0,0.0,-1.61,-0.02070966549217701,0.0,0.0,0.0,0.0,0.0,0.0,8.344,0.0,0.0,0.0
124,0.0,0.0,0.0,-0.043240234375,0.0,0.0,0.0,0.0,0.0,0.0,-0.263,0.0,0.0,0.0,0.0,0.0,-1.61,-0.019344935193657875,0.0,0.0,0.0,0.0,0.0,0.0,10.816,0.0,0.0,0.0
125,0.0,0.0,0.0,-0.0422294921875,0.0,0.0,0.0,0.0,0.0,0.0,0.074,0.0,0.0,0.0,0.0,0.0,-1.61,-0.02816343866288662,0.0,0.0,0.0,0.0,0.0,0.0,9.308,0.0,0.0,0.0
126,0.0,0.0,0.0,-0.04077734375,0.0,0.0,0.0,0.0,0.0,0.0,0.1,0.0,0.0,0.0,0.0,0.0,-1.61,-0.04521063342690468,0.0,0.0,0.0,0.0,0.0,0.0,9.74,0.0,0.0,0.0
127,0.0,0.0,0.0,-0.037158203125,0.0,0.0,0.0,0.0,0.0,0.0,0.241,0.0,0.0,0.0,0.0,0.0,-1.61,-0.04541981965303421,0.0,0.0,0.0,0.0,0.0,0.0,5.668,0.0,0.0,0.0
128,0.0,0.0,0.0,-0.0351279296875,0.0,0.0,0.0,0.0,0.0,0.0,0.328,0.0,0.0,0.0,0.0,0.0,-1.61,-0.05117178335785866,0.0,0.0,0.0,0.0,0.0,0.0,1.164,0.0,0.0,0.0
129,0.0,0.0,0.0,-0.0351279296875,0.0,0.0,0.0,0.0,0.0,0.0,0.328,0.0,0.0,0.0,0.0,0.0,-1.61,-0.055152907967567444,0.0,0.0,0.0,0.0,0.0,0.0,1.164,0.0,0.0,0.0
130,0.0,0.0,0.0,-0.0393330078125,0.0,0.0,0.0,0.0,0.0,0.0,-0.211,0.0,0.0,0.0,0.0,0.0,-1.61,-0.037956979125738144,0.0,0.0,0.0,0.0,0.0,0.0,-0.568,0.0,0.0,0.0
131,0.0,0.0,0.0,-0.0428076171875,0.0,0.0,0.0,0.0,0.0,0.0,-0.291,0.0,0.0,0.0,0.0,0.0,-1.61,-0.026699749752879143,0.0,0.0,0.0,0.0,0.0,0.0,0.616,0.0,0.0,0.0
132,0.0,0.0,0.0,-0.0428076171875,0.0,0.0,0.0,0.0,0.0,0.0,-0.291,0.0,0.0,0.0,0.0,0.0,-1.61,-0.02645972929894924,0.0,0.0,0.0,0.0,0.0,0.0,0.616,0.0,0.0,0.0
133,0.0,0.0,0.0,-0.05119921875,0.0,0.0,0.0,0.0,0.0,0.0,-0.485,0.0,0.0,0.0,0.0,0.0,-1.61,-0.025909295305609703,0.0,0.0,0.0,0.0,0.0,0.0,11.16,0.0,0.0,0.0
134,0.0,0.0,0.0,-0.0500439453125,0.0,0.0,0.0,0.0,0.0,0.0,-0.105,0.0,0.0,0.0,0.0,0.0,-1.61,-0.026898304000496864,0.0,0.0,0.0,0.0,0.0,0.0,11.732,0.0,0.0,0.0
135,0.0,0.0,0.0,-0.049177734375,0.0,0.0,0.0,0.0,0.0,0.0,0.117,0.0,0.0,0.0,0.0,0.0,-1.61,-0.042727719992399216,0.0,0.0,0.0,0.0,0.0,0.0,10.7,0.0,0.0,0.0
136,0.0,0.0,0.0,-0.0468583984375,0.0,0.0,0.0,0.0,0.0,0.0,0.131,0.0,0.0,0.0,0.0,0.0,-1.61,-0.05492077022790909,0.0,0.0,0.0,0.0,0.0,0.0,9.58,0.0,0.0,0.0
137,0.0,0.0,0.0,-0.043240234375,0.0,0.0,0.0,0.0,0.0,0.0,0.312,0.0,0.0,0.0,0.0,0.0,-1.61,-0.0535149909555912,0.0,0.0,0.0,0.0,0.0,0.0,3.908,0.0,0.0,0.0
138,0.0,0.0,0.0,-0.043529296875,0.0,0.0,0.0,0.0,0.0,0.0,0.225,0.0,0.0,0.0,0.0,0.0,-1.61,-0.06214792653918266,0.0,0.0,0.0,0.0,0.0,0.0,0.204,0.0,0.0,0.0
139,0.0,0.0,0.0,-0.04628125,0.0,0.0,0.0,0.0,0.0,0.0,-0.157,0.0,0.0,0.0,0.0,0.0,-1.61,-0.056455038487911224,0.0,0.0,0.0,0.0,0.0,0.0,0.248,0.0,0.0,0.0
140,0.0,0.0,0.0,-0.049177734375,0.0,0.0,0.0,0.0,0.0,0.0,-0.278,0.0,0.0,0.0,0.0,0.0,-1.61,-0.036300502717494965,0.0,0.0,0.0,0.0,0.0,0.0,1.232,0.0,0.0,0.0
141,0.0,0.0,0.0,-0.053671875,0.0,0.0,0.0,0.0,0.0,0.0,-0.35,0.0,0.0,0.0,0.0,0.0,-1.61,-0.033416152000427246,0.0,0.0,0.0,0.0,0.0,0.0,3.452,0.0,0.0,0.0
142,0.0,0.0,0.0,-0.05903125,0.0,0.0,0.0,0.0,0.0,0.0,-0.517,0.0,0.0,0.0,0.0,0.0,-1.61,-0.03474758565425873,0.0,0.0,0.0,0.0,0.0,0.0,8.712,0.0,0.0,0.0
143,0.0,0.0,0.0,-0.0603310546875,0.0,0.0,0.0,0.0,0.0,0.0,-0.393,0.0,0.0,0.0,0.0,0.0,-1.61,-0.033561185002326965,0.0,0.0,0.0,0.0,0.0,0.0,13.124,0.0,0.0,0.0
144,0.0,0.0,0.0,-0.0593203125,0.0,0.0,0.0,0.0,0.0,0.0,0.0,0.0,0.0,0.0,0.0,0.0,-1.61,-0.039616167545318604,0.0,0.0,0.0,0.0,0.0,0.0,11.844,0.0,0.0,0.0
145,0.0,0.0,0.0,-0.0584541015625,0.0,0.0,0.0,0.0,0.0,0.0,0.08,0.0,0.0,0.0,0.0,0.0,-1.61,-0.0577876903116703,0.0,0.0,0.0,0.0,0.0,0.0,11.708,0.0,0.0,0.0
146,0.0,0.0,0.0,-0.0555576171875,0.0,0.0,0.0,0.0,0.0,0.0,0.159,0.0,0.0,0.0,0.0,0.0,-1.61,-0.06181599572300911,0.0,0.0,0.0,0.0,0.0,0.0,8.916,0.0,0.0,0.0
147,0.0,0.0,0.0,-0.0526611328125,0.0,0.0,0.0,0.0,0.0,0.0,0.323,0.0,0.0,0.0,0.0,0.0,-1.61,-0.07233639061450958,0.0,0.0,0.0,0.0,0.0,0.0,4.596,0.0,0.0,0.0
148,0.0,0.0,0.0,-0.0539599609375,0.0,0.0,0.0,0.0,0.0,0.0,0.125,0.0,0.0,0.0,0.0,0.0,-1.61,-0.060224298387765884,0.0,0.0,0.0,0.0,0.0,0.0,1.712,0.0,0.0,0.0
149,0.0,0.0,0.0,-0.0571455078125,0.0,0.0,0.0,0.0,0.0,0.0,-0.221,0.0,0.0,0.0,0.0,0.0,-1.61,-0.060224298387765884,0.0,0.0,0.0,0.0,0.0,0.0,1.552,0.0,0.0,0.0
150,0.0,0.0,0.0,-0.0601865234375,0.0,0.0,0.0,0.0,0.0,0.0,-0.314,0.0,0.0,0.0,0.0,0.0,-1.61,-0.04403389245271683,0.0,0.0,0.0,0.0,0.0,0.0,2.652,0.0,0.0,0.0
151,0.0,0.0,0.0,-0.06482421875,0.0,0.0,0.0,0.0,0.0,0.0,-0.371,0.0,0.0,0.0,0.0,0.0,-1.61,-0.042817771434783936,0.0,0.0,0.0,0.0,0.0,0.0,5.396,0.0,0.0,0.0
152,0.0,0.0,0.0,-0.068009765625,0.0,0.0,0.0,0.0,0.0,0.0,-0.44,0.0,0.0,0.0,0.0,0.0,-1.61,-0.04542117565870285,0.0,0.0,0.0,0.0,0.0,0.0,12.096,0.0,0.0,0.0
153,0.0,0.0,0.0,-0.0671435546875,0.0,0.0,0.0,0.0,0.0,0.0,-0.146,0.0,0.0,0.0,0.0,0.0,-1.61,-0.05771744251251221,0.0,0.0,0.0,0.0,0.0,0.0,12.532,0.0,0.0,0.0
154,0.0,0.0,0.0,-0.0661240234375,0.0,0.0,0.0,0.0,0.0,0.0,0.114,0.0,0.0,0.0,0.0,0.0,-1.61,-0.05771744251251221,0.0,0.0,0.0,0.0,0.0,0.0,10.656,0.0,0.0,0.0
155,0.0,0.0,0.0,-0.0642470703125,0.0,0.0,0.0,0.0,0.0,0.0,0.122,0.0,0.0,0.0,0.0,0.0,-1.61,-0.07167208939790726,0.0,0.0,0.0,0.0,0.0,0.0,9.352,0.0,0.0,0.0
156,0.0,0.0,0.0,-0.062216796875,0.0,0.0,0.0,0.0,0.0,0.0,0.221,0.0,0.0,0.0,0.0,0.0,-1.61,-0.07031570374965668,0.0,0.0,0.0,0.0,0.0,0.0,2.512,0.0,0.0,0.0
157,0.0,0.0,0.0,-0.0646796875,0.0,0.0,0.0,0.0,0.0,0.0,0.015,0.0,0.0,0.0,0.0,0.0,-1.61,-0.07487143576145172,0.0,0.0,0.0,0.0,0.0,0.0,-1.44,0.0,0.0,0.0
158,0.0,0.0,0.0,-0.067865234375,0.0,0.0,0.0,0.0,0.0,0.0,-0.297,0.0,0.0,0.0,0.0,0.0,-1.61,-0.06403320282697678,0.0,0.0,0.0,0.0,0.0,0.0,1.14,0.0,0.0,0.0
159,0.0,0.0,0.0,-0.07090625,0.0,0.0,0.0,0.0,0.0,0.0,-0.295,0.0,0.0,0.0,0.0,0.0,-1.61,-0.05124901235103607,0.0,0.0,0.0,0.0,0.0,0.0,1.896,0.0,0.0,0.0
160,0.0,0.0,0.0,-0.0765634765625,0.0,0.0,0.0,0.0,0.0,0.0,-0.424,0.0,0.0,0.0,0.0,0.0,-1.61,-0.054379306733608246,0.0,0.0,0.0,0.0,0.0,0.0,5.328,0.0,0.0,0.0
161,0.0,0.0,0.0,-0.0788740234375,0.0,0.0,0.0,0.0,0.0,0.0,-0.467,0.0,0.0,0.0,0.0,0.0,-1.61,-0.05524846166372299,0.0,0.0,0.0,0.0,0.0,0.0,12.624,0.0,0.0,0.0
162,0.0,0.0,0.0,-0.0771416015625,0.0,0.0,0.0,0.0,0.0,0.0,-0.046,0.0,0.0,0.0,0.0,0.0,-1.61,-0.07298719882965088,0.0,0.0,0.0,0.0,0.0,0.0,12.372,0.0,0.0,0.0
163,0.0,0.0,0.0,-0.076419921875,0.0,0.0,0.0,0.0,0.0,0.0,0.155,0.0,0.0,0.0,0.0,0.0,-1.61,-0.08465589582920074,0.0,0.0,0.0,0.0,0.0,0.0,9.968,0.0,0.0,0.0
164,0.0,0.0,0.0,-0.074677734375,0.0,0.0,0.0,0.0,0.0,0.0,0.068,0.0,0.0,0.0,0.0,0.0,-1.61,-0.07727989554405212,0.0,0.0,0.0,0.0,0.0,0.0,10.36,0.0,0.0,0.0
165,0.0,0.0,0.0,-0.07105078125,0.0,0.0,0.0,0.0,0.0,0.0,0.304,0.0,0.0,0.0,0.0,0.0,-1.61,-0.0894017368555069,0.0,0.0,0.0,0.0,0.0,0.0,2.512,0.0,0.0,0.0
166,0.0,0.0,0.0,-0.0743896484375,0.0,0.0,0.0,0.0,0.0,0.0,0.092,0.0,0.0,0.0,0.0,0.0,-1.61,-0.07851795852184296,0.0,0.0,0.0,0.0,0.0,0.0,-2.56,0.0,0.0,0.0
167,0.0,0.0,0.0,-0.07815234375,0.0,0.0,0.0,0.0,0.0,0.0,-0.405,0.0,0.0,0.0,0.0,0.0,-1.61,-0.05695078521966934,0.0,0.0,0.0,0.0,0.0,0.0,1.94,0.0,0.0,0.0
168,0.0,0.0,0.0,-0.0798935546875,0.0,0.0,0.0,0.0,0.0,0.0,-0.262,0.0,0.0,0.0,0.0,0.0,-1.61,-0.06486272811889648,0.0,0.0,0.0,0.0,0.0,0.0,0.388,0.0,0.0,0.0
169,0.0,0.0,0.0,-0.0798935546875,0.0,0.0,0.0,0.0,0.0,0.0,-0.262,0.0,0.0,0.0,0.0,0.0,-1.61,-0.06486272811889648,0.0,0.0,0.0,0.0,0.0,0.0,0.388,0.0,0.0,0.0
170,0.0,0.0,0.0,-0.0877080078125,0.0,0.0,0.0,0.0,0.0,0.0,-0.48,0.0,0.0,0.0,0.0,0.0,-1.61,-0.06656808406114578,0.0,0.0,0.0,0.0,0.0,0.0,15.116,0.0,0.0,0.0
171,0.0,0.0,0.0,-0.085099609375,0.0,0.0,0.0,0.0,0.0,0.0,0.036,0.0,0.0,0.0,0.0,0.0,-1.61,-0.06359341740608215,0.0,0.0,0.0,0.0,0.0,0.0,11.572,0.0,0.0,0.0
172,0.0,0.0,0.0,-0.085099609375,0.0,0.0,0.0,0.0,0.0,0.0,0.166,0.0,0.0,0.0,0.0,0.0,-1.61,-0.08571828156709671,0.0,0.0,0.0,0.0,0.0,0.0,9.1,0.0,0.0,0.0
173,0.0,0.0,0.0,-0.0829345703125,0.0,0.0,0.0,0.0,0.0,0.0,0.045,0.0,0.0,0.0,0.0,0.0,-1.61,-0.09406474977731705,0.0,0.0,0.0,0.0,0.0,0.0,10.884,0.0,0.0,0.0
174,0.0,0.0,0.0,-0.0772861328125,0.0,0.0,0.0,0.0,0.0,0.0,0.397,0.0,0.0,0.0,0.0,0.0,-1.61,-0.08410438150167465,0.0,0.0,0.0,0.0,0.0,0.0,7.02,0.0,0.0,0.0
175,0.0,0.0,0.0,-0.076419921875,0.0,0.0,0.0,0.0,0.0,0.0,0.413,0.0,0.0,0.0,0.0,0.0,-1.61,-0.10219038277864456,0.0,0.0,0.0,0.0,0.0,0.0,1.072,0.0,0.0,0.0
176,0.0,0.0,0.0,-0.0788740234375,0.0,0.0,0.0,0.0,0.0,0.0,-0.108,0.0,0.0,0.0,0.0,0.0,-1.61,-0.07140114903450012,0.0,0.0,0.0,0.0,0.0,0.0,2.444,0.0,0.0,0.0
177,0.0,0.0,0.0,-0.0796044921875,0.0,0.0,0.0,0.0,0.0,0.0,-0.147,0.0,0.0,0.0,0.0,0.0,-1.61,-0.07140114903450012,0.0,0.0,0.0,0.0,0.0,0.0,-2.332,0.0,0.0,0.0
178,0.0,0.0,0.0,-0.0846669921875,0.0,0.0,0.0,0.0,0.0,0.0,-0.227,0.0,0.0,0.0,0.0,0.0,-1.61,-0.07012779265642166,0.0,0.0,0.0,0.0,0.0,0.0,-0.408,0.0,0.0,0.0
179,0.0,0.0,0.0,-0.0908935546875,0.0,0.0,0.0,0.0,0.0,0.0,-0.629,0.0,0.0,0.0,0.0,0.0,-1.61,-0.07127030193805695,0.0,0.0,0.0,0.0,0.0,0.0,8.872,0.0,0.0,0.0
180,0.0,0.0,0.0,-0.0904599609375,0.0,0.0,0.0,0.0,0.0,0.0,-0.34,0.0,0.0,0.0,0.0,0.0,-1.61,-0.061644718050956726,0.0,0.0,0.0,0.0,0.0,0.0,11.8,0.0,0.0,0.0
181,0.0,0.0,0.0,-0.0903154296875,0.0,0.0,0.0,0.0,0.0,0.0,0.061,0.0,0.0,0.0,0.0,0.0,-1.61,-0.07196258753538132,0.0,0.0,0.0,0.0,0.0,0.0,10.884,0.0,0.0,0.0
182,0.0,0.0,0.0,-0.08973828125,0.0,0.0,0.0,0.0,0.0,0.0,0.001,0.0,0.0,0.0,0.0,0.0,-1.61,-0.09247810393571854,0.0,0.0,0.0,0.0,0.0,0.0,12.028,0.0,0.0,0.0
183,0.0,0.0,0.0,-0.0859755859375,0.0,0.0,0.0,0.0,0.0,0.0,0.2,0.0,0.0,0.0,0.0,0.0,-1.61,-0.08826427161693573,0.0,0.0,0.0,0.0,0.0,0.0,5.396,0.0,0.0,0.0
184,0.0,0.0,0.0,-0.08408984375,0.0,0.0,0.0,0.0,0.0,0.0,0.333,0.0,0.0,0.0,0.0,0.0,-1.61,-0.09721311926841736,0.0,0.0,0.0,0.0,0.0,0.0,3.496,0.0,0.0,0.0
185,0.0,0.0,0.0,-0.08365625,0.0,0.0,0.0,0.0,0.0,0.0,0.115,0.0,0.0,0.0,0.0,0.0,-1.61,-0.10446501523256302,0.0,0.0,0.0,0.0,0.0,0.0,3.52,0.0,0.0,0.0
186,0.0,0.0,0.0,-0.0858310546875,0.0,0.0,0.0,0.0,0.0,0.0,-0.052,0.0,0.0,0.0,0.0,0.0,-1.61,-0.08926926553249359,0.0,0.0,0.0,0.0,0.0,0.0,-0.728,0.0,0.0,0.0
187,0.0,0.0,0.0,-0.08944921875,0.0,0.0,0.0,0.0,0.0,0.0,-0.287,0.0,0.0,0.0,0.0,0.0,-1.61,-0.08134588599205017,0.0,0.0,0.0,0.0,0.0,0.0,0.8,0.0,0.0,0.0
188,0.0,0.0,0.0,-0.0930673828125,0.0,0.0,0.0,0.0,0.0,0.0,-0.38,0.0,0.0,0.0,0.0,0.0,-1.61,-0.07328101247549057,0.0,0.0,0.0,0.0,0.0,0.0,3.68,0.0,0.0,0.0
189,0.0,0.0,0.0,-0.09655078125,0.0,0.0,0.0,0.0,0.0,0.0,-0.365,0.0,0.0,0.0,0.0,0.0,-1.61,-0.07288612425327301,0.0,0.0,0.0,0.0,0.0,0.0,9.056,0.0,0.0,0.0
190,0.0,0.0,0.0,-0.09655078125,0.0,0.0,0.0,0.0,0.0,0.0,-0.217,0.0,0.0,0.0,0.0,0.0,-1.61,-0.07699359953403473,0.0,0.0,0.0,0.0,0.0,0.0,11.868,0.0,0.0,0.0
191,0.0,0.0,0.0,-0.09553125,0.0,0.0,0.0,0.0,0.0,0.0,0.052,0.0,0.0,0.0,0.0,0.0,-1.61,-0.08363006263971329,0.0,0.0,0.0,0.0,0.0,0.0,11.0,0.0,0.0,0.0
192,0.0,0.0,0.0,-0.0932119140625,0.0,0.0,0.0,0.0,0.0,0.0,0.164,0.0,0.0,0.0,0.0,0.0,-1.61,-0.09713341295719147,0.0,0.0,0.0,0.0,0.0,0.0,8.416,0.0,0.0,0.0
193,0.0,0.0,0.0,-0.0901708984375,0.0,0.0,0.0,0.0,0.0,0.0,0.258,0.0,0.0,0.0,0.0,0.0,-1.61,-0.1020442396402359,0.0,0.0,0.0,0.0,0.0,0.0,5.304,0.0,0.0,0.0
194,0.0,0.0,0.0,-0.08959375,0.0,0.0,0.0,0.0,0.0,0.0,0.23,0.0,0.0,0.0,0.0,0.0,-1.61,-0.10534651577472687,0.0,0.0,0.0,0.0,0.0,0.0,0.204,0.0,0.0,0.0
195,0.0,0.0,0.0,-0.092056640625,0.0,0.0,0.0,0.0,0.0,0.0,-0.08,0.0,0.0,0.0,0.0,0.0,-1.61,-0.08605974912643433,0.0,0.0,0.0,0.0,0.0,0.0,-1.348,0.0,0.0,0.0
196,0.0,0.0,0.0,-0.0947998046875,0.0,0.0,0.0,0.0,0.0,0.0,-0.27,0.0,0.0,0.0,0.0,0.0,-1.61,-0.08605974912643433,0.0,0.0,0.0,0.0,0.0,0.0,0.16,0.0,0.0,0.0
197,0.0,0.0,0.0,-0.0987255859375,0.0,0.0,0.0,0.0,0.0,0.0,-0.301,0.0,0.0,0.0,0.0,0.0,-1.61,-0.07940234988927841,0.0,0.0,0.0,0.0,0.0,0.0,1.072,0.0,0.0,0.0
198,0.0,0.0,0.0,-0.1036435546875,0.0,0.0,0.0,0.0,0.0,0.0,-0.468,0.0,0.0,0.0,0.0,0.0,-1.61,-0.08193127065896988,0.0,0.0,0.0,0.0,0.0,0.0,6.792,0.0,0.0,0.0
199,0.0,0.0,0.0,-0.1042294921875,0.0,0.0,0.0,0.0,0.0,0.0,-0.334,0.0,0.0,0.0,0.0,0.0,-1.61,-0.07998013496398926,0.0,0.0,0.0,0.0,0.0,0.0,11.752,0.0,0.0,0.0
200,0.0,0.0,0.0,-0.10248828125,0.0,0.0,0.0,0.0,0.0,0.0,0.062,0.0,0.0,0.0,0.0,0.0,-1.61,-0.08599018305540085,0.0,0.0,0.0,0.0,0.0,0.0,10.268,0.0,0.0,0.0
201,0.0,0.0,0.0,-0.1014775390625,0.0,0.0,0.0,0.0,0.0,0.0,0.132,0.0,0.0,0.0,0.0,0.0,-1.61,-0.1047135666012764,0.0,0.0,0.0,0.0,0.0,0.0,10.06,0.0,0.0,0.0
202,0.0,0.0,0.0,-0.0984365234375,0.0,0.0,0.0,0.0,0.0,0.0,0.181,0.0,0.0,0.0,0.0,0.0,-1.61,-0.10819961130619049,0.0,0.0,0.0,0.0,0.0,0.0,6.288,0.0,0.0,0.0
203,0.0,0.0,0.0,-0.09553125,0.0,0.0,0.0,0.0,0.0,0.0,0.331,0.0,0.0,0.0,0.0,0.0,-1.61,-0.10840080678462982,0.0,0.0,0.0,0.0,0.0,0.0,1.188,0.0,0.0,0.0
204,0.0,0.0,0.0,-0.0971279296875,0.0,0.0,0.0,0.0,0.0,0.0,0.11,0.0,0.0,0.0,0.0,0.0,-1.61,-0.11576627194881439,0.0,0.0,0.0,0.0,0.0,0.0,-1.668,0.0,0.0,0.0
205,0.0,0.0,0.0,-0.099591796875,0.0,0.0,0.0,0.0,0.0,0.0,-0.22,0.0,0.0,0.0,0.0,0.0,-1.61,-0.10241647809743881,0.0,0.0,0.0,0.0,0.0,0.0,-1.096,0.0,0.0,0.0
206,0.0,0.0,0.0,-0.10248828125,0.0,0.0,0.0,0.0,0.0,0.0,-0.251,0.0,0.0,0.0,0.0,0.0,-1.61,-0.08652783930301666,0.0,0.0,0.0,0.0,0.0,0.0,-0.408,0.0,0.0,0.0
207,0.0,0.0,0.0,-0.1075595703125,0.0,0.0,0.0,0.0,0.0,0.0,-0.376,0.0,0.0,0.0,0.0,0.0,-1.61,-0.08796576410531998,0.0,0.0,0.0,0.0,0.0,0.0,2.904,0.0,0.0,0.0
208,0.0,0.0,0.0,-0.1104560546875,0.0,0.0,0.0,0.0,0.0,0.0,-0.47,0.0,0.0,0.0,0.0,0.0,-1.61,-0.08754388242959976,0.0,0.0,0.0,0.0,0.0,0.0,10.22,0.0,0.0,0.0
209,0.0,0.0,0.0,-0.1092919921875,0.0,0.0,0.0,0.0,0.0,0.0,-0.101,0.0,0.0,0.0,0.0,0.0,-1.61,-0.08671704679727554,0.0,0.0,0.0,0.0,0.0,0.0,10.2,0.0,0.0,0.0
210,0.0,0.0,0.0,-0.10828125,0.0,0.0,0.0,0.0,0.0,0.0,0.121,0.0,0.0,0.0,0.0,0.0,-1.61,-0.10218518227338791,0.0,0.0,0.0,0.0,0.0,0.0,9.556,0.0,0.0,0.0
211,0.0,0.0,0.0,-0.1061064453125,0.0,0.0,0.0,0.0,0.0,0.0,0.122,0.0,0.0,0.0,0.0,0.0,-1.61,-0.1142847090959549,0.0,0.0,0.0,0.0,0.0,0.0,8.964,0.0,0.0,0.0
212,0.0,0.0,0.0,-0.10234375,0.0,0.0,0.0,0.0,0.0,0.0,0.311,0.0,0.0,0.0,0.0,0.0,-1.61,-0.11217507719993591,0.0,0.0,0.0,0.0,0.0,0.0,3.2,0.0,0.0,0.0
213,0.0,0.0,0.0,-0.10219921875,0.0,0.0,0.0,0.0,0.0,0.0,0.257,0.0,0.0,0.0,0.0,0.0,-1.61,-0.12118178606033325,0.0,0.0,0.0,0.0,0.0,0.0,-1.164,0.0,0.0,0.0
214,0.0,0.0,0.0,-0.104951171875,0.0,0.0,0.0,0.0,0.0,0.0,-0.137,0.0,0.0,0.0,0.0,0.0,-1.61,-0.11730632930994034,0.0,0.0,0.0,0.0,0.0,0.0,-1.324,0.0,0.0,0.0
215,0.0,0.0,0.0,-0.10726171875,0.0,0.0,0.0,0.0,0.0,0.0,-0.253,0.0,0.0,0.0,0.0,0.0,-1.61,-0.09598247706890106,0.0,0.0,0.0,0.0,0.0,0.0,-1.028,0.0,0.0,0.0
216,0.0,0.0,0.0,-0.1117548828125,0.0,0.0,0.0,0.0,0.0,0.0,-0.309,0.0,0.0,0.0,0.0,0.0,-1.61,-0.09264642000198364,0.0,0.0,0.0,0.0,0.0,0.0,1.072,0.0,0.0,0.0
217,0.0,0.0,0.0,-0.117115234375,0.0,0.0,0.0,0.0,0.0,0.0,-0.518,0.0,0.0,0.0,0.0,0.0,-1.61,-0.09460628032684326,0.0,0.0,0.0,0.0,0.0,0.0,7.684,0.0,0.0,0.0
218,0.0,0.0,0.0,-0.117115234375,0.0,0.0,0.0,0.0,0.0,0.0,-0.518,0.0,0.0,0.0,0.0,0.0,-1.61,-0.09160931408405304,0.0,0.0,0.0,0.0,0.0,0.0,7.684,0.0,0.0,0.0
219,0.0,0.0,0.0,-0.1165283203125,0.0,0.0,0.0,0.0,0.0,0.0,0.041,0.0,0.0,0.0,0.0,0.0,-1.61,-0.09851384162902832,0.0,0.0,0.0,0.0,0.0,0.0,9.924,0.0,0.0,0.0
220,0.0,0.0,0.0,-0.115662109375,0.0,0.0,0.0,0.0,0.0,0.0,0.087,0.0,0.0,0.0,0.0,0.0,-1.61,-0.11745250225067139,0.0,0.0,0.0,0.0,0.0,0.0,10.928,0.0,0.0,0.0
221,0.0,0.0,0.0,-0.1118994140625,0.0,0.0,0.0,0.0,0.0,0.0,0.209,0.0,0.0,0.0,0.0,0.0,-1.61,-0.11947036534547806,0.0,0.0,0.0,0.0,0.0,0.0,7.18,0.0,0.0,0.0
222,0.0,0.0,0.0,-0.1094365234375,0.0,0.0,0.0,0.0,0.0,0.0,0.365,0.0,0.0,0.0,0.0,0.0,-1.61,-0.12374305725097656,0.0,0.0,0.0,0.0,0.0,0.0,0.98,0.0,0.0,0.0
223,0.0,0.0,0.0,-0.111033203125,0.0,0.0,0.0,0.0,0.0,0.0,0.062,0.0,0.0,0.0,0.0,0.0,-1.61,-0.13206571340560913,0.0,0.0,0.0,0.0,0.0,0.0,-0.18,0.0,0.0,0.0
224,0.0,0.0,0.0,-0.11291015625,0.0,0.0,0.0,0.0,0.0,0.0,-0.178,0.0,0.0,0.0,0.0,0.0,-1.61,-0.1132584884762764,0.0,0.0,0.0,0.0,0.0,0.0,-0.568,0.0,0.0,0.0
225,0.0,0.0,0.0,-0.115951171875,0.0,0.0,0.0,0.0,0.0,0.0,-0.22,0.0,0.0,0.0,0.0,0.0,-1.61,-0.10188401490449905,0.0,0.0,0.0,0.0,0.0,0.0,0.228,0.0,0.0,0.0
226,0.0,0.0,0.0,-0.12103125,0.0,0.0,0.0,0.0,0.0,0.0,-0.411,0.0,0.0,0.0,0.0,0.0,-1.61,-0.10288721323013306,0.0,0.0,0.0,0.0,0.0,0.0,4.848,0.0,0.0,0.0
227,0.0,0.0,0.0,-0.1229169921875,0.0,0.0,0.0,0.0,0.0,0.0,-0.409,0.0,0.0,0.0,0.0,0.0,-1.61,-0.09958849102258682,0.0,0.0,0.0,0.0,0.0,0.0,11.02,0.0,0.0,0.0
228,0.0,0.0,0.0,-0.12146484375,0.0,0.0,0.0,0.0,0.0,0.0,-0.027,0.0,0.0,0.0,0.0,0.0,-1.61,-0.10155446082353592,0.0,0.0,0.0,0.0,0.0,0.0,10.748,0.0,0.0,0.0
229,0.0,0.0,0.0,-0.1205986328125,0.0,0.0,0.0,0.0,0.0,0.0,0.132,0.0,0.0,0.0,0.0,0.0,-1.61,-0.1183750331401825,0.0,0.0,0.0,0.0,0.0,0.0,9.536,0.0,0.0,0.0
230,0.0,0.0,0.0,-0.11884765625,0.0,0.0,0.0,0.0,0.0,0.0,0.096,0.0,0.0,0.0,0.0,0.0,-1.61,-0.12732070684432983,0.0,0.0,0.0,0.0,0.0,0.0,8.232,0.0,0.0,0.0
231,0.0,0.0,0.0,-0.11884765625,0.0,0.0,0.0,0.0,0.0,0.0,0.096,0.0,0.0,0.0,0.0,0.0,-1.61,-0.12323275208473206,0.0,0.0,0.0,0.0,0.0,0.0,8.232,0.0,0.0,0.0
232,0.0,0.0,0.0,-0.1145078125,0.0,0.0,0.0,0.0,0.0,0.0,0.268,0.0,0.0,0.0,0.0,0.0,-1.61,-0.13036994636058807,0.0,0.0,0.0,0.0,0.0,0.0,1.28,0.0,0.0,0.0
233,0.0,0.0,0.0,-0.116826171875,0.0,0.0,0.0,0.0,0.0,0.0,-0.07,0.0,0.0,0.0,0.0,0.0,-1.61,-0.13036994636058807,0.0,0.0,0.0,0.0,0.0,0.0,0.044,0.0,0.0,0.0
234,0.0,0.0,0.0,-0.1191455078125,0.0,0.0,0.0,0.0,0.0,0.0,-0.235,0.0,0.0,0.0,0.0,0.0,-1.61,-0.11136405169963837,0.0,0.0,0.0,0.0,0.0,0.0,-0.592,0.0,0.0,0.0
235,0.0,0.0,0.0,-0.1230615234375,0.0,0.0,0.0,0.0,0.0,0.0,-0.284,0.0,0.0,0.0,0.0,0.0,-1.61,-0.10702849179506302,0.0,0.0,0.0,0.0,0.0,0.0,0.34,0.0,0.0,0.0
236,0.0,0.0,0.0,-0.1282685546875,0.0,0.0,0.0,0.0,0.0,0.0,-0.469,0.0,0.0,0.0,0.0,0.0,-1.61,-0.10702849179506302,0.0,0.0,0.0,0.0,0.0,0.0,5.12,0.0,0.0,0.0
237,0.0,0.0,0.0,-0.129720703125,0.0,0.0,0.0,0.0,0.0,0.0,-0.398,0.0,0.0,0.0,0.0,0.0,-1.61,-0.10456731915473938,0.0,0.0,0.0,0.0,0.0,0.0,10.016,0.0,0.0,0.0
238,0.0,0.0,0.0,-0.128412109375,0.0,0.0,0.0,0.0,0.0,0.0,-0.006,0.0,0.0,0.0,0.0,0.0,-1.61,-0.10880236327648163,0.0,0.0,0.0,0.0,0.0,0.0,9.308,0.0,0.0,0.0
239,0.0,0.0,0.0,-0.12711328125,0.0,0.0,0.0,0.0,0.0,0.0,0.124,0.0,0.0,0.0,0.0,0.0,-1.61,-0.13331234455108643,0.0,0.0,0.0,0.0,0.0,0.0,9.42,0.0,0.0,0.0
240,0.0,0.0,0.0,-0.123638671875,0.0,0.0,0.0,0.0,0.0,0.0,0.21,0.0,0.0,0.0,0.0,0.0,-1.61,-0.13331234455108643,0.0,0.0,0.0,0.0,0.0,0.0,6.676,0.0,0.0,0.0
241,0.0,0.0,0.0,-0.1201650390625,0.0,0.0,0.0,0.0,0.0,0.0,0.379,0.0,0.0,0.0,0.0,0.0,-1.61,-0.13554979860782623,0.0,0.0,0.0,0.0,0.0,0.0,2.856,0.0,0.0,0.0
242,0.0,0.0,0.0,-0.1191455078125,0.0,0.0,0.0,0.0,0.0,0.0,0.257,0.0,0.0,0.0,0.0,0.0,-1.61,-0.14378702640533447,0.0,0.0,0.0,0.0,0.0,0.0,0.48,0.0,0.0,0.0
243,0.0,0.0,0.0,-0.12117578125,0.0,0.0,0.0,0.0,0.0,0.0,-0.034,0.0,0.0,0.0,0.0,0.0,-1.61,-0.1342526227235794,0.0,0.0,0.0,0.0,0.0,0.0,-2.444,0.0,0.0,0.0
244,0.0,0.0,0.0,-0.124072265625,0.0,0.0,0.0,0.0,0.0,0.0,-0.247,0.0,0.0,0.0,0.0,0.0,-1.61,-0.11769074946641922,0.0,0.0,0.0,0.0,0.0,0.0,-0.524,0.0,0.0,0.0
245,0.0,0.0,0.0,-0.1274013671875,0.0,0.0,0.0,0.0,0.0,0.0,-0.296,0.0,0.0,0.0,0.0,0.0,-1.61,-0.10973579436540604,0.0,0.0,0.0,0.0,0.0,0.0,0.82,0.0,0.0,0.0
246,0.0,0.0,0.0,-0.1321748046875,0.0,0.0,0.0,0.0,0.0,0.0,-0.41,0.0,0.0,0.0,0.0,0.0,-1.61,-0.11082975566387177,0.0,0.0,0.0,0.0,0.0,0.0,4.936,0.0,0.0,0.0
247,0.0,0.0,0.0,-0.13305078125,0.0,0.0,0.0,0.0,0.0,0.0,-0.351,0.0,0.0,0.0,0.0,0.0,-1.61,-0.11077215522527695,0.0,0.0,0.0,0.0,0.0,0.0,9.556,0.0,0.0,0.0
248,0.0,0.0,0.0,-0.1310205078125,0.0,0.0,0.0,0.0,0.0,0.0,0.063,0.0,0.0,0.0,0.0,0.0,-1.61,-0.11408401280641556,0.0,0.0,0.0,0.0,0.0,0.0,7.796,0.0,0.0,0.0
249,0.0,0.0,0.0,-0.1292880859375,0.0,0.0,0.0,0.0,0.0,0.0,0.196,0.0,0.0,0.0,0.0,0.0,-1.61,-0.13330842554569244,0.0,0.0,0.0,0.0,0.0,0.0,7.292,0.0,0.0,0.0
250,0.0,0.0,0.0,-0.1258046875,0.0,0.0,0.0,0.0,0.0,0.0,0.232,0.0,0.0,0.0,0.0,0.0,-1.61,-0.13920564949512482,0.0,0.0,0.0,0.0,0.0,0.0,4.412,0.0,0.0,0.0
251,0.0,0.0,0.0,-0.1221865234375,0.0,0.0,0.0,0.0,0.0,0.0,0.372,0.0,0.0,0.0,0.0,0.0,-1.61,-0.13920564949512482,0.0,0.0,0.0,0.0,0.0,0.0,1.072,0.0,0.0,0.0
252,0.0,0.0,0.0,-0.1216083984375,0.0,0.0,0.0,0.0,0.0,0.0,0.256,0.0,0.0,0.0,0.0,0.0,-1.61,-0.14531156420707703,0.0,0.0,0.0,0.0,0.0,0.0,-2.012,0.0,0.0,0.0
253,0.0,0.0,0.0,-0.123783203125,0.0,0.0,0.0,0.0,0.0,0.0,-0.075,0.0,0.0,0.0,0.0,0.0,-1.61,-0.13664700090885162,0.0,0.0,0.0,0.0,0.0,0.0,-2.88,0.0,0.0,0.0
254,0.0,0.0,0.0,-0.12653515625,0.0,0.0,0.0,0.0,0.0,0.0,-0.24,0.0,0.0,0.0,0.0,0.0,-1.61,-0.11805315315723419,0.0,0.0,0.0,0.0,0.0,0.0,-1.6,0.0,0.0,0.0
255,0.0,0.0,0.0,-0.130009765625,0.0,0.0,0.0,0.0,0.0,0.0,-0.297,0.0,0.0,0.0,0.0,0.0,-1.61,-0.11252579838037491,0.0,0.0,0.0,0.0,0.0,0.0,-0.044,0.0,0.0,0.0
256,0.0,0.0,0.0,-0.1340615234375,0.0,0.0,0.0,0.0,0.0,0.0,-0.399,0.0,0.0,0.0,0.0,0.0,-1.61,-0.11339354515075684,0.0,0.0,0.0,0.0,0.0,0.0,4.344,0.0,0.0,0.0
257,0.0,0.0,0.0,-0.1340615234375,0.0,0.0,0.0,0.0,0.0,0.0,-0.252,0.0,0.0,0.0,0.0,0.0,-1.61,-0.11310259252786636,0.0,0.0,0.0,0.0,0.0,0.0,7.088,0.0,0.0,0.0
258,0.0,0.0,0.0,-0.13159765625,0.0,0.0,0.0,0.0,0.0,0.0,0.109,0.0,0.0,0.0,0.0,0.0,-1.61,-0.11949264258146286,0.0,0.0,0.0,0.0,0.0,0.0,6.06,0.0,0.0,0.0
259,0.0,0.0,0.0,-0.1292880859375,0.0,0.0,0.0,0.0,0.0,0.0,0.248,0.0,0.0,0.0,0.0,0.0,-1.61,-0.1368214637041092,0.0,0.0,0.0,0.0,0.0,0.0,4.916,0.0,0.0,0.0
260,0.0,0.0,0.0,-0.1249384765625,0.0,0.0,0.0,0.0,0.0,0.0,0.313,0.0,0.0,0.0,0.0,0.0,-1.61,-0.14377941191196442,0.0,0.0,0.0,0.0,0.0,0.0,1.988,0.0,0.0,0.0
261,0.0,0.0,0.0,-0.1221865234375,0.0,0.0,0.0,0.0,0.0,0.0,0.393,0.0,0.0,0.0,0.0,0.0,-1.61,-0.1439158320426941,0.0,0.0,0.0,0.0,0.0,0.0,-2.904,0.0,0.0,0.0
262,0.0,0.0,0.0,-0.1230615234375,0.0,0.0,0.0,0.0,0.0,0.0,0.127,0.0,0.0,0.0,0.0,0.0,-1.61,-0.14680525660514832,0.0,0.0,0.0,0.0,0.0,0.0,-4.548,0.0,0.0,0.0
263,0.0,0.0,0.0,-0.1249384765625,0.0,0.0,0.0,0.0,0.0,0.0,-0.14,0.0,0.0,0.0,0.0,0.0,-1.61,-0.1294565051794052,0.0,0.0,0.0,0.0,0.0,0.0,-3.476,0.0,0.0,0.0
264,0.0,0.0,0.0,-0.1276904296875,0.0,0.0,0.0,0.0,0.0,0.0,-0.212,0.0,0.0,0.0,0.0,0.0,-1.61,-0.11581697314977646,0.0,0.0,0.0,0.0,0.0,0.0,-2.584,0.0,0.0,0.0
265,0.0,0.0,0.0,-0.1321748046875,0.0,0.0,0.0,0.0,0.0,0.0,-0.357,0.0,0.0,0.0,0.0,0.0,-1.61,-0.11500918120145798,0.0,0.0,0.0,0.0,0.0,0.0,-0.364,0.0,0.0,0.0
266,0.0,0.0,0.0,-0.1353603515625,0.0,0.0,0.0,0.0,0.0,0.0,-0.421,0.0,0.0,0.0,0.0,0.0,-1.61,-0.1129540428519249,0.0,0.0,0.0,0.0,0.0,0.0,2.628,0.0,0.0,0.0
267,0.0,0.0,0.0,-0.134783203125,0.0,0.0,0.0,0.0,0.0,0.0,-0.166,0.0,0.0,0.0,0.0,0.0,-1.61,-0.11351870745420456,0.0,0.0,0.0,0.0,0.0,0.0,4.708,0.0,0.0,0.0
268,0.0,0.0,0.0,-0.13290625,0.0,0.0,0.0,0.0,0.0,0.0,0.121,0.0,0.0,0.0,0.0,0.0,-1.61,-0.12435229122638702,0.0,0.0,0.0,0.0,0.0,0.0,4.504,0.0,0.0,0.0
269,0.0,0.0,0.0,-0.1304423828125,0.0,0.0,0.0,0.0,0.0,0.0,0.201,0.0,0.0,0.0,0.0,0.0,-1.61,-0.138909712433815,0.0,0.0,0.0,0.0,0.0,0.0,4.504,0.0,0.0,0.0
270,0.0,0.0,0.0,-0.12594921875,0.0,0.0,0.0,0.0,0.0,0.0,0.338,0.0,0.0,0.0,0.0,0.0,-1.61,-0.14174720644950867,0.0,0.0,0.0,0.0,0.0,0.0,1.12,0.0,0.0,0.0
271,0.0,0.0,0.0,-0.123927734375,0.0,0.0,0.0,0.0,0.0,0.0,0.387,0.0,0.0,0.0,0.0,0.0,-1.61,-0.14667518436908722,0.0,0.0,0.0,0.0,0.0,0.0,-5.008,0.0,0.0,0.0
272,0.0,0.0,0.0,-0.12594921875,0.0,0.0,0.0,0.0,0.0,0.0,0.014,0.0,0.0,0.0,0.0,0.0,-1.61,-0.148118793964386,0.0,0.0,0.0,0.0,0.0,0.0,-5.076,0.0,0.0,0.0
273,0.0,0.0,0.0,-0.1274013671875,0.0,0.0,0.0,0.0,0.0,0.0,-0.18,0.0,0.0,0.0,0.0,0.0,-1.61,-0.12524323165416718,0.0,0.0,0.0,0.0,0.0,0.0,-4.504,0.0,0.0,0.0
274,0.0,0.0,0.0,-0.1311650390625,0.0,0.0,0.0,0.0,0.0,0.0,-0.228,0.0,0.0,0.0,0.0,0.0,-1.61,-0.1162765696644783,0.0,0.0,0.0,0.0,0.0,0.0,-3.156,0.0,0.0,0.0
275,0.0,0.0,0.0,-0.1362353515625,0.0,0.0,0.0,0.0,0.0,0.0,-0.458,0.0,0.0,0.0,0.0,0.0,-1.61,-0.11772100627422333,0.0,0.0,0.0,0.0,0.0,0.0,1.164,0.0,0.0,0.0
276,0.0,0.0,0.0,-0.13782421875,0.0,0.0,0.0,0.0,0.0,0.0,-0.383,0.0,0.0,0.0,0.0,0.0,-1.61,-0.11295226961374283,0.0,0.0,0.0,0.0,0.0,0.0,4.184,0.0,0.0,0.0
277,0.0,0.0,0.0,-0.1365244140625,0.0,0.0,0.0,0.0,0.0,0.0,-0.032,0.0,0.0,0.0,0.0,0.0,-1.61,-0.11751924455165863,0.0,0.0,0.0,0.0,0.0,0.0,4.96,0.0,0.0,0.0
278,0.0,0.0,0.0,-0.134783203125,0.0,0.0,0.0,0.0,0.0,0.0,0.152,0.0,0.0,0.0,0.0,0.0,-1.61,-0.14282090961933136,0.0,0.0,0.0,0.0,0.0,0.0,5.052,0.0,0.0,0.0
279,0.0,0.0,0.0,-0.131453125,0.0,0.0,0.0,0.0,0.0,0.0,0.236,0.0,0.0,0.0,0.0,0.0,-1.61,-0.1451261341571808,0.0,0.0,0.0,0.0,0.0,0.0,4.068,0.0,0.0,0.0
280,0.0,0.0,0.0,-0.1266796875,0.0,0.0,0.0,0.0,0.0,0.0,0.408,0.0,0.0,0.0,0.0,0.0,-1.61,-0.15237075090408325,0.0,0.0,0.0,0.0,0.0,0.0,-0.112,0.0,0.0,0.0
281,0.0,0.0,0.0,-0.1249384765625,0.0,0.0,0.0,0.0,0.0,0.0,0.37,0.0,0.0,0.0,0.0,0.0,-1.61,-0.15237075090408325,0.0,0.0,0.0,0.0,0.0,0.0,-3.2,0.0,0.0,0.0
282,0.0,0.0,0.0,-0.1263916015625,0.0,0.0,0.0,0.0,0.0,0.0,0.041,0.0,0.0,0.0,0.0,0.0,-1.61,-0.14792175590991974,0.0,0.0,0.0,0.0,0.0,0.0,-4.32,0.0,0.0,0.0
283,0.0,0.0,0.0,-0.128412109375,0.0,0.0,0.0,0.0,0.0,0.0,-0.176,0.0,0.0,0.0,0.0,0.0,-1.61,-0.12731578946113586,0.0,0.0,0.0,0.0,0.0,0.0,-3.404,0.0,0.0,0.0
284,0.0,0.0,0.0,-0.128412109375,0.0,0.0,0.0,0.0,0.0,0.0,-0.176,0.0,0.0,0.0,0.0,0.0,-1.61,-0.11748472601175308,0.0,0.0,0.0,0.0,0.0,0.0,-3.404,0.0,0.0,0.0
285,0.0,0.0,0.0,-0.13188671875,0.0,0.0,0.0,0.0,0.0,0.0,-0.253,0.0,0.0,0.0,0.0,0.0,-1.61,-0.11727142333984375,0.0,0.0,0.0,0.0,0.0,0.0,-1.988,0.0,0.0,0.0
286,0.0,0.0,0.0,-0.13869921875,0.0,0.0,0.0,0.0,0.0,0.0,-0.4,0.0,0.0,0.0,0.0,0.0,-1.61,-0.1147480458021164,0.0,0.0,0.0,0.0,0.0,0.0,5.464,0.0,0.0,0.0
287,0.0,0.0,0.0,-0.1371015625,0.0,0.0,0.0,0.0,0.0,0.0,-0.032,0.0,0.0,0.0,0.0,0.0,-1.61,-0.1176997721195221,0.0,0.0,0.0,0.0,0.0,0.0,5.6,0.0,0.0,0.0
288,0.0,0.0,0.0,-0.135658203125,0.0,0.0,0.0,0.0,0.0,0.0,0.154,0.0,0.0,0.0,0.0,0.0,-1.61,-0.13372905552387238,0.0,0.0,0.0,0.0,0.0,0.0,5.6,0.0,0.0,0.0
289,0.0,0.0,0.0,-0.1323291015625,0.0,0.0,0.0,0.0,0.0,0.0,0.209,0.0,0.0,0.0,0.0,0.0,-1.61,-0.14382807910442352,0.0,0.0,0.0,0.0,0.0,0.0,4.868,0.0,0.0,0.0
290,0.0,0.0,0.0,-0.1279794921875,0.0,0.0,0.0,0.0,0.0,0.0,0.405,0.0,0.0,0.0,0.0,0.0,-1.61,-0.1441727578639984,0.0,0.0,0.0,0.0,0.0,0.0,0.112,0.0,0.0,0.0
291,0.0,0.0,0.0,-0.1278349609375,0.0,0.0,0.0,0.0,0.0,0.0,0.276,0.0,0.0,0.0,0.0,0.0,-1.61,-0.1534556895494461,0.0,0.0,0.0,0.0,0.0,0.0,-2.88,0.0,0.0,0.0
292,0.0,0.0,0.0,-0.129865234375,0.0,0.0,0.0,0.0,0.0,0.0,-0.099,0.0,0.0,0.0,0.0,0.0,-1.61,-0.14424781501293182,0.0,0.0,0.0,0.0,0.0,0.0,-2.512,0.0,0.0,0.0
293,0.0,0.0,0.0,-0.13203125,0.0,0.0,0.0,0.0,0.0,0.0,-0.196,0.0,0.0,0.0,0.0,0.0,-1.61,-0.12286338210105896,0.0,0.0,0.0,0.0,0.0,0.0,-2.672,0.0,0.0,0.0
294,0.0,0.0,0.0,-0.13203125,0.0,0.0,0.0,0.0,0.0,0.0,-0.196,0.0,0.0,0.0,0.0,0.0,-1.61,-0.12012307345867157,0.0,0.0,0.0,0.0,0.0,0.0,-2.672,0.0,0.0,0.0
295,0.0,0.0,0.0,-0.140720703125,0.0,0.0,0.0,0.0,0.0,0.0,-0.471,0.0,0.0,0.0,0.0,0.0,-1.61,-0.11912483721971512,0.0,0.0,0.0,0.0,0.0,0.0,4.068,0.0,0.0,0.0
296,0.0,0.0,0.0,-0.1411533203125,0.0,0.0,0.0,0.0,0.0,0.0,-0.273,0.0,0.0,0.0,0.0,0.0,-1.61,-0.11694394052028656,0.0,0.0,0.0,0.0,0.0,0.0,7.384,0.0,0.0,0.0
297,0.0,0.0,0.0,-0.1398544921875,0.0,0.0,0.0,0.0,0.0,0.0,0.045,0.0,0.0,0.0,0.0,0.0,-1.61,-0.12561897933483124,0.0,0.0,0.0,0.0,0.0,0.0,7.088,0.0,0.0,0.0
298,0.0,0.0,0.0,-0.1379677734375,0.0,0.0,0.0,0.0,0.0,0.0,0.151,0.0,0.0,0.0,0.0,0.0,-1.61,-0.14102430641651154,0.0,0.0,0.0,0.0,0.0,0.0,6.904,0.0,0.0,0.0
299,0.0,0.0,0.0,-0.134205078125,0.0,0.0,0.0,0.0,0.0,0.0,0.264,0.0,0.0,0.0,0.0,0.0,-1.61,-0.1459394246339798,0.0,0.0,0.0,0.0,0.0,0.0,4.824,0.0,0.0,0.0
300,0.0,0.0,0.0,-0.13130859375,0.0,0.0,0.0,0.0,0.0,0.0,0.37,0.0,0.0,0.0,0.0,0.0,-1.61,-0.14979234337806702,0.0,0.0,0.0,0.0,0.0,0.0,1.14,0.0,0.0,0.0
301,0.0,0.0,0.0,-0.13159765625,0.0,0.0,0.0,0.0,0.0,0.0,0.155,0.0,0.0,0.0,0.0,0.0,-1.61,-0.15429188311100006,0.0,0.0,0.0,0.0,0.0,0.0,-0.8,0.0,0.0,0.0
302,0.0,0.0,0.0,-0.13159765625,0.0,0.0,0.0,0.0,0.0,0.0,0.155,0.0,0.0,0.0,0.0,0.0,-1.61,-0.13983362913131714,0.0,0.0,0.0,0.0,0.0,0.0,-0.8,0.0,0.0,0.0
303,0.0,0.0,0.0,-0.1369580078125,0.0,0.0,0.0,0.0,0.0,0.0,-0.265,0.0,0.0,0.0,0.0,0.0,-1.61,-0.1260281205177307,0.0,0.0,0.0,0.0,0.0,0.0,-0.548,0.0,0.0,0.0
304,0.0,0.0,0.0,-0.1412978515625,0.0,0.0,0.0,0.0,0.0,0.0,-0.357,0.0,0.0,0.0,0.0,0.0,-1.61,-0.12178941071033478,0.0,0.0,0.0,0.0,0.0,0.0,2.012,0.0,0.0,0.0
305,0.0,0.0,0.0,-0.144203125,0.0,0.0,0.0,0.0,0.0,0.0,-0.407,0.0,0.0,0.0,0.0,0.0,-1.61,-0.1220770850777626,0.0,0.0,0.0,0.0,0.0,0.0,7.932,0.0,0.0,0.0
306,0.0,0.0,0.0,-0.1434814453125,0.0,0.0,0.0,0.0,0.0,0.0,-0.139,0.0,0.0,0.0,0.0,0.0,-1.61,-0.12292101979255676,0.0,0.0,0.0,0.0,0.0,0.0,9.488,0.0,0.0,0.0
307,0.0,0.0,0.0,-0.1418935546875,0.0,0.0,0.0,0.0,0.0,0.0,0.117,0.0,0.0,0.0,0.0,0.0,-1.61,-0.1344108283519745,0.0,0.0,0.0,0.0,0.0,0.0,8.504,0.0,0.0,0.0
308,0.0,0.0,0.0,-0.1418935546875,0.0,0.0,0.0,0.0,0.0,0.0,0.117,0.0,0.0,0.0,0.0,0.0,-1.61,-0.14763657748699188,0.0,0.0,0.0,0.0,0.0,0.0,8.504,0.0,0.0,0.0
309,0.0,0.0,0.0,-0.136091796875,0.0,0.0,0.0,0.0,0.0,0.0,0.311,0.0,0.0,0.0,0.0,0.0,-1.61,-0.14990973472595215,0.0,0.0,0.0,0.0,0.0,0.0,2.696,0.0,0.0,0.0
310,0.0,0.0,0.0,-0.135947265625,0.0,0.0,0.0,0.0,0.0,0.0,0.214,0.0,0.0,0.0,0.0,0.0,-1.61,-0.15492983162403107,0.0,0.0,0.0,0.0,0.0,0.0,-0.96,0.0,0.0,0.0
311,0.0,0.0,0.0,-0.13869921875,0.0,0.0,0.0,0.0,0.0,0.0,-0.128,0.0,0.0,0.0,0.0,0.0,-1.61,-0.1481284499168396,0.0,0.0,0.0,0.0,0.0,0.0,-0.96,0.0,0.0,0.0
312,0.0,0.0,0.0,-0.13869921875,0.0,0.0,0.0,0.0,0.0,0.0,-0.128,0.0,0.0,0.0,0.0,0.0,-1.61,-0.13019117712974548,0.0,0.0,0.0,0.0,0.0,0.0,-0.96,0.0,0.0,0.0
313,0.0,0.0,0.0,-0.1460888671875,0.0,0.0,0.0,0.0,0.0,0.0,-0.351,0.0,0.0,0.0,0.0,0.0,-1.61,-0.12591613829135895,0.0,0.0,0.0,0.0,0.0,0.0,1.78,0.0,0.0,0.0
314,0.0,0.0,0.0,-0.15057421875,0.0,0.0,0.0,0.0,0.0,0.0,-0.481,0.0,0.0,0.0,0.0,0.0,-1.61,-0.12712208926677704,0.0,0.0,0.0,0.0,0.0,0.0,6.632,0.0,0.0,0.0
315,0.0,0.0,0.0,-0.1513046875,0.0,0.0,0.0,0.0,0.0,0.0,-0.312,0.0,0.0,0.0,0.0,0.0,-1.61,-0.13402388989925385,0.0,0.0,0.0,0.0,0.0,0.0,10.128,0.0,0.0,0.0
316,0.0,0.0,0.0,-0.14999609375,0.0,0.0,0.0,0.0,0.0,0.0,0.03,0.0,0.0,0.0,0.0,0.0,-1.61,-0.13402388989925385,0.0,0.0,0.0,0.0,0.0,0.0,9.376,0.0,0.0,0.0
317,0.0,0.0,0.0,-0.148697265625,0.0,0.0,0.0,0.0,0.0,0.0,0.13,0.0,0.0,0.0,0.0,0.0,-1.61,-0.15025030076503754,0.0,0.0,0.0,0.0,0.0,0.0,8.736,0.0,0.0,0.0
318,0.0,0.0,0.0,-0.14580078125,0.0,0.0,0.0,0.0,0.0,0.0,0.194,0.0,0.0,0.0,0.0,0.0,-1.61,-0.15528839826583862,0.0,0.0,0.0,0.0,0.0,0.0,5.372,0.0,0.0,0.0
319,0.0,0.0,0.0,-0.1420380859375,0.0,0.0,0.0,0.0,0.0,0.0,0.337,0.0,0.0,0.0,0.0,0.0,-1.61,-0.1566353440284729,0.0,0.0,0.0,0.0,0.0,0.0,4.276,0.0,0.0,0.0
320,0.0,0.0,0.0,-0.1412978515625,0.0,0.0,0.0,0.0,0.0,0.0,0.275,0.0,0.0,0.0,0.0,0.0,-1.61,-0.1626938134431839,0.0,0.0,0.0,0.0,0.0,0.0,0.96,0.0,0.0,0.0
321,0.0,0.0,0.0,-0.1436259765625,0.0,0.0,0.0,0.0,0.0,0.0,-0.072,0.0,0.0,0.0,0.0,0.0,-1.61,-0.15764176845550537,0.0,0.0,0.0,0.0,0.0,0.0,0.456,0.0,0.0,0.0
322,0.0,0.0,0.0,-0.1460888671875,0.0,0.0,0.0,0.0,0.0,0.0,-0.242,0.0,0.0,0.0,0.0,0.0,-1.61,-0.13805654644966125,0.0,0.0,0.0,0.0,0.0,0.0,0.364,0.0,0.0,0.0
323,0.0,0.0,0.0,-0.15028515625,0.0,0.0,0.0,0.0,0.0,0.0,-0.303,0.0,0.0,0.0,0.0,0.0,-1.61,-0.13198581337928772,0.0,0.0,0.0,0.0,0.0,0.0,0.568,0.0,0.0,0.0
324,0.0,0.0,0.0,-0.1550673828125,0.0,0.0,0.0,0.0,0.0,0.0,-0.484,0.0,0.0,0.0,0.0,0.0,-1.61,-0.133402019739151,0.0,0.0,0.0,0.0,0.0,0.0,6.036,0.0,0.0,0.0
325,0.0,0.0,0.0,-0.1550673828125,0.0,0.0,0.0,0.0,0.0,0.0,-0.484,0.0,0.0,0.0,0.0,0.0,-1.61,-0.1308036744594574,0.0,0.0,0.0,0.0,0.0,0.0,6.036,0.0,0.0,0.0
326,0.0,0.0,0.0,-0.154345703125,0.0,0.0,0.0,0.0,0.0,0.0,0.041,0.0,0.0,0.0,0.0,0.0,-1.61,-0.13823287189006805,0.0,0.0,0.0,0.0,0.0,0.0,8.436,0.0,0.0,0.0
327,0.0,0.0,0.0,-0.1526044921875,0.0,0.0,0.0,0.0,0.0,0.0,0.14,0.0,0.0,0.0,0.0,0.0,-1.61,-0.15526989102363586,0.0,0.0,0.0,0.0,0.0,0.0,8.324,0.0,0.0,0.0
328,0.0,0.0,0.0,-0.148697265625,0.0,0.0,0.0,0.0,0.0,0.0,0.273,0.0,0.0,0.0,0.0,0.0,-1.61,-0.15985146164894104,0.0,0.0,0.0,0.0,0.0,0.0,4.368,0.0,0.0,0.0
329,0.0,0.0,0.0,-0.1463779296875,0.0,0.0,0.0,0.0,0.0,0.0,0.341,0.0,0.0,0.0,0.0,0.0,-1.61,-0.1649034321308136,0.0,0.0,0.0,0.0,0.0,0.0,1.188,0.0,0.0,0.0
330,0.0,0.0,0.0,-0.147388671875,0.0,0.0,0.0,0.0,0.0,0.0,0.094,0.0,0.0,0.0,0.0,0.0,-1.61,-0.16731461882591248,0.0,0.0,0.0,0.0,0.0,0.0,-0.044,0.0,0.0,0.0
331,0.0,0.0,0.0,-0.1495634765625,0.0,0.0,0.0,0.0,0.0,0.0,-0.156,0.0,0.0,0.0,0.0,0.0,-1.61,-0.15164530277252197,0.0,0.0,0.0,0.0,0.0,0.0,-0.388,0.0,0.0,0.0
332,0.0,0.0,0.0,-0.1526044921875,0.0,0.0,0.0,0.0,0.0,0.0,-0.256,0.0,0.0,0.0,0.0,0.0,-1.61,-0.1396329700946808,0.0,0.0,0.0,0.0,0.0,0.0,0.524,0.0,0.0,0.0
333,0.0,0.0,0.0,-0.1567998046875,0.0,0.0,0.0,0.0,0.0,0.0,-0.354,0.0,0.0,0.0,0.0,0.0,-1.61,-0.1378503441810608,0.0,0.0,0.0,0.0,0.0,0.0,3.084,0.0,0.0,0.0
334,0.0,0.0,0.0,-0.158830078125,0.0,0.0,0.0,0.0,0.0,0.0,-0.371,0.0,0.0,0.0,0.0,0.0,-1.61,-0.13770583271980286,0.0,0.0,0.0,0.0,0.0,0.0,8.872,0.0,0.0,0.0
335,0.0,0.0,0.0,-0.1573779296875,0.0,0.0,0.0,0.0,0.0,0.0,-0.038,0.0,0.0,0.0,0.0,0.0,-1.61,-0.13902217149734497,0.0,0.0,0.0,0.0,0.0,0.0,8.896,0.0,0.0,0.0
336,0.0,0.0,0.0,-0.1557890625,0.0,0.0,0.0,0.0,0.0,0.0,0.161,0.0,0.0,0.0,0.0,0.0,-1.61,-0.1536685973405838,0.0,0.0,0.0,0.0,0.0,0.0,7.844,0.0,0.0,0.0
337,0.0,0.0,0.0,-0.153326171875,0.0,0.0,0.0,0.0,0.0,0.0,0.177,0.0,0.0,0.0,0.0,0.0,-1.61,-0.164422407746315,0.0,0.0,0.0,0.0,0.0,0.0,5.92,0.0,0.0,0.0
338,0.0,0.0,0.0,-0.1492744140625,0.0,0.0,0.0,0.0,0.0,0.0,0.322,0.0,0.0,0.0,0.0,0.0,-1.61,-0.1630234718322754,0.0,0.0,0.0,0.0,0.0,0.0,3.016,0.0,0.0,0.0
339,0.0,0.0,0.0,-0.148263671875,0.0,0.0,0.0,0.0,0.0,0.0,0.315,0.0,0.0,0.0,0.0,0.0,-1.61,-0.16887977719306946,0.0,0.0,0.0,0.0,0.0,0.0,-0.776,0.0,0.0,0.0
340,0.0,0.0,0.0,-0.15144921875,0.0,0.0,0.0,0.0,0.0,0.0,-0.086,0.0,0.0,0.0,0.0,0.0,-1.61,-0.14513342082500458,0.0,0.0,0.0,0.0,0.0,0.0,-1.964,0.0,0.0,0.0
341,0.0,0.0,0.0,-0.1541923828125,0.0,0.0,0.0,0.0,0.0,0.0,-0.314,0.0,0.0,0.0,0.0,0.0,-1.61,-0.14513342082500458,0.0,0.0,0.0,0.0,0.0,0.0,-0.456,0.0,0.0,0.0
342,0.0,0.0,0.0,-0.1579638671875,0.0,0.0,0.0,0.0,0.0,0.0,-0.307,0.0,0.0,0.0,0.0,0.0,-1.61,-0.1368236392736435,0.0,0.0,0.0,0.0,0.0,0.0,1.028,0.0,0.0,0.0
343,0.0,0.0,0.0,-0.16216015625,0.0,0.0,0.0,0.0,0.0,0.0,-0.429,0.0,0.0,0.0,0.0,0.0,-1.61,-0.1400023102760315,0.0,0.0,0.0,0.0,0.0,0.0,7.956,0.0,0.0,0.0
344,0.0,0.0,0.0,-0.1614384765625,0.0,0.0,0.0,0.0,0.0,0.0,-0.228,0.0,0.0,0.0,0.0,0.0,-1.61,-0.1400023102760315,0.0,0.0,0.0,0.0,0.0,0.0,11.776,0.0,0.0,0.0
345,0.0,0.0,0.0,-0.159119140625,0.0,0.0,0.0,0.0,0.0,0.0,0.165,0.0,0.0,0.0,0.0,0.0,-1.61,-0.14799444377422333,0.0,0.0,0.0,0.0,0.0,0.0,7.956,0.0,0.0,0.0
346,0.0,0.0,0.0,-0.15753125,0.0,0.0,0.0,0.0,0.0,0.0,0.194,0.0,0.0,0.0,0.0,0.0,-1.61,-0.1680179089307785,0.0,0.0,0.0,0.0,0.0,0.0,7.568,0.0,0.0,0.0
347,0.0,0.0,0.0,-0.153615234375,0.0,0.0,0.0,0.0,0.0,0.0,0.251,0.0,0.0,0.0,0.0,0.0,-1.61,-0.16836580634117126,0.0,0.0,0.0,0.0,0.0,0.0,3.404,0.0,0.0,0.0
348,0.0,0.0,0.0,-0.1518828125,0.0,0.0,0.0,0.0,0.0,0.0,0.337,0.0,0.0,0.0,0.0,0.0,-1.61,-0.16831159591674805,0.0,0.0,0.0,0.0,0.0,0.0,-0.684,0.0,0.0,0.0
349,0.0,0.0,0.0,-0.1540478515625,0.0,0.0,0.0,0.0,0.0,0.0,0.0,0.0,0.0,0.0,0.0,0.0,-1.61,-0.17253853380680084,0.0,0.0,0.0,0.0,0.0,0.0,-0.296,0.0,0.0,0.0
350,0.0,0.0,0.0,-0.156078125,0.0,0.0,0.0,0.0,0.0,0.0,-0.22,0.0,0.0,0.0,0.0,0.0,-1.61,-0.1525152325630188,0.0,0.0,0.0,0.0,0.0,0.0,0.296,0.0,0.0,0.0
351,0.0,0.0,0.0,-0.159552734375,0.0,0.0,0.0,0.0,0.0,0.0,-0.247,0.0,0.0,0.0,0.0,0.0,-1.61,-0.14301416277885437,0.0,0.0,0.0,0.0,0.0,0.0,0.408,0.0,0.0,0.0
352,0.0,0.0,0.0,-0.164767578125,0.0,0.0,0.0,0.0,0.0,0.0,-0.437,0.0,0.0,0.0,0.0,0.0,-1.61,-0.14521627128124237,0.0,0.0,0.0,0.0,0.0,0.0,4.48,0.0,0.0,0.0
353,0.0,0.0,0.0,-0.1666533203125,0.0,0.0,0.0,0.0,0.0,0.0,-0.428,0.0,0.0,0.0,0.0,0.0,-1.61,-0.1422959864139557,0.0,0.0,0.0,0.0,0.0,0.0,10.036,0.0,0.0,0.0
354,0.0,0.0,0.0,-0.1650654296875,0.0,0.0,0.0,0.0,0.0,0.0,-0.012,0.0,0.0,0.0,0.0,0.0,-1.61,-0.14453482627868652,0.0,0.0,0.0,0.0,0.0,0.0,9.396,0.0,0.0,0.0
355,0.0,0.0,0.0,-0.1641904296875,0.0,0.0,0.0,0.0,0.0,0.0,0.128,0.0,0.0,0.0,0.0,0.0,-1.61,-0.17065078020095825,0.0,0.0,0.0,0.0,0.0,0.0,9.488,0.0,0.0,0.0
356,0.0,0.0,0.0,-0.1607158203125,0.0,0.0,0.0,0.0,0.0,0.0,0.181,0.0,0.0,0.0,0.0,0.0,-1.61,-0.17068010568618774,0.0,0.0,0.0,0.0,0.0,0.0,7.544,0.0,0.0,0.0
357,0.0,0.0,0.0,-0.1569443359375,0.0,0.0,0.0,0.0,0.0,0.0,0.387,0.0,0.0,0.0,0.0,0.0,-1.61,-0.17068010568618774,0.0,0.0,0.0,0.0,0.0,0.0,1.508,0.0,0.0,0.0
358,0.0,0.0,0.0,-0.15651171875,0.0,0.0,0.0,0.0,0.0,0.0,0.247,0.0,0.0,0.0,0.0,0.0,-1.61,-0.1811354011297226,0.0,0.0,0.0,0.0,0.0,0.0,1.004,0.0,0.0,0.0
359,0.0,0.0,0.0,-0.1585419921875,0.0,0.0,0.0,0.0,0.0,0.0,-0.059,0.0,0.0,0.0,0.0,0.0,-1.61,-0.17093470692634583,0.0,0.0,0.0,0.0,0.0,0.0,-0.888,0.0,0.0,0.0
360,0.0,0.0,0.0,-0.16187109375,0.0,0.0,0.0,0.0,0.0,0.0,-0.261,0.0,0.0,0.0,0.0,0.0,-1.61,-0.14688628911972046,0.0,0.0,0.0,0.0,0.0,0.0,0.708,0.0,0.0,0.0
361,0.0,0.0,0.0,-0.165931640625,0.0,0.0,0.0,0.0,0.0,0.0,-0.359,0.0,0.0,0.0,0.0,0.0,-1.61,-0.14662650227546692,0.0,0.0,0.0,0.0,0.0,0.0,2.924,0.0,0.0,0.0
362,0.0,0.0,0.0,-0.1707138671875,0.0,0.0,0.0,0.0,0.0,0.0,-0.455,0.0,0.0,0.0,0.0,0.0,-1.61,-0.14754563570022583,0.0,0.0,0.0,0.0,0.0,0.0,5.052,0.0,0.0,0.0
363,0.0,0.0,0.0,-0.1730244140625,0.0,0.0,0.0,0.0,0.0,0.0,-0.401,0.0,0.0,0.0,0.0,0.0,-1.61,-0.15198445320129395,0.0,0.0,0.0,0.0,0.0,0.0,8.848,0.0,0.0,0.0
364,0.0,0.0,0.0,-0.172013671875,0.0,0.0,0.0,0.0,0.0,0.0,-0.084,0.0,0.0,0.0,0.0,0.0,-1.61,-0.15198445320129395,0.0,0.0,0.0,0.0,0.0,0.0,9.352,0.0,0.0,0.0
365,0.0,0.0,0.0,-0.1707138671875,0.0,0.0,0.0,0.0,0.0,0.0,0.129,0.0,0.0,0.0,0.0,0.0,-1.61,-0.16580401360988617,0.0,0.0,0.0,0.0,0.0,0.0,7.864,0.0,0.0,0.0
366,0.0,0.0,0.0,-0.1683955078125,0.0,0.0,0.0,0.0,0.0,0.0,0.16,0.0,0.0,0.0,0.0,0.0,-1.61,-0.1772395819425583,0.0,0.0,0.0,0.0,0.0,0.0,5.488,0.0,0.0,0.0
367,0.0,0.0,0.0,-0.1652099609375,0.0,0.0,0.0,0.0,0.0,0.0,0.281,0.0,0.0,0.0,0.0,0.0,-1.61,-0.17696255445480347,0.0,0.0,0.0,0.0,0.0,0.0,3.544,0.0,0.0,0.0
368,0.0,0.0,0.0,-0.1650654296875,0.0,0.0,0.0,0.0,0.0,0.0,0.231,0.0,0.0,0.0,0.0,0.0,-1.61,-0.18196772038936615,0.0,0.0,0.0,0.0,0.0,0.0,-0.204,0.0,0.0,0.0
369,0.0,0.0,0.0,-0.16868359375,0.0,0.0,0.0,0.0,0.0,0.0,-0.168,0.0,0.0,0.0,0.0,0.0,-1.61,-0.17839843034744263,0.0,0.0,0.0,0.0,0.0,0.0,-0.548,0.0,0.0,0.0
370,0.0,0.0,0.0,-0.172013671875,0.0,0.0,0.0,0.0,0.0,0.0,-0.36,0.0,0.0,0.0,0.0,0.0,-1.61,-0.15815305709838867,0.0,0.0,0.0,0.0,0.0,0.0,1.576,0.0,0.0,0.0
371,0.0,0.0,0.0,-0.1762099609375,0.0,0.0,0.0,0.0,0.0,0.0,-0.359,0.0,0.0,0.0,0.0,0.0,-1.61,-0.15266641974449158,0.0,0.0,0.0,0.0,0.0,0.0,3.428,0.0,0.0,0.0
372,0.0,0.0,0.0,-0.18084765625,0.0,0.0,0.0,0.0,0.0,0.0,-0.468,0.0,0.0,0.0,0.0,0.0,-1.61,-0.15690481662750244,0.0,0.0,0.0,0.0,0.0,0.0,8.368,0.0,0.0,0.0
373,0.0,0.0,0.0,-0.1812802734375,0.0,0.0,0.0,0.0,0.0,0.0,-0.301,0.0,0.0,0.0,0.0,0.0,-1.61,-0.15718424320220947,0.0,0.0,0.0,0.0,0.0,0.0,11.136,0.0,0.0,0.0
374,0.0,0.0,0.0,-0.1795390625,0.0,0.0,0.0,0.0,0.0,0.0,0.069,0.0,0.0,0.0,0.0,0.0,-1.61,-0.16448594629764557,0.0,0.0,0.0,0.0,0.0,0.0,9.1,0.0,0.0,0.0
375,0.0,0.0,0.0,-0.178095703125,0.0,0.0,0.0,0.0,0.0,0.0,0.15,0.0,0.0,0.0,0.0,0.0,-1.61,-0.18600131571292877,0.0,0.0,0.0,0.0,0.0,0.0,8.576,0.0,0.0,0.0
376,0.0,0.0,0.0,-0.17519921875,0.0,0.0,0.0,0.0,0.0,0.0,0.213,0.0,0.0,0.0,0.0,0.0,-1.61,-0.18600131571292877,0.0,0.0,0.0,0.0,0.0,0.0,5.348,0.0,0.0,0.0
377,0.0,0.0,0.0,-0.1738994140625,0.0,0.0,0.0,0.0,0.0,0.0,0.254,0.0,0.0,0.0,0.0,0.0,-1.61,-0.18731285631656647,0.0,0.0,0.0,0.0,0.0,0.0,0.936,0.0,0.0,0.0
378,0.0,0.0,0.0,-0.1759208984375,0.0,0.0,0.0,0.0,0.0,0.0,-0.022,0.0,0.0,0.0,0.0,0.0,-1.61,-0.1731155961751938,0.0,0.0,0.0,0.0,0.0,0.0,0.912,0.0,0.0,0.0
379,0.0,0.0,0.0,-0.1783837890625,0.0,0.0,0.0,0.0,0.0,0.0,-0.227,0.0,0.0,0.0,0.0,0.0,-1.61,-0.1731155961751938,0.0,0.0,0.0,0.0,0.0,0.0,1.736,0.0,0.0,0.0
380,0.0,0.0,0.0,-0.1820029296875,0.0,0.0,0.0,0.0,0.0,0.0,-0.295,0.0,0.0,0.0,0.0,0.0,-1.61,-0.1654759794473648,0.0,0.0,0.0,0.0,0.0,0.0,3.268,0.0,0.0,0.0
381,0.0,0.0,0.0,-0.18504296875,0.0,0.0,0.0,0.0,0.0,0.0,-0.364,0.0,0.0,0.0,0.0,0.0,-1.61,-0.1654759794473648,0.0,0.0,0.0,0.0,0.0,0.0,8.644,0.0,0.0,0.0
382,0.0,0.0,0.0,-0.1847548828125,0.0,0.0,0.0,0.0,0.0,0.0,-0.163,0.0,0.0,0.0,0.0,0.0,-1.61,-0.16552767157554626,0.0,0.0,0.0,0.0,0.0,0.0,10.976,0.0,0.0,0.0
383,0.0,0.0,0.0,-0.184033203125,0.0,0.0,0.0,0.0,0.0,0.0,0.057,0.0,0.0,0.0,0.0,0.0,-1.61,-0.17447367310523987,0.0,0.0,0.0,0.0,0.0,0.0,9.168,0.0,0.0,0.0
384,0.0,0.0,0.0,-0.182435546875,0.0,0.0,0.0,0.0,0.0,0.0,0.103,0.0,0.0,0.0,0.0,0.0,-1.61,-0.18727144598960876,0.0,0.0,0.0,0.0,0.0,0.0,7.612,0.0,0.0,0.0
385,0.0,0.0,0.0,-0.182435546875,0.0,0.0,0.0,0.0,0.0,0.0,0.103,0.0,0.0,0.0,0.0,0.0,-1.61,-0.18727144598960876,0.0,0.0,0.0,0.0,0.0,0.0,7.612,0.0,0.0,0.0
386,0.0,0.0,0.0,-0.1789619140625,0.0,0.0,0.0,0.0,0.0,0.0,0.23,0.0,0.0,0.0,0.0,0.0,-1.61,-0.19131532311439514,0.0,0.0,0.0,0.0,0.0,0.0,0.34,0.0,0.0,0.0
387,0.0,0.0,0.0,-0.182580078125,0.0,0.0,0.0,0.0,0.0,0.0,-0.134,0.0,0.0,0.0,0.0,0.0,-1.61,-0.19222700595855713,0.0,0.0,0.0,0.0,0.0,0.0,-0.34,0.0,0.0,0.0
388,0.0,0.0,0.0,-0.182580078125,0.0,0.0,0.0,0.0,0.0,0.0,-0.134,0.0,0.0,0.0,0.0,0.0,-1.61,-0.17376457154750824,0.0,0.0,0.0,0.0,0.0,0.0,-0.34,0.0,0.0,0.0
389,0.0,0.0,0.0,-0.1895458984375,0.0,0.0,0.0,0.0,0.0,0.0,-0.325,0.0,0.0,0.0,0.0,0.0,-1.61,-0.1667393445968628,0.0,0.0,0.0,0.0,0.0,0.0,2.192,0.0,0.0,0.0
390,0.0,0.0,0.0,-0.1944638671875,0.0,0.0,0.0,0.0,0.0,0.0,-0.467,0.0,0.0,0.0,0.0,0.0,-1.61,-0.17169639468193054,0.0,0.0,0.0,0.0,0.0,0.0,6.904,0.0,0.0,0.0
391,0.0,0.0,0.0,-0.1957724609375,0.0,0.0,0.0,0.0,0.0,0.0,-0.365,0.0,0.0,0.0,0.0,0.0,-1.61,-0.17083831131458282,0.0,0.0,0.0,0.0,0.0,0.0,11.18,0.0,0.0,0.0
392,0.0,0.0,0.0,-0.19403125,0.0,0.0,0.0,0.0,0.0,0.0,0.022,0.0,0.0,0.0,0.0,0.0,-1.61,-0.19380325078964233,0.0,0.0,0.0,0.0,0.0,0.0,9.468,0.0,0.0,0.0
393,0.0,0.0,0.0,-0.1928759765625,0.0,0.0,0.0,0.0,0.0,0.0,0.15,0.0,0.0,0.0,0.0,0.0,-1.61,-0.20078159868717194,0.0,0.0,0.0,0.0,0.0,0.0,8.576,0.0,0.0,0.0
394,0.0,0.0,0.0,-0.1896904296875,0.0,0.0,0.0,0.0,0.0,0.0,0.189,0.0,0.0,0.0,0.0,0.0,-1.61,-0.20078159868717194,0.0,0.0,0.0,0.0,0.0,0.0,6.264,0.0,0.0,0.0
395,0.0,0.0,0.0,-0.1872177734375,0.0,0.0,0.0,0.0,0.0,0.0,0.324,0.0,0.0,0.0,0.0,0.0,-1.61,-0.20696291327476501,0.0,0.0,0.0,0.0,0.0,0.0,0.64,0.0,0.0,0.0
396,0.0,0.0,0.0,-0.1895458984375,0.0,0.0,0.0,0.0,0.0,0.0,0.053,0.0,0.0,0.0,0.0,0.0,-1.61,-0.20696291327476501,0.0,0.0,0.0,0.0,0.0,0.0,-0.936,0.0,0.0,0.0
397,0.0,0.0,0.0,-0.1924423828125,0.0,0.0,0.0,0.0,0.0,0.0,-0.274,0.0,0.0,0.0,0.0,0.0,-1.61,-0.17686250805854797,0.0,0.0,0.0,0.0,0.0,0.0,0.752,0.0,0.0,0.0
398,0.0,0.0,0.0,-0.1957724609375,0.0,0.0,0.0,0.0,0.0,0.0,-0.3,0.0,0.0,0.0,0.0,0.0,-1.61,-0.17686250805854797,0.0,0.0,0.0,0.0,0.0,0.0,1.692,0.0,0.0,0.0
399,0.0,0.0,0.0,-0.201123046875,0.0,0.0,0.0,0.0,0.0,0.0,-0.42,0.0,0.0,0.0,0.0,0.0,-1.61,-0.17902259528636932,0.0,0.0,0.0,0.0,0.0,0.0,4.368,0.0,0.0,0.0
400,0.0,0.0,0.0,-0.2034423828125,0.0,0.0,0.0,0.0,0.0,0.0,-0.456,0.0,0.0,0.0,0.0,0.0,-1.61,-0.17932112514972687,0.0,0.0,0.0,0.0,0.0,0.0,11.18,0.0,0.0,0.0
401,0.0,0.0,0.0,-0.201412109375,0.0,0.0,0.0,0.0,0.0,0.0,-0.027,0.0,0.0,0.0,0.0,0.0,-1.61,-0.1802358329296112,0.0,0.0,0.0,0.0,0.0,0.0,10.748,0.0,0.0,0.0
402,0.0,0.0,0.0,-0.1999677734375,0.0,0.0,0.0,0.0,0.0,0.0,0.188,0.0,0.0,0.0,0.0,0.0,-1.61,-0.19832231104373932,0.0,0.0,0.0,0.0,0.0,0.0,8.324,0.0,0.0,0.0
403,0.0,0.0,0.0,-0.1972158203125,0.0,0.0,0.0,0.0,0.0,0.0,0.169,0.0,0.0,0.0,0.0,0.0,-1.61,-0.21040017902851105,0.0,0.0,0.0,0.0,0.0,0.0,7.04,0.0,0.0,0.0
404,0.0,0.0,0.0,-0.1931640625,0.0,0.0,0.0,0.0,0.0,0.0,0.356,0.0,0.0,0.0,0.0,0.0,-1.61,-0.2151571661233902,0.0,0.0,0.0,0.0,0.0,0.0,3.452,0.0,0.0,0.0
405,0.0,0.0,0.0,-0.19330859375,0.0,0.0,0.0,0.0,0.0,0.0,0.267,0.0,0.0,0.0,0.0,0.0,-1.61,-0.20910194516181946,0.0,0.0,0.0,0.0,0.0,0.0,-1.712,0.0,0.0,0.0
406,0.0,0.0,0.0,-0.1973603515625,0.0,0.0,0.0,0.0,0.0,0.0,-0.219,0.0,0.0,0.0,0.0,0.0,-1.61,-0.20910194516181946,0.0,0.0,0.0,0.0,0.0,0.0,0.02,0.0,0.0,0.0
407,0.0,0.0,0.0,-0.1999677734375,0.0,0.0,0.0,0.0,0.0,0.0,-0.348,0.0,0.0,0.0,0.0,0.0,-1.61,-0.1843440979719162,0.0,0.0,0.0,0.0,0.0,0.0,1.256,0.0,0.0,0.0
408,0.0,0.0,0.0,-0.20459765625,0.0,0.0,0.0,0.0,0.0,0.0,-0.319,0.0,0.0,0.0,0.0,0.0,-1.61,-0.18112854659557343,0.0,0.0,0.0,0.0,0.0,0.0,1.828,0.0,0.0,0.0
409,0.0,0.0,0.0,-0.2101015625,0.0,0.0,0.0,0.0,0.0,0.0,-0.547,0.0,0.0,0.0,0.0,0.0,-1.61,-0.1870097815990448,0.0,0.0,0.0,0.0,0.0,0.0,8.3,0.0,0.0,0.0
410,0.0,0.0,0.0,-0.20995703125,0.0,0.0,0.0,0.0,0.0,0.0,-0.335,0.0,0.0,0.0,0.0,0.0,-1.61,-0.18357180058956146,0.0,0.0,0.0,0.0,0.0,0.0,11.16,0.0,0.0,0.0
411,0.0,0.0,0.0,-0.208369140625,0.0,0.0,0.0,0.0,0.0,0.0,0.113,0.0,0.0,0.0,0.0,0.0,-1.61,-0.19167457520961761,0.0,0.0,0.0,0.0,0.0,0.0,7.864,0.0,0.0,0.0
412,0.0,0.0,0.0,-0.207349609375,0.0,0.0,0.0,0.0,0.0,0.0,0.114,0.0,0.0,0.0,0.0,0.0,-1.61,-0.21385225653648376,0.0,0.0,0.0,0.0,0.0,0.0,9.168,0.0,0.0,0.0
413,0.0,0.0,0.0,-0.2030087890625,0.0,0.0,0.0,0.0,0.0,0.0,0.243,0.0,0.0,0.0,0.0,0.0,-1.61,-0.21289768815040588,0.0,0.0,0.0,0.0,0.0,0.0,6.012,0.0,0.0,0.0
414,0.0,0.0,0.0,-0.2030087890625,0.0,0.0,0.0,0.0,0.0,0.0,0.243,0.0,0.0,0.0,0.0,0.0,-1.61,-0.21715876460075378,0.0,0.0,0.0,0.0,0.0,0.0,6.012,0.0,0.0,0.0
415,0.0,0.0,0.0,-0.2035869140625,0.0,0.0,0.0,0.0,0.0,0.0,-0.01,0.0,0.0,0.0,0.0,0.0,-1.61,-0.22595259547233582,0.0,0.0,0.0,0.0,0.0,0.0,0.044,0.0,0.0,0.0
416,0.0,0.0,0.0,-0.20547265625,0.0,0.0,0.0,0.0,0.0,0.0,-0.258,0.0,0.0,0.0,0.0,0.0,-1.61,-0.20147162675857544,0.0,0.0,0.0,0.0,0.0,0.0,1.212,0.0,0.0,0.0
417,0.0,0.0,0.0,-0.2088017578125,0.0,0.0,0.0,0.0,0.0,0.0,-0.223,0.0,0.0,0.0,0.0,0.0,-1.61,-0.1906261444091797,0.0,0.0,0.0,0.0,0.0,0.0,0.776,0.0,0.0,0.0
418,0.0,0.0,0.0,-0.2145947265625,0.0,0.0,0.0,0.0,0.0,0.0,-0.462,0.0,0.0,0.0,0.0,0.0,-1.61,-0.1955949366092682,0.0,0.0,0.0,0.0,0.0,0.0,5.876,0.0,0.0,0.0
419,0.0,0.0,0.0,-0.2157587890625,0.0,0.0,0.0,0.0,0.0,0.0,-0.429,0.0,0.0,0.0,0.0,0.0,-1.61,-0.19115902483463287,0.0,0.0,0.0,0.0,0.0,0.0,11.228,0.0,0.0,0.0
420,0.0,0.0,0.0,-0.213728515625,0.0,0.0,0.0,0.0,0.0,0.0,0.057,0.0,0.0,0.0,0.0,0.0,-1.61,-0.19360093772411346,0.0,0.0,0.0,0.0,0.0,0.0,8.896,0.0,0.0,0.0
421,0.0,0.0,0.0,-0.2131513671875,0.0,0.0,0.0,0.0,0.0,0.0,0.135,0.0,0.0,0.0,0.0,0.0,-1.61,-0.21564145386219025,0.0,0.0,0.0,0.0,0.0,0.0,8.436,0.0,0.0,0.0
422,0.0,0.0,0.0,-0.210390625,0.0,0.0,0.0,0.0,0.0,0.0,0.129,0.0,0.0,0.0,0.0,0.0,-1.61,-0.22007004916667938,0.0,0.0,0.0,0.0,0.0,0.0,6.7,0.0,0.0,0.0
423,0.0,0.0,0.0,-0.206771484375,0.0,0.0,0.0,0.0,0.0,0.0,0.35,0.0,0.0,0.0,0.0,0.0,-1.61,-0.21691633760929108,0.0,0.0,0.0,0.0,0.0,0.0,1.508,0.0,0.0,0.0
424,0.0,0.0,0.0,-0.207494140625,0.0,0.0,0.0,0.0,0.0,0.0,0.197,0.0,0.0,0.0,0.0,0.0,-1.61,-0.22834144532680511,0.0,0.0,0.0,0.0,0.0,0.0,0.98,0.0,0.0,0.0
425,0.0,0.0,0.0,-0.2101015625,0.0,0.0,0.0,0.0,0.0,0.0,-0.173,0.0,0.0,0.0,0.0,0.0,-1.61,-0.2185301035642624,0.0,0.0,0.0,0.0,0.0,0.0,1.188,0.0,0.0,0.0
426,0.0,0.0,0.0,-0.2101015625,0.0,0.0,0.0,0.0,0.0,0.0,-0.173,0.0,0.0,0.0,0.0,0.0,-1.61,-0.19932270050048828,0.0,0.0,0.0,0.0,0.0,0.0,1.188,0.0,0.0,0.0
427,0.0,0.0,0.0,-0.21734765625,0.0,0.0,0.0,0.0,0.0,0.0,-0.345,0.0,0.0,0.0,0.0,0.0,-1.61,-0.19777999818325043,0.0,0.0,0.0,0.0,0.0,0.0,2.992,0.0,0.0,0.0
428,0.0,0.0,0.0,-0.2209658203125,0.0,0.0,0.0,0.0,0.0,0.0,-0.452,0.0,0.0,0.0,0.0,0.0,-1.61,-0.19863633811473846,0.0,0.0,0.0,0.0,0.0,0.0,7.932,0.0,0.0,0.0
429,0.0,0.0,0.0,-0.2206767578125,0.0,0.0,0.0,0.0,0.0,0.0,-0.204,0.0,0.0,0.0,0.0,0.0,-1.61,-0.1979128122329712,0.0,0.0,0.0,0.0,0.0,0.0,9.396,0.0,0.0,0.0
430,0.0,0.0,0.0,-0.2206767578125,0.0,0.0,0.0,0.0,0.0,0.0,-0.204,0.0,0.0,0.0,0.0,0.0,-1.61,-0.20838075876235962,0.0,0.0,0.0,0.0,0.0,0.0,9.396,0.0,0.0,0.0
431,0.0,0.0,0.0,-0.217203125,0.0,0.0,0.0,0.0,0.0,0.0,0.157,0.0,0.0,0.0,0.0,0.0,-1.61,-0.2227562665939331,0.0,0.0,0.0,0.0,0.0,0.0,7.612,0.0,0.0,0.0
432,0.0,0.0,0.0,-0.214017578125,0.0,0.0,0.0,0.0,0.0,0.0,0.277,0.0,0.0,0.0,0.0,0.0,-1.61,-0.22557146847248077,0.0,0.0,0.0,0.0,0.0,0.0,3.884,0.0,0.0,0.0
433,0.0,0.0,0.0,-0.214017578125,0.0,0.0,0.0,0.0,0.0,0.0,0.277,0.0,0.0,0.0,0.0,0.0,-1.61,-0.23049938678741455,0.0,0.0,0.0,0.0,0.0,0.0,3.884,0.0,0.0,0.0
434,0.0,0.0,0.0,-0.215615234375,0.0,0.0,0.0,0.0,0.0,0.0,-0.078,0.0,0.0,0.0,0.0,0.0,-1.61,-0.22812145948410034,0.0,0.0,0.0,0.0,0.0,0.0,-0.272,0.0,0.0,0.0
435,0.0,0.0,0.0,-0.21822265625,0.0,0.0,0.0,0.0,0.0,0.0,-0.253,0.0,0.0,0.0,0.0,0.0,-1.61,-0.20972493290901184,0.0,0.0,0.0,0.0,0.0,0.0,0.936,0.0,0.0,0.0
436,0.0,0.0,0.0,-0.2222744140625,0.0,0.0,0.0,0.0,0.0,0.0,-0.299,0.0,0.0,0.0,0.0,0.0,-1.61,-0.20360736548900604,0.0,0.0,0.0,0.0,0.0,0.0,1.872,0.0,0.0,0.0
437,0.0,0.0,0.0,-0.2269033203125,0.0,0.0,0.0,0.0,0.0,0.0,-0.461,0.0,0.0,0.0,0.0,0.0,-1.61,-0.2055690586566925,0.0,0.0,0.0,0.0,0.0,0.0,5.42,0.0,0.0,0.0
438,0.0,0.0,0.0,-0.2277783203125,0.0,0.0,0.0,0.0,0.0,0.0,-0.328,0.0,0.0,0.0,0.0,0.0,-1.61,-0.2035057246685028,0.0,0.0,0.0,0.0,0.0,0.0,9.284,0.0,0.0,0.0
439,0.0,0.0,0.0,-0.226037109375,0.0,0.0,0.0,0.0,0.0,0.0,0.044,0.0,0.0,0.0,0.0,0.0,-1.61,-0.20979851484298706,0.0,0.0,0.0,0.0,0.0,0.0,8.368,0.0,0.0,0.0
440,0.0,0.0,0.0,-0.2244482421875,0.0,0.0,0.0,0.0,0.0,0.0,0.163,0.0,0.0,0.0,0.0,0.0,-1.61,-0.22714544832706451,0.0,0.0,0.0,0.0,0.0,0.0,7.844,0.0,0.0,0.0
441,0.0,0.0,0.0,-0.2244482421875,0.0,0.0,0.0,0.0,0.0,0.0,0.163,0.0,0.0,0.0,0.0,0.0,-1.61,-0.23321424424648285,0.0,0.0,0.0,0.0,0.0,0.0,7.844,0.0,0.0,0.0
442,0.0,0.0,0.0,-0.21851171875,0.0,0.0,0.0,0.0,0.0,0.0,0.339,0.0,0.0,0.0,0.0,0.0,-1.61,-0.2341805398464203,0.0,0.0,0.0,0.0,0.0,0.0,0.388,0.0,0.0,0.0
443,0.0,0.0,0.0,-0.2203876953125,0.0,0.0,0.0,0.0,0.0,0.0,0.074,0.0,0.0,0.0,0.0,0.0,-1.61,-0.23930788040161133,0.0,0.0,0.0,0.0,0.0,0.0,-1.6,0.0,0.0,0.0
444,0.0,0.0,0.0,-0.223140625,0.0,0.0,0.0,0.0,0.0,0.0,-0.243,0.0,0.0,0.0,0.0,0.0,-1.61,-0.223368838429451,0.0,0.0,0.0,0.0,0.0,0.0,-0.228,0.0,0.0,0.0
445,0.0,0.0,0.0,-0.226181640625,0.0,0.0,0.0,0.0,0.0,0.0,-0.273,0.0,0.0,0.0,0.0,0.0,-1.61,-0.20899081230163574,0.0,0.0,0.0,0.0,0.0,0.0,0.888,0.0,0.0,0.0
446,0.0,0.0,0.0,-0.2309638671875,0.0,0.0,0.0,0.0,0.0,0.0,-0.388,0.0,0.0,0.0,0.0,0.0,-1.61,-0.21064729988574982,0.0,0.0,0.0,0.0,0.0,0.0,3.704,0.0,0.0,0.0
447,0.0,0.0,0.0,-0.2326962890625,0.0,0.0,0.0,0.0,0.0,0.0,-0.395,0.0,0.0,0.0,0.0,0.0,-1.61,-0.21045345067977905,0.0,0.0,0.0,0.0,0.0,0.0,9.716,0.0,0.0,0.0
448,0.0,0.0,0.0,-0.230521484375,0.0,0.0,0.0,0.0,0.0,0.0,0.016,0.0,0.0,0.0,0.0,0.0,-1.61,-0.21189984679222107,0.0,0.0,0.0,0.0,0.0,0.0,9.032,0.0,0.0,0.0
449,0.0,0.0,0.0,-0.22893359375,0.0,0.0,0.0,0.0,0.0,0.0,0.198,0.0,0.0,0.0,0.0,0.0,-1.61,-0.22993460297584534,0.0,0.0,0.0,0.0,0.0,0.0,7.34,0.0,0.0,0.0
450,0.0,0.0,0.0,-0.2263251953125,0.0,0.0,0.0,0.0,0.0,0.0,0.181,0.0,0.0,0.0,0.0,0.0,-1.61,-0.2400367259979248,0.0,0.0,0.0,0.0,0.0,0.0,5.828,0.0,0.0,0.0
451,0.0,0.0,0.0,-0.2219853515625,0.0,0.0,0.0,0.0,0.0,0.0,0.346,0.0,0.0,0.0,0.0,0.0,-1.61,-0.23628948628902435,0.0,0.0,0.0,0.0,0.0,0.0,3.384,0.0,0.0,0.0
452,0.0,0.0,0.0,-0.219810546875,0.0,0.0,0.0,0.0,0.0,0.0,0.386,0.0,0.0,0.0,0.0,0.0,-1.61,-0.24327364563941956,0.0,0.0,0.0,0.0,0.0,0.0,0.456,0.0,0.0,0.0
453,0.0,0.0,0.0,-0.2221298828125,0.0,0.0,0.0,0.0,0.0,0.0,0.006,0.0,0.0,0.0,0.0,0.0,-1.61,-0.243930384516716,0.0,0.0,0.0,0.0,0.0,0.0,-0.112,0.0,0.0,0.0
454,0.0,0.0,0.0,-0.2243046875,0.0,0.0,0.0,0.0,0.0,0.0,-0.231,0.0,0.0,0.0,0.0,0.0,-1.61,-0.22094997763633728,0.0,0.0,0.0,0.0,0.0,0.0,0.0,0.0,0.0,0.0
455,0.0,0.0,0.0,-0.2282119140625,0.0,0.0,0.0,0.0,0.0,0.0,-0.274,0.0,0.0,0.0,0.0,0.0,-1.61,-0.21071872115135193,0.0,0.0,0.0,0.0,0.0,0.0,-0.068,0.0,0.0,0.0
456,0.0,0.0,0.0,-0.2338515625,0.0,0.0,0.0,0.0,0.0,0.0,-0.491,0.0,0.0,0.0,0.0,0.0,-1.61,-0.21263203024864197,0.0,0.0,0.0,0.0,0.0,0.0,3.864,0.0,0.0,0.0
457,0.0,0.0,0.0,-0.2358818359375,0.0,0.0,0.0,0.0,0.0,0.0,-0.446,0.0,0.0,0.0,0.0,0.0,-1.61,-0.20932839810848236,0.0,0.0,0.0,0.0,0.0,0.0,8.664,0.0,0.0,0.0
458,0.0,0.0,0.0,-0.2344375,0.0,0.0,0.0,0.0,0.0,0.0,-0.038,0.0,0.0,0.0,0.0,0.0,-1.61,-0.2307281643152237,0.0,0.0,0.0,0.0,0.0,0.0,8.344,0.0,0.0,0.0
459,0.0,0.0,0.0,-0.2335625,0.0,0.0,0.0,0.0,0.0,0.0,0.129,0.0,0.0,0.0,0.0,0.0,-1.61,-0.24008820950984955,0.0,0.0,0.0,0.0,0.0,0.0,7.384,0.0,0.0,0.0
460,0.0,0.0,0.0,-0.230087890625,0.0,0.0,0.0,0.0,0.0,0.0,0.176,0.0,0.0,0.0,0.0,0.0,-1.61,-0.23971854150295258,0.0,0.0,0.0,0.0,0.0,0.0,6.152,0.0,0.0,0.0
461,0.0,0.0,0.0,-0.22748046875,0.0,0.0,0.0,0.0,0.0,0.0,0.348,0.0,0.0,0.0,0.0,0.0,-1.61,-0.24890956282615662,0.0,0.0,0.0,0.0,0.0,0.0,-0.776,0.0,0.0,0.0
462,0.0,0.0,0.0,-0.2297998046875,0.0,0.0,0.0,0.0,0.0,0.0,0.055,0.0,0.0,0.0,0.0,0.0,-1.61,-0.23158827424049377,0.0,0.0,0.0,0.0,0.0,0.0,-1.804,0.0,0.0,0.0
463,0.0,0.0,0.0,-0.2328408203125,0.0,0.0,0.0,0.0,0.0,0.0,-0.286,0.0,0.0,0.0,0.0,0.0,-1.61,-0.21671760082244873,0.0,0.0,0.0,0.0,0.0,0.0,0.204,0.0,0.0,0.0
464,0.0,0.0,0.0,-0.2357373046875,0.0,0.0,0.0,0.0,0.0,0.0,-0.284,0.0,0.0,0.0,0.0,0.0,-1.61,-0.21671760082244873,0.0,0.0,0.0,0.0,0.0,0.0,1.14,0.0,0.0,0.0
465,0.0,0.0,0.0,-0.2393642578125,0.0,0.0,0.0,0.0,0.0,0.0,-0.34,0.0,0.0,0.0,0.0,0.0,-1.61,-0.22086688876152039,0.0,0.0,0.0,0.0,0.0,0.0,6.632,0.0,0.0,0.0
466,0.0,0.0,0.0,-0.2390751953125,0.0,0.0,0.0,0.0,0.0,0.0,-0.225,0.0,0.0,0.0,0.0,0.0,-1.61,-0.22577336430549622,0.0,0.0,0.0,0.0,0.0,0.0,12.576,0.0,0.0,0.0
467,0.0,0.0,0.0,-0.236314453125,0.0,0.0,0.0,0.0,0.0,0.0,0.167,0.0,0.0,0.0,0.0,0.0,-1.61,-0.22577336430549622,0.0,0.0,0.0,0.0,0.0,0.0,8.872,0.0,0.0,0.0
468,0.0,0.0,0.0,-0.2351591796875,0.0,0.0,0.0,0.0,0.0,0.0,0.201,0.0,0.0,0.0,0.0,0.0,-1.61,-0.2453460395336151,0.0,0.0,0.0,0.0,0.0,0.0,6.06,0.0,0.0,0.0
469,0.0,0.0,0.0,-0.2326962890625,0.0,0.0,0.0,0.0,0.0,0.0,0.16,0.0,0.0,0.0,0.0,0.0,-1.61,-0.24646399915218353,0.0,0.0,0.0,0.0,0.0,0.0,3.588,0.0,0.0,0.0
470,0.0,0.0,0.0,-0.2311083984375,0.0,0.0,0.0,0.0,0.0,0.0,0.245,0.0,0.0,0.0,0.0,0.0,-1.61,-0.24126334488391876,0.0,0.0,0.0,0.0,0.0,0.0,-0.82,0.0,0.0,0.0
471,0.0,0.0,0.0,-0.2335625,0.0,0.0,0.0,0.0,0.0,0.0,-0.01,0.0,0.0,0.0,0.0,0.0,-1.61,-0.24539482593536377,0.0,0.0,0.0,0.0,0.0,0.0,-0.548,0.0,0.0,0.0
472,0.0,0.0,0.0,-0.236603515625,0.0,0.0,0.0,0.0,0.0,0.0,-0.286,0.0,0.0,0.0,0.0,0.0,-1.61,-0.23144720494747162,0.0,0.0,0.0,0.0,0.0,0.0,1.096,0.0,0.0,0.0
473,0.0,0.0,0.0,-0.2396533203125,0.0,0.0,0.0,0.0,0.0,0.0,-0.302,0.0,0.0,0.0,0.0,0.0,-1.61,-0.2204802930355072,0.0,0.0,0.0,0.0,0.0,0.0,2.124,0.0,0.0,0.0
474,0.0,0.0,0.0,-0.2440029296875,0.0,0.0,0.0,0.0,0.0,0.0,-0.366,0.0,0.0,0.0,0.0,0.0,-1.61,-0.22281457483768463,0.0,0.0,0.0,0.0,0.0,0.0,6.036,0.0,0.0,0.0
475,0.0,0.0,0.0,-0.24587890625,0.0,0.0,0.0,0.0,0.0,0.0,-0.36,0.0,0.0,0.0,0.0,0.0,-1.61,-0.22440384328365326,0.0,0.0,0.0,0.0,0.0,0.0,11.088,0.0,0.0,0.0
476,0.0,0.0,0.0,-0.24587890625,0.0,0.0,0.0,0.0,0.0,0.0,-0.36,0.0,0.0,0.0,0.0,0.0,-1.61,-0.22653165459632874,0.0,0.0,0.0,0.0,0.0,0.0,11.088,0.0,0.0,0.0
477,0.0,0.0,0.0,-0.2424052734375,0.0,0.0,0.0,0.0,0.0,0.0,0.187,0.0,0.0,0.0,0.0,0.0,-1.61,-0.24180108308792114,0.0,0.0,0.0,0.0,0.0,0.0,8.14,0.0,0.0,0.0
478,0.0,0.0,0.0,-0.2400859375,0.0,0.0,0.0,0.0,0.0,0.0,0.163,0.0,0.0,0.0,0.0,0.0,-1.61,-0.2527707517147064,0.0,0.0,0.0,0.0,0.0,0.0,6.22,0.0,0.0,0.0
479,0.0,0.0,0.0,-0.2357373046875,0.0,0.0,0.0,0.0,0.0,0.0,0.327,0.0,0.0,0.0,0.0,0.0,-1.61,-0.24885194003582,0.0,0.0,0.0,0.0,0.0,0.0,4.368,0.0,0.0,0.0
480,0.0,0.0,0.0,-0.2344375,0.0,0.0,0.0,0.0,0.0,0.0,0.35,0.0,0.0,0.0,0.0,0.0,-1.61,-0.25600746273994446,0.0,0.0,0.0,0.0,0.0,0.0,0.0,0.0,0.0,0.0
481,0.0,0.0,0.0,-0.2344375,0.0,0.0,0.0,0.0,0.0,0.0,0.35,0.0,0.0,0.0,0.0,0.0,-1.61,-0.25600746273994446,0.0,0.0,0.0,0.0,0.0,0.0,0.0,0.0,0.0,0.0
482,0.0,0.0,0.0,-0.2393642578125,0.0,0.0,0.0,0.0,0.0,0.0,-0.249,0.0,0.0,0.0,0.0,0.0,-1.61,-0.23162002861499786,0.0,0.0,0.0,0.0,0.0,0.0,0.96,0.0,0.0,0.0
483,0.0,0.0,0.0,-0.2440029296875,0.0,0.0,0.0,0.0,0.0,0.0,-0.298,0.0,0.0,0.0,0.0,0.0,-1.61,-0.2249346822500229,0.0,0.0,0.0,0.0,0.0,0.0,1.416,0.0,0.0,0.0
484,0.0,0.0,0.0,-0.2440029296875,0.0,0.0,0.0,0.0,0.0,0.0,-0.298,0.0,0.0,0.0,0.0,0.0,-1.61,-0.2273421287536621,0.0,0.0,0.0,0.0,0.0,0.0,1.416,0.0,0.0,0.0
485,0.0,0.0,0.0,-0.2525390625,0.0,0.0,0.0,0.0,0.0,0.0,-0.476,0.0,0.0,0.0,0.0,0.0,-1.61,-0.22309701144695282,0.0,0.0,0.0,0.0,0.0,0.0,8.78,0.0,0.0,0.0
486,0.0,0.0,0.0,-0.25181640625,0.0,0.0,0.0,0.0,0.0,0.0,-0.104,0.0,0.0,0.0,0.0,0.0,-1.61,-0.22857427597045898,0.0,0.0,0.0,0.0,0.0,0.0,8.824,0.0,0.0,0.0
487,0.0,0.0,0.0,-0.2510947265625,0.0,0.0,0.0,0.0,0.0,0.0,0.068,0.0,0.0,0.0,0.0,0.0,-1.61,-0.24455243349075317,0.0,0.0,0.0,0.0,0.0,0.0,8.528,0.0,0.0,0.0
488,0.0,0.0,0.0,-0.2481982421875,0.0,0.0,0.0,0.0,0.0,0.0,0.151,0.0,0.0,0.0,0.0,0.0,-1.61,-0.25369688868522644,0.0,0.0,0.0,0.0,0.0,0.0,6.952,0.0,0.0,0.0
489,0.0,0.0,0.0,-0.2481982421875,0.0,0.0,0.0,0.0,0.0,0.0,0.151,0.0,0.0,0.0,0.0,0.0,-1.61,-0.2561698853969574,0.0,0.0,0.0,0.0,0.0,0.0,6.952,0.0,0.0,0.0
490,0.0,0.0,0.0,-0.2455908203125,0.0,0.0,0.0,0.0,0.0,0.0,0.17,0.0,0.0,0.0,0.0,0.0,-1.61,-0.26476743817329407,0.0,0.0,0.0,0.0,0.0,0.0,0.96,0.0,0.0,0.0
491,0.0,0.0,0.0,-0.2455908203125,0.0,0.0,0.0,0.0,0.0,0.0,0.17,0.0,0.0,0.0,0.0,0.0,-1.61,-0.25482192635536194,0.0,0.0,0.0,0.0,0.0,0.0,0.96,0.0,0.0,0.0
492,0.0,0.0,0.0,-0.2509501953125,0.0,0.0,0.0,0.0,0.0,0.0,-0.277,0.0,0.0,0.0,0.0,0.0,-1.61,-0.23922954499721527,0.0,0.0,0.0,0.0,0.0,0.0,1.852,0.0,0.0,0.0
493,0.0,0.0,0.0,-0.254857421875,0.0,0.0,0.0,0.0,0.0,0.0,-0.314,0.0,0.0,0.0,0.0,0.0,-1.61,-0.23523394763469696,0.0,0.0,0.0,0.0,0.0,0.0,2.992,0.0,0.0,0.0
494,0.0,0.0,0.0,-0.2586201171875,0.0,0.0,0.0,0.0,0.0,0.0,-0.42,0.0,0.0,0.0,0.0,0.0,-1.61,-0.23748867213726044,0.0,0.0,0.0,0.0,0.0,0.0,7.956,0.0,0.0,0.0
495,0.0,0.0,0.0,-0.2584755859375,0.0,0.0,0.0,0.0,0.0,0.0,-0.217,0.0,0.0,0.0,0.0,0.0,-1.61,-0.23681819438934326,0.0,0.0,0.0,0.0,0.0,0.0,9.58,0.0,0.0,0.0
496,0.0,0.0,0.0,-0.2570322265625,0.0,0.0,0.0,0.0,0.0,0.0,0.083,0.0,0.0,0.0,0.0,0.0,-1.61,-0.26058509945869446,0.0,0.0,0.0,0.0,0.0,0.0,8.528,0.0,0.0,0.0
497,0.0,0.0,0.0,-0.255435546875,0.0,0.0,0.0,0.0,0.0,0.0,0.147,0.0,0.0,0.0,0.0,0.0,-1.61,-0.26058509945869446,0.0,0.0,0.0,0.0,0.0,0.0,7.66,0.0,0.0,0.0
498,0.0,0.0,0.0,-0.2526826171875,0.0,0.0,0.0,0.0,0.0,0.0,0.209,0.0,0.0,0.0,0.0,0.0,-1.61,-0.2631433308124542,0.0,0.0,0.0,0.0,0.0,0.0,5.052,0.0,0.0,0.0
499,0.0,0.0,0.0,-0.2512392578125,0.0,0.0,0.0,0.0,0.0,0.0,0.252,0.0,0.0,0.0,0.0,0.0,-1.61,-0.26452627778053284,0.0,0.0,0.0,0.0,0.0,0.0,0.228,0.0,0.0,0.0
500,0.0,0.0,0.0,-0.2545693359375,0.0,0.0,0.0,0.0,0.0,0.0,-0.066,0.0,0.0,0.0,0.0,0.0,-1.61,-0.2660040557384491,0.0,0.0,0.0,0.0,0.0,0.0,-1.004,0.0,0.0,0.0
501,0.0,0.0,0.0,-0.2578984375,0.0,0.0,0.0,0.0,0.0,0.0,-0.351,0.0,0.0,0.0,0.0,0.0,-1.61,-0.24932238459587097,0.0,0.0,0.0,0.0,0.0,0.0,1.3,0.0,0.0,0.0
502,0.0,0.0,0.0,-0.2616611328125,0.0,0.0,0.0,0.0,0.0,0.0,-0.331,0.0,0.0,0.0,0.0,0.0,-1.61,-0.23893167078495026,0.0,0.0,0.0,0.0,0.0,0.0,1.712,0.0,0.0,0.0
503,0.0,0.0,0.0,-0.2668857421875,0.0,0.0,0.0,0.0,0.0,0.0,-0.468,0.0,0.0,0.0,0.0,0.0,-1.61,-0.24355138838291168,0.0,0.0,0.0,0.0,0.0,0.0,6.312,0.0,0.0,0.0
504,0.0,0.0,0.0,-0.268041015625,0.0,0.0,0.0,0.0,0.0,0.0,-0.377,0.0,0.0,0.0,0.0,0.0,-1.61,-0.24322231113910675,0.0,0.0,0.0,0.0,0.0,0.0,11.684,0.0,0.0,0.0
505,0.0,0.0,0.0,-0.2657216796875,0.0,0.0,0.0,0.0,0.0,0.0,0.058,0.0,0.0,0.0,0.0,0.0,-1.61,-0.2479838728904724,0.0,0.0,0.0,0.0,0.0,0.0,9.216,0.0,0.0,0.0
506,0.0,0.0,0.0,-0.2657216796875,0.0,0.0,0.0,0.0,0.0,0.0,0.058,0.0,0.0,0.0,0.0,0.0,-1.61,-0.26769697666168213,0.0,0.0,0.0,0.0,0.0,0.0,9.216,0.0,0.0,0.0
507,0.0,0.0,0.0,-0.261228515625,0.0,0.0,0.0,0.0,0.0,0.0,0.199,0.0,0.0,0.0,0.0,0.0,-1.61,-0.27239882946014404,0.0,0.0,0.0,0.0,0.0,0.0,5.876,0.0,0.0,0.0
508,0.0,0.0,0.0,-0.2568876953125,0.0,0.0,0.0,0.0,0.0,0.0,0.385,0.0,0.0,0.0,0.0,0.0,-1.61,-0.2809363901615143,0.0,0.0,0.0,0.0,0.0,0.0,4.252,0.0,0.0,0.0
509,0.0,0.0,0.0,-0.255001953125,0.0,0.0,0.0,0.0,0.0,0.0,0.36,0.0,0.0,0.0,0.0,0.0,-1.61,-0.2809363901615143,0.0,0.0,0.0,0.0,0.0,0.0,2.88,0.0,0.0,0.0
510,0.0,0.0,0.0,-0.2563017578125,0.0,0.0,0.0,0.0,0.0,0.0,0.039,0.0,0.0,0.0,0.0,0.0,-1.61,-0.27727752923965454,0.0,0.0,0.0,0.0,0.0,0.0,2.056,0.0,0.0,0.0
511,0.0,0.0,0.0,-0.25833203125,0.0,0.0,0.0,0.0,0.0,0.0,-0.16,0.0,0.0,0.0,0.0,0.0,-1.61,-0.24820087850093842,0.0,0.0,0.0,0.0,0.0,0.0,1.164,0.0,0.0,0.0
512,0.0,0.0,0.0,-0.262248046875,0.0,0.0,0.0,0.0,0.0,0.0,-0.268,0.0,0.0,0.0,0.0,0.0,-1.61,-0.24820087850093842,0.0,0.0,0.0,0.0,0.0,0.0,1.212,0.0,0.0,0.0
513,0.0,0.0,0.0,-0.267751953125,0.0,0.0,0.0,0.0,0.0,0.0,-0.476,0.0,0.0,0.0,0.0,0.0,-1.61,-0.2469419687986374,0.0,0.0,0.0,0.0,0.0,0.0,4.296,0.0,0.0,0.0
514,0.0,0.0,0.0,-0.2706484375,0.0,0.0,0.0,0.0,0.0,0.0,-0.467,0.0,0.0,0.0,0.0,0.0,-1.61,-0.24378716945648193,0.0,0.0,0.0,0.0,0.0,0.0,8.416,0.0,0.0,0.0
515,0.0,0.0,0.0,-0.26962890625,0.0,0.0,0.0,0.0,0.0,0.0,-0.122,0.0,0.0,0.0,0.0,0.0,-1.61,-0.24702289700508118,0.0,0.0,0.0,0.0,0.0,0.0,9.124,0.0,0.0,0.0
516,0.0,0.0,0.0,-0.2686181640625,0.0,0.0,0.0,0.0,0.0,0.0,0.107,0.0,0.0,0.0,0.0,0.0,-1.61,-0.26142972707748413,0.0,0.0,0.0,0.0,0.0,0.0,8.232,0.0,0.0,0.0
517,0.0,0.0,0.0,-0.2686181640625,0.0,0.0,0.0,0.0,0.0,0.0,0.107,0.0,0.0,0.0,0.0,0.0,-1.61,-0.27371251583099365,0.0,0.0,0.0,0.0,0.0,0.0,8.232,0.0,0.0,0.0
518,0.0,0.0,0.0,-0.2626806640625,0.0,0.0,0.0,0.0,0.0,0.0,0.313,0.0,0.0,0.0,0.0,0.0,-1.61,-0.274300754070282,0.0,0.0,0.0,0.0,0.0,0.0,3.244,0.0,0.0,0.0
519,0.0,0.0,0.0,-0.2626806640625,0.0,0.0,0.0,0.0,0.0,0.0,0.204,0.0,0.0,0.0,0.0,0.0,-1.61,-0.28165802359580994,0.0,0.0,0.0,0.0,0.0,0.0,0.8,0.0,0.0,0.0
520,0.0,0.0,0.0,-0.2652890625,0.0,0.0,0.0,0.0,0.0,0.0,-0.119,0.0,0.0,0.0,0.0,0.0,-1.61,-0.2741873562335968,0.0,0.0,0.0,0.0,0.0,0.0,0.228,0.0,0.0,0.0
521,0.0,0.0,0.0,-0.268330078125,0.0,0.0,0.0,0.0,0.0,0.0,-0.291,0.0,0.0,0.0,0.0,0.0,-1.61,-0.25724485516548157,0.0,0.0,0.0,0.0,0.0,0.0,1.28,0.0,0.0,0.0
522,0.0,0.0,0.0,-0.2720927734375,0.0,0.0,0.0,0.0,0.0,0.0,-0.316,0.0,0.0,0.0,0.0,0.0,-1.61,-0.251982182264328,0.0,0.0,0.0,0.0,0.0,0.0,2.376,0.0,0.0,0.0
523,0.0,0.0,0.0,-0.2761435546875,0.0,0.0,0.0,0.0,0.0,0.0,-0.419,0.0,0.0,0.0,0.0,0.0,-1.61,-0.2546362578868866,0.0,0.0,0.0,0.0,0.0,0.0,6.676,0.0,0.0,0.0
524,0.0,0.0,0.0,-0.2771630859375,0.0,0.0,0.0,0.0,0.0,0.0,-0.289,0.0,0.0,0.0,0.0,0.0,-1.61,-0.254381388425827,0.0,0.0,0.0,0.0,0.0,0.0,8.964,0.0,0.0,0.0
525,0.0,0.0,0.0,-0.27585546875,0.0,0.0,0.0,0.0,0.0,0.0,0.005,0.0,0.0,0.0,0.0,0.0,-1.61,-0.2609049677848816,0.0,0.0,0.0,0.0,0.0,0.0,8.596,0.0,0.0,0.0
526,0.0,0.0,0.0,-0.274123046875,0.0,0.0,0.0,0.0,0.0,0.0,0.142,0.0,0.0,0.0,0.0,0.0,-1.61,-0.27461662888526917,0.0,0.0,0.0,0.0,0.0,0.0,8.232,0.0,0.0,0.0
527,0.0,0.0,0.0,-0.2713701171875,0.0,0.0,0.0,0.0,0.0,0.0,0.209,0.0,0.0,0.0,0.0,0.0,-1.61,-0.28150153160095215,0.0,0.0,0.0,0.0,0.0,0.0,5.648,0.0,0.0,0.0
528,0.0,0.0,0.0,-0.2689072265625,0.0,0.0,0.0,0.0,0.0,0.0,0.286,0.0,0.0,0.0,0.0,0.0,-1.61,-0.2832137644290924,0.0,0.0,0.0,0.0,0.0,0.0,2.172,0.0,0.0,0.0
529,0.0,0.0,0.0,-0.2703603515625,0.0,0.0,0.0,0.0,0.0,0.0,0.102,0.0,0.0,0.0,0.0,0.0,-1.61,-0.28601038455963135,0.0,0.0,0.0,0.0,0.0,0.0,-0.912,0.0,0.0,0.0
530,0.0,0.0,0.0,-0.273400390625,0.0,0.0,0.0,0.0,0.0,0.0,-0.233,0.0,0.0,0.0,0.0,0.0,-1.61,-0.2751317620277405,0.0,0.0,0.0,0.0,0.0,0.0,0.044,0.0,0.0,0.0
531,0.0,0.0,0.0,-0.2765859375,0.0,0.0,0.0,0.0,0.0,0.0,-0.308,0.0,0.0,0.0,0.0,0.0,-1.61,-0.2597200572490692,0.0,0.0,0.0,0.0,0.0,0.0,1.348,0.0,0.0,0.0
532,0.0,0.0,0.0,-0.281359375,0.0,0.0,0.0,0.0,0.0,0.0,-0.392,0.0,0.0,0.0,0.0,0.0,-1.61,-0.2594814598560333,0.0,0.0,0.0,0.0,0.0,0.0,4.092,0.0,0.0,0.0
533,0.0,0.0,0.0,-0.2836787109375,0.0,0.0,0.0,0.0,0.0,0.0,-0.409,0.0,0.0,0.0,0.0,0.0,-1.61,-0.2606853246688843,0.0,0.0,0.0,0.0,0.0,0.0,9.628,0.0,0.0,0.0
534,0.0,0.0,0.0,-0.2822255859375,0.0,0.0,0.0,0.0,0.0,0.0,-0.066,0.0,0.0,0.0,0.0,0.0,-1.61,-0.26231619715690613,0.0,0.0,0.0,0.0,0.0,0.0,9.832,0.0,0.0,0.0
535,0.0,0.0,0.0,-0.2806376953125,0.0,0.0,0.0,0.0,0.0,0.0,0.163,0.0,0.0,0.0,0.0,0.0,-1.61,-0.27697864174842834,0.0,0.0,0.0,0.0,0.0,0.0,7.684,0.0,0.0,0.0
536,0.0,0.0,0.0,-0.278173828125,0.0,0.0,0.0,0.0,0.0,0.0,0.187,0.0,0.0,0.0,0.0,0.0,-1.61,-0.2885392904281616,0.0,0.0,0.0,0.0,0.0,0.0,6.424,0.0,0.0,0.0
537,0.0,0.0,0.0,-0.2745556640625,0.0,0.0,0.0,0.0,0.0,0.0,0.302,0.0,0.0,0.0,0.0,0.0,-1.61,-0.2885392904281616,0.0,0.0,0.0,0.0,0.0,0.0,4.092,0.0,0.0,0.0
538,0.0,0.0,0.0,-0.2732568359375,0.0,0.0,0.0,0.0,0.0,0.0,0.303,0.0,0.0,0.0,0.0,0.0,-1.61,-0.29276764392852783,0.0,0.0,0.0,0.0,0.0,0.0,0.548,0.0,0.0,0.0
539,0.0,0.0,0.0,-0.2765859375,0.0,0.0,0.0,0.0,0.0,0.0,-0.074,0.0,0.0,0.0,0.0,0.0,-1.61,-0.2915382981300354,0.0,0.0,0.0,0.0,0.0,0.0,-0.82,0.0,0.0,0.0
540,0.0,0.0,0.0,-0.2765859375,0.0,0.0,0.0,0.0,0.0,0.0,-0.074,0.0,0.0,0.0,0.0,0.0,-1.61,-0.2709094285964966,0.0,0.0,0.0,0.0,0.0,0.0,-0.82,0.0,0.0,0.0
541,0.0,0.0,0.0,-0.2832451171875,0.0,0.0,0.0,0.0,0.0,0.0,-0.307,0.0,0.0,0.0,0.0,0.0,-1.61,-0.2613638639450073,0.0,0.0,0.0,0.0,0.0,0.0,1.712,0.0,0.0,0.0
542,0.0,0.0,0.0,-0.28860546875,0.0,0.0,0.0,0.0,0.0,0.0,-0.464,0.0,0.0,0.0,0.0,0.0,-1.61,-0.26509374380111694,0.0,0.0,0.0,0.0,0.0,0.0,5.692,0.0,0.0,0.0
543,0.0,0.0,0.0,-0.2902021484375,0.0,0.0,0.0,0.0,0.0,0.0,-0.415,0.0,0.0,0.0,0.0,0.0,-1.61,-0.26509374380111694,0.0,0.0,0.0,0.0,0.0,0.0,11.068,0.0,0.0,0.0
544,0.0,0.0,0.0,-0.2902021484375,0.0,0.0,0.0,0.0,0.0,0.0,-0.415,0.0,0.0,0.0,0.0,0.0,-1.61,-0.2685993015766144,0.0,0.0,0.0,0.0,0.0,0.0,11.068,0.0,0.0,0.0
545,0.0,0.0,0.0,-0.2867197265625,0.0,0.0,0.0,0.0,0.0,0.0,0.188,0.0,0.0,0.0,0.0,0.0,-1.61,-0.28847992420196533,0.0,0.0,0.0,0.0,0.0,0.0,7.156,0.0,0.0,0.0
546,0.0,0.0,0.0,-0.2835341796875,0.0,0.0,0.0,0.0,0.0,0.0,0.173,0.0,0.0,0.0,0.0,0.0,-1.61,-0.2971521317958832,0.0,0.0,0.0,0.0,0.0,0.0,6.24,0.0,0.0,0.0
547,0.0,0.0,0.0,-0.2802041015625,0.0,0.0,0.0,0.0,0.0,0.0,0.35,0.0,0.0,0.0,0.0,0.0,-1.61,-0.292964905500412,0.0,0.0,0.0,0.0,0.0,0.0,2.056,0.0,0.0,0.0
548,0.0,0.0,0.0,-0.2806376953125,0.0,0.0,0.0,0.0,0.0,0.0,0.198,0.0,0.0,0.0,0.0,0.0,-1.61,-0.3017740547657013,0.0,0.0,0.0,0.0,0.0,0.0,-0.136,0.0,0.0,0.0
549,0.0,0.0,0.0,-0.2806376953125,0.0,0.0,0.0,0.0,0.0,0.0,0.198,0.0,0.0,0.0,0.0,0.0,-1.61,-0.2917408049106598,0.0,0.0,0.0,0.0,0.0,0.0,-0.136,0.0,0.0,0.0
550,0.0,0.0,0.0,-0.2861416015625,0.0,0.0,0.0,0.0,0.0,0.0,-0.277,0.0,0.0,0.0,0.0,0.0,-1.61,-0.27265626192092896,0.0,0.0,0.0,0.0,0.0,0.0,1.028,0.0,0.0,0.0
551,0.0,0.0,0.0,-0.2906357421875,0.0,0.0,0.0,0.0,0.0,0.0,-0.327,0.0,0.0,0.0,0.0,0.0,-1.61,-0.27042537927627563,0.0,0.0,0.0,0.0,0.0,0.0,2.424,0.0,0.0,0.0
552,0.0,0.0,0.0,-0.2948310546875,0.0,0.0,0.0,0.0,0.0,0.0,-0.472,0.0,0.0,0.0,0.0,0.0,-1.61,-0.2726992964744568,0.0,0.0,0.0,0.0,0.0,0.0,6.792,0.0,0.0,0.0
553,0.0,0.0,0.0,-0.2952646484375,0.0,0.0,0.0,0.0,0.0,0.0,-0.278,0.0,0.0,0.0,0.0,0.0,-1.61,-0.2710166275501251,0.0,0.0,0.0,0.0,0.0,0.0,8.528,0.0,0.0,0.0
554,0.0,0.0,0.0,-0.2936767578125,0.0,0.0,0.0,0.0,0.0,0.0,0.06,0.0,0.0,0.0,0.0,0.0,-1.61,-0.27950307726860046,0.0,0.0,0.0,0.0,0.0,0.0,7.636,0.0,0.0,0.0
555,0.0,0.0,0.0,-0.2920791015625,0.0,0.0,0.0,0.0,0.0,0.0,0.154,0.0,0.0,0.0,0.0,0.0,-1.61,-0.295776903629303,0.0,0.0,0.0,0.0,0.0,0.0,7.728,0.0,0.0,0.0
556,0.0,0.0,0.0,-0.28860546875,0.0,0.0,0.0,0.0,0.0,0.0,0.242,0.0,0.0,0.0,0.0,0.0,-1.61,-0.3002489507198334,0.0,0.0,0.0,0.0,0.0,0.0,4.984,0.0,0.0,0.0
557,0.0,0.0,0.0,-0.2870078125,0.0,0.0,0.0,0.0,0.0,0.0,0.309,0.0,0.0,0.0,0.0,0.0,-1.61,-0.30268725752830505,0.0,0.0,0.0,0.0,0.0,0.0,-0.524,0.0,0.0,0.0
558,0.0,0.0,0.0,-0.28948046875,0.0,0.0,0.0,0.0,0.0,0.0,-0.03,0.0,0.0,0.0,0.0,0.0,-1.61,-0.30570659041404724,0.0,0.0,0.0,0.0,0.0,0.0,0.044,0.0,0.0,0.0
559,0.0,0.0,0.0,-0.2917900390625,0.0,0.0,0.0,0.0,0.0,0.0,-0.242,0.0,0.0,0.0,0.0,0.0,-1.61,-0.28622084856033325,0.0,0.0,0.0,0.0,0.0,0.0,0.524,0.0,0.0,0.0
560,0.0,0.0,0.0,-0.2955537109375,0.0,0.0,0.0,0.0,0.0,0.0,-0.285,0.0,0.0,0.0,0.0,0.0,-1.61,-0.2776869833469391,0.0,0.0,0.0,0.0,0.0,0.0,1.3,0.0,0.0,0.0
561,0.0,0.0,0.0,-0.3009130859375,0.0,0.0,0.0,0.0,0.0,0.0,-0.461,0.0,0.0,0.0,0.0,0.0,-1.61,-0.279475599527359,0.0,0.0,0.0,0.0,0.0,0.0,4.528,0.0,0.0,0.0
562,0.0,0.0,0.0,-0.3042431640625,0.0,0.0,0.0,0.0,0.0,0.0,-0.468,0.0,0.0,0.0,0.0,0.0,-1.61,-0.2775155007839203,0.0,0.0,0.0,0.0,0.0,0.0,7.112,0.0,0.0,0.0
563,0.0,0.0,0.0,-0.3042431640625,0.0,0.0,0.0,0.0,0.0,0.0,-0.194,0.0,0.0,0.0,0.0,0.0,-1.61,-0.29243233799934387,0.0,0.0,0.0,0.0,0.0,0.0,9.032,0.0,0.0,0.0
564,0.0,0.0,0.0,-0.303376953125,0.0,0.0,0.0,0.0,0.0,0.0,0.05,0.0,0.0,0.0,0.0,0.0,-1.61,-0.29243233799934387,0.0,0.0,0.0,0.0,0.0,0.0,8.824,0.0,0.0,0.0
565,0.0,0.0,0.0,-0.3013466796875,0.0,0.0,0.0,0.0,0.0,0.0,0.123,0.0,0.0,0.0,0.0,0.0,-1.61,-0.30485522747039795,0.0,0.0,0.0,0.0,0.0,0.0,7.684,0.0,0.0,0.0
566,0.0,0.0,0.0,-0.299171875,0.0,0.0,0.0,0.0,0.0,0.0,0.228,0.0,0.0,0.0,0.0,0.0,-1.61,-0.30748051404953003,0.0,0.0,0.0,0.0,0.0,0.0,2.56,0.0,0.0,0.0
567,0.0,0.0,0.0,-0.30019140625,0.0,0.0,0.0,0.0,0.0,0.0,0.092,0.0,0.0,0.0,0.0,0.0,-1.61,-0.3123011291027069,0.0,0.0,0.0,0.0,0.0,0.0,-0.112,0.0,0.0,0.0
568,0.0,0.0,0.0,-0.302212890625,0.0,0.0,0.0,0.0,0.0,0.0,-0.156,0.0,0.0,0.0,0.0,0.0,-1.61,-0.30431970953941345,0.0,0.0,0.0,0.0,0.0,0.0,1.508,0.0,0.0,0.0
569,0.0,0.0,0.0,-0.30525390625,0.0,0.0,0.0,0.0,0.0,0.0,-0.241,0.0,0.0,0.0,0.0,0.0,-1.61,-0.292282372713089,0.0,0.0,0.0,0.0,0.0,0.0,2.216,0.0,0.0,0.0
570,0.0,0.0,0.0,-0.3096025390625,0.0,0.0,0.0,0.0,0.0,0.0,-0.358,0.0,0.0,0.0,0.0,0.0,-1.61,-0.29033955931663513,0.0,0.0,0.0,0.0,0.0,0.0,3.932,0.0,0.0,0.0
571,0.0,0.0,0.0,-0.312490234375,0.0,0.0,0.0,0.0,0.0,0.0,-0.416,0.0,0.0,0.0,0.0,0.0,-1.61,-0.29033955931663513,0.0,0.0,0.0,0.0,0.0,0.0,9.168,0.0,0.0,0.0
572,0.0,0.0,0.0,-0.3113349609375,0.0,0.0,0.0,0.0,0.0,0.0,-0.112,0.0,0.0,0.0,0.0,0.0,-1.61,-0.290847510099411,0.0,0.0,0.0,0.0,0.0,0.0,9.556,0.0,0.0,0.0
573,0.0,0.0,0.0,-0.3100361328125,0.0,0.0,0.0,0.0,0.0,0.0,0.134,0.0,0.0,0.0,0.0,0.0,-1.61,-0.3036537766456604,0.0,0.0,0.0,0.0,0.0,0.0,8.756,0.0,0.0,0.0
574,0.0,0.0,0.0,-0.308150390625,0.0,0.0,0.0,0.0,0.0,0.0,0.136,0.0,0.0,0.0,0.0,0.0,-1.61,-0.3168892562389374,0.0,0.0,0.0,0.0,0.0,0.0,7.5,0.0,0.0,0.0
575,0.0,0.0,0.0,-0.30467578125,0.0,0.0,0.0,0.0,0.0,0.0,0.269,0.0,0.0,0.0,0.0,0.0,-1.61,-0.3151347041130066,0.0,0.0,0.0,0.0,0.0,0.0,5.42,0.0,0.0,0.0
576,0.0,0.0,0.0,-0.303232421875,0.0,0.0,0.0,0.0,0.0,0.0,0.303,0.0,0.0,0.0,0.0,0.0,-1.61,-0.3215138912200928,0.0,0.0,0.0,0.0,0.0,0.0,-0.112,0.0,0.0,0.0
577,0.0,0.0,0.0,-0.3069951171875,0.0,0.0,0.0,0.0,0.0,0.0,-0.092,0.0,0.0,0.0,0.0,0.0,-1.61,-0.3003618121147156,0.0,0.0,0.0,0.0,0.0,0.0,-0.616,0.0,0.0,0.0
578,0.0,0.0,0.0,-0.3100361328125,0.0,0.0,0.0,0.0,0.0,0.0,-0.369,0.0,0.0,0.0,0.0,0.0,-1.61,-0.3003618121147156,0.0,0.0,0.0,0.0,0.0,0.0,1.372,0.0,0.0,0.0
579,0.0,0.0,0.0,-0.3139521484375,0.0,0.0,0.0,0.0,0.0,0.0,-0.319,0.0,0.0,0.0,0.0,0.0,-1.61,-0.2903116047382355,0.0,0.0,0.0,0.0,0.0,0.0,2.56,0.0,0.0,0.0
580,0.0,0.0,0.0,-0.3139521484375,0.0,0.0,0.0,0.0,0.0,0.0,-0.319,0.0,0.0,0.0,0.0,0.0,-1.61,-0.29636427760124207,0.0,0.0,0.0,0.0,0.0,0.0,2.56,0.0,0.0,0.0
581,0.0,0.0,0.0,-0.3169931640625,0.0,0.0,0.0,0.0,0.0,0.0,-0.202,0.0,0.0,0.0,0.0,0.0,-1.61,-0.2959129214286804,0.0,0.0,0.0,0.0,0.0,0.0,12.784,0.0,0.0,0.0
582,0.0,0.0,0.0,-0.314384765625,0.0,0.0,0.0,0.0,0.0,0.0,0.176,0.0,0.0,0.0,0.0,0.0,-1.61,-0.3047938644886017,0.0,0.0,0.0,0.0,0.0,0.0,8.072,0.0,0.0,0.0
583,0.0,0.0,0.0,-0.313220703125,0.0,0.0,0.0,0.0,0.0,0.0,0.198,0.0,0.0,0.0,0.0,0.0,-1.61,-0.324323832988739,0.0,0.0,0.0,0.0,0.0,0.0,5.808,0.0,0.0,0.0
584,0.0,0.0,0.0,-0.3098916015625,0.0,0.0,0.0,0.0,0.0,0.0,0.187,0.0,0.0,0.0,0.0,0.0,-1.61,-0.324323832988739,0.0,0.0,0.0,0.0,0.0,0.0,6.08,0.0,0.0,0.0
585,0.0,0.0,0.0,-0.3098916015625,0.0,0.0,0.0,0.0,0.0,0.0,0.187,0.0,0.0,0.0,0.0,0.0,-1.61,-0.3202570676803589,0.0,0.0,0.0,0.0,0.0,0.0,6.08,0.0,0.0,0.0
586,0.0,0.0,0.0,-0.312490234375,0.0,0.0,0.0,0.0,0.0,0.0,-0.104,0.0,0.0,0.0,0.0,0.0,-1.61,-0.32873183488845825,0.0,0.0,0.0,0.0,0.0,0.0,-0.5,0.0,0.0,0.0
587,0.0,0.0,0.0,-0.315107421875,0.0,0.0,0.0,0.0,0.0,0.0,-0.4,0.0,0.0,0.0,0.0,0.0,-1.61,-0.30522626638412476,0.0,0.0,0.0,0.0,0.0,0.0,2.424,0.0,0.0,0.0
588,0.0,0.0,0.0,-0.3184365234375,0.0,0.0,0.0,0.0,0.0,0.0,-0.251,0.0,0.0,0.0,0.0,0.0,-1.61,-0.29410797357559204,0.0,0.0,0.0,0.0,0.0,0.0,0.82,0.0,0.0,0.0
589,0.0,0.0,0.0,-0.3184365234375,0.0,0.0,0.0,0.0,0.0,0.0,-0.251,0.0,0.0,0.0,0.0,0.0,-1.61,-0.30391401052474976,0.0,0.0,0.0,0.0,0.0,0.0,0.82,0.0,0.0,0.0
590,0.0,0.0,0.0,-0.3245185546875,0.0,0.0,0.0,0.0,0.0,0.0,-0.464,0.0,0.0,0.0,0.0,0.0,-1.61,-0.30100682377815247,0.0,0.0,0.0,0.0,0.0,0.0,4.776,0.0,0.0,0.0
591,0.0,0.0,0.0,-0.3243740234375,0.0,0.0,0.0,0.0,0.0,0.0,-0.006,0.0,0.0,0.0,0.0,0.0,-1.61,-0.3010595142841339,0.0,0.0,0.0,0.0,0.0,0.0,8.184,0.0,0.0,0.0
592,0.0,0.0,0.0,-0.323796875,0.0,0.0,0.0,0.0,0.0,0.0,0.218,0.0,0.0,0.0,0.0,0.0,-1.61,-0.32249101996421814,0.0,0.0,0.0,0.0,0.0,0.0,7.364,0.0,0.0,0.0
593,0.0,0.0,0.0,-0.3211884765625,0.0,0.0,0.0,0.0,0.0,0.0,0.095,0.0,0.0,0.0,0.0,0.0,-1.61,-0.3362484574317932,0.0,0.0,0.0,0.0,0.0,0.0,9.032,0.0,0.0,0.0
594,0.0,0.0,0.0,-0.316126953125,0.0,0.0,0.0,0.0,0.0,0.0,0.405,0.0,0.0,0.0,0.0,0.0,-1.61,-0.32550933957099915,0.0,0.0,0.0,0.0,0.0,0.0,1.94,0.0,0.0,0.0
595,0.0,0.0,0.0,-0.3155400390625,0.0,0.0,0.0,0.0,0.0,0.0,0.347,0.0,0.0,0.0,0.0,0.0,-1.61,-0.3416031301021576,0.0,0.0,0.0,0.0,0.0,0.0,-0.136,0.0,0.0,0.0
596,0.0,0.0,0.0,-0.319013671875,0.0,0.0,0.0,0.0,0.0,0.0,-0.141,0.0,0.0,0.0,0.0,0.0,-1.61,-0.3098413050174713,0.0,0.0,0.0,0.0,0.0,0.0,1.828,0.0,0.0,0.0
597,0.0,0.0,0.0,-0.320611328125,0.0,0.0,0.0,0.0,0.0,0.0,-0.276,0.0,0.0,0.0,0.0,0.0,-1.61,-0.3049405515193939,0.0,0.0,0.0,0.0,0.0,0.0,1.12,0.0,0.0,0.0
598,0.0,0.0,0.0,-0.324951171875,0.0,0.0,0.0,0.0,0.0,0.0,-0.231,0.0,0.0,0.0,0.0,0.0,-1.61,-0.3049405515193939,0.0,0.0,0.0,0.0,0.0,0.0,0.548,0.0,0.0,0.0
599,0.0,0.0,0.0,-0.3306005859375,0.0,0.0,0.0,0.0,0.0,0.0,-0.547,0.0,0.0,0.0,0.0,0.0,-1.61,-0.3113652169704437,0.0,0.0,0.0,0.0,0.0,0.0,8.048,0.0,0.0,0.0
600,0.0,0.0,0.0,-0.329734375,0.0,0.0,0.0,0.0,0.0,0.0,-0.309,0.0,0.0,0.0,0.0,0.0,-1.61,-0.3125858008861542,0.0,0.0,0.0,0.0,0.0,0.0,9.764,0.0,0.0,0.0
601,0.0,0.0,0.0,-0.32828125,0.0,0.0,0.0,0.0,0.0,0.0,0.148,0.0,0.0,0.0,0.0,0.0,-1.61,-0.3125858008861542,0.0,0.0,0.0,0.0,0.0,0.0,6.652,0.0,0.0,0.0
602,0.0,0.0,0.0,-0.32828125,0.0,0.0,0.0,0.0,0.0,0.0,0.148,0.0,0.0,0.0,0.0,0.0,-1.61,-0.3360549211502075,0.0,0.0,0.0,0.0,0.0,0.0,6.652,0.0,0.0,0.0
603,0.0,0.0,0.0,-0.3243740234375,0.0,0.0,0.0,0.0,0.0,0.0,0.15,0.0,0.0,0.0,0.0,0.0,-1.61,-0.33165591955184937,0.0,0.0,0.0,0.0,0.0,0.0,6.012,0.0,0.0,0.0
604,0.0,0.0,0.0,-0.3197451171875,0.0,0.0,0.0,0.0,0.0,0.0,0.438,0.0,0.0,0.0,0.0,0.0,-1.61,-0.33227965235710144,0.0,0.0,0.0,0.0,0.0,0.0,3.36,0.0,0.0,0.0
605,0.0,0.0,0.0,-0.320900390625,0.0,0.0,0.0,0.0,0.0,0.0,0.25,0.0,0.0,0.0,0.0,0.0,-1.61,-0.3475938141345978,0.0,0.0,0.0,0.0,0.0,0.0,1.14,0.0,0.0,0.0
606,0.0,0.0,0.0,-0.3227861328125,0.0,0.0,0.0,0.0,0.0,0.0,-0.194,0.0,0.0,0.0,0.0,0.0,-1.61,-0.3355283737182617,0.0,0.0,0.0,0.0,0.0,0.0,1.964,0.0,0.0,0.0
607,0.0,0.0,0.0,-0.325095703125,0.0,0.0,0.0,0.0,0.0,0.0,-0.173,0.0,0.0,0.0,0.0,0.0,-1.61,-0.3109752833843231,0.0,0.0,0.0,0.0,0.0,0.0,-1.232,0.0,0.0,0.0
608,0.0,0.0,0.0,-0.330744140625,0.0,0.0,0.0,0.0,0.0,0.0,-0.385,0.0,0.0,0.0,0.0,0.0,-1.61,-0.31431686878204346,0.0,0.0,0.0,0.0,0.0,0.0,1.896,0.0,0.0,0.0
609,0.0,0.0,0.0,-0.3350849609375,0.0,0.0,0.0,0.0,0.0,0.0,-0.537,0.0,0.0,0.0,0.0,0.0,-1.61,-0.31035691499710083,0.0,0.0,0.0,0.0,0.0,0.0,6.448,0.0,0.0,0.0
610,0.0,0.0,0.0,-0.335662109375,0.0,0.0,0.0,0.0,0.0,0.0,-0.295,0.0,0.0,0.0,0.0,0.0,-1.61,-0.3089045584201813,0.0,0.0,0.0,0.0,0.0,0.0,9.1,0.0,0.0,0.0
611,0.0,0.0,0.0,-0.33436328125,0.0,0.0,0.0,0.0,0.0,0.0,0.046,0.0,0.0,0.0,0.0,0.0,-1.61,-0.3191351592540741,0.0,0.0,0.0,0.0,0.0,0.0,7.636,0.0,0.0,0.0
612,0.0,0.0,0.0,-0.3332080078125,0.0,0.0,0.0,0.0,0.0,0.0,0.109,0.0,0.0,0.0,0.0,0.0,-1.61,-0.33843180537223816,0.0,0.0,0.0,0.0,0.0,0.0,8.232,0.0,0.0,0.0
613,0.0,0.0,0.0,-0.32930078125,0.0,0.0,0.0,0.0,0.0,0.0,0.234,0.0,0.0,0.0,0.0,0.0,-1.61,-0.33843180537223816,0.0,0.0,0.0,0.0,0.0,0.0,5.464,0.0,0.0,0.0
614,0.0,0.0,0.0,-0.3272705078125,0.0,0.0,0.0,0.0,0.0,0.0,0.347,0.0,0.0,0.0,0.0,0.0,-1.61,-0.34283775091171265,0.0,0.0,0.0,0.0,0.0,0.0,1.3,0.0,0.0,0.0
615,0.0,0.0,0.0,-0.3287138671875,0.0,0.0,0.0,0.0,0.0,0.0,0.049,0.0,0.0,0.0,0.0,0.0,-1.61,-0.3486291766166687,0.0,0.0,0.0,0.0,0.0,0.0,-0.248,0.0,0.0,0.0
616,0.0,0.0,0.0,-0.331177734375,0.0,0.0,0.0,0.0,0.0,0.0,-0.207,0.0,0.0,0.0,0.0,0.0,-1.61,-0.33013033866882324,0.0,0.0,0.0,0.0,0.0,0.0,0.32,0.0,0.0,0.0
617,0.0,0.0,0.0,-0.33407421875,0.0,0.0,0.0,0.0,0.0,0.0,-0.249,0.0,0.0,0.0,0.0,0.0,-1.61,-0.3187370002269745,0.0,0.0,0.0,0.0,0.0,0.0,0.364,0.0,0.0,0.0
618,0.0,0.0,0.0,-0.3389921875,0.0,0.0,0.0,0.0,0.0,0.0,-0.378,0.0,0.0,0.0,0.0,0.0,-1.61,-0.31964465975761414,0.0,0.0,0.0,0.0,0.0,0.0,3.336,0.0,0.0,0.0
619,0.0,0.0,0.0,-0.34117578125,0.0,0.0,0.0,0.0,0.0,0.0,-0.426,0.0,0.0,0.0,0.0,0.0,-1.61,-0.3188936412334442,0.0,0.0,0.0,0.0,0.0,0.0,9.648,0.0,0.0,0.0
620,0.0,0.0,0.0,-0.33913671875,0.0,0.0,0.0,0.0,0.0,0.0,-0.009,0.0,0.0,0.0,0.0,0.0,-1.61,-0.31913620233535767,0.0,0.0,0.0,0.0,0.0,0.0,8.62,0.0,0.0,0.0
621,0.0,0.0,0.0,-0.3378369140625,0.0,0.0,0.0,0.0,0.0,0.0,0.173,0.0,0.0,0.0,0.0,0.0,-1.61,-0.33707940578460693,0.0,0.0,0.0,0.0,0.0,0.0,8.368,0.0,0.0,0.0
622,0.0,0.0,0.0,-0.3350849609375,0.0,0.0,0.0,0.0,0.0,0.0,0.178,0.0,0.0,0.0,0.0,0.0,-1.61,-0.34726765751838684,0.0,0.0,0.0,0.0,0.0,0.0,6.172,0.0,0.0,0.0
623,0.0,0.0,0.0,-0.331466796875,0.0,0.0,0.0,0.0,0.0,0.0,0.315,0.0,0.0,0.0,0.0,0.0,-1.61,-0.34484902024269104,0.0,0.0,0.0,0.0,0.0,0.0,3.132,0.0,0.0,0.0
624,0.0,0.0,0.0,-0.3304560546875,0.0,0.0,0.0,0.0,0.0,0.0,0.294,0.0,0.0,0.0,0.0,0.0,-1.61,-0.35058358311653137,0.0,0.0,0.0,0.0,0.0,0.0,-0.98,0.0,0.0,0.0
625,0.0,0.0,0.0,-0.3339296875,0.0,0.0,0.0,0.0,0.0,0.0,-0.108,0.0,0.0,0.0,0.0,0.0,-1.61,-0.34811297059059143,0.0,0.0,0.0,0.0,0.0,0.0,-0.936,0.0,0.0,0.0
626,0.0,0.0,0.0,-0.336681640625,0.0,0.0,0.0,0.0,0.0,0.0,-0.329,0.0,0.0,0.0,0.0,0.0,-1.61,-0.32645681500434875,0.0,0.0,0.0,0.0,0.0,0.0,0.64,0.0,0.0,0.0
627,0.0,0.0,0.0,-0.34088671875,0.0,0.0,0.0,0.0,0.0,0.0,-0.306,0.0,0.0,0.0,0.0,0.0,-1.61,-0.3186585009098053,0.0,0.0,0.0,0.0,0.0,0.0,0.868,0.0,0.0,0.0
628,0.0,0.0,0.0,-0.34594921875,0.0,0.0,0.0,0.0,0.0,0.0,-0.497,0.0,0.0,0.0,0.0,0.0,-1.61,-0.3238706588745117,0.0,0.0,0.0,0.0,0.0,0.0,5.556,0.0,0.0,0.0
629,0.0,0.0,0.0,-0.34711328125,0.0,0.0,0.0,0.0,0.0,0.0,-0.365,0.0,0.0,0.0,0.0,0.0,-1.61,-0.321205198764801,0.0,0.0,0.0,0.0,0.0,0.0,9.968,0.0,0.0,0.0
630,0.0,0.0,0.0,-0.3447939453125,0.0,0.0,0.0,0.0,0.0,0.0,0.049,0.0,0.0,0.0,0.0,0.0,-1.61,-0.3275561034679413,0.0,0.0,0.0,0.0,0.0,0.0,7.384,0.0,0.0,0.0
631,0.0,0.0,0.0,-0.3434951171875,0.0,0.0,0.0,0.0,0.0,0.0,0.19,0.0,0.0,0.0,0.0,0.0,-1.61,-0.354061484336853,0.0,0.0,0.0,0.0,0.0,0.0,6.516,0.0,0.0,0.0
632,0.0,0.0,0.0,-0.34015625,0.0,0.0,0.0,0.0,0.0,0.0,0.197,0.0,0.0,0.0,0.0,0.0,-1.61,-0.354061484336853,0.0,0.0,0.0,0.0,0.0,0.0,6.264,0.0,0.0,0.0
633,0.0,0.0,0.0,-0.3363935546875,0.0,0.0,0.0,0.0,0.0,0.0,0.392,0.0,0.0,0.0,0.0,0.0,-1.61,-0.36094099283218384,0.0,0.0,0.0,0.0,0.0,0.0,1.232,0.0,0.0,0.0
634,0.0,0.0,0.0,-0.337259765625,0.0,0.0,0.0,0.0,0.0,0.0,0.199,0.0,0.0,0.0,0.0,0.0,-1.61,-0.36094099283218384,0.0,0.0,0.0,0.0,0.0,0.0,-0.8,0.0,0.0,0.0
635,0.0,0.0,0.0,-0.34001171875,0.0,0.0,0.0,0.0,0.0,0.0,-0.187,0.0,0.0,0.0,0.0,0.0,-1.61,-0.3484300971031189,0.0,0.0,0.0,0.0,0.0,0.0,-0.068,0.0,0.0,0.0
636,0.0,0.0,0.0,-0.342619140625,0.0,0.0,0.0,0.0,0.0,0.0,-0.275,0.0,0.0,0.0,0.0,0.0,-1.61,-0.32699382305145264,0.0,0.0,0.0,0.0,0.0,0.0,0.912,0.0,0.0,0.0
637,0.0,0.0,0.0,-0.34682421875,0.0,0.0,0.0,0.0,0.0,0.0,-0.316,0.0,0.0,0.0,0.0,0.0,-1.61,-0.3293677270412445,0.0,0.0,0.0,0.0,0.0,0.0,2.512,0.0,0.0,0.0
638,0.0,0.0,0.0,-0.3507314453125,0.0,0.0,0.0,0.0,0.0,0.0,-0.439,0.0,0.0,0.0,0.0,0.0,-1.61,-0.3293677270412445,0.0,0.0,0.0,0.0,0.0,0.0,7.04,0.0,0.0,0.0
639,0.0,0.0,0.0,-0.3504423828125,0.0,0.0,0.0,0.0,0.0,0.0,-0.223,0.0,0.0,0.0,0.0,0.0,-1.61,-0.3281818628311157,0.0,0.0,0.0,0.0,0.0,0.0,8.596,0.0,0.0,0.0
640,0.0,0.0,0.0,-0.348556640625,0.0,0.0,0.0,0.0,0.0,0.0,0.114,0.0,0.0,0.0,0.0,0.0,-1.61,-0.33723556995391846,0.0,0.0,0.0,0.0,0.0,0.0,6.54,0.0,0.0,0.0
641,0.0,0.0,0.0,-0.34653515625,0.0,0.0,0.0,0.0,0.0,0.0,0.185,0.0,0.0,0.0,0.0,0.0,-1.61,-0.3541046977043152,0.0,0.0,0.0,0.0,0.0,0.0,6.632,0.0,0.0,0.0
642,0.0,0.0,0.0,-0.3434951171875,0.0,0.0,0.0,0.0,0.0,0.0,0.245,0.0,0.0,0.0,0.0,0.0,-1.61,-0.35676679015159607,0.0,0.0,0.0,0.0,0.0,0.0,3.976,0.0,0.0,0.0
643,0.0,0.0,0.0,-0.342474609375,0.0,0.0,0.0,0.0,0.0,0.0,0.263,0.0,0.0,0.0,0.0,0.0,-1.61,-0.3577815592288971,0.0,0.0,0.0,0.0,0.0,0.0,-1.76,0.0,0.0,0.0
644,0.0,0.0,0.0,-0.3452275390625,0.0,0.0,0.0,0.0,0.0,0.0,-0.077,0.0,0.0,0.0,0.0,0.0,-1.61,-0.3579932153224945,0.0,0.0,0.0,0.0,0.0,0.0,-1.164,0.0,0.0,0.0
645,0.0,0.0,0.0,-0.3478349609375,0.0,0.0,0.0,0.0,0.0,0.0,-0.282,0.0,0.0,0.0,0.0,0.0,-1.61,-0.3393906354904175,0.0,0.0,0.0,0.0,0.0,0.0,0.548,0.0,0.0,0.0
646,0.0,0.0,0.0,-0.35159765625,0.0,0.0,0.0,0.0,0.0,0.0,-0.297,0.0,0.0,0.0,0.0,0.0,-1.61,-0.3318922221660614,0.0,0.0,0.0,0.0,0.0,0.0,0.936,0.0,0.0,0.0
647,0.0,0.0,0.0,-0.3563798828125,0.0,0.0,0.0,0.0,0.0,0.0,-0.448,0.0,0.0,0.0,0.0,0.0,-1.61,-0.33498144149780273,0.0,0.0,0.0,0.0,0.0,0.0,4.892,0.0,0.0,0.0
648,0.0,0.0,0.0,-0.3569580078125,0.0,0.0,0.0,0.0,0.0,0.0,-0.325,0.0,0.0,0.0,0.0,0.0,-1.61,-0.3334810733795166,0.0,0.0,0.0,0.0,0.0,0.0,9.488,0.0,0.0,0.0
649,0.0,0.0,0.0,-0.354783203125,0.0,0.0,0.0,0.0,0.0,0.0,0.085,0.0,0.0,0.0,0.0,0.0,-1.61,-0.35846370458602905,0.0,0.0,0.0,0.0,0.0,0.0,7.568,0.0,0.0,0.0
650,0.0,0.0,0.0,-0.3531953125,0.0,0.0,0.0,0.0,0.0,0.0,0.192,0.0,0.0,0.0,0.0,0.0,-1.61,-0.3638957142829895,0.0,0.0,0.0,0.0,0.0,0.0,7.064,0.0,0.0,0.0
651,0.0,0.0,0.0,-0.350009765625,0.0,0.0,0.0,0.0,0.0,0.0,0.219,0.0,0.0,0.0,0.0,0.0,-1.61,-0.3638957142829895,0.0,0.0,0.0,0.0,0.0,0.0,5.028,0.0,0.0,0.0
652,0.0,0.0,0.0,-0.3478349609375,0.0,0.0,0.0,0.0,0.0,0.0,0.311,0.0,0.0,0.0,0.0,0.0,-1.61,-0.36667299270629883,0.0,0.0,0.0,0.0,0.0,0.0,-1.3,0.0,0.0,0.0
653,0.0,0.0,0.0,-0.3504423828125,0.0,0.0,0.0,0.0,0.0,0.0,0.022,0.0,0.0,0.0,0.0,0.0,-1.61,-0.3502143621444702,0.0,0.0,0.0,0.0,0.0,0.0,-3.064,0.0,0.0,0.0
654,0.0,0.0,0.0,-0.3536279296875,0.0,0.0,0.0,0.0,0.0,0.0,-0.311,0.0,0.0,0.0,0.0,0.0,-1.61,-0.3363912105560303,0.0,0.0,0.0,0.0,0.0,0.0,0.296,0.0,0.0,0.0
655,0.0,0.0,0.0,-0.3568134765625,0.0,0.0,0.0,0.0,0.0,0.0,-0.309,0.0,0.0,0.0,0.0,0.0,-1.61,-0.33966490626335144,0.0,0.0,0.0,0.0,0.0,0.0,0.776,0.0,0.0,0.0
656,0.0,0.0,0.0,-0.3615869140625,0.0,0.0,0.0,0.0,0.0,0.0,-0.391,0.0,0.0,0.0,0.0,0.0,-1.61,-0.33966490626335144,0.0,0.0,0.0,0.0,0.0,0.0,3.748,0.0,0.0,0.0
657,0.0,0.0,0.0,-0.363328125,0.0,0.0,0.0,0.0,0.0,0.0,-0.399,0.0,0.0,0.0,0.0,0.0,-1.61,-0.3409537076950073,0.0,0.0,0.0,0.0,0.0,0.0,11.136,0.0,0.0,0.0
658,0.0,0.0,0.0,-0.360576171875,0.0,0.0,0.0,0.0,0.0,0.0,0.037,0.0,0.0,0.0,0.0,0.0,-1.61,-0.3423691987991333,0.0,0.0,0.0,0.0,0.0,0.0,9.032,0.0,0.0,0.0
659,0.0,0.0,0.0,-0.3586904296875,0.0,0.0,0.0,0.0,0.0,0.0,0.256,0.0,0.0,0.0,0.0,0.0,-1.61,-0.36125582456588745,0.0,0.0,0.0,0.0,0.0,0.0,5.852,0.0,0.0,0.0
660,0.0,0.0,0.0,-0.3586904296875,0.0,0.0,0.0,0.0,0.0,0.0,0.256,0.0,0.0,0.0,0.0,0.0,-1.61,-0.37372905015945435,0.0,0.0,0.0,0.0,0.0,0.0,5.852,0.0,0.0,0.0
