EmanuelSamir/lab201_ws_projsamir/sawyer_dev/data/sawyer/vel_acel_ns/test_joint4/training_data_0.csv
,j1,j2,j3,j4,j5,j6,j7,v1,v2,v3,v4,v5,v6,v7,jd1,jd2,jd3,jd4,jd5,jd6,jd7,e1,e2,e3,e4,e5,e6,e7
0,0.0,0.0,0.0,0.0,0.0,0.0,0.0,0.0,0.0,0.0,0.0,0.0,0.0,0.0,0.0,0.0,0.0,0.0,0.0,0.0,0.0,0.0,0.0,0.0,0.0,0.0,0.0,0.0
1,0.0,0.0,0.0,-0.0018046875,0.0,0.0,0.0,0.0,0.0,0.0,-0.001,0.0,0.0,0.0,0.0,0.0,0.0,0.00011873245161766223,0.0,0.0,0.0,0.0,0.0,0.0,0.432,0.0,0.0,0.0
2,0.0,0.0,0.0,-0.0018046875,0.0,0.0,0.0,0.0,0.0,0.0,-0.001,0.0,0.0,0.0,0.0,0.0,0.0,0.007288562798248631,0.0,0.0,0.0,0.0,0.0,0.0,0.432,0.0,0.0,0.0
3,0.0,0.0,0.0,-0.0018046875,0.0,0.0,0.0,0.0,0.0,0.0,-0.001,0.0,0.0,0.0,0.0,0.0,0.0,0.019404365030413297,0.0,0.0,0.0,0.0,0.0,0.0,0.34,0.0,0.0,0.0
4,0.0,0.0,0.0,-0.0018046875,0.0,0.0,0.0,0.0,0.0,0.0,-0.001,0.0,0.0,0.0,0.0,0.0,0.0,0.03134425386598604,0.0,0.0,0.0,0.0,0.0,0.0,0.456,0.0,0.0,0.0
5,0.0,0.0,0.0,-0.0018046875,0.0,0.0,0.0,0.0,0.0,0.0,-0.001,0.0,0.0,0.0,0.0,0.0,0.0,0.04347259713918632,0.0,0.0,0.0,0.0,0.0,0.0,0.432,0.0,0.0,0.0
6,0.0,0.0,0.0,-0.0013720703125,0.0,0.0,0.0,0.0,0.0,0.0,0.016,0.0,0.0,0.0,0.0,0.0,0.0,0.05527145058199803,0.0,0.0,0.0,0.0,0.0,0.0,-0.044,0.0,0.0,0.0
7,0.0,0.0,0.0,-0.0018046875,0.0,0.0,0.0,0.0,0.0,0.0,0.012,0.0,0.0,0.0,0.0,0.0,0.0,0.06720287863668516,0.0,0.0,0.0,0.0,0.0,0.0,-0.02,0.0,0.0,0.0
8,0.0,0.0,0.0,-0.00209375,0.0,0.0,0.0,0.0,0.0,0.0,-0.045,0.0,0.0,0.0,0.0,0.0,0.0,0.07923081845348445,0.0,0.0,0.0,0.0,0.0,0.0,1.028,0.0,0.0,0.0
9,0.0,0.0,0.0,-0.00209375,0.0,0.0,0.0,0.0,0.0,0.0,-0.016,0.0,0.0,0.0,0.0,0.0,0.0,0.09113283686075413,0.0,0.0,0.0,0.0,0.0,0.0,1.052,0.0,0.0,0.0
10,0.0,0.0,0.0,-0.00209375,0.0,0.0,0.0,0.0,0.0,0.0,-0.001,0.0,0.0,0.0,0.0,0.0,0.0,0.10281842884044635,0.0,0.0,0.0,0.0,0.0,0.0,1.028,0.0,0.0,0.0
11,0.0,0.0,0.0,-0.00209375,0.0,0.0,0.0,0.0,0.0,0.0,-0.001,0.0,0.0,0.0,0.0,0.0,0.0,0.11469145225798127,0.0,0.0,0.0,0.0,0.0,0.0,1.348,0.0,0.0,0.0
12,0.0,0.0,0.0,-0.0018046875,0.0,0.0,0.0,0.0,0.0,0.0,0.017,0.0,0.0,0.0,0.0,0.0,0.0,0.12655663313223162,0.0,0.0,0.0,0.0,0.0,0.0,0.616,0.0,0.0,0.0
13,0.0,0.0,0.0,-0.0018046875,0.0,0.0,0.0,0.0,0.0,0.0,0.011,0.0,0.0,0.0,0.0,0.0,0.0,0.13811466213356854,0.0,0.0,0.0,0.0,0.0,0.0,0.912,0.0,0.0,0.0
14,0.0,0.0,0.0,-0.0018046875,0.0,0.0,0.0,0.0,0.0,0.0,-0.001,0.0,0.0,0.0,0.0,0.0,0.0,0.1497803415489829,0.0,0.0,0.0,0.0,0.0,0.0,1.508,0.0,0.0,0.0
15,0.0,0.0,0.0,-0.0013720703125,0.0,0.0,0.0,0.0,0.0,0.0,0.02,0.0,0.0,0.0,0.0,0.0,0.0,0.16151655287827932,0.0,0.0,0.0,0.0,0.0,0.0,1.072,0.0,0.0,0.0
16,0.0,0.0,0.0,-0.0006494140625,0.0,0.0,0.0,0.0,0.0,0.0,0.054,0.0,0.0,0.0,0.0,0.0,0.0,0.1728311940229122,0.0,0.0,0.0,0.0,0.0,0.0,0.5,0.0,0.0,0.0
17,0.0,0.0,0.0,7.12890625e-05,0.0,0.0,0.0,0.0,0.0,0.0,0.075,0.0,0.0,0.0,0.0,0.0,0.0,0.18434222749145954,0.0,0.0,0.0,0.0,0.0,0.0,-0.044,0.0,0.0,0.0
18,0.0,0.0,0.0,7.12890625e-05,0.0,0.0,0.0,0.0,0.0,0.0,0.035,0.0,0.0,0.0,0.0,0.0,0.0,0.1958534553477484,0.0,0.0,0.0,0.0,0.0,0.0,0.728,0.0,0.0,0.0
19,0.0,0.0,0.0,0.00050390625,0.0,0.0,0.0,0.0,0.0,0.0,0.012,0.0,0.0,0.0,0.0,0.0,0.0,0.20697146166292207,0.0,0.0,0.0,0.0,0.0,0.0,1.44,0.0,0.0,0.0
20,0.0,0.0,0.0,0.0018125,0.0,0.0,0.0,0.0,0.0,0.0,0.085,0.0,0.0,0.0,0.0,0.0,0.0,0.2181983459884218,0.0,0.0,0.0,0.0,0.0,0.0,0.068,0.0,0.0,0.0
21,0.0,0.0,0.0,0.0026787109375,0.0,0.0,0.0,0.0,0.0,0.0,0.11,0.0,0.0,0.0,0.0,0.0,0.0,0.22942114305031425,0.0,0.0,0.0,0.0,0.0,0.0,-0.708,0.0,0.0,0.0
22,0.0,0.0,0.0,0.003400390625,0.0,0.0,0.0,0.0,0.0,0.0,0.079,0.0,0.0,0.0,0.0,0.0,0.0,0.24035148525426775,0.0,0.0,0.0,0.0,0.0,0.0,-0.34,0.0,0.0,0.0
23,0.0,0.0,0.0,0.0042763671875,0.0,0.0,0.0,0.0,0.0,0.0,0.083,0.0,0.0,0.0,0.0,0.0,0.0,0.2513076564897719,0.0,0.0,0.0,0.0,0.0,0.0,-0.136,0.0,0.0,0.0
24,0.0,0.0,0.0,0.0054306640625,0.0,0.0,0.0,0.0,0.0,0.0,0.098,0.0,0.0,0.0,0.0,0.0,0.0,0.26231083308289094,0.0,0.0,0.0,0.0,0.0,0.0,-0.48,0.0,0.0,0.0
25,0.0,0.0,0.0,0.00644140625,0.0,0.0,0.0,0.0,0.0,0.0,0.113,0.0,0.0,0.0,0.0,0.0,0.0,0.2729025877026774,0.0,0.0,0.0,0.0,0.0,0.0,-1.052,0.0,0.0,0.0
26,0.0,0.0,0.0,0.0074609375,0.0,0.0,0.0,0.0,0.0,0.0,0.105,0.0,0.0,0.0,0.0,0.0,0.0,0.2835215717814986,0.0,0.0,0.0,0.0,0.0,0.0,-1.072,0.0,0.0,0.0
27,0.0,0.0,0.0,0.0083271484375,0.0,0.0,0.0,0.0,0.0,0.0,0.092,0.0,0.0,0.0,0.0,0.0,0.0,0.29413191183642834,0.0,0.0,0.0,0.0,0.0,0.0,-0.728,0.0,0.0,0.0
28,0.0,0.0,0.0,0.009482421875,0.0,0.0,0.0,0.0,0.0,0.0,0.095,0.0,0.0,0.0,0.0,0.0,0.0,0.30450272373830367,0.0,0.0,0.0,0.0,0.0,0.0,-0.8,0.0,0.0,0.0
29,0.0,0.0,0.0,0.010646484375,0.0,0.0,0.0,0.0,0.0,0.0,0.119,0.0,0.0,0.0,0.0,0.0,0.0,0.31477774879872955,0.0,0.0,0.0,0.0,0.0,0.0,-1.372,0.0,0.0,0.0
30,0.0,0.0,0.0,0.0118017578125,0.0,0.0,0.0,0.0,0.0,0.0,0.121,0.0,0.0,0.0,0.0,0.0,0.0,0.32492718574830465,0.0,0.0,0.0,0.0,0.0,0.0,-1.804,0.0,0.0,0.0
31,0.0,0.0,0.0,0.0129658203125,0.0,0.0,0.0,0.0,0.0,0.0,0.109,0.0,0.0,0.0,0.0,0.0,0.0,0.33491658385695044,0.0,0.0,0.0,0.0,0.0,0.0,-1.644,0.0,0.0,0.0
32,0.0,0.0,0.0,0.0141298828125,0.0,0.0,0.0,0.0,0.0,0.0,0.117,0.0,0.0,0.0,0.0,0.0,0.0,0.3447995992346481,0.0,0.0,0.0,0.0,0.0,0.0,-1.644,0.0,0.0,0.0
33,0.0,0.0,0.0,0.0152841796875,0.0,0.0,0.0,0.0,0.0,0.0,0.122,0.0,0.0,0.0,0.0,0.0,0.0,0.3547133336884735,0.0,0.0,0.0,0.0,0.0,0.0,-1.508,0.0,0.0,0.0
34,0.0,0.0,0.0,0.0167373046875,0.0,0.0,0.0,0.0,0.0,0.0,0.128,0.0,0.0,0.0,0.0,0.0,0.0,0.3642276096768276,0.0,0.0,0.0,0.0,0.0,0.0,-1.896,0.0,0.0,0.0
35,0.0,0.0,0.0,0.0184697265625,0.0,0.0,0.0,0.0,0.0,0.0,0.153,0.0,0.0,0.0,0.0,0.0,0.0,0.37378681181721424,0.0,0.0,0.0,0.0,0.0,0.0,-2.512,0.0,0.0,0.0
36,0.0,0.0,0.0,0.0197783203125,0.0,0.0,0.0,0.0,0.0,0.0,0.155,0.0,0.0,0.0,0.0,0.0,0.0,0.383214763434024,0.0,0.0,0.0,0.0,0.0,0.0,-2.744,0.0,0.0,0.0
37,0.0,0.0,0.0,0.0212216796875,0.0,0.0,0.0,0.0,0.0,0.0,0.139,0.0,0.0,0.0,0.0,0.0,0.0,0.3921504504360074,0.0,0.0,0.0,0.0,0.0,0.0,-2.628,0.0,0.0,0.0
38,0.0,0.0,0.0,0.0226748046875,0.0,0.0,0.0,0.0,0.0,0.0,0.145,0.0,0.0,0.0,0.0,0.0,0.0,0.4010983366127352,0.0,0.0,0.0,0.0,0.0,0.0,-2.424,0.0,0.0,0.0
39,0.0,0.0,0.0,0.0245517578125,0.0,0.0,0.0,0.0,0.0,0.0,0.162,0.0,0.0,0.0,0.0,0.0,0.0,0.4101190060831493,0.0,0.0,0.0,0.0,0.0,0.0,-2.764,0.0,0.0,0.0
40,0.0,0.0,0.0,0.0261484375,0.0,0.0,0.0,0.0,0.0,0.0,0.176,0.0,0.0,0.0,0.0,0.0,0.0,0.41863048438190664,0.0,0.0,0.0,0.0,0.0,0.0,-3.268,0.0,0.0,0.0
41,0.0,0.0,0.0,0.0277373046875,0.0,0.0,0.0,0.0,0.0,0.0,0.166,0.0,0.0,0.0,0.0,0.0,0.0,0.42710628775055126,0.0,0.0,0.0,0.0,0.0,0.0,-3.564,0.0,0.0,0.0
42,0.0,0.0,0.0,0.029189453125,0.0,0.0,0.0,0.0,0.0,0.0,0.15,0.0,0.0,0.0,0.0,0.0,0.0,0.43551940143295603,0.0,0.0,0.0,0.0,0.0,0.0,-3.132,0.0,0.0,0.0
43,0.0,0.0,0.0,0.03077734375,0.0,0.0,0.0,0.0,0.0,0.0,0.154,0.0,0.0,0.0,0.0,0.0,0.0,0.4436276107936778,0.0,0.0,0.0,0.0,0.0,0.0,-3.084,0.0,0.0,0.0
44,0.0,0.0,0.0,0.032375,0.0,0.0,0.0,0.0,0.0,0.0,0.156,0.0,0.0,0.0,0.0,0.0,0.0,0.45161234844226195,0.0,0.0,0.0,0.0,0.0,0.0,-3.084,0.0,0.0,0.0
45,0.0,0.0,0.0,0.0341162109375,0.0,0.0,0.0,0.0,0.0,0.0,0.169,0.0,0.0,0.0,0.0,0.0,0.0,0.4595476945867968,0.0,0.0,0.0,0.0,0.0,0.0,-3.36,0.0,0.0,0.0
46,0.0,0.0,0.0,0.036001953125,0.0,0.0,0.0,0.0,0.0,0.0,0.183,0.0,0.0,0.0,0.0,0.0,0.0,0.46705927152729565,0.0,0.0,0.0,0.0,0.0,0.0,-3.748,0.0,0.0,0.0
47,0.0,0.0,0.0,0.037599609375,0.0,0.0,0.0,0.0,0.0,0.0,0.178,0.0,0.0,0.0,0.0,0.0,0.0,0.4744965231608258,0.0,0.0,0.0,0.0,0.0,0.0,-3.52,0.0,0.0,0.0
48,0.0,0.0,0.0,0.0391875,0.0,0.0,0.0,0.0,0.0,0.0,0.161,0.0,0.0,0.0,0.0,0.0,0.0,0.48179505293825914,0.0,0.0,0.0,0.0,0.0,0.0,-3.132,0.0,0.0,0.0
49,0.0,0.0,0.0,0.0409287109375,0.0,0.0,0.0,0.0,0.0,0.0,0.167,0.0,0.0,0.0,0.0,0.0,0.0,0.4888174137273599,0.0,0.0,0.0,0.0,0.0,0.0,-2.88,0.0,0.0,0.0
50,0.0,0.0,0.0,0.0428056640625,0.0,0.0,0.0,0.0,0.0,0.0,0.181,0.0,0.0,0.0,0.0,0.0,0.0,0.49568526352802444,0.0,0.0,0.0,0.0,0.0,0.0,-3.2,0.0,0.0,0.0
51,0.0,0.0,0.0,0.0445478515625,0.0,0.0,0.0,0.0,0.0,0.0,0.179,0.0,0.0,0.0,0.0,0.0,0.0,0.5023819433523863,0.0,0.0,0.0,0.0,0.0,0.0,-3.384,0.0,0.0,0.0
52,0.0,0.0,0.0,0.0462802734375,0.0,0.0,0.0,0.0,0.0,0.0,0.175,0.0,0.0,0.0,0.0,0.0,0.0,0.508878121519989,0.0,0.0,0.0,0.0,0.0,0.0,-3.336,0.0,0.0,0.0
53,0.0,0.0,0.0,0.048021484375,0.0,0.0,0.0,0.0,0.0,0.0,0.176,0.0,0.0,0.0,0.0,0.0,0.0,0.515067644631454,0.0,0.0,0.0,0.0,0.0,0.0,-3.04,0.0,0.0,0.0
54,0.0,0.0,0.0,0.0497626953125,0.0,0.0,0.0,0.0,0.0,0.0,0.175,0.0,0.0,0.0,0.0,0.0,0.0,0.5211766262892725,0.0,0.0,0.0,0.0,0.0,0.0,-2.696,0.0,0.0,0.0
55,0.0,0.0,0.0,0.0517841796875,0.0,0.0,0.0,0.0,0.0,0.0,0.183,0.0,0.0,0.0,0.0,0.0,0.0,0.5270136106951104,0.0,0.0,0.0,0.0,0.0,0.0,-3.016,0.0,0.0,0.0
56,0.0,0.0,0.0,0.053669921875,0.0,0.0,0.0,0.0,0.0,0.0,0.194,0.0,0.0,0.0,0.0,0.0,0.0,0.5326046542592495,0.0,0.0,0.0,0.0,0.0,0.0,-3.268,0.0,0.0,0.0
57,0.0,0.0,0.0,0.0555556640625,0.0,0.0,0.0,0.0,0.0,0.0,0.196,0.0,0.0,0.0,0.0,0.0,0.0,0.5380691308098708,0.0,0.0,0.0,0.0,0.0,0.0,-3.404,0.0,0.0,0.0
58,0.0,0.0,0.0,0.0575859375,0.0,0.0,0.0,0.0,0.0,0.0,0.195,0.0,0.0,0.0,0.0,0.0,0.0,0.5432540769668283,0.0,0.0,0.0,0.0,0.0,0.0,-3.176,0.0,0.0,0.0
59,0.0,0.0,0.0,0.05947265625,0.0,0.0,0.0,0.0,0.0,0.0,0.201,0.0,0.0,0.0,0.0,0.0,0.0,0.5481845495934458,0.0,0.0,0.0,0.0,0.0,0.0,-3.292,0.0,0.0,0.0
60,0.0,0.0,0.0,0.0616376953125,0.0,0.0,0.0,0.0,0.0,0.0,0.199,0.0,0.0,0.0,0.0,0.0,0.0,0.5529719525466135,0.0,0.0,0.0,0.0,0.0,0.0,-3.476,0.0,0.0,0.0
61,0.0,0.0,0.0,0.0638125,0.0,0.0,0.0,0.0,0.0,0.0,0.217,0.0,0.0,0.0,0.0,0.0,0.0,0.5575314936859114,0.0,0.0,0.0,0.0,0.0,0.0,-3.908,0.0,0.0,0.0
62,0.0,0.0,0.0,0.0658427734375,0.0,0.0,0.0,0.0,0.0,0.0,0.205,0.0,0.0,0.0,0.0,0.0,0.0,0.5618220113253883,0.0,0.0,0.0,0.0,0.0,0.0,-3.796,0.0,0.0,0.0
63,0.0,0.0,0.0,0.0678642578125,0.0,0.0,0.0,0.0,0.0,0.0,0.207,0.0,0.0,0.0,0.0,0.0,0.0,0.5659494788700318,0.0,0.0,0.0,0.0,0.0,0.0,-3.656,0.0,0.0,0.0
64,0.0,0.0,0.0,0.0701826171875,0.0,0.0,0.0,0.0,0.0,0.0,0.223,0.0,0.0,0.0,0.0,0.0,0.0,0.569819173345621,0.0,0.0,0.0,0.0,0.0,0.0,-3.908,0.0,0.0,0.0
65,0.0,0.0,0.0,0.072357421875,0.0,0.0,0.0,0.0,0.0,0.0,0.224,0.0,0.0,0.0,0.0,0.0,0.0,0.5734407244649095,0.0,0.0,0.0,0.0,0.0,0.0,-3.636,0.0,0.0,0.0
66,0.0,0.0,0.0,0.074685546875,0.0,0.0,0.0,0.0,0.0,0.0,0.225,0.0,0.0,0.0,0.0,0.0,0.0,0.5768588476779106,0.0,0.0,0.0,0.0,0.0,0.0,-4.024,0.0,0.0,0.0
67,0.0,0.0,0.0,0.0768515625,0.0,0.0,0.0,0.0,0.0,0.0,0.227,0.0,0.0,0.0,0.0,0.0,0.0,0.5800848974057853,0.0,0.0,0.0,0.0,0.0,0.0,-4.184,0.0,0.0,0.0
68,0.0,0.0,0.0,0.079169921875,0.0,0.0,0.0,0.0,0.0,0.0,0.225,0.0,0.0,0.0,0.0,0.0,0.0,0.5830001804861618,0.0,0.0,0.0,0.0,0.0,0.0,-4.044,0.0,0.0,0.0
69,0.0,0.0,0.0,0.0817783203125,0.0,0.0,0.0,0.0,0.0,0.0,0.239,0.0,0.0,0.0,0.0,0.0,0.0,0.5857273980955223,0.0,0.0,0.0,0.0,0.0,0.0,-4.344,0.0,0.0,0.0
70,0.0,0.0,0.0,0.0840966796875,0.0,0.0,0.0,0.0,0.0,0.0,0.246,0.0,0.0,0.0,0.0,0.0,0.0,0.588221360343891,0.0,0.0,0.0,0.0,0.0,0.0,-4.688,0.0,0.0,0.0
71,0.0,0.0,0.0,0.086705078125,0.0,0.0,0.0,0.0,0.0,0.0,0.245,0.0,0.0,0.0,0.0,0.0,0.0,0.5904642891189209,0.0,0.0,0.0,0.0,0.0,0.0,-5.008,0.0,0.0,0.0
72,0.0,0.0,0.0,0.0891591796875,0.0,0.0,0.0,0.0,0.0,0.0,0.263,0.0,0.0,0.0,0.0,0.0,0.0,0.5924728087774773,0.0,0.0,0.0,0.0,0.0,0.0,-5.328,0.0,0.0,0.0
73,0.0,0.0,0.0,0.0917666015625,0.0,0.0,0.0,0.0,0.0,0.0,0.248,0.0,0.0,0.0,0.0,0.0,0.0,0.5942581471893363,0.0,0.0,0.0,0.0,0.0,0.0,-5.168,0.0,0.0,0.0
74,0.0,0.0,0.0,0.094375,0.0,0.0,0.0,0.0,0.0,0.0,0.258,0.0,0.0,0.0,0.0,0.0,0.0,0.5957861230271827,0.0,0.0,0.0,0.0,0.0,0.0,-5.648,0.0,0.0,0.0
75,0.0,0.0,0.0,0.0969912109375,0.0,0.0,0.0,0.0,0.0,0.0,0.269,0.0,0.0,0.0,0.0,0.0,0.0,0.5970856482207744,0.0,0.0,0.0,0.0,0.0,0.0,-6.104,0.0,0.0,0.0
76,0.0,0.0,0.0,0.099599609375,0.0,0.0,0.0,0.0,0.0,0.0,0.256,0.0,0.0,0.0,0.0,0.0,0.0,0.5981533906902763,0.0,0.0,0.0,0.0,0.0,0.0,-5.556,0.0,0.0,0.0
77,0.0,0.0,0.0,0.1021982421875,0.0,0.0,0.0,0.0,0.0,0.0,0.269,0.0,0.0,0.0,0.0,0.0,0.0,0.5989725592051987,0.0,0.0,0.0,0.0,0.0,0.0,-5.784,0.0,0.0,0.0
78,0.0,0.0,0.0,0.10465234375,0.0,0.0,0.0,0.0,0.0,0.0,0.257,0.0,0.0,0.0,0.0,0.0,0.0,0.5995570818131155,0.0,0.0,0.0,0.0,0.0,0.0,-5.28,0.0,0.0,0.0
79,0.0,0.0,0.0,0.107259765625,0.0,0.0,0.0,0.0,0.0,0.0,0.254,0.0,0.0,0.0,0.0,0.0,0.0,0.5998974583686684,0.0,0.0,0.0,0.0,0.0,0.0,-4.892,0.0,0.0,0.0
80,0.0,0.0,0.0,0.1100126953125,0.0,0.0,0.0,0.0,0.0,0.0,0.268,0.0,0.0,0.0,0.0,0.0,0.0,0.5999994054414928,0.0,0.0,0.0,0.0,0.0,0.0,-5.464,0.0,0.0,0.0
81,0.0,0.0,0.0,0.1123310546875,0.0,0.0,0.0,0.0,0.0,0.0,0.255,0.0,0.0,0.0,0.0,0.0,0.0,0.599862774604695,0.0,0.0,0.0,0.0,0.0,0.0,-5.304,0.0,0.0,0.0
82,0.0,0.0,0.0,0.114939453125,0.0,0.0,0.0,0.0,0.0,0.0,0.249,0.0,0.0,0.0,0.0,0.0,0.0,0.5994821576069779,0.0,0.0,0.0,0.0,0.0,0.0,-5.648,0.0,0.0,0.0
83,0.0,0.0,0.0,0.117267578125,0.0,0.0,0.0,0.0,0.0,0.0,0.25,0.0,0.0,0.0,0.0,0.0,0.0,0.5988606744858463,0.0,0.0,0.0,0.0,0.0,0.0,-5.668,0.0,0.0,0.0
84,0.0,0.0,0.0,0.1195771484375,0.0,0.0,0.0,0.0,0.0,0.0,0.232,0.0,0.0,0.0,0.0,0.0,0.0,0.5980058076649323,0.0,0.0,0.0,0.0,0.0,0.0,-5.236,0.0,0.0,0.0
85,0.0,0.0,0.0,0.1221845703125,0.0,0.0,0.0,0.0,0.0,0.0,0.244,0.0,0.0,0.0,0.0,0.0,0.0,0.5968978605303398,0.0,0.0,0.0,0.0,0.0,0.0,-5.532,0.0,0.0,0.0
86,0.0,0.0,0.0,0.12450390625,0.0,0.0,0.0,0.0,0.0,0.0,0.247,0.0,0.0,0.0,0.0,0.0,0.0,0.595573740137185,0.0,0.0,0.0,0.0,0.0,0.0,-5.716,0.0,0.0,0.0
87,0.0,0.0,0.0,0.1268232421875,0.0,0.0,0.0,0.0,0.0,0.0,0.229,0.0,0.0,0.0,0.0,0.0,0.0,0.5940148612771453,0.0,0.0,0.0,0.0,0.0,0.0,-5.808,0.0,0.0,0.0
88,0.0,0.0,0.0,0.1291416015625,0.0,0.0,0.0,0.0,0.0,0.0,0.239,0.0,0.0,0.0,0.0,0.0,0.0,0.5921956158130984,0.0,0.0,0.0,0.0,0.0,0.0,-6.196,0.0,0.0,0.0
89,0.0,0.0,0.0,0.1313076171875,0.0,0.0,0.0,0.0,0.0,0.0,0.227,0.0,0.0,0.0,0.0,0.0,0.0,0.5901410031944687,0.0,0.0,0.0,0.0,0.0,0.0,-6.036,0.0,0.0,0.0
90,0.0,0.0,0.0,0.133771484375,0.0,0.0,0.0,0.0,0.0,0.0,0.229,0.0,0.0,0.0,0.0,0.0,0.0,0.5878684284869892,0.0,0.0,0.0,0.0,0.0,0.0,-5.828,0.0,0.0,0.0
91,0.0,0.0,0.0,0.1362431640625,0.0,0.0,0.0,0.0,0.0,0.0,0.248,0.0,0.0,0.0,0.0,0.0,0.0,0.5853245435098495,0.0,0.0,0.0,0.0,0.0,0.0,-6.24,0.0,0.0,0.0
92,0.0,0.0,0.0,0.1385625,0.0,0.0,0.0,0.0,0.0,0.0,0.234,0.0,0.0,0.0,0.0,0.0,0.0,0.5825457394514226,0.0,0.0,0.0,0.0,0.0,0.0,-5.944,0.0,0.0,0.0
93,0.0,0.0,0.0,0.1408720703125,0.0,0.0,0.0,0.0,0.0,0.0,0.241,0.0,0.0,0.0,0.0,0.0,0.0,0.5796081679079333,0.0,0.0,0.0,0.0,0.0,0.0,-6.424,0.0,0.0,0.0
94,0.0,0.0,0.0,0.14319140625,0.0,0.0,0.0,0.0,0.0,0.0,0.231,0.0,0.0,0.0,0.0,0.0,0.0,0.5763525653788442,0.0,0.0,0.0,0.0,0.0,0.0,-6.288,0.0,0.0,0.0
95,0.0,0.0,0.0,0.1456552734375,0.0,0.0,0.0,0.0,0.0,0.0,0.232,0.0,0.0,0.0,0.0,0.0,0.0,0.5729438595603892,0.0,0.0,0.0,0.0,0.0,0.0,-6.288,0.0,0.0,0.0
96,0.0,0.0,0.0,0.1482626953125,0.0,0.0,0.0,0.0,0.0,0.0,0.255,0.0,0.0,0.0,0.0,0.0,0.0,0.5692821785697697,0.0,0.0,0.0,0.0,0.0,0.0,-6.952,0.0,0.0,0.0
97,0.0,0.0,0.0,0.15058203125,0.0,0.0,0.0,0.0,0.0,0.0,0.247,0.0,0.0,0.0,0.0,0.0,0.0,0.5653364113446967,0.0,0.0,0.0,0.0,0.0,0.0,-6.996,0.0,0.0,0.0
98,0.0,0.0,0.0,0.1530361328125,0.0,0.0,0.0,0.0,0.0,0.0,0.24,0.0,0.0,0.0,0.0,0.0,0.0,0.5612302411788492,0.0,0.0,0.0,0.0,0.0,0.0,-7.224,0.0,0.0,0.0
99,0.0,0.0,0.0,0.15535546875,0.0,0.0,0.0,0.0,0.0,0.0,0.247,0.0,0.0,0.0,0.0,0.0,0.0,0.5568978891790215,0.0,0.0,0.0,0.0,0.0,0.0,-7.544,0.0,0.0,0.0
100,0.0,0.0,0.0,0.1576826171875,0.0,0.0,0.0,0.0,0.0,0.0,0.235,0.0,0.0,0.0,0.0,0.0,0.0,0.5523015064895269,0.0,0.0,0.0,0.0,0.0,0.0,-7.316,0.0,0.0,0.0
101,0.0,0.0,0.0,0.160291015625,0.0,0.0,0.0,0.0,0.0,0.0,0.24,0.0,0.0,0.0,0.0,0.0,0.0,0.5474960902479235,0.0,0.0,0.0,0.0,0.0,0.0,-7.704,0.0,0.0,0.0
102,0.0,0.0,0.0,0.1626005859375,0.0,0.0,0.0,0.0,0.0,0.0,0.252,0.0,0.0,0.0,0.0,0.0,0.0,0.5424937220577235,0.0,0.0,0.0,0.0,0.0,0.0,-7.98,0.0,0.0,0.0
103,0.0,0.0,0.0,0.165208984375,0.0,0.0,0.0,0.0,0.0,0.0,0.246,0.0,0.0,0.0,0.0,0.0,0.0,0.5372121409278663,0.0,0.0,0.0,0.0,0.0,0.0,-7.956,0.0,0.0,0.0
104,0.0,0.0,0.0,0.16752734375,0.0,0.0,0.0,0.0,0.0,0.0,0.252,0.0,0.0,0.0,0.0,0.0,0.0,0.5317357439166448,0.0,0.0,0.0,0.0,0.0,0.0,-8.072,0.0,0.0,0.0
105,0.0,0.0,0.0,0.1697021484375,0.0,0.0,0.0,0.0,0.0,0.0,0.226,0.0,0.0,0.0,0.0,0.0,0.0,0.5261330564672817,0.0,0.0,0.0,0.0,0.0,0.0,-7.132,0.0,0.0,0.0
106,0.0,0.0,0.0,0.171876953125,0.0,0.0,0.0,0.0,0.0,0.0,0.218,0.0,0.0,0.0,0.0,0.0,0.0,0.5202587559158527,0.0,0.0,0.0,0.0,0.0,0.0,-7.088,0.0,0.0,0.0
107,0.0,0.0,0.0,0.17404296875,0.0,0.0,0.0,0.0,0.0,0.0,0.216,0.0,0.0,0.0,0.0,0.0,0.0,0.514046329215892,0.0,0.0,0.0,0.0,0.0,0.0,-7.544,0.0,0.0,0.0
108,0.0,0.0,0.0,0.1759375,0.0,0.0,0.0,0.0,0.0,0.0,0.195,0.0,0.0,0.0,0.0,0.0,0.0,0.5078757231369895,0.0,0.0,0.0,0.0,0.0,0.0,-7.272,0.0,0.0,0.0
109,0.0,0.0,0.0,0.1779677734375,0.0,0.0,0.0,0.0,0.0,0.0,0.202,0.0,0.0,0.0,0.0,0.0,0.0,0.5013694315852968,0.0,0.0,0.0,0.0,0.0,0.0,-7.612,0.0,0.0,0.0
110,0.0,0.0,0.0,0.1797001953125,0.0,0.0,0.0,0.0,0.0,0.0,0.195,0.0,0.0,0.0,0.0,0.0,0.0,0.4946763763168236,0.0,0.0,0.0,0.0,0.0,0.0,-7.592,0.0,0.0,0.0
111,0.0,0.0,0.0,0.1815859375,0.0,0.0,0.0,0.0,0.0,0.0,0.174,0.0,0.0,0.0,0.0,0.0,0.0,0.4878113602886191,0.0,0.0,0.0,0.0,0.0,0.0,-7.384,0.0,0.0,0.0
112,0.0,0.0,0.0,0.183607421875,0.0,0.0,0.0,0.0,0.0,0.0,0.195,0.0,0.0,0.0,0.0,0.0,0.0,0.4807180108672308,0.0,0.0,0.0,0.0,0.0,0.0,-8.024,0.0,0.0,0.0
113,0.0,0.0,0.0,0.1853486328125,0.0,0.0,0.0,0.0,0.0,0.0,0.19,0.0,0.0,0.0,0.0,0.0,0.0,0.47337527619775066,0.0,0.0,0.0,0.0,0.0,0.0,-7.864,0.0,0.0,0.0
114,0.0,0.0,0.0,0.187234375,0.0,0.0,0.0,0.0,0.0,0.0,0.178,0.0,0.0,0.0,0.0,0.0,0.0,0.46603175278916803,0.0,0.0,0.0,0.0,0.0,0.0,-7.844,0.0,0.0,0.0
115,0.0,0.0,0.0,0.1889677734375,0.0,0.0,0.0,0.0,0.0,0.0,0.188,0.0,0.0,0.0,0.0,0.0,0.0,0.4583877325963722,0.0,0.0,0.0,0.0,0.0,0.0,-8.184,0.0,0.0,0.0
116,0.0,0.0,0.0,0.190419921875,0.0,0.0,0.0,0.0,0.0,0.0,0.163,0.0,0.0,0.0,0.0,0.0,0.0,0.4503992990058231,0.0,0.0,0.0,0.0,0.0,0.0,-7.888,0.0,0.0,0.0
117,0.0,0.0,0.0,0.192296875,0.0,0.0,0.0,0.0,0.0,0.0,0.162,0.0,0.0,0.0,0.0,0.0,0.0,0.4425305579185312,0.0,0.0,0.0,0.0,0.0,0.0,-8.116,0.0,0.0,0.0
118,0.0,0.0,0.0,0.19389453125,0.0,0.0,0.0,0.0,0.0,0.0,0.173,0.0,0.0,0.0,0.0,0.0,0.0,0.43434088118418174,0.0,0.0,0.0,0.0,0.0,0.0,-8.324,0.0,0.0,0.0
119,0.0,0.0,0.0,0.1954912109375,0.0,0.0,0.0,0.0,0.0,0.0,0.159,0.0,0.0,0.0,0.0,0.0,0.0,0.42588687093148553,0.0,0.0,0.0,0.0,0.0,0.0,-7.932,0.0,0.0,0.0
120,0.0,0.0,0.0,0.197087890625,0.0,0.0,0.0,0.0,0.0,0.0,0.166,0.0,0.0,0.0,0.0,0.0,0.0,0.41740485668224553,0.0,0.0,0.0,0.0,0.0,0.0,-8.3,0.0,0.0,0.0
121,0.0,0.0,0.0,0.1985322265625,0.0,0.0,0.0,0.0,0.0,0.0,0.152,0.0,0.0,0.0,0.0,0.0,0.0,0.4087261853410894,0.0,0.0,0.0,0.0,0.0,0.0,-8.184,0.0,0.0,0.0
122,0.0,0.0,0.0,0.1999853515625,0.0,0.0,0.0,0.0,0.0,0.0,0.145,0.0,0.0,0.0,0.0,0.0,0.0,0.3996282778524431,0.0,0.0,0.0,0.0,0.0,0.0,-8.048,0.0,0.0,0.0
123,0.0,0.0,0.0,0.2014287109375,0.0,0.0,0.0,0.0,0.0,0.0,0.154,0.0,0.0,0.0,0.0,0.0,0.0,0.3908184308871544,0.0,0.0,0.0,0.0,0.0,0.0,-8.3,0.0,0.0,0.0
124,0.0,0.0,0.0,0.2025927734375,0.0,0.0,0.0,0.0,0.0,0.0,0.127,0.0,0.0,0.0,0.0,0.0,0.0,0.38162996131333354,0.0,0.0,0.0,0.0,0.0,0.0,-8.3,0.0,0.0,0.0
125,0.0,0.0,0.0,0.2038916015625,0.0,0.0,0.0,0.0,0.0,0.0,0.123,0.0,0.0,0.0,0.0,0.0,0.0,0.37217982762069196,0.0,0.0,0.0,0.0,0.0,0.0,-8.484,0.0,0.0,0.0
126,0.0,0.0,0.0,0.205046875,0.0,0.0,0.0,0.0,0.0,0.0,0.122,0.0,0.0,0.0,0.0,0.0,0.0,0.36277865791912606,0.0,0.0,0.0,0.0,0.0,0.0,-8.324,0.0,0.0,0.0
127,0.0,0.0,0.0,0.20606640625,0.0,0.0,0.0,0.0,0.0,0.0,0.111,0.0,0.0,0.0,0.0,0.0,0.0,0.35315932288190915,0.0,0.0,0.0,0.0,0.0,0.0,-8.232,0.0,0.0,0.0
128,0.0,0.0,0.0,0.2073662109375,0.0,0.0,0.0,0.0,0.0,0.0,0.123,0.0,0.0,0.0,0.0,0.0,0.0,0.34330073021831736,0.0,0.0,0.0,0.0,0.0,0.0,-8.596,0.0,0.0,0.0
129,0.0,0.0,0.0,0.208521484375,0.0,0.0,0.0,0.0,0.0,0.0,0.123,0.0,0.0,0.0,0.0,0.0,0.0,0.33339799791261576,0.0,0.0,0.0,0.0,0.0,0.0,-8.736,0.0,0.0,0.0
130,0.0,0.0,0.0,0.209685546875,0.0,0.0,0.0,0.0,0.0,0.0,0.115,0.0,0.0,0.0,0.0,0.0,0.0,0.3234430663447985,0.0,0.0,0.0,0.0,0.0,0.0,-9.076,0.0,0.0,0.0
131,0.0,0.0,0.0,0.2106953125,0.0,0.0,0.0,0.0,0.0,0.0,0.115,0.0,0.0,0.0,0.0,0.0,0.0,0.313278045692838,0.0,0.0,0.0,0.0,0.0,0.0,-9.308,0.0,0.0,0.0
132,0.0,0.0,0.0,0.2115615234375,0.0,0.0,0.0,0.0,0.0,0.0,0.088,0.0,0.0,0.0,0.0,0.0,0.0,0.30291649792891173,0.0,0.0,0.0,0.0,0.0,0.0,-9.124,0.0,0.0,0.0
133,0.0,0.0,0.0,0.21258203125,0.0,0.0,0.0,0.0,0.0,0.0,0.089,0.0,0.0,0.0,0.0,0.0,0.0,0.2925746447285062,0.0,0.0,0.0,0.0,0.0,0.0,-9.488,0.0,0.0,0.0
134,0.0,0.0,0.0,0.2133037109375,0.0,0.0,0.0,0.0,0.0,0.0,0.095,0.0,0.0,0.0,0.0,0.0,0.0,0.2820020664662051,0.0,0.0,0.0,0.0,0.0,0.0,-9.696,0.0,0.0,0.0
135,0.0,0.0,0.0,0.213880859375,0.0,0.0,0.0,0.0,0.0,0.0,0.066,0.0,0.0,0.0,0.0,0.0,0.0,0.27128040708474127,0.0,0.0,0.0,0.0,0.0,0.0,-9.556,0.0,0.0,0.0
136,0.0,0.0,0.0,0.2146025390625,0.0,0.0,0.0,0.0,0.0,0.0,0.068,0.0,0.0,0.0,0.0,0.0,0.0,0.2606229538309444,0.0,0.0,0.0,0.0,0.0,0.0,-10.016,0.0,0.0,0.0
137,0.0,0.0,0.0,0.2150537109375,0.0,0.0,0.0,0.0,0.0,0.0,0.057,0.0,0.0,0.0,0.0,0.0,0.0,0.2497159313700954,0.0,0.0,0.0,0.0,0.0,0.0,-9.9,0.0,0.0,0.0
138,0.0,0.0,0.0,0.2154873046875,0.0,0.0,0.0,0.0,0.0,0.0,0.042,0.0,0.0,0.0,0.0,0.0,0.0,0.23871472905348642,0.0,0.0,0.0,0.0,0.0,0.0,-10.152,0.0,0.0,0.0
139,0.0,0.0,0.0,0.215919921875,0.0,0.0,0.0,0.0,0.0,0.0,0.048,0.0,0.0,0.0,0.0,0.0,0.0,0.22772718975503764,0.0,0.0,0.0,0.0,0.0,0.0,-10.496,0.0,0.0,0.0
140,0.0,0.0,0.0,0.216064453125,0.0,0.0,0.0,0.0,0.0,0.0,0.029,0.0,0.0,0.0,0.0,0.0,0.0,0.2166304788071163,0.0,0.0,0.0,0.0,0.0,0.0,-10.336,0.0,0.0,0.0
141,0.0,0.0,0.0,0.216353515625,0.0,0.0,0.0,0.0,0.0,0.0,0.025,0.0,0.0,0.0,0.0,0.0,0.0,0.2051470691655157,0.0,0.0,0.0,0.0,0.0,0.0,-10.656,0.0,0.0,0.0
142,0.0,0.0,0.0,0.216353515625,0.0,0.0,0.0,0.0,0.0,0.0,0.011,0.0,0.0,0.0,0.0,0.0,0.0,0.19403226600785925,0.0,0.0,0.0,0.0,0.0,0.0,-10.54,0.0,0.0,0.0
143,0.0,0.0,0.0,0.216353515625,0.0,0.0,0.0,0.0,0.0,0.0,-0.005,0.0,0.0,0.0,0.0,0.0,0.0,0.18265374395622824,0.0,0.0,0.0,0.0,0.0,0.0,-10.108,0.0,0.0,0.0
144,0.0,0.0,0.0,0.216498046875,0.0,0.0,0.0,0.0,0.0,0.0,0.004,0.0,0.0,0.0,0.0,0.0,0.0,0.17103452826051063,0.0,0.0,0.0,0.0,0.0,0.0,-10.472,0.0,0.0,0.0
145,0.0,0.0,0.0,0.216353515625,0.0,0.0,0.0,0.0,0.0,0.0,0.001,0.0,0.0,0.0,0.0,0.0,0.0,0.1596898260473402,0.0,0.0,0.0,0.0,0.0,0.0,-10.472,0.0,0.0,0.0
146,0.0,0.0,0.0,0.216498046875,0.0,0.0,0.0,0.0,0.0,0.0,-0.005,0.0,0.0,0.0,0.0,0.0,0.0,0.14806958799395553,0.0,0.0,0.0,0.0,0.0,0.0,-10.588,0.0,0.0,0.0
147,0.0,0.0,0.0,0.216353515625,0.0,0.0,0.0,0.0,0.0,0.0,0.008,0.0,0.0,0.0,0.0,0.0,0.0,0.13635925333352503,0.0,0.0,0.0,0.0,0.0,0.0,-10.748,0.0,0.0,0.0
148,0.0,0.0,0.0,0.216064453125,0.0,0.0,0.0,0.0,0.0,0.0,-0.022,0.0,0.0,0.0,0.0,0.0,0.0,0.12466301024416063,0.0,0.0,0.0,0.0,0.0,0.0,-10.884,0.0,0.0,0.0
149,0.0,0.0,0.0,0.2156318359375,0.0,0.0,0.0,0.0,0.0,0.0,-0.039,0.0,0.0,0.0,0.0,0.0,0.0,0.11294317348381411,0.0,0.0,0.0,0.0,0.0,0.0,-10.976,0.0,0.0,0.0
150,0.0,0.0,0.0,0.2150537109375,0.0,0.0,0.0,0.0,0.0,0.0,-0.047,0.0,0.0,0.0,0.0,0.0,0.0,0.10101068861843567,0.0,0.0,0.0,0.0,0.0,0.0,-10.952,0.0,0.0,0.0
151,0.0,0.0,0.0,0.214314453125,0.0,0.0,0.0,0.0,0.0,0.0,-0.074,0.0,0.0,0.0,0.0,0.0,0.0,0.08929412021095201,0.0,0.0,0.0,0.0,0.0,0.0,-10.724,0.0,0.0,0.0
152,0.0,0.0,0.0,0.2134482421875,0.0,0.0,0.0,0.0,0.0,0.0,-0.072,0.0,0.0,0.0,0.0,0.0,0.0,0.07738686736757251,0.0,0.0,0.0,0.0,0.0,0.0,-10.976,0.0,0.0,0.0
153,0.0,0.0,0.0,0.2124375,0.0,0.0,0.0,0.0,0.0,0.0,-0.09,0.0,0.0,0.0,0.0,0.0,0.0,0.0654272070918335,0.0,0.0,0.0,0.0,0.0,0.0,-10.84,0.0,0.0,0.0
154,0.0,0.0,0.0,0.21141796875,0.0,0.0,0.0,0.0,0.0,0.0,-0.107,0.0,0.0,0.0,0.0,0.0,0.0,0.05345770603279063,0.0,0.0,0.0,0.0,0.0,0.0,-10.86,0.0,0.0,0.0
155,0.0,0.0,0.0,0.2104072265625,0.0,0.0,0.0,0.0,0.0,0.0,-0.101,0.0,0.0,0.0,0.0,0.0,0.0,0.041545780028990634,0.0,0.0,0.0,0.0,0.0,0.0,-11.32,0.0,0.0,0.0
156,0.0,0.0,0.0,0.209107421875,0.0,0.0,0.0,0.0,0.0,0.0,-0.119,0.0,0.0,0.0,0.0,0.0,0.0,0.029428205161353343,0.0,0.0,0.0,0.0,0.0,0.0,-11.32,0.0,0.0,0.0
157,0.0,0.0,0.0,0.207943359375,0.0,0.0,0.0,0.0,0.0,0.0,-0.121,0.0,0.0,0.0,0.0,0.0,0.0,0.017628321259646005,0.0,0.0,0.0,0.0,0.0,0.0,-11.82,0.0,0.0,0.0
158,0.0,0.0,0.0,0.2065,0.0,0.0,0.0,0.0,0.0,0.0,-0.128,0.0,0.0,0.0,0.0,0.0,0.0,0.005611333106239451,0.0,0.0,0.0,0.0,0.0,0.0,-11.592,0.0,0.0,0.0
159,0.0,0.0,0.0,0.20490234375,0.0,0.0,0.0,0.0,0.0,0.0,-0.158,0.0,0.0,0.0,0.0,0.0,0.0,-0.006525201912445148,0.0,0.0,0.0,0.0,0.0,0.0,-11.112,0.0,0.0,0.0
160,0.0,0.0,0.0,0.203314453125,0.0,0.0,0.0,0.0,0.0,0.0,-0.156,0.0,0.0,0.0,0.0,0.0,0.0,-0.018533242584085573,0.0,0.0,0.0,0.0,0.0,0.0,-11.204,0.0,0.0,0.0
161,0.0,0.0,0.0,0.2014287109375,0.0,0.0,0.0,0.0,0.0,0.0,-0.171,0.0,0.0,0.0,0.0,0.0,0.0,-0.030330985610298768,0.0,0.0,0.0,0.0,0.0,0.0,-11.16,0.0,0.0,0.0
162,0.0,0.0,0.0,0.1996962890625,0.0,0.0,0.0,0.0,0.0,0.0,-0.182,0.0,0.0,0.0,0.0,0.0,0.0,-0.04243833273821674,0.0,0.0,0.0,0.0,0.0,0.0,-11.364,0.0,0.0,0.0
163,0.0,0.0,0.0,0.197810546875,0.0,0.0,0.0,0.0,0.0,0.0,-0.181,0.0,0.0,0.0,0.0,0.0,0.0,-0.05426506584255011,0.0,0.0,0.0,0.0,0.0,0.0,-11.456,0.0,0.0,0.0
164,0.0,0.0,0.0,0.1956357421875,0.0,0.0,0.0,0.0,0.0,0.0,-0.209,0.0,0.0,0.0,0.0,0.0,0.0,-0.06618034014832173,0.0,0.0,0.0,0.0,0.0,0.0,-11.32,0.0,0.0,0.0
165,0.0,0.0,0.0,0.19360546875,0.0,0.0,0.0,0.0,0.0,0.0,-0.216,0.0,0.0,0.0,0.0,0.0,0.0,-0.07822639967822605,0.0,0.0,0.0,0.0,0.0,0.0,-11.412,0.0,0.0,0.0
166,0.0,0.0,0.0,0.1914306640625,0.0,0.0,0.0,0.0,0.0,0.0,-0.207,0.0,0.0,0.0,0.0,0.0,0.0,-0.09000314799250411,0.0,0.0,0.0,0.0,0.0,0.0,-11.8,0.0,0.0,0.0
167,0.0,0.0,0.0,0.189111328125,0.0,0.0,0.0,0.0,0.0,0.0,-0.227,0.0,0.0,0.0,0.0,0.0,0.0,-0.10188747707496727,0.0,0.0,0.0,0.0,0.0,0.0,-11.572,0.0,0.0,0.0
168,0.0,0.0,0.0,0.1866484375,0.0,0.0,0.0,0.0,0.0,0.0,-0.233,0.0,0.0,0.0,0.0,0.0,0.0,-0.11387011490053887,0.0,0.0,0.0,0.0,0.0,0.0,-11.66,0.0,0.0,0.0
169,0.0,0.0,0.0,0.1840400390625,0.0,0.0,0.0,0.0,0.0,0.0,-0.25,0.0,0.0,0.0,0.0,0.0,0.0,-0.1254147110748565,0.0,0.0,0.0,0.0,0.0,0.0,-11.572,0.0,0.0,0.0
170,0.0,0.0,0.0,0.18144140625,0.0,0.0,0.0,0.0,0.0,0.0,-0.271,0.0,0.0,0.0,0.0,0.0,0.0,-0.1371215320714979,0.0,0.0,0.0,0.0,0.0,0.0,-11.524,0.0,0.0,0.0
171,0.0,0.0,0.0,0.178544921875,0.0,0.0,0.0,0.0,0.0,0.0,-0.274,0.0,0.0,0.0,0.0,0.0,0.0,-0.14883145461818215,0.0,0.0,0.0,0.0,0.0,0.0,-12.004,0.0,0.0,0.0
172,0.0,0.0,0.0,0.1756484375,0.0,0.0,0.0,0.0,0.0,0.0,-0.29,0.0,0.0,0.0,0.0,0.0,0.0,-0.16039470988998758,0.0,0.0,0.0,0.0,0.0,0.0,-12.256,0.0,0.0,0.0
173,0.0,0.0,0.0,0.1727431640625,0.0,0.0,0.0,0.0,0.0,0.0,-0.293,0.0,0.0,0.0,0.0,0.0,0.0,-0.1718988146099303,0.0,0.0,0.0,0.0,0.0,0.0,-12.484,0.0,0.0,0.0
174,0.0,0.0,0.0,0.1697021484375,0.0,0.0,0.0,0.0,0.0,0.0,-0.301,0.0,0.0,0.0,0.0,0.0,0.0,-0.18347830805504667,0.0,0.0,0.0,0.0,0.0,0.0,-12.464,0.0,0.0,0.0
175,0.0,0.0,0.0,0.1666611328125,0.0,0.0,0.0,0.0,0.0,0.0,-0.31,0.0,0.0,0.0,0.0,0.0,0.0,-0.19485788346229968,0.0,0.0,0.0,0.0,0.0,0.0,-12.416,0.0,0.0,0.0
176,0.0,0.0,0.0,0.1636201171875,0.0,0.0,0.0,0.0,0.0,0.0,-0.3,0.0,0.0,0.0,0.0,0.0,0.0,-0.2060956819529722,0.0,0.0,0.0,0.0,0.0,0.0,-12.92,0.0,0.0,0.0
177,0.0,0.0,0.0,0.160435546875,0.0,0.0,0.0,0.0,0.0,0.0,-0.317,0.0,0.0,0.0,0.0,0.0,0.0,-0.2174208991505157,0.0,0.0,0.0,0.0,0.0,0.0,-12.872,0.0,0.0,0.0
178,0.0,0.0,0.0,0.15725,0.0,0.0,0.0,0.0,0.0,0.0,-0.326,0.0,0.0,0.0,0.0,0.0,0.0,-0.2286142503048062,0.0,0.0,0.0,0.0,0.0,0.0,-12.852,0.0,0.0,0.0
179,0.0,0.0,0.0,0.1537666015625,0.0,0.0,0.0,0.0,0.0,0.0,-0.325,0.0,0.0,0.0,0.0,0.0,0.0,-0.23957023336278585,0.0,0.0,0.0,0.0,0.0,0.0,-12.784,0.0,0.0,0.0
180,0.0,0.0,0.0,0.1499951171875,0.0,0.0,0.0,0.0,0.0,0.0,-0.361,0.0,0.0,0.0,0.0,0.0,0.0,-0.25051050750737547,0.0,0.0,0.0,0.0,0.0,0.0,-12.6,0.0,0.0,0.0
181,0.0,0.0,0.0,0.146232421875,0.0,0.0,0.0,0.0,0.0,0.0,-0.379,0.0,0.0,0.0,0.0,0.0,0.0,-0.261438120452285,0.0,0.0,0.0,0.0,0.0,0.0,-12.712,0.0,0.0,0.0
182,0.0,0.0,0.0,0.1421806640625,0.0,0.0,0.0,0.0,0.0,0.0,-0.392,0.0,0.0,0.0,0.0,0.0,0.0,-0.2721113234871591,0.0,0.0,0.0,0.0,0.0,0.0,-12.624,0.0,0.0,0.0
183,0.0,0.0,0.0,0.1381201171875,0.0,0.0,0.0,0.0,0.0,0.0,-0.415,0.0,0.0,0.0,0.0,0.0,0.0,-0.2828399603821366,0.0,0.0,0.0,0.0,0.0,0.0,-12.416,0.0,0.0,0.0
184,0.0,0.0,0.0,0.1339150390625,0.0,0.0,0.0,0.0,0.0,0.0,-0.409,0.0,0.0,0.0,0.0,0.0,0.0,-0.29329857627439493,0.0,0.0,0.0,0.0,0.0,0.0,-12.852,0.0,0.0,0.0
185,0.0,0.0,0.0,0.1294306640625,0.0,0.0,0.0,0.0,0.0,0.0,-0.442,0.0,0.0,0.0,0.0,0.0,0.0,-0.30362311627077304,0.0,0.0,0.0,0.0,0.0,0.0,-12.644,0.0,0.0,0.0
186,0.0,0.0,0.0,0.1250810546875,0.0,0.0,0.0,0.0,0.0,0.0,-0.446,0.0,0.0,0.0,0.0,0.0,0.0,-0.3140783379292352,0.0,0.0,0.0,0.0,0.0,0.0,-12.852,0.0,0.0,0.0
187,0.0,0.0,0.0,0.1204521484375,0.0,0.0,0.0,0.0,0.0,0.0,-0.441,0.0,0.0,0.0,0.0,0.0,0.0,-0.3242384444577004,0.0,0.0,0.0,0.0,0.0,0.0,-13.172,0.0,0.0,0.0
188,0.0,0.0,0.0,0.115525390625,0.0,0.0,0.0,0.0,0.0,0.0,-0.483,0.0,0.0,0.0,0.0,0.0,0.0,-0.3341013654330605,0.0,0.0,0.0,0.0,0.0,0.0,-13.172,0.0,0.0,0.0
189,0.0,0.0,0.0,0.1108876953125,0.0,0.0,0.0,0.0,0.0,0.0,-0.483,0.0,0.0,0.0,0.0,0.0,0.0,-0.34401236333778545,0.0,0.0,0.0,0.0,0.0,0.0,-13.948,0.0,0.0,0.0
190,0.0,0.0,0.0,0.10581640625,0.0,0.0,0.0,0.0,0.0,0.0,-0.489,0.0,0.0,0.0,0.0,0.0,0.0,-0.3537958508808159,0.0,0.0,0.0,0.0,0.0,0.0,-13.72,0.0,0.0,0.0
191,0.0,0.0,0.0,0.1008984375,0.0,0.0,0.0,0.0,0.0,0.0,-0.507,0.0,0.0,0.0,0.0,0.0,0.0,-0.3634249107419296,0.0,0.0,0.0,0.0,0.0,0.0,-13.424,0.0,0.0,0.0
192,0.0,0.0,0.0,0.0958369140625,0.0,0.0,0.0,0.0,0.0,0.0,-0.491,0.0,0.0,0.0,0.0,0.0,0.0,-0.37285566855435043,0.0,0.0,0.0,0.0,0.0,0.0,-13.744,0.0,0.0,0.0
193,0.0,0.0,0.0,0.0907568359375,0.0,0.0,0.0,0.0,0.0,0.0,-0.512,0.0,0.0,0.0,0.0,0.0,0.0,-0.3822976953925671,0.0,0.0,0.0,0.0,0.0,0.0,-13.4,0.0,0.0,0.0
194,0.0,0.0,0.0,0.085541015625,0.0,0.0,0.0,0.0,0.0,0.0,-0.513,0.0,0.0,0.0,0.0,0.0,0.0,-0.391395640669507,0.0,0.0,0.0,0.0,0.0,0.0,-13.604,0.0,0.0,0.0
195,0.0,0.0,0.0,0.079892578125,0.0,0.0,0.0,0.0,0.0,0.0,-0.543,0.0,0.0,0.0,0.0,0.0,0.0,-0.4003798358104495,0.0,0.0,0.0,0.0,0.0,0.0,-13.4,0.0,0.0,0.0
196,0.0,0.0,0.0,0.0742431640625,0.0,0.0,0.0,0.0,0.0,0.0,-0.577,0.0,0.0,0.0,0.0,0.0,0.0,-0.4093332818453331,0.0,0.0,0.0,0.0,0.0,0.0,-12.828,0.0,0.0,0.0
197,0.0,0.0,0.0,0.0684501953125,0.0,0.0,0.0,0.0,0.0,0.0,-0.566,0.0,0.0,0.0,0.0,0.0,0.0,-0.4179539572147275,0.0,0.0,0.0,0.0,0.0,0.0,-13.104,0.0,0.0,0.0
198,0.0,0.0,0.0,0.062369140625,0.0,0.0,0.0,0.0,0.0,0.0,-0.598,0.0,0.0,0.0,0.0,0.0,0.0,-0.42651986897104804,0.0,0.0,0.0,0.0,0.0,0.0,-12.784,0.0,0.0,0.0
199,0.0,0.0,0.0,0.056576171875,0.0,0.0,0.0,0.0,0.0,0.0,-0.602,0.0,0.0,0.0,0.0,0.0,0.0,-0.4350053758131412,0.0,0.0,0.0,0.0,0.0,0.0,-13.192,0.0,0.0,0.0
200,0.0,0.0,0.0,0.0501962890625,0.0,0.0,0.0,0.0,0.0,0.0,-0.603,0.0,0.0,0.0,0.0,0.0,0.0,-0.44301930167033027,0.0,0.0,0.0,0.0,0.0,0.0,-13.904,0.0,0.0,0.0
201,0.0,0.0,0.0,0.0441142578125,0.0,0.0,0.0,0.0,0.0,0.0,-0.639,0.0,0.0,0.0,0.0,0.0,0.0,-0.4510474909169864,0.0,0.0,0.0,0.0,0.0,0.0,-13.492,0.0,0.0,0.0
202,0.0,0.0,0.0,0.0381767578125,0.0,0.0,0.0,0.0,0.0,0.0,-0.597,0.0,0.0,0.0,0.0,0.0,0.0,-0.4589483325951069,0.0,0.0,0.0,0.0,0.0,0.0,-14.108,0.0,0.0,0.0
203,0.0,0.0,0.0,0.0317978515625,0.0,0.0,0.0,0.0,0.0,0.0,-0.618,0.0,0.0,0.0,0.0,0.0,0.0,-0.46646633409953703,0.0,0.0,0.0,0.0,0.0,0.0,-13.468,0.0,0.0,0.0
204,0.0,0.0,0.0,0.0261484375,0.0,0.0,0.0,0.0,0.0,0.0,-0.615,0.0,0.0,0.0,0.0,0.0,0.0,-0.47389855441539164,0.0,0.0,0.0,0.0,0.0,0.0,-13.516,0.0,0.0,0.0
205,0.0,0.0,0.0,0.0197783203125,0.0,0.0,0.0,0.0,0.0,0.0,-0.588,0.0,0.0,0.0,0.0,0.0,0.0,-0.4812535770591172,0.0,0.0,0.0,0.0,0.0,0.0,-13.788,0.0,0.0,0.0
206,0.0,0.0,0.0,0.0134072265625,0.0,0.0,0.0,0.0,0.0,0.0,-0.653,0.0,0.0,0.0,0.0,0.0,0.0,-0.48825629166947515,0.0,0.0,0.0,0.0,0.0,0.0,-12.12,0.0,0.0,0.0
207,0.0,0.0,0.0,0.00760546875,0.0,0.0,0.0,0.0,0.0,0.0,-0.617,0.0,0.0,0.0,0.0,0.0,0.0,-0.4951238504931126,0.0,0.0,0.0,0.0,0.0,0.0,-12.988,0.0,0.0,0.0
208,0.0,0.0,0.0,0.0009462890625,0.0,0.0,0.0,0.0,0.0,0.0,-0.618,0.0,0.0,0.0,0.0,0.0,0.0,-0.5018647617205201,0.0,0.0,0.0,0.0,0.0,0.0,-12.624,0.0,0.0,0.0
209,0.0,0.0,0.0,-0.004990234375,0.0,0.0,0.0,0.0,0.0,0.0,-0.642,0.0,0.0,0.0,0.0,0.0,0.0,-0.508290313702327,0.0,0.0,0.0,0.0,0.0,0.0,-12.232,0.0,0.0,0.0
210,0.0,0.0,0.0,-0.0110810546875,0.0,0.0,0.0,0.0,0.0,0.0,-0.6,0.0,0.0,0.0,0.0,0.0,0.0,-0.5145563707686482,0.0,0.0,0.0,0.0,0.0,0.0,-13.696,0.0,0.0,0.0
211,0.0,0.0,0.0,-0.017451171875,0.0,0.0,0.0,0.0,0.0,0.0,-0.632,0.0,0.0,0.0,0.0,0.0,0.0,-0.5206835559841939,0.0,0.0,0.0,0.0,0.0,0.0,-13.032,0.0,0.0,0.0
212,0.0,0.0,0.0,-0.0231005859375,0.0,0.0,0.0,0.0,0.0,0.0,-0.611,0.0,0.0,0.0,0.0,0.0,0.0,-0.5264957627866086,0.0,0.0,0.0,0.0,0.0,0.0,-13.444,0.0,0.0,0.0
213,0.0,0.0,0.0,-0.029181640625,0.0,0.0,0.0,0.0,0.0,0.0,-0.581,0.0,0.0,0.0,0.0,0.0,0.0,-0.5321368263435229,0.0,0.0,0.0,0.0,0.0,0.0,-13.536,0.0,0.0,0.0
214,0.0,0.0,0.0,-0.034984375,0.0,0.0,0.0,0.0,0.0,0.0,-0.615,0.0,0.0,0.0,0.0,0.0,0.0,-0.5376547331515826,0.0,0.0,0.0,0.0,0.0,0.0,-12.576,0.0,0.0,0.0
215,0.0,0.0,0.0,-0.04077734375,0.0,0.0,0.0,0.0,0.0,0.0,-0.576,0.0,0.0,0.0,0.0,0.0,0.0,-0.5428435525279515,0.0,0.0,0.0,0.0,0.0,0.0,-13.104,0.0,0.0,0.0
216,0.0,0.0,0.0,-0.0470029296875,0.0,0.0,0.0,0.0,0.0,0.0,-0.601,0.0,0.0,0.0,0.0,0.0,0.0,-0.5478287301491535,0.0,0.0,0.0,0.0,0.0,0.0,-13.032,0.0,0.0,0.0
217,0.0,0.0,0.0,-0.0526611328125,0.0,0.0,0.0,0.0,0.0,0.0,-0.604,0.0,0.0,0.0,0.0,0.0,0.0,-0.5526199748984659,0.0,0.0,0.0,0.0,0.0,0.0,-12.828,0.0,0.0,0.0
218,0.0,0.0,0.0,-0.0587421875,0.0,0.0,0.0,0.0,0.0,0.0,-0.578,0.0,0.0,0.0,0.0,0.0,0.0,-0.5572252848777196,0.0,0.0,0.0,0.0,0.0,0.0,-13.012,0.0,0.0,0.0
219,0.0,0.0,0.0,-0.0646796875,0.0,0.0,0.0,0.0,0.0,0.0,-0.614,0.0,0.0,0.0,0.0,0.0,0.0,-0.5615455263583926,0.0,0.0,0.0,0.0,0.0,0.0,-12.644,0.0,0.0,0.0
220,0.0,0.0,0.0,-0.07047265625,0.0,0.0,0.0,0.0,0.0,0.0,-0.591,0.0,0.0,0.0,0.0,0.0,0.0,-0.5656461874744947,0.0,0.0,0.0,0.0,0.0,0.0,-13.24,0.0,0.0,0.0
221,0.0,0.0,0.0,-0.0765634765625,0.0,0.0,0.0,0.0,0.0,0.0,-0.59,0.0,0.0,0.0,0.0,0.0,0.0,-0.5695810772219289,0.0,0.0,0.0,0.0,0.0,0.0,-13.744,0.0,0.0,0.0
222,0.0,0.0,0.0,-0.082203125,0.0,0.0,0.0,0.0,0.0,0.0,-0.601,0.0,0.0,0.0,0.0,0.0,0.0,-0.573183680710421,0.0,0.0,0.0,0.0,0.0,0.0,-13.468,0.0,0.0,0.0
223,0.0,0.0,0.0,-0.0878525390625,0.0,0.0,0.0,0.0,0.0,0.0,-0.566,0.0,0.0,0.0,0.0,0.0,0.0,-0.5766387644762766,0.0,0.0,0.0,0.0,0.0,0.0,-13.788,0.0,0.0,0.0
224,0.0,0.0,0.0,-0.0936455078125,0.0,0.0,0.0,0.0,0.0,0.0,-0.576,0.0,0.0,0.0,0.0,0.0,0.0,-0.5798406460465879,0.0,0.0,0.0,0.0,0.0,0.0,-13.604,0.0,0.0,0.0
225,0.0,0.0,0.0,-0.099158203125,0.0,0.0,0.0,0.0,0.0,0.0,-0.567,0.0,0.0,0.0,0.0,0.0,0.0,-0.5827683906483839,0.0,0.0,0.0,0.0,0.0,0.0,-13.492,0.0,0.0,0.0
226,0.0,0.0,0.0,-0.105095703125,0.0,0.0,0.0,0.0,0.0,0.0,-0.577,0.0,0.0,0.0,0.0,0.0,0.0,-0.5855123887803035,0.0,0.0,0.0,0.0,0.0,0.0,-13.72,0.0,0.0,0.0
227,0.0,0.0,0.0,-0.111033203125,0.0,0.0,0.0,0.0,0.0,0.0,-0.603,0.0,0.0,0.0,0.0,0.0,0.0,-0.5880269510662434,0.0,0.0,0.0,0.0,0.0,0.0,-12.852,0.0,0.0,0.0
228,0.0,0.0,0.0,-0.116826171875,0.0,0.0,0.0,0.0,0.0,0.0,-0.585,0.0,0.0,0.0,0.0,0.0,0.0,-0.5902816339856766,0.0,0.0,0.0,0.0,0.0,0.0,-13.356,0.0,0.0,0.0
229,0.0,0.0,0.0,-0.122763671875,0.0,0.0,0.0,0.0,0.0,0.0,-0.588,0.0,0.0,0.0,0.0,0.0,0.0,-0.592326354615242,0.0,0.0,0.0,0.0,0.0,0.0,-13.192,0.0,0.0,0.0
230,0.0,0.0,0.0,-0.128556640625,0.0,0.0,0.0,0.0,0.0,0.0,-0.594,0.0,0.0,0.0,0.0,0.0,0.0,-0.5941196247920512,0.0,0.0,0.0,0.0,0.0,0.0,-13.104,0.0,0.0,0.0
231,0.0,0.0,0.0,-0.134349609375,0.0,0.0,0.0,0.0,0.0,0.0,-0.578,0.0,0.0,0.0,0.0,0.0,0.0,-0.59567346920164,0.0,0.0,0.0,0.0,0.0,0.0,-13.924,0.0,0.0,0.0
232,0.0,0.0,0.0,-0.140287109375,0.0,0.0,0.0,0.0,0.0,0.0,-0.594,0.0,0.0,0.0,0.0,0.0,0.0,-0.5969927292668066,0.0,0.0,0.0,0.0,0.0,0.0,-13.972,0.0,0.0,0.0
233,0.0,0.0,0.0,-0.1460888671875,0.0,0.0,0.0,0.0,0.0,0.0,-0.597,0.0,0.0,0.0,0.0,0.0,0.0,-0.5980949495996477,0.0,0.0,0.0,0.0,0.0,0.0,-13.836,0.0,0.0,0.0
234,0.0,0.0,0.0,-0.15173828125,0.0,0.0,0.0,0.0,0.0,0.0,-0.568,0.0,0.0,0.0,0.0,0.0,0.0,-0.598912437582354,0.0,0.0,0.0,0.0,0.0,0.0,-13.836,0.0,0.0,0.0
235,0.0,0.0,0.0,-0.1573779296875,0.0,0.0,0.0,0.0,0.0,0.0,-0.571,0.0,0.0,0.0,0.0,0.0,0.0,-0.5995154778824238,0.0,0.0,0.0,0.0,0.0,0.0,-13.676,0.0,0.0,0.0
236,0.0,0.0,0.0,-0.1630263671875,0.0,0.0,0.0,0.0,0.0,0.0,-0.566,0.0,0.0,0.0,0.0,0.0,0.0,-0.5998797524870246,0.0,0.0,0.0,0.0,0.0,0.0,-13.88,0.0,0.0,0.0
237,0.0,0.0,0.0,-0.1691171875,0.0,0.0,0.0,0.0,0.0,0.0,-0.59,0.0,0.0,0.0,0.0,0.0,0.0,-0.5999999908138322,0.0,0.0,0.0,0.0,0.0,0.0,-13.72,0.0,0.0,0.0
238,0.0,0.0,0.0,-0.1750546875,0.0,0.0,0.0,0.0,0.0,0.0,-0.611,0.0,0.0,0.0,0.0,0.0,0.0,-0.5998808037817686,0.0,0.0,0.0,0.0,0.0,0.0,-12.852,0.0,0.0,0.0
239,0.0,0.0,0.0,-0.18084765625,0.0,0.0,0.0,0.0,0.0,0.0,-0.587,0.0,0.0,0.0,0.0,0.0,0.0,-0.599520281980767,0.0,0.0,0.0,0.0,0.0,0.0,-13.468,0.0,0.0,0.0
240,0.0,0.0,0.0,-0.18678515625,0.0,0.0,0.0,0.0,0.0,0.0,-0.591,0.0,0.0,0.0,0.0,0.0,0.0,-0.5989289719188123,0.0,0.0,0.0,0.0,0.0,0.0,-13.584,0.0,0.0,0.0
241,0.0,0.0,0.0,-0.1927314453125,0.0,0.0,0.0,0.0,0.0,0.0,-0.596,0.0,0.0,0.0,0.0,0.0,0.0,-0.5980938092499708,0.0,0.0,0.0,0.0,0.0,0.0,-13.492,0.0,0.0,0.0
242,0.0,0.0,0.0,-0.1986689453125,0.0,0.0,0.0,0.0,0.0,0.0,-0.597,0.0,0.0,0.0,0.0,0.0,0.0,-0.5970092696761159,0.0,0.0,0.0,0.0,0.0,0.0,-14.248,0.0,0.0,0.0
243,0.0,0.0,0.0,-0.20459765625,0.0,0.0,0.0,0.0,0.0,0.0,-0.604,0.0,0.0,0.0,0.0,0.0,0.0,-0.5957010320656941,0.0,0.0,0.0,0.0,0.0,0.0,-13.904,0.0,0.0,0.0
244,0.0,0.0,0.0,-0.210390625,0.0,0.0,0.0,0.0,0.0,0.0,-0.588,0.0,0.0,0.0,0.0,0.0,0.0,-0.5941519040771913,0.0,0.0,0.0,0.0,0.0,0.0,-13.948,0.0,0.0,0.0
245,0.0,0.0,0.0,-0.2161923828125,0.0,0.0,0.0,0.0,0.0,0.0,-0.584,0.0,0.0,0.0,0.0,0.0,0.0,-0.5923439025468079,0.0,0.0,0.0,0.0,0.0,0.0,-13.764,0.0,0.0,0.0
246,0.0,0.0,0.0,-0.2219853515625,0.0,0.0,0.0,0.0,0.0,0.0,-0.584,0.0,0.0,0.0,0.0,0.0,0.0,-0.5903265057151834,0.0,0.0,0.0,0.0,0.0,0.0,-13.264,0.0,0.0,0.0
247,0.0,0.0,0.0,-0.2277783203125,0.0,0.0,0.0,0.0,0.0,0.0,-0.583,0.0,0.0,0.0,0.0,0.0,0.0,-0.5880681440640085,0.0,0.0,0.0,0.0,0.0,0.0,-13.56,0.0,0.0,0.0
248,0.0,0.0,0.0,-0.2338515625,0.0,0.0,0.0,0.0,0.0,0.0,-0.599,0.0,0.0,0.0,0.0,0.0,0.0,-0.5855482963106236,0.0,0.0,0.0,0.0,0.0,0.0,-13.376,0.0,0.0,0.0
249,0.0,0.0,0.0,-0.2399423828125,0.0,0.0,0.0,0.0,0.0,0.0,-0.609,0.0,0.0,0.0,0.0,0.0,0.0,-0.5828223284646672,0.0,0.0,0.0,0.0,0.0,0.0,-12.872,0.0,0.0,0.0
250,0.0,0.0,0.0,-0.24587890625,0.0,0.0,0.0,0.0,0.0,0.0,-0.609,0.0,0.0,0.0,0.0,0.0,0.0,-0.5798578469796135,0.0,0.0,0.0,0.0,0.0,0.0,-12.92,0.0,0.0,0.0
251,0.0,0.0,0.0,-0.25181640625,0.0,0.0,0.0,0.0,0.0,0.0,-0.594,0.0,0.0,0.0,0.0,0.0,0.0,-0.5766393929728747,0.0,0.0,0.0,0.0,0.0,0.0,-13.192,0.0,0.0,0.0
252,0.0,0.0,0.0,-0.25775390625,0.0,0.0,0.0,0.0,0.0,0.0,-0.595,0.0,0.0,0.0,0.0,0.0,0.0,-0.5732052393996457,0.0,0.0,0.0,0.0,0.0,0.0,-13.56,0.0,0.0,0.0
253,0.0,0.0,0.0,-0.2637001953125,0.0,0.0,0.0,0.0,0.0,0.0,-0.6,0.0,0.0,0.0,0.0,0.0,0.0,-0.5695523749886338,0.0,0.0,0.0,0.0,0.0,0.0,-13.836,0.0,0.0,0.0
254,0.0,0.0,0.0,-0.269484375,0.0,0.0,0.0,0.0,0.0,0.0,-0.593,0.0,0.0,0.0,0.0,0.0,0.0,-0.565645801019503,0.0,0.0,0.0,0.0,0.0,0.0,-13.788,0.0,0.0,0.0
255,0.0,0.0,0.0,-0.27527734375,0.0,0.0,0.0,0.0,0.0,0.0,-0.583,0.0,0.0,0.0,0.0,0.0,0.0,-0.5614879568043427,0.0,0.0,0.0,0.0,0.0,0.0,-13.856,0.0,0.0,0.0
256,0.0,0.0,0.0,-0.2809267578125,0.0,0.0,0.0,0.0,0.0,0.0,-0.575,0.0,0.0,0.0,0.0,0.0,0.0,-0.5572247491221135,0.0,0.0,0.0,0.0,0.0,0.0,-13.788,0.0,0.0,0.0
257,0.0,0.0,0.0,-0.2867197265625,0.0,0.0,0.0,0.0,0.0,0.0,-0.568,0.0,0.0,0.0,0.0,0.0,0.0,-0.5526508312326373,0.0,0.0,0.0,0.0,0.0,0.0,-13.652,0.0,0.0,0.0
258,0.0,0.0,0.0,-0.2925126953125,0.0,0.0,0.0,0.0,0.0,0.0,-0.588,0.0,0.0,0.0,0.0,0.0,0.0,-0.5477987315098787,0.0,0.0,0.0,0.0,0.0,0.0,-13.604,0.0,0.0,0.0
259,0.0,0.0,0.0,-0.2984501953125,0.0,0.0,0.0,0.0,0.0,0.0,-0.591,0.0,0.0,0.0,0.0,0.0,0.0,-0.5429187166074655,0.0,0.0,0.0,0.0,0.0,0.0,-12.988,0.0,0.0,0.0
260,0.0,0.0,0.0,-0.30453125,0.0,0.0,0.0,0.0,0.0,0.0,-0.604,0.0,0.0,0.0,0.0,0.0,0.0,-0.5376849474844276,0.0,0.0,0.0,0.0,0.0,0.0,-13.032,0.0,0.0,0.0
261,0.0,0.0,0.0,-0.31046875,0.0,0.0,0.0,0.0,0.0,0.0,-0.602,0.0,0.0,0.0,0.0,0.0,0.0,-0.5322176858136415,0.0,0.0,0.0,0.0,0.0,0.0,-12.828,0.0,0.0,0.0
262,0.0,0.0,0.0,-0.316271484375,0.0,0.0,0.0,0.0,0.0,0.0,-0.584,0.0,0.0,0.0,0.0,0.0,0.0,-0.5266050756084815,0.0,0.0,0.0,0.0,0.0,0.0,-13.172,0.0,0.0,0.0
263,0.0,0.0,0.0,-0.32219921875,0.0,0.0,0.0,0.0,0.0,0.0,-0.593,0.0,0.0,0.0,0.0,0.0,0.0,-0.5207126902469155,0.0,0.0,0.0,0.0,0.0,0.0,-13.764,0.0,0.0,0.0
264,0.0,0.0,0.0,-0.32813671875,0.0,0.0,0.0,0.0,0.0,0.0,-0.605,0.0,0.0,0.0,0.0,0.0,0.0,-0.5145760804902799,0.0,0.0,0.0,0.0,0.0,0.0,-13.604,0.0,0.0,0.0
265,0.0,0.0,0.0,-0.3339296875,0.0,0.0,0.0,0.0,0.0,0.0,-0.59,0.0,0.0,0.0,0.0,0.0,0.0,-0.5084170516774277,0.0,0.0,0.0,0.0,0.0,0.0,-13.536,0.0,0.0,0.0
266,0.0,0.0,0.0,-0.33972265625,0.0,0.0,0.0,0.0,0.0,0.0,-0.583,0.0,0.0,0.0,0.0,0.0,0.0,-0.5019489391570399,0.0,0.0,0.0,0.0,0.0,0.0,-13.492,0.0,0.0,0.0
267,0.0,0.0,0.0,-0.345515625,0.0,0.0,0.0,0.0,0.0,0.0,-0.584,0.0,0.0,0.0,0.0,0.0,0.0,-0.4951569679484004,0.0,0.0,0.0,0.0,0.0,0.0,-13.24,0.0,0.0,0.0
268,0.0,0.0,0.0,-0.35130859375,0.0,0.0,0.0,0.0,0.0,0.0,-0.583,0.0,0.0,0.0,0.0,0.0,0.0,-0.4883984145351828,0.0,0.0,0.0,0.0,0.0,0.0,-13.264,0.0,0.0,0.0
269,0.0,0.0,0.0,-0.3571015625,0.0,0.0,0.0,0.0,0.0,0.0,-0.583,0.0,0.0,0.0,0.0,0.0,0.0,-0.48127065411359926,0.0,0.0,0.0,0.0,0.0,0.0,-13.216,0.0,0.0,0.0
270,0.0,0.0,0.0,-0.3630302734375,0.0,0.0,0.0,0.0,0.0,0.0,-0.593,0.0,0.0,0.0,0.0,0.0,0.0,-0.47392433909257387,0.0,0.0,0.0,0.0,0.0,0.0,-12.624,0.0,0.0,0.0
271,0.0,0.0,0.0,-0.36883203125,0.0,0.0,0.0,0.0,0.0,0.0,-0.592,0.0,0.0,0.0,0.0,0.0,0.0,-0.4666066496996737,0.0,0.0,0.0,0.0,0.0,0.0,-12.644,0.0,0.0,0.0
272,0.0,0.0,0.0,-0.3744814453125,0.0,0.0,0.0,0.0,0.0,0.0,-0.584,0.0,0.0,0.0,0.0,0.0,0.0,-0.4589868372500536,0.0,0.0,0.0,0.0,0.0,0.0,-12.464,0.0,0.0,0.0
273,0.0,0.0,0.0,-0.38012109375,0.0,0.0,0.0,0.0,0.0,0.0,-0.571,0.0,0.0,0.0,0.0,0.0,0.0,-0.45103785912520267,0.0,0.0,0.0,0.0,0.0,0.0,-12.096,0.0,0.0,0.0
274,0.0,0.0,0.0,-0.3853359375,0.0,0.0,0.0,0.0,0.0,0.0,-0.553,0.0,0.0,0.0,0.0,0.0,0.0,-0.44309684881923833,0.0,0.0,0.0,0.0,0.0,0.0,-12.28,0.0,0.0,0.0
275,0.0,0.0,0.0,-0.390109375,0.0,0.0,0.0,0.0,0.0,0.0,-0.505,0.0,0.0,0.0,0.0,0.0,0.0,-0.43497226017207885,0.0,0.0,0.0,0.0,0.0,0.0,-12.256,0.0,0.0,0.0
276,0.0,0.0,0.0,-0.394603515625,0.0,0.0,0.0,0.0,0.0,0.0,-0.467,0.0,0.0,0.0,0.0,0.0,0.0,-0.4265367613365826,0.0,0.0,0.0,0.0,0.0,0.0,-11.96,0.0,0.0,0.0
277,0.0,0.0,0.0,-0.3986640625,0.0,0.0,0.0,0.0,0.0,0.0,-0.436,0.0,0.0,0.0,0.0,0.0,0.0,-0.41808550528269955,0.0,0.0,0.0,0.0,0.0,0.0,-11.708,0.0,0.0,0.0
278,0.0,0.0,0.0,-0.4021376953125,0.0,0.0,0.0,0.0,0.0,0.0,-0.387,0.0,0.0,0.0,0.0,0.0,0.0,-0.4094112898895089,0.0,0.0,0.0,0.0,0.0,0.0,-11.5,0.0,0.0,0.0
279,0.0,0.0,0.0,-0.4053232421875,0.0,0.0,0.0,0.0,0.0,0.0,-0.339,0.0,0.0,0.0,0.0,0.0,0.0,-0.40049786078490013,0.0,0.0,0.0,0.0,0.0,0.0,-11.18,0.0,0.0,0.0
280,0.0,0.0,0.0,-0.4076328125,0.0,0.0,0.0,0.0,0.0,0.0,-0.289,0.0,0.0,0.0,0.0,0.0,0.0,-0.39156192600973505,0.0,0.0,0.0,0.0,0.0,0.0,-9.948,0.0,0.0,0.0
281,0.0,0.0,0.0,-0.40894140625,0.0,0.0,0.0,0.0,0.0,0.0,-0.192,0.0,0.0,0.0,0.0,0.0,0.0,-0.38239469920609354,0.0,0.0,0.0,0.0,0.0,0.0,-9.536,0.0,0.0,0.0
282,0.0,0.0,0.0,-0.409375,0.0,0.0,0.0,0.0,0.0,0.0,-0.094,0.0,0.0,0.0,0.0,0.0,0.0,-0.3729984258325218,0.0,0.0,0.0,0.0,0.0,0.0,-8.824,0.0,0.0,0.0
283,0.0,0.0,0.0,-0.4085087890625,0.0,0.0,0.0,0.0,0.0,0.0,0.006,0.0,0.0,0.0,0.0,0.0,0.0,-0.36360608085611407,0.0,0.0,0.0,0.0,0.0,0.0,-7.844,0.0,0.0,0.0
284,0.0,0.0,0.0,-0.4067666015625,0.0,0.0,0.0,0.0,0.0,0.0,0.128,0.0,0.0,0.0,0.0,0.0,0.0,-0.3539973026701027,0.0,0.0,0.0,0.0,0.0,0.0,-8.324,0.0,0.0,0.0
285,0.0,0.0,0.0,-0.4056123046875,0.0,0.0,0.0,0.0,0.0,0.0,0.161,0.0,0.0,0.0,0.0,0.0,0.0,-0.34416844855570733,0.0,0.0,0.0,0.0,0.0,0.0,-9.924,0.0,0.0,0.0
286,0.0,0.0,0.0,-0.4051787109375,0.0,0.0,0.0,0.0,0.0,0.0,0.084,0.0,0.0,0.0,0.0,0.0,0.0,-0.33431472638814175,0.0,0.0,0.0,0.0,0.0,0.0,-10.38,0.0,0.0,0.0
287,0.0,0.0,0.0,-0.4038701171875,0.0,0.0,0.0,0.0,0.0,0.0,0.065,0.0,0.0,0.0,0.0,0.0,0.0,-0.3242978903079898,0.0,0.0,0.0,0.0,0.0,0.0,-9.444,0.0,0.0,0.0
288,0.0,0.0,0.0,-0.401126953125,0.0,0.0,0.0,0.0,0.0,0.0,0.185,0.0,0.0,0.0,0.0,0.0,0.0,-0.31408758905331347,0.0,0.0,0.0,0.0,0.0,0.0,-7.888,0.0,0.0,0.0
289,0.0,0.0,0.0,-0.39706640625,0.0,0.0,0.0,0.0,0.0,0.0,0.331,0.0,0.0,0.0,0.0,0.0,0.0,-0.303745985005991,0.0,0.0,0.0,0.0,0.0,0.0,-6.836,0.0,0.0,0.0
290,0.0,0.0,0.0,-0.3919951171875,0.0,0.0,0.0,0.0,0.0,0.0,0.451,0.0,0.0,0.0,0.0,0.0,0.0,-0.29343358195042973,0.0,0.0,0.0,0.0,0.0,0.0,-7.292,0.0,0.0,0.0
291,0.0,0.0,0.0,-0.38605859375,0.0,0.0,0.0,0.0,0.0,0.0,0.555,0.0,0.0,0.0,0.0,0.0,0.0,-0.2826809738984585,0.0,0.0,0.0,0.0,0.0,0.0,-8.984,0.0,0.0,0.0
292,0.0,0.0,0.0,-0.37983203125,0.0,0.0,0.0,0.0,0.0,0.0,0.606,0.0,0.0,0.0,0.0,0.0,0.0,-0.2720233362878939,0.0,0.0,0.0,0.0,0.0,0.0,-8.576,0.0,0.0,0.0
293,0.0,0.0,0.0,-0.3733173828125,0.0,0.0,0.0,0.0,0.0,0.0,0.629,0.0,0.0,0.0,0.0,0.0,0.0,-0.26154831820087465,0.0,0.0,0.0,0.0,0.0,0.0,-7.452,0.0,0.0,0.0
294,0.0,0.0,0.0,-0.366513671875,0.0,0.0,0.0,0.0,0.0,0.0,0.673,0.0,0.0,0.0,0.0,0.0,0.0,-0.25056274777675375,0.0,0.0,0.0,0.0,0.0,0.0,-8.208,0.0,0.0,0.0
295,0.0,0.0,0.0,-0.3597099609375,0.0,0.0,0.0,0.0,0.0,0.0,0.687,0.0,0.0,0.0,0.0,0.0,0.0,-0.23954162851864305,0.0,0.0,0.0,0.0,0.0,0.0,-9.124,0.0,0.0,0.0
296,0.0,0.0,0.0,-0.3524638671875,0.0,0.0,0.0,0.0,0.0,0.0,0.696,0.0,0.0,0.0,0.0,0.0,0.0,-0.22864862426666646,0.0,0.0,0.0,0.0,0.0,0.0,-10.084,0.0,0.0,0.0
297,0.0,0.0,0.0,-0.343927734375,0.0,0.0,0.0,0.0,0.0,0.0,0.784,0.0,0.0,0.0,0.0,0.0,0.0,-0.21748114911531533,0.0,0.0,0.0,0.0,0.0,0.0,-10.748,0.0,0.0,0.0
298,0.0,0.0,0.0,-0.335806640625,0.0,0.0,0.0,0.0,0.0,0.0,0.851,0.0,0.0,0.0,0.0,0.0,0.0,-0.20615182463896095,0.0,0.0,0.0,0.0,0.0,0.0,-12.552,0.0,0.0,0.0
299,0.0,0.0,0.0,-0.3287138671875,0.0,0.0,0.0,0.0,0.0,0.0,0.778,0.0,0.0,0.0,0.0,0.0,0.0,-0.19298755121848127,0.0,0.0,0.0,0.0,0.0,0.0,-13.676,0.0,0.0,0.0
300,0.0,0.0,0.0,-0.320900390625,0.0,0.0,0.0,0.0,0.0,0.0,0.73,0.0,0.0,0.0,0.0,0.0,0.0,-0.1836321921014725,0.0,0.0,0.0,0.0,0.0,0.0,-13.764,0.0,0.0,0.0
301,0.0,0.0,0.0,-0.312490234375,0.0,0.0,0.0,0.0,0.0,0.0,0.817,0.0,0.0,0.0,0.0,0.0,0.0,-0.17205832579019223,0.0,0.0,0.0,0.0,0.0,0.0,-13.124,0.0,0.0,0.0
302,0.0,0.0,0.0,-0.30496484375,0.0,0.0,0.0,0.0,0.0,0.0,0.816,0.0,0.0,0.0,0.0,0.0,0.0,-0.16051489349553888,0.0,0.0,0.0,0.0,0.0,0.0,-13.812,0.0,0.0,0.0
303,0.0,0.0,0.0,-0.2983056640625,0.0,0.0,0.0,0.0,0.0,0.0,0.71,0.0,0.0,0.0,0.0,0.0,0.0,-0.14897334256121944,0.0,0.0,0.0,0.0,0.0,0.0,-15.048,0.0,0.0,0.0
304,0.0,0.0,0.0,-0.2906357421875,0.0,0.0,0.0,0.0,0.0,0.0,0.712,0.0,0.0,0.0,0.0,0.0,0.0,-0.1372359916401146,0.0,0.0,0.0,0.0,0.0,0.0,-15.824,0.0,0.0,0.0
305,0.0,0.0,0.0,-0.2831005859375,0.0,0.0,0.0,0.0,0.0,0.0,0.77,0.0,0.0,0.0,0.0,0.0,0.0,-0.1255098214522421,0.0,0.0,0.0,0.0,0.0,0.0,-15.3,0.0,0.0,0.0
306,0.0,0.0,0.0,-0.276296875,0.0,0.0,0.0,0.0,0.0,0.0,0.735,0.0,0.0,0.0,0.0,0.0,0.0,-0.11388049423149792,0.0,0.0,0.0,0.0,0.0,0.0,-16.028,0.0,0.0,0.0
307,0.0,0.0,0.0,-0.2699267578125,0.0,0.0,0.0,0.0,0.0,0.0,0.661,0.0,0.0,0.0,0.0,0.0,0.0,-0.10193342003587931,0.0,0.0,0.0,0.0,0.0,0.0,-17.676,0.0,0.0,0.0
308,0.0,0.0,0.0,-0.263267578125,0.0,0.0,0.0,0.0,0.0,0.0,0.644,0.0,0.0,0.0,0.0,0.0,0.0,-0.09025798699063432,0.0,0.0,0.0,0.0,0.0,0.0,-17.22,0.0,0.0,0.0
309,0.0,0.0,0.0,-0.2560126953125,0.0,0.0,0.0,0.0,0.0,0.0,0.7,0.0,0.0,0.0,0.0,0.0,0.0,-0.07831063180141097,0.0,0.0,0.0,0.0,0.0,0.0,-16.188,0.0,0.0,0.0
310,0.0,0.0,0.0,-0.249498046875,0.0,0.0,0.0,0.0,0.0,0.0,0.703,0.0,0.0,0.0,0.0,0.0,0.0,-0.06637112579930056,0.0,0.0,0.0,0.0,0.0,0.0,-15.252,0.0,0.0,0.0
311,0.0,0.0,0.0,-0.2437138671875,0.0,0.0,0.0,0.0,0.0,0.0,0.626,0.0,0.0,0.0,0.0,0.0,0.0,-0.05449185177810638,0.0,0.0,0.0,0.0,0.0,0.0,-16.808,0.0,0.0,0.0
312,0.0,0.0,0.0,-0.2377763671875,0.0,0.0,0.0,0.0,0.0,0.0,0.583,0.0,0.0,0.0,0.0,0.0,0.0,-0.04256017729473558,0.0,0.0,0.0,0.0,0.0,0.0,-17.08,0.0,0.0,0.0
313,0.0,0.0,0.0,-0.231541015625,0.0,0.0,0.0,0.0,0.0,0.0,0.614,0.0,0.0,0.0,0.0,0.0,0.0,-0.030374117451382823,0.0,0.0,0.0,0.0,0.0,0.0,-15.892,0.0,0.0,0.0
314,0.0,0.0,0.0,-0.225603515625,0.0,0.0,0.0,0.0,0.0,0.0,0.615,0.0,0.0,0.0,0.0,0.0,0.0,-0.018566686247924166,0.0,0.0,0.0,0.0,0.0,0.0,-14.772,0.0,0.0,0.0
315,0.0,0.0,0.0,-0.219955078125,0.0,0.0,0.0,0.0,0.0,0.0,0.581,0.0,0.0,0.0,0.0,0.0,0.0,-0.006546644002413657,0.0,0.0,0.0,0.0,0.0,0.0,-15.48,0.0,0.0,0.0
316,0.0,0.0,0.0,-0.2145947265625,0.0,0.0,0.0,0.0,0.0,0.0,0.566,0.0,0.0,0.0,0.0,0.0,0.0,0.005510643733371719,0.0,0.0,0.0,0.0,0.0,0.0,-16.832,0.0,0.0,0.0
317,0.0,0.0,0.0,-0.2093798828125,0.0,0.0,0.0,0.0,0.0,0.0,0.529,0.0,0.0,0.0,0.0,0.0,0.0,1.802444457736711e-05,0.0,0.0,0.0,0.0,0.0,0.0,-16.624,0.0,0.0,0.0
318,0.0,0.0,0.0,-0.203875,0.0,0.0,0.0,0.0,0.0,0.0,0.534,0.0,0.0,0.0,0.0,0.0,0.0,0.011996900213497655,0.0,0.0,0.0,0.0,0.0,0.0,-15.024,0.0,0.0,0.0
319,0.0,0.0,0.0,-0.19837109375,0.0,0.0,0.0,0.0,0.0,0.0,0.554,0.0,0.0,0.0,0.0,0.0,0.0,0.02423713982963805,0.0,0.0,0.0,0.0,0.0,0.0,-14.04,0.0,0.0,0.0
320,0.0,0.0,0.0,-0.1931640625,0.0,0.0,0.0,0.0,0.0,0.0,0.539,0.0,0.0,0.0,0.0,0.0,0.0,0.035977227267240425,0.0,0.0,0.0,0.0,0.0,0.0,-13.88,0.0,0.0,0.0
321,0.0,0.0,0.0,-0.1877958984375,0.0,0.0,0.0,0.0,0.0,0.0,0.526,0.0,0.0,0.0,0.0,0.0,0.0,0.04791283707057686,0.0,0.0,0.0,0.0,0.0,0.0,-14.176,0.0,0.0,0.0
322,0.0,0.0,0.0,-0.1828779296875,0.0,0.0,0.0,0.0,0.0,0.0,0.526,0.0,0.0,0.0,0.0,0.0,0.0,0.06009954546090756,0.0,0.0,0.0,0.0,0.0,0.0,-14.336,0.0,0.0,0.0
323,0.0,0.0,0.0,-0.178095703125,0.0,0.0,0.0,0.0,0.0,0.0,0.49,0.0,0.0,0.0,0.0,0.0,0.0,0.07187724784020702,0.0,0.0,0.0,0.0,0.0,0.0,-12.896,0.0,0.0,0.0
324,0.0,0.0,0.0,-0.1727353515625,0.0,0.0,0.0,0.0,0.0,0.0,0.505,0.0,0.0,0.0,0.0,0.0,0.0,0.08373768817401159,0.0,0.0,0.0,0.0,0.0,0.0,-12.212,0.0,0.0,0.0
325,0.0,0.0,0.0,-0.167673828125,0.0,0.0,0.0,0.0,0.0,0.0,0.525,0.0,0.0,0.0,0.0,0.0,0.0,0.09574843618267918,0.0,0.0,0.0,0.0,0.0,0.0,-12.532,0.0,0.0,0.0
326,0.0,0.0,0.0,-0.1625927734375,0.0,0.0,0.0,0.0,0.0,0.0,0.506,0.0,0.0,0.0,0.0,0.0,0.0,0.10758174137907124,0.0,0.0,0.0,0.0,0.0,0.0,-13.08,0.0,0.0,0.0
327,0.0,0.0,0.0,-0.1572333984375,0.0,0.0,0.0,0.0,0.0,0.0,0.53,0.0,0.0,0.0,0.0,0.0,0.0,0.11927326765184927,0.0,0.0,0.0,0.0,0.0,0.0,-14.084,0.0,0.0,0.0
328,0.0,0.0,0.0,-0.1524599609375,0.0,0.0,0.0,0.0,0.0,0.0,0.509,0.0,0.0,0.0,0.0,0.0,0.0,0.13106999153917406,0.0,0.0,0.0,0.0,0.0,0.0,-13.628,0.0,0.0,0.0
329,0.0,0.0,0.0,-0.1469560546875,0.0,0.0,0.0,0.0,0.0,0.0,0.508,0.0,0.0,0.0,0.0,0.0,0.0,0.1427403815651285,0.0,0.0,0.0,0.0,0.0,0.0,-12.964,0.0,0.0,0.0
330,0.0,0.0,0.0,-0.1411533203125,0.0,0.0,0.0,0.0,0.0,0.0,0.57,0.0,0.0,0.0,0.0,0.0,0.0,0.15425178168271567,0.0,0.0,0.0,0.0,0.0,0.0,-12.92,0.0,0.0,0.0
331,0.0,0.0,0.0,-0.135658203125,0.0,0.0,0.0,0.0,0.0,0.0,0.578,0.0,0.0,0.0,0.0,0.0,0.0,0.16588142412772672,0.0,0.0,0.0,0.0,0.0,0.0,-12.784,0.0,0.0,0.0
332,0.0,0.0,0.0,-0.1245048828125,0.0,0.0,0.0,0.0,0.0,0.0,0.563,0.0,0.0,0.0,0.0,0.0,0.0,0.29609508708352017,0.0,0.0,0.0,0.0,0.0,0.0,-12.852,0.0,0.0,0.0
333,0.0,0.0,0.0,-0.1245048828125,0.0,0.0,0.0,0.0,0.0,0.0,0.563,0.0,0.0,0.0,0.0,0.0,0.0,0.30094370836010853,0.0,0.0,0.0,0.0,0.0,0.0,-12.852,0.0,0.0,0.0
334,0.0,0.0,0.0,-0.1245048828125,0.0,0.0,0.0,0.0,0.0,0.0,0.563,0.0,0.0,0.0,0.0,0.0,0.0,0.31149506819788675,0.0,0.0,0.0,0.0,0.0,0.0,-12.852,0.0,0.0,0.0
335,0.0,0.0,0.0,-0.1245048828125,0.0,0.0,0.0,0.0,0.0,0.0,0.563,0.0,0.0,0.0,0.0,0.0,0.0,0.3216051316469469,0.0,0.0,0.0,0.0,0.0,0.0,-12.852,0.0,0.0,0.0
336,0.0,0.0,0.0,-0.1245048828125,0.0,0.0,0.0,0.0,0.0,0.0,0.563,0.0,0.0,0.0,0.0,0.0,0.0,0.3316997646732917,0.0,0.0,0.0,0.0,0.0,0.0,-12.852,0.0,0.0,0.0
337,0.0,0.0,0.0,-0.1245048828125,0.0,0.0,0.0,0.0,0.0,0.0,0.563,0.0,0.0,0.0,0.0,0.0,0.0,0.34156404611216745,0.0,0.0,0.0,0.0,0.0,0.0,-12.852,0.0,0.0,0.0
338,0.0,0.0,0.0,-0.1245048828125,0.0,0.0,0.0,0.0,0.0,0.0,0.563,0.0,0.0,0.0,0.0,0.0,0.0,0.35133069835492636,0.0,0.0,0.0,0.0,0.0,0.0,-12.852,0.0,0.0,0.0
339,0.0,0.0,0.0,-0.1245048828125,0.0,0.0,0.0,0.0,0.0,0.0,0.563,0.0,0.0,0.0,0.0,0.0,0.0,-0.13973704583633617,0.0,0.0,0.0,0.0,0.0,0.0,-12.852,0.0,0.0,0.0
340,0.0,0.0,0.0,-0.1245048828125,0.0,0.0,0.0,0.0,0.0,0.0,0.563,0.0,0.0,0.0,0.0,0.0,0.0,1.9168853756504743e-05,0.0,0.0,0.0,0.0,0.0,0.0,-12.852,0.0,0.0,0.0
341,0.0,0.0,0.0,-0.1245048828125,0.0,0.0,0.0,0.0,0.0,0.0,0.563,0.0,0.0,0.0,0.0,0.0,0.0,0.012114464517758284,0.0,0.0,0.0,0.0,0.0,0.0,-12.852,0.0,0.0,0.0
342,0.0,0.0,0.0,-0.1245048828125,0.0,0.0,0.0,0.0,0.0,0.0,0.563,0.0,0.0,0.0,0.0,0.0,0.0,0.024161670281892575,0.0,0.0,0.0,0.0,0.0,0.0,-12.852,0.0,0.0,0.0
343,0.0,0.0,0.0,-0.1245048828125,0.0,0.0,0.0,0.0,0.0,0.0,0.563,0.0,0.0,0.0,0.0,0.0,0.0,0.03609945796670381,0.0,0.0,0.0,0.0,0.0,0.0,-12.852,0.0,0.0,0.0
344,0.0,0.0,0.0,-0.1245048828125,0.0,0.0,0.0,0.0,0.0,0.0,0.563,0.0,0.0,0.0,0.0,0.0,0.0,0.04816665062964178,0.0,0.0,0.0,0.0,0.0,0.0,-12.852,0.0,0.0,0.0
345,0.0,0.0,0.0,-0.1245048828125,0.0,0.0,0.0,0.0,0.0,0.0,0.563,0.0,0.0,0.0,0.0,0.0,0.0,0.0600363498462575,0.0,0.0,0.0,0.0,0.0,0.0,-12.852,0.0,0.0,0.0
346,0.0,0.0,0.0,-0.1245048828125,0.0,0.0,0.0,0.0,0.0,0.0,0.563,0.0,0.0,0.0,0.0,0.0,0.0,0.07197041272282682,0.0,0.0,0.0,0.0,0.0,0.0,-12.852,0.0,0.0,0.0
347,0.0,0.0,0.0,-0.1245048828125,0.0,0.0,0.0,0.0,0.0,0.0,0.563,0.0,0.0,0.0,0.0,0.0,0.0,0.08385185744390104,0.0,0.0,0.0,0.0,0.0,0.0,-12.852,0.0,0.0,0.0
348,0.0,0.0,0.0,-0.1245048828125,0.0,0.0,0.0,0.0,0.0,0.0,0.563,0.0,0.0,0.0,0.0,0.0,0.0,0.09572132223978058,0.0,0.0,0.0,0.0,0.0,0.0,-12.852,0.0,0.0,0.0
349,0.0,0.0,0.0,-0.1245048828125,0.0,0.0,0.0,0.0,0.0,0.0,0.563,0.0,0.0,0.0,0.0,0.0,0.0,0.11016877609800516,0.0,0.0,0.0,0.0,0.0,0.0,-12.852,0.0,0.0,0.0
350,0.0,0.0,0.0,-0.1245048828125,0.0,0.0,0.0,0.0,0.0,0.0,0.563,0.0,0.0,0.0,0.0,0.0,0.0,0.119305232205495,0.0,0.0,0.0,0.0,0.0,0.0,-12.852,0.0,0.0,0.0
351,0.0,0.0,0.0,-0.1245048828125,0.0,0.0,0.0,0.0,0.0,0.0,0.563,0.0,0.0,0.0,0.0,0.0,0.0,0.1364162806991234,0.0,0.0,0.0,0.0,0.0,0.0,-12.852,0.0,0.0,0.0
352,0.0,0.0,0.0,-0.1245048828125,0.0,0.0,0.0,0.0,0.0,0.0,0.563,0.0,0.0,0.0,0.0,0.0,0.0,0.14907155078285705,0.0,0.0,0.0,0.0,0.0,0.0,-12.852,0.0,0.0,0.0
353,0.0,0.0,0.0,-0.1245048828125,0.0,0.0,0.0,0.0,0.0,0.0,0.563,0.0,0.0,0.0,0.0,0.0,0.0,0.15550749445310552,0.0,0.0,0.0,0.0,0.0,0.0,-12.852,0.0,0.0,0.0
354,0.0,0.0,0.0,-0.1245048828125,0.0,0.0,0.0,0.0,0.0,0.0,0.563,0.0,0.0,0.0,0.0,0.0,0.0,0.16776971761687312,0.0,0.0,0.0,0.0,0.0,0.0,-12.852,0.0,0.0,0.0
355,0.0,0.0,0.0,-0.1245048828125,0.0,0.0,0.0,0.0,0.0,0.0,0.563,0.0,0.0,0.0,0.0,0.0,0.0,0.17747157433324942,0.0,0.0,0.0,0.0,0.0,0.0,-12.852,0.0,0.0,0.0
356,0.0,0.0,0.0,-0.1245048828125,0.0,0.0,0.0,0.0,0.0,0.0,0.563,0.0,0.0,0.0,0.0,0.0,0.0,0.18885626576855458,0.0,0.0,0.0,0.0,0.0,0.0,-12.852,0.0,0.0,0.0
357,0.0,0.0,0.0,-0.1245048828125,0.0,0.0,0.0,0.0,0.0,0.0,0.563,0.0,0.0,0.0,0.0,0.0,0.0,0.20015788324775616,0.0,0.0,0.0,0.0,0.0,0.0,-12.852,0.0,0.0,0.0
358,0.0,0.0,0.0,-0.1245048828125,0.0,0.0,0.0,0.0,0.0,0.0,0.563,0.0,0.0,0.0,0.0,0.0,0.0,0.2115871087400747,0.0,0.0,0.0,0.0,0.0,0.0,-12.852,0.0,0.0,0.0
359,0.0,0.0,0.0,-0.1245048828125,0.0,0.0,0.0,0.0,0.0,0.0,0.563,0.0,0.0,0.0,0.0,0.0,0.0,0.22267509021167417,0.0,0.0,0.0,0.0,0.0,0.0,-12.852,0.0,0.0,0.0
360,0.0,0.0,0.0,-0.1245048828125,0.0,0.0,0.0,0.0,0.0,0.0,0.563,0.0,0.0,0.0,0.0,0.0,0.0,0.2376096346041548,0.0,0.0,0.0,0.0,0.0,0.0,-12.852,0.0,0.0,0.0
361,0.0,0.0,0.0,-0.1245048828125,0.0,0.0,0.0,0.0,0.0,0.0,0.563,0.0,0.0,0.0,0.0,0.0,0.0,0.24477569305612523,0.0,0.0,0.0,0.0,0.0,0.0,-12.852,0.0,0.0,0.0
362,0.0,0.0,0.0,-0.1245048828125,0.0,0.0,0.0,0.0,0.0,0.0,0.563,0.0,0.0,0.0,0.0,0.0,0.0,0.25563877459894313,0.0,0.0,0.0,0.0,0.0,0.0,-12.852,0.0,0.0,0.0
363,0.0,0.0,0.0,-0.1245048828125,0.0,0.0,0.0,0.0,0.0,0.0,0.563,0.0,0.0,0.0,0.0,0.0,0.0,0.266431435377018,0.0,0.0,0.0,0.0,0.0,0.0,-12.852,0.0,0.0,0.0
364,0.0,0.0,0.0,-0.1245048828125,0.0,0.0,0.0,0.0,0.0,0.0,0.563,0.0,0.0,0.0,0.0,0.0,0.0,0.27733267205524115,0.0,0.0,0.0,0.0,0.0,0.0,-12.852,0.0,0.0,0.0
365,0.0,0.0,0.0,-0.1245048828125,0.0,0.0,0.0,0.0,0.0,0.0,0.563,0.0,0.0,0.0,0.0,0.0,0.0,0.28772060133174165,0.0,0.0,0.0,0.0,0.0,0.0,-12.852,0.0,0.0,0.0
366,0.0,0.0,0.0,-0.1245048828125,0.0,0.0,0.0,0.0,0.0,0.0,0.563,0.0,0.0,0.0,0.0,0.0,0.0,0.2981958520704343,0.0,0.0,0.0,0.0,0.0,0.0,-12.852,0.0,0.0,0.0
367,0.0,0.0,0.0,-0.1245048828125,0.0,0.0,0.0,0.0,0.0,0.0,0.563,0.0,0.0,0.0,0.0,0.0,0.0,0.3087431238248237,0.0,0.0,0.0,0.0,0.0,0.0,-12.852,0.0,0.0,0.0
368,0.0,0.0,0.0,-0.1245048828125,0.0,0.0,0.0,0.0,0.0,0.0,0.563,0.0,0.0,0.0,0.0,0.0,0.0,0.3188205206953411,0.0,0.0,0.0,0.0,0.0,0.0,-12.852,0.0,0.0,0.0
369,0.0,0.0,0.0,-0.1245048828125,0.0,0.0,0.0,0.0,0.0,0.0,0.563,0.0,0.0,0.0,0.0,0.0,0.0,0.32894402093349284,0.0,0.0,0.0,0.0,0.0,0.0,-12.852,0.0,0.0,0.0
370,0.0,0.0,0.0,-0.1245048828125,0.0,0.0,0.0,0.0,0.0,0.0,0.563,0.0,0.0,0.0,0.0,0.0,0.0,0.33899060506242834,0.0,0.0,0.0,0.0,0.0,0.0,-12.852,0.0,0.0,0.0
371,0.0,0.0,0.0,-0.1245048828125,0.0,0.0,0.0,0.0,0.0,0.0,0.563,0.0,0.0,0.0,0.0,0.0,0.0,0.34871883150132754,0.0,0.0,0.0,0.0,0.0,0.0,-12.852,0.0,0.0,0.0
372,0.0,0.0,0.0,-0.1245048828125,0.0,0.0,0.0,0.0,0.0,0.0,0.563,0.0,0.0,0.0,0.0,0.0,0.0,0.3584087571793695,0.0,0.0,0.0,0.0,0.0,0.0,-12.852,0.0,0.0,0.0
373,0.0,0.0,0.0,-0.1245048828125,0.0,0.0,0.0,0.0,0.0,0.0,0.563,0.0,0.0,0.0,0.0,0.0,0.0,0.3680625763558936,0.0,0.0,0.0,0.0,0.0,0.0,-12.852,0.0,0.0,0.0
374,0.0,0.0,0.0,-0.1245048828125,0.0,0.0,0.0,0.0,0.0,0.0,0.563,0.0,0.0,0.0,0.0,0.0,0.0,0.3773887356618056,0.0,0.0,0.0,0.0,0.0,0.0,-12.852,0.0,0.0,0.0
375,0.0,0.0,0.0,-0.1245048828125,0.0,0.0,0.0,0.0,0.0,0.0,0.563,0.0,0.0,0.0,0.0,0.0,0.0,0.386588509859434,0.0,0.0,0.0,0.0,0.0,0.0,-12.852,0.0,0.0,0.0
376,0.0,0.0,0.0,-0.1245048828125,0.0,0.0,0.0,0.0,0.0,0.0,0.563,0.0,0.0,0.0,0.0,0.0,0.0,0.39582576123392127,0.0,0.0,0.0,0.0,0.0,0.0,-12.852,0.0,0.0,0.0
377,0.0,0.0,0.0,-0.1245048828125,0.0,0.0,0.0,0.0,0.0,0.0,0.563,0.0,0.0,0.0,0.0,0.0,0.0,0.40467996271057244,0.0,0.0,0.0,0.0,0.0,0.0,-12.852,0.0,0.0,0.0
378,0.0,0.0,0.0,-0.1245048828125,0.0,0.0,0.0,0.0,0.0,0.0,0.563,0.0,0.0,0.0,0.0,0.0,0.0,0.41339112242134557,0.0,0.0,0.0,0.0,0.0,0.0,-12.852,0.0,0.0,0.0
379,0.0,0.0,0.0,-0.1245048828125,0.0,0.0,0.0,0.0,0.0,0.0,0.563,0.0,0.0,0.0,0.0,0.0,0.0,0.42205641165692687,0.0,0.0,0.0,0.0,0.0,0.0,-12.852,0.0,0.0,0.0
380,0.0,0.0,0.0,-0.1245048828125,0.0,0.0,0.0,0.0,0.0,0.0,0.563,0.0,0.0,0.0,0.0,0.0,0.0,0.4304412407897746,0.0,0.0,0.0,0.0,0.0,0.0,-12.852,0.0,0.0,0.0
381,0.0,0.0,0.0,-0.1245048828125,0.0,0.0,0.0,0.0,0.0,0.0,0.563,0.0,0.0,0.0,0.0,0.0,0.0,0.43871137993251813,0.0,0.0,0.0,0.0,0.0,0.0,-12.852,0.0,0.0,0.0
382,0.0,0.0,0.0,-0.1245048828125,0.0,0.0,0.0,0.0,0.0,0.0,0.563,0.0,0.0,0.0,0.0,0.0,0.0,0.446940579478108,0.0,0.0,0.0,0.0,0.0,0.0,-12.852,0.0,0.0,0.0
383,0.0,0.0,0.0,-0.1245048828125,0.0,0.0,0.0,0.0,0.0,0.0,0.563,0.0,0.0,0.0,0.0,0.0,0.0,0.4547479600281699,0.0,0.0,0.0,0.0,0.0,0.0,-12.852,0.0,0.0,0.0
384,0.0,0.0,0.0,-0.1245048828125,0.0,0.0,0.0,0.0,0.0,0.0,0.563,0.0,0.0,0.0,0.0,0.0,0.0,0.46248693548657793,0.0,0.0,0.0,0.0,0.0,0.0,-12.852,0.0,0.0,0.0
385,0.0,0.0,0.0,-0.1245048828125,0.0,0.0,0.0,0.0,0.0,0.0,0.563,0.0,0.0,0.0,0.0,0.0,0.0,0.470089356938035,0.0,0.0,0.0,0.0,0.0,0.0,-12.852,0.0,0.0,0.0
386,0.0,0.0,0.0,-0.1245048828125,0.0,0.0,0.0,0.0,0.0,0.0,0.563,0.0,0.0,0.0,0.0,0.0,0.0,0.4774838609739046,0.0,0.0,0.0,0.0,0.0,0.0,-12.852,0.0,0.0,0.0
387,0.0,0.0,0.0,-0.1245048828125,0.0,0.0,0.0,0.0,0.0,0.0,0.563,0.0,0.0,0.0,0.0,0.0,0.0,0.48460287364186183,0.0,0.0,0.0,0.0,0.0,0.0,-12.852,0.0,0.0,0.0
388,0.0,0.0,0.0,-0.1245048828125,0.0,0.0,0.0,0.0,0.0,0.0,0.563,0.0,0.0,0.0,0.0,0.0,0.0,0.4916437266900978,0.0,0.0,0.0,0.0,0.0,0.0,-12.852,0.0,0.0,0.0
389,0.0,0.0,0.0,-0.1245048828125,0.0,0.0,0.0,0.0,0.0,0.0,0.563,0.0,0.0,0.0,0.0,0.0,0.0,0.4984695217837636,0.0,0.0,0.0,0.0,0.0,0.0,-12.852,0.0,0.0,0.0
390,0.0,0.0,0.0,-0.1245048828125,0.0,0.0,0.0,0.0,0.0,0.0,0.563,0.0,0.0,0.0,0.0,0.0,0.0,0.5049260238183991,0.0,0.0,0.0,0.0,0.0,0.0,-12.852,0.0,0.0,0.0
391,0.0,0.0,0.0,-0.1245048828125,0.0,0.0,0.0,0.0,0.0,0.0,0.563,0.0,0.0,0.0,0.0,0.0,0.0,0.5113194531509145,0.0,0.0,0.0,0.0,0.0,0.0,-12.852,0.0,0.0,0.0
392,0.0,0.0,0.0,-0.1245048828125,0.0,0.0,0.0,0.0,0.0,0.0,0.563,0.0,0.0,0.0,0.0,0.0,0.0,0.5175531411414276,0.0,0.0,0.0,0.0,0.0,0.0,-12.852,0.0,0.0,0.0
393,0.0,0.0,0.0,-0.1245048828125,0.0,0.0,0.0,0.0,0.0,0.0,0.563,0.0,0.0,0.0,0.0,0.0,0.0,0.5234837506961163,0.0,0.0,0.0,0.0,0.0,0.0,-12.852,0.0,0.0,0.0
394,0.0,0.0,0.0,-0.1245048828125,0.0,0.0,0.0,0.0,0.0,0.0,0.563,0.0,0.0,0.0,0.0,0.0,0.0,0.5292946297486291,0.0,0.0,0.0,0.0,0.0,0.0,-12.852,0.0,0.0,0.0
395,0.0,0.0,0.0,-0.1245048828125,0.0,0.0,0.0,0.0,0.0,0.0,0.563,0.0,0.0,0.0,0.0,0.0,0.0,0.5348245400839421,0.0,0.0,0.0,0.0,0.0,0.0,-12.852,0.0,0.0,0.0
396,0.0,0.0,0.0,-0.1245048828125,0.0,0.0,0.0,0.0,0.0,0.0,0.563,0.0,0.0,0.0,0.0,0.0,0.0,0.5401141972317066,0.0,0.0,0.0,0.0,0.0,0.0,-12.852,0.0,0.0,0.0
397,0.0,0.0,0.0,-0.1245048828125,0.0,0.0,0.0,0.0,0.0,0.0,0.563,0.0,0.0,0.0,0.0,0.0,0.0,0.5452307103807615,0.0,0.0,0.0,0.0,0.0,0.0,-12.852,0.0,0.0,0.0
398,0.0,0.0,0.0,-0.1245048828125,0.0,0.0,0.0,0.0,0.0,0.0,0.563,0.0,0.0,0.0,0.0,0.0,0.0,0.5501819796007905,0.0,0.0,0.0,0.0,0.0,0.0,-12.852,0.0,0.0,0.0
399,0.0,0.0,0.0,-0.1245048828125,0.0,0.0,0.0,0.0,0.0,0.0,0.563,0.0,0.0,0.0,0.0,0.0,0.0,0.5548043192220898,0.0,0.0,0.0,0.0,0.0,0.0,-12.852,0.0,0.0,0.0
400,0.0,0.0,0.0,-0.1245048828125,0.0,0.0,0.0,0.0,0.0,0.0,0.563,0.0,0.0,0.0,0.0,0.0,0.0,0.5592526404007904,0.0,0.0,0.0,0.0,0.0,0.0,-12.852,0.0,0.0,0.0
401,0.0,0.0,0.0,-0.1245048828125,0.0,0.0,0.0,0.0,0.0,0.0,0.563,0.0,0.0,0.0,0.0,0.0,0.0,0.5635177522734814,0.0,0.0,0.0,0.0,0.0,0.0,-12.852,0.0,0.0,0.0
402,0.0,0.0,0.0,-0.1245048828125,0.0,0.0,0.0,0.0,0.0,0.0,0.563,0.0,0.0,0.0,0.0,0.0,0.0,0.5674875439872099,0.0,0.0,0.0,0.0,0.0,0.0,-12.852,0.0,0.0,0.0
403,0.0,0.0,0.0,-0.1245048828125,0.0,0.0,0.0,0.0,0.0,0.0,0.563,0.0,0.0,0.0,0.0,0.0,0.0,0.5712667573883506,0.0,0.0,0.0,0.0,0.0,0.0,-12.852,0.0,0.0,0.0
404,0.0,0.0,0.0,-0.1245048828125,0.0,0.0,0.0,0.0,0.0,0.0,0.563,0.0,0.0,0.0,0.0,0.0,0.0,0.5748460425965736,0.0,0.0,0.0,0.0,0.0,0.0,-12.852,0.0,0.0,0.0
405,0.0,0.0,0.0,-0.1245048828125,0.0,0.0,0.0,0.0,0.0,0.0,0.563,0.0,0.0,0.0,0.0,0.0,0.0,0.5781468027403383,0.0,0.0,0.0,0.0,0.0,0.0,-12.852,0.0,0.0,0.0
406,0.0,0.0,0.0,-0.1245048828125,0.0,0.0,0.0,0.0,0.0,0.0,0.563,0.0,0.0,0.0,0.0,0.0,0.0,0.5812561993338419,0.0,0.0,0.0,0.0,0.0,0.0,-12.852,0.0,0.0,0.0
407,0.0,0.0,0.0,-0.1245048828125,0.0,0.0,0.0,0.0,0.0,0.0,0.563,0.0,0.0,0.0,0.0,0.0,0.0,0.5841307744449561,0.0,0.0,0.0,0.0,0.0,0.0,-12.852,0.0,0.0,0.0
408,0.0,0.0,0.0,-0.1245048828125,0.0,0.0,0.0,0.0,0.0,0.0,0.563,0.0,0.0,0.0,0.0,0.0,0.0,0.5867328424912605,0.0,0.0,0.0,0.0,0.0,0.0,-12.852,0.0,0.0,0.0
409,0.0,0.0,0.0,-0.1245048828125,0.0,0.0,0.0,0.0,0.0,0.0,0.563,0.0,0.0,0.0,0.0,0.0,0.0,0.5891314923313424,0.0,0.0,0.0,0.0,0.0,0.0,-12.852,0.0,0.0,0.0
410,0.0,0.0,0.0,-0.1245048828125,0.0,0.0,0.0,0.0,0.0,0.0,0.563,0.0,0.0,0.0,0.0,0.0,0.0,0.5913181174964595,0.0,0.0,0.0,0.0,0.0,0.0,-12.852,0.0,0.0,0.0
411,0.0,0.0,0.0,-0.1245048828125,0.0,0.0,0.0,0.0,0.0,0.0,0.563,0.0,0.0,0.0,0.0,0.0,0.0,0.5932100055773356,0.0,0.0,0.0,0.0,0.0,0.0,-12.852,0.0,0.0,0.0
412,0.0,0.0,0.0,-0.1245048828125,0.0,0.0,0.0,0.0,0.0,0.0,0.563,0.0,0.0,0.0,0.0,0.0,0.0,0.5948912696612286,0.0,0.0,0.0,0.0,0.0,0.0,-12.852,0.0,0.0,0.0
413,0.0,0.0,0.0,-0.1245048828125,0.0,0.0,0.0,0.0,0.0,0.0,0.563,0.0,0.0,0.0,0.0,0.0,0.0,0.5968343930815408,0.0,0.0,0.0,0.0,0.0,0.0,-12.852,0.0,0.0,0.0
414,0.0,0.0,0.0,-0.1245048828125,0.0,0.0,0.0,0.0,0.0,0.0,0.563,0.0,0.0,0.0,0.0,0.0,0.0,0.5975315678941839,0.0,0.0,0.0,0.0,0.0,0.0,-12.852,0.0,0.0,0.0
415,0.0,0.0,0.0,-0.1245048828125,0.0,0.0,0.0,0.0,0.0,0.0,0.563,0.0,0.0,0.0,0.0,0.0,0.0,0.5985061458479958,0.0,0.0,0.0,0.0,0.0,0.0,-12.852,0.0,0.0,0.0
416,0.0,0.0,0.0,-0.1245048828125,0.0,0.0,0.0,0.0,0.0,0.0,0.563,0.0,0.0,0.0,0.0,0.0,0.0,0.599241249350316,0.0,0.0,0.0,0.0,0.0,0.0,-12.852,0.0,0.0,0.0
417,0.0,0.0,0.0,-0.1245048828125,0.0,0.0,0.0,0.0,0.0,0.0,0.563,0.0,0.0,0.0,0.0,0.0,0.0,0.5997173446505794,0.0,0.0,0.0,0.0,0.0,0.0,-12.852,0.0,0.0,0.0
418,0.0,0.0,0.0,-0.1245048828125,0.0,0.0,0.0,0.0,0.0,0.0,0.563,0.0,0.0,0.0,0.0,0.0,0.0,0.5999656008627934,0.0,0.0,0.0,0.0,0.0,0.0,-12.852,0.0,0.0,0.0
419,0.0,0.0,0.0,-0.1245048828125,0.0,0.0,0.0,0.0,0.0,0.0,0.563,0.0,0.0,0.0,0.0,0.0,0.0,0.5999730164554232,0.0,0.0,0.0,0.0,0.0,0.0,-12.852,0.0,0.0,0.0
420,0.0,0.0,0.0,-0.1245048828125,0.0,0.0,0.0,0.0,0.0,0.0,0.563,0.0,0.0,0.0,0.0,0.0,0.0,0.59974149162399,0.0,0.0,0.0,0.0,0.0,0.0,-12.852,0.0,0.0,0.0
421,0.0,0.0,0.0,-0.1245048828125,0.0,0.0,0.0,0.0,0.0,0.0,0.563,0.0,0.0,0.0,0.0,0.0,0.0,0.5992697065286069,0.0,0.0,0.0,0.0,0.0,0.0,-12.852,0.0,0.0,0.0
422,0.0,0.0,0.0,-0.1245048828125,0.0,0.0,0.0,0.0,0.0,0.0,0.563,0.0,0.0,0.0,0.0,0.0,0.0,0.5985543424252333,0.0,0.0,0.0,0.0,0.0,0.0,-12.852,0.0,0.0,0.0
423,0.0,0.0,0.0,-0.1245048828125,0.0,0.0,0.0,0.0,0.0,0.0,0.563,0.0,0.0,0.0,0.0,0.0,0.0,0.597605294409921,0.0,0.0,0.0,0.0,0.0,0.0,-12.852,0.0,0.0,0.0
424,0.0,0.0,0.0,-0.1245048828125,0.0,0.0,0.0,0.0,0.0,0.0,0.563,0.0,0.0,0.0,0.0,0.0,0.0,0.5964151669212585,0.0,0.0,0.0,0.0,0.0,0.0,-12.852,0.0,0.0,0.0
425,0.0,0.0,0.0,-0.1245048828125,0.0,0.0,0.0,0.0,0.0,0.0,0.563,0.0,0.0,0.0,0.0,0.0,0.0,0.5949706984682473,0.0,0.0,0.0,0.0,0.0,0.0,-12.852,0.0,0.0,0.0
426,0.0,0.0,0.0,-0.1245048828125,0.0,0.0,0.0,0.0,0.0,0.0,0.563,0.0,0.0,0.0,0.0,0.0,0.0,0.593324007899731,0.0,0.0,0.0,0.0,0.0,0.0,-12.852,0.0,0.0,0.0
427,0.0,0.0,0.0,-0.1245048828125,0.0,0.0,0.0,0.0,0.0,0.0,0.563,0.0,0.0,0.0,0.0,0.0,0.0,0.5914233862842427,0.0,0.0,0.0,0.0,0.0,0.0,-12.852,0.0,0.0,0.0
428,0.0,0.0,0.0,-0.1245048828125,0.0,0.0,0.0,0.0,0.0,0.0,0.563,0.0,0.0,0.0,0.0,0.0,0.0,0.5892641344777528,0.0,0.0,0.0,0.0,0.0,0.0,-12.852,0.0,0.0,0.0
429,0.0,0.0,0.0,-0.1245048828125,0.0,0.0,0.0,0.0,0.0,0.0,0.563,0.0,0.0,0.0,0.0,0.0,0.0,0.5869074782937318,0.0,0.0,0.0,0.0,0.0,0.0,-12.852,0.0,0.0,0.0
430,0.0,0.0,0.0,-0.1245048828125,0.0,0.0,0.0,0.0,0.0,0.0,0.563,0.0,0.0,0.0,0.0,0.0,0.0,0.5842976301310665,0.0,0.0,0.0,0.0,0.0,0.0,-12.852,0.0,0.0,0.0
431,0.0,0.0,0.0,-0.1245048828125,0.0,0.0,0.0,0.0,0.0,0.0,0.563,0.0,0.0,0.0,0.0,0.0,0.0,0.5814384875508906,0.0,0.0,0.0,0.0,0.0,0.0,-12.852,0.0,0.0,0.0
432,0.0,0.0,0.0,-0.1245048828125,0.0,0.0,0.0,0.0,0.0,0.0,0.563,0.0,0.0,0.0,0.0,0.0,0.0,0.5783740954104194,0.0,0.0,0.0,0.0,0.0,0.0,-12.852,0.0,0.0,0.0
433,0.0,0.0,0.0,-0.1245048828125,0.0,0.0,0.0,0.0,0.0,0.0,0.563,0.0,0.0,0.0,0.0,0.0,0.0,0.5750594876057993,0.0,0.0,0.0,0.0,0.0,0.0,-12.852,0.0,0.0,0.0
434,0.0,0.0,0.0,-0.1245048828125,0.0,0.0,0.0,0.0,0.0,0.0,0.563,0.0,0.0,0.0,0.0,0.0,0.0,0.5714832395223838,0.0,0.0,0.0,0.0,0.0,0.0,-12.852,0.0,0.0,0.0
435,0.0,0.0,0.0,-0.1245048828125,0.0,0.0,0.0,0.0,0.0,0.0,0.563,0.0,0.0,0.0,0.0,0.0,0.0,0.5677257179459257,0.0,0.0,0.0,0.0,0.0,0.0,-12.852,0.0,0.0,0.0
436,0.0,0.0,0.0,-0.1245048828125,0.0,0.0,0.0,0.0,0.0,0.0,0.563,0.0,0.0,0.0,0.0,0.0,0.0,0.5637482003064986,0.0,0.0,0.0,0.0,0.0,0.0,-12.852,0.0,0.0,0.0
437,0.0,0.0,0.0,-0.1245048828125,0.0,0.0,0.0,0.0,0.0,0.0,0.563,0.0,0.0,0.0,0.0,0.0,0.0,0.5595056819697137,0.0,0.0,0.0,0.0,0.0,0.0,-12.852,0.0,0.0,0.0
438,0.0,0.0,0.0,-0.1245048828125,0.0,0.0,0.0,0.0,0.0,0.0,0.563,0.0,0.0,0.0,0.0,0.0,0.0,0.5550777122374941,0.0,0.0,0.0,0.0,0.0,0.0,-12.852,0.0,0.0,0.0
439,0.0,0.0,0.0,-0.1245048828125,0.0,0.0,0.0,0.0,0.0,0.0,0.563,0.0,0.0,0.0,0.0,0.0,0.0,0.5504049247620875,0.0,0.0,0.0,0.0,0.0,0.0,-12.852,0.0,0.0,0.0
440,0.0,0.0,0.0,-0.1245048828125,0.0,0.0,0.0,0.0,0.0,0.0,0.563,0.0,0.0,0.0,0.0,0.0,0.0,0.5454764948066174,0.0,0.0,0.0,0.0,0.0,0.0,-12.852,0.0,0.0,0.0
441,0.0,0.0,0.0,-0.1245048828125,0.0,0.0,0.0,0.0,0.0,0.0,0.563,0.0,0.0,0.0,0.0,0.0,0.0,0.5404091855839047,0.0,0.0,0.0,0.0,0.0,0.0,-12.852,0.0,0.0,0.0
442,0.0,0.0,0.0,-0.1245048828125,0.0,0.0,0.0,0.0,0.0,0.0,0.563,0.0,0.0,0.0,0.0,0.0,0.0,0.5350572920831238,0.0,0.0,0.0,0.0,0.0,0.0,-12.852,0.0,0.0,0.0
443,0.0,0.0,0.0,-0.1245048828125,0.0,0.0,0.0,0.0,0.0,0.0,0.563,0.0,0.0,0.0,0.0,0.0,0.0,0.5294918042688997,0.0,0.0,0.0,0.0,0.0,0.0,-12.852,0.0,0.0,0.0
444,0.0,0.0,0.0,-0.1245048828125,0.0,0.0,0.0,0.0,0.0,0.0,0.563,0.0,0.0,0.0,0.0,0.0,0.0,0.52376331127341,0.0,0.0,0.0,0.0,0.0,0.0,-12.852,0.0,0.0,0.0
445,0.0,0.0,0.0,-0.1245048828125,0.0,0.0,0.0,0.0,0.0,0.0,0.563,0.0,0.0,0.0,0.0,0.0,0.0,0.5178752329809366,0.0,0.0,0.0,0.0,0.0,0.0,-12.852,0.0,0.0,0.0
446,0.0,0.0,0.0,-0.1245048828125,0.0,0.0,0.0,0.0,0.0,0.0,0.563,0.0,0.0,0.0,0.0,0.0,0.0,0.5116864988269423,0.0,0.0,0.0,0.0,0.0,0.0,-12.852,0.0,0.0,0.0
447,0.0,0.0,0.0,-0.1245048828125,0.0,0.0,0.0,0.0,0.0,0.0,0.563,0.0,0.0,0.0,0.0,0.0,0.0,0.5052992833128483,0.0,0.0,0.0,0.0,0.0,0.0,-12.852,0.0,0.0,0.0
448,0.0,0.0,0.0,-0.1245048828125,0.0,0.0,0.0,0.0,0.0,0.0,0.563,0.0,0.0,0.0,0.0,0.0,0.0,0.49879673762151266,0.0,0.0,0.0,0.0,0.0,0.0,-12.852,0.0,0.0,0.0
449,0.0,0.0,0.0,-0.1245048828125,0.0,0.0,0.0,0.0,0.0,0.0,0.563,0.0,0.0,0.0,0.0,0.0,0.0,0.49197089509902764,0.0,0.0,0.0,0.0,0.0,0.0,-12.852,0.0,0.0,0.0
450,0.0,0.0,0.0,-0.1245048828125,0.0,0.0,0.0,0.0,0.0,0.0,0.563,0.0,0.0,0.0,0.0,0.0,0.0,0.4848059562763772,0.0,0.0,0.0,0.0,0.0,0.0,-12.852,0.0,0.0,0.0
451,0.0,0.0,0.0,-0.1245048828125,0.0,0.0,0.0,0.0,0.0,0.0,0.563,0.0,0.0,0.0,0.0,0.0,0.0,0.47785943859890556,0.0,0.0,0.0,0.0,0.0,0.0,-12.852,0.0,0.0,0.0
452,0.0,0.0,0.0,-0.1245048828125,0.0,0.0,0.0,0.0,0.0,0.0,0.563,0.0,0.0,0.0,0.0,0.0,0.0,0.4705113581483978,0.0,0.0,0.0,0.0,0.0,0.0,-12.852,0.0,0.0,0.0
453,0.0,0.0,0.0,-0.1245048828125,0.0,0.0,0.0,0.0,0.0,0.0,0.563,0.0,0.0,0.0,0.0,0.0,0.0,0.46295452142534543,0.0,0.0,0.0,0.0,0.0,0.0,-12.852,0.0,0.0,0.0
454,0.0,0.0,0.0,-0.1245048828125,0.0,0.0,0.0,0.0,0.0,0.0,0.563,0.0,0.0,0.0,0.0,0.0,0.0,0.45529089084966085,0.0,0.0,0.0,0.0,0.0,0.0,-12.852,0.0,0.0,0.0
455,0.0,0.0,0.0,-0.1245048828125,0.0,0.0,0.0,0.0,0.0,0.0,0.563,0.0,0.0,0.0,0.0,0.0,0.0,0.4473471749903502,0.0,0.0,0.0,0.0,0.0,0.0,-12.852,0.0,0.0,0.0
456,0.0,0.0,0.0,-0.1245048828125,0.0,0.0,0.0,0.0,0.0,0.0,0.563,0.0,0.0,0.0,0.0,0.0,0.0,0.4392308331090254,0.0,0.0,0.0,0.0,0.0,0.0,-12.852,0.0,0.0,0.0
457,0.0,0.0,0.0,-0.1245048828125,0.0,0.0,0.0,0.0,0.0,0.0,0.563,0.0,0.0,0.0,0.0,0.0,0.0,0.4310236847647663,0.0,0.0,0.0,0.0,0.0,0.0,-12.852,0.0,0.0,0.0
458,0.0,0.0,0.0,-0.1245048828125,0.0,0.0,0.0,0.0,0.0,0.0,0.563,0.0,0.0,0.0,0.0,0.0,0.0,0.42259014760915226,0.0,0.0,0.0,0.0,0.0,0.0,-12.852,0.0,0.0,0.0
459,0.0,0.0,0.0,-0.1245048828125,0.0,0.0,0.0,0.0,0.0,0.0,0.563,0.0,0.0,0.0,0.0,0.0,0.0,0.41389106658016367,0.0,0.0,0.0,0.0,0.0,0.0,-12.852,0.0,0.0,0.0
460,0.0,0.0,0.0,-0.1245048828125,0.0,0.0,0.0,0.0,0.0,0.0,0.563,0.0,0.0,0.0,0.0,0.0,0.0,0.40521330498652636,0.0,0.0,0.0,0.0,0.0,0.0,-12.852,0.0,0.0,0.0
461,0.0,0.0,0.0,-0.1245048828125,0.0,0.0,0.0,0.0,0.0,0.0,0.563,0.0,0.0,0.0,0.0,0.0,0.0,0.3962485832510903,0.0,0.0,0.0,0.0,0.0,0.0,-12.852,0.0,0.0,0.0
462,0.0,0.0,0.0,-0.1245048828125,0.0,0.0,0.0,0.0,0.0,0.0,0.563,0.0,0.0,0.0,0.0,0.0,0.0,0.3871160685057366,0.0,0.0,0.0,0.0,0.0,0.0,-12.852,0.0,0.0,0.0
463,0.0,0.0,0.0,-0.1245048828125,0.0,0.0,0.0,0.0,0.0,0.0,0.563,0.0,0.0,0.0,0.0,0.0,0.0,0.3779325929013219,0.0,0.0,0.0,0.0,0.0,0.0,-12.852,0.0,0.0,0.0
464,0.0,0.0,0.0,-0.1245048828125,0.0,0.0,0.0,0.0,0.0,0.0,0.563,0.0,0.0,0.0,0.0,0.0,0.0,0.3685836855340599,0.0,0.0,0.0,0.0,0.0,0.0,-12.852,0.0,0.0,0.0
465,0.0,0.0,0.0,-0.1245048828125,0.0,0.0,0.0,0.0,0.0,0.0,0.563,0.0,0.0,0.0,0.0,0.0,0.0,0.3589686717442139,0.0,0.0,0.0,0.0,0.0,0.0,-12.852,0.0,0.0,0.0
466,0.0,0.0,0.0,-0.1245048828125,0.0,0.0,0.0,0.0,0.0,0.0,0.563,0.0,0.0,0.0,0.0,0.0,0.0,0.3493465300435228,0.0,0.0,0.0,0.0,0.0,0.0,-12.852,0.0,0.0,0.0
467,0.0,0.0,0.0,-0.1245048828125,0.0,0.0,0.0,0.0,0.0,0.0,0.563,0.0,0.0,0.0,0.0,0.0,0.0,0.3384350092723163,0.0,0.0,0.0,0.0,0.0,0.0,-12.852,0.0,0.0,0.0
468,0.0,0.0,0.0,-0.1245048828125,0.0,0.0,0.0,0.0,0.0,0.0,0.563,0.0,0.0,0.0,0.0,0.0,0.0,0.3286490158345868,0.0,0.0,0.0,0.0,0.0,0.0,-12.852,0.0,0.0,0.0
469,0.0,0.0,0.0,-0.1245048828125,0.0,0.0,0.0,0.0,0.0,0.0,0.563,0.0,0.0,0.0,0.0,0.0,0.0,0.31937349481226757,0.0,0.0,0.0,0.0,0.0,0.0,-12.852,0.0,0.0,0.0
470,0.0,0.0,0.0,-0.1245048828125,0.0,0.0,0.0,0.0,0.0,0.0,0.563,0.0,0.0,0.0,0.0,0.0,0.0,0.30884303995726514,0.0,0.0,0.0,0.0,0.0,0.0,-12.852,0.0,0.0,0.0
471,0.0,0.0,0.0,-0.1245048828125,0.0,0.0,0.0,0.0,0.0,0.0,0.563,0.0,0.0,0.0,0.0,0.0,0.0,0.29890371087165685,0.0,0.0,0.0,0.0,0.0,0.0,-12.852,0.0,0.0,0.0
472,0.0,0.0,0.0,-0.1245048828125,0.0,0.0,0.0,0.0,0.0,0.0,0.563,0.0,0.0,0.0,0.0,0.0,0.0,0.28846077606446174,0.0,0.0,0.0,0.0,0.0,0.0,-12.852,0.0,0.0,0.0
473,0.0,0.0,0.0,-0.1245048828125,0.0,0.0,0.0,0.0,0.0,0.0,0.563,0.0,0.0,0.0,0.0,0.0,0.0,0.277852969448354,0.0,0.0,0.0,0.0,0.0,0.0,-12.852,0.0,0.0,0.0
474,0.0,0.0,0.0,-0.1245048828125,0.0,0.0,0.0,0.0,0.0,0.0,0.563,0.0,0.0,0.0,0.0,0.0,0.0,0.2671526393960893,0.0,0.0,0.0,0.0,0.0,0.0,-12.852,0.0,0.0,0.0
475,0.0,0.0,0.0,-0.1245048828125,0.0,0.0,0.0,0.0,0.0,0.0,0.563,0.0,0.0,0.0,0.0,0.0,0.0,0.256354053290704,0.0,0.0,0.0,0.0,0.0,0.0,-12.852,0.0,0.0,0.0
476,0.0,0.0,0.0,-0.1245048828125,0.0,0.0,0.0,0.0,0.0,0.0,0.563,0.0,0.0,0.0,0.0,0.0,0.0,0.2454450775884383,0.0,0.0,0.0,0.0,0.0,0.0,-12.852,0.0,0.0,0.0
477,0.0,0.0,0.0,-0.1245048828125,0.0,0.0,0.0,0.0,0.0,0.0,0.563,0.0,0.0,0.0,0.0,0.0,0.0,0.23438614875455477,0.0,0.0,0.0,0.0,0.0,0.0,-12.852,0.0,0.0,0.0
478,0.0,0.0,0.0,-0.1245048828125,0.0,0.0,0.0,0.0,0.0,0.0,0.563,0.0,0.0,0.0,0.0,0.0,0.0,0.22331582216524357,0.0,0.0,0.0,0.0,0.0,0.0,-12.852,0.0,0.0,0.0
479,0.0,0.0,0.0,-0.1245048828125,0.0,0.0,0.0,0.0,0.0,0.0,0.563,0.0,0.0,0.0,0.0,0.0,0.0,0.2121351200666264,0.0,0.0,0.0,0.0,0.0,0.0,-12.852,0.0,0.0,0.0
480,0.0,0.0,0.0,-0.1245048828125,0.0,0.0,0.0,0.0,0.0,0.0,0.563,0.0,0.0,0.0,0.0,0.0,0.0,0.200785737501696,0.0,0.0,0.0,0.0,0.0,0.0,-12.852,0.0,0.0,0.0
481,0.0,0.0,0.0,-0.1245048828125,0.0,0.0,0.0,0.0,0.0,0.0,0.563,0.0,0.0,0.0,0.0,0.0,0.0,0.18952941697165726,0.0,0.0,0.0,0.0,0.0,0.0,-12.852,0.0,0.0,0.0
482,0.0,0.0,0.0,-0.1245048828125,0.0,0.0,0.0,0.0,0.0,0.0,0.563,0.0,0.0,0.0,0.0,0.0,0.0,0.17811353209676214,0.0,0.0,0.0,0.0,0.0,0.0,-12.852,0.0,0.0,0.0
483,0.0,0.0,0.0,-0.1245048828125,0.0,0.0,0.0,0.0,0.0,0.0,0.563,0.0,0.0,0.0,0.0,0.0,0.0,0.16630269155697003,0.0,0.0,0.0,0.0,0.0,0.0,-12.852,0.0,0.0,0.0
484,0.0,0.0,0.0,-0.1245048828125,0.0,0.0,0.0,0.0,0.0,0.0,0.563,0.0,0.0,0.0,0.0,0.0,0.0,0.1546568834696792,0.0,0.0,0.0,0.0,0.0,0.0,-12.852,0.0,0.0,0.0
485,0.0,0.0,0.0,-0.1245048828125,0.0,0.0,0.0,0.0,0.0,0.0,0.563,0.0,0.0,0.0,0.0,0.0,0.0,0.14345509033918497,0.0,0.0,0.0,0.0,0.0,0.0,-12.852,0.0,0.0,0.0
486,0.0,0.0,0.0,-0.1245048828125,0.0,0.0,0.0,0.0,0.0,0.0,0.563,0.0,0.0,0.0,0.0,0.0,0.0,0.13177522466337843,0.0,0.0,0.0,0.0,0.0,0.0,-12.852,0.0,0.0,0.0
487,0.0,0.0,0.0,-0.1245048828125,0.0,0.0,0.0,0.0,0.0,0.0,0.563,0.0,0.0,0.0,0.0,0.0,0.0,0.12004741615221565,0.0,0.0,0.0,0.0,0.0,0.0,-12.852,0.0,0.0,0.0
488,0.0,0.0,0.0,-0.1245048828125,0.0,0.0,0.0,0.0,0.0,0.0,0.563,0.0,0.0,0.0,0.0,0.0,0.0,0.10826318710419888,0.0,0.0,0.0,0.0,0.0,0.0,-12.852,0.0,0.0,0.0
489,0.0,0.0,0.0,-0.1245048828125,0.0,0.0,0.0,0.0,0.0,0.0,0.563,0.0,0.0,0.0,0.0,0.0,0.0,0.09613007656275419,0.0,0.0,0.0,0.0,0.0,0.0,-12.852,0.0,0.0,0.0
490,0.0,0.0,0.0,-0.1245048828125,0.0,0.0,0.0,0.0,0.0,0.0,0.563,0.0,0.0,0.0,0.0,0.0,0.0,0.0845638060860018,0.0,0.0,0.0,0.0,0.0,0.0,-12.852,0.0,0.0,0.0
491,0.0,0.0,0.0,-0.1245048828125,0.0,0.0,0.0,0.0,0.0,0.0,0.563,0.0,0.0,0.0,0.0,0.0,0.0,0.07266265108341564,0.0,0.0,0.0,0.0,0.0,0.0,-12.852,0.0,0.0,0.0
492,0.0,0.0,0.0,-0.1245048828125,0.0,0.0,0.0,0.0,0.0,0.0,0.563,0.0,0.0,0.0,0.0,0.0,0.0,0.060744363049139695,0.0,0.0,0.0,0.0,0.0,0.0,-12.852,0.0,0.0,0.0
493,0.0,0.0,0.0,-0.1245048828125,0.0,0.0,0.0,0.0,0.0,0.0,0.563,0.0,0.0,0.0,0.0,0.0,0.0,0.04879467821813212,0.0,0.0,0.0,0.0,0.0,0.0,-12.852,0.0,0.0,0.0
494,0.0,0.0,0.0,-0.1245048828125,0.0,0.0,0.0,0.0,0.0,0.0,0.563,0.0,0.0,0.0,0.0,0.0,0.0,0.036724957539477195,0.0,0.0,0.0,0.0,0.0,0.0,-12.852,0.0,0.0,0.0
495,0.0,0.0,0.0,-0.1245048828125,0.0,0.0,0.0,0.0,0.0,0.0,0.563,0.0,0.0,0.0,0.0,0.0,0.0,0.02483668494838196,0.0,0.0,0.0,0.0,0.0,0.0,-12.852,0.0,0.0,0.0
496,0.0,0.0,0.0,-0.1245048828125,0.0,0.0,0.0,0.0,0.0,0.0,0.563,0.0,0.0,0.0,0.0,0.0,0.0,0.012847676564267914,0.0,0.0,0.0,0.0,0.0,0.0,-12.852,0.0,0.0,0.0
497,0.0,0.0,0.0,-0.1245048828125,0.0,0.0,0.0,0.0,0.0,0.0,0.563,0.0,0.0,0.0,0.0,0.0,0.0,0.0008523890473302473,0.0,0.0,0.0,0.0,0.0,0.0,-12.852,0.0,0.0,0.0
498,0.0,0.0,0.0,-0.1245048828125,0.0,0.0,0.0,0.0,0.0,0.0,0.563,0.0,0.0,0.0,0.0,0.0,0.0,-0.011154395264996305,0.0,0.0,0.0,0.0,0.0,0.0,-12.852,0.0,0.0,0.0
499,0.0,0.0,0.0,-0.1245048828125,0.0,0.0,0.0,0.0,0.0,0.0,0.563,0.0,0.0,0.0,0.0,0.0,0.0,-0.02315156643823375,0.0,0.0,0.0,0.0,0.0,0.0,-12.852,0.0,0.0,0.0
500,0.0,0.0,0.0,-0.1245048828125,0.0,0.0,0.0,0.0,0.0,0.0,0.563,0.0,0.0,0.0,0.0,0.0,0.0,-0.035148042111347144,0.0,0.0,0.0,0.0,0.0,0.0,-12.852,0.0,0.0,0.0
501,0.0,0.0,0.0,-0.1245048828125,0.0,0.0,0.0,0.0,0.0,0.0,0.563,0.0,0.0,0.0,0.0,0.0,0.0,-0.04726676668712941,0.0,0.0,0.0,0.0,0.0,0.0,-12.852,0.0,0.0,0.0
502,0.0,0.0,0.0,-0.1245048828125,0.0,0.0,0.0,0.0,0.0,0.0,0.563,0.0,0.0,0.0,0.0,0.0,0.0,-0.059026747126927466,0.0,0.0,0.0,0.0,0.0,0.0,-12.852,0.0,0.0,0.0
503,0.0,0.0,0.0,-0.1245048828125,0.0,0.0,0.0,0.0,0.0,0.0,0.563,0.0,0.0,0.0,0.0,0.0,0.0,-0.07096671982084446,0.0,0.0,0.0,0.0,0.0,0.0,-12.852,0.0,0.0,0.0
504,0.0,0.0,0.0,-0.1245048828125,0.0,0.0,0.0,0.0,0.0,0.0,0.563,0.0,0.0,0.0,0.0,0.0,0.0,-0.08285927022688926,0.0,0.0,0.0,0.0,0.0,0.0,-12.852,0.0,0.0,0.0
505,0.0,0.0,0.0,-0.1245048828125,0.0,0.0,0.0,0.0,0.0,0.0,0.563,0.0,0.0,0.0,0.0,0.0,0.0,-0.09472465671186771,0.0,0.0,0.0,0.0,0.0,0.0,-12.852,0.0,0.0,0.0
506,0.0,0.0,0.0,-0.1245048828125,0.0,0.0,0.0,0.0,0.0,0.0,0.563,0.0,0.0,0.0,0.0,0.0,0.0,-0.10658511085864225,0.0,0.0,0.0,0.0,0.0,0.0,-12.852,0.0,0.0,0.0
507,0.0,0.0,0.0,-0.1245048828125,0.0,0.0,0.0,0.0,0.0,0.0,0.563,0.0,0.0,0.0,0.0,0.0,0.0,-0.11837915049929214,0.0,0.0,0.0,0.0,0.0,0.0,-12.852,0.0,0.0,0.0
508,0.0,0.0,0.0,-0.1245048828125,0.0,0.0,0.0,0.0,0.0,0.0,0.563,0.0,0.0,0.0,0.0,0.0,0.0,-0.1301305316611749,0.0,0.0,0.0,0.0,0.0,0.0,-12.852,0.0,0.0,0.0
509,0.0,0.0,0.0,-0.1245048828125,0.0,0.0,0.0,0.0,0.0,0.0,0.563,0.0,0.0,0.0,0.0,0.0,0.0,-0.14181919435282928,0.0,0.0,0.0,0.0,0.0,0.0,-12.852,0.0,0.0,0.0
510,0.0,0.0,0.0,-0.1245048828125,0.0,0.0,0.0,0.0,0.0,0.0,0.563,0.0,0.0,0.0,0.0,0.0,0.0,-0.15342456801066462,0.0,0.0,0.0,0.0,0.0,0.0,-12.852,0.0,0.0,0.0
511,0.0,0.0,0.0,-0.1245048828125,0.0,0.0,0.0,0.0,0.0,0.0,0.563,0.0,0.0,0.0,0.0,0.0,0.0,-0.1650161553706361,0.0,0.0,0.0,0.0,0.0,0.0,-12.852,0.0,0.0,0.0
512,0.0,0.0,0.0,-0.1245048828125,0.0,0.0,0.0,0.0,0.0,0.0,0.563,0.0,0.0,0.0,0.0,0.0,0.0,-0.1765412131394248,0.0,0.0,0.0,0.0,0.0,0.0,-12.852,0.0,0.0,0.0
513,0.0,0.0,0.0,-0.1245048828125,0.0,0.0,0.0,0.0,0.0,0.0,0.563,0.0,0.0,0.0,0.0,0.0,0.0,-0.18800354152130605,0.0,0.0,0.0,0.0,0.0,0.0,-12.852,0.0,0.0,0.0
514,0.0,0.0,0.0,-0.1245048828125,0.0,0.0,0.0,0.0,0.0,0.0,0.563,0.0,0.0,0.0,0.0,0.0,0.0,-0.19952951245901462,0.0,0.0,0.0,0.0,0.0,0.0,-12.852,0.0,0.0,0.0
515,0.0,0.0,0.0,-0.1245048828125,0.0,0.0,0.0,0.0,0.0,0.0,0.563,0.0,0.0,0.0,0.0,0.0,0.0,-0.2106408613674,0.0,0.0,0.0,0.0,0.0,0.0,-12.852,0.0,0.0,0.0
516,0.0,0.0,0.0,-0.1245048828125,0.0,0.0,0.0,0.0,0.0,0.0,0.563,0.0,0.0,0.0,0.0,0.0,0.0,-0.22178845060022304,0.0,0.0,0.0,0.0,0.0,0.0,-12.852,0.0,0.0,0.0
517,0.0,0.0,0.0,-0.1245048828125,0.0,0.0,0.0,0.0,0.0,0.0,0.563,0.0,0.0,0.0,0.0,0.0,0.0,-0.2329532574379099,0.0,0.0,0.0,0.0,0.0,0.0,-12.852,0.0,0.0,0.0
518,0.0,0.0,0.0,-0.1245048828125,0.0,0.0,0.0,0.0,0.0,0.0,0.563,0.0,0.0,0.0,0.0,0.0,0.0,-0.2439600987344192,0.0,0.0,0.0,0.0,0.0,0.0,-12.852,0.0,0.0,0.0
519,0.0,0.0,0.0,-0.1245048828125,0.0,0.0,0.0,0.0,0.0,0.0,0.563,0.0,0.0,0.0,0.0,0.0,0.0,-0.25504658582059603,0.0,0.0,0.0,0.0,0.0,0.0,-12.852,0.0,0.0,0.0
520,0.0,0.0,0.0,-0.1245048828125,0.0,0.0,0.0,0.0,0.0,0.0,0.563,0.0,0.0,0.0,0.0,0.0,0.0,-0.2659975268685429,0.0,0.0,0.0,0.0,0.0,0.0,-12.852,0.0,0.0,0.0
521,0.0,0.0,0.0,-0.1245048828125,0.0,0.0,0.0,0.0,0.0,0.0,0.563,0.0,0.0,0.0,0.0,0.0,0.0,-0.27652422037513913,0.0,0.0,0.0,0.0,0.0,0.0,-12.852,0.0,0.0,0.0
522,0.0,0.0,0.0,-0.1245048828125,0.0,0.0,0.0,0.0,0.0,0.0,0.563,0.0,0.0,0.0,0.0,0.0,0.0,-0.28703890044997477,0.0,0.0,0.0,0.0,0.0,0.0,-12.852,0.0,0.0,0.0
523,0.0,0.0,0.0,-0.1245048828125,0.0,0.0,0.0,0.0,0.0,0.0,0.563,0.0,0.0,0.0,0.0,0.0,0.0,-0.29755998900611924,0.0,0.0,0.0,0.0,0.0,0.0,-12.852,0.0,0.0,0.0
524,0.0,0.0,0.0,-0.1245048828125,0.0,0.0,0.0,0.0,0.0,0.0,0.563,0.0,0.0,0.0,0.0,0.0,0.0,-0.30794711217705345,0.0,0.0,0.0,0.0,0.0,0.0,-12.852,0.0,0.0,0.0
525,0.0,0.0,0.0,-0.1245048828125,0.0,0.0,0.0,0.0,0.0,0.0,0.563,0.0,0.0,0.0,0.0,0.0,0.0,-0.31817451555201065,0.0,0.0,0.0,0.0,0.0,0.0,-12.852,0.0,0.0,0.0
526,0.0,0.0,0.0,-0.1245048828125,0.0,0.0,0.0,0.0,0.0,0.0,0.563,0.0,0.0,0.0,0.0,0.0,0.0,-0.3282468641651462,0.0,0.0,0.0,0.0,0.0,0.0,-12.852,0.0,0.0,0.0
527,0.0,0.0,0.0,-0.1245048828125,0.0,0.0,0.0,0.0,0.0,0.0,0.563,0.0,0.0,0.0,0.0,0.0,0.0,-0.3382295339526599,0.0,0.0,0.0,0.0,0.0,0.0,-12.852,0.0,0.0,0.0
528,0.0,0.0,0.0,-0.1245048828125,0.0,0.0,0.0,0.0,0.0,0.0,0.563,0.0,0.0,0.0,0.0,0.0,0.0,-0.3480012986848966,0.0,0.0,0.0,0.0,0.0,0.0,-12.852,0.0,0.0,0.0
529,0.0,0.0,0.0,-0.1245048828125,0.0,0.0,0.0,0.0,0.0,0.0,0.563,0.0,0.0,0.0,0.0,0.0,0.0,-0.3576708149058217,0.0,0.0,0.0,0.0,0.0,0.0,-12.852,0.0,0.0,0.0
530,0.0,0.0,0.0,-0.1245048828125,0.0,0.0,0.0,0.0,0.0,0.0,0.563,0.0,0.0,0.0,0.0,0.0,0.0,-0.36720782636575844,0.0,0.0,0.0,0.0,0.0,0.0,-12.852,0.0,0.0,0.0
531,0.0,0.0,0.0,-0.1245048828125,0.0,0.0,0.0,0.0,0.0,0.0,0.563,0.0,0.0,0.0,0.0,0.0,0.0,-0.37666779115038523,0.0,0.0,0.0,0.0,0.0,0.0,-12.852,0.0,0.0,0.0
532,0.0,0.0,0.0,-0.1245048828125,0.0,0.0,0.0,0.0,0.0,0.0,0.563,0.0,0.0,0.0,0.0,0.0,0.0,-0.38592616900779747,0.0,0.0,0.0,0.0,0.0,0.0,-12.852,0.0,0.0,0.0
533,0.0,0.0,0.0,-0.1245048828125,0.0,0.0,0.0,0.0,0.0,0.0,0.563,0.0,0.0,0.0,0.0,0.0,0.0,-0.39496880312862825,0.0,0.0,0.0,0.0,0.0,0.0,-12.852,0.0,0.0,0.0
534,0.0,0.0,0.0,-0.1245048828125,0.0,0.0,0.0,0.0,0.0,0.0,0.563,0.0,0.0,0.0,0.0,0.0,0.0,-0.4039624485451024,0.0,0.0,0.0,0.0,0.0,0.0,-12.852,0.0,0.0,0.0
535,0.0,0.0,0.0,-0.1245048828125,0.0,0.0,0.0,0.0,0.0,0.0,0.563,0.0,0.0,0.0,0.0,0.0,0.0,-0.41278433468548353,0.0,0.0,0.0,0.0,0.0,0.0,-12.852,0.0,0.0,0.0
536,0.0,0.0,0.0,-0.1245048828125,0.0,0.0,0.0,0.0,0.0,0.0,0.563,0.0,0.0,0.0,0.0,0.0,0.0,-0.42139881583302485,0.0,0.0,0.0,0.0,0.0,0.0,-12.852,0.0,0.0,0.0
537,0.0,0.0,0.0,-0.1245048828125,0.0,0.0,0.0,0.0,0.0,0.0,0.563,0.0,0.0,0.0,0.0,0.0,0.0,-0.42989149159087947,0.0,0.0,0.0,0.0,0.0,0.0,-12.852,0.0,0.0,0.0
538,0.0,0.0,0.0,-0.1245048828125,0.0,0.0,0.0,0.0,0.0,0.0,0.563,0.0,0.0,0.0,0.0,0.0,0.0,-0.43816796132351693,0.0,0.0,0.0,0.0,0.0,0.0,-12.852,0.0,0.0,0.0
539,0.0,0.0,0.0,-0.1245048828125,0.0,0.0,0.0,0.0,0.0,0.0,0.563,0.0,0.0,0.0,0.0,0.0,0.0,-0.44625995888336883,0.0,0.0,0.0,0.0,0.0,0.0,-12.852,0.0,0.0,0.0
540,0.0,0.0,0.0,-0.1245048828125,0.0,0.0,0.0,0.0,0.0,0.0,0.563,0.0,0.0,0.0,0.0,0.0,0.0,-0.45420789163548825,0.0,0.0,0.0,0.0,0.0,0.0,-12.852,0.0,0.0,0.0
541,0.0,0.0,0.0,-0.1245048828125,0.0,0.0,0.0,0.0,0.0,0.0,0.563,0.0,0.0,0.0,0.0,0.0,0.0,-0.4619381482572711,0.0,0.0,0.0,0.0,0.0,0.0,-12.852,0.0,0.0,0.0
542,0.0,0.0,0.0,-0.1245048828125,0.0,0.0,0.0,0.0,0.0,0.0,0.563,0.0,0.0,0.0,0.0,0.0,0.0,-0.46949507076586944,0.0,0.0,0.0,0.0,0.0,0.0,-12.852,0.0,0.0,0.0
543,0.0,0.0,0.0,-0.1245048828125,0.0,0.0,0.0,0.0,0.0,0.0,0.563,0.0,0.0,0.0,0.0,0.0,0.0,-0.47688996337148304,0.0,0.0,0.0,0.0,0.0,0.0,-12.852,0.0,0.0,0.0
544,0.0,0.0,0.0,-0.1245048828125,0.0,0.0,0.0,0.0,0.0,0.0,0.563,0.0,0.0,0.0,0.0,0.0,0.0,-0.4840629383754864,0.0,0.0,0.0,0.0,0.0,0.0,-12.852,0.0,0.0,0.0
545,0.0,0.0,0.0,-0.1245048828125,0.0,0.0,0.0,0.0,0.0,0.0,0.563,0.0,0.0,0.0,0.0,0.0,0.0,-0.49106982042960884,0.0,0.0,0.0,0.0,0.0,0.0,-12.852,0.0,0.0,0.0
546,0.0,0.0,0.0,-0.1245048828125,0.0,0.0,0.0,0.0,0.0,0.0,0.563,0.0,0.0,0.0,0.0,0.0,0.0,-0.49785458518072473,0.0,0.0,0.0,0.0,0.0,0.0,-12.852,0.0,0.0,0.0
547,0.0,0.0,0.0,-0.1245048828125,0.0,0.0,0.0,0.0,0.0,0.0,0.563,0.0,0.0,0.0,0.0,0.0,0.0,-0.5044638234951673,0.0,0.0,0.0,0.0,0.0,0.0,-12.852,0.0,0.0,0.0
548,0.0,0.0,0.0,-0.1245048828125,0.0,0.0,0.0,0.0,0.0,0.0,0.563,0.0,0.0,0.0,0.0,0.0,0.0,-0.5108258338844385,0.0,0.0,0.0,0.0,0.0,0.0,-12.852,0.0,0.0,0.0
549,0.0,0.0,0.0,-0.1245048828125,0.0,0.0,0.0,0.0,0.0,0.0,0.563,0.0,0.0,0.0,0.0,0.0,0.0,-0.5171261780165503,0.0,0.0,0.0,0.0,0.0,0.0,-12.852,0.0,0.0,0.0
550,0.0,0.0,0.0,-0.1245048828125,0.0,0.0,0.0,0.0,0.0,0.0,0.563,0.0,0.0,0.0,0.0,0.0,0.0,-0.5229932307235322,0.0,0.0,0.0,0.0,0.0,0.0,-12.852,0.0,0.0,0.0
551,0.0,0.0,0.0,-0.1245048828125,0.0,0.0,0.0,0.0,0.0,0.0,0.563,0.0,0.0,0.0,0.0,0.0,0.0,-0.5287696692073921,0.0,0.0,0.0,0.0,0.0,0.0,-12.852,0.0,0.0,0.0
552,0.0,0.0,0.0,-0.1245048828125,0.0,0.0,0.0,0.0,0.0,0.0,0.563,0.0,0.0,0.0,0.0,0.0,0.0,-0.5343318743219649,0.0,0.0,0.0,0.0,0.0,0.0,-12.852,0.0,0.0,0.0
553,0.0,0.0,0.0,-0.1245048828125,0.0,0.0,0.0,0.0,0.0,0.0,0.563,0.0,0.0,0.0,0.0,0.0,0.0,-0.5396956950712587,0.0,0.0,0.0,0.0,0.0,0.0,-12.852,0.0,0.0,0.0
554,0.0,0.0,0.0,-0.1245048828125,0.0,0.0,0.0,0.0,0.0,0.0,0.563,0.0,0.0,0.0,0.0,0.0,0.0,-0.5448175686252944,0.0,0.0,0.0,0.0,0.0,0.0,-12.852,0.0,0.0,0.0
555,0.0,0.0,0.0,-0.1245048828125,0.0,0.0,0.0,0.0,0.0,0.0,0.563,0.0,0.0,0.0,0.0,0.0,0.0,-0.5497423709509158,0.0,0.0,0.0,0.0,0.0,0.0,-12.852,0.0,0.0,0.0
556,0.0,0.0,0.0,-0.1245048828125,0.0,0.0,0.0,0.0,0.0,0.0,0.563,0.0,0.0,0.0,0.0,0.0,0.0,-0.5544287973752506,0.0,0.0,0.0,0.0,0.0,0.0,-12.852,0.0,0.0,0.0
557,0.0,0.0,0.0,-0.1245048828125,0.0,0.0,0.0,0.0,0.0,0.0,0.563,0.0,0.0,0.0,0.0,0.0,0.0,-0.5589061717353931,0.0,0.0,0.0,0.0,0.0,0.0,-12.852,0.0,0.0,0.0
558,0.0,0.0,0.0,-0.1245048828125,0.0,0.0,0.0,0.0,0.0,0.0,0.563,0.0,0.0,0.0,0.0,0.0,0.0,-0.5631582842347648,0.0,0.0,0.0,0.0,0.0,0.0,-12.852,0.0,0.0,0.0
559,0.0,0.0,0.0,-0.1245048828125,0.0,0.0,0.0,0.0,0.0,0.0,0.563,0.0,0.0,0.0,0.0,0.0,0.0,-0.5671887303881153,0.0,0.0,0.0,0.0,0.0,0.0,-12.852,0.0,0.0,0.0
560,0.0,0.0,0.0,-0.1245048828125,0.0,0.0,0.0,0.0,0.0,0.0,0.563,0.0,0.0,0.0,0.0,0.0,0.0,-0.5709900076350689,0.0,0.0,0.0,0.0,0.0,0.0,-12.852,0.0,0.0,0.0
561,0.0,0.0,0.0,-0.1245048828125,0.0,0.0,0.0,0.0,0.0,0.0,0.563,0.0,0.0,0.0,0.0,0.0,0.0,-0.5745677113133943,0.0,0.0,0.0,0.0,0.0,0.0,-12.852,0.0,0.0,0.0
562,0.0,0.0,0.0,-0.1245048828125,0.0,0.0,0.0,0.0,0.0,0.0,0.563,0.0,0.0,0.0,0.0,0.0,0.0,-0.5778992680181242,0.0,0.0,0.0,0.0,0.0,0.0,-12.852,0.0,0.0,0.0
563,0.0,0.0,0.0,-0.1245048828125,0.0,0.0,0.0,0.0,0.0,0.0,0.563,0.0,0.0,0.0,0.0,0.0,0.0,-0.5810118876735254,0.0,0.0,0.0,0.0,0.0,0.0,-12.852,0.0,0.0,0.0
564,0.0,0.0,0.0,-0.1245048828125,0.0,0.0,0.0,0.0,0.0,0.0,0.563,0.0,0.0,0.0,0.0,0.0,0.0,-0.5838893756466498,0.0,0.0,0.0,0.0,0.0,0.0,-12.852,0.0,0.0,0.0
565,0.0,0.0,0.0,-0.1245048828125,0.0,0.0,0.0,0.0,0.0,0.0,0.563,0.0,0.0,0.0,0.0,0.0,0.0,-0.5865332642734322,0.0,0.0,0.0,0.0,0.0,0.0,-12.852,0.0,0.0,0.0
566,0.0,0.0,0.0,-0.1245048828125,0.0,0.0,0.0,0.0,0.0,0.0,0.563,0.0,0.0,0.0,0.0,0.0,0.0,-0.5889512554373554,0.0,0.0,0.0,0.0,0.0,0.0,-12.852,0.0,0.0,0.0
567,0.0,0.0,0.0,-0.1245048828125,0.0,0.0,0.0,0.0,0.0,0.0,0.563,0.0,0.0,0.0,0.0,0.0,0.0,-0.5911373118317816,0.0,0.0,0.0,0.0,0.0,0.0,-12.852,0.0,0.0,0.0
568,0.0,0.0,0.0,-0.1245048828125,0.0,0.0,0.0,0.0,0.0,0.0,0.563,0.0,0.0,0.0,0.0,0.0,0.0,-0.5930771574633805,0.0,0.0,0.0,0.0,0.0,0.0,-12.852,0.0,0.0,0.0
569,0.0,0.0,0.0,-0.1245048828125,0.0,0.0,0.0,0.0,0.0,0.0,0.563,0.0,0.0,0.0,0.0,0.0,0.0,-0.5947941994526275,0.0,0.0,0.0,0.0,0.0,0.0,-12.852,0.0,0.0,0.0
570,0.0,0.0,0.0,-0.1245048828125,0.0,0.0,0.0,0.0,0.0,0.0,0.563,0.0,0.0,0.0,0.0,0.0,0.0,-0.5962523322586208,0.0,0.0,0.0,0.0,0.0,0.0,-12.852,0.0,0.0,0.0
571,0.0,0.0,0.0,-0.1245048828125,0.0,0.0,0.0,0.0,0.0,0.0,0.563,0.0,0.0,0.0,0.0,0.0,0.0,-0.5974685012416603,0.0,0.0,0.0,0.0,0.0,0.0,-12.852,0.0,0.0,0.0
572,0.0,0.0,0.0,-0.1245048828125,0.0,0.0,0.0,0.0,0.0,0.0,0.563,0.0,0.0,0.0,0.0,0.0,0.0,-0.5984345437460447,0.0,0.0,0.0,0.0,0.0,0.0,-12.852,0.0,0.0,0.0
573,0.0,0.0,0.0,-0.1245048828125,0.0,0.0,0.0,0.0,0.0,0.0,0.563,0.0,0.0,0.0,0.0,0.0,0.0,-0.5991833359665029,0.0,0.0,0.0,0.0,0.0,0.0,-12.852,0.0,0.0,0.0
574,0.0,0.0,0.0,-0.1245048828125,0.0,0.0,0.0,0.0,0.0,0.0,0.563,0.0,0.0,0.0,0.0,0.0,0.0,-0.599692468098501,0.0,0.0,0.0,0.0,0.0,0.0,-12.852,0.0,0.0,0.0
575,0.0,0.0,0.0,-0.1245048828125,0.0,0.0,0.0,0.0,0.0,0.0,0.563,0.0,0.0,0.0,0.0,0.0,0.0,-0.5999567519223304,0.0,0.0,0.0,0.0,0.0,0.0,-12.852,0.0,0.0,0.0
576,0.0,0.0,0.0,-0.1245048828125,0.0,0.0,0.0,0.0,0.0,0.0,0.563,0.0,0.0,0.0,0.0,0.0,0.0,-0.5999809193710286,0.0,0.0,0.0,0.0,0.0,0.0,-12.852,0.0,0.0,0.0
577,0.0,0.0,0.0,-0.1245048828125,0.0,0.0,0.0,0.0,0.0,0.0,0.563,0.0,0.0,0.0,0.0,0.0,0.0,-0.5997656974676179,0.0,0.0,0.0,0.0,0.0,0.0,-12.852,0.0,0.0,0.0
578,0.0,0.0,0.0,-0.1245048828125,0.0,0.0,0.0,0.0,0.0,0.0,0.563,0.0,0.0,0.0,0.0,0.0,0.0,-0.5993087304909431,0.0,0.0,0.0,0.0,0.0,0.0,-12.852,0.0,0.0,0.0
579,0.0,0.0,0.0,-0.1245048828125,0.0,0.0,0.0,0.0,0.0,0.0,0.563,0.0,0.0,0.0,0.0,0.0,0.0,-0.5986100142807144,0.0,0.0,0.0,0.0,0.0,0.0,-12.852,0.0,0.0,0.0
580,0.0,0.0,0.0,-0.1245048828125,0.0,0.0,0.0,0.0,0.0,0.0,0.563,0.0,0.0,0.0,0.0,0.0,0.0,-0.5976790870902847,0.0,0.0,0.0,0.0,0.0,0.0,-12.852,0.0,0.0,0.0
581,0.0,0.0,0.0,-0.1245048828125,0.0,0.0,0.0,0.0,0.0,0.0,0.563,0.0,0.0,0.0,0.0,0.0,0.0,-0.5964711985969289,0.0,0.0,0.0,0.0,0.0,0.0,-12.852,0.0,0.0,0.0
582,0.0,0.0,0.0,-0.1245048828125,0.0,0.0,0.0,0.0,0.0,0.0,0.563,0.0,0.0,0.0,0.0,0.0,0.0,-0.5950941886437802,0.0,0.0,0.0,0.0,0.0,0.0,-12.852,0.0,0.0,0.0
583,0.0,0.0,0.0,-0.1245048828125,0.0,0.0,0.0,0.0,0.0,0.0,0.563,0.0,0.0,0.0,0.0,0.0,0.0,-0.5934581760243637,0.0,0.0,0.0,0.0,0.0,0.0,-12.852,0.0,0.0,0.0
584,0.0,0.0,0.0,-0.1245048828125,0.0,0.0,0.0,0.0,0.0,0.0,0.563,0.0,0.0,0.0,0.0,0.0,0.0,-0.5915547775406113,0.0,0.0,0.0,0.0,0.0,0.0,-12.852,0.0,0.0,0.0
585,0.0,0.0,0.0,-0.1245048828125,0.0,0.0,0.0,0.0,0.0,0.0,0.563,0.0,0.0,0.0,0.0,0.0,0.0,-0.5894345985543369,0.0,0.0,0.0,0.0,0.0,0.0,-12.852,0.0,0.0,0.0
586,0.0,0.0,0.0,-0.1245048828125,0.0,0.0,0.0,0.0,0.0,0.0,0.563,0.0,0.0,0.0,0.0,0.0,0.0,-0.5870559793825733,0.0,0.0,0.0,0.0,0.0,0.0,-12.852,0.0,0.0,0.0
587,0.0,0.0,0.0,-0.1245048828125,0.0,0.0,0.0,0.0,0.0,0.0,0.563,0.0,0.0,0.0,0.0,0.0,0.0,-0.5844913533969106,0.0,0.0,0.0,0.0,0.0,0.0,-12.852,0.0,0.0,0.0
588,0.0,0.0,0.0,-0.1245048828125,0.0,0.0,0.0,0.0,0.0,0.0,0.563,0.0,0.0,0.0,0.0,0.0,0.0,-0.5816394294922963,0.0,0.0,0.0,0.0,0.0,0.0,-12.852,0.0,0.0,0.0
589,0.0,0.0,0.0,-0.1245048828125,0.0,0.0,0.0,0.0,0.0,0.0,0.563,0.0,0.0,0.0,0.0,0.0,0.0,-0.5785230620284352,0.0,0.0,0.0,0.0,0.0,0.0,-12.852,0.0,0.0,0.0
590,0.0,0.0,0.0,-0.1245048828125,0.0,0.0,0.0,0.0,0.0,0.0,0.563,0.0,0.0,0.0,0.0,0.0,0.0,-0.5752956107748632,0.0,0.0,0.0,0.0,0.0,0.0,-12.852,0.0,0.0,0.0
591,0.0,0.0,0.0,-0.1245048828125,0.0,0.0,0.0,0.0,0.0,0.0,0.563,0.0,0.0,0.0,0.0,0.0,0.0,-0.5717477887022308,0.0,0.0,0.0,0.0,0.0,0.0,-12.852,0.0,0.0,0.0
592,0.0,0.0,0.0,-0.1245048828125,0.0,0.0,0.0,0.0,0.0,0.0,0.563,0.0,0.0,0.0,0.0,0.0,0.0,-0.5679669143076872,0.0,0.0,0.0,0.0,0.0,0.0,-12.852,0.0,0.0,0.0
593,0.0,0.0,0.0,-0.1245048828125,0.0,0.0,0.0,0.0,0.0,0.0,0.563,0.0,0.0,0.0,0.0,0.0,0.0,-0.5640284034900521,0.0,0.0,0.0,0.0,0.0,0.0,-12.852,0.0,0.0,0.0
594,0.0,0.0,0.0,-0.1245048828125,0.0,0.0,0.0,0.0,0.0,0.0,0.563,0.0,0.0,0.0,0.0,0.0,0.0,-0.5598436259374654,0.0,0.0,0.0,0.0,0.0,0.0,-12.852,0.0,0.0,0.0
595,0.0,0.0,0.0,-0.1245048828125,0.0,0.0,0.0,0.0,0.0,0.0,0.563,0.0,0.0,0.0,0.0,0.0,0.0,-0.5554088808750928,0.0,0.0,0.0,0.0,0.0,0.0,-12.852,0.0,0.0,0.0
596,0.0,0.0,0.0,-0.1245048828125,0.0,0.0,0.0,0.0,0.0,0.0,0.563,0.0,0.0,0.0,0.0,0.0,0.0,-0.5507456362669854,0.0,0.0,0.0,0.0,0.0,0.0,-12.852,0.0,0.0,0.0
597,0.0,0.0,0.0,-0.1245048828125,0.0,0.0,0.0,0.0,0.0,0.0,0.563,0.0,0.0,0.0,0.0,0.0,0.0,-0.5458603187943419,0.0,0.0,0.0,0.0,0.0,0.0,-12.852,0.0,0.0,0.0
598,0.0,0.0,0.0,-0.1245048828125,0.0,0.0,0.0,0.0,0.0,0.0,0.563,0.0,0.0,0.0,0.0,0.0,0.0,-0.5407919983040501,0.0,0.0,0.0,0.0,0.0,0.0,-12.852,0.0,0.0,0.0
599,0.0,0.0,0.0,-0.1245048828125,0.0,0.0,0.0,0.0,0.0,0.0,0.563,0.0,0.0,0.0,0.0,0.0,0.0,-0.5354538222934836,0.0,0.0,0.0,0.0,0.0,0.0,-12.852,0.0,0.0,0.0
600,0.0,0.0,0.0,-0.1245048828125,0.0,0.0,0.0,0.0,0.0,0.0,0.563,0.0,0.0,0.0,0.0,0.0,0.0,-0.529985022608391,0.0,0.0,0.0,0.0,0.0,0.0,-12.852,0.0,0.0,0.0
601,0.0,0.0,0.0,-0.1245048828125,0.0,0.0,0.0,0.0,0.0,0.0,0.563,0.0,0.0,0.0,0.0,0.0,0.0,-0.524228851948841,0.0,0.0,0.0,0.0,0.0,0.0,-12.852,0.0,0.0,0.0
602,0.0,0.0,0.0,-0.1245048828125,0.0,0.0,0.0,0.0,0.0,0.0,0.563,0.0,0.0,0.0,0.0,0.0,0.0,-0.518320867266792,0.0,0.0,0.0,0.0,0.0,0.0,-12.852,0.0,0.0,0.0
603,0.0,0.0,0.0,-0.1245048828125,0.0,0.0,0.0,0.0,0.0,0.0,0.563,0.0,0.0,0.0,0.0,0.0,0.0,-0.5120743161439073,0.0,0.0,0.0,0.0,0.0,0.0,-12.852,0.0,0.0,0.0
604,0.0,0.0,0.0,-0.1245048828125,0.0,0.0,0.0,0.0,0.0,0.0,0.563,0.0,0.0,0.0,0.0,0.0,0.0,-0.5058054949312625,0.0,0.0,0.0,0.0,0.0,0.0,-12.852,0.0,0.0,0.0
605,0.0,0.0,0.0,-0.1245048828125,0.0,0.0,0.0,0.0,0.0,0.0,0.563,0.0,0.0,0.0,0.0,0.0,0.0,-0.49927330909090256,0.0,0.0,0.0,0.0,0.0,0.0,-12.852,0.0,0.0,0.0
606,0.0,0.0,0.0,-0.1245048828125,0.0,0.0,0.0,0.0,0.0,0.0,0.563,0.0,0.0,0.0,0.0,0.0,0.0,-0.49255637869007657,0.0,0.0,0.0,0.0,0.0,0.0,-12.852,0.0,0.0,0.0
607,0.0,0.0,0.0,-0.1245048828125,0.0,0.0,0.0,0.0,0.0,0.0,0.563,0.0,0.0,0.0,0.0,0.0,0.0,-0.4856101424700866,0.0,0.0,0.0,0.0,0.0,0.0,-12.852,0.0,0.0,0.0
608,0.0,0.0,0.0,-0.1245048828125,0.0,0.0,0.0,0.0,0.0,0.0,0.563,0.0,0.0,0.0,0.0,0.0,0.0,-0.4784569529617321,0.0,0.0,0.0,0.0,0.0,0.0,-12.852,0.0,0.0,0.0
609,0.0,0.0,0.0,-0.1245048828125,0.0,0.0,0.0,0.0,0.0,0.0,0.563,0.0,0.0,0.0,0.0,0.0,0.0,-0.47107029262160205,0.0,0.0,0.0,0.0,0.0,0.0,-12.852,0.0,0.0,0.0
610,0.0,0.0,0.0,-0.1245048828125,0.0,0.0,0.0,0.0,0.0,0.0,0.563,0.0,0.0,0.0,0.0,0.0,0.0,-0.4634521235385375,0.0,0.0,0.0,0.0,0.0,0.0,-12.852,0.0,0.0,0.0
611,0.0,0.0,0.0,-0.1245048828125,0.0,0.0,0.0,0.0,0.0,0.0,0.563,0.0,0.0,0.0,0.0,0.0,0.0,-0.4558900529066869,0.0,0.0,0.0,0.0,0.0,0.0,-12.852,0.0,0.0,0.0
612,0.0,0.0,0.0,-0.1245048828125,0.0,0.0,0.0,0.0,0.0,0.0,0.563,0.0,0.0,0.0,0.0,0.0,0.0,-0.44800499007163047,0.0,0.0,0.0,0.0,0.0,0.0,-12.852,0.0,0.0,0.0
613,0.0,0.0,0.0,-0.1245048828125,0.0,0.0,0.0,0.0,0.0,0.0,0.563,0.0,0.0,0.0,0.0,0.0,0.0,-0.43993852703670305,0.0,0.0,0.0,0.0,0.0,0.0,-12.852,0.0,0.0,0.0
614,0.0,0.0,0.0,-0.1245048828125,0.0,0.0,0.0,0.0,0.0,0.0,0.563,0.0,0.0,0.0,0.0,0.0,0.0,-0.43167881871645825,0.0,0.0,0.0,0.0,0.0,0.0,-12.852,0.0,0.0,0.0
615,0.0,0.0,0.0,-0.1245048828125,0.0,0.0,0.0,0.0,0.0,0.0,0.563,0.0,0.0,0.0,0.0,0.0,0.0,-0.42322808005909357,0.0,0.0,0.0,0.0,0.0,0.0,-12.852,0.0,0.0,0.0
616,0.0,0.0,0.0,-0.1245048828125,0.0,0.0,0.0,0.0,0.0,0.0,0.563,0.0,0.0,0.0,0.0,0.0,0.0,-0.4146674255756048,0.0,0.0,0.0,0.0,0.0,0.0,-12.852,0.0,0.0,0.0
617,0.0,0.0,0.0,-0.1245048828125,0.0,0.0,0.0,0.0,0.0,0.0,0.563,0.0,0.0,0.0,0.0,0.0,0.0,-0.40590157892210005,0.0,0.0,0.0,0.0,0.0,0.0,-12.852,0.0,0.0,0.0
618,0.0,0.0,0.0,-0.1245048828125,0.0,0.0,0.0,0.0,0.0,0.0,0.563,0.0,0.0,0.0,0.0,0.0,0.0,-0.39699723140698956,0.0,0.0,0.0,0.0,0.0,0.0,-12.852,0.0,0.0,0.0
619,0.0,0.0,0.0,-0.1245048828125,0.0,0.0,0.0,0.0,0.0,0.0,0.563,0.0,0.0,0.0,0.0,0.0,0.0,-0.3879271464435155,0.0,0.0,0.0,0.0,0.0,0.0,-12.852,0.0,0.0,0.0
620,0.0,0.0,0.0,-0.1245048828125,0.0,0.0,0.0,0.0,0.0,0.0,0.563,0.0,0.0,0.0,0.0,0.0,0.0,-0.37867792147775653,0.0,0.0,0.0,0.0,0.0,0.0,-12.852,0.0,0.0,0.0
621,0.0,0.0,0.0,-0.1245048828125,0.0,0.0,0.0,0.0,0.0,0.0,0.563,0.0,0.0,0.0,0.0,0.0,0.0,-0.3689872712995478,0.0,0.0,0.0,0.0,0.0,0.0,-12.852,0.0,0.0,0.0
622,0.0,0.0,0.0,-0.1245048828125,0.0,0.0,0.0,0.0,0.0,0.0,0.563,0.0,0.0,0.0,0.0,0.0,0.0,-0.35975802527110085,0.0,0.0,0.0,0.0,0.0,0.0,-12.852,0.0,0.0,0.0
623,0.0,0.0,0.0,-0.1245048828125,0.0,0.0,0.0,0.0,0.0,0.0,0.563,0.0,0.0,0.0,0.0,0.0,0.0,-0.3500714801112404,0.0,0.0,0.0,0.0,0.0,0.0,-12.852,0.0,0.0,0.0
624,0.0,0.0,0.0,-0.1245048828125,0.0,0.0,0.0,0.0,0.0,0.0,0.563,0.0,0.0,0.0,0.0,0.0,0.0,-0.3402195976195201,0.0,0.0,0.0,0.0,0.0,0.0,-12.852,0.0,0.0,0.0
625,0.0,0.0,0.0,-0.1245048828125,0.0,0.0,0.0,0.0,0.0,0.0,0.563,0.0,0.0,0.0,0.0,0.0,0.0,-0.33020386404102514,0.0,0.0,0.0,0.0,0.0,0.0,-12.852,0.0,0.0,0.0
626,0.0,0.0,0.0,-0.1245048828125,0.0,0.0,0.0,0.0,0.0,0.0,0.563,0.0,0.0,0.0,0.0,0.0,0.0,-0.32011921352891454,0.0,0.0,0.0,0.0,0.0,0.0,-12.852,0.0,0.0,0.0
627,0.0,0.0,0.0,-0.1245048828125,0.0,0.0,0.0,0.0,0.0,0.0,0.563,0.0,0.0,0.0,0.0,0.0,0.0,-0.3100329221306982,0.0,0.0,0.0,0.0,0.0,0.0,-12.852,0.0,0.0,0.0
628,0.0,0.0,0.0,-0.1245048828125,0.0,0.0,0.0,0.0,0.0,0.0,0.563,0.0,0.0,0.0,0.0,0.0,0.0,-0.29964571911850374,0.0,0.0,0.0,0.0,0.0,0.0,-12.852,0.0,0.0,0.0
629,0.0,0.0,0.0,-0.1245048828125,0.0,0.0,0.0,0.0,0.0,0.0,0.563,0.0,0.0,0.0,0.0,0.0,0.0,-0.2889649679454619,0.0,0.0,0.0,0.0,0.0,0.0,-12.852,0.0,0.0,0.0
630,0.0,0.0,0.0,-0.1245048828125,0.0,0.0,0.0,0.0,0.0,0.0,0.563,0.0,0.0,0.0,0.0,0.0,0.0,-0.27866239530425246,0.0,0.0,0.0,0.0,0.0,0.0,-12.852,0.0,0.0,0.0
631,0.0,0.0,0.0,-0.1245048828125,0.0,0.0,0.0,0.0,0.0,0.0,0.563,0.0,0.0,0.0,0.0,0.0,0.0,-0.26786952220723015,0.0,0.0,0.0,0.0,0.0,0.0,-12.852,0.0,0.0,0.0
632,0.0,0.0,0.0,-0.1245048828125,0.0,0.0,0.0,0.0,0.0,0.0,0.563,0.0,0.0,0.0,0.0,0.0,0.0,-0.25714514519473936,0.0,0.0,0.0,0.0,0.0,0.0,-12.852,0.0,0.0,0.0
633,0.0,0.0,0.0,-0.1245048828125,0.0,0.0,0.0,0.0,0.0,0.0,0.563,0.0,0.0,0.0,0.0,0.0,0.0,-0.24612427147490032,0.0,0.0,0.0,0.0,0.0,0.0,-12.852,0.0,0.0,0.0
634,0.0,0.0,0.0,-0.1245048828125,0.0,0.0,0.0,0.0,0.0,0.0,0.563,0.0,0.0,0.0,0.0,0.0,0.0,-0.2352090002677988,0.0,0.0,0.0,0.0,0.0,0.0,-12.852,0.0,0.0,0.0
635,0.0,0.0,0.0,-0.1245048828125,0.0,0.0,0.0,0.0,0.0,0.0,0.563,0.0,0.0,0.0,0.0,0.0,0.0,-0.2241011729385793,0.0,0.0,0.0,0.0,0.0,0.0,-12.852,0.0,0.0,0.0
636,0.0,0.0,0.0,-0.1245048828125,0.0,0.0,0.0,0.0,0.0,0.0,0.563,0.0,0.0,0.0,0.0,0.0,0.0,-0.21292662419990457,0.0,0.0,0.0,0.0,0.0,0.0,-12.852,0.0,0.0,0.0
637,0.0,0.0,0.0,-0.1245048828125,0.0,0.0,0.0,0.0,0.0,0.0,0.563,0.0,0.0,0.0,0.0,0.0,0.0,-0.2015901268096872,0.0,0.0,0.0,0.0,0.0,0.0,-12.852,0.0,0.0,0.0
638,0.0,0.0,0.0,-0.1245048828125,0.0,0.0,0.0,0.0,0.0,0.0,0.563,0.0,0.0,0.0,0.0,0.0,0.0,-0.19033688574695,0.0,0.0,0.0,0.0,0.0,0.0,-12.852,0.0,0.0,0.0
639,0.0,0.0,0.0,-0.1245048828125,0.0,0.0,0.0,0.0,0.0,0.0,0.563,0.0,0.0,0.0,0.0,0.0,0.0,-0.17868234448127746,0.0,0.0,0.0,0.0,0.0,0.0,-12.852,0.0,0.0,0.0
640,0.0,0.0,0.0,-0.1245048828125,0.0,0.0,0.0,0.0,0.0,0.0,0.563,0.0,0.0,0.0,0.0,0.0,0.0,-0.1675396878236343,0.0,0.0,0.0,0.0,0.0,0.0,-12.852,0.0,0.0,0.0
641,0.0,0.0,0.0,-0.1245048828125,0.0,0.0,0.0,0.0,0.0,0.0,0.563,0.0,0.0,0.0,0.0,0.0,0.0,-0.1559240524711836,0.0,0.0,0.0,0.0,0.0,0.0,-12.852,0.0,0.0,0.0
642,0.0,0.0,0.0,-0.1245048828125,0.0,0.0,0.0,0.0,0.0,0.0,0.563,0.0,0.0,0.0,0.0,0.0,0.0,-0.14432232451773952,0.0,0.0,0.0,0.0,0.0,0.0,-12.852,0.0,0.0,0.0
643,0.0,0.0,0.0,-0.1245048828125,0.0,0.0,0.0,0.0,0.0,0.0,0.563,0.0,0.0,0.0,0.0,0.0,0.0,-0.13252016911630216,0.0,0.0,0.0,0.0,0.0,0.0,-12.852,0.0,0.0,0.0
644,0.0,0.0,0.0,-0.1245048828125,0.0,0.0,0.0,0.0,0.0,0.0,0.563,0.0,0.0,0.0,0.0,0.0,0.0,-0.12089898240266522,0.0,0.0,0.0,0.0,0.0,0.0,-12.852,0.0,0.0,0.0
645,0.0,0.0,0.0,-0.1245048828125,0.0,0.0,0.0,0.0,0.0,0.0,0.563,0.0,0.0,0.0,0.0,0.0,0.0,-0.10904830367793483,0.0,0.0,0.0,0.0,0.0,0.0,-12.852,0.0,0.0,0.0
646,0.0,0.0,0.0,-0.1245048828125,0.0,0.0,0.0,0.0,0.0,0.0,0.563,0.0,0.0,0.0,0.0,0.0,0.0,-0.0972093629167502,0.0,0.0,0.0,0.0,0.0,0.0,-12.852,0.0,0.0,0.0
647,0.0,0.0,0.0,-0.1245048828125,0.0,0.0,0.0,0.0,0.0,0.0,0.563,0.0,0.0,0.0,0.0,0.0,0.0,-0.0853874949476495,0.0,0.0,0.0,0.0,0.0,0.0,-12.852,0.0,0.0,0.0
648,0.0,0.0,0.0,-0.1245048828125,0.0,0.0,0.0,0.0,0.0,0.0,0.563,0.0,0.0,0.0,0.0,0.0,0.0,-0.07359444426262673,0.0,0.0,0.0,0.0,0.0,0.0,-12.852,0.0,0.0,0.0
649,0.0,0.0,0.0,-0.1245048828125,0.0,0.0,0.0,0.0,0.0,0.0,0.563,0.0,0.0,0.0,0.0,0.0,0.0,-0.06159828760265334,0.0,0.0,0.0,0.0,0.0,0.0,-12.852,0.0,0.0,0.0
650,0.0,0.0,0.0,-0.1245048828125,0.0,0.0,0.0,0.0,0.0,0.0,0.563,0.0,0.0,0.0,0.0,0.0,0.0,-0.049568922226641575,0.0,0.0,0.0,0.0,0.0,0.0,-12.852,0.0,0.0,0.0
651,0.0,0.0,0.0,-0.1245048828125,0.0,0.0,0.0,0.0,0.0,0.0,0.563,0.0,0.0,0.0,0.0,0.0,0.0,-0.03742123254878167,0.0,0.0,0.0,0.0,0.0,0.0,-12.852,0.0,0.0,0.0
652,0.0,0.0,0.0,-0.1245048828125,0.0,0.0,0.0,0.0,0.0,0.0,0.563,0.0,0.0,0.0,0.0,0.0,0.0,-0.0256763130505824,0.0,0.0,0.0,0.0,0.0,0.0,-12.852,0.0,0.0,0.0
653,0.0,0.0,0.0,-0.1245048828125,0.0,0.0,0.0,0.0,0.0,0.0,0.563,0.0,0.0,0.0,0.0,0.0,0.0,-0.0137587788519652,0.0,0.0,0.0,0.0,0.0,0.0,-12.852,0.0,0.0,0.0
654,0.0,0.0,0.0,-0.1245048828125,0.0,0.0,0.0,0.0,0.0,0.0,0.563,0.0,0.0,0.0,0.0,0.0,0.0,-0.0016097907748617347,0.0,0.0,0.0,0.0,0.0,0.0,-12.852,0.0,0.0,0.0
655,0.0,0.0,0.0,-0.1245048828125,0.0,0.0,0.0,0.0,0.0,0.0,0.563,0.0,0.0,0.0,0.0,0.0,0.0,0.010314156795335169,0.0,0.0,0.0,0.0,0.0,0.0,-12.852,0.0,0.0,0.0
656,0.0,0.0,0.0,-0.1245048828125,0.0,0.0,0.0,0.0,0.0,0.0,0.563,0.0,0.0,0.0,0.0,0.0,0.0,2.6321411124369948e-05,0.0,0.0,0.0,0.0,0.0,0.0,-12.852,0.0,0.0,0.0
657,0.0,0.0,0.0,-0.1245048828125,0.0,0.0,0.0,0.0,0.0,0.0,0.563,0.0,0.0,0.0,0.0,0.0,0.0,0.010775463620017125,0.0,0.0,0.0,0.0,0.0,0.0,-12.852,0.0,0.0,0.0
658,0.0,0.0,0.0,-0.1245048828125,0.0,0.0,0.0,0.0,0.0,0.0,0.563,0.0,0.0,0.0,0.0,0.0,0.0,0.02273825567302884,0.0,0.0,0.0,0.0,0.0,0.0,-12.852,0.0,0.0,0.0
659,0.0,0.0,0.0,-0.1245048828125,0.0,0.0,0.0,0.0,0.0,0.0,0.563,0.0,0.0,0.0,0.0,0.0,0.0,0.03471570841882411,0.0,0.0,0.0,0.0,0.0,0.0,-12.852,0.0,0.0,0.0
660,0.0,0.0,0.0,-0.1245048828125,0.0,0.0,0.0,0.0,0.0,0.0,0.563,0.0,0.0,0.0,0.0,0.0,0.0,0.04666275157060688,0.0,0.0,0.0,0.0,0.0,0.0,-12.852,0.0,0.0,0.0
661,0.0,0.0,0.0,-0.1245048828125,0.0,0.0,0.0,0.0,0.0,0.0,0.563,0.0,0.0,0.0,0.0,0.0,0.0,0.05864388424307646,0.0,0.0,0.0,0.0,0.0,0.0,-12.852,0.0,0.0,0.0
662,0.0,0.0,0.0,-0.1245048828125,0.0,0.0,0.0,0.0,0.0,0.0,0.563,0.0,0.0,0.0,0.0,0.0,0.0,0.0705272970877051,0.0,0.0,0.0,0.0,0.0,0.0,-12.852,0.0,0.0,0.0
663,0.0,0.0,0.0,-0.1245048828125,0.0,0.0,0.0,0.0,0.0,0.0,0.563,0.0,0.0,0.0,0.0,0.0,0.0,0.08243032986463872,0.0,0.0,0.0,0.0,0.0,0.0,-12.852,0.0,0.0,0.0
664,0.0,0.0,0.0,-0.1245048828125,0.0,0.0,0.0,0.0,0.0,0.0,0.563,0.0,0.0,0.0,0.0,0.0,0.0,0.09429473444621086,0.0,0.0,0.0,0.0,0.0,0.0,-12.852,0.0,0.0,0.0
665,0.0,0.0,0.0,-0.1245048828125,0.0,0.0,0.0,0.0,0.0,0.0,0.563,0.0,0.0,0.0,0.0,0.0,0.0,0.10614594962024171,0.0,0.0,0.0,0.0,0.0,0.0,-12.852,0.0,0.0,0.0
666,0.0,0.0,0.0,-0.1245048828125,0.0,0.0,0.0,0.0,0.0,0.0,0.563,0.0,0.0,0.0,0.0,0.0,0.0,0.11794418482606032,0.0,0.0,0.0,0.0,0.0,0.0,-12.852,0.0,0.0,0.0
