EmanuelSamir/lab201_ws_projsamir/sawyer_dev/data/sawyer/vel_acel_ns/test_joint4/training_data_5.csv
,j1,j2,j3,j4,j5,j6,j7,v1,v2,v3,v4,v5,v6,v7,jd1,jd2,jd3,jd4,jd5,jd6,jd7,e1,e2,e3,e4,e5,e6,e7
0,0.0,0.0,0.0,0.0,0.0,0.0,0.0,0.0,0.0,0.0,0.0,0.0,0.0,0.0,0.0,0.0,0.0,0.0,0.0,0.0,0.0,0.0,0.0,0.0,0.0,0.0,0.0,0.0
1,0.0,0.0,0.0,-0.0039794921875,0.0,0.0,0.0,0.0,0.0,0.0,-0.001,0.0,0.0,0.0,0.0,0.0,0.0,0.00020670890399199148,0.0,0.0,0.0,0.0,0.0,0.0,-14.084,0.0,0.0,0.0
2,0.0,0.0,0.0,-0.0039794921875,0.0,0.0,0.0,0.0,0.0,0.0,-0.001,0.0,0.0,0.0,0.0,0.0,0.0,0.028252879213494998,0.0,0.0,0.0,0.0,0.0,0.0,-14.04,0.0,0.0,0.0
3,0.0,0.0,0.0,-0.0039794921875,0.0,0.0,0.0,0.0,0.0,0.0,-0.001,0.0,0.0,0.0,0.0,0.0,0.0,0.05796817676923372,0.0,0.0,0.0,0.0,0.0,0.0,-14.064,0.0,0.0,0.0
4,0.0,0.0,0.0,-0.0039794921875,0.0,0.0,0.0,0.0,0.0,0.0,-0.001,0.0,0.0,0.0,0.0,0.0,0.0,0.08793891329515381,0.0,0.0,0.0,0.0,0.0,0.0,-13.924,0.0,0.0,0.0
5,0.0,0.0,0.0,-0.0032578125,0.0,0.0,0.0,0.0,0.0,0.0,0.02,0.0,0.0,0.0,0.0,0.0,0.0,0.11769605425182814,0.0,0.0,0.0,0.0,0.0,0.0,-12.6,0.0,0.0,0.0
6,0.0,0.0,0.0,-0.0010830078125,0.0,0.0,0.0,0.0,0.0,0.0,0.129,0.0,0.0,0.0,0.0,0.0,0.0,0.14682276826538004,0.0,0.0,0.0,0.0,0.0,0.0,-11.364,0.0,0.0,0.0
7,0.0,0.0,0.0,0.00195703125,0.0,0.0,0.0,0.0,0.0,0.0,0.256,0.0,0.0,0.0,0.0,0.0,0.0,0.17580943774504507,0.0,0.0,0.0,0.0,0.0,0.0,-10.768,0.0,0.0,0.0
8,0.0,0.0,0.0,0.0057197265625,0.0,0.0,0.0,0.0,0.0,0.0,0.331,0.0,0.0,0.0,0.0,0.0,0.0,0.20410023012649195,0.0,0.0,0.0,0.0,0.0,0.0,-10.472,0.0,0.0,0.0
9,0.0,0.0,0.0,0.010357421875,0.0,0.0,0.0,0.0,0.0,0.0,0.425,0.0,0.0,0.0,0.0,0.0,0.0,0.23185369086323807,0.0,0.0,0.0,0.0,0.0,0.0,-10.632,0.0,0.0,0.0
10,0.0,0.0,0.0,0.015140625,0.0,0.0,0.0,0.0,0.0,0.0,0.475,0.0,0.0,0.0,0.0,0.0,0.0,0.2592007460564934,0.0,0.0,0.0,0.0,0.0,0.0,-9.924,0.0,0.0,0.0
11,0.0,0.0,0.0,0.0202109375,0.0,0.0,0.0,0.0,0.0,0.0,0.489,0.0,0.0,0.0,0.0,0.0,0.0,0.28618766048828637,0.0,0.0,0.0,0.0,0.0,0.0,-9.328,0.0,0.0,0.0
12,0.0,0.0,0.0,0.02658203125,0.0,0.0,0.0,0.0,0.0,0.0,0.557,0.0,0.0,0.0,0.0,0.0,0.0,0.31197139130606677,0.0,0.0,0.0,0.0,0.0,0.0,-8.94,0.0,0.0,0.0
13,0.0,0.0,0.0,0.0330966796875,0.0,0.0,0.0,0.0,0.0,0.0,0.652,0.0,0.0,0.0,0.0,0.0,0.0,0.3372043580879108,0.0,0.0,0.0,0.0,0.0,0.0,-10.22,0.0,0.0,0.0
14,0.0,0.0,0.0,0.0397646484375,0.0,0.0,0.0,0.0,0.0,0.0,0.667,0.0,0.0,0.0,0.0,0.0,0.0,0.36192150866146394,0.0,0.0,0.0,0.0,0.0,0.0,-10.976,0.0,0.0,0.0
15,0.0,0.0,0.0,0.0467216796875,0.0,0.0,0.0,0.0,0.0,0.0,0.678,0.0,0.0,0.0,0.0,0.0,0.0,0.3851247488035917,0.0,0.0,0.0,0.0,0.0,0.0,-11.64,0.0,0.0,0.0
16,0.0,0.0,0.0,0.0530927734375,0.0,0.0,0.0,0.0,0.0,0.0,0.671,0.0,0.0,0.0,0.0,0.0,0.0,0.40762920513367484,0.0,0.0,0.0,0.0,0.0,0.0,-10.748,0.0,0.0,0.0
17,0.0,0.0,0.0,0.0601943359375,0.0,0.0,0.0,0.0,0.0,0.0,0.663,0.0,0.0,0.0,0.0,0.0,0.0,0.4293190418291238,0.0,0.0,0.0,0.0,0.0,0.0,-9.396,0.0,0.0,0.0
18,0.0,0.0,0.0,0.0677197265625,0.0,0.0,0.0,0.0,0.0,0.0,0.748,0.0,0.0,0.0,0.0,0.0,0.0,0.4497231126258611,0.0,0.0,0.0,0.0,0.0,0.0,-10.976,0.0,0.0,0.0
19,0.0,0.0,0.0,0.0743876953125,0.0,0.0,0.0,0.0,0.0,0.0,0.715,0.0,0.0,0.0,0.0,0.0,0.0,0.46883936786763014,0.0,0.0,0.0,0.0,0.0,0.0,-11.892,0.0,0.0,0.0
20,0.0,0.0,0.0,0.0817783203125,0.0,0.0,0.0,0.0,0.0,0.0,0.704,0.0,0.0,0.0,0.0,0.0,0.0,0.4869736819526348,0.0,0.0,0.0,0.0,0.0,0.0,-12.712,0.0,0.0,0.0
21,0.0,0.0,0.0,0.0884375,0.0,0.0,0.0,0.0,0.0,0.0,0.717,0.0,0.0,0.0,0.0,0.0,0.0,0.503886724743675,0.0,0.0,0.0,0.0,0.0,0.0,-13.032,0.0,0.0,0.0
22,0.0,0.0,0.0,0.09539453125,0.0,0.0,0.0,0.0,0.0,0.0,0.677,0.0,0.0,0.0,0.0,0.0,0.0,0.5195873537943676,0.0,0.0,0.0,0.0,0.0,0.0,-13.056,0.0,0.0,0.0
23,0.0,0.0,0.0,0.1021982421875,0.0,0.0,0.0,0.0,0.0,0.0,0.697,0.0,0.0,0.0,0.0,0.0,0.0,0.5339602566730945,0.0,0.0,0.0,0.0,0.0,0.0,-14.544,0.0,0.0,0.0
24,0.0,0.0,0.0,0.1092900390625,0.0,0.0,0.0,0.0,0.0,0.0,0.69,0.0,0.0,0.0,0.0,0.0,0.0,0.5470995054426617,0.0,0.0,0.0,0.0,0.0,0.0,-15.0,0.0,0.0,0.0
25,0.0,0.0,0.0,0.1163916015625,0.0,0.0,0.0,0.0,0.0,0.0,0.714,0.0,0.0,0.0,0.0,0.0,0.0,0.5585445617842559,0.0,0.0,0.0,0.0,0.0,0.0,-14.588,0.0,0.0,0.0
26,0.0,0.0,0.0,0.1233486328125,0.0,0.0,0.0,0.0,0.0,0.0,0.703,0.0,0.0,0.0,0.0,0.0,0.0,0.5688626218623333,0.0,0.0,0.0,0.0,0.0,0.0,-14.384,0.0,0.0,0.0
27,0.0,0.0,0.0,0.1298642578125,0.0,0.0,0.0,0.0,0.0,0.0,0.685,0.0,0.0,0.0,0.0,0.0,0.0,0.5777229970995368,0.0,0.0,0.0,0.0,0.0,0.0,-15.048,0.0,0.0,0.0
28,0.0,0.0,0.0,0.1360986328125,0.0,0.0,0.0,0.0,0.0,0.0,0.635,0.0,0.0,0.0,0.0,0.0,0.0,0.5850378834964064,0.0,0.0,0.0,0.0,0.0,0.0,-14.748,0.0,0.0,0.0
29,0.0,0.0,0.0,0.14290234375,0.0,0.0,0.0,0.0,0.0,0.0,0.662,0.0,0.0,0.0,0.0,0.0,0.0,0.5909648805445865,0.0,0.0,0.0,0.0,0.0,0.0,-15.3,0.0,0.0,0.0
30,0.0,0.0,0.0,0.14941796875,0.0,0.0,0.0,0.0,0.0,0.0,0.673,0.0,0.0,0.0,0.0,0.0,0.0,0.5954440349988313,0.0,0.0,0.0,0.0,0.0,0.0,-15.208,0.0,0.0,0.0
31,0.0,0.0,0.0,0.15623046875,0.0,0.0,0.0,0.0,0.0,0.0,0.661,0.0,0.0,0.0,0.0,0.0,0.0,0.5983709448572515,0.0,0.0,0.0,0.0,0.0,0.0,-16.212,0.0,0.0,0.0
32,0.0,0.0,0.0,0.1624560546875,0.0,0.0,0.0,0.0,0.0,0.0,0.673,0.0,0.0,0.0,0.0,0.0,0.0,0.599826902560294,0.0,0.0,0.0,0.0,0.0,0.0,-17.7,0.0,0.0,0.0
33,0.0,0.0,0.0,0.1686826171875,0.0,0.0,0.0,0.0,0.0,0.0,0.609,0.0,0.0,0.0,0.0,0.0,0.0,0.5997856880706498,0.0,0.0,0.0,0.0,0.0,0.0,-16.6,0.0,0.0,0.0
34,0.0,0.0,0.0,0.1753505859375,0.0,0.0,0.0,0.0,0.0,0.0,0.653,0.0,0.0,0.0,0.0,0.0,0.0,0.5982592186756626,0.0,0.0,0.0,0.0,0.0,0.0,-15.756,0.0,0.0,0.0
35,0.0,0.0,0.0,0.18144140625,0.0,0.0,0.0,0.0,0.0,0.0,0.646,0.0,0.0,0.0,0.0,0.0,0.0,0.5952296388629671,0.0,0.0,0.0,0.0,0.0,0.0,-14.888,0.0,0.0,0.0
36,0.0,0.0,0.0,0.18766796875,0.0,0.0,0.0,0.0,0.0,0.0,0.62,0.0,0.0,0.0,0.0,0.0,0.0,0.5906781085779318,0.0,0.0,0.0,0.0,0.0,0.0,-14.976,0.0,0.0,0.0
37,0.0,0.0,0.0,0.1934609375,0.0,0.0,0.0,0.0,0.0,0.0,0.614,0.0,0.0,0.0,0.0,0.0,0.0,0.584724994097399,0.0,0.0,0.0,0.0,0.0,0.0,-15.664,0.0,0.0,0.0
38,0.0,0.0,0.0,0.19925390625,0.0,0.0,0.0,0.0,0.0,0.0,0.572,0.0,0.0,0.0,0.0,0.0,0.0,0.5772987317951782,0.0,0.0,0.0,0.0,0.0,0.0,-14.908,0.0,0.0,0.0
39,0.0,0.0,0.0,0.2047578125,0.0,0.0,0.0,0.0,0.0,0.0,0.578,0.0,0.0,0.0,0.0,0.0,0.0,0.5682410272845907,0.0,0.0,0.0,0.0,0.0,0.0,-14.224,0.0,0.0,0.0
40,0.0,0.0,0.0,0.2101181640625,0.0,0.0,0.0,0.0,0.0,0.0,0.55,0.0,0.0,0.0,0.0,0.0,0.0,0.5580144089411685,0.0,0.0,0.0,0.0,0.0,0.0,-13.856,0.0,0.0,0.0
41,0.0,0.0,0.0,0.215919921875,0.0,0.0,0.0,0.0,0.0,0.0,0.553,0.0,0.0,0.0,0.0,0.0,0.0,0.5462904672930734,0.0,0.0,0.0,0.0,0.0,0.0,-14.248,0.0,0.0,0.0
42,0.0,0.0,0.0,0.2214248046875,0.0,0.0,0.0,0.0,0.0,0.0,0.568,0.0,0.0,0.0,0.0,0.0,0.0,0.5331665889968598,0.0,0.0,0.0,0.0,0.0,0.0,-15.116,0.0,0.0,0.0
43,0.0,0.0,0.0,0.226775390625,0.0,0.0,0.0,0.0,0.0,0.0,0.546,0.0,0.0,0.0,0.0,0.0,0.0,0.5189193195951971,0.0,0.0,0.0,0.0,0.0,0.0,-15.276,0.0,0.0,0.0
44,0.0,0.0,0.0,0.232279296875,0.0,0.0,0.0,0.0,0.0,0.0,0.539,0.0,0.0,0.0,0.0,0.0,0.0,0.5032220513513703,0.0,0.0,0.0,0.0,0.0,0.0,-14.04,0.0,0.0,0.0
45,0.0,0.0,0.0,0.23779296875,0.0,0.0,0.0,0.0,0.0,0.0,0.566,0.0,0.0,0.0,0.0,0.0,0.0,0.4860950827126313,0.0,0.0,0.0,0.0,0.0,0.0,-13.216,0.0,0.0,0.0
46,0.0,0.0,0.0,0.2430087890625,0.0,0.0,0.0,0.0,0.0,0.0,0.535,0.0,0.0,0.0,0.0,0.0,0.0,0.4680813807638203,0.0,0.0,0.0,0.0,0.0,0.0,-12.828,0.0,0.0,0.0
47,0.0,0.0,0.0,0.2486572265625,0.0,0.0,0.0,0.0,0.0,0.0,0.538,0.0,0.0,0.0,0.0,0.0,0.0,0.4487060129222608,0.0,0.0,0.0,0.0,0.0,0.0,-13.148,0.0,0.0,0.0
48,0.0,0.0,0.0,0.25386328125,0.0,0.0,0.0,0.0,0.0,0.0,0.56,0.0,0.0,0.0,0.0,0.0,0.0,0.42811354703669136,0.0,0.0,0.0,0.0,0.0,0.0,-13.468,0.0,0.0,0.0
49,0.0,0.0,0.0,0.259232421875,0.0,0.0,0.0,0.0,0.0,0.0,0.521,0.0,0.0,0.0,0.0,0.0,0.0,0.4065856854265616,0.0,0.0,0.0,0.0,0.0,0.0,-12.852,0.0,0.0,0.0
50,0.0,0.0,0.0,0.2647373046875,0.0,0.0,0.0,0.0,0.0,0.0,0.549,0.0,0.0,0.0,0.0,0.0,0.0,0.38417010102835963,0.0,0.0,0.0,0.0,0.0,0.0,-12.736,0.0,0.0,0.0
51,0.0,0.0,0.0,0.269943359375,0.0,0.0,0.0,0.0,0.0,0.0,0.545,0.0,0.0,0.0,0.0,0.0,0.0,0.3604564973236694,0.0,0.0,0.0,0.0,0.0,0.0,-12.6,0.0,0.0,0.0
52,0.0,0.0,0.0,0.27545703125,0.0,0.0,0.0,0.0,0.0,0.0,0.53,0.0,0.0,0.0,0.0,0.0,0.0,0.3360805745576817,0.0,0.0,0.0,0.0,0.0,0.0,-12.736,0.0,0.0,0.0
53,0.0,0.0,0.0,0.28110546875,0.0,0.0,0.0,0.0,0.0,0.0,0.565,0.0,0.0,0.0,0.0,0.0,0.0,0.31097793859585793,0.0,0.0,0.0,0.0,0.0,0.0,-13.696,0.0,0.0,0.0
54,0.0,0.0,0.0,0.286609375,0.0,0.0,0.0,0.0,0.0,0.0,0.557,0.0,0.0,0.0,0.0,0.0,0.0,0.2848143069069581,0.0,0.0,0.0,0.0,0.0,0.0,-13.788,0.0,0.0,0.0
55,0.0,0.0,0.0,0.29240234375,0.0,0.0,0.0,0.0,0.0,0.0,0.566,0.0,0.0,0.0,0.0,0.0,0.0,0.2580267081883821,0.0,0.0,0.0,0.0,0.0,0.0,-13.424,0.0,0.0,0.0
56,0.0,0.0,0.0,0.298349609375,0.0,0.0,0.0,0.0,0.0,0.0,0.593,0.0,0.0,0.0,0.0,0.0,0.0,0.23087825250495286,0.0,0.0,0.0,0.0,0.0,0.0,-13.24,0.0,0.0,0.0
57,0.0,0.0,0.0,0.3013896484375,0.0,0.0,0.0,0.0,0.0,0.0,0.498,0.0,0.0,0.0,0.0,0.0,0.0,0.2025834020592163,0.0,0.0,0.0,0.0,0.0,0.0,-17.472,0.0,0.0,0.0
58,0.0,0.0,0.0,0.3006591796875,0.0,0.0,0.0,0.0,0.0,0.0,0.146,0.0,0.0,0.0,0.0,0.0,0.0,0.173675897948405,0.0,0.0,0.0,0.0,0.0,0.0,-20.696,0.0,0.0,0.0
59,0.0,0.0,0.0,0.29950390625,0.0,0.0,0.0,0.0,0.0,0.0,-0.1,0.0,0.0,0.0,0.0,0.0,0.0,0.14551508087611909,0.0,0.0,0.0,0.0,0.0,0.0,-21.632,0.0,0.0,0.0
60,0.0,0.0,0.0,0.296607421875,0.0,0.0,0.0,0.0,0.0,0.0,-0.175,0.0,0.0,0.0,0.0,0.0,0.0,0.11607331253080387,0.0,0.0,0.0,0.0,0.0,0.0,-22.092,0.0,0.0,0.0
61,0.0,0.0,0.0,0.29269140625,0.0,0.0,0.0,0.0,0.0,0.0,-0.349,0.0,0.0,0.0,0.0,0.0,0.0,0.0864386148761534,0.0,0.0,0.0,0.0,0.0,0.0,-21.176,0.0,0.0,0.0
62,0.0,0.0,0.0,0.2893623046875,0.0,0.0,0.0,0.0,0.0,0.0,-0.368,0.0,0.0,0.0,0.0,0.0,0.0,0.05685886982877247,0.0,0.0,0.0,0.0,0.0,0.0,-23.188,0.0,0.0,0.0
63,0.0,0.0,0.0,0.2853017578125,0.0,0.0,0.0,0.0,0.0,0.0,-0.356,0.0,0.0,0.0,0.0,0.0,0.0,0.026947438156061716,0.0,0.0,0.0,0.0,0.0,0.0,-24.996,0.0,0.0,0.0
64,0.0,0.0,0.0,0.279662109375,0.0,0.0,0.0,0.0,0.0,0.0,-0.473,0.0,0.0,0.0,0.0,0.0,0.0,-0.003145732774571321,0.0,0.0,0.0,0.0,0.0,0.0,-24.676,0.0,0.0,0.0
65,0.0,0.0,0.0,0.2724072265625,0.0,0.0,0.0,0.0,0.0,0.0,-0.642,0.0,0.0,0.0,0.0,0.0,0.0,-0.03294317788609665,0.0,0.0,0.0,0.0,0.0,0.0,-23.6,0.0,0.0,0.0
66,0.0,0.0,0.0,0.2647373046875,0.0,0.0,0.0,0.0,0.0,0.0,-0.747,0.0,0.0,0.0,0.0,0.0,0.0,-0.06291822340747281,0.0,0.0,0.0,0.0,0.0,0.0,-22.592,0.0,0.0,0.0
67,0.0,0.0,0.0,0.2572021484375,0.0,0.0,0.0,0.0,0.0,0.0,-0.77,0.0,0.0,0.0,0.0,0.0,0.0,-0.09278963825364421,0.0,0.0,0.0,0.0,0.0,0.0,-20.284,0.0,0.0,0.0
68,0.0,0.0,0.0,0.250966796875,0.0,0.0,0.0,0.0,0.0,0.0,-0.709,0.0,0.0,0.0,0.0,0.0,0.0,-0.12212111477101795,0.0,0.0,0.0,0.0,0.0,0.0,-18.296,0.0,0.0,0.0
69,0.0,0.0,0.0,0.24373046875,0.0,0.0,0.0,0.0,0.0,0.0,-0.653,0.0,0.0,0.0,0.0,0.0,0.0,-0.1515054385058456,0.0,0.0,0.0,0.0,0.0,0.0,-20.148,0.0,0.0,0.0
70,0.0,0.0,0.0,0.234751953125,0.0,0.0,0.0,0.0,0.0,0.0,-0.811,0.0,0.0,0.0,0.0,0.0,0.0,-0.1803515946062958,0.0,0.0,0.0,0.0,0.0,0.0,-21.016,0.0,0.0,0.0
71,0.0,0.0,0.0,0.2263427734375,0.0,0.0,0.0,0.0,0.0,0.0,-0.893,0.0,0.0,0.0,0.0,0.0,0.0,-0.20867660196144752,0.0,0.0,0.0,0.0,0.0,0.0,-18.864,0.0,0.0,0.0
72,0.0,0.0,0.0,0.21881640625,0.0,0.0,0.0,0.0,0.0,0.0,-0.799,0.0,0.0,0.0,0.0,0.0,0.0,-0.2365200169020687,0.0,0.0,0.0,0.0,0.0,0.0,-15.3,0.0,0.0,0.0
73,0.0,0.0,0.0,0.21112890625,0.0,0.0,0.0,0.0,0.0,0.0,-0.755,0.0,0.0,0.0,0.0,0.0,0.0,-0.2641016105131395,0.0,0.0,0.0,0.0,0.0,0.0,-14.336,0.0,0.0,0.0
74,0.0,0.0,0.0,0.2027373046875,0.0,0.0,0.0,0.0,0.0,0.0,-0.815,0.0,0.0,0.0,0.0,0.0,0.0,-0.290377334935161,0.0,0.0,0.0,0.0,0.0,0.0,-15.412,0.0,0.0,0.0
75,0.0,0.0,0.0,0.1953466796875,0.0,0.0,0.0,0.0,0.0,0.0,-0.806,0.0,0.0,0.0,0.0,0.0,0.0,-0.3162081240794134,0.0,0.0,0.0,0.0,0.0,0.0,-15.848,0.0,0.0,0.0
76,0.0,0.0,0.0,0.18766796875,0.0,0.0,0.0,0.0,0.0,0.0,-0.743,0.0,0.0,0.0,0.0,0.0,0.0,-0.3418725114801093,0.0,0.0,0.0,0.0,0.0,0.0,-13.72,0.0,0.0,0.0
77,0.0,0.0,0.0,0.179267578125,0.0,0.0,0.0,0.0,0.0,0.0,-0.804,0.0,0.0,0.0,0.0,0.0,0.0,-0.3656323752434153,0.0,0.0,0.0,0.0,0.0,0.0,-11.892,0.0,0.0,0.0
78,0.0,0.0,0.0,0.170568359375,0.0,0.0,0.0,0.0,0.0,0.0,-0.863,0.0,0.0,0.0,0.0,0.0,0.0,-0.38891954654297783,0.0,0.0,0.0,0.0,0.0,0.0,-12.624,0.0,0.0,0.0
79,0.0,0.0,0.0,0.1634765625,0.0,0.0,0.0,0.0,0.0,0.0,-0.818,0.0,0.0,0.0,0.0,0.0,0.0,-0.41153465345588447,0.0,0.0,0.0,0.0,0.0,0.0,-12.028,0.0,0.0,0.0
80,0.0,0.0,0.0,0.15725,0.0,0.0,0.0,0.0,0.0,0.0,-0.662,0.0,0.0,0.0,0.0,0.0,0.0,-0.43264714776921814,0.0,0.0,0.0,0.0,0.0,0.0,-12.644,0.0,0.0,0.0
81,0.0,0.0,0.0,0.1495625,0.0,0.0,0.0,0.0,0.0,0.0,-0.689,0.0,0.0,0.0,0.0,0.0,0.0,-0.4528341053577679,0.0,0.0,0.0,0.0,0.0,0.0,-12.028,0.0,0.0,0.0
82,0.0,0.0,0.0,0.1420361328125,0.0,0.0,0.0,0.0,0.0,0.0,-0.771,0.0,0.0,0.0,0.0,0.0,0.0,-0.4722595250343795,0.0,0.0,0.0,0.0,0.0,0.0,-12.484,0.0,0.0,0.0
83,0.0,0.0,0.0,0.13492578125,0.0,0.0,0.0,0.0,0.0,0.0,-0.745,0.0,0.0,0.0,0.0,0.0,0.0,-0.48997450255374375,0.0,0.0,0.0,0.0,0.0,0.0,-11.204,0.0,0.0,0.0
84,0.0,0.0,0.0,0.1284111328125,0.0,0.0,0.0,0.0,0.0,0.0,-0.682,0.0,0.0,0.0,0.0,0.0,0.0,-0.5066363096351231,0.0,0.0,0.0,0.0,0.0,0.0,-10.108,0.0,0.0,0.0
85,0.0,0.0,0.0,0.121607421875,0.0,0.0,0.0,0.0,0.0,0.0,-0.671,0.0,0.0,0.0,0.0,0.0,0.0,-0.5222601337534141,0.0,0.0,0.0,0.0,0.0,0.0,-10.128,0.0,0.0,0.0
86,0.0,0.0,0.0,0.114794921875,0.0,0.0,0.0,0.0,0.0,0.0,-0.692,0.0,0.0,0.0,0.0,0.0,0.0,-0.5361115634429241,0.0,0.0,0.0,0.0,0.0,0.0,-11.732,0.0,0.0,0.0
87,0.0,0.0,0.0,0.1082802734375,0.0,0.0,0.0,0.0,0.0,0.0,-0.673,0.0,0.0,0.0,0.0,0.0,0.0,-0.5489537533079685,0.0,0.0,0.0,0.0,0.0,0.0,-12.28,0.0,0.0,0.0
88,0.0,0.0,0.0,0.1024873046875,0.0,0.0,0.0,0.0,0.0,0.0,-0.635,0.0,0.0,0.0,0.0,0.0,0.0,-0.5604841626398721,0.0,0.0,0.0,0.0,0.0,0.0,-11.272,0.0,0.0,0.0
89,0.0,0.0,0.0,0.0964140625,0.0,0.0,0.0,0.0,0.0,0.0,-0.58,0.0,0.0,0.0,0.0,0.0,0.0,-0.5704966075272674,0.0,0.0,0.0,0.0,0.0,0.0,-11.732,0.0,0.0,0.0
90,0.0,0.0,0.0,0.0901787109375,0.0,0.0,0.0,0.0,0.0,0.0,-0.625,0.0,0.0,0.0,0.0,0.0,0.0,-0.5789502255287542,0.0,0.0,0.0,0.0,0.0,0.0,-11.572,0.0,0.0,0.0
91,0.0,0.0,0.0,0.0846748046875,0.0,0.0,0.0,0.0,0.0,0.0,-0.592,0.0,0.0,0.0,0.0,0.0,0.0,-0.5861905181435066,0.0,0.0,0.0,0.0,0.0,0.0,-12.736,0.0,0.0,0.0
92,0.0,0.0,0.0,0.0787373046875,0.0,0.0,0.0,0.0,0.0,0.0,-0.574,0.0,0.0,0.0,0.0,0.0,0.0,-0.5918121560554732,0.0,0.0,0.0,0.0,0.0,0.0,-12.624,0.0,0.0,0.0
93,0.0,0.0,0.0,0.0735126953125,0.0,0.0,0.0,0.0,0.0,0.0,-0.574,0.0,0.0,0.0,0.0,0.0,0.0,-0.5960045176033517,0.0,0.0,0.0,0.0,0.0,0.0,-11.708,0.0,0.0,0.0
94,0.0,0.0,0.0,0.068162109375,0.0,0.0,0.0,0.0,0.0,0.0,-0.517,0.0,0.0,0.0,0.0,0.0,0.0,-0.5987360831166849,0.0,0.0,0.0,0.0,0.0,0.0,-12.964,0.0,0.0,0.0
95,0.0,0.0,0.0,0.0626572265625,0.0,0.0,0.0,0.0,0.0,0.0,-0.558,0.0,0.0,0.0,0.0,0.0,0.0,-0.5999273260250435,0.0,0.0,0.0,0.0,0.0,0.0,-13.124,0.0,0.0,0.0
96,0.0,0.0,0.0,0.05773046875,0.0,0.0,0.0,0.0,0.0,0.0,-0.523,0.0,0.0,0.0,0.0,0.0,0.0,-0.5996444905631934,0.0,0.0,0.0,0.0,0.0,0.0,-14.336,0.0,0.0,0.0
97,0.0,0.0,0.0,0.0520732421875,0.0,0.0,0.0,0.0,0.0,0.0,-0.526,0.0,0.0,0.0,0.0,0.0,0.0,-0.5978217378698786,0.0,0.0,0.0,0.0,0.0,0.0,-14.612,0.0,0.0,0.0
98,0.0,0.0,0.0,0.0471552734375,0.0,0.0,0.0,0.0,0.0,0.0,-0.549,0.0,0.0,0.0,0.0,0.0,0.0,-0.5945737298451717,0.0,0.0,0.0,0.0,0.0,0.0,-13.744,0.0,0.0,0.0
99,0.0,0.0,0.0,0.042373046875,0.0,0.0,0.0,0.0,0.0,0.0,-0.483,0.0,0.0,0.0,0.0,0.0,0.0,-0.5898573939230427,0.0,0.0,0.0,0.0,0.0,0.0,-14.908,0.0,0.0,0.0
100,0.0,0.0,0.0,0.0373017578125,0.0,0.0,0.0,0.0,0.0,0.0,-0.494,0.0,0.0,0.0,0.0,0.0,0.0,-0.5835258671129563,0.0,0.0,0.0,0.0,0.0,0.0,-15.3,0.0,0.0,0.0
101,0.0,0.0,0.0,0.03251953125,0.0,0.0,0.0,0.0,0.0,0.0,-0.508,0.0,0.0,0.0,0.0,0.0,0.0,-0.5758035707286046,0.0,0.0,0.0,0.0,0.0,0.0,-15.62,0.0,0.0,0.0
102,0.0,0.0,0.0,0.0273037109375,0.0,0.0,0.0,0.0,0.0,0.0,-0.488,0.0,0.0,0.0,0.0,0.0,0.0,-0.566803501449839,0.0,0.0,0.0,0.0,0.0,0.0,-15.596,0.0,0.0,0.0
103,0.0,0.0,0.0,0.0216552734375,0.0,0.0,0.0,0.0,0.0,0.0,-0.542,0.0,0.0,0.0,0.0,0.0,0.0,-0.5561305660050029,0.0,0.0,0.0,0.0,0.0,0.0,-14.68,0.0,0.0,0.0
104,0.0,0.0,0.0,0.0167373046875,0.0,0.0,0.0,0.0,0.0,0.0,-0.54,0.0,0.0,0.0,0.0,0.0,0.0,-0.5441988125727077,0.0,0.0,0.0,0.0,0.0,0.0,-14.908,0.0,0.0,0.0
105,0.0,0.0,0.0,0.0118017578125,0.0,0.0,0.0,0.0,0.0,0.0,-0.492,0.0,0.0,0.0,0.0,0.0,0.0,-0.5307989264105797,0.0,0.0,0.0,0.0,0.0,0.0,-15.572,0.0,0.0,0.0
106,0.0,0.0,0.0,0.006296875,0.0,0.0,0.0,0.0,0.0,0.0,-0.529,0.0,0.0,0.0,0.0,0.0,0.0,-0.5162435436218675,0.0,0.0,0.0,0.0,0.0,0.0,-15.892,0.0,0.0,0.0
107,0.0,0.0,0.0,0.0010908203125,0.0,0.0,0.0,0.0,0.0,0.0,-0.532,0.0,0.0,0.0,0.0,0.0,0.0,-0.4998588200133276,0.0,0.0,0.0,0.0,0.0,0.0,-16.188,0.0,0.0,0.0
108,0.0,0.0,0.0,-0.004701171875,0.0,0.0,0.0,0.0,0.0,0.0,-0.554,0.0,0.0,0.0,0.0,0.0,0.0,-0.4830926523493332,0.0,0.0,0.0,0.0,0.0,0.0,-15.32,0.0,0.0,0.0
109,0.0,0.0,0.0,-0.01050390625,0.0,0.0,0.0,0.0,0.0,0.0,-0.591,0.0,0.0,0.0,0.0,0.0,0.0,-0.46474781786365027,0.0,0.0,0.0,0.0,0.0,0.0,-15.62,0.0,0.0,0.0
110,0.0,0.0,0.0,-0.01586328125,0.0,0.0,0.0,0.0,0.0,0.0,-0.563,0.0,0.0,0.0,0.0,0.0,0.0,-0.4451603579113575,0.0,0.0,0.0,0.0,0.0,0.0,-15.94,0.0,0.0,0.0
111,0.0,0.0,0.0,-0.0212236328125,0.0,0.0,0.0,0.0,0.0,0.0,-0.54,0.0,0.0,0.0,0.0,0.0,0.0,-0.4246149839149005,0.0,0.0,0.0,0.0,0.0,0.0,-16.236,0.0,0.0,0.0
112,0.0,0.0,0.0,-0.02671875,0.0,0.0,0.0,0.0,0.0,0.0,-0.539,0.0,0.0,0.0,0.0,0.0,0.0,-0.40272153920581794,0.0,0.0,0.0,0.0,0.0,0.0,-16.58,0.0,0.0,0.0
113,0.0,0.0,0.0,-0.0325205078125,0.0,0.0,0.0,0.0,0.0,0.0,-0.569,0.0,0.0,0.0,0.0,0.0,0.0,-0.3798968622405908,0.0,0.0,0.0,0.0,0.0,0.0,-15.62,0.0,0.0,0.0
114,0.0,0.0,0.0,-0.0384580078125,0.0,0.0,0.0,0.0,0.0,0.0,-0.589,0.0,0.0,0.0,0.0,0.0,0.0,-0.35653688255324184,0.0,0.0,0.0,0.0,0.0,0.0,-14.888,0.0,0.0,0.0
115,0.0,0.0,0.0,-0.044828125,0.0,0.0,0.0,0.0,0.0,0.0,-0.619,0.0,0.0,0.0,0.0,0.0,0.0,-0.33180742942893443,0.0,0.0,0.0,0.0,0.0,0.0,-14.816,0.0,0.0,0.0
116,0.0,0.0,0.0,-0.050765625,0.0,0.0,0.0,0.0,0.0,0.0,-0.624,0.0,0.0,0.0,0.0,0.0,0.0,-0.30602849275150895,0.0,0.0,0.0,0.0,0.0,0.0,-14.336,0.0,0.0,0.0
117,0.0,0.0,0.0,-0.0567119140625,0.0,0.0,0.0,0.0,0.0,0.0,-0.589,0.0,0.0,0.0,0.0,0.0,0.0,-0.28046784309327066,0.0,0.0,0.0,0.0,0.0,0.0,-14.956,0.0,0.0,0.0
118,0.0,0.0,0.0,-0.0629384765625,0.0,0.0,0.0,0.0,0.0,0.0,-0.611,0.0,0.0,0.0,0.0,0.0,0.0,-0.2536596203100644,0.0,0.0,0.0,0.0,0.0,0.0,-14.52,0.0,0.0,0.0
119,0.0,0.0,0.0,-0.0690205078125,0.0,0.0,0.0,0.0,0.0,0.0,-0.623,0.0,0.0,0.0,0.0,0.0,0.0,-0.22600249019866045,0.0,0.0,0.0,0.0,0.0,0.0,-14.748,0.0,0.0,0.0
120,0.0,0.0,0.0,-0.0756884765625,0.0,0.0,0.0,0.0,0.0,0.0,-0.639,0.0,0.0,0.0,0.0,0.0,0.0,-0.19809720199922629,0.0,0.0,0.0,0.0,0.0,0.0,-15.068,0.0,0.0,0.0
121,0.0,0.0,0.0,-0.0817705078125,0.0,0.0,0.0,0.0,0.0,0.0,-0.655,0.0,0.0,0.0,0.0,0.0,0.0,-0.16954098419460592,0.0,0.0,0.0,0.0,0.0,0.0,-14.292,0.0,0.0,0.0
122,0.0,0.0,0.0,-0.0877080078125,0.0,0.0,0.0,0.0,0.0,0.0,-0.601,0.0,0.0,0.0,0.0,0.0,0.0,-0.14007343172265596,0.0,0.0,0.0,0.0,0.0,0.0,-14.68,0.0,0.0,0.0
123,0.0,0.0,0.0,-0.0937900390625,0.0,0.0,0.0,0.0,0.0,0.0,-0.61,0.0,0.0,0.0,0.0,0.0,0.0,-0.11128499008536039,0.0,0.0,0.0,0.0,0.0,0.0,-14.176,0.0,0.0,0.0
124,0.0,0.0,0.0,-0.099591796875,0.0,0.0,0.0,0.0,0.0,0.0,-0.598,0.0,0.0,0.0,0.0,0.0,0.0,-0.0816907992913303,0.0,0.0,0.0,0.0,0.0,0.0,-14.384,0.0,0.0,0.0
125,0.0,0.0,0.0,-0.1059619140625,0.0,0.0,0.0,0.0,0.0,0.0,-0.602,0.0,0.0,0.0,0.0,0.0,0.0,-0.05150636309046334,0.0,0.0,0.0,0.0,0.0,0.0,-14.864,0.0,0.0,0.0
126,0.0,0.0,0.0,-0.1120439453125,0.0,0.0,0.0,0.0,0.0,0.0,-0.646,0.0,0.0,0.0,0.0,0.0,0.0,-0.021748202717704036,0.0,0.0,0.0,0.0,0.0,0.0,-12.852,0.0,0.0,0.0
127,0.0,0.0,0.0,-0.1153740234375,0.0,0.0,0.0,0.0,0.0,0.0,-0.515,0.0,0.0,0.0,0.0,0.0,0.0,0.008180231332453622,0.0,0.0,0.0,0.0,0.0,0.0,-9.192,0.0,0.0,0.0
128,0.0,0.0,0.0,-0.1152294921875,0.0,0.0,0.0,0.0,0.0,0.0,-0.18,0.0,0.0,0.0,0.0,0.0,0.0,4.792213434846283e-05,0.0,0.0,0.0,0.0,0.0,0.0,-7.064,0.0,0.0,0.0
129,0.0,0.0,0.0,-0.11421875,0.0,0.0,0.0,0.0,0.0,0.0,0.057,0.0,0.0,0.0,0.0,0.0,0.0,0.02970886863343788,0.0,0.0,0.0,0.0,0.0,0.0,-7.364,0.0,0.0,0.0
130,0.0,0.0,0.0,-0.111466796875,0.0,0.0,0.0,0.0,0.0,0.0,0.152,0.0,0.0,0.0,0.0,0.0,0.0,0.05960463752085731,0.0,0.0,0.0,0.0,0.0,0.0,-6.744,0.0,0.0,0.0
131,0.0,0.0,0.0,-0.1077041015625,0.0,0.0,0.0,0.0,0.0,0.0,0.342,0.0,0.0,0.0,0.0,0.0,0.0,0.0895178109799769,0.0,0.0,0.0,0.0,0.0,0.0,-8.164,0.0,0.0,0.0
132,0.0,0.0,0.0,-0.1045185546875,0.0,0.0,0.0,0.0,0.0,0.0,0.34,0.0,0.0,0.0,0.0,0.0,0.0,0.11890214462616239,0.0,0.0,0.0,0.0,0.0,0.0,-4.528,0.0,0.0,0.0
133,0.0,0.0,0.0,-0.099158203125,0.0,0.0,0.0,0.0,0.0,0.0,0.408,0.0,0.0,0.0,0.0,0.0,0.0,0.14812273223203776,0.0,0.0,0.0,0.0,0.0,0.0,-4.024,0.0,0.0,0.0
134,0.0,0.0,0.0,-0.0932119140625,0.0,0.0,0.0,0.0,0.0,0.0,0.574,0.0,0.0,0.0,0.0,0.0,0.0,0.17716299244420303,0.0,0.0,0.0,0.0,0.0,0.0,-5.008,0.0,0.0,0.0
135,0.0,0.0,0.0,-0.0859755859375,0.0,0.0,0.0,0.0,0.0,0.0,0.636,0.0,0.0,0.0,0.0,0.0,0.0,0.20532993212269585,0.0,0.0,0.0,0.0,0.0,0.0,-4.868,0.0,0.0,0.0
136,0.0,0.0,0.0,-0.0769970703125,0.0,0.0,0.0,0.0,0.0,0.0,0.816,0.0,0.0,0.0,0.0,0.0,0.0,0.23318164894726043,0.0,0.0,0.0,0.0,0.0,0.0,-6.652,0.0,0.0,0.0
137,0.0,0.0,0.0,-0.0697421875,0.0,0.0,0.0,0.0,0.0,0.0,0.84,0.0,0.0,0.0,0.0,0.0,0.0,0.26102030705487594,0.0,0.0,0.0,0.0,0.0,0.0,-7.04,0.0,0.0,0.0
138,0.0,0.0,0.0,-0.0627939453125,0.0,0.0,0.0,0.0,0.0,0.0,0.709,0.0,0.0,0.0,0.0,0.0,0.0,0.2872921954682286,0.0,0.0,0.0,0.0,0.0,0.0,-7.476,0.0,0.0,0.0
139,0.0,0.0,0.0,-0.0548359375,0.0,0.0,0.0,0.0,0.0,0.0,0.735,0.0,0.0,0.0,0.0,0.0,0.0,0.3132827265464175,0.0,0.0,0.0,0.0,0.0,0.0,-7.772,0.0,0.0,0.0
140,0.0,0.0,0.0,-0.0459921875,0.0,0.0,0.0,0.0,0.0,0.0,0.83,0.0,0.0,0.0,0.0,0.0,0.0,0.3386269759546077,0.0,0.0,0.0,0.0,0.0,0.0,-6.812,0.0,0.0,0.0
141,0.0,0.0,0.0,-0.0370146484375,0.0,0.0,0.0,0.0,0.0,0.0,0.91,0.0,0.0,0.0,0.0,0.0,0.0,0.3627869034000825,0.0,0.0,0.0,0.0,0.0,0.0,-10.336,0.0,0.0,0.0
142,0.0,0.0,0.0,-0.0299130859375,0.0,0.0,0.0,0.0,0.0,0.0,0.819,0.0,0.0,0.0,0.0,0.0,0.0,0.38617733930995407,0.0,0.0,0.0,0.0,0.0,0.0,-12.964,0.0,0.0,0.0
143,0.0,0.0,0.0,-0.0213671875,0.0,0.0,0.0,0.0,0.0,0.0,0.757,0.0,0.0,0.0,0.0,0.0,0.0,0.4091566605148392,0.0,0.0,0.0,0.0,0.0,0.0,-13.4,0.0,0.0,0.0
144,0.0,0.0,0.0,-0.012677734375,0.0,0.0,0.0,0.0,0.0,0.0,0.895,0.0,0.0,0.0,0.0,0.0,0.0,0.4301815489008974,0.0,0.0,0.0,0.0,0.0,0.0,-13.72,0.0,0.0,0.0
145,0.0,0.0,0.0,-0.006009765625,0.0,0.0,0.0,0.0,0.0,0.0,0.782,0.0,0.0,0.0,0.0,0.0,0.0,0.4505110282191852,0.0,0.0,0.0,0.0,0.0,0.0,-12.668,0.0,0.0,0.0
146,0.0,0.0,0.0,0.0021015625,0.0,0.0,0.0,0.0,0.0,0.0,0.708,0.0,0.0,0.0,0.0,0.0,0.0,0.4699513612599255,0.0,0.0,0.0,0.0,0.0,0.0,-13.72,0.0,0.0,0.0
147,0.0,0.0,0.0,0.010646484375,0.0,0.0,0.0,0.0,0.0,0.0,0.86,0.0,0.0,0.0,0.0,0.0,0.0,0.4879095701075986,0.0,0.0,0.0,0.0,0.0,0.0,-16.808,0.0,0.0,0.0
148,0.0,0.0,0.0,0.0183251953125,0.0,0.0,0.0,0.0,0.0,0.0,0.821,0.0,0.0,0.0,0.0,0.0,0.0,0.5046297737279088,0.0,0.0,0.0,0.0,0.0,0.0,-15.32,0.0,0.0,0.0
149,0.0,0.0,0.0,0.0255712890625,0.0,0.0,0.0,0.0,0.0,0.0,0.754,0.0,0.0,0.0,0.0,0.0,0.0,0.5202734608047308,0.0,0.0,0.0,0.0,0.0,0.0,-17.632,0.0,0.0,0.0
150,0.0,0.0,0.0,0.0317978515625,0.0,0.0,0.0,0.0,0.0,0.0,0.674,0.0,0.0,0.0,0.0,0.0,0.0,0.5346426726840079,0.0,0.0,0.0,0.0,0.0,0.0,-17.172,0.0,0.0,0.0
151,0.0,0.0,0.0,0.0399091796875,0.0,0.0,0.0,0.0,0.0,0.0,0.709,0.0,0.0,0.0,0.0,0.0,0.0,0.5474387462216116,0.0,0.0,0.0,0.0,0.0,0.0,-17.516,0.0,0.0,0.0
152,0.0,0.0,0.0,0.047732421875,0.0,0.0,0.0,0.0,0.0,0.0,0.821,0.0,0.0,0.0,0.0,0.0,0.0,0.5590558668761495,0.0,0.0,0.0,0.0,0.0,0.0,-18.864,0.0,0.0,0.0
153,0.0,0.0,0.0,0.0541123046875,0.0,0.0,0.0,0.0,0.0,0.0,0.715,0.0,0.0,0.0,0.0,0.0,0.0,0.5692923609572526,0.0,0.0,0.0,0.0,0.0,0.0,-19.096,0.0,0.0,0.0
154,0.0,0.0,0.0,0.061060546875,0.0,0.0,0.0,0.0,0.0,0.0,0.665,0.0,0.0,0.0,0.0,0.0,0.0,0.5780264791671412,0.0,0.0,0.0,0.0,0.0,0.0,-18.936,0.0,0.0,0.0
155,0.0,0.0,0.0,0.0680087890625,0.0,0.0,0.0,0.0,0.0,0.0,0.707,0.0,0.0,0.0,0.0,0.0,0.0,0.5853701783974491,0.0,0.0,0.0,0.0,0.0,0.0,-18.408,0.0,0.0,0.0
156,0.0,0.0,0.0,0.0743876953125,0.0,0.0,0.0,0.0,0.0,0.0,0.674,0.0,0.0,0.0,0.0,0.0,0.0,0.5912111290272435,0.0,0.0,0.0,0.0,0.0,0.0,-16.74,0.0,0.0,0.0
157,0.0,0.0,0.0,0.0812001953125,0.0,0.0,0.0,0.0,0.0,0.0,0.657,0.0,0.0,0.0,0.0,0.0,0.0,0.5955872644296496,0.0,0.0,0.0,0.0,0.0,0.0,-17.928,0.0,0.0,0.0
158,0.0,0.0,0.0,0.086849609375,0.0,0.0,0.0,0.0,0.0,0.0,0.632,0.0,0.0,0.0,0.0,0.0,0.0,0.5984720880142969,0.0,0.0,0.0,0.0,0.0,0.0,-19.024,0.0,0.0,0.0
159,0.0,0.0,0.0,0.0932197265625,0.0,0.0,0.0,0.0,0.0,0.0,0.586,0.0,0.0,0.0,0.0,0.0,0.0,0.5998676239478233,0.0,0.0,0.0,0.0,0.0,0.0,-17.312,0.0,0.0,0.0
160,0.0,0.0,0.0,0.099455078125,0.0,0.0,0.0,0.0,0.0,0.0,0.651,0.0,0.0,0.0,0.0,0.0,0.0,0.5997544831205646,0.0,0.0,0.0,0.0,0.0,0.0,-17.836,0.0,0.0,0.0
161,0.0,0.0,0.0,0.1042197265625,0.0,0.0,0.0,0.0,0.0,0.0,0.561,0.0,0.0,0.0,0.0,0.0,0.0,0.5981471684646957,0.0,0.0,0.0,0.0,0.0,0.0,-16.556,0.0,0.0,0.0
162,0.0,0.0,0.0,0.1101572265625,0.0,0.0,0.0,0.0,0.0,0.0,0.524,0.0,0.0,0.0,0.0,0.0,0.0,0.5950174258155992,0.0,0.0,0.0,0.0,0.0,0.0,-17.128,0.0,0.0,0.0
163,0.0,0.0,0.0,0.115083984375,0.0,0.0,0.0,0.0,0.0,0.0,0.564,0.0,0.0,0.0,0.0,0.0,0.0,0.590407039411551,0.0,0.0,0.0,0.0,0.0,0.0,-17.152,0.0,0.0,0.0
164,0.0,0.0,0.0,0.1204521484375,0.0,0.0,0.0,0.0,0.0,0.0,0.503,0.0,0.0,0.0,0.0,0.0,0.0,0.5843438945498522,0.0,0.0,0.0,0.0,0.0,0.0,-14.084,0.0,0.0,0.0
165,0.0,0.0,0.0,0.1262451171875,0.0,0.0,0.0,0.0,0.0,0.0,0.57,0.0,0.0,0.0,0.0,0.0,0.0,0.5767732975141658,0.0,0.0,0.0,0.0,0.0,0.0,-14.156,0.0,0.0,0.0
166,0.0,0.0,0.0,0.13073046875,0.0,0.0,0.0,0.0,0.0,0.0,0.528,0.0,0.0,0.0,0.0,0.0,0.0,0.5675740548093163,0.0,0.0,0.0,0.0,0.0,0.0,-14.2,0.0,0.0,0.0
167,0.0,0.0,0.0,0.135666015625,0.0,0.0,0.0,0.0,0.0,0.0,0.454,0.0,0.0,0.0,0.0,0.0,0.0,0.5575132880460988,0.0,0.0,0.0,0.0,0.0,0.0,-14.268,0.0,0.0,0.0
168,0.0,0.0,0.0,0.140439453125,0.0,0.0,0.0,0.0,0.0,0.0,0.502,0.0,0.0,0.0,0.0,0.0,0.0,0.5455321917046001,0.0,0.0,0.0,0.0,0.0,0.0,-14.976,0.0,0.0,0.0
169,0.0,0.0,0.0,0.14464453125,0.0,0.0,0.0,0.0,0.0,0.0,0.452,0.0,0.0,0.0,0.0,0.0,0.0,0.5324684100681735,0.0,0.0,0.0,0.0,0.0,0.0,-12.736,0.0,0.0,0.0
170,0.0,0.0,0.0,0.1498505859375,0.0,0.0,0.0,0.0,0.0,0.0,0.459,0.0,0.0,0.0,0.0,0.0,0.0,0.5180861185240155,0.0,0.0,0.0,0.0,0.0,0.0,-12.12,0.0,0.0,0.0
171,0.0,0.0,0.0,0.1552109375,0.0,0.0,0.0,0.0,0.0,0.0,0.545,0.0,0.0,0.0,0.0,0.0,0.0,0.5019633090290091,0.0,0.0,0.0,0.0,0.0,0.0,-13.604,0.0,0.0,0.0
172,0.0,0.0,0.0,0.160001953125,0.0,0.0,0.0,0.0,0.0,0.0,0.505,0.0,0.0,0.0,0.0,0.0,0.0,0.48531989565616973,0.0,0.0,0.0,0.0,0.0,0.0,-13.72,0.0,0.0,0.0
173,0.0,0.0,0.0,0.165208984375,0.0,0.0,0.0,0.0,0.0,0.0,0.497,0.0,0.0,0.0,0.0,0.0,0.0,0.4671339407927236,0.0,0.0,0.0,0.0,0.0,0.0,-14.336,0.0,0.0,0.0
174,0.0,0.0,0.0,0.1699912109375,0.0,0.0,0.0,0.0,0.0,0.0,0.514,0.0,0.0,0.0,0.0,0.0,0.0,0.44765696430424745,0.0,0.0,0.0,0.0,0.0,0.0,-13.696,0.0,0.0,0.0
175,0.0,0.0,0.0,0.17491796875,0.0,0.0,0.0,0.0,0.0,0.0,0.483,0.0,0.0,0.0,0.0,0.0,0.0,0.4271577889472629,0.0,0.0,0.0,0.0,0.0,0.0,-11.204,0.0,0.0,0.0
176,0.0,0.0,0.0,0.1807109375,0.0,0.0,0.0,0.0,0.0,0.0,0.536,0.0,0.0,0.0,0.0,0.0,0.0,0.40559421752055674,0.0,0.0,0.0,0.0,0.0,0.0,-11.5,0.0,0.0,0.0
177,0.0,0.0,0.0,0.18621484375,0.0,0.0,0.0,0.0,0.0,0.0,0.572,0.0,0.0,0.0,0.0,0.0,0.0,0.38261031685235664,0.0,0.0,0.0,0.0,0.0,0.0,-12.232,0.0,0.0,0.0
178,0.0,0.0,0.0,0.1917197265625,0.0,0.0,0.0,0.0,0.0,0.0,0.549,0.0,0.0,0.0,0.0,0.0,0.0,0.35936687010012636,0.0,0.0,0.0,0.0,0.0,0.0,-12.392,0.0,0.0,0.0
179,0.0,0.0,0.0,0.197087890625,0.0,0.0,0.0,0.0,0.0,0.0,0.545,0.0,0.0,0.0,0.0,0.0,0.0,0.33493849784699337,0.0,0.0,0.0,0.0,0.0,0.0,-12.644,0.0,0.0,0.0
180,0.0,0.0,0.0,0.2024482421875,0.0,0.0,0.0,0.0,0.0,0.0,0.537,0.0,0.0,0.0,0.0,0.0,0.0,0.30934438653042085,0.0,0.0,0.0,0.0,0.0,0.0,-11.732,0.0,0.0,0.0
181,0.0,0.0,0.0,0.208087890625,0.0,0.0,0.0,0.0,0.0,0.0,0.551,0.0,0.0,0.0,0.0,0.0,0.0,0.2834586133137072,0.0,0.0,0.0,0.0,0.0,0.0,-11.592,0.0,0.0,0.0
182,0.0,0.0,0.0,0.214025390625,0.0,0.0,0.0,0.0,0.0,0.0,0.581,0.0,0.0,0.0,0.0,0.0,0.0,0.2568153051897777,0.0,0.0,0.0,0.0,0.0,0.0,-12.188,0.0,0.0,0.0
183,0.0,0.0,0.0,0.2201162109375,0.0,0.0,0.0,0.0,0.0,0.0,0.608,0.0,0.0,0.0,0.0,0.0,0.0,0.2291044844699567,0.0,0.0,0.0,0.0,0.0,0.0,-13.4,0.0,0.0,0.0
184,0.0,0.0,0.0,0.2259091796875,0.0,0.0,0.0,0.0,0.0,0.0,0.599,0.0,0.0,0.0,0.0,0.0,0.0,0.20081714641577625,0.0,0.0,0.0,0.0,0.0,0.0,-14.084,0.0,0.0,0.0
185,0.0,0.0,0.0,0.2318466796875,0.0,0.0,0.0,0.0,0.0,0.0,0.59,0.0,0.0,0.0,0.0,0.0,0.0,0.17267949217432263,0.0,0.0,0.0,0.0,0.0,0.0,-13.996,0.0,0.0,0.0
186,0.0,0.0,0.0,0.2354736328125,0.0,0.0,0.0,0.0,0.0,0.0,0.527,0.0,0.0,0.0,0.0,0.0,0.0,0.1436512121549811,0.0,0.0,0.0,0.0,0.0,0.0,-17.424,0.0,0.0,0.0
187,0.0,0.0,0.0,0.235185546875,0.0,0.0,0.0,0.0,0.0,0.0,0.202,0.0,0.0,0.0,0.0,0.0,0.0,0.1141506207364335,0.0,0.0,0.0,0.0,0.0,0.0,-21.152,0.0,0.0,0.0
188,0.0,0.0,0.0,0.2344541015625,0.0,0.0,0.0,0.0,0.0,0.0,-0.065,0.0,0.0,0.0,0.0,0.0,0.0,0.08490949406816561,0.0,0.0,0.0,0.0,0.0,0.0,-22.136,0.0,0.0,0.0
189,0.0,0.0,0.0,0.2321357421875,0.0,0.0,0.0,0.0,0.0,0.0,-0.12,0.0,0.0,0.0,0.0,0.0,0.0,0.05519248450575832,0.0,0.0,0.0,0.0,0.0,0.0,-23.144,0.0,0.0,0.0
190,0.0,0.0,0.0,0.228228515625,0.0,0.0,0.0,0.0,0.0,0.0,-0.309,0.0,0.0,0.0,0.0,0.0,0.0,0.02504450154271443,0.0,0.0,0.0,0.0,0.0,0.0,-21.884,0.0,0.0,0.0
191,0.0,0.0,0.0,0.2251875,0.0,0.0,0.0,0.0,0.0,0.0,-0.363,0.0,0.0,0.0,0.0,0.0,0.0,-0.004852294482265227,0.0,0.0,0.0,0.0,0.0,0.0,-23.556,0.0,0.0,0.0
192,0.0,0.0,0.0,0.2214248046875,0.0,0.0,0.0,0.0,0.0,0.0,-0.326,0.0,0.0,0.0,0.0,0.0,0.0,-0.035024800232412126,0.0,0.0,0.0,0.0,0.0,0.0,-25.452,0.0,0.0,0.0
193,0.0,0.0,0.0,0.2157763671875,0.0,0.0,0.0,0.0,0.0,0.0,-0.461,0.0,0.0,0.0,0.0,0.0,0.0,-0.06497424939894642,0.0,0.0,0.0,0.0,0.0,0.0,-24.812,0.0,0.0,0.0
194,0.0,0.0,0.0,0.209107421875,0.0,0.0,0.0,0.0,0.0,0.0,-0.62,0.0,0.0,0.0,0.0,0.0,0.0,-0.09438067955656153,0.0,0.0,0.0,0.0,0.0,0.0,-24.4,0.0,0.0,0.0
195,0.0,0.0,0.0,0.2015732421875,0.0,0.0,0.0,0.0,0.0,0.0,-0.703,0.0,0.0,0.0,0.0,0.0,0.0,-0.12417359656896053,0.0,0.0,0.0,0.0,0.0,0.0,-23.736,0.0,0.0,0.0
196,0.0,0.0,0.0,0.19360546875,0.0,0.0,0.0,0.0,0.0,0.0,-0.789,0.0,0.0,0.0,0.0,0.0,0.0,-0.15346384352204945,0.0,0.0,0.0,0.0,0.0,0.0,-20.764,0.0,0.0,0.0
197,0.0,0.0,0.0,0.18737890625,0.0,0.0,0.0,0.0,0.0,0.0,-0.727,0.0,0.0,0.0,0.0,0.0,0.0,-0.1818790297138712,0.0,0.0,0.0,0.0,0.0,0.0,-19.46,0.0,0.0,0.0
198,0.0,0.0,0.0,0.18027734375,0.0,0.0,0.0,0.0,0.0,0.0,-0.637,0.0,0.0,0.0,0.0,0.0,0.0,-0.21032136628359507,0.0,0.0,0.0,0.0,0.0,0.0,-20.924,0.0,0.0,0.0
199,0.0,0.0,0.0,0.1717236328125,0.0,0.0,0.0,0.0,0.0,0.0,-0.79,0.0,0.0,0.0,0.0,0.0,0.0,-0.23825027549271055,0.0,0.0,0.0,0.0,0.0,0.0,-21.312,0.0,0.0,0.0
200,0.0,0.0,0.0,0.1631875,0.0,0.0,0.0,0.0,0.0,0.0,-0.863,0.0,0.0,0.0,0.0,0.0,0.0,-0.2652730701956508,0.0,0.0,0.0,0.0,0.0,0.0,-20.764,0.0,0.0,0.0
201,0.0,0.0,0.0,0.15506640625,0.0,0.0,0.0,0.0,0.0,0.0,-0.849,0.0,0.0,0.0,0.0,0.0,0.0,-0.292085159691974,0.0,0.0,0.0,0.0,0.0,0.0,-15.8,0.0,0.0,0.0
202,0.0,0.0,0.0,0.1479736328125,0.0,0.0,0.0,0.0,0.0,0.0,-0.769,0.0,0.0,0.0,0.0,0.0,0.0,-0.31773912153842304,0.0,0.0,0.0,0.0,0.0,0.0,-14.52,0.0,0.0,0.0
203,0.0,0.0,0.0,0.1394287109375,0.0,0.0,0.0,0.0,0.0,0.0,-0.772,0.0,0.0,0.0,0.0,0.0,0.0,-0.342567528616931,0.0,0.0,0.0,0.0,0.0,0.0,-15.732,0.0,0.0,0.0
204,0.0,0.0,0.0,0.1314521484375,0.0,0.0,0.0,0.0,0.0,0.0,-0.847,0.0,0.0,0.0,0.0,0.0,0.0,-0.36683007661528194,0.0,0.0,0.0,0.0,0.0,0.0,-16.168,0.0,0.0,0.0
205,0.0,0.0,0.0,0.1240712890625,0.0,0.0,0.0,0.0,0.0,0.0,-0.768,0.0,0.0,0.0,0.0,0.0,0.0,-0.3904733424866657,0.0,0.0,0.0,0.0,0.0,0.0,-14.156,0.0,0.0,0.0
206,0.0,0.0,0.0,0.115814453125,0.0,0.0,0.0,0.0,0.0,0.0,-0.776,0.0,0.0,0.0,0.0,0.0,0.0,-0.41237033264061557,0.0,0.0,0.0,0.0,0.0,0.0,-12.372,0.0,0.0,0.0
207,0.0,0.0,0.0,0.1069716796875,0.0,0.0,0.0,0.0,0.0,0.0,-0.861,0.0,0.0,0.0,0.0,0.0,0.0,-0.4337784067110736,0.0,0.0,0.0,0.0,0.0,0.0,-12.304,0.0,0.0,0.0
208,0.0,0.0,0.0,0.099599609375,0.0,0.0,0.0,0.0,0.0,0.0,-0.842,0.0,0.0,0.0,0.0,0.0,0.0,-0.4540542862911365,0.0,0.0,0.0,0.0,0.0,0.0,-12.784,0.0,0.0,0.0
209,0.0,0.0,0.0,0.0932197265625,0.0,0.0,0.0,0.0,0.0,0.0,-0.684,0.0,0.0,0.0,0.0,0.0,0.0,-0.47288093359320954,0.0,0.0,0.0,0.0,0.0,0.0,-12.668,0.0,0.0,0.0
210,0.0,0.0,0.0,0.0859736328125,0.0,0.0,0.0,0.0,0.0,0.0,-0.685,0.0,0.0,0.0,0.0,0.0,0.0,-0.49065224382693595,0.0,0.0,0.0,0.0,0.0,0.0,-11.776,0.0,0.0,0.0
211,0.0,0.0,0.0,0.07816015625,0.0,0.0,0.0,0.0,0.0,0.0,-0.752,0.0,0.0,0.0,0.0,0.0,0.0,-0.5076816092325733,0.0,0.0,0.0,0.0,0.0,0.0,-12.372,0.0,0.0,0.0
212,0.0,0.0,0.0,0.0704716796875,0.0,0.0,0.0,0.0,0.0,0.0,-0.782,0.0,0.0,0.0,0.0,0.0,0.0,-0.522739370521469,0.0,0.0,0.0,0.0,0.0,0.0,-11.412,0.0,0.0,0.0
213,0.0,0.0,0.0,0.06395703125,0.0,0.0,0.0,0.0,0.0,0.0,-0.721,0.0,0.0,0.0,0.0,0.0,0.0,-0.5367913650698625,0.0,0.0,0.0,0.0,0.0,0.0,-10.016,0.0,0.0,0.0
214,0.0,0.0,0.0,0.0572978515625,0.0,0.0,0.0,0.0,0.0,0.0,-0.657,0.0,0.0,0.0,0.0,0.0,0.0,-0.5496116770213906,0.0,0.0,0.0,0.0,0.0,0.0,-10.128,0.0,0.0,0.0
215,0.0,0.0,0.0,0.0501962890625,0.0,0.0,0.0,0.0,0.0,0.0,-0.692,0.0,0.0,0.0,0.0,0.0,0.0,-0.5609177476899737,0.0,0.0,0.0,0.0,0.0,0.0,-11.66,0.0,0.0,0.0
216,0.0,0.0,0.0,0.043681640625,0.0,0.0,0.0,0.0,0.0,0.0,-0.691,0.0,0.0,0.0,0.0,0.0,0.0,-0.570798900858693,0.0,0.0,0.0,0.0,0.0,0.0,-12.484,0.0,0.0,0.0
217,0.0,0.0,0.0,0.037599609375,0.0,0.0,0.0,0.0,0.0,0.0,-0.635,0.0,0.0,0.0,0.0,0.0,0.0,-0.5793890830514524,0.0,0.0,0.0,0.0,0.0,0.0,-11.912,0.0,0.0,0.0
218,0.0,0.0,0.0,0.0315087890625,0.0,0.0,0.0,0.0,0.0,0.0,-0.616,0.0,0.0,0.0,0.0,0.0,0.0,-0.5864586618231371,0.0,0.0,0.0,0.0,0.0,0.0,-10.86,0.0,0.0,0.0
219,0.0,0.0,0.0,0.0255712890625,0.0,0.0,0.0,0.0,0.0,0.0,-0.603,0.0,0.0,0.0,0.0,0.0,0.0,-0.5920475032784301,0.0,0.0,0.0,0.0,0.0,0.0,-11.252,0.0,0.0,0.0
220,0.0,0.0,0.0,0.0194892578125,0.0,0.0,0.0,0.0,0.0,0.0,-0.604,0.0,0.0,0.0,0.0,0.0,0.0,-0.5961673942284808,0.0,0.0,0.0,0.0,0.0,0.0,-12.76,0.0,0.0,0.0
221,0.0,0.0,0.0,0.0138408203125,0.0,0.0,0.0,0.0,0.0,0.0,-0.602,0.0,0.0,0.0,0.0,0.0,0.0,-0.5988144551375592,0.0,0.0,0.0,0.0,0.0,0.0,-12.188,0.0,0.0,0.0
222,0.0,0.0,0.0,0.0084716796875,0.0,0.0,0.0,0.0,0.0,0.0,-0.557,0.0,0.0,0.0,0.0,0.0,0.0,-0.5999484491888489,0.0,0.0,0.0,0.0,0.0,0.0,-11.868,0.0,0.0,0.0
223,0.0,0.0,0.0,0.0029677734375,0.0,0.0,0.0,0.0,0.0,0.0,-0.543,0.0,0.0,0.0,0.0,0.0,0.0,-0.599590093687369,0.0,0.0,0.0,0.0,0.0,0.0,-12.052,0.0,0.0,0.0
224,0.0,0.0,0.0,-0.00209375,0.0,0.0,0.0,0.0,0.0,0.0,-0.538,0.0,0.0,0.0,0.0,0.0,0.0,-0.5977123784791918,0.0,0.0,0.0,0.0,0.0,0.0,-12.988,0.0,0.0,0.0
225,0.0,0.0,0.0,-0.007453125,0.0,0.0,0.0,0.0,0.0,0.0,-0.519,0.0,0.0,0.0,0.0,0.0,0.0,-0.5943718791199394,0.0,0.0,0.0,0.0,0.0,0.0,-14.588,0.0,0.0,0.0
226,0.0,0.0,0.0,-0.012966796875,0.0,0.0,0.0,0.0,0.0,0.0,-0.553,0.0,0.0,0.0,0.0,0.0,0.0,-0.5895285771329346,0.0,0.0,0.0,0.0,0.0,0.0,-14.772,0.0,0.0,0.0
227,0.0,0.0,0.0,-0.0177490234375,0.0,0.0,0.0,0.0,0.0,0.0,-0.528,0.0,0.0,0.0,0.0,0.0,0.0,-0.583211632096661,0.0,0.0,0.0,0.0,0.0,0.0,-14.132,0.0,0.0,0.0
228,0.0,0.0,0.0,-0.0228115234375,0.0,0.0,0.0,0.0,0.0,0.0,-0.481,0.0,0.0,0.0,0.0,0.0,0.0,-0.5755109529855138,0.0,0.0,0.0,0.0,0.0,0.0,-14.36,0.0,0.0,0.0
229,0.0,0.0,0.0,-0.02759375,0.0,0.0,0.0,0.0,0.0,0.0,-0.508,0.0,0.0,0.0,0.0,0.0,0.0,-0.5662790178797152,0.0,0.0,0.0,0.0,0.0,0.0,-14.452,0.0,0.0,0.0
230,0.0,0.0,0.0,-0.032087890625,0.0,0.0,0.0,0.0,0.0,0.0,-0.462,0.0,0.0,0.0,0.0,0.0,0.0,-0.5556098689086446,0.0,0.0,0.0,0.0,0.0,0.0,-15.94,0.0,0.0,0.0
231,0.0,0.0,0.0,-0.037736328125,0.0,0.0,0.0,0.0,0.0,0.0,-0.501,0.0,0.0,0.0,0.0,0.0,0.0,-0.543683505136434,0.0,0.0,0.0,0.0,0.0,0.0,-15.504,0.0,0.0,0.0
232,0.0,0.0,0.0,-0.042951171875,0.0,0.0,0.0,0.0,0.0,0.0,-0.558,0.0,0.0,0.0,0.0,0.0,0.0,-0.5302118524605742,0.0,0.0,0.0,0.0,0.0,0.0,-14.956,0.0,0.0,0.0
233,0.0,0.0,0.0,-0.048013671875,0.0,0.0,0.0,0.0,0.0,0.0,-0.513,0.0,0.0,0.0,0.0,0.0,0.0,-0.5155756447389115,0.0,0.0,0.0,0.0,0.0,0.0,-14.888,0.0,0.0,0.0
234,0.0,0.0,0.0,-0.05309375,0.0,0.0,0.0,0.0,0.0,0.0,-0.517,0.0,0.0,0.0,0.0,0.0,0.0,-0.49962448491336314,0.0,0.0,0.0,0.0,0.0,0.0,-14.956,0.0,0.0,0.0
235,0.0,0.0,0.0,-0.0578759765625,0.0,0.0,0.0,0.0,0.0,0.0,-0.502,0.0,0.0,0.0,0.0,0.0,0.0,-0.48229565832189003,0.0,0.0,0.0,0.0,0.0,0.0,-16.236,0.0,0.0,0.0
236,0.0,0.0,0.0,-0.063515625,0.0,0.0,0.0,0.0,0.0,0.0,-0.508,0.0,0.0,0.0,0.0,0.0,0.0,-0.46377866226261,0.0,0.0,0.0,0.0,0.0,0.0,-16.396,0.0,0.0,0.0
237,0.0,0.0,0.0,-0.0691650390625,0.0,0.0,0.0,0.0,0.0,0.0,-0.569,0.0,0.0,0.0,0.0,0.0,0.0,-0.44422978412367103,0.0,0.0,0.0,0.0,0.0,0.0,-15.8,0.0,0.0,0.0
238,0.0,0.0,0.0,-0.074822265625,0.0,0.0,0.0,0.0,0.0,0.0,-0.575,0.0,0.0,0.0,0.0,0.0,0.0,-0.4235154490520551,0.0,0.0,0.0,0.0,0.0,0.0,-16.076,0.0,0.0,0.0
239,0.0,0.0,0.0,-0.080470703125,0.0,0.0,0.0,0.0,0.0,0.0,-0.572,0.0,0.0,0.0,0.0,0.0,0.0,-0.40126079474337994,0.0,0.0,0.0,0.0,0.0,0.0,-15.46,0.0,0.0,0.0
240,0.0,0.0,0.0,-0.0855419921875,0.0,0.0,0.0,0.0,0.0,0.0,-0.54,0.0,0.0,0.0,0.0,0.0,0.0,-0.3790508523858952,0.0,0.0,0.0,0.0,0.0,0.0,-16.396,0.0,0.0,0.0
241,0.0,0.0,0.0,-0.091037109375,0.0,0.0,0.0,0.0,0.0,0.0,-0.532,0.0,0.0,0.0,0.0,0.0,0.0,-0.3552711996759327,0.0,0.0,0.0,0.0,0.0,0.0,-16.464,0.0,0.0,0.0
242,0.0,0.0,0.0,-0.0966953125,0.0,0.0,0.0,0.0,0.0,0.0,-0.56,0.0,0.0,0.0,0.0,0.0,0.0,-0.33020087805418424,0.0,0.0,0.0,0.0,0.0,0.0,-15.664,0.0,0.0,0.0
243,0.0,0.0,0.0,-0.1029208984375,0.0,0.0,0.0,0.0,0.0,0.0,-0.592,0.0,0.0,0.0,0.0,0.0,0.0,-0.30524865449724264,0.0,0.0,0.0,0.0,0.0,0.0,-15.48,0.0,0.0,0.0
244,0.0,0.0,0.0,-0.1092919921875,0.0,0.0,0.0,0.0,0.0,0.0,-0.639,0.0,0.0,0.0,0.0,0.0,0.0,-0.27910114382495527,0.0,0.0,0.0,0.0,0.0,0.0,-14.336,0.0,0.0,0.0
245,0.0,0.0,0.0,-0.1150849609375,0.0,0.0,0.0,0.0,0.0,0.0,-0.612,0.0,0.0,0.0,0.0,0.0,0.0,-0.25196726183570467,0.0,0.0,0.0,0.0,0.0,0.0,-14.452,0.0,0.0,0.0
246,0.0,0.0,0.0,-0.12117578125,0.0,0.0,0.0,0.0,0.0,0.0,-0.592,0.0,0.0,0.0,0.0,0.0,0.0,-0.22469858478853807,0.0,0.0,0.0,0.0,0.0,0.0,-14.656,0.0,0.0,0.0
247,0.0,0.0,0.0,-0.12711328125,0.0,0.0,0.0,0.0,0.0,0.0,-0.604,0.0,0.0,0.0,0.0,0.0,0.0,-0.1967686439588254,0.0,0.0,0.0,0.0,0.0,0.0,-14.568,0.0,0.0,0.0
248,0.0,0.0,0.0,-0.1333388671875,0.0,0.0,0.0,0.0,0.0,0.0,-0.607,0.0,0.0,0.0,0.0,0.0,0.0,-0.1675715553340587,0.0,0.0,0.0,0.0,0.0,0.0,-15.388,0.0,0.0,0.0
249,0.0,0.0,0.0,-0.1398544921875,0.0,0.0,0.0,0.0,0.0,0.0,-0.647,0.0,0.0,0.0,0.0,0.0,0.0,-0.1390522364035366,0.0,0.0,0.0,0.0,0.0,0.0,-14.568,0.0,0.0,0.0
250,0.0,0.0,0.0,-0.1459453125,0.0,0.0,0.0,0.0,0.0,0.0,-0.642,0.0,0.0,0.0,0.0,0.0,0.0,-0.10972498877653777,0.0,0.0,0.0,0.0,0.0,0.0,-14.452,0.0,0.0,0.0
251,0.0,0.0,0.0,-0.1518828125,0.0,0.0,0.0,0.0,0.0,0.0,-0.603,0.0,0.0,0.0,0.0,0.0,0.0,-0.07989484878581216,0.0,0.0,0.0,0.0,0.0,0.0,-13.744,0.0,0.0,0.0
252,0.0,0.0,0.0,-0.1552119140625,0.0,0.0,0.0,0.0,0.0,0.0,-0.518,0.0,0.0,0.0,0.0,0.0,0.0,-0.05033472514487694,0.0,0.0,0.0,0.0,0.0,0.0,-9.924,0.0,0.0,0.0
253,0.0,0.0,0.0,-0.154490234375,0.0,0.0,0.0,0.0,0.0,0.0,-0.159,0.0,0.0,0.0,0.0,0.0,0.0,-0.020399348186078792,0.0,0.0,0.0,0.0,0.0,0.0,-8.804,0.0,0.0,0.0
254,0.0,0.0,0.0,-0.1539033203125,0.0,0.0,0.0,0.0,0.0,0.0,0.077,0.0,0.0,0.0,0.0,0.0,0.0,0.010169839218464703,0.0,0.0,0.0,0.0,0.0,0.0,-8.232,0.0,0.0,0.0
255,0.0,0.0,0.0,-0.1513046875,0.0,0.0,0.0,0.0,0.0,0.0,0.121,0.0,0.0,0.0,0.0,0.0,0.0,2.3603439324966723e-05,0.0,0.0,0.0,0.0,0.0,0.0,-6.904,0.0,0.0,0.0
256,0.0,0.0,0.0,-0.147244140625,0.0,0.0,0.0,0.0,0.0,0.0,0.347,0.0,0.0,0.0,0.0,0.0,0.0,0.03014606026790891,0.0,0.0,0.0,0.0,0.0,0.0,-8.324,0.0,0.0,0.0
257,0.0,0.0,0.0,-0.14405859375,0.0,0.0,0.0,0.0,0.0,0.0,0.365,0.0,0.0,0.0,0.0,0.0,0.0,0.06015049999313212,0.0,0.0,0.0,0.0,0.0,0.0,-4.616,0.0,0.0,0.0
258,0.0,0.0,0.0,-0.13869921875,0.0,0.0,0.0,0.0,0.0,0.0,0.401,0.0,0.0,0.0,0.0,0.0,0.0,0.089932944956247,0.0,0.0,0.0,0.0,0.0,0.0,-3.864,0.0,0.0,0.0
259,0.0,0.0,0.0,-0.13276171875,0.0,0.0,0.0,0.0,0.0,0.0,0.564,0.0,0.0,0.0,0.0,0.0,0.0,0.1194748627501789,0.0,0.0,0.0,0.0,0.0,0.0,-4.572,0.0,0.0,0.0
260,0.0,0.0,0.0,-0.12594921875,0.0,0.0,0.0,0.0,0.0,0.0,0.625,0.0,0.0,0.0,0.0,0.0,0.0,0.14884623184938714,0.0,0.0,0.0,0.0,0.0,0.0,-3.864,0.0,0.0,0.0
261,0.0,0.0,0.0,-0.1176923828125,0.0,0.0,0.0,0.0,0.0,0.0,0.759,0.0,0.0,0.0,0.0,0.0,0.0,0.17830590878443497,0.0,0.0,0.0,0.0,0.0,0.0,-6.104,0.0,0.0,0.0
262,0.0,0.0,0.0,-0.110302734375,0.0,0.0,0.0,0.0,0.0,0.0,0.804,0.0,0.0,0.0,0.0,0.0,0.0,0.20580635592439359,0.0,0.0,0.0,0.0,0.0,0.0,-7.02,0.0,0.0,0.0
263,0.0,0.0,0.0,-0.1036435546875,0.0,0.0,0.0,0.0,0.0,0.0,0.702,0.0,0.0,0.0,0.0,0.0,0.0,0.2338859629581867,0.0,0.0,0.0,0.0,0.0,0.0,-7.864,0.0,0.0,0.0
264,0.0,0.0,0.0,-0.0959638671875,0.0,0.0,0.0,0.0,0.0,0.0,0.708,0.0,0.0,0.0,0.0,0.0,0.0,0.2610306114290252,0.0,0.0,0.0,0.0,0.0,0.0,-8.256,0.0,0.0,0.0
265,0.0,0.0,0.0,-0.0874189453125,0.0,0.0,0.0,0.0,0.0,0.0,0.809,0.0,0.0,0.0,0.0,0.0,0.0,0.2877580087507837,0.0,0.0,0.0,0.0,0.0,0.0,-8.232,0.0,0.0,0.0
266,0.0,0.0,0.0,-0.0785849609375,0.0,0.0,0.0,0.0,0.0,0.0,0.878,0.0,0.0,0.0,0.0,0.0,0.0,0.31393701487458353,0.0,0.0,0.0,0.0,0.0,0.0,-9.948,0.0,0.0,0.0
267,0.0,0.0,0.0,-0.07076171875,0.0,0.0,0.0,0.0,0.0,0.0,0.851,0.0,0.0,0.0,0.0,0.0,0.0,0.3392879838310707,0.0,0.0,0.0,0.0,0.0,0.0,-12.712,0.0,0.0,0.0
268,0.0,0.0,0.0,-0.0627939453125,0.0,0.0,0.0,0.0,0.0,0.0,0.776,0.0,0.0,0.0,0.0,0.0,0.0,0.3631092697325132,0.0,0.0,0.0,0.0,0.0,0.0,-12.14,0.0,0.0,0.0
269,0.0,0.0,0.0,-0.0539599609375,0.0,0.0,0.0,0.0,0.0,0.0,0.855,0.0,0.0,0.0,0.0,0.0,0.0,0.38671846146050876,0.0,0.0,0.0,0.0,0.0,0.0,-12.964,0.0,0.0,0.0
270,0.0,0.0,0.0,-0.0470029296875,0.0,0.0,0.0,0.0,0.0,0.0,0.812,0.0,0.0,0.0,0.0,0.0,0.0,0.40949867754825453,0.0,0.0,0.0,0.0,0.0,0.0,-12.6,0.0,0.0,0.0
271,0.0,0.0,0.0,-0.0396220703125,0.0,0.0,0.0,0.0,0.0,0.0,0.697,0.0,0.0,0.0,0.0,0.0,0.0,0.43051797013563314,0.0,0.0,0.0,0.0,0.0,0.0,-13.836,0.0,0.0,0.0
272,0.0,0.0,0.0,-0.0309326171875,0.0,0.0,0.0,0.0,0.0,0.0,0.808,0.0,0.0,0.0,0.0,0.0,0.0,0.4508613768470462,0.0,0.0,0.0,0.0,0.0,0.0,-15.96,0.0,0.0,0.0
273,0.0,0.0,0.0,-0.0231005859375,0.0,0.0,0.0,0.0,0.0,0.0,0.848,0.0,0.0,0.0,0.0,0.0,0.0,0.4703592935960864,0.0,0.0,0.0,0.0,0.0,0.0,-17.06,0.0,0.0,0.0
274,0.0,0.0,0.0,-0.01586328125,0.0,0.0,0.0,0.0,0.0,0.0,0.755,0.0,0.0,0.0,0.0,0.0,0.0,0.488068540384355,0.0,0.0,0.0,0.0,0.0,0.0,-17.652,0.0,0.0,0.0
275,0.0,0.0,0.0,-0.00890625,0.0,0.0,0.0,0.0,0.0,0.0,0.718,0.0,0.0,0.0,0.0,0.0,0.0,0.5049375374353315,0.0,0.0,0.0,0.0,0.0,0.0,-18.476,0.0,0.0,0.0
276,0.0,0.0,0.0,-0.0013720703125,0.0,0.0,0.0,0.0,0.0,0.0,0.716,0.0,0.0,0.0,0.0,0.0,0.0,0.5208279796670092,0.0,0.0,0.0,0.0,0.0,0.0,-16.26,0.0,0.0,0.0
277,0.0,0.0,0.0,0.006875,0.0,0.0,0.0,0.0,0.0,0.0,0.795,0.0,0.0,0.0,0.0,0.0,0.0,0.5347134236674493,0.0,0.0,0.0,0.0,0.0,0.0,-17.608,0.0,0.0,0.0
278,0.0,0.0,0.0,0.013263671875,0.0,0.0,0.0,0.0,0.0,0.0,0.754,0.0,0.0,0.0,0.0,0.0,0.0,0.5476177679755043,0.0,0.0,0.0,0.0,0.0,0.0,-19.096,0.0,0.0,0.0
279,0.0,0.0,0.0,0.0199228515625,0.0,0.0,0.0,0.0,0.0,0.0,0.641,0.0,0.0,0.0,0.0,0.0,0.0,0.5593982263259869,0.0,0.0,0.0,0.0,0.0,0.0,-18.82,0.0,0.0,0.0
280,0.0,0.0,0.0,0.0270146484375,0.0,0.0,0.0,0.0,0.0,0.0,0.707,0.0,0.0,0.0,0.0,0.0,0.0,0.5694550165471002,0.0,0.0,0.0,0.0,0.0,0.0,-18.844,0.0,0.0,0.0
281,0.0,0.0,0.0,0.03339453125,0.0,0.0,0.0,0.0,0.0,0.0,0.677,0.0,0.0,0.0,0.0,0.0,0.0,0.5781773586345206,0.0,0.0,0.0,0.0,0.0,0.0,-16.716,0.0,0.0,0.0
282,0.0,0.0,0.0,0.0400537109375,0.0,0.0,0.0,0.0,0.0,0.0,0.655,0.0,0.0,0.0,0.0,0.0,0.0,0.585600981178133,0.0,0.0,0.0,0.0,0.0,0.0,-18.5,0.0,0.0,0.0
283,0.0,0.0,0.0,0.0459912109375,0.0,0.0,0.0,0.0,0.0,0.0,0.64,0.0,0.0,0.0,0.0,0.0,0.0,0.5912983691706472,0.0,0.0,0.0,0.0,0.0,0.0,-19.916,0.0,0.0,0.0
284,0.0,0.0,0.0,0.052361328125,0.0,0.0,0.0,0.0,0.0,0.0,0.607,0.0,0.0,0.0,0.0,0.0,0.0,0.5956505056092498,0.0,0.0,0.0,0.0,0.0,0.0,-18.568,0.0,0.0,0.0
285,0.0,0.0,0.0,0.0585966796875,0.0,0.0,0.0,0.0,0.0,0.0,0.637,0.0,0.0,0.0,0.0,0.0,0.0,0.5985288383067943,0.0,0.0,0.0,0.0,0.0,0.0,-16.784,0.0,0.0,0.0
286,0.0,0.0,0.0,0.0641015625,0.0,0.0,0.0,0.0,0.0,0.0,0.602,0.0,0.0,0.0,0.0,0.0,0.0,0.5998751314811348,0.0,0.0,0.0,0.0,0.0,0.0,-15.664,0.0,0.0,0.0
287,0.0,0.0,0.0,0.0691728515625,0.0,0.0,0.0,0.0,0.0,0.0,0.534,0.0,0.0,0.0,0.0,0.0,0.0,0.599734534280004,0.0,0.0,0.0,0.0,0.0,0.0,-16.42,0.0,0.0,0.0
288,0.0,0.0,0.0,0.0745322265625,0.0,0.0,0.0,0.0,0.0,0.0,0.517,0.0,0.0,0.0,0.0,0.0,0.0,0.598077268135623,0.0,0.0,0.0,0.0,0.0,0.0,-16.488,0.0,0.0,0.0
289,0.0,0.0,0.0,0.079748046875,0.0,0.0,0.0,0.0,0.0,0.0,0.528,0.0,0.0,0.0,0.0,0.0,0.0,0.5949749301894112,0.0,0.0,0.0,0.0,0.0,0.0,-15.116,0.0,0.0,0.0
290,0.0,0.0,0.0,0.0848193359375,0.0,0.0,0.0,0.0,0.0,0.0,0.519,0.0,0.0,0.0,0.0,0.0,0.0,0.5903659764461383,0.0,0.0,0.0,0.0,0.0,0.0,-13.904,0.0,0.0,0.0
291,0.0,0.0,0.0,0.089890625,0.0,0.0,0.0,0.0,0.0,0.0,0.513,0.0,0.0,0.0,0.0,0.0,0.0,0.5842281072242691,0.0,0.0,0.0,0.0,0.0,0.0,-14.132,0.0,0.0,0.0
292,0.0,0.0,0.0,0.0946630859375,0.0,0.0,0.0,0.0,0.0,0.0,0.504,0.0,0.0,0.0,0.0,0.0,0.0,0.5767445145865818,0.0,0.0,0.0,0.0,0.0,0.0,-14.956,0.0,0.0,0.0
293,0.0,0.0,0.0,0.099310546875,0.0,0.0,0.0,0.0,0.0,0.0,0.478,0.0,0.0,0.0,0.0,0.0,0.0,0.567767453747633,0.0,0.0,0.0,0.0,0.0,0.0,-15.48,0.0,0.0,0.0
294,0.0,0.0,0.0,0.1039306640625,0.0,0.0,0.0,0.0,0.0,0.0,0.458,0.0,0.0,0.0,0.0,0.0,0.0,0.5571769090221022,0.0,0.0,0.0,0.0,0.0,0.0,-14.544,0.0,0.0,0.0
295,0.0,0.0,0.0,0.109001953125,0.0,0.0,0.0,0.0,0.0,0.0,0.477,0.0,0.0,0.0,0.0,0.0,0.0,0.5455074739673437,0.0,0.0,0.0,0.0,0.0,0.0,-13.192,0.0,0.0,0.0
296,0.0,0.0,0.0,0.1140732421875,0.0,0.0,0.0,0.0,0.0,0.0,0.518,0.0,0.0,0.0,0.0,0.0,0.0,0.5323081021247219,0.0,0.0,0.0,0.0,0.0,0.0,-12.6,0.0,0.0,0.0
297,0.0,0.0,0.0,0.11914453125,0.0,0.0,0.0,0.0,0.0,0.0,0.512,0.0,0.0,0.0,0.0,0.0,0.0,0.5176436270231223,0.0,0.0,0.0,0.0,0.0,0.0,-12.76,0.0,0.0,0.0
298,0.0,0.0,0.0,0.12421484375,0.0,0.0,0.0,0.0,0.0,0.0,0.515,0.0,0.0,0.0,0.0,0.0,0.0,0.5019554724612849,0.0,0.0,0.0,0.0,0.0,0.0,-13.492,0.0,0.0,0.0
299,0.0,0.0,0.0,0.1288447265625,0.0,0.0,0.0,0.0,0.0,0.0,0.49,0.0,0.0,0.0,0.0,0.0,0.0,0.4850501718945577,0.0,0.0,0.0,0.0,0.0,0.0,-12.872,0.0,0.0,0.0
300,0.0,0.0,0.0,0.1339150390625,0.0,0.0,0.0,0.0,0.0,0.0,0.477,0.0,0.0,0.0,0.0,0.0,0.0,0.4666591079236972,0.0,0.0,0.0,0.0,0.0,0.0,-12.028,0.0,0.0,0.0
301,0.0,0.0,0.0,0.1392841796875,0.0,0.0,0.0,0.0,0.0,0.0,0.52,0.0,0.0,0.0,0.0,0.0,0.0,0.44719518377941264,0.0,0.0,0.0,0.0,0.0,0.0,-11.732,0.0,0.0,0.0
302,0.0,0.0,0.0,0.14464453125,0.0,0.0,0.0,0.0,0.0,0.0,0.544,0.0,0.0,0.0,0.0,0.0,0.0,0.42673012135437405,0.0,0.0,0.0,0.0,0.0,0.0,-11.98,0.0,0.0,0.0
303,0.0,0.0,0.0,0.1501396484375,0.0,0.0,0.0,0.0,0.0,0.0,0.546,0.0,0.0,0.0,0.0,0.0,0.0,0.40499930540483875,0.0,0.0,0.0,0.0,0.0,0.0,-12.532,0.0,0.0,0.0
304,0.0,0.0,0.0,0.1556533203125,0.0,0.0,0.0,0.0,0.0,0.0,0.553,0.0,0.0,0.0,0.0,0.0,0.0,0.38254089155187887,0.0,0.0,0.0,0.0,0.0,0.0,-13.308,0.0,0.0,0.0
305,0.0,0.0,0.0,0.1608681640625,0.0,0.0,0.0,0.0,0.0,0.0,0.541,0.0,0.0,0.0,0.0,0.0,0.0,0.35915777508390706,0.0,0.0,0.0,0.0,0.0,0.0,-12.92,0.0,0.0,0.0
306,0.0,0.0,0.0,0.1668056640625,0.0,0.0,0.0,0.0,0.0,0.0,0.552,0.0,0.0,0.0,0.0,0.0,0.0,0.3343489799304017,0.0,0.0,0.0,0.0,0.0,0.0,-12.712,0.0,0.0,0.0
307,0.0,0.0,0.0,0.1730322265625,0.0,0.0,0.0,0.0,0.0,0.0,0.607,0.0,0.0,0.0,0.0,0.0,0.0,0.3088122556312719,0.0,0.0,0.0,0.0,0.0,0.0,-12.304,0.0,0.0,0.0
308,0.0,0.0,0.0,0.178978515625,0.0,0.0,0.0,0.0,0.0,0.0,0.611,0.0,0.0,0.0,0.0,0.0,0.0,0.28310489371993025,0.0,0.0,0.0,0.0,0.0,0.0,-12.392,0.0,0.0,0.0
309,0.0,0.0,0.0,0.185060546875,0.0,0.0,0.0,0.0,0.0,0.0,0.603,0.0,0.0,0.0,0.0,0.0,0.0,0.25634137820628905,0.0,0.0,0.0,0.0,0.0,0.0,-12.76,0.0,0.0,0.0
310,0.0,0.0,0.0,0.190853515625,0.0,0.0,0.0,0.0,0.0,0.0,0.602,0.0,0.0,0.0,0.0,0.0,0.0,0.22846971750323938,0.0,0.0,0.0,0.0,0.0,0.0,-12.804,0.0,0.0,0.0
311,0.0,0.0,0.0,0.1966552734375,0.0,0.0,0.0,0.0,0.0,0.0,0.579,0.0,0.0,0.0,0.0,0.0,0.0,0.20065402900095394,0.0,0.0,0.0,0.0,0.0,0.0,-12.484,0.0,0.0,0.0
312,0.0,0.0,0.0,0.2028818359375,0.0,0.0,0.0,0.0,0.0,0.0,0.613,0.0,0.0,0.0,0.0,0.0,0.0,0.17228900585652643,0.0,0.0,0.0,0.0,0.0,0.0,-12.392,0.0,0.0,0.0
313,0.0,0.0,0.0,0.209107421875,0.0,0.0,0.0,0.0,0.0,0.0,0.629,0.0,0.0,0.0,0.0,0.0,0.0,0.14259401800430044,0.0,0.0,0.0,0.0,0.0,0.0,-13.24,0.0,0.0,0.0
314,0.0,0.0,0.0,0.214025390625,0.0,0.0,0.0,0.0,0.0,0.0,0.586,0.0,0.0,0.0,0.0,0.0,0.0,0.1142096042862652,0.0,0.0,0.0,0.0,0.0,0.0,-16.9,0.0,0.0,0.0
315,0.0,0.0,0.0,0.214755859375,0.0,0.0,0.0,0.0,0.0,0.0,0.338,0.0,0.0,0.0,0.0,0.0,0.0,0.08431893233044725,0.0,0.0,0.0,0.0,0.0,0.0,-21.496,0.0,0.0,0.0
316,0.0,0.0,0.0,0.213591796875,0.0,0.0,0.0,0.0,0.0,0.0,-0.047,0.0,0.0,0.0,0.0,0.0,0.0,0.05414400756301349,0.0,0.0,0.0,0.0,0.0,0.0,-21.176,0.0,0.0,0.0
317,0.0,0.0,0.0,0.211859375,0.0,0.0,0.0,0.0,0.0,0.0,-0.119,0.0,0.0,0.0,0.0,0.0,0.0,0.024762933636216383,0.0,0.0,0.0,0.0,0.0,0.0,-22.388,0.0,0.0,0.0
318,0.0,0.0,0.0,0.207943359375,0.0,0.0,0.0,0.0,0.0,0.0,-0.282,0.0,0.0,0.0,0.0,0.0,0.0,-0.005415895348183994,0.0,0.0,0.0,0.0,0.0,0.0,-21.06,0.0,0.0,0.0
319,0.0,0.0,0.0,0.2047578125,0.0,0.0,0.0,0.0,0.0,0.0,-0.377,0.0,0.0,0.0,0.0,0.0,0.0,-0.03531183868933995,0.0,0.0,0.0,0.0,0.0,0.0,-22.776,0.0,0.0,0.0
320,0.0,0.0,0.0,0.2009951171875,0.0,0.0,0.0,0.0,0.0,0.0,-0.331,0.0,0.0,0.0,0.0,0.0,0.0,-0.06491096562484543,0.0,0.0,0.0,0.0,0.0,0.0,-25.888,0.0,0.0,0.0
321,0.0,0.0,0.0,0.1956357421875,0.0,0.0,0.0,0.0,0.0,0.0,-0.441,0.0,0.0,0.0,0.0,0.0,0.0,-0.09463566362582893,0.0,0.0,0.0,0.0,0.0,0.0,-25.176,0.0,0.0,0.0
322,0.0,0.0,0.0,0.189400390625,0.0,0.0,0.0,0.0,0.0,0.0,-0.579,0.0,0.0,0.0,0.0,0.0,0.0,-0.12424077373627013,0.0,0.0,0.0,0.0,0.0,0.0,-23.464,0.0,0.0,0.0
323,0.0,0.0,0.0,0.181875,0.0,0.0,0.0,0.0,0.0,0.0,-0.67,0.0,0.0,0.0,0.0,0.0,0.0,-0.15343756772964573,0.0,0.0,0.0,0.0,0.0,0.0,-23.716,0.0,0.0,0.0
324,0.0,0.0,0.0,0.17346484375,0.0,0.0,0.0,0.0,0.0,0.0,-0.818,0.0,0.0,0.0,0.0,0.0,0.0,-0.18225319023518685,0.0,0.0,0.0,0.0,0.0,0.0,-22.664,0.0,0.0,0.0
325,0.0,0.0,0.0,0.1670947265625,0.0,0.0,0.0,0.0,0.0,0.0,-0.771,0.0,0.0,0.0,0.0,0.0,0.0,-0.21121939596213027,0.0,0.0,0.0,0.0,0.0,0.0,-21.336,0.0,0.0,0.0
326,0.0,0.0,0.0,0.1607236328125,0.0,0.0,0.0,0.0,0.0,0.0,-0.616,0.0,0.0,0.0,0.0,0.0,0.0,-0.23832707771969103,0.0,0.0,0.0,0.0,0.0,0.0,-20.9,0.0,0.0,0.0
327,0.0,0.0,0.0,0.1526025390625,0.0,0.0,0.0,0.0,0.0,0.0,-0.719,0.0,0.0,0.0,0.0,0.0,0.0,-0.26557135121262476,0.0,0.0,0.0,0.0,0.0,0.0,-19.916,0.0,0.0,0.0
328,0.0,0.0,0.0,0.1439130859375,0.0,0.0,0.0,0.0,0.0,0.0,-0.834,0.0,0.0,0.0,0.0,0.0,0.0,-0.29269787104934575,0.0,0.0,0.0,0.0,0.0,0.0,-21.016,0.0,0.0,0.0
329,0.0,0.0,0.0,0.1353681640625,0.0,0.0,0.0,0.0,0.0,0.0,-0.879,0.0,0.0,0.0,0.0,0.0,0.0,-0.3179114144859322,0.0,0.0,0.0,0.0,0.0,0.0,-17.312,0.0,0.0,0.0
330,0.0,0.0,0.0,0.1282666015625,0.0,0.0,0.0,0.0,0.0,0.0,-0.806,0.0,0.0,0.0,0.0,0.0,0.0,-0.34300310893982694,0.0,0.0,0.0,0.0,0.0,0.0,-13.972,0.0,0.0,0.0
331,0.0,0.0,0.0,0.1198662109375,0.0,0.0,0.0,0.0,0.0,0.0,-0.75,0.0,0.0,0.0,0.0,0.0,0.0,-0.36801584489299294,0.0,0.0,0.0,0.0,0.0,0.0,-14.588,0.0,0.0,0.0
332,0.0,0.0,0.0,0.1111767578125,0.0,0.0,0.0,0.0,0.0,0.0,-0.881,0.0,0.0,0.0,0.0,0.0,0.0,-0.3904499902150182,0.0,0.0,0.0,0.0,0.0,0.0,-16.236,0.0,0.0,0.0
333,0.0,0.0,0.0,0.1040751953125,0.0,0.0,0.0,0.0,0.0,0.0,-0.807,0.0,0.0,0.0,0.0,0.0,0.0,-0.4127530846191669,0.0,0.0,0.0,0.0,0.0,0.0,-16.372,0.0,0.0,0.0
334,0.0,0.0,0.0,0.096703125,0.0,0.0,0.0,0.0,0.0,0.0,-0.703,0.0,0.0,0.0,0.0,0.0,0.0,-0.4344553203679355,0.0,0.0,0.0,0.0,0.0,0.0,-14.224,0.0,0.0,0.0
335,0.0,0.0,0.0,0.0875712890625,0.0,0.0,0.0,0.0,0.0,0.0,-0.832,0.0,0.0,0.0,0.0,0.0,0.0,-0.4542146213774567,0.0,0.0,0.0,0.0,0.0,0.0,-11.912,0.0,0.0,0.0
336,0.0,0.0,0.0,0.079748046875,0.0,0.0,0.0,0.0,0.0,0.0,-0.874,0.0,0.0,0.0,0.0,0.0,0.0,-0.47319993219980294,0.0,0.0,0.0,0.0,0.0,0.0,-12.28,0.0,0.0,0.0
337,0.0,0.0,0.0,0.072935546875,0.0,0.0,0.0,0.0,0.0,0.0,-0.743,0.0,0.0,0.0,0.0,0.0,0.0,-0.4912127137024328,0.0,0.0,0.0,0.0,0.0,0.0,-11.912,0.0,0.0,0.0
338,0.0,0.0,0.0,0.0659873046875,0.0,0.0,0.0,0.0,0.0,0.0,-0.683,0.0,0.0,0.0,0.0,0.0,0.0,-0.5077467852038461,0.0,0.0,0.0,0.0,0.0,0.0,-11.228,0.0,0.0,0.0
339,0.0,0.0,0.0,0.0581640625,0.0,0.0,0.0,0.0,0.0,0.0,-0.732,0.0,0.0,0.0,0.0,0.0,0.0,-0.5230526050272849,0.0,0.0,0.0,0.0,0.0,0.0,-12.028,0.0,0.0,0.0
340,0.0,0.0,0.0,0.0501962890625,0.0,0.0,0.0,0.0,0.0,0.0,-0.808,0.0,0.0,0.0,0.0,0.0,0.0,-0.5371940294384712,0.0,0.0,0.0,0.0,0.0,0.0,-12.304,0.0,0.0,0.0
341,0.0,0.0,0.0,0.043681640625,0.0,0.0,0.0,0.0,0.0,0.0,-0.751,0.0,0.0,0.0,0.0,0.0,0.0,-0.5497378432492126,0.0,0.0,0.0,0.0,0.0,0.0,-10.608,0.0,0.0,0.0
342,0.0,0.0,0.0,0.0374462890625,0.0,0.0,0.0,0.0,0.0,0.0,-0.627,0.0,0.0,0.0,0.0,0.0,0.0,-0.561037763700435,0.0,0.0,0.0,0.0,0.0,0.0,-10.976,0.0,0.0,0.0
343,0.0,0.0,0.0,0.0302001953125,0.0,0.0,0.0,0.0,0.0,0.0,-0.681,0.0,0.0,0.0,0.0,0.0,0.0,-0.5710966057581648,0.0,0.0,0.0,0.0,0.0,0.0,-11.18,0.0,0.0,0.0
344,0.0,0.0,0.0,0.0241181640625,0.0,0.0,0.0,0.0,0.0,0.0,-0.683,0.0,0.0,0.0,0.0,0.0,0.0,-0.5794824667629799,0.0,0.0,0.0,0.0,0.0,0.0,-12.324,0.0,0.0,0.0
345,0.0,0.0,0.0,0.017603515625,0.0,0.0,0.0,0.0,0.0,0.0,-0.624,0.0,0.0,0.0,0.0,0.0,0.0,-0.5865332039978104,0.0,0.0,0.0,0.0,0.0,0.0,-12.28,0.0,0.0,0.0
346,0.0,0.0,0.0,0.0116572265625,0.0,0.0,0.0,0.0,0.0,0.0,-0.644,0.0,0.0,0.0,0.0,0.0,0.0,-0.5921585398469279,0.0,0.0,0.0,0.0,0.0,0.0,-9.512,0.0,0.0,0.0
347,0.0,0.0,0.0,0.0057197265625,0.0,0.0,0.0,0.0,0.0,0.0,-0.58,0.0,0.0,0.0,0.0,0.0,0.0,-0.5962535134754784,0.0,0.0,0.0,0.0,0.0,0.0,-11.364,0.0,0.0,0.0
348,0.0,0.0,0.0,-0.0009384765625,0.0,0.0,0.0,0.0,0.0,0.0,-0.638,0.0,0.0,0.0,0.0,0.0,0.0,-0.5988365967975983,0.0,0.0,0.0,0.0,0.0,0.0,-11.776,0.0,0.0,0.0
349,0.0,0.0,0.0,-0.006298828125,0.0,0.0,0.0,0.0,0.0,0.0,-0.619,0.0,0.0,0.0,0.0,0.0,0.0,-0.5999584069431361,0.0,0.0,0.0,0.0,0.0,0.0,-12.508,0.0,0.0,0.0
350,0.0,0.0,0.0,-0.0118115234375,0.0,0.0,0.0,0.0,0.0,0.0,-0.539,0.0,0.0,0.0,0.0,0.0,0.0,-0.5995520018905988,0.0,0.0,0.0,0.0,0.0,0.0,-12.988,0.0,0.0,0.0
351,0.0,0.0,0.0,-0.017306640625,0.0,0.0,0.0,0.0,0.0,0.0,-0.569,0.0,0.0,0.0,0.0,0.0,0.0,-0.5976753522634252,0.0,0.0,0.0,0.0,0.0,0.0,-11.82,0.0,0.0,0.0
352,0.0,0.0,0.0,-0.02208984375,0.0,0.0,0.0,0.0,0.0,0.0,-0.507,0.0,0.0,0.0,0.0,0.0,0.0,-0.5942854445321453,0.0,0.0,0.0,0.0,0.0,0.0,-13.972,0.0,0.0,0.0
353,0.0,0.0,0.0,-0.02773828125,0.0,0.0,0.0,0.0,0.0,0.0,-0.525,0.0,0.0,0.0,0.0,0.0,0.0,-0.5893700619086367,0.0,0.0,0.0,0.0,0.0,0.0,-14.68,0.0,0.0,0.0
354,0.0,0.0,0.0,-0.0325205078125,0.0,0.0,0.0,0.0,0.0,0.0,-0.538,0.0,0.0,0.0,0.0,0.0,0.0,-0.5831044390192539,0.0,0.0,0.0,0.0,0.0,0.0,-14.384,0.0,0.0,0.0
355,0.0,0.0,0.0,-0.037591796875,0.0,0.0,0.0,0.0,0.0,0.0,-0.479,0.0,0.0,0.0,0.0,0.0,0.0,-0.5752412243351427,0.0,0.0,0.0,0.0,0.0,0.0,-14.452,0.0,0.0,0.0
356,0.0,0.0,0.0,-0.042951171875,0.0,0.0,0.0,0.0,0.0,0.0,-0.537,0.0,0.0,0.0,0.0,0.0,0.0,-0.566020855615336,0.0,0.0,0.0,0.0,0.0,0.0,-13.104,0.0,0.0,0.0
357,0.0,0.0,0.0,-0.0474365234375,0.0,0.0,0.0,0.0,0.0,0.0,-0.503,0.0,0.0,0.0,0.0,0.0,0.0,-0.5554333925474328,0.0,0.0,0.0,0.0,0.0,0.0,-14.084,0.0,0.0,0.0
358,0.0,0.0,0.0,-0.0526611328125,0.0,0.0,0.0,0.0,0.0,0.0,-0.468,0.0,0.0,0.0,0.0,0.0,0.0,-0.5433493351344825,0.0,0.0,0.0,0.0,0.0,0.0,-16.028,0.0,0.0,0.0
359,0.0,0.0,0.0,-0.0580205078125,0.0,0.0,0.0,0.0,0.0,0.0,-0.548,0.0,0.0,0.0,0.0,0.0,0.0,-0.5298505041693545,0.0,0.0,0.0,0.0,0.0,0.0,-14.932,0.0,0.0,0.0
360,0.0,0.0,0.0,-0.0629384765625,0.0,0.0,0.0,0.0,0.0,0.0,-0.51,0.0,0.0,0.0,0.0,0.0,0.0,-0.5153362274473229,0.0,0.0,0.0,0.0,0.0,0.0,-15.64,0.0,0.0,0.0
361,0.0,0.0,0.0,-0.0685869140625,0.0,0.0,0.0,0.0,0.0,0.0,-0.527,0.0,0.0,0.0,0.0,0.0,0.0,-0.4991792771055737,0.0,0.0,0.0,0.0,0.0,0.0,-14.428,0.0,0.0,0.0
362,0.0,0.0,0.0,-0.073369140625,0.0,0.0,0.0,0.0,0.0,0.0,-0.541,0.0,0.0,0.0,0.0,0.0,0.0,-0.4818280681050233,0.0,0.0,0.0,0.0,0.0,0.0,-15.136,0.0,0.0,0.0
363,0.0,0.0,0.0,-0.078296875,0.0,0.0,0.0,0.0,0.0,0.0,-0.479,0.0,0.0,0.0,0.0,0.0,0.0,-0.46348174037141393,0.0,0.0,0.0,0.0,0.0,0.0,-17.152,0.0,0.0,0.0
364,0.0,0.0,0.0,-0.08380078125,0.0,0.0,0.0,0.0,0.0,0.0,-0.532,0.0,0.0,0.0,0.0,0.0,0.0,-0.4438468798181637,0.0,0.0,0.0,0.0,0.0,0.0,-16.692,0.0,0.0,0.0
365,0.0,0.0,0.0,-0.0890166015625,0.0,0.0,0.0,0.0,0.0,0.0,-0.535,0.0,0.0,0.0,0.0,0.0,0.0,-0.423020161906974,0.0,0.0,0.0,0.0,0.0,0.0,-16.6,0.0,0.0,0.0
366,0.0,0.0,0.0,-0.09451171875,0.0,0.0,0.0,0.0,0.0,0.0,-0.528,0.0,0.0,0.0,0.0,0.0,0.0,-0.4014234902800239,0.0,0.0,0.0,0.0,0.0,0.0,-15.664,0.0,0.0,0.0
367,0.0,0.0,0.0,-0.1000244140625,0.0,0.0,0.0,0.0,0.0,0.0,-0.565,0.0,0.0,0.0,0.0,0.0,0.0,-0.37852277625402314,0.0,0.0,0.0,0.0,0.0,0.0,-14.704,0.0,0.0,0.0
368,0.0,0.0,0.0,-0.105240234375,0.0,0.0,0.0,0.0,0.0,0.0,-0.533,0.0,0.0,0.0,0.0,0.0,0.0,-0.3544995390698888,0.0,0.0,0.0,0.0,0.0,0.0,-16.236,0.0,0.0,0.0
369,0.0,0.0,0.0,-0.111177734375,0.0,0.0,0.0,0.0,0.0,0.0,-0.561,0.0,0.0,0.0,0.0,0.0,0.0,-0.33028866116936284,0.0,0.0,0.0,0.0,0.0,0.0,-15.756,0.0,0.0,0.0
370,0.0,0.0,0.0,-0.116826171875,0.0,0.0,0.0,0.0,0.0,0.0,-0.583,0.0,0.0,0.0,0.0,0.0,0.0,-0.30470167551013877,0.0,0.0,0.0,0.0,0.0,0.0,-15.8,0.0,0.0,0.0
371,0.0,0.0,0.0,-0.1229169921875,0.0,0.0,0.0,0.0,0.0,0.0,-0.582,0.0,0.0,0.0,0.0,0.0,0.0,-0.278379083692503,0.0,0.0,0.0,0.0,0.0,0.0,-15.48,0.0,0.0,0.0
372,0.0,0.0,0.0,-0.128990234375,0.0,0.0,0.0,0.0,0.0,0.0,-0.62,0.0,0.0,0.0,0.0,0.0,0.0,-0.2516381069849131,0.0,0.0,0.0,0.0,0.0,0.0,-14.36,0.0,0.0,0.0
373,0.0,0.0,0.0,-0.134927734375,0.0,0.0,0.0,0.0,0.0,0.0,-0.606,0.0,0.0,0.0,0.0,0.0,0.0,-0.22427871205766636,0.0,0.0,0.0,0.0,0.0,0.0,-15.62,0.0,0.0,0.0
374,0.0,0.0,0.0,-0.1410087890625,0.0,0.0,0.0,0.0,0.0,0.0,-0.606,0.0,0.0,0.0,0.0,0.0,0.0,-0.19602047389661229,0.0,0.0,0.0,0.0,0.0,0.0,-15.664,0.0,0.0,0.0
375,0.0,0.0,0.0,-0.1469560546875,0.0,0.0,0.0,0.0,0.0,0.0,-0.61,0.0,0.0,0.0,0.0,0.0,0.0,-0.16766083657647987,0.0,0.0,0.0,0.0,0.0,0.0,-15.572,0.0,0.0,0.0
376,0.0,0.0,0.0,-0.153037109375,0.0,0.0,0.0,0.0,0.0,0.0,-0.596,0.0,0.0,0.0,0.0,0.0,0.0,-0.1387314596731451,0.0,0.0,0.0,0.0,0.0,0.0,-15.16,0.0,0.0,0.0
377,0.0,0.0,0.0,-0.159263671875,0.0,0.0,0.0,0.0,0.0,0.0,-0.621,0.0,0.0,0.0,0.0,0.0,0.0,-0.1091208878875481,0.0,0.0,0.0,0.0,0.0,0.0,-14.04,0.0,0.0,0.0
378,0.0,0.0,0.0,-0.1652099609375,0.0,0.0,0.0,0.0,0.0,0.0,-0.62,0.0,0.0,0.0,0.0,0.0,0.0,-0.07968146888579795,0.0,0.0,0.0,0.0,0.0,0.0,-13.376,0.0,0.0,0.0
379,0.0,0.0,0.0,-0.1685400390625,0.0,0.0,0.0,0.0,0.0,0.0,-0.522,0.0,0.0,0.0,0.0,0.0,0.0,-0.0499227527439035,0.0,0.0,0.0,0.0,0.0,0.0,-9.284,0.0,0.0,0.0
380,0.0,0.0,0.0,-0.1679619140625,0.0,0.0,0.0,0.0,0.0,0.0,-0.162,0.0,0.0,0.0,0.0,0.0,0.0,-0.019773135386773104,0.0,0.0,0.0,0.0,0.0,0.0,-7.384,0.0,0.0,0.0
381,0.0,0.0,0.0,-0.167240234375,0.0,0.0,0.0,0.0,0.0,0.0,0.072,0.0,0.0,0.0,0.0,0.0,0.0,0.010211318067298985,0.0,0.0,0.0,0.0,0.0,0.0,-7.02,0.0,0.0,0.0
382,0.0,0.0,0.0,-0.1641904296875,0.0,0.0,0.0,0.0,0.0,0.0,0.15,0.0,0.0,0.0,0.0,0.0,0.0,2.7179718008282447e-05,0.0,0.0,0.0,0.0,0.0,0.0,-6.652,0.0,0.0,0.0
383,0.0,0.0,0.0,-0.1602744140625,0.0,0.0,0.0,0.0,0.0,0.0,0.372,0.0,0.0,0.0,0.0,0.0,0.0,0.030320360968489026,0.0,0.0,0.0,0.0,0.0,0.0,-8.688,0.0,0.0,0.0
384,0.0,0.0,0.0,-0.1572333984375,0.0,0.0,0.0,0.0,0.0,0.0,0.343,0.0,0.0,0.0,0.0,0.0,0.0,0.060139113543492106,0.0,0.0,0.0,0.0,0.0,0.0,-5.44,0.0,0.0,0.0
385,0.0,0.0,0.0,-0.1518828125,0.0,0.0,0.0,0.0,0.0,0.0,0.398,0.0,0.0,0.0,0.0,0.0,0.0,0.0898855639139952,0.0,0.0,0.0,0.0,0.0,0.0,-4.208,0.0,0.0,0.0
386,0.0,0.0,0.0,-0.1460888671875,0.0,0.0,0.0,0.0,0.0,0.0,0.559,0.0,0.0,0.0,0.0,0.0,0.0,0.11949589063766691,0.0,0.0,0.0,0.0,0.0,0.0,-4.688,0.0,0.0,0.0
387,0.0,0.0,0.0,-0.13898828125,0.0,0.0,0.0,0.0,0.0,0.0,0.625,0.0,0.0,0.0,0.0,0.0,0.0,0.1489453139657791,0.0,0.0,0.0,0.0,0.0,0.0,-3.976,0.0,0.0,0.0
388,0.0,0.0,0.0,-0.1304423828125,0.0,0.0,0.0,0.0,0.0,0.0,0.784,0.0,0.0,0.0,0.0,0.0,0.0,0.17753265597160936,0.0,0.0,0.0,0.0,0.0,0.0,-6.012,0.0,0.0,0.0
389,0.0,0.0,0.0,-0.1230615234375,0.0,0.0,0.0,0.0,0.0,0.0,0.818,0.0,0.0,0.0,0.0,0.0,0.0,0.20643441917495242,0.0,0.0,0.0,0.0,0.0,0.0,-7.34,0.0,0.0,0.0
390,0.0,0.0,0.0,-0.1163837890625,0.0,0.0,0.0,0.0,0.0,0.0,0.703,0.0,0.0,0.0,0.0,0.0,0.0,0.23410923490580768,0.0,0.0,0.0,0.0,0.0,0.0,-8.024,0.0,0.0,0.0
391,0.0,0.0,0.0,-0.1088583984375,0.0,0.0,0.0,0.0,0.0,0.0,0.695,0.0,0.0,0.0,0.0,0.0,0.0,0.2611928927933137,0.0,0.0,0.0,0.0,0.0,0.0,-6.996,0.0,0.0,0.0
392,0.0,0.0,0.0,-0.1001689453125,0.0,0.0,0.0,0.0,0.0,0.0,0.807,0.0,0.0,0.0,0.0,0.0,0.0,0.2878446176687233,0.0,0.0,0.0,0.0,0.0,0.0,-7.752,0.0,0.0,0.0
393,0.0,0.0,0.0,-0.091470703125,0.0,0.0,0.0,0.0,0.0,0.0,0.883,0.0,0.0,0.0,0.0,0.0,0.0,0.3141570281444671,0.0,0.0,0.0,0.0,0.0,0.0,-10.448,0.0,0.0,0.0
394,0.0,0.0,0.0,-0.08365625,0.0,0.0,0.0,0.0,0.0,0.0,0.834,0.0,0.0,0.0,0.0,0.0,0.0,0.33884718228416477,0.0,0.0,0.0,0.0,0.0,0.0,-13.356,0.0,0.0,0.0
395,0.0,0.0,0.0,-0.0755439453125,0.0,0.0,0.0,0.0,0.0,0.0,0.791,0.0,0.0,0.0,0.0,0.0,0.0,0.3632003680609069,0.0,0.0,0.0,0.0,0.0,0.0,-13.172,0.0,0.0,0.0
396,0.0,0.0,0.0,-0.066845703125,0.0,0.0,0.0,0.0,0.0,0.0,0.856,0.0,0.0,0.0,0.0,0.0,0.0,0.38666814718065773,0.0,0.0,0.0,0.0,0.0,0.0,-12.508,0.0,0.0,0.0
397,0.0,0.0,0.0,-0.0596083984375,0.0,0.0,0.0,0.0,0.0,0.0,0.813,0.0,0.0,0.0,0.0,0.0,0.0,0.4090666697688516,0.0,0.0,0.0,0.0,0.0,0.0,-12.828,0.0,0.0,0.0
398,0.0,0.0,0.0,-0.0523720703125,0.0,0.0,0.0,0.0,0.0,0.0,0.716,0.0,0.0,0.0,0.0,0.0,0.0,0.43052843210412023,0.0,0.0,0.0,0.0,0.0,0.0,-14.316,0.0,0.0,0.0
399,0.0,0.0,0.0,-0.043673828125,0.0,0.0,0.0,0.0,0.0,0.0,0.797,0.0,0.0,0.0,0.0,0.0,0.0,0.45093451834955806,0.0,0.0,0.0,0.0,0.0,0.0,-15.78,0.0,0.0,0.0
400,0.0,0.0,0.0,-0.0355615234375,0.0,0.0,0.0,0.0,0.0,0.0,0.855,0.0,0.0,0.0,0.0,0.0,0.0,0.4700856233661641,0.0,0.0,0.0,0.0,0.0,0.0,-16.328,0.0,0.0,0.0
401,0.0,0.0,0.0,-0.0286044921875,0.0,0.0,0.0,0.0,0.0,0.0,0.762,0.0,0.0,0.0,0.0,0.0,0.0,0.4881662859540083,0.0,0.0,0.0,0.0,0.0,0.0,-16.992,0.0,0.0,0.0
402,0.0,0.0,0.0,-0.02180078125,0.0,0.0,0.0,0.0,0.0,0.0,0.691,0.0,0.0,0.0,0.0,0.0,0.0,0.5053470532228633,0.0,0.0,0.0,0.0,0.0,0.0,-18.704,0.0,0.0,0.0
403,0.0,0.0,0.0,-0.0142666015625,0.0,0.0,0.0,0.0,0.0,0.0,0.705,0.0,0.0,0.0,0.0,0.0,0.0,0.5205432974970072,0.0,0.0,0.0,0.0,0.0,0.0,-17.812,0.0,0.0,0.0
404,0.0,0.0,0.0,-0.006298828125,0.0,0.0,0.0,0.0,0.0,0.0,0.791,0.0,0.0,0.0,0.0,0.0,0.0,0.5348100798914819,0.0,0.0,0.0,0.0,0.0,0.0,-17.836,0.0,0.0,0.0
405,0.0,0.0,0.0,0.0006484375,0.0,0.0,0.0,0.0,0.0,0.0,0.764,0.0,0.0,0.0,0.0,0.0,0.0,0.5478431770511577,0.0,0.0,0.0,0.0,0.0,0.0,-18.112,0.0,0.0,0.0
406,0.0,0.0,0.0,0.00731640625,0.0,0.0,0.0,0.0,0.0,0.0,0.67,0.0,0.0,0.0,0.0,0.0,0.0,0.5592159454388013,0.0,0.0,0.0,0.0,0.0,0.0,-19.232,0.0,0.0,0.0
407,0.0,0.0,0.0,0.0141298828125,0.0,0.0,0.0,0.0,0.0,0.0,0.68,0.0,0.0,0.0,0.0,0.0,0.0,0.5694701101997178,0.0,0.0,0.0,0.0,0.0,0.0,-18.936,0.0,0.0,0.0
408,0.0,0.0,0.0,0.02064453125,0.0,0.0,0.0,0.0,0.0,0.0,0.678,0.0,0.0,0.0,0.0,0.0,0.0,0.5783191545700203,0.0,0.0,0.0,0.0,0.0,0.0,-16.9,0.0,0.0,0.0
409,0.0,0.0,0.0,0.0270146484375,0.0,0.0,0.0,0.0,0.0,0.0,0.655,0.0,0.0,0.0,0.0,0.0,0.0,0.5854438692022406,0.0,0.0,0.0,0.0,0.0,0.0,-17.264,0.0,0.0,0.0
410,0.0,0.0,0.0,0.0330966796875,0.0,0.0,0.0,0.0,0.0,0.0,0.62,0.0,0.0,0.0,0.0,0.0,0.0,0.5912993401246589,0.0,0.0,0.0,0.0,0.0,0.0,-18.432,0.0,0.0,0.0
411,0.0,0.0,0.0,0.03933203125,0.0,0.0,0.0,0.0,0.0,0.0,0.619,0.0,0.0,0.0,0.0,0.0,0.0,0.5957377515619194,0.0,0.0,0.0,0.0,0.0,0.0,-19.256,0.0,0.0,0.0
412,0.0,0.0,0.0,0.04526953125,0.0,0.0,0.0,0.0,0.0,0.0,0.618,0.0,0.0,0.0,0.0,0.0,0.0,0.5984976395111818,0.0,0.0,0.0,0.0,0.0,0.0,-17.972,0.0,0.0,0.0
413,0.0,0.0,0.0,0.05091796875,0.0,0.0,0.0,0.0,0.0,0.0,0.589,0.0,0.0,0.0,0.0,0.0,0.0,0.5998691967537408,0.0,0.0,0.0,0.0,0.0,0.0,-16.784,0.0,0.0,0.0
414,0.0,0.0,0.0,0.055998046875,0.0,0.0,0.0,0.0,0.0,0.0,0.541,0.0,0.0,0.0,0.0,0.0,0.0,0.5997399315371548,0.0,0.0,0.0,0.0,0.0,0.0,-16.144,0.0,0.0,0.0
415,0.0,0.0,0.0,0.0613486328125,0.0,0.0,0.0,0.0,0.0,0.0,0.519,0.0,0.0,0.0,0.0,0.0,0.0,0.5981095158320043,0.0,0.0,0.0,0.0,0.0,0.0,-15.572,0.0,0.0,0.0
416,0.0,0.0,0.0,0.066708984375,0.0,0.0,0.0,0.0,0.0,0.0,0.552,0.0,0.0,0.0,0.0,0.0,0.0,0.5950038946638602,0.0,0.0,0.0,0.0,0.0,0.0,-15.708,0.0,0.0,0.0
417,0.0,0.0,0.0,0.0717802734375,0.0,0.0,0.0,0.0,0.0,0.0,0.518,0.0,0.0,0.0,0.0,0.0,0.0,0.5903316056029971,0.0,0.0,0.0,0.0,0.0,0.0,-14.316,0.0,0.0,0.0
418,0.0,0.0,0.0,0.07699609375,0.0,0.0,0.0,0.0,0.0,0.0,0.52,0.0,0.0,0.0,0.0,0.0,0.0,0.5842676718418708,0.0,0.0,0.0,0.0,0.0,0.0,-14.292,0.0,0.0,0.0
419,0.0,0.0,0.0,0.0816337890625,0.0,0.0,0.0,0.0,0.0,0.0,0.505,0.0,0.0,0.0,0.0,0.0,0.0,0.5767610767614124,0.0,0.0,0.0,0.0,0.0,0.0,-14.268,0.0,0.0,0.0
420,0.0,0.0,0.0,0.0861181640625,0.0,0.0,0.0,0.0,0.0,0.0,0.451,0.0,0.0,0.0,0.0,0.0,0.0,0.5676762673272666,0.0,0.0,0.0,0.0,0.0,0.0,-14.156,0.0,0.0,0.0
421,0.0,0.0,0.0,0.090900390625,0.0,0.0,0.0,0.0,0.0,0.0,0.47,0.0,0.0,0.0,0.0,0.0,0.0,0.5573426095247126,0.0,0.0,0.0,0.0,0.0,0.0,-14.016,0.0,0.0,0.0
422,0.0,0.0,0.0,0.0956923828125,0.0,0.0,0.0,0.0,0.0,0.0,0.48,0.0,0.0,0.0,0.0,0.0,0.0,0.5455149196309672,0.0,0.0,0.0,0.0,0.0,0.0,-13.332,0.0,0.0,0.0
423,0.0,0.0,0.0,0.1008984375,0.0,0.0,0.0,0.0,0.0,0.0,0.491,0.0,0.0,0.0,0.0,0.0,0.0,0.5322708032755424,0.0,0.0,0.0,0.0,0.0,0.0,-13.468,0.0,0.0,0.0
424,0.0,0.0,0.0,0.10625,0.0,0.0,0.0,0.0,0.0,0.0,0.534,0.0,0.0,0.0,0.0,0.0,0.0,0.5177864285873546,0.0,0.0,0.0,0.0,0.0,0.0,-14.2,0.0,0.0,0.0
425,0.0,0.0,0.0,0.1111767578125,0.0,0.0,0.0,0.0,0.0,0.0,0.519,0.0,0.0,0.0,0.0,0.0,0.0,0.5020079720164681,0.0,0.0,0.0,0.0,0.0,0.0,-13.172,0.0,0.0,0.0
426,0.0,0.0,0.0,0.116103515625,0.0,0.0,0.0,0.0,0.0,0.0,0.493,0.0,0.0,0.0,0.0,0.0,0.0,0.48489477344033033,0.0,0.0,0.0,0.0,0.0,0.0,-12.644,0.0,0.0,0.0
427,0.0,0.0,0.0,0.1210302734375,0.0,0.0,0.0,0.0,0.0,0.0,0.497,0.0,0.0,0.0,0.0,0.0,0.0,0.46654399434624877,0.0,0.0,0.0,0.0,0.0,0.0,-12.14,0.0,0.0,0.0
428,0.0,0.0,0.0,0.1263896484375,0.0,0.0,0.0,0.0,0.0,0.0,0.51,0.0,0.0,0.0,0.0,0.0,0.0,0.447313425935376,0.0,0.0,0.0,0.0,0.0,0.0,-11.548,0.0,0.0,0.0
429,0.0,0.0,0.0,0.132029296875,0.0,0.0,0.0,0.0,0.0,0.0,0.548,0.0,0.0,0.0,0.0,0.0,0.0,0.4266753119819551,0.0,0.0,0.0,0.0,0.0,0.0,-11.936,0.0,0.0,0.0
430,0.0,0.0,0.0,0.13754296875,0.0,0.0,0.0,0.0,0.0,0.0,0.569,0.0,0.0,0.0,0.0,0.0,0.0,0.4047490971600904,0.0,0.0,0.0,0.0,0.0,0.0,-12.392,0.0,0.0,0.0
431,0.0,0.0,0.0,0.14290234375,0.0,0.0,0.0,0.0,0.0,0.0,0.551,0.0,0.0,0.0,0.0,0.0,0.0,0.3826125206887902,0.0,0.0,0.0,0.0,0.0,0.0,-12.188,0.0,0.0,0.0
432,0.0,0.0,0.0,0.1482626953125,0.0,0.0,0.0,0.0,0.0,0.0,0.533,0.0,0.0,0.0,0.0,0.0,0.0,0.3589703911157445,0.0,0.0,0.0,0.0,0.0,0.0,-12.348,0.0,0.0,0.0
433,0.0,0.0,0.0,0.1537666015625,0.0,0.0,0.0,0.0,0.0,0.0,0.538,0.0,0.0,0.0,0.0,0.0,0.0,0.33420405182734814,0.0,0.0,0.0,0.0,0.0,0.0,-12.44,0.0,0.0,0.0
434,0.0,0.0,0.0,0.159712890625,0.0,0.0,0.0,0.0,0.0,0.0,0.579,0.0,0.0,0.0,0.0,0.0,0.0,0.3090336083298012,0.0,0.0,0.0,0.0,0.0,0.0,-12.872,0.0,0.0,0.0
435,0.0,0.0,0.0,0.165939453125,0.0,0.0,0.0,0.0,0.0,0.0,0.602,0.0,0.0,0.0,0.0,0.0,0.0,0.28311246124024303,0.0,0.0,0.0,0.0,0.0,0.0,-13.492,0.0,0.0,0.0
436,0.0,0.0,0.0,0.172166015625,0.0,0.0,0.0,0.0,0.0,0.0,0.626,0.0,0.0,0.0,0.0,0.0,0.0,0.25586660853905496,0.0,0.0,0.0,0.0,0.0,0.0,-13.424,0.0,0.0,0.0
437,0.0,0.0,0.0,0.1781123046875,0.0,0.0,0.0,0.0,0.0,0.0,0.622,0.0,0.0,0.0,0.0,0.0,0.0,0.2286886137042418,0.0,0.0,0.0,0.0,0.0,0.0,-13.124,0.0,0.0,0.0
438,0.0,0.0,0.0,0.1840400390625,0.0,0.0,0.0,0.0,0.0,0.0,0.593,0.0,0.0,0.0,0.0,0.0,0.0,0.2007355897966287,0.0,0.0,0.0,0.0,0.0,0.0,-12.484,0.0,0.0,0.0
439,0.0,0.0,0.0,0.1901220703125,0.0,0.0,0.0,0.0,0.0,0.0,0.605,0.0,0.0,0.0,0.0,0.0,0.0,0.17112735357304024,0.0,0.0,0.0,0.0,0.0,0.0,-12.784,0.0,0.0,0.0
440,0.0,0.0,0.0,0.1963662109375,0.0,0.0,0.0,0.0,0.0,0.0,0.619,0.0,0.0,0.0,0.0,0.0,0.0,0.1432900687380077,0.0,0.0,0.0,0.0,0.0,0.0,-13.444,0.0,0.0,0.0
441,0.0,0.0,0.0,0.2014287109375,0.0,0.0,0.0,0.0,0.0,0.0,0.588,0.0,0.0,0.0,0.0,0.0,0.0,0.11399473013211948,0.0,0.0,0.0,0.0,0.0,0.0,-15.78,0.0,0.0,0.0
442,0.0,0.0,0.0,0.203314453125,0.0,0.0,0.0,0.0,0.0,0.0,0.387,0.0,0.0,0.0,0.0,0.0,0.0,0.08399458356049766,0.0,0.0,0.0,0.0,0.0,0.0,-20.352,0.0,0.0,0.0
443,0.0,0.0,0.0,0.202294921875,0.0,0.0,0.0,0.0,0.0,0.0,0.064,0.0,0.0,0.0,0.0,0.0,0.0,0.05457424535741292,0.0,0.0,0.0,0.0,0.0,0.0,-22.068,0.0,0.0,0.0
444,0.0,0.0,0.0,0.2005625,0.0,0.0,0.0,0.0,0.0,0.0,-0.137,0.0,0.0,0.0,0.0,0.0,0.0,0.02475936040419979,0.0,0.0,0.0,0.0,0.0,0.0,-22.0,0.0,0.0,0.0
445,0.0,0.0,0.0,0.197232421875,0.0,0.0,0.0,0.0,0.0,0.0,-0.235,0.0,0.0,0.0,0.0,0.0,0.0,-0.005659071940012916,0.0,0.0,0.0,0.0,0.0,0.0,-21.976,0.0,0.0,0.0
446,0.0,0.0,0.0,0.19360546875,0.0,0.0,0.0,0.0,0.0,0.0,-0.36,0.0,0.0,0.0,0.0,0.0,0.0,-0.03510834210861734,0.0,0.0,0.0,0.0,0.0,0.0,-21.952,0.0,0.0,0.0
447,0.0,0.0,0.0,0.190275390625,0.0,0.0,0.0,0.0,0.0,0.0,-0.35,0.0,0.0,0.0,0.0,0.0,0.0,-0.06494082996888037,0.0,0.0,0.0,0.0,0.0,0.0,-24.448,0.0,0.0,0.0
448,0.0,0.0,0.0,0.185060546875,0.0,0.0,0.0,0.0,0.0,0.0,-0.399,0.0,0.0,0.0,0.0,0.0,0.0,-0.09512156807493756,0.0,0.0,0.0,0.0,0.0,0.0,-25.772,0.0,0.0,0.0
449,0.0,0.0,0.0,0.178544921875,0.0,0.0,0.0,0.0,0.0,0.0,-0.582,0.0,0.0,0.0,0.0,0.0,0.0,-0.12440521097522107,0.0,0.0,0.0,0.0,0.0,0.0,-24.928,0.0,0.0,0.0
450,0.0,0.0,0.0,0.1714345703125,0.0,0.0,0.0,0.0,0.0,0.0,-0.684,0.0,0.0,0.0,0.0,0.0,0.0,-0.1533186312584556,0.0,0.0,0.0,0.0,0.0,0.0,-24.284,0.0,0.0,0.0
451,0.0,0.0,0.0,0.1637646484375,0.0,0.0,0.0,0.0,0.0,0.0,-0.741,0.0,0.0,0.0,0.0,0.0,0.0,-0.18267087649073122,0.0,0.0,0.0,0.0,0.0,0.0,-22.912,0.0,0.0,0.0
452,0.0,0.0,0.0,0.15710546875,0.0,0.0,0.0,0.0,0.0,0.0,-0.743,0.0,0.0,0.0,0.0,0.0,0.0,-0.21074801428050932,0.0,0.0,0.0,0.0,0.0,0.0,-20.42,0.0,0.0,0.0
453,0.0,0.0,0.0,0.1508701171875,0.0,0.0,0.0,0.0,0.0,0.0,-0.642,0.0,0.0,0.0,0.0,0.0,0.0,-0.2384399751395892,0.0,0.0,0.0,0.0,0.0,0.0,-20.948,0.0,0.0,0.0
454,0.0,0.0,0.0,0.1427587890625,0.0,0.0,0.0,0.0,0.0,0.0,-0.697,0.0,0.0,0.0,0.0,0.0,0.0,-0.2658374900915777,0.0,0.0,0.0,0.0,0.0,0.0,-21.128,0.0,0.0,0.0
455,0.0,0.0,0.0,0.1340595703125,0.0,0.0,0.0,0.0,0.0,0.0,-0.846,0.0,0.0,0.0,0.0,0.0,0.0,-0.29246245232460966,0.0,0.0,0.0,0.0,0.0,0.0,-20.076,0.0,0.0,0.0
456,0.0,0.0,0.0,0.1255146484375,0.0,0.0,0.0,0.0,0.0,0.0,-0.871,0.0,0.0,0.0,0.0,0.0,0.0,-0.31789139640143055,0.0,0.0,0.0,0.0,0.0,0.0,-17.24,0.0,0.0,0.0
457,0.0,0.0,0.0,0.1178447265625,0.0,0.0,0.0,0.0,0.0,0.0,-0.826,0.0,0.0,0.0,0.0,0.0,0.0,-0.3434167203297506,0.0,0.0,0.0,0.0,0.0,0.0,-14.292,0.0,0.0,0.0
458,0.0,0.0,0.0,0.1101572265625,0.0,0.0,0.0,0.0,0.0,0.0,-0.769,0.0,0.0,0.0,0.0,0.0,0.0,-0.36732117381593027,0.0,0.0,0.0,0.0,0.0,0.0,-15.78,0.0,0.0,0.0
459,0.0,0.0,0.0,0.1017646484375,0.0,0.0,0.0,0.0,0.0,0.0,-0.811,0.0,0.0,0.0,0.0,0.0,0.0,-0.39040708453047773,0.0,0.0,0.0,0.0,0.0,0.0,-17.196,0.0,0.0,0.0
460,0.0,0.0,0.0,0.09423046875,0.0,0.0,0.0,0.0,0.0,0.0,-0.809,0.0,0.0,0.0,0.0,0.0,0.0,-0.41293837369933944,0.0,0.0,0.0,0.0,0.0,0.0,-15.868,0.0,0.0,0.0
461,0.0,0.0,0.0,0.086705078125,0.0,0.0,0.0,0.0,0.0,0.0,-0.751,0.0,0.0,0.0,0.0,0.0,0.0,-0.4343457894115592,0.0,0.0,0.0,0.0,0.0,0.0,-13.444,0.0,0.0,0.0
462,0.0,0.0,0.0,0.078015625,0.0,0.0,0.0,0.0,0.0,0.0,-0.8,0.0,0.0,0.0,0.0,0.0,0.0,-0.45413656684011955,0.0,0.0,0.0,0.0,0.0,0.0,-12.392,0.0,0.0,0.0
463,0.0,0.0,0.0,0.06989453125,0.0,0.0,0.0,0.0,0.0,0.0,-0.868,0.0,0.0,0.0,0.0,0.0,0.0,-0.47340082971452124,0.0,0.0,0.0,0.0,0.0,0.0,-11.8,0.0,0.0,0.0
464,0.0,0.0,0.0,0.0630908203125,0.0,0.0,0.0,0.0,0.0,0.0,-0.757,0.0,0.0,0.0,0.0,0.0,0.0,-0.49105247685983133,0.0,0.0,0.0,0.0,0.0,0.0,-12.484,0.0,0.0,0.0
465,0.0,0.0,0.0,0.0558447265625,0.0,0.0,0.0,0.0,0.0,0.0,-0.706,0.0,0.0,0.0,0.0,0.0,0.0,-0.5076572104610833,0.0,0.0,0.0,0.0,0.0,0.0,-11.296,0.0,0.0,0.0
466,0.0,0.0,0.0,0.048310546875,0.0,0.0,0.0,0.0,0.0,0.0,-0.739,0.0,0.0,0.0,0.0,0.0,0.0,-0.5231440431667025,0.0,0.0,0.0,0.0,0.0,0.0,-12.304,0.0,0.0,0.0
467,0.0,0.0,0.0,0.0403427734375,0.0,0.0,0.0,0.0,0.0,0.0,-0.781,0.0,0.0,0.0,0.0,0.0,0.0,-0.5372316173722923,0.0,0.0,0.0,0.0,0.0,0.0,-12.392,0.0,0.0,0.0
468,0.0,0.0,0.0,0.0335390625,0.0,0.0,0.0,0.0,0.0,0.0,-0.755,0.0,0.0,0.0,0.0,0.0,0.0,-0.5498028744130943,0.0,0.0,0.0,0.0,0.0,0.0,-11.088,0.0,0.0,0.0
469,0.0,0.0,0.0,0.0274482421875,0.0,0.0,0.0,0.0,0.0,0.0,-0.648,0.0,0.0,0.0,0.0,0.0,0.0,-0.5611621582293638,0.0,0.0,0.0,0.0,0.0,0.0,-10.7,0.0,0.0,0.0
470,0.0,0.0,0.0,0.0205,0.0,0.0,0.0,0.0,0.0,0.0,-0.657,0.0,0.0,0.0,0.0,0.0,0.0,-0.5711351937434421,0.0,0.0,0.0,0.0,0.0,0.0,-11.044,0.0,0.0,0.0
471,0.0,0.0,0.0,0.0138408203125,0.0,0.0,0.0,0.0,0.0,0.0,-0.698,0.0,0.0,0.0,0.0,0.0,0.0,-0.5794917380538263,0.0,0.0,0.0,0.0,0.0,0.0,-11.732,0.0,0.0,0.0
472,0.0,0.0,0.0,0.00731640625,0.0,0.0,0.0,0.0,0.0,0.0,-0.655,0.0,0.0,0.0,0.0,0.0,0.0,-0.5865250655646062,0.0,0.0,0.0,0.0,0.0,0.0,-11.708,0.0,0.0,0.0
473,0.0,0.0,0.0,0.0010908203125,0.0,0.0,0.0,0.0,0.0,0.0,-0.646,0.0,0.0,0.0,0.0,0.0,0.0,-0.5922257077098982,0.0,0.0,0.0,0.0,0.0,0.0,-10.084,0.0,0.0,0.0
474,0.0,0.0,0.0,-0.004845703125,0.0,0.0,0.0,0.0,0.0,0.0,-0.618,0.0,0.0,0.0,0.0,0.0,0.0,-0.5962146278497115,0.0,0.0,0.0,0.0,0.0,0.0,-10.428,0.0,0.0,0.0
475,0.0,0.0,0.0,-0.0112255859375,0.0,0.0,0.0,0.0,0.0,0.0,-0.614,0.0,0.0,0.0,0.0,0.0,0.0,-0.5988304002955973,0.0,0.0,0.0,0.0,0.0,0.0,-12.212,0.0,0.0,0.0
476,0.0,0.0,0.0,-0.0170185546875,0.0,0.0,0.0,0.0,0.0,0.0,-0.622,0.0,0.0,0.0,0.0,0.0,0.0,-0.5999594613188604,0.0,0.0,0.0,0.0,0.0,0.0,-12.944,0.0,0.0,0.0
477,0.0,0.0,0.0,-0.0222333984375,0.0,0.0,0.0,0.0,0.0,0.0,-0.558,0.0,0.0,0.0,0.0,0.0,0.0,-0.5995692156884276,0.0,0.0,0.0,0.0,0.0,0.0,-12.988,0.0,0.0,0.0
478,0.0,0.0,0.0,-0.02759375,0.0,0.0,0.0,0.0,0.0,0.0,-0.535,0.0,0.0,0.0,0.0,0.0,0.0,-0.5976895462209247,0.0,0.0,0.0,0.0,0.0,0.0,-12.532,0.0,0.0,0.0
479,0.0,0.0,0.0,-0.0326650390625,0.0,0.0,0.0,0.0,0.0,0.0,-0.533,0.0,0.0,0.0,0.0,0.0,0.0,-0.5942863308329537,0.0,0.0,0.0,0.0,0.0,0.0,-12.852,0.0,0.0,0.0
480,0.0,0.0,0.0,-0.037880859375,0.0,0.0,0.0,0.0,0.0,0.0,-0.506,0.0,0.0,0.0,0.0,0.0,0.0,-0.5894542072896549,0.0,0.0,0.0,0.0,0.0,0.0,-14.292,0.0,0.0,0.0
481,0.0,0.0,0.0,-0.043384765625,0.0,0.0,0.0,0.0,0.0,0.0,-0.541,0.0,0.0,0.0,0.0,0.0,0.0,-0.583117919721576,0.0,0.0,0.0,0.0,0.0,0.0,-14.452,0.0,0.0,0.0
482,0.0,0.0,0.0,-0.048302734375,0.0,0.0,0.0,0.0,0.0,0.0,-0.538,0.0,0.0,0.0,0.0,0.0,0.0,-0.5752430544268092,0.0,0.0,0.0,0.0,0.0,0.0,-13.788,0.0,0.0,0.0
483,0.0,0.0,0.0,-0.0533828125,0.0,0.0,0.0,0.0,0.0,0.0,-0.49,0.0,0.0,0.0,0.0,0.0,0.0,-0.5660535932252048,0.0,0.0,0.0,0.0,0.0,0.0,-13.996,0.0,0.0,0.0
484,0.0,0.0,0.0,-0.0584541015625,0.0,0.0,0.0,0.0,0.0,0.0,-0.521,0.0,0.0,0.0,0.0,0.0,0.0,-0.555365198334957,0.0,0.0,0.0,0.0,0.0,0.0,-13.56,0.0,0.0,0.0
485,0.0,0.0,0.0,-0.0629384765625,0.0,0.0,0.0,0.0,0.0,0.0,-0.481,0.0,0.0,0.0,0.0,0.0,0.0,-0.5431799230000088,0.0,0.0,0.0,0.0,0.0,0.0,-15.276,0.0,0.0,0.0
486,0.0,0.0,0.0,-0.0685869140625,0.0,0.0,0.0,0.0,0.0,0.0,-0.5,0.0,0.0,0.0,0.0,0.0,0.0,-0.5299461219920102,0.0,0.0,0.0,0.0,0.0,0.0,-15.824,0.0,0.0,0.0
487,0.0,0.0,0.0,-0.073947265625,0.0,0.0,0.0,0.0,0.0,0.0,-0.569,0.0,0.0,0.0,0.0,0.0,0.0,-0.5152515877590077,0.0,0.0,0.0,0.0,0.0,0.0,-15.3,0.0,0.0,0.0
488,0.0,0.0,0.0,-0.0788740234375,0.0,0.0,0.0,0.0,0.0,0.0,-0.517,0.0,0.0,0.0,0.0,0.0,0.0,-0.49912252123259365,0.0,0.0,0.0,0.0,0.0,0.0,-15.732,0.0,0.0,0.0
489,0.0,0.0,0.0,-0.0842333984375,0.0,0.0,0.0,0.0,0.0,0.0,-0.514,0.0,0.0,0.0,0.0,0.0,0.0,-0.48209049728749637,0.0,0.0,0.0,0.0,0.0,0.0,-15.092,0.0,0.0,0.0
490,0.0,0.0,0.0,-0.0887275390625,0.0,0.0,0.0,0.0,0.0,0.0,-0.502,0.0,0.0,0.0,0.0,0.0,0.0,-0.4636474884095727,0.0,0.0,0.0,0.0,0.0,0.0,-15.984,0.0,0.0,0.0
491,0.0,0.0,0.0,-0.0936455078125,0.0,0.0,0.0,0.0,0.0,0.0,-0.462,0.0,0.0,0.0,0.0,0.0,0.0,-0.44337009703107416,0.0,0.0,0.0,0.0,0.0,0.0,-16.92,0.0,0.0,0.0
492,0.0,0.0,0.0,-0.099447265625,0.0,0.0,0.0,0.0,0.0,0.0,-0.539,0.0,0.0,0.0,0.0,0.0,0.0,-0.4232797903354462,0.0,0.0,0.0,0.0,0.0,0.0,-15.916,0.0,0.0,0.0
493,0.0,0.0,0.0,-0.104951171875,0.0,0.0,0.0,0.0,0.0,0.0,-0.57,0.0,0.0,0.0,0.0,0.0,0.0,-0.40149737682019115,0.0,0.0,0.0,0.0,0.0,0.0,-15.96,0.0,0.0,0.0
494,0.0,0.0,0.0,-0.110744140625,0.0,0.0,0.0,0.0,0.0,0.0,-0.567,0.0,0.0,0.0,0.0,0.0,0.0,-0.37849946754422414,0.0,0.0,0.0,0.0,0.0,0.0,-14.816,0.0,0.0,0.0
495,0.0,0.0,0.0,-0.116095703125,0.0,0.0,0.0,0.0,0.0,0.0,-0.562,0.0,0.0,0.0,0.0,0.0,0.0,-0.35500254741322207,0.0,0.0,0.0,0.0,0.0,0.0,-15.276,0.0,0.0,0.0
496,0.0,0.0,0.0,-0.12146484375,0.0,0.0,0.0,0.0,0.0,0.0,-0.537,0.0,0.0,0.0,0.0,0.0,0.0,-0.33043613784905085,0.0,0.0,0.0,0.0,0.0,0.0,-16.212,0.0,0.0,0.0
497,0.0,0.0,0.0,-0.1272578125,0.0,0.0,0.0,0.0,0.0,0.0,-0.563,0.0,0.0,0.0,0.0,0.0,0.0,-0.304745421757253,0.0,0.0,0.0,0.0,0.0,0.0,-15.548,0.0,0.0,0.0
498,0.0,0.0,0.0,-0.1333388671875,0.0,0.0,0.0,0.0,0.0,0.0,-0.597,0.0,0.0,0.0,0.0,0.0,0.0,-0.2786128594948114,0.0,0.0,0.0,0.0,0.0,0.0,-15.96,0.0,0.0,0.0
499,0.0,0.0,0.0,-0.1395654296875,0.0,0.0,0.0,0.0,0.0,0.0,-0.623,0.0,0.0,0.0,0.0,0.0,0.0,-0.2518530094314747,0.0,0.0,0.0,0.0,0.0,0.0,-15.368,0.0,0.0,0.0
500,0.0,0.0,0.0,-0.14551171875,0.0,0.0,0.0,0.0,0.0,0.0,-0.615,0.0,0.0,0.0,0.0,0.0,0.0,-0.22410090754165582,0.0,0.0,0.0,0.0,0.0,0.0,-15.0,0.0,0.0,0.0
501,0.0,0.0,0.0,-0.15116015625,0.0,0.0,0.0,0.0,0.0,0.0,-0.585,0.0,0.0,0.0,0.0,0.0,0.0,-0.19596098410577834,0.0,0.0,0.0,0.0,0.0,0.0,-15.208,0.0,0.0,0.0
502,0.0,0.0,0.0,-0.1569443359375,0.0,0.0,0.0,0.0,0.0,0.0,-0.574,0.0,0.0,0.0,0.0,0.0,0.0,-0.16762924521244696,0.0,0.0,0.0,0.0,0.0,0.0,-15.024,0.0,0.0,0.0
503,0.0,0.0,0.0,-0.1630263671875,0.0,0.0,0.0,0.0,0.0,0.0,-0.589,0.0,0.0,0.0,0.0,0.0,0.0,-0.1383055481921702,0.0,0.0,0.0,0.0,0.0,0.0,-15.184,0.0,0.0,0.0
504,0.0,0.0,0.0,-0.1695498046875,0.0,0.0,0.0,0.0,0.0,0.0,-0.637,0.0,0.0,0.0,0.0,0.0,0.0,-0.10892887374178446,0.0,0.0,0.0,0.0,0.0,0.0,-14.268,0.0,0.0,0.0
505,0.0,0.0,0.0,-0.1743330078125,0.0,0.0,0.0,0.0,0.0,0.0,-0.602,0.0,0.0,0.0,0.0,0.0,0.0,-0.07959781549298454,0.0,0.0,0.0,0.0,0.0,0.0,-10.816,0.0,0.0,0.0
506,0.0,0.0,0.0,-0.1757763671875,0.0,0.0,0.0,0.0,0.0,0.0,-0.346,0.0,0.0,0.0,0.0,0.0,0.0,-0.04970392730301252,0.0,0.0,0.0,0.0,0.0,0.0,-7.704,0.0,0.0,0.0
507,0.0,0.0,0.0,-0.17519921875,0.0,0.0,0.0,0.0,0.0,0.0,-0.052,0.0,0.0,0.0,0.0,0.0,0.0,-0.01929273831421766,0.0,0.0,0.0,0.0,0.0,0.0,-7.132,0.0,0.0,0.0
508,0.0,0.0,0.0,-0.173466796875,0.0,0.0,0.0,0.0,0.0,0.0,0.097,0.0,0.0,0.0,0.0,0.0,0.0,0.010241354444613484,0.0,0.0,0.0,0.0,0.0,0.0,-6.88,0.0,0.0,0.0
509,0.0,0.0,0.0,-0.17013671875,0.0,0.0,0.0,0.0,0.0,0.0,0.248,0.0,0.0,0.0,0.0,0.0,0.0,5.149841302270683e-05,0.0,0.0,0.0,0.0,0.0,0.0,-7.888,0.0,0.0,0.0
510,0.0,0.0,0.0,-0.167095703125,0.0,0.0,0.0,0.0,0.0,0.0,0.321,0.0,0.0,0.0,0.0,0.0,0.0,0.030086768873725047,0.0,0.0,0.0,0.0,0.0,0.0,-6.264,0.0,0.0,0.0
511,0.0,0.0,0.0,-0.1627373046875,0.0,0.0,0.0,0.0,0.0,0.0,0.354,0.0,0.0,0.0,0.0,0.0,0.0,0.05973915064908115,0.0,0.0,0.0,0.0,0.0,0.0,-4.32,0.0,0.0,0.0
512,0.0,0.0,0.0,-0.15753125,0.0,0.0,0.0,0.0,0.0,0.0,0.483,0.0,0.0,0.0,0.0,0.0,0.0,0.0895029586956,0.0,0.0,0.0,0.0,0.0,0.0,-4.412,0.0,0.0,0.0
513,0.0,0.0,0.0,-0.1510068359375,0.0,0.0,0.0,0.0,0.0,0.0,0.569,0.0,0.0,0.0,0.0,0.0,0.0,0.11921059928050942,0.0,0.0,0.0,0.0,0.0,0.0,-4.916,0.0,0.0,0.0
514,0.0,0.0,0.0,-0.1431923828125,0.0,0.0,0.0,0.0,0.0,0.0,0.711,0.0,0.0,0.0,0.0,0.0,0.0,0.1484193671668647,0.0,0.0,0.0,0.0,0.0,0.0,-5.808,0.0,0.0,0.0
515,0.0,0.0,0.0,-0.1352158203125,0.0,0.0,0.0,0.0,0.0,0.0,0.805,0.0,0.0,0.0,0.0,0.0,0.0,0.17737277359127507,0.0,0.0,0.0,0.0,0.0,0.0,-6.448,0.0,0.0,0.0
516,0.0,0.0,0.0,-0.1278349609375,0.0,0.0,0.0,0.0,0.0,0.0,0.776,0.0,0.0,0.0,0.0,0.0,0.0,0.20606298596348901,0.0,0.0,0.0,0.0,0.0,0.0,-7.02,0.0,0.0,0.0
517,0.0,0.0,0.0,-0.12103125,0.0,0.0,0.0,0.0,0.0,0.0,0.711,0.0,0.0,0.0,0.0,0.0,0.0,0.23354867747169342,0.0,0.0,0.0,0.0,0.0,0.0,-7.772,0.0,0.0,0.0
518,0.0,0.0,0.0,-0.11291015625,0.0,0.0,0.0,0.0,0.0,0.0,0.726,0.0,0.0,0.0,0.0,0.0,0.0,0.26085800063881837,0.0,0.0,0.0,0.0,0.0,0.0,-6.88,0.0,0.0,0.0
519,0.0,0.0,0.0,-0.1036435546875,0.0,0.0,0.0,0.0,0.0,0.0,0.877,0.0,0.0,0.0,0.0,0.0,0.0,0.2877109354202183,0.0,0.0,0.0,0.0,0.0,0.0,-8.14,0.0,0.0,0.0
520,0.0,0.0,0.0,-0.0958203125,0.0,0.0,0.0,0.0,0.0,0.0,0.881,0.0,0.0,0.0,0.0,0.0,0.0,0.3135102307112091,0.0,0.0,0.0,0.0,0.0,0.0,-11.204,0.0,0.0,0.0
521,0.0,0.0,0.0,-0.0884296875,0.0,0.0,0.0,0.0,0.0,0.0,0.755,0.0,0.0,0.0,0.0,0.0,0.0,0.33865413638748904,0.0,0.0,0.0,0.0,0.0,0.0,-13.056,0.0,0.0,0.0
522,0.0,0.0,0.0,-0.0794599609375,0.0,0.0,0.0,0.0,0.0,0.0,0.812,0.0,0.0,0.0,0.0,0.0,0.0,0.3633051148035953,0.0,0.0,0.0,0.0,0.0,0.0,-13.744,0.0,0.0,0.0
523,0.0,0.0,0.0,-0.0714833984375,0.0,0.0,0.0,0.0,0.0,0.0,0.874,0.0,0.0,0.0,0.0,0.0,0.0,0.3864137701620547,0.0,0.0,0.0,0.0,0.0,0.0,-12.872,0.0,0.0,0.0
524,0.0,0.0,0.0,-0.0645361328125,0.0,0.0,0.0,0.0,0.0,0.0,0.75,0.0,0.0,0.0,0.0,0.0,0.0,0.4087463307032665,0.0,0.0,0.0,0.0,0.0,0.0,-12.76,0.0,0.0,0.0
525,0.0,0.0,0.0,-0.056423828125,0.0,0.0,0.0,0.0,0.0,0.0,0.745,0.0,0.0,0.0,0.0,0.0,0.0,0.4306166008312701,0.0,0.0,0.0,0.0,0.0,0.0,-15.184,0.0,0.0,0.0
526,0.0,0.0,0.0,-0.048013671875,0.0,0.0,0.0,0.0,0.0,0.0,0.836,0.0,0.0,0.0,0.0,0.0,0.0,0.45075234385014035,0.0,0.0,0.0,0.0,0.0,0.0,-16.28,0.0,0.0,0.0
527,0.0,0.0,0.0,-0.04019921875,0.0,0.0,0.0,0.0,0.0,0.0,0.823,0.0,0.0,0.0,0.0,0.0,0.0,0.470011386618149,0.0,0.0,0.0,0.0,0.0,0.0,-15.94,0.0,0.0,0.0
528,0.0,0.0,0.0,-0.0335400390625,0.0,0.0,0.0,0.0,0.0,0.0,0.736,0.0,0.0,0.0,0.0,0.0,0.0,0.48814549223251796,0.0,0.0,0.0,0.0,0.0,0.0,-17.492,0.0,0.0,0.0
529,0.0,0.0,0.0,-0.02671875,0.0,0.0,0.0,0.0,0.0,0.0,0.658,0.0,0.0,0.0,0.0,0.0,0.0,0.5048146411279398,0.0,0.0,0.0,0.0,0.0,0.0,-17.332,0.0,0.0,0.0
530,0.0,0.0,0.0,-0.018615234375,0.0,0.0,0.0,0.0,0.0,0.0,0.748,0.0,0.0,0.0,0.0,0.0,0.0,0.5203600114534304,0.0,0.0,0.0,0.0,0.0,0.0,-18.476,0.0,0.0,0.0
531,0.0,0.0,0.0,-0.0112255859375,0.0,0.0,0.0,0.0,0.0,0.0,0.794,0.0,0.0,0.0,0.0,0.0,0.0,0.5348755601601849,0.0,0.0,0.0,0.0,0.0,0.0,-18.384,0.0,0.0,0.0
532,0.0,0.0,0.0,-0.004556640625,0.0,0.0,0.0,0.0,0.0,0.0,0.703,0.0,0.0,0.0,0.0,0.0,0.0,0.547687893025783,0.0,0.0,0.0,0.0,0.0,0.0,-18.888,0.0,0.0,0.0
533,0.0,0.0,0.0,0.00224609375,0.0,0.0,0.0,0.0,0.0,0.0,0.676,0.0,0.0,0.0,0.0,0.0,0.0,0.5591638298891476,0.0,0.0,0.0,0.0,0.0,0.0,-18.776,0.0,0.0,0.0
534,0.0,0.0,0.0,0.0090498046875,0.0,0.0,0.0,0.0,0.0,0.0,0.691,0.0,0.0,0.0,0.0,0.0,0.0,0.5694248183438689,0.0,0.0,0.0,0.0,0.0,0.0,-18.18,0.0,0.0,0.0
535,0.0,0.0,0.0,0.0157177734375,0.0,0.0,0.0,0.0,0.0,0.0,0.674,0.0,0.0,0.0,0.0,0.0,0.0,0.5781381560901747,0.0,0.0,0.0,0.0,0.0,0.0,-16.76,0.0,0.0,0.0
536,0.0,0.0,0.0,0.021943359375,0.0,0.0,0.0,0.0,0.0,0.0,0.659,0.0,0.0,0.0,0.0,0.0,0.0,0.5853767710103056,0.0,0.0,0.0,0.0,0.0,0.0,-18.224,0.0,0.0,0.0
537,0.0,0.0,0.0,0.0277373046875,0.0,0.0,0.0,0.0,0.0,0.0,0.597,0.0,0.0,0.0,0.0,0.0,0.0,0.5912453708464754,0.0,0.0,0.0,0.0,0.0,0.0,-18.296,0.0,0.0,0.0
538,0.0,0.0,0.0,0.0342607421875,0.0,0.0,0.0,0.0,0.0,0.0,0.61,0.0,0.0,0.0,0.0,0.0,0.0,0.595643711577323,0.0,0.0,0.0,0.0,0.0,0.0,-17.836,0.0,0.0,0.0
539,0.0,0.0,0.0,0.0399091796875,0.0,0.0,0.0,0.0,0.0,0.0,0.628,0.0,0.0,0.0,0.0,0.0,0.0,0.5984844588452316,0.0,0.0,0.0,0.0,0.0,0.0,-17.54,0.0,0.0,0.0
540,0.0,0.0,0.0,0.045125,0.0,0.0,0.0,0.0,0.0,0.0,0.546,0.0,0.0,0.0,0.0,0.0,0.0,0.5998677591280236,0.0,0.0,0.0,0.0,0.0,0.0,-16.144,0.0,0.0,0.0
541,0.0,0.0,0.0,0.05062890625,0.0,0.0,0.0,0.0,0.0,0.0,0.552,0.0,0.0,0.0,0.0,0.0,0.0,0.599733618693755,0.0,0.0,0.0,0.0,0.0,0.0,-17.608,0.0,0.0,0.0
542,0.0,0.0,0.0,0.055412109375,0.0,0.0,0.0,0.0,0.0,0.0,0.515,0.0,0.0,0.0,0.0,0.0,0.0,0.5981367629778661,0.0,0.0,0.0,0.0,0.0,0.0,-16.028,0.0,0.0,0.0
543,0.0,0.0,0.0,0.061205078125,0.0,0.0,0.0,0.0,0.0,0.0,0.523,0.0,0.0,0.0,0.0,0.0,0.0,0.5950000252644945,0.0,0.0,0.0,0.0,0.0,0.0,-14.316,0.0,0.0,0.0
544,0.0,0.0,0.0,0.066419921875,0.0,0.0,0.0,0.0,0.0,0.0,0.57,0.0,0.0,0.0,0.0,0.0,0.0,0.5903974828274432,0.0,0.0,0.0,0.0,0.0,0.0,-14.568,0.0,0.0,0.0
545,0.0,0.0,0.0,0.071048828125,0.0,0.0,0.0,0.0,0.0,0.0,0.485,0.0,0.0,0.0,0.0,0.0,0.0,0.5843596363665013,0.0,0.0,0.0,0.0,0.0,0.0,-13.788,0.0,0.0,0.0
546,0.0,0.0,0.0,0.0762734375,0.0,0.0,0.0,0.0,0.0,0.0,0.5,0.0,0.0,0.0,0.0,0.0,0.0,0.5768410457418273,0.0,0.0,0.0,0.0,0.0,0.0,-15.208,0.0,0.0,0.0
547,0.0,0.0,0.0,0.080623046875,0.0,0.0,0.0,0.0,0.0,0.0,0.485,0.0,0.0,0.0,0.0,0.0,0.0,0.567655652039639,0.0,0.0,0.0,0.0,0.0,0.0,-13.904,0.0,0.0,0.0
548,0.0,0.0,0.0,0.085251953125,0.0,0.0,0.0,0.0,0.0,0.0,0.434,0.0,0.0,0.0,0.0,0.0,0.0,0.5574712444131429,0.0,0.0,0.0,0.0,0.0,0.0,-12.736,0.0,0.0,0.0
549,0.0,0.0,0.0,0.0904677734375,0.0,0.0,0.0,0.0,0.0,0.0,0.5,0.0,0.0,0.0,0.0,0.0,0.0,0.5456955516308677,0.0,0.0,0.0,0.0,0.0,0.0,-13.172,0.0,0.0,0.0
550,0.0,0.0,0.0,0.09539453125,0.0,0.0,0.0,0.0,0.0,0.0,0.518,0.0,0.0,0.0,0.0,0.0,0.0,0.5324255468499797,0.0,0.0,0.0,0.0,0.0,0.0,-13.216,0.0,0.0,0.0
551,0.0,0.0,0.0,0.10075390625,0.0,0.0,0.0,0.0,0.0,0.0,0.51,0.0,0.0,0.0,0.0,0.0,0.0,0.5179543896285507,0.0,0.0,0.0,0.0,0.0,0.0,-14.2,0.0,0.0,0.0
552,0.0,0.0,0.0,0.10581640625,0.0,0.0,0.0,0.0,0.0,0.0,0.526,0.0,0.0,0.0,0.0,0.0,0.0,0.5021622621705754,0.0,0.0,0.0,0.0,0.0,0.0,-14.728,0.0,0.0,0.0
553,0.0,0.0,0.0,0.11058984375,0.0,0.0,0.0,0.0,0.0,0.0,0.488,0.0,0.0,0.0,0.0,0.0,0.0,0.4849529009202166,0.0,0.0,0.0,0.0,0.0,0.0,-12.28,0.0,0.0,0.0
554,0.0,0.0,0.0,0.115814453125,0.0,0.0,0.0,0.0,0.0,0.0,0.501,0.0,0.0,0.0,0.0,0.0,0.0,0.4670172105410875,0.0,0.0,0.0,0.0,0.0,0.0,-11.708,0.0,0.0,0.0
555,0.0,0.0,0.0,0.121318359375,0.0,0.0,0.0,0.0,0.0,0.0,0.537,0.0,0.0,0.0,0.0,0.0,0.0,0.44757313523062286,0.0,0.0,0.0,0.0,0.0,0.0,-11.844,0.0,0.0,0.0
556,0.0,0.0,0.0,0.1269677734375,0.0,0.0,0.0,0.0,0.0,0.0,0.558,0.0,0.0,0.0,0.0,0.0,0.0,0.42662854232659425,0.0,0.0,0.0,0.0,0.0,0.0,-12.096,0.0,0.0,0.0
557,0.0,0.0,0.0,0.1324716796875,0.0,0.0,0.0,0.0,0.0,0.0,0.573,0.0,0.0,0.0,0.0,0.0,0.0,0.40537490261073,0.0,0.0,0.0,0.0,0.0,0.0,-12.896,0.0,0.0,0.0
558,0.0,0.0,0.0,0.1376875,0.0,0.0,0.0,0.0,0.0,0.0,0.541,0.0,0.0,0.0,0.0,0.0,0.0,0.38289674262463,0.0,0.0,0.0,0.0,0.0,0.0,-12.44,0.0,0.0,0.0
559,0.0,0.0,0.0,0.14319140625,0.0,0.0,0.0,0.0,0.0,0.0,0.535,0.0,0.0,0.0,0.0,0.0,0.0,0.35913141855766095,0.0,0.0,0.0,0.0,0.0,0.0,-11.776,0.0,0.0,0.0
560,0.0,0.0,0.0,0.14883984375,0.0,0.0,0.0,0.0,0.0,0.0,0.556,0.0,0.0,0.0,0.0,0.0,0.0,0.33471236364032003,0.0,0.0,0.0,0.0,0.0,0.0,-11.98,0.0,0.0,0.0
561,0.0,0.0,0.0,0.15477734375,0.0,0.0,0.0,0.0,0.0,0.0,0.58,0.0,0.0,0.0,0.0,0.0,0.0,0.30938299604917546,0.0,0.0,0.0,0.0,0.0,0.0,-12.668,0.0,0.0,0.0
562,0.0,0.0,0.0,0.1610126953125,0.0,0.0,0.0,0.0,0.0,0.0,0.611,0.0,0.0,0.0,0.0,0.0,0.0,0.283244883466096,0.0,0.0,0.0,0.0,0.0,0.0,-13.788,0.0,0.0,0.0
563,0.0,0.0,0.0,0.1670947265625,0.0,0.0,0.0,0.0,0.0,0.0,0.611,0.0,0.0,0.0,0.0,0.0,0.0,0.2567694081457894,0.0,0.0,0.0,0.0,0.0,0.0,-14.016,0.0,0.0,0.0
564,0.0,0.0,0.0,0.1731767578125,0.0,0.0,0.0,0.0,0.0,0.0,0.613,0.0,0.0,0.0,0.0,0.0,0.0,0.22939003176279604,0.0,0.0,0.0,0.0,0.0,0.0,-13.124,0.0,0.0,0.0
565,0.0,0.0,0.0,0.179123046875,0.0,0.0,0.0,0.0,0.0,0.0,0.604,0.0,0.0,0.0,0.0,0.0,0.0,0.20105235655890333,0.0,0.0,0.0,0.0,0.0,0.0,-12.692,0.0,0.0,0.0
566,0.0,0.0,0.0,0.1853486328125,0.0,0.0,0.0,0.0,0.0,0.0,0.604,0.0,0.0,0.0,0.0,0.0,0.0,0.17278840309097124,0.0,0.0,0.0,0.0,0.0,0.0,-12.692,0.0,0.0,0.0
567,0.0,0.0,0.0,0.1915751953125,0.0,0.0,0.0,0.0,0.0,0.0,0.633,0.0,0.0,0.0,0.0,0.0,0.0,0.143875509993644,0.0,0.0,0.0,0.0,0.0,0.0,-13.308,0.0,0.0,0.0
568,0.0,0.0,0.0,0.197232421875,0.0,0.0,0.0,0.0,0.0,0.0,0.613,0.0,0.0,0.0,0.0,0.0,0.0,0.1144033993122527,0.0,0.0,0.0,0.0,0.0,0.0,-15.504,0.0,0.0,0.0
569,0.0,0.0,0.0,0.1996962890625,0.0,0.0,0.0,0.0,0.0,0.0,0.453,0.0,0.0,0.0,0.0,0.0,0.0,0.08503977458595949,0.0,0.0,0.0,0.0,0.0,0.0,-19.848,0.0,0.0,0.0
570,0.0,0.0,0.0,0.19896484375,0.0,0.0,0.0,0.0,0.0,0.0,0.104,0.0,0.0,0.0,0.0,0.0,0.0,0.0552907705559915,0.0,0.0,0.0,0.0,0.0,0.0,-21.908,0.0,0.0,0.0
571,0.0,0.0,0.0,0.197521484375,0.0,0.0,0.0,0.0,0.0,0.0,-0.111,0.0,0.0,0.0,0.0,0.0,0.0,0.02466359745888225,0.0,0.0,0.0,0.0,0.0,0.0,-22.092,0.0,0.0,0.0
572,0.0,0.0,0.0,0.1944716796875,0.0,0.0,0.0,0.0,0.0,0.0,-0.201,0.0,0.0,0.0,0.0,0.0,0.0,-0.004786493077263408,0.0,0.0,0.0,0.0,0.0,0.0,-22.112,0.0,0.0,0.0
573,0.0,0.0,0.0,0.190708984375,0.0,0.0,0.0,0.0,0.0,0.0,-0.35,0.0,0.0,0.0,0.0,0.0,0.0,-0.03463849947554196,0.0,0.0,0.0,0.0,0.0,0.0,-21.748,0.0,0.0,0.0
574,0.0,0.0,0.0,0.187234375,0.0,0.0,0.0,0.0,0.0,0.0,-0.352,0.0,0.0,0.0,0.0,0.0,0.0,-0.064705466087646,0.0,0.0,0.0,0.0,0.0,0.0,-24.516,0.0,0.0,0.0
575,0.0,0.0,0.0,0.1823076171875,0.0,0.0,0.0,0.0,0.0,0.0,-0.404,0.0,0.0,0.0,0.0,0.0,0.0,-0.09445202035285626,0.0,0.0,0.0,0.0,0.0,0.0,-25.888,0.0,0.0,0.0
576,0.0,0.0,0.0,0.1759375,0.0,0.0,0.0,0.0,0.0,0.0,-0.566,0.0,0.0,0.0,0.0,0.0,0.0,-0.12387687797223629,0.0,0.0,0.0,0.0,0.0,0.0,-25.088,0.0,0.0,0.0
577,0.0,0.0,0.0,0.169125,0.0,0.0,0.0,0.0,0.0,0.0,-0.655,0.0,0.0,0.0,0.0,0.0,0.0,-0.15330756707290377,0.0,0.0,0.0,0.0,0.0,0.0,-24.516,0.0,0.0,0.0
578,0.0,0.0,0.0,0.1614462890625,0.0,0.0,0.0,0.0,0.0,0.0,-0.721,0.0,0.0,0.0,0.0,0.0,0.0,-0.1823111133958976,0.0,0.0,0.0,0.0,0.0,0.0,-23.072,0.0,0.0,0.0
579,0.0,0.0,0.0,0.1543447265625,0.0,0.0,0.0,0.0,0.0,0.0,-0.756,0.0,0.0,0.0,0.0,0.0,0.0,-0.21012441090413195,0.0,0.0,0.0,0.0,0.0,0.0,-20.9,0.0,0.0,0.0
580,0.0,0.0,0.0,0.1479736328125,0.0,0.0,0.0,0.0,0.0,0.0,-0.676,0.0,0.0,0.0,0.0,0.0,0.0,-0.23821745261455554,0.0,0.0,0.0,0.0,0.0,0.0,-21.22,0.0,0.0,0.0
581,0.0,0.0,0.0,0.140150390625,0.0,0.0,0.0,0.0,0.0,0.0,-0.7,0.0,0.0,0.0,0.0,0.0,0.0,-0.26599650106674855,0.0,0.0,0.0,0.0,0.0,0.0,-20.788,0.0,0.0,0.0
582,0.0,0.0,0.0,0.1314521484375,0.0,0.0,0.0,0.0,0.0,0.0,-0.832,0.0,0.0,0.0,0.0,0.0,0.0,-0.2919439483424193,0.0,0.0,0.0,0.0,0.0,0.0,-19.78,0.0,0.0,0.0
583,0.0,0.0,0.0,0.1227626953125,0.0,0.0,0.0,0.0,0.0,0.0,-0.875,0.0,0.0,0.0,0.0,0.0,0.0,-0.31802423448720274,0.0,0.0,0.0,0.0,0.0,0.0,-17.584,0.0,0.0,0.0
584,0.0,0.0,0.0,0.114939453125,0.0,0.0,0.0,0.0,0.0,0.0,-0.846,0.0,0.0,0.0,0.0,0.0,0.0,-0.34300839061250366,0.0,0.0,0.0,0.0,0.0,0.0,-14.908,0.0,0.0,0.0
585,0.0,0.0,0.0,0.107404296875,0.0,0.0,0.0,0.0,0.0,0.0,-0.765,0.0,0.0,0.0,0.0,0.0,0.0,-0.36681366220674144,0.0,0.0,0.0,0.0,0.0,0.0,-15.96,0.0,0.0,0.0
586,0.0,0.0,0.0,0.0988779296875,0.0,0.0,0.0,0.0,0.0,0.0,-0.809,0.0,0.0,0.0,0.0,0.0,0.0,-0.390101756840241,0.0,0.0,0.0,0.0,0.0,0.0,-16.716,0.0,0.0,0.0
587,0.0,0.0,0.0,0.091044921875,0.0,0.0,0.0,0.0,0.0,0.0,-0.836,0.0,0.0,0.0,0.0,0.0,0.0,-0.4125095520224152,0.0,0.0,0.0,0.0,0.0,0.0,-15.3,0.0,0.0,0.0
588,0.0,0.0,0.0,0.08380859375,0.0,0.0,0.0,0.0,0.0,0.0,-0.749,0.0,0.0,0.0,0.0,0.0,0.0,-0.43368697657145494,0.0,0.0,0.0,0.0,0.0,0.0,-13.88,0.0,0.0,0.0
589,0.0,0.0,0.0,0.075263671875,0.0,0.0,0.0,0.0,0.0,0.0,-0.784,0.0,0.0,0.0,0.0,0.0,0.0,-0.45390510185450905,0.0,0.0,0.0,0.0,0.0,0.0,-12.14,0.0,0.0,0.0
590,0.0,0.0,0.0,0.066998046875,0.0,0.0,0.0,0.0,0.0,0.0,-0.863,0.0,0.0,0.0,0.0,0.0,0.0,-0.47317442531546605,0.0,0.0,0.0,0.0,0.0,0.0,-12.232,0.0,0.0,0.0
591,0.0,0.0,0.0,0.0597607421875,0.0,0.0,0.0,0.0,0.0,0.0,-0.792,0.0,0.0,0.0,0.0,0.0,0.0,-0.4907333309606776,0.0,0.0,0.0,0.0,0.0,0.0,-12.052,0.0,0.0,0.0
592,0.0,0.0,0.0,0.052650390625,0.0,0.0,0.0,0.0,0.0,0.0,-0.717,0.0,0.0,0.0,0.0,0.0,0.0,-0.5073661037873444,0.0,0.0,0.0,0.0,0.0,0.0,-11.388,0.0,0.0,0.0
593,0.0,0.0,0.0,0.045125,0.0,0.0,0.0,0.0,0.0,0.0,-0.724,0.0,0.0,0.0,0.0,0.0,0.0,-0.5230837907721703,0.0,0.0,0.0,0.0,0.0,0.0,-12.164,0.0,0.0,0.0
594,0.0,0.0,0.0,0.0373017578125,0.0,0.0,0.0,0.0,0.0,0.0,-0.773,0.0,0.0,0.0,0.0,0.0,0.0,-0.5368329001110465,0.0,0.0,0.0,0.0,0.0,0.0,-12.624,0.0,0.0,0.0
595,0.0,0.0,0.0,0.0303447265625,0.0,0.0,0.0,0.0,0.0,0.0,-0.76,0.0,0.0,0.0,0.0,0.0,0.0,-0.5495396371883926,0.0,0.0,0.0,0.0,0.0,0.0,-11.272,0.0,0.0,0.0
596,0.0,0.0,0.0,0.0242626953125,0.0,0.0,0.0,0.0,0.0,0.0,-0.655,0.0,0.0,0.0,0.0,0.0,0.0,-0.5610952978943559,0.0,0.0,0.0,0.0,0.0,0.0,-10.608,0.0,0.0,0.0
597,0.0,0.0,0.0,0.0171708984375,0.0,0.0,0.0,0.0,0.0,0.0,-0.657,0.0,0.0,0.0,0.0,0.0,0.0,-0.5709244084348465,0.0,0.0,0.0,0.0,0.0,0.0,-10.952,0.0,0.0,0.0
598,0.0,0.0,0.0,0.010501953125,0.0,0.0,0.0,0.0,0.0,0.0,-0.703,0.0,0.0,0.0,0.0,0.0,0.0,-0.5794078507712976,0.0,0.0,0.0,0.0,0.0,0.0,-11.432,0.0,0.0,0.0
599,0.0,0.0,0.0,0.0041318359375,0.0,0.0,0.0,0.0,0.0,0.0,-0.658,0.0,0.0,0.0,0.0,0.0,0.0,-0.5865288336599029,0.0,0.0,0.0,0.0,0.0,0.0,-11.892,0.0,0.0,0.0
600,0.0,0.0,0.0,-0.00223828125,0.0,0.0,0.0,0.0,0.0,0.0,-0.647,0.0,0.0,0.0,0.0,0.0,0.0,-0.5920470390038371,0.0,0.0,0.0,0.0,0.0,0.0,-10.06,0.0,0.0,0.0
601,0.0,0.0,0.0,-0.0083193359375,0.0,0.0,0.0,0.0,0.0,0.0,-0.621,0.0,0.0,0.0,0.0,0.0,0.0,-0.5961711062127599,0.0,0.0,0.0,0.0,0.0,0.0,-10.52,0.0,0.0,0.0
602,0.0,0.0,0.0,-0.014564453125,0.0,0.0,0.0,0.0,0.0,0.0,-0.616,0.0,0.0,0.0,0.0,0.0,0.0,-0.5988223516165275,0.0,0.0,0.0,0.0,0.0,0.0,-12.212,0.0,0.0,0.0
603,0.0,0.0,0.0,-0.02034765625,0.0,0.0,0.0,0.0,0.0,0.0,-0.62,0.0,0.0,0.0,0.0,0.0,0.0,-0.5999505555331517,0.0,0.0,0.0,0.0,0.0,0.0,-12.872,0.0,0.0,0.0
604,0.0,0.0,0.0,-0.0255634765625,0.0,0.0,0.0,0.0,0.0,0.0,-0.553,0.0,0.0,0.0,0.0,0.0,0.0,-0.5995866500202999,0.0,0.0,0.0,0.0,0.0,0.0,-13.032,0.0,0.0,0.0
605,0.0,0.0,0.0,-0.0309326171875,0.0,0.0,0.0,0.0,0.0,0.0,-0.537,0.0,0.0,0.0,0.0,0.0,0.0,-0.5977136886733905,0.0,0.0,0.0,0.0,0.0,0.0,-12.14,0.0,0.0,0.0
606,0.0,0.0,0.0,-0.0358505859375,0.0,0.0,0.0,0.0,0.0,0.0,-0.522,0.0,0.0,0.0,0.0,0.0,0.0,-0.5943734428131441,0.0,0.0,0.0,0.0,0.0,0.0,-12.624,0.0,0.0,0.0
607,0.0,0.0,0.0,-0.0412099609375,0.0,0.0,0.0,0.0,0.0,0.0,-0.515,0.0,0.0,0.0,0.0,0.0,0.0,-0.5895380212561454,0.0,0.0,0.0,0.0,0.0,0.0,-14.132,0.0,0.0,0.0
608,0.0,0.0,0.0,-0.04671484375,0.0,0.0,0.0,0.0,0.0,0.0,-0.55,0.0,0.0,0.0,0.0,0.0,0.0,-0.583182048790906,0.0,0.0,0.0,0.0,0.0,0.0,-14.108,0.0,0.0,0.0
609,0.0,0.0,0.0,-0.0516416015625,0.0,0.0,0.0,0.0,0.0,0.0,-0.525,0.0,0.0,0.0,0.0,0.0,0.0,-0.5754200559399194,0.0,0.0,0.0,0.0,0.0,0.0,-13.996,0.0,0.0,0.0
610,0.0,0.0,0.0,-0.0568564453125,0.0,0.0,0.0,0.0,0.0,0.0,-0.51,0.0,0.0,0.0,0.0,0.0,0.0,-0.5662314836961286,0.0,0.0,0.0,0.0,0.0,0.0,-13.492,0.0,0.0,0.0
611,0.0,0.0,0.0,-0.061638671875,0.0,0.0,0.0,0.0,0.0,0.0,-0.51,0.0,0.0,0.0,0.0,0.0,0.0,-0.5555261319025431,0.0,0.0,0.0,0.0,0.0,0.0,-13.536,0.0,0.0,0.0
612,0.0,0.0,0.0,-0.066412109375,0.0,0.0,0.0,0.0,0.0,0.0,-0.477,0.0,0.0,0.0,0.0,0.0,0.0,-0.5435030549041733,0.0,0.0,0.0,0.0,0.0,0.0,-15.208,0.0,0.0,0.0
613,0.0,0.0,0.0,-0.0719169921875,0.0,0.0,0.0,0.0,0.0,0.0,-0.514,0.0,0.0,0.0,0.0,0.0,0.0,-0.5301780341745909,0.0,0.0,0.0,0.0,0.0,0.0,-15.94,0.0,0.0,0.0
614,0.0,0.0,0.0,-0.0771416015625,0.0,0.0,0.0,0.0,0.0,0.0,-0.55,0.0,0.0,0.0,0.0,0.0,0.0,-0.5153406232465567,0.0,0.0,0.0,0.0,0.0,0.0,-15.708,0.0,0.0,0.0
615,0.0,0.0,0.0,-0.082203125,0.0,0.0,0.0,0.0,0.0,0.0,-0.512,0.0,0.0,0.0,0.0,0.0,0.0,-0.4993720592589521,0.0,0.0,0.0,0.0,0.0,0.0,-15.664,0.0,0.0,0.0
616,0.0,0.0,0.0,-0.0872744140625,0.0,0.0,0.0,0.0,0.0,0.0,-0.516,0.0,0.0,0.0,0.0,0.0,0.0,-0.48232246221089436,0.0,0.0,0.0,0.0,0.0,0.0,-14.864,0.0,0.0,0.0
617,0.0,0.0,0.0,-0.0917685546875,0.0,0.0,0.0,0.0,0.0,0.0,-0.481,0.0,0.0,0.0,0.0,0.0,0.0,-0.46369878439278833,0.0,0.0,0.0,0.0,0.0,0.0,-15.984,0.0,0.0,0.0
618,0.0,0.0,0.0,-0.09683984375,0.0,0.0,0.0,0.0,0.0,0.0,-0.467,0.0,0.0,0.0,0.0,0.0,0.0,-0.4441167823646227,0.0,0.0,0.0,0.0,0.0,0.0,-16.672,0.0,0.0,0.0
619,0.0,0.0,0.0,-0.1026328125,0.0,0.0,0.0,0.0,0.0,0.0,-0.55,0.0,0.0,0.0,0.0,0.0,0.0,-0.4235514199004865,0.0,0.0,0.0,0.0,0.0,0.0,-16.168,0.0,0.0,0.0
620,0.0,0.0,0.0,-0.10813671875,0.0,0.0,0.0,0.0,0.0,0.0,-0.57,0.0,0.0,0.0,0.0,0.0,0.0,-0.40164830497400816,0.0,0.0,0.0,0.0,0.0,0.0,-15.8,0.0,0.0,0.0
621,0.0,0.0,0.0,-0.11378515625,0.0,0.0,0.0,0.0,0.0,0.0,-0.566,0.0,0.0,0.0,0.0,0.0,0.0,-0.3787785547132966,0.0,0.0,0.0,0.0,0.0,0.0,-14.864,0.0,0.0,0.0
622,0.0,0.0,0.0,-0.1192900390625,0.0,0.0,0.0,0.0,0.0,0.0,-0.562,0.0,0.0,0.0,0.0,0.0,0.0,-0.35529022025110324,0.0,0.0,0.0,0.0,0.0,0.0,-15.0,0.0,0.0,0.0
623,0.0,0.0,0.0,-0.1245048828125,0.0,0.0,0.0,0.0,0.0,0.0,-0.534,0.0,0.0,0.0,0.0,0.0,0.0,-0.3305191182017995,0.0,0.0,0.0,0.0,0.0,0.0,-16.144,0.0,0.0,0.0
624,0.0,0.0,0.0,-0.1304423828125,0.0,0.0,0.0,0.0,0.0,0.0,-0.558,0.0,0.0,0.0,0.0,0.0,0.0,-0.3046936653974754,0.0,0.0,0.0,0.0,0.0,0.0,-16.12,0.0,0.0,0.0
625,0.0,0.0,0.0,-0.1366689453125,0.0,0.0,0.0,0.0,0.0,0.0,-0.615,0.0,0.0,0.0,0.0,0.0,0.0,-0.27881934827868304,0.0,0.0,0.0,0.0,0.0,0.0,-16.188,0.0,0.0,0.0
626,0.0,0.0,0.0,-0.142759765625,0.0,0.0,0.0,0.0,0.0,0.0,-0.622,0.0,0.0,0.0,0.0,0.0,0.0,-0.2519588231169754,0.0,0.0,0.0,0.0,0.0,0.0,-15.184,0.0,0.0,0.0
627,0.0,0.0,0.0,-0.148697265625,0.0,0.0,0.0,0.0,0.0,0.0,-0.609,0.0,0.0,0.0,0.0,0.0,0.0,-0.2244538403932805,0.0,0.0,0.0,0.0,0.0,0.0,-14.976,0.0,0.0,0.0
628,0.0,0.0,0.0,-0.154345703125,0.0,0.0,0.0,0.0,0.0,0.0,-0.581,0.0,0.0,0.0,0.0,0.0,0.0,-0.19637466387210803,0.0,0.0,0.0,0.0,0.0,0.0,-15.048,0.0,0.0,0.0
629,0.0,0.0,0.0,-0.1599853515625,0.0,0.0,0.0,0.0,0.0,0.0,-0.567,0.0,0.0,0.0,0.0,0.0,0.0,-0.1677988711862198,0.0,0.0,0.0,0.0,0.0,0.0,-15.344,0.0,0.0,0.0
630,0.0,0.0,0.0,-0.166365234375,0.0,0.0,0.0,0.0,0.0,0.0,-0.598,0.0,0.0,0.0,0.0,0.0,0.0,-0.13860550333642208,0.0,0.0,0.0,0.0,0.0,0.0,-15.32,0.0,0.0,0.0
631,0.0,0.0,0.0,-0.1725908203125,0.0,0.0,0.0,0.0,0.0,0.0,-0.647,0.0,0.0,0.0,0.0,0.0,0.0,-0.10949503607616685,0.0,0.0,0.0,0.0,0.0,0.0,-13.604,0.0,0.0,0.0
632,0.0,0.0,0.0,-0.177517578125,0.0,0.0,0.0,0.0,0.0,0.0,-0.583,0.0,0.0,0.0,0.0,0.0,0.0,-0.07994872381285292,0.0,0.0,0.0,0.0,0.0,0.0,-11.296,0.0,0.0,0.0
633,0.0,0.0,0.0,-0.1795390625,0.0,0.0,0.0,0.0,0.0,0.0,-0.384,0.0,0.0,0.0,0.0,0.0,0.0,-0.04950647974175233,0.0,0.0,0.0,0.0,0.0,0.0,-8.3,0.0,0.0,0.0
634,0.0,0.0,0.0,-0.1789619140625,0.0,0.0,0.0,0.0,0.0,0.0,-0.095,0.0,0.0,0.0,0.0,0.0,0.0,-0.020162018975464206,0.0,0.0,0.0,0.0,0.0,0.0,-7.612,0.0,0.0,0.0
635,0.0,0.0,0.0,-0.177517578125,0.0,0.0,0.0,0.0,0.0,0.0,0.1,0.0,0.0,0.0,0.0,0.0,0.0,0.009965304877424098,0.0,0.0,0.0,0.0,0.0,0.0,-7.568,0.0,0.0,0.0
636,0.0,0.0,0.0,-0.1744765625,0.0,0.0,0.0,0.0,0.0,0.0,0.212,0.0,0.0,0.0,0.0,0.0,0.0,5.078315728800033e-05,0.0,0.0,0.0,0.0,0.0,0.0,-7.132,0.0,0.0,0.0
637,0.0,0.0,0.0,-0.1712919921875,0.0,0.0,0.0,0.0,0.0,0.0,0.311,0.0,0.0,0.0,0.0,0.0,0.0,0.02972958558922678,0.0,0.0,0.0,0.0,0.0,0.0,-6.264,0.0,0.0,0.0
638,0.0,0.0,0.0,-0.167384765625,0.0,0.0,0.0,0.0,0.0,0.0,0.339,0.0,0.0,0.0,0.0,0.0,0.0,0.05978042920234087,0.0,0.0,0.0,0.0,0.0,0.0,-4.276,0.0,0.0,0.0
639,0.0,0.0,0.0,-0.16216015625,0.0,0.0,0.0,0.0,0.0,0.0,0.451,0.0,0.0,0.0,0.0,0.0,0.0,0.0896861329465258,0.0,0.0,0.0,0.0,0.0,0.0,-4.296,0.0,0.0,0.0
640,0.0,0.0,0.0,-0.15593359375,0.0,0.0,0.0,0.0,0.0,0.0,0.563,0.0,0.0,0.0,0.0,0.0,0.0,0.11886008009139779,0.0,0.0,0.0,0.0,0.0,0.0,-4.984,0.0,0.0,0.0
641,0.0,0.0,0.0,-0.148408203125,0.0,0.0,0.0,0.0,0.0,0.0,0.677,0.0,0.0,0.0,0.0,0.0,0.0,0.14814837743003054,0.0,0.0,0.0,0.0,0.0,0.0,-5.988,0.0,0.0,0.0
642,0.0,0.0,0.0,-0.140431640625,0.0,0.0,0.0,0.0,0.0,0.0,0.783,0.0,0.0,0.0,0.0,0.0,0.0,0.17728326076164308,0.0,0.0,0.0,0.0,0.0,0.0,-6.128,0.0,0.0,0.0
643,0.0,0.0,0.0,-0.13290625,0.0,0.0,0.0,0.0,0.0,0.0,0.795,0.0,0.0,0.0,0.0,0.0,0.0,0.20539713760256662,0.0,0.0,0.0,0.0,0.0,0.0,-6.996,0.0,0.0,0.0
644,0.0,0.0,0.0,-0.1261025390625,0.0,0.0,0.0,0.0,0.0,0.0,0.722,0.0,0.0,0.0,0.0,0.0,0.0,0.23337736636894668,0.0,0.0,0.0,0.0,0.0,0.0,-7.796,0.0,0.0,0.0
645,0.0,0.0,0.0,-0.1182705078125,0.0,0.0,0.0,0.0,0.0,0.0,0.711,0.0,0.0,0.0,0.0,0.0,0.0,0.26082515004706003,0.0,0.0,0.0,0.0,0.0,0.0,-7.156,0.0,0.0,0.0
646,0.0,0.0,0.0,-0.1090029296875,0.0,0.0,0.0,0.0,0.0,0.0,0.855,0.0,0.0,0.0,0.0,0.0,0.0,0.2874366090859749,0.0,0.0,0.0,0.0,0.0,0.0,-7.452,0.0,0.0,0.0
647,0.0,0.0,0.0,-0.10103515625,0.0,0.0,0.0,0.0,0.0,0.0,0.889,0.0,0.0,0.0,0.0,0.0,0.0,0.3133974012697918,0.0,0.0,0.0,0.0,0.0,0.0,-10.448,0.0,0.0,0.0
648,0.0,0.0,0.0,-0.0935009765625,0.0,0.0,0.0,0.0,0.0,0.0,0.774,0.0,0.0,0.0,0.0,0.0,0.0,0.33875804516293323,0.0,0.0,0.0,0.0,0.0,0.0,-12.532,0.0,0.0,0.0
649,0.0,0.0,0.0,-0.0849560546875,0.0,0.0,0.0,0.0,0.0,0.0,0.789,0.0,0.0,0.0,0.0,0.0,0.0,0.3629634849319985,0.0,0.0,0.0,0.0,0.0,0.0,-13.836,0.0,0.0,0.0
650,0.0,0.0,0.0,-0.0767080078125,0.0,0.0,0.0,0.0,0.0,0.0,0.864,0.0,0.0,0.0,0.0,0.0,0.0,0.38633989652645007,0.0,0.0,0.0,0.0,0.0,0.0,-13.032,0.0,0.0,0.0
651,0.0,0.0,0.0,-0.06959765625,0.0,0.0,0.0,0.0,0.0,0.0,0.784,0.0,0.0,0.0,0.0,0.0,0.0,0.4089410725465151,0.0,0.0,0.0,0.0,0.0,0.0,-13.284,0.0,0.0,0.0
652,0.0,0.0,0.0,-0.061927734375,0.0,0.0,0.0,0.0,0.0,0.0,0.724,0.0,0.0,0.0,0.0,0.0,0.0,0.4304885755422408,0.0,0.0,0.0,0.0,0.0,0.0,-14.476,0.0,0.0,0.0
653,0.0,0.0,0.0,-0.05323828125,0.0,0.0,0.0,0.0,0.0,0.0,0.819,0.0,0.0,0.0,0.0,0.0,0.0,0.4505639336244521,0.0,0.0,0.0,0.0,0.0,0.0,-16.12,0.0,0.0,0.0
654,0.0,0.0,0.0,-0.0454150390625,0.0,0.0,0.0,0.0,0.0,0.0,0.843,0.0,0.0,0.0,0.0,0.0,0.0,0.469876646038645,0.0,0.0,0.0,0.0,0.0,0.0,-16.076,0.0,0.0,0.0
655,0.0,0.0,0.0,-0.0386025390625,0.0,0.0,0.0,0.0,0.0,0.0,0.741,0.0,0.0,0.0,0.0,0.0,0.0,0.4880943322972212,0.0,0.0,0.0,0.0,0.0,0.0,-17.24,0.0,0.0,0.0
656,0.0,0.0,0.0,-0.031943359375,0.0,0.0,0.0,0.0,0.0,0.0,0.671,0.0,0.0,0.0,0.0,0.0,0.0,0.5049471960184118,0.0,0.0,0.0,0.0,0.0,0.0,-17.424,0.0,0.0,0.0
657,0.0,0.0,0.0,-0.0238310546875,0.0,0.0,0.0,0.0,0.0,0.0,0.732,0.0,0.0,0.0,0.0,0.0,0.0,0.5204073643067391,0.0,0.0,0.0,0.0,0.0,0.0,-17.952,0.0,0.0,0.0
658,0.0,0.0,0.0,-0.016296875,0.0,0.0,0.0,0.0,0.0,0.0,0.799,0.0,0.0,0.0,0.0,0.0,0.0,0.534833098768077,0.0,0.0,0.0,0.0,0.0,0.0,-18.864,0.0,0.0,0.0
659,0.0,0.0,0.0,-0.00963671875,0.0,0.0,0.0,0.0,0.0,0.0,0.72,0.0,0.0,0.0,0.0,0.0,0.0,0.5476802983104958,0.0,0.0,0.0,0.0,0.0,0.0,-19.3,0.0,0.0,0.0
660,0.0,0.0,0.0,-0.00282421875,0.0,0.0,0.0,0.0,0.0,0.0,0.675,0.0,0.0,0.0,0.0,0.0,0.0,0.5592776128822644,0.0,0.0,0.0,0.0,0.0,0.0,-19.3,0.0,0.0,0.0
661,0.0,0.0,0.0,0.0041318359375,0.0,0.0,0.0,0.0,0.0,0.0,0.693,0.0,0.0,0.0,0.0,0.0,0.0,0.5693282670640603,0.0,0.0,0.0,0.0,0.0,0.0,-17.584,0.0,0.0,0.0
662,0.0,0.0,0.0,0.010935546875,0.0,0.0,0.0,0.0,0.0,0.0,0.699,0.0,0.0,0.0,0.0,0.0,0.0,0.5780818736395855,0.0,0.0,0.0,0.0,0.0,0.0,-17.424,0.0,0.0,0.0
663,0.0,0.0,0.0,0.0171708984375,0.0,0.0,0.0,0.0,0.0,0.0,0.654,0.0,0.0,0.0,0.0,0.0,0.0,0.5854352553045552,0.0,0.0,0.0,0.0,0.0,0.0,-17.928,0.0,0.0,0.0
664,0.0,0.0,0.0,0.023107421875,0.0,0.0,0.0,0.0,0.0,0.0,0.616,0.0,0.0,0.0,0.0,0.0,0.0,0.5912870778838829,0.0,0.0,0.0,0.0,0.0,0.0,-18.888,0.0,0.0,0.0
665,0.0,0.0,0.0,0.029333984375,0.0,0.0,0.0,0.0,0.0,0.0,0.608,0.0,0.0,0.0,0.0,0.0,0.0,0.595589342283456,0.0,0.0,0.0,0.0,0.0,0.0,-17.676,0.0,0.0,0.0
666,0.0,0.0,0.0,0.0352802734375,0.0,0.0,0.0,0.0,0.0,0.0,0.616,0.0,0.0,0.0,0.0,0.0,0.0,0.5984769812571922,0.0,0.0,0.0,0.0,0.0,0.0,-16.784,0.0,0.0,0.0
667,0.0,0.0,0.0,0.040640625,0.0,0.0,0.0,0.0,0.0,0.0,0.578,0.0,0.0,0.0,0.0,0.0,0.0,0.599871131015846,0.0,0.0,0.0,0.0,0.0,0.0,-16.58,0.0,0.0,0.0
668,0.0,0.0,0.0,0.0459912109375,0.0,0.0,0.0,0.0,0.0,0.0,0.531,0.0,0.0,0.0,0.0,0.0,0.0,0.5997538074899511,0.0,0.0,0.0,0.0,0.0,0.0,-17.24,0.0,0.0,0.0
669,0.0,0.0,0.0,0.0513515625,0.0,0.0,0.0,0.0,0.0,0.0,0.544,0.0,0.0,0.0,0.0,0.0,0.0,0.5981294900448724,0.0,0.0,0.0,0.0,0.0,0.0,-17.332,0.0,0.0,0.0
