EmanuelSamir/lab201_ws_projsamir/sawyer_dev/data/sawyer/vel_acel_ns/test_joint4/training_data_15.csv
,j1,j2,j3,j4,j5,j6,j7,v1,v2,v3,v4,v5,v6,v7,jd1,jd2,jd3,jd4,jd5,jd6,jd7,e1,e2,e3,e4,e5,e6,e7
0,0.0,0.0,0.0,0.0,0.0,0.0,0.0,0.0,0.0,0.0,0.0,0.0,0.0,0.0,0.0,0.0,0.0,0.0,0.0,0.0,0.0,0.0,0.0,0.0,0.0,0.0,0.0,0.0
1,0.0,0.0,0.0,-0.0039794921875,0.0,0.0,0.0,0.0,0.0,0.0,-0.001,0.0,0.0,0.0,0.0,0.0,0.0,7.832050301244388e-05,0.0,0.0,0.0,0.0,0.0,0.0,-14.108,0.0,0.0,0.0
2,0.0,0.0,0.0,-0.0039794921875,0.0,0.0,0.0,0.0,0.0,0.0,-0.001,0.0,0.0,0.0,0.0,0.0,0.0,0.008345477879150917,0.0,0.0,0.0,0.0,0.0,0.0,-14.224,0.0,0.0,0.0
3,0.0,0.0,0.0,-0.0039794921875,0.0,0.0,0.0,0.0,0.0,0.0,-0.001,0.0,0.0,0.0,0.0,0.0,0.0,0.017431476351746994,0.0,0.0,0.0,0.0,0.0,0.0,-14.156,0.0,0.0,0.0
4,0.0,0.0,0.0,-0.0039794921875,0.0,0.0,0.0,0.0,0.0,0.0,-0.001,0.0,0.0,0.0,0.0,0.0,0.0,0.026474889448239274,0.0,0.0,0.0,0.0,0.0,0.0,-13.948,0.0,0.0,0.0
5,0.0,0.0,0.0,-0.0032578125,0.0,0.0,0.0,0.0,0.0,0.0,0.024,0.0,0.0,0.0,0.0,0.0,0.0,0.03545830134299015,0.0,0.0,0.0,0.0,0.0,0.0,-12.712,0.0,0.0,0.0
6,0.0,0.0,0.0,-0.0012275390625,0.0,0.0,0.0,0.0,0.0,0.0,0.126,0.0,0.0,0.0,0.0,0.0,0.0,0.044404212941208665,0.0,0.0,0.0,0.0,0.0,0.0,-11.456,0.0,0.0,0.0
7,0.0,0.0,0.0,0.0018125,0.0,0.0,0.0,0.0,0.0,0.0,0.247,0.0,0.0,0.0,0.0,0.0,0.0,0.05339470959109755,0.0,0.0,0.0,0.0,0.0,0.0,-10.86,0.0,0.0,0.0
8,0.0,0.0,0.0,0.0055751953125,0.0,0.0,0.0,0.0,0.0,0.0,0.329,0.0,0.0,0.0,0.0,0.0,0.0,0.0623722839672056,0.0,0.0,0.0,0.0,0.0,0.0,-10.496,0.0,0.0,0.0
9,0.0,0.0,0.0,0.0100693359375,0.0,0.0,0.0,0.0,0.0,0.0,0.414,0.0,0.0,0.0,0.0,0.0,0.0,0.07132788020759559,0.0,0.0,0.0,0.0,0.0,0.0,-10.68,0.0,0.0,0.0
10,0.0,0.0,0.0,0.0148515625,0.0,0.0,0.0,0.0,0.0,0.0,0.468,0.0,0.0,0.0,0.0,0.0,0.0,0.08019870007332314,0.0,0.0,0.0,0.0,0.0,0.0,-9.832,0.0,0.0,0.0
11,0.0,0.0,0.0,0.0200673828125,0.0,0.0,0.0,0.0,0.0,0.0,0.493,0.0,0.0,0.0,0.0,0.0,0.0,0.08910772590552972,0.0,0.0,0.0,0.0,0.0,0.0,-9.328,0.0,0.0,0.0
12,0.0,0.0,0.0,0.0261484375,0.0,0.0,0.0,0.0,0.0,0.0,0.549,0.0,0.0,0.0,0.0,0.0,0.0,0.09799649504196771,0.0,0.0,0.0,0.0,0.0,0.0,-9.352,0.0,0.0,0.0
13,0.0,0.0,0.0,0.03251953125,0.0,0.0,0.0,0.0,0.0,0.0,0.634,0.0,0.0,0.0,0.0,0.0,0.0,0.1068608980727049,0.0,0.0,0.0,0.0,0.0,0.0,-10.336,0.0,0.0,0.0
14,0.0,0.0,0.0,0.0391875,0.0,0.0,0.0,0.0,0.0,0.0,0.654,0.0,0.0,0.0,0.0,0.0,0.0,0.11581223369154842,0.0,0.0,0.0,0.0,0.0,0.0,-11.044,0.0,0.0,0.0
15,0.0,0.0,0.0,0.0459912109375,0.0,0.0,0.0,0.0,0.0,0.0,0.677,0.0,0.0,0.0,0.0,0.0,0.0,0.1246270994660005,0.0,0.0,0.0,0.0,0.0,0.0,-11.32,0.0,0.0,0.0
16,0.0,0.0,0.0,0.052505859375,0.0,0.0,0.0,0.0,0.0,0.0,0.68,0.0,0.0,0.0,0.0,0.0,0.0,0.13324615296429837,0.0,0.0,0.0,0.0,0.0,0.0,-10.588,0.0,0.0,0.0
17,0.0,0.0,0.0,0.0596162109375,0.0,0.0,0.0,0.0,0.0,0.0,0.671,0.0,0.0,0.0,0.0,0.0,0.0,0.14206988209325574,0.0,0.0,0.0,0.0,0.0,0.0,-10.016,0.0,0.0,0.0
18,0.0,0.0,0.0,0.066998046875,0.0,0.0,0.0,0.0,0.0,0.0,0.732,0.0,0.0,0.0,0.0,0.0,0.0,0.1508995991285545,0.0,0.0,0.0,0.0,0.0,0.0,-10.884,0.0,0.0,0.0
19,0.0,0.0,0.0,0.0738017578125,0.0,0.0,0.0,0.0,0.0,0.0,0.715,0.0,0.0,0.0,0.0,0.0,0.0,0.15947427210712312,0.0,0.0,0.0,0.0,0.0,0.0,-11.66,0.0,0.0,0.0
20,0.0,0.0,0.0,0.081056640625,0.0,0.0,0.0,0.0,0.0,0.0,0.702,0.0,0.0,0.0,0.0,0.0,0.0,0.16821940298422827,0.0,0.0,0.0,0.0,0.0,0.0,-12.44,0.0,0.0,0.0
21,0.0,0.0,0.0,0.0878603515625,0.0,0.0,0.0,0.0,0.0,0.0,0.716,0.0,0.0,0.0,0.0,0.0,0.0,0.1768014572234626,0.0,0.0,0.0,0.0,0.0,0.0,-13.104,0.0,0.0,0.0
22,0.0,0.0,0.0,0.0949521484375,0.0,0.0,0.0,0.0,0.0,0.0,0.689,0.0,0.0,0.0,0.0,0.0,0.0,0.18530632457684645,0.0,0.0,0.0,0.0,0.0,0.0,-13.216,0.0,0.0,0.0
23,0.0,0.0,0.0,0.1020537109375,0.0,0.0,0.0,0.0,0.0,0.0,0.716,0.0,0.0,0.0,0.0,0.0,0.0,0.1939158303724601,0.0,0.0,0.0,0.0,0.0,0.0,-14.932,0.0,0.0,0.0
24,0.0,0.0,0.0,0.108857421875,0.0,0.0,0.0,0.0,0.0,0.0,0.69,0.0,0.0,0.0,0.0,0.0,0.0,0.20251228700269414,0.0,0.0,0.0,0.0,0.0,0.0,-14.956,0.0,0.0,0.0
25,0.0,0.0,0.0,0.115958984375,0.0,0.0,0.0,0.0,0.0,0.0,0.702,0.0,0.0,0.0,0.0,0.0,0.0,0.21079511002368304,0.0,0.0,0.0,0.0,0.0,0.0,-14.588,0.0,0.0,0.0
26,0.0,0.0,0.0,0.1229072265625,0.0,0.0,0.0,0.0,0.0,0.0,0.711,0.0,0.0,0.0,0.0,0.0,0.0,0.21920234715576178,0.0,0.0,0.0,0.0,0.0,0.0,-14.384,0.0,0.0,0.0
27,0.0,0.0,0.0,0.1297197265625,0.0,0.0,0.0,0.0,0.0,0.0,0.694,0.0,0.0,0.0,0.0,0.0,0.0,0.2277035479498533,0.0,0.0,0.0,0.0,0.0,0.0,-14.908,0.0,0.0,0.0
28,0.0,0.0,0.0,0.135955078125,0.0,0.0,0.0,0.0,0.0,0.0,0.656,0.0,0.0,0.0,0.0,0.0,0.0,0.23592559819967432,0.0,0.0,0.0,0.0,0.0,0.0,-15.228,0.0,0.0,0.0
29,0.0,0.0,0.0,0.1427587890625,0.0,0.0,0.0,0.0,0.0,0.0,0.652,0.0,0.0,0.0,0.0,0.0,0.0,0.24419024399181993,0.0,0.0,0.0,0.0,0.0,0.0,-15.3,0.0,0.0,0.0
30,0.0,0.0,0.0,0.1492734375,0.0,0.0,0.0,0.0,0.0,0.0,0.669,0.0,0.0,0.0,0.0,0.0,0.0,0.25241861041105673,0.0,0.0,0.0,0.0,0.0,0.0,-15.412,0.0,0.0,0.0
31,0.0,0.0,0.0,0.15594140625,0.0,0.0,0.0,0.0,0.0,0.0,0.661,0.0,0.0,0.0,0.0,0.0,0.0,0.26046231237241574,0.0,0.0,0.0,0.0,0.0,0.0,-16.028,0.0,0.0,0.0
32,0.0,0.0,0.0,0.1623125,0.0,0.0,0.0,0.0,0.0,0.0,0.668,0.0,0.0,0.0,0.0,0.0,0.0,0.26849134094106836,0.0,0.0,0.0,0.0,0.0,0.0,-17.516,0.0,0.0,0.0
33,0.0,0.0,0.0,0.1685380859375,0.0,0.0,0.0,0.0,0.0,0.0,0.625,0.0,0.0,0.0,0.0,0.0,0.0,0.2766524518019277,0.0,0.0,0.0,0.0,0.0,0.0,-17.172,0.0,0.0,0.0
34,0.0,0.0,0.0,0.1750625,0.0,0.0,0.0,0.0,0.0,0.0,0.642,0.0,0.0,0.0,0.0,0.0,0.0,0.28453977469183456,0.0,0.0,0.0,0.0,0.0,0.0,-16.028,0.0,0.0,0.0
35,0.0,0.0,0.0,0.1811533203125,0.0,0.0,0.0,0.0,0.0,0.0,0.648,0.0,0.0,0.0,0.0,0.0,0.0,0.2923673480554083,0.0,0.0,0.0,0.0,0.0,0.0,-14.932,0.0,0.0,0.0
36,0.0,0.0,0.0,0.18737890625,0.0,0.0,0.0,0.0,0.0,0.0,0.617,0.0,0.0,0.0,0.0,0.0,0.0,0.3004177777495185,0.0,0.0,0.0,0.0,0.0,0.0,-14.976,0.0,0.0,0.0
37,0.0,0.0,0.0,0.19331640625,0.0,0.0,0.0,0.0,0.0,0.0,0.614,0.0,0.0,0.0,0.0,0.0,0.0,0.3079411740583073,0.0,0.0,0.0,0.0,0.0,0.0,-15.596,0.0,0.0,0.0
38,0.0,0.0,0.0,0.19896484375,0.0,0.0,0.0,0.0,0.0,0.0,0.577,0.0,0.0,0.0,0.0,0.0,0.0,0.3156364879497389,0.0,0.0,0.0,0.0,0.0,0.0,-15.068,0.0,0.0,0.0
39,0.0,0.0,0.0,0.2046142578125,0.0,0.0,0.0,0.0,0.0,0.0,0.575,0.0,0.0,0.0,0.0,0.0,0.0,0.32331164910889854,0.0,0.0,0.0,0.0,0.0,0.0,-14.316,0.0,0.0,0.0
40,0.0,0.0,0.0,0.2101181640625,0.0,0.0,0.0,0.0,0.0,0.0,0.56,0.0,0.0,0.0,0.0,0.0,0.0,0.3307935732223012,0.0,0.0,0.0,0.0,0.0,0.0,-13.972,0.0,0.0,0.0
41,0.0,0.0,0.0,0.2157763671875,0.0,0.0,0.0,0.0,0.0,0.0,0.554,0.0,0.0,0.0,0.0,0.0,0.0,0.3382460913257599,0.0,0.0,0.0,0.0,0.0,0.0,-14.268,0.0,0.0,0.0
42,0.0,0.0,0.0,0.2212802734375,0.0,0.0,0.0,0.0,0.0,0.0,0.571,0.0,0.0,0.0,0.0,0.0,0.0,0.34570093476448677,0.0,0.0,0.0,0.0,0.0,0.0,-15.184,0.0,0.0,0.0
43,0.0,0.0,0.0,0.226630859375,0.0,0.0,0.0,0.0,0.0,0.0,0.547,0.0,0.0,0.0,0.0,0.0,0.0,0.35300976019904684,0.0,0.0,0.0,0.0,0.0,0.0,-15.48,0.0,0.0,0.0
44,0.0,0.0,0.0,0.2321357421875,0.0,0.0,0.0,0.0,0.0,0.0,0.538,0.0,0.0,0.0,0.0,0.0,0.0,0.3602262926793373,0.0,0.0,0.0,0.0,0.0,0.0,-14.176,0.0,0.0,0.0
45,0.0,0.0,0.0,0.2376484375,0.0,0.0,0.0,0.0,0.0,0.0,0.562,0.0,0.0,0.0,0.0,0.0,0.0,0.3674584334099818,0.0,0.0,0.0,0.0,0.0,0.0,-13.284,0.0,0.0,0.0
46,0.0,0.0,0.0,0.2428642578125,0.0,0.0,0.0,0.0,0.0,0.0,0.536,0.0,0.0,0.0,0.0,0.0,0.0,0.3744646486398962,0.0,0.0,0.0,0.0,0.0,0.0,-12.944,0.0,0.0,0.0
47,0.0,0.0,0.0,0.248359375,0.0,0.0,0.0,0.0,0.0,0.0,0.532,0.0,0.0,0.0,0.0,0.0,0.0,0.38143839576776317,0.0,0.0,0.0,0.0,0.0,0.0,-13.216,0.0,0.0,0.0
48,0.0,0.0,0.0,0.2537197265625,0.0,0.0,0.0,0.0,0.0,0.0,0.551,0.0,0.0,0.0,0.0,0.0,0.0,0.3884809417633896,0.0,0.0,0.0,0.0,0.0,0.0,-13.356,0.0,0.0,0.0
49,0.0,0.0,0.0,0.2589443359375,0.0,0.0,0.0,0.0,0.0,0.0,0.526,0.0,0.0,0.0,0.0,0.0,0.0,0.3951563166790556,0.0,0.0,0.0,0.0,0.0,0.0,-12.988,0.0,0.0,0.0
50,0.0,0.0,0.0,0.2644482421875,0.0,0.0,0.0,0.0,0.0,0.0,0.537,0.0,0.0,0.0,0.0,0.0,0.0,0.40187134275760167,0.0,0.0,0.0,0.0,0.0,0.0,-12.644,0.0,0.0,0.0
51,0.0,0.0,0.0,0.269654296875,0.0,0.0,0.0,0.0,0.0,0.0,0.546,0.0,0.0,0.0,0.0,0.0,0.0,0.40869145343329205,0.0,0.0,0.0,0.0,0.0,0.0,-12.644,0.0,0.0,0.0
52,0.0,0.0,0.0,0.27516796875,0.0,0.0,0.0,0.0,0.0,0.0,0.535,0.0,0.0,0.0,0.0,0.0,0.0,0.41508577853712325,0.0,0.0,0.0,0.0,0.0,0.0,-12.736,0.0,0.0,0.0
53,0.0,0.0,0.0,0.28081640625,0.0,0.0,0.0,0.0,0.0,0.0,0.556,0.0,0.0,0.0,0.0,0.0,0.0,0.4215177007519479,0.0,0.0,0.0,0.0,0.0,0.0,-13.536,0.0,0.0,0.0
54,0.0,0.0,0.0,0.2863212890625,0.0,0.0,0.0,0.0,0.0,0.0,0.561,0.0,0.0,0.0,0.0,0.0,0.0,0.4279928436341803,0.0,0.0,0.0,0.0,0.0,0.0,-13.788,0.0,0.0,0.0
55,0.0,0.0,0.0,0.2921142578125,0.0,0.0,0.0,0.0,0.0,0.0,0.562,0.0,0.0,0.0,0.0,0.0,0.0,0.4341458054833086,0.0,0.0,0.0,0.0,0.0,0.0,-13.424,0.0,0.0,0.0
56,0.0,0.0,0.0,0.2980517578125,0.0,0.0,0.0,0.0,0.0,0.0,0.597,0.0,0.0,0.0,0.0,0.0,0.0,0.44029799292834026,0.0,0.0,0.0,0.0,0.0,0.0,-12.896,0.0,0.0,0.0
57,0.0,0.0,0.0,0.3038447265625,0.0,0.0,0.0,0.0,0.0,0.0,0.591,0.0,0.0,0.0,0.0,0.0,0.0,0.44642717399480625,0.0,0.0,0.0,0.0,0.0,0.0,-12.532,0.0,0.0,0.0
58,0.0,0.0,0.0,0.3096376953125,0.0,0.0,0.0,0.0,0.0,0.0,0.582,0.0,0.0,0.0,0.0,0.0,0.0,0.4523584492002201,0.0,0.0,0.0,0.0,0.0,0.0,-12.552,0.0,0.0,0.0
59,0.0,0.0,0.0,0.315583984375,0.0,0.0,0.0,0.0,0.0,0.0,0.593,0.0,0.0,0.0,0.0,0.0,0.0,0.458205510788694,0.0,0.0,0.0,0.0,0.0,0.0,-12.712,0.0,0.0,0.0
60,0.0,0.0,0.0,0.321376953125,0.0,0.0,0.0,0.0,0.0,0.0,0.586,0.0,0.0,0.0,0.0,0.0,0.0,0.46402399857633125,0.0,0.0,0.0,0.0,0.0,0.0,-12.692,0.0,0.0,0.0
61,0.0,0.0,0.0,0.327314453125,0.0,0.0,0.0,0.0,0.0,0.0,0.59,0.0,0.0,0.0,0.0,0.0,0.0,0.4696490933591464,0.0,0.0,0.0,0.0,0.0,0.0,-12.44,0.0,0.0,0.0
62,0.0,0.0,0.0,0.3332607421875,0.0,0.0,0.0,0.0,0.0,0.0,0.601,0.0,0.0,0.0,0.0,0.0,0.0,0.4751514937098971,0.0,0.0,0.0,0.0,0.0,0.0,-12.668,0.0,0.0,0.0
63,0.0,0.0,0.0,0.3391982421875,0.0,0.0,0.0,0.0,0.0,0.0,0.588,0.0,0.0,0.0,0.0,0.0,0.0,0.48070224823006386,0.0,0.0,0.0,0.0,0.0,0.0,-13.08,0.0,0.0,0.0
64,0.0,0.0,0.0,0.3452802734375,0.0,0.0,0.0,0.0,0.0,0.0,0.604,0.0,0.0,0.0,0.0,0.0,0.0,0.4859948832616302,0.0,0.0,0.0,0.0,0.0,0.0,-13.924,0.0,0.0,0.0
65,0.0,0.0,0.0,0.35137109375,0.0,0.0,0.0,0.0,0.0,0.0,0.612,0.0,0.0,0.0,0.0,0.0,0.0,0.4911921052504751,0.0,0.0,0.0,0.0,0.0,0.0,-14.2,0.0,0.0,0.0
66,0.0,0.0,0.0,0.3575966796875,0.0,0.0,0.0,0.0,0.0,0.0,0.615,0.0,0.0,0.0,0.0,0.0,0.0,0.4963623862009446,0.0,0.0,0.0,0.0,0.0,0.0,-13.536,0.0,0.0,0.0
67,0.0,0.0,0.0,0.363814453125,0.0,0.0,0.0,0.0,0.0,0.0,0.63,0.0,0.0,0.0,0.0,0.0,0.0,0.501284538016682,0.0,0.0,0.0,0.0,0.0,0.0,-13.012,0.0,0.0,0.0
68,0.0,0.0,0.0,0.369751953125,0.0,0.0,0.0,0.0,0.0,0.0,0.616,0.0,0.0,0.0,0.0,0.0,0.0,0.5061457222196232,0.0,0.0,0.0,0.0,0.0,0.0,-12.92,0.0,0.0,0.0
69,0.0,0.0,0.0,0.375986328125,0.0,0.0,0.0,0.0,0.0,0.0,0.611,0.0,0.0,0.0,0.0,0.0,0.0,0.5109640900295748,0.0,0.0,0.0,0.0,0.0,0.0,-13.24,0.0,0.0,0.0
70,0.0,0.0,0.0,0.381923828125,0.0,0.0,0.0,0.0,0.0,0.0,0.61,0.0,0.0,0.0,0.0,0.0,0.0,0.5155946480211364,0.0,0.0,0.0,0.0,0.0,0.0,-13.172,0.0,0.0,0.0
71,0.0,0.0,0.0,0.387861328125,0.0,0.0,0.0,0.0,0.0,0.0,0.603,0.0,0.0,0.0,0.0,0.0,0.0,0.5201312164283578,0.0,0.0,0.0,0.0,0.0,0.0,-12.804,0.0,0.0,0.0
72,0.0,0.0,0.0,0.3938076171875,0.0,0.0,0.0,0.0,0.0,0.0,0.6,0.0,0.0,0.0,0.0,0.0,0.0,0.5245901367332333,0.0,0.0,0.0,0.0,0.0,0.0,-12.712,0.0,0.0,0.0
73,0.0,0.0,0.0,0.3997451171875,0.0,0.0,0.0,0.0,0.0,0.0,0.596,0.0,0.0,0.0,0.0,0.0,0.0,0.5288766583857512,0.0,0.0,0.0,0.0,0.0,0.0,-13.124,0.0,0.0,0.0
74,0.0,0.0,0.0,0.4056826171875,0.0,0.0,0.0,0.0,0.0,0.0,0.598,0.0,0.0,0.0,0.0,0.0,0.0,0.5330635647616034,0.0,0.0,0.0,0.0,0.0,0.0,-13.72,0.0,0.0,0.0
75,0.0,0.0,0.0,0.41162890625,0.0,0.0,0.0,0.0,0.0,0.0,0.6,0.0,0.0,0.0,0.0,0.0,0.0,0.5371628764903014,0.0,0.0,0.0,0.0,0.0,0.0,-14.156,0.0,0.0,0.0
76,0.0,0.0,0.0,0.4177021484375,0.0,0.0,0.0,0.0,0.0,0.0,0.601,0.0,0.0,0.0,0.0,0.0,0.0,0.5410952939910532,0.0,0.0,0.0,0.0,0.0,0.0,-13.812,0.0,0.0,0.0
77,0.0,0.0,0.0,0.4237841796875,0.0,0.0,0.0,0.0,0.0,0.0,0.609,0.0,0.0,0.0,0.0,0.0,0.0,0.5449246132815935,0.0,0.0,0.0,0.0,0.0,0.0,-12.872,0.0,0.0,0.0
78,0.0,0.0,0.0,0.4295859375,0.0,0.0,0.0,0.0,0.0,0.0,0.6,0.0,0.0,0.0,0.0,0.0,0.0,0.5486422654701206,0.0,0.0,0.0,0.0,0.0,0.0,-12.624,0.0,0.0,0.0
79,0.0,0.0,0.0,0.43537890625,0.0,0.0,0.0,0.0,0.0,0.0,0.583,0.0,0.0,0.0,0.0,0.0,0.0,0.5522542562756487,0.0,0.0,0.0,0.0,0.0,0.0,-12.692,0.0,0.0,0.0
80,0.0,0.0,0.0,0.44131640625,0.0,0.0,0.0,0.0,0.0,0.0,0.592,0.0,0.0,0.0,0.0,0.0,0.0,0.5556895771844781,0.0,0.0,0.0,0.0,0.0,0.0,-12.44,0.0,0.0,0.0
81,0.0,0.0,0.0,0.447109375,0.0,0.0,0.0,0.0,0.0,0.0,0.588,0.0,0.0,0.0,0.0,0.0,0.0,0.5590334265451152,0.0,0.0,0.0,0.0,0.0,0.0,-12.6,0.0,0.0,0.0
82,0.0,0.0,0.0,0.4527490234375,0.0,0.0,0.0,0.0,0.0,0.0,0.582,0.0,0.0,0.0,0.0,0.0,0.0,0.5622606767628516,0.0,0.0,0.0,0.0,0.0,0.0,-12.44,0.0,0.0,0.0
83,0.0,0.0,0.0,0.4585419921875,0.0,0.0,0.0,0.0,0.0,0.0,0.572,0.0,0.0,0.0,0.0,0.0,0.0,0.5652953989823261,0.0,0.0,0.0,0.0,0.0,0.0,-12.484,0.0,0.0,0.0
84,0.0,0.0,0.0,0.4643349609375,0.0,0.0,0.0,0.0,0.0,0.0,0.581,0.0,0.0,0.0,0.0,0.0,0.0,0.5682733206936499,0.0,0.0,0.0,0.0,0.0,0.0,-12.852,0.0,0.0,0.0
85,0.0,0.0,0.0,0.47028125,0.0,0.0,0.0,0.0,0.0,0.0,0.591,0.0,0.0,0.0,0.0,0.0,0.0,0.5711100983323217,0.0,0.0,0.0,0.0,0.0,0.0,-13.356,0.0,0.0,0.0
86,0.0,0.0,0.0,0.4760654296875,0.0,0.0,0.0,0.0,0.0,0.0,0.588,0.0,0.0,0.0,0.0,0.0,0.0,0.573768494780116,0.0,0.0,0.0,0.0,0.0,0.0,-13.764,0.0,0.0,0.0
87,0.0,0.0,0.0,0.4820029296875,0.0,0.0,0.0,0.0,0.0,0.0,0.592,0.0,0.0,0.0,0.0,0.0,0.0,0.5763491998184014,0.0,0.0,0.0,0.0,0.0,0.0,-12.852,0.0,0.0,0.0
88,0.0,0.0,0.0,0.48794921875,0.0,0.0,0.0,0.0,0.0,0.0,0.598,0.0,0.0,0.0,0.0,0.0,0.0,0.5787930792851637,0.0,0.0,0.0,0.0,0.0,0.0,-12.096,0.0,0.0,0.0
89,0.0,0.0,0.0,0.4937421875,0.0,0.0,0.0,0.0,0.0,0.0,0.586,0.0,0.0,0.0,0.0,0.0,0.0,0.5810898965127461,0.0,0.0,0.0,0.0,0.0,0.0,-12.164,0.0,0.0,0.0
90,0.0,0.0,0.0,0.49953515625,0.0,0.0,0.0,0.0,0.0,0.0,0.582,0.0,0.0,0.0,0.0,0.0,0.0,0.5832619229564668,0.0,0.0,0.0,0.0,0.0,0.0,-11.98,0.0,0.0,0.0
91,0.0,0.0,0.0,0.505328125,0.0,0.0,0.0,0.0,0.0,0.0,0.582,0.0,0.0,0.0,0.0,0.0,0.0,0.5853319280249214,0.0,0.0,0.0,0.0,0.0,0.0,-12.14,0.0,0.0,0.0
92,0.0,0.0,0.0,0.51112109375,0.0,0.0,0.0,0.0,0.0,0.0,0.583,0.0,0.0,0.0,0.0,0.0,0.0,0.5872246776820302,0.0,0.0,0.0,0.0,0.0,0.0,-11.776,0.0,0.0,0.0
93,0.0,0.0,0.0,0.51705859375,0.0,0.0,0.0,0.0,0.0,0.0,0.592,0.0,0.0,0.0,0.0,0.0,0.0,0.5890046858849888,0.0,0.0,0.0,0.0,0.0,0.0,-11.98,0.0,0.0,0.0
94,0.0,0.0,0.0,0.52270703125,0.0,0.0,0.0,0.0,0.0,0.0,0.577,0.0,0.0,0.0,0.0,0.0,0.0,0.5906518634785259,0.0,0.0,0.0,0.0,0.0,0.0,-12.096,0.0,0.0,0.0
95,0.0,0.0,0.0,0.52864453125,0.0,0.0,0.0,0.0,0.0,0.0,0.578,0.0,0.0,0.0,0.0,0.0,0.0,0.5921578744029045,0.0,0.0,0.0,0.0,0.0,0.0,-12.644,0.0,0.0,0.0
96,0.0,0.0,0.0,0.5344375,0.0,0.0,0.0,0.0,0.0,0.0,0.593,0.0,0.0,0.0,0.0,0.0,0.0,0.5935416852640577,0.0,0.0,0.0,0.0,0.0,0.0,-12.988,0.0,0.0,0.0
97,0.0,0.0,0.0,0.540375,0.0,0.0,0.0,0.0,0.0,0.0,0.587,0.0,0.0,0.0,0.0,0.0,0.0,0.5948052899255436,0.0,0.0,0.0,0.0,0.0,0.0,-13.032,0.0,0.0,0.0
98,0.0,0.0,0.0,0.546322265625,0.0,0.0,0.0,0.0,0.0,0.0,0.602,0.0,0.0,0.0,0.0,0.0,0.0,0.5959145186719532,0.0,0.0,0.0,0.0,0.0,0.0,-12.004,0.0,0.0,0.0
99,0.0,0.0,0.0,0.55239453125,0.0,0.0,0.0,0.0,0.0,0.0,0.607,0.0,0.0,0.0,0.0,0.0,0.0,0.5969008505974689,0.0,0.0,0.0,0.0,0.0,0.0,-11.616,0.0,0.0,0.0
100,0.0,0.0,0.0,0.5581875,0.0,0.0,0.0,0.0,0.0,0.0,0.595,0.0,0.0,0.0,0.0,0.0,0.0,0.5977433508035987,0.0,0.0,0.0,0.0,0.0,0.0,-11.8,0.0,0.0,0.0
101,0.0,0.0,0.0,0.5641337890625,0.0,0.0,0.0,0.0,0.0,0.0,0.587,0.0,0.0,0.0,0.0,0.0,0.0,0.5984572689936791,0.0,0.0,0.0,0.0,0.0,0.0,-11.572,0.0,0.0,0.0
102,0.0,0.0,0.0,0.5700712890625,0.0,0.0,0.0,0.0,0.0,0.0,0.593,0.0,0.0,0.0,0.0,0.0,0.0,0.5990313212132161,0.0,0.0,0.0,0.0,0.0,0.0,-11.776,0.0,0.0,0.0
103,0.0,0.0,0.0,0.57585546875,0.0,0.0,0.0,0.0,0.0,0.0,0.593,0.0,0.0,0.0,0.0,0.0,0.0,0.5994819161338973,0.0,0.0,0.0,0.0,0.0,0.0,-11.548,0.0,0.0,0.0
104,0.0,0.0,0.0,0.5816572265625,0.0,0.0,0.0,0.0,0.0,0.0,0.584,0.0,0.0,0.0,0.0,0.0,0.0,0.5997854102966148,0.0,0.0,0.0,0.0,0.0,0.0,-11.64,0.0,0.0,0.0
105,0.0,0.0,0.0,0.5875947265625,0.0,0.0,0.0,0.0,0.0,0.0,0.59,0.0,0.0,0.0,0.0,0.0,0.0,0.599958209021106,0.0,0.0,0.0,0.0,0.0,0.0,-11.936,0.0,0.0,0.0
106,0.0,0.0,0.0,0.59337890625,0.0,0.0,0.0,0.0,0.0,0.0,0.591,0.0,0.0,0.0,0.0,0.0,0.0,0.5999967105506704,0.0,0.0,0.0,0.0,0.0,0.0,-12.416,0.0,0.0,0.0
107,0.0,0.0,0.0,0.5985947265625,0.0,0.0,0.0,0.0,0.0,0.0,0.568,0.0,0.0,0.0,0.0,0.0,0.0,0.5998974891320066,0.0,0.0,0.0,0.0,0.0,0.0,-14.268,0.0,0.0,0.0
108,0.0,0.0,0.0,0.6022216796875,0.0,0.0,0.0,0.0,0.0,0.0,0.456,0.0,0.0,0.0,0.0,0.0,0.0,0.5996693854826057,0.0,0.0,0.0,0.0,0.0,0.0,-16.144,0.0,0.0,0.0
109,0.0,0.0,0.0,0.604685546875,0.0,0.0,0.0,0.0,0.0,0.0,0.31,0.0,0.0,0.0,0.0,0.0,0.0,0.5992992063969044,0.0,0.0,0.0,0.0,0.0,0.0,-17.724,0.0,0.0,0.0
110,0.0,0.0,0.0,0.6052626953125,0.0,0.0,0.0,0.0,0.0,0.0,0.182,0.0,0.0,0.0,0.0,0.0,0.0,0.5987916945553436,0.0,0.0,0.0,0.0,0.0,0.0,-19.46,0.0,0.0,0.0
111,0.0,0.0,0.0,0.604830078125,0.0,0.0,0.0,0.0,0.0,0.0,0.005,0.0,0.0,0.0,0.0,0.0,0.0,0.5981618495147847,0.0,0.0,0.0,0.0,0.0,0.0,-18.728,0.0,0.0,0.0
112,0.0,0.0,0.0,0.604251953125,0.0,0.0,0.0,0.0,0.0,0.0,-0.05,0.0,0.0,0.0,0.0,0.0,0.0,0.597389618861958,0.0,0.0,0.0,0.0,0.0,0.0,-18.248,0.0,0.0,0.0
113,0.0,0.0,0.0,0.603087890625,0.0,0.0,0.0,0.0,0.0,0.0,-0.083,0.0,0.0,0.0,0.0,0.0,0.0,0.596482187241433,0.0,0.0,0.0,0.0,0.0,0.0,-17.404,0.0,0.0,0.0
114,0.0,0.0,0.0,0.6023662109375,0.0,0.0,0.0,0.0,0.0,0.0,-0.098,0.0,0.0,0.0,0.0,0.0,0.0,0.595451705645188,0.0,0.0,0.0,0.0,0.0,0.0,-17.332,0.0,0.0,0.0
115,0.0,0.0,0.0,0.60164453125,0.0,0.0,0.0,0.0,0.0,0.0,-0.075,0.0,0.0,0.0,0.0,0.0,0.0,0.5942741109273546,0.0,0.0,0.0,0.0,0.0,0.0,-17.288,0.0,0.0,0.0
116,0.0,0.0,0.0,0.6007783203125,0.0,0.0,0.0,0.0,0.0,0.0,-0.076,0.0,0.0,0.0,0.0,0.0,0.0,0.5929586382135753,0.0,0.0,0.0,0.0,0.0,0.0,-16.6,0.0,0.0,0.0
117,0.0,0.0,0.0,0.5998935546875,0.0,0.0,0.0,0.0,0.0,0.0,-0.087,0.0,0.0,0.0,0.0,0.0,0.0,0.5915150860977565,0.0,0.0,0.0,0.0,0.0,0.0,-15.96,0.0,0.0,0.0
118,0.0,0.0,0.0,0.5988828125,0.0,0.0,0.0,0.0,0.0,0.0,-0.098,0.0,0.0,0.0,0.0,0.0,0.0,0.5899417101254777,0.0,0.0,0.0,0.0,0.0,0.0,-15.116,0.0,0.0,0.0
119,0.0,0.0,0.0,0.597583984375,0.0,0.0,0.0,0.0,0.0,0.0,-0.108,0.0,0.0,0.0,0.0,0.0,0.0,0.5882407616850973,0.0,0.0,0.0,0.0,0.0,0.0,-15.048,0.0,0.0,0.0
120,0.0,0.0,0.0,0.5956982421875,0.0,0.0,0.0,0.0,0.0,0.0,-0.154,0.0,0.0,0.0,0.0,0.0,0.0,0.5864156328121954,0.0,0.0,0.0,0.0,0.0,0.0,-14.932,0.0,0.0,0.0
121,0.0,0.0,0.0,0.5938212890625,0.0,0.0,0.0,0.0,0.0,0.0,-0.19,0.0,0.0,0.0,0.0,0.0,0.0,0.5844342951961186,0.0,0.0,0.0,0.0,0.0,0.0,-14.428,0.0,0.0,0.0
122,0.0,0.0,0.0,0.591501953125,0.0,0.0,0.0,0.0,0.0,0.0,-0.208,0.0,0.0,0.0,0.0,0.0,0.0,0.5823123632291854,0.0,0.0,0.0,0.0,0.0,0.0,-13.628,0.0,0.0,0.0
123,0.0,0.0,0.0,0.5891826171875,0.0,0.0,0.0,0.0,0.0,0.0,-0.234,0.0,0.0,0.0,0.0,0.0,0.0,0.5801078674707966,0.0,0.0,0.0,0.0,0.0,0.0,-13.148,0.0,0.0,0.0
124,0.0,0.0,0.0,0.5865751953125,0.0,0.0,0.0,0.0,0.0,0.0,-0.248,0.0,0.0,0.0,0.0,0.0,0.0,0.5777362462972879,0.0,0.0,0.0,0.0,0.0,0.0,-13.4,0.0,0.0,0.0
125,0.0,0.0,0.0,0.58383203125,0.0,0.0,0.0,0.0,0.0,0.0,-0.263,0.0,0.0,0.0,0.0,0.0,0.0,0.575218621991961,0.0,0.0,0.0,0.0,0.0,0.0,-13.536,0.0,0.0,0.0
126,0.0,0.0,0.0,0.5810712890625,0.0,0.0,0.0,0.0,0.0,0.0,-0.284,0.0,0.0,0.0,0.0,0.0,0.0,0.5726365916069682,0.0,0.0,0.0,0.0,0.0,0.0,-13.424,0.0,0.0,0.0
127,0.0,0.0,0.0,0.578318359375,0.0,0.0,0.0,0.0,0.0,0.0,-0.276,0.0,0.0,0.0,0.0,0.0,0.0,0.5698698930244738,0.0,0.0,0.0,0.0,0.0,0.0,-13.104,0.0,0.0,0.0
128,0.0,0.0,0.0,0.5749892578125,0.0,0.0,0.0,0.0,0.0,0.0,-0.295,0.0,0.0,0.0,0.0,0.0,0.0,0.5669720217190108,0.0,0.0,0.0,0.0,0.0,0.0,-12.668,0.0,0.0,0.0
129,0.0,0.0,0.0,0.5718037109375,0.0,0.0,0.0,0.0,0.0,0.0,-0.336,0.0,0.0,0.0,0.0,0.0,0.0,0.5639938967493565,0.0,0.0,0.0,0.0,0.0,0.0,-11.684,0.0,0.0,0.0
130,0.0,0.0,0.0,0.568474609375,0.0,0.0,0.0,0.0,0.0,0.0,-0.328,0.0,0.0,0.0,0.0,0.0,0.0,0.5608693491958162,0.0,0.0,0.0,0.0,0.0,0.0,-11.912,0.0,0.0,0.0
131,0.0,0.0,0.0,0.5652890625,0.0,0.0,0.0,0.0,0.0,0.0,-0.333,0.0,0.0,0.0,0.0,0.0,0.0,0.5575521671802665,0.0,0.0,0.0,0.0,0.0,0.0,-11.364,0.0,0.0,0.0
132,0.0,0.0,0.0,0.562392578125,0.0,0.0,0.0,0.0,0.0,0.0,-0.3,0.0,0.0,0.0,0.0,0.0,0.0,0.5541988018751103,0.0,0.0,0.0,0.0,0.0,0.0,-11.684,0.0,0.0,0.0
133,0.0,0.0,0.0,0.5587646484375,0.0,0.0,0.0,0.0,0.0,0.0,-0.318,0.0,0.0,0.0,0.0,0.0,0.0,0.5507073644885294,0.0,0.0,0.0,0.0,0.0,0.0,-11.98,0.0,0.0,0.0
134,0.0,0.0,0.0,0.555580078125,0.0,0.0,0.0,0.0,0.0,0.0,-0.356,0.0,0.0,0.0,0.0,0.0,0.0,0.5470413833118764,0.0,0.0,0.0,0.0,0.0,0.0,-11.572,0.0,0.0,0.0
135,0.0,0.0,0.0,0.5519609375,0.0,0.0,0.0,0.0,0.0,0.0,-0.328,0.0,0.0,0.0,0.0,0.0,0.0,0.5433157673229936,0.0,0.0,0.0,0.0,0.0,0.0,-12.988,0.0,0.0,0.0
136,0.0,0.0,0.0,0.54733203125,0.0,0.0,0.0,0.0,0.0,0.0,-0.418,0.0,0.0,0.0,0.0,0.0,0.0,0.5394298861594331,0.0,0.0,0.0,0.0,0.0,0.0,-12.552,0.0,0.0,0.0
137,0.0,0.0,0.0,0.5441474609375,0.0,0.0,0.0,0.0,0.0,0.0,-0.409,0.0,0.0,0.0,0.0,0.0,0.0,0.5353589001961977,0.0,0.0,0.0,0.0,0.0,0.0,-11.776,0.0,0.0,0.0
138,0.0,0.0,0.0,0.540375,0.0,0.0,0.0,0.0,0.0,0.0,-0.339,0.0,0.0,0.0,0.0,0.0,0.0,0.5313008354882759,0.0,0.0,0.0,0.0,0.0,0.0,-12.576,0.0,0.0,0.0
139,0.0,0.0,0.0,0.5369013671875,0.0,0.0,0.0,0.0,0.0,0.0,-0.379,0.0,0.0,0.0,0.0,0.0,0.0,0.5270508821616052,0.0,0.0,0.0,0.0,0.0,0.0,-12.372,0.0,0.0,0.0
140,0.0,0.0,0.0,0.5337158203125,0.0,0.0,0.0,0.0,0.0,0.0,-0.324,0.0,0.0,0.0,0.0,0.0,0.0,0.522668171247464,0.0,0.0,0.0,0.0,0.0,0.0,-13.584,0.0,0.0,0.0
141,0.0,0.0,0.0,0.529953125,0.0,0.0,0.0,0.0,0.0,0.0,-0.346,0.0,0.0,0.0,0.0,0.0,0.0,0.5182234451092408,0.0,0.0,0.0,0.0,0.0,0.0,-13.356,0.0,0.0,0.0
142,0.0,0.0,0.0,0.5260458984375,0.0,0.0,0.0,0.0,0.0,0.0,-0.382,0.0,0.0,0.0,0.0,0.0,0.0,0.5136158208698168,0.0,0.0,0.0,0.0,0.0,0.0,-13.764,0.0,0.0,0.0
143,0.0,0.0,0.0,0.5212548828125,0.0,0.0,0.0,0.0,0.0,0.0,-0.437,0.0,0.0,0.0,0.0,0.0,0.0,0.5088409168405716,0.0,0.0,0.0,0.0,0.0,0.0,-13.604,0.0,0.0,0.0
144,0.0,0.0,0.0,0.5164814453125,0.0,0.0,0.0,0.0,0.0,0.0,-0.481,0.0,0.0,0.0,0.0,0.0,0.0,0.5040833156594497,0.0,0.0,0.0,0.0,0.0,0.0,-13.788,0.0,0.0,0.0
145,0.0,0.0,0.0,0.51169921875,0.0,0.0,0.0,0.0,0.0,0.0,-0.491,0.0,0.0,0.0,0.0,0.0,0.0,0.49916640842166987,0.0,0.0,0.0,0.0,0.0,0.0,-12.76,0.0,0.0,0.0
146,0.0,0.0,0.0,0.508080078125,0.0,0.0,0.0,0.0,0.0,0.0,-0.431,0.0,0.0,0.0,0.0,0.0,0.0,0.49406813615092576,0.0,0.0,0.0,0.0,0.0,0.0,-12.508,0.0,0.0,0.0
147,0.0,0.0,0.0,0.5037314453125,0.0,0.0,0.0,0.0,0.0,0.0,-0.384,0.0,0.0,0.0,0.0,0.0,0.0,0.4889526024735719,0.0,0.0,0.0,0.0,0.0,0.0,-12.692,0.0,0.0,0.0
148,0.0,0.0,0.0,0.49982421875,0.0,0.0,0.0,0.0,0.0,0.0,-0.429,0.0,0.0,0.0,0.0,0.0,0.0,0.48366095142100446,0.0,0.0,0.0,0.0,0.0,0.0,-12.852,0.0,0.0,0.0
149,0.0,0.0,0.0,0.495474609375,0.0,0.0,0.0,0.0,0.0,0.0,-0.401,0.0,0.0,0.0,0.0,0.0,0.0,0.4782274957894379,0.0,0.0,0.0,0.0,0.0,0.0,-13.948,0.0,0.0,0.0
150,0.0,0.0,0.0,0.4901240234375,0.0,0.0,0.0,0.0,0.0,0.0,-0.481,0.0,0.0,0.0,0.0,0.0,0.0,0.472779067151514,0.0,0.0,0.0,0.0,0.0,0.0,-14.496,0.0,0.0,0.0
151,0.0,0.0,0.0,0.4844658203125,0.0,0.0,0.0,0.0,0.0,0.0,-0.549,0.0,0.0,0.0,0.0,0.0,0.0,0.46723200439797063,0.0,0.0,0.0,0.0,0.0,0.0,-15.32,0.0,0.0,0.0
152,0.0,0.0,0.0,0.478529296875,0.0,0.0,0.0,0.0,0.0,0.0,-0.588,0.0,0.0,0.0,0.0,0.0,0.0,0.4614504888904175,0.0,0.0,0.0,0.0,0.0,0.0,-14.132,0.0,0.0,0.0
153,0.0,0.0,0.0,0.473322265625,0.0,0.0,0.0,0.0,0.0,0.0,-0.56,0.0,0.0,0.0,0.0,0.0,0.0,0.45570384332529285,0.0,0.0,0.0,0.0,0.0,0.0,-14.176,0.0,0.0,0.0
154,0.0,0.0,0.0,0.4681064453125,0.0,0.0,0.0,0.0,0.0,0.0,-0.53,0.0,0.0,0.0,0.0,0.0,0.0,0.44982627944994863,0.0,0.0,0.0,0.0,0.0,0.0,-14.016,0.0,0.0,0.0
155,0.0,0.0,0.0,0.46259375,0.0,0.0,0.0,0.0,0.0,0.0,-0.538,0.0,0.0,0.0,0.0,0.0,0.0,0.44377943253053825,0.0,0.0,0.0,0.0,0.0,0.0,-14.108,0.0,0.0,0.0
156,0.0,0.0,0.0,0.4568095703125,0.0,0.0,0.0,0.0,0.0,0.0,-0.564,0.0,0.0,0.0,0.0,0.0,0.0,0.43770463746435245,0.0,0.0,0.0,0.0,0.0,0.0,-14.544,0.0,0.0,0.0
157,0.0,0.0,0.0,0.4508720703125,0.0,0.0,0.0,0.0,0.0,0.0,-0.59,0.0,0.0,0.0,0.0,0.0,0.0,0.43150181855347625,0.0,0.0,0.0,0.0,0.0,0.0,-14.748,0.0,0.0,0.0
158,0.0,0.0,0.0,0.4450791015625,0.0,0.0,0.0,0.0,0.0,0.0,-0.593,0.0,0.0,0.0,0.0,0.0,0.0,0.4251624586187619,0.0,0.0,0.0,0.0,0.0,0.0,-13.924,0.0,0.0,0.0
159,0.0,0.0,0.0,0.4391416015625,0.0,0.0,0.0,0.0,0.0,0.0,-0.593,0.0,0.0,0.0,0.0,0.0,0.0,0.4188128199302616,0.0,0.0,0.0,0.0,0.0,0.0,-12.988,0.0,0.0,0.0
160,0.0,0.0,0.0,0.4333486328125,0.0,0.0,0.0,0.0,0.0,0.0,-0.588,0.0,0.0,0.0,0.0,0.0,0.0,0.41233295095473516,0.0,0.0,0.0,0.0,0.0,0.0,-13.172,0.0,0.0,0.0
161,0.0,0.0,0.0,0.42682421875,0.0,0.0,0.0,0.0,0.0,0.0,-0.609,0.0,0.0,0.0,0.0,0.0,0.0,0.4057083167090169,0.0,0.0,0.0,0.0,0.0,0.0,-13.88,0.0,0.0,0.0
162,0.0,0.0,0.0,0.4203095703125,0.0,0.0,0.0,0.0,0.0,0.0,-0.656,0.0,0.0,0.0,0.0,0.0,0.0,0.39899881437761714,0.0,0.0,0.0,0.0,0.0,0.0,-14.156,0.0,0.0,0.0
163,0.0,0.0,0.0,0.4142275390625,0.0,0.0,0.0,0.0,0.0,0.0,-0.644,0.0,0.0,0.0,0.0,0.0,0.0,0.39224540805068225,0.0,0.0,0.0,0.0,0.0,0.0,-13.604,0.0,0.0,0.0
164,0.0,0.0,0.0,0.40813671875,0.0,0.0,0.0,0.0,0.0,0.0,-0.611,0.0,0.0,0.0,0.0,0.0,0.0,0.38539388410686054,0.0,0.0,0.0,0.0,0.0,0.0,-13.308,0.0,0.0,0.0
165,0.0,0.0,0.0,0.402353515625,0.0,0.0,0.0,0.0,0.0,0.0,-0.598,0.0,0.0,0.0,0.0,0.0,0.0,0.3784144234078149,0.0,0.0,0.0,0.0,0.0,0.0,-13.284,0.0,0.0,0.0
166,0.0,0.0,0.0,0.396416015625,0.0,0.0,0.0,0.0,0.0,0.0,-0.585,0.0,0.0,0.0,0.0,0.0,0.0,0.3714351676098608,0.0,0.0,0.0,0.0,0.0,0.0,-14.176,0.0,0.0,0.0
167,0.0,0.0,0.0,0.390189453125,0.0,0.0,0.0,0.0,0.0,0.0,-0.615,0.0,0.0,0.0,0.0,0.0,0.0,0.36424694978969147,0.0,0.0,0.0,0.0,0.0,0.0,-14.384,0.0,0.0,0.0
168,0.0,0.0,0.0,0.3839541015625,0.0,0.0,0.0,0.0,0.0,0.0,-0.627,0.0,0.0,0.0,0.0,0.0,0.0,0.35699083351800903,0.0,0.0,0.0,0.0,0.0,0.0,-13.4,0.0,0.0,0.0
169,0.0,0.0,0.0,0.377583984375,0.0,0.0,0.0,0.0,0.0,0.0,-0.636,0.0,0.0,0.0,0.0,0.0,0.0,0.34986428654616125,0.0,0.0,0.0,0.0,0.0,0.0,-12.304,0.0,0.0,0.0
170,0.0,0.0,0.0,0.371357421875,0.0,0.0,0.0,0.0,0.0,0.0,-0.639,0.0,0.0,0.0,0.0,0.0,0.0,0.3425062519151328,0.0,0.0,0.0,0.0,0.0,0.0,-11.8,0.0,0.0,0.0
171,0.0,0.0,0.0,0.3652666015625,0.0,0.0,0.0,0.0,0.0,0.0,-0.613,0.0,0.0,0.0,0.0,0.0,0.0,0.3348641363985459,0.0,0.0,0.0,0.0,0.0,0.0,-13.264,0.0,0.0,0.0
172,0.0,0.0,0.0,0.359185546875,0.0,0.0,0.0,0.0,0.0,0.0,-0.615,0.0,0.0,0.0,0.0,0.0,0.0,0.32755571425755464,0.0,0.0,0.0,0.0,0.0,0.0,-14.2,0.0,0.0,0.0
173,0.0,0.0,0.0,0.3535361328125,0.0,0.0,0.0,0.0,0.0,0.0,-0.598,0.0,0.0,0.0,0.0,0.0,0.0,0.3199968069254783,0.0,0.0,0.0,0.0,0.0,0.0,-14.176,0.0,0.0,0.0
174,0.0,0.0,0.0,0.34758984375,0.0,0.0,0.0,0.0,0.0,0.0,-0.577,0.0,0.0,0.0,0.0,0.0,0.0,0.31227188913588516,0.0,0.0,0.0,0.0,0.0,0.0,-13.924,0.0,0.0,0.0
175,0.0,0.0,0.0,0.3415078125,0.0,0.0,0.0,0.0,0.0,0.0,-0.606,0.0,0.0,0.0,0.0,0.0,0.0,0.3046226638478255,0.0,0.0,0.0,0.0,0.0,0.0,-13.24,0.0,0.0,0.0
176,0.0,0.0,0.0,0.335580078125,0.0,0.0,0.0,0.0,0.0,0.0,-0.611,0.0,0.0,0.0,0.0,0.0,0.0,0.2967957496728455,0.0,0.0,0.0,0.0,0.0,0.0,-13.104,0.0,0.0,0.0
177,0.0,0.0,0.0,0.3294892578125,0.0,0.0,0.0,0.0,0.0,0.0,-0.602,0.0,0.0,0.0,0.0,0.0,0.0,0.28892508334154565,0.0,0.0,0.0,0.0,0.0,0.0,-13.56,0.0,0.0,0.0
178,0.0,0.0,0.0,0.3236962890625,0.0,0.0,0.0,0.0,0.0,0.0,-0.598,0.0,0.0,0.0,0.0,0.0,0.0,0.2811322810754777,0.0,0.0,0.0,0.0,0.0,0.0,-13.012,0.0,0.0,0.0
179,0.0,0.0,0.0,0.318046875,0.0,0.0,0.0,0.0,0.0,0.0,-0.574,0.0,0.0,0.0,0.0,0.0,0.0,0.2731532932800406,0.0,0.0,0.0,0.0,0.0,0.0,-13.492,0.0,0.0,0.0
180,0.0,0.0,0.0,0.3121005859375,0.0,0.0,0.0,0.0,0.0,0.0,-0.587,0.0,0.0,0.0,0.0,0.0,0.0,0.26492712467958784,0.0,0.0,0.0,0.0,0.0,0.0,-13.424,0.0,0.0,0.0
181,0.0,0.0,0.0,0.3063076171875,0.0,0.0,0.0,0.0,0.0,0.0,-0.59,0.0,0.0,0.0,0.0,0.0,0.0,0.25700863436439964,0.0,0.0,0.0,0.0,0.0,0.0,-13.812,0.0,0.0,0.0
182,0.0,0.0,0.0,0.3002255859375,0.0,0.0,0.0,0.0,0.0,0.0,-0.594,0.0,0.0,0.0,0.0,0.0,0.0,0.24886137114527165,0.0,0.0,0.0,0.0,0.0,0.0,-14.428,0.0,0.0,0.0
183,0.0,0.0,0.0,0.2944326171875,0.0,0.0,0.0,0.0,0.0,0.0,-0.61,0.0,0.0,0.0,0.0,0.0,0.0,0.2403781755849439,0.0,0.0,0.0,0.0,0.0,0.0,-14.064,0.0,0.0,0.0
184,0.0,0.0,0.0,0.2887841796875,0.0,0.0,0.0,0.0,0.0,0.0,-0.573,0.0,0.0,0.0,0.0,0.0,0.0,0.23235419078922526,0.0,0.0,0.0,0.0,0.0,0.0,-13.88,0.0,0.0,0.0
185,0.0,0.0,0.0,0.2831357421875,0.0,0.0,0.0,0.0,0.0,0.0,-0.569,0.0,0.0,0.0,0.0,0.0,0.0,0.2240105192342632,0.0,0.0,0.0,0.0,0.0,0.0,-14.108,0.0,0.0,0.0
186,0.0,0.0,0.0,0.2776318359375,0.0,0.0,0.0,0.0,0.0,0.0,-0.562,0.0,0.0,0.0,0.0,0.0,0.0,0.21555412675099522,0.0,0.0,0.0,0.0,0.0,0.0,-13.904,0.0,0.0,0.0
187,0.0,0.0,0.0,0.2718291015625,0.0,0.0,0.0,0.0,0.0,0.0,-0.565,0.0,0.0,0.0,0.0,0.0,0.0,0.2072146244838153,0.0,0.0,0.0,0.0,0.0,0.0,-14.292,0.0,0.0,0.0
188,0.0,0.0,0.0,0.2658916015625,0.0,0.0,0.0,0.0,0.0,0.0,-0.59,0.0,0.0,0.0,0.0,0.0,0.0,0.19876665644196642,0.0,0.0,0.0,0.0,0.0,0.0,-14.268,0.0,0.0,0.0
189,0.0,0.0,0.0,0.2602431640625,0.0,0.0,0.0,0.0,0.0,0.0,-0.589,0.0,0.0,0.0,0.0,0.0,0.0,0.1901221682901463,0.0,0.0,0.0,0.0,0.0,0.0,-13.764,0.0,0.0,0.0
190,0.0,0.0,0.0,0.2544501953125,0.0,0.0,0.0,0.0,0.0,0.0,-0.575,0.0,0.0,0.0,0.0,0.0,0.0,0.18167123360742388,0.0,0.0,0.0,0.0,0.0,0.0,-13.788,0.0,0.0,0.0
191,0.0,0.0,0.0,0.24850390625,0.0,0.0,0.0,0.0,0.0,0.0,-0.594,0.0,0.0,0.0,0.0,0.0,0.0,0.17308407518511504,0.0,0.0,0.0,0.0,0.0,0.0,-13.812,0.0,0.0,0.0
192,0.0,0.0,0.0,0.2427197265625,0.0,0.0,0.0,0.0,0.0,0.0,-0.583,0.0,0.0,0.0,0.0,0.0,0.0,0.164135916464195,0.0,0.0,0.0,0.0,0.0,0.0,-14.292,0.0,0.0,0.0
193,0.0,0.0,0.0,0.2367822265625,0.0,0.0,0.0,0.0,0.0,0.0,-0.593,0.0,0.0,0.0,0.0,0.0,0.0,0.15578872530198845,0.0,0.0,0.0,0.0,0.0,0.0,-14.908,0.0,0.0,0.0
194,0.0,0.0,0.0,0.23098046875,0.0,0.0,0.0,0.0,0.0,0.0,-0.599,0.0,0.0,0.0,0.0,0.0,0.0,0.14706792960279264,0.0,0.0,0.0,0.0,0.0,0.0,-14.452,0.0,0.0,0.0
195,0.0,0.0,0.0,0.22533203125,0.0,0.0,0.0,0.0,0.0,0.0,-0.57,0.0,0.0,0.0,0.0,0.0,0.0,0.13818010832460068,0.0,0.0,0.0,0.0,0.0,0.0,-14.816,0.0,0.0,0.0
196,0.0,0.0,0.0,0.2196826171875,0.0,0.0,0.0,0.0,0.0,0.0,-0.573,0.0,0.0,0.0,0.0,0.0,0.0,0.12951305126810841,0.0,0.0,0.0,0.0,0.0,0.0,-14.588,0.0,0.0,0.0
197,0.0,0.0,0.0,0.214025390625,0.0,0.0,0.0,0.0,0.0,0.0,-0.566,0.0,0.0,0.0,0.0,0.0,0.0,0.12072423247385322,0.0,0.0,0.0,0.0,0.0,0.0,-14.452,0.0,0.0,0.0
198,0.0,0.0,0.0,0.207943359375,0.0,0.0,0.0,0.0,0.0,0.0,-0.586,0.0,0.0,0.0,0.0,0.0,0.0,0.11173061373158656,0.0,0.0,0.0,0.0,0.0,0.0,-14.68,0.0,0.0,0.0
199,0.0,0.0,0.0,0.201861328125,0.0,0.0,0.0,0.0,0.0,0.0,-0.616,0.0,0.0,0.0,0.0,0.0,0.0,0.10296882205562669,0.0,0.0,0.0,0.0,0.0,0.0,-13.996,0.0,0.0,0.0
200,0.0,0.0,0.0,0.196068359375,0.0,0.0,0.0,0.0,0.0,0.0,-0.596,0.0,0.0,0.0,0.0,0.0,0.0,0.09416400234368742,0.0,0.0,0.0,0.0,0.0,0.0,-13.812,0.0,0.0,0.0
201,0.0,0.0,0.0,0.1901220703125,0.0,0.0,0.0,0.0,0.0,0.0,-0.595,0.0,0.0,0.0,0.0,0.0,0.0,0.0850496870666351,0.0,0.0,0.0,0.0,0.0,0.0,-13.88,0.0,0.0,0.0
202,0.0,0.0,0.0,0.184337890625,0.0,0.0,0.0,0.0,0.0,0.0,-0.59,0.0,0.0,0.0,0.0,0.0,0.0,0.07630182230279894,0.0,0.0,0.0,0.0,0.0,0.0,-14.108,0.0,0.0,0.0
203,0.0,0.0,0.0,0.178400390625,0.0,0.0,0.0,0.0,0.0,0.0,-0.588,0.0,0.0,0.0,0.0,0.0,0.0,0.06739799626387648,0.0,0.0,0.0,0.0,0.0,0.0,-14.956,0.0,0.0,0.0
204,0.0,0.0,0.0,0.172310546875,0.0,0.0,0.0,0.0,0.0,0.0,-0.612,0.0,0.0,0.0,0.0,0.0,0.0,0.05839390301177928,0.0,0.0,0.0,0.0,0.0,0.0,-14.84,0.0,0.0,0.0
205,0.0,0.0,0.0,0.1665166015625,0.0,0.0,0.0,0.0,0.0,0.0,-0.598,0.0,0.0,0.0,0.0,0.0,0.0,0.04937758230150129,0.0,0.0,0.0,0.0,0.0,0.0,-14.452,0.0,0.0,0.0
206,0.0,0.0,0.0,0.160580078125,0.0,0.0,0.0,0.0,0.0,0.0,-0.587,0.0,0.0,0.0,0.0,0.0,0.0,0.04047911653792604,0.0,0.0,0.0,0.0,0.0,0.0,-14.52,0.0,0.0,0.0
207,0.0,0.0,0.0,0.154921875,0.0,0.0,0.0,0.0,0.0,0.0,-0.593,0.0,0.0,0.0,0.0,0.0,0.0,0.031489199219044105,0.0,0.0,0.0,0.0,0.0,0.0,-14.316,0.0,0.0,0.0
208,0.0,0.0,0.0,0.14912890625,0.0,0.0,0.0,0.0,0.0,0.0,-0.573,0.0,0.0,0.0,0.0,0.0,0.0,0.022378755474015057,0.0,0.0,0.0,0.0,0.0,0.0,-14.612,0.0,0.0,0.0
209,0.0,0.0,0.0,0.143046875,0.0,0.0,0.0,0.0,0.0,0.0,-0.596,0.0,0.0,0.0,0.0,0.0,0.0,0.013551031810005994,0.0,0.0,0.0,0.0,0.0,0.0,-14.748,0.0,0.0,0.0
210,0.0,0.0,0.0,0.137109375,0.0,0.0,0.0,0.0,0.0,0.0,-0.609,0.0,0.0,0.0,0.0,0.0,0.0,0.004505372621328204,0.0,0.0,0.0,0.0,0.0,0.0,-14.156,0.0,0.0,0.0
211,0.0,0.0,0.0,0.1311630859375,0.0,0.0,0.0,0.0,0.0,0.0,-0.59,0.0,0.0,0.0,0.0,0.0,0.0,-0.004594524304403676,0.0,0.0,0.0,0.0,0.0,0.0,-14.176,0.0,0.0,0.0
212,0.0,0.0,0.0,0.1252255859375,0.0,0.0,0.0,0.0,0.0,0.0,-0.602,0.0,0.0,0.0,0.0,0.0,0.0,-0.013396251365796067,0.0,0.0,0.0,0.0,0.0,0.0,-14.04,0.0,0.0,0.0
213,0.0,0.0,0.0,0.1194326171875,0.0,0.0,0.0,0.0,0.0,0.0,-0.594,0.0,0.0,0.0,0.0,0.0,0.0,-0.022456053992152423,0.0,0.0,0.0,0.0,0.0,0.0,-14.248,0.0,0.0,0.0
214,0.0,0.0,0.0,0.113341796875,0.0,0.0,0.0,0.0,0.0,0.0,-0.598,0.0,0.0,0.0,0.0,0.0,0.0,-0.03142073385425662,0.0,0.0,0.0,0.0,0.0,0.0,-15.092,0.0,0.0,0.0
215,0.0,0.0,0.0,0.107404296875,0.0,0.0,0.0,0.0,0.0,0.0,-0.61,0.0,0.0,0.0,0.0,0.0,0.0,-0.0403687511957452,0.0,0.0,0.0,0.0,0.0,0.0,-14.588,0.0,0.0,0.0
216,0.0,0.0,0.0,0.1017646484375,0.0,0.0,0.0,0.0,0.0,0.0,-0.58,0.0,0.0,0.0,0.0,0.0,0.0,-0.049381963828912995,0.0,0.0,0.0,0.0,0.0,0.0,-14.932,0.0,0.0,0.0
217,0.0,0.0,0.0,0.0959814453125,0.0,0.0,0.0,0.0,0.0,0.0,-0.578,0.0,0.0,0.0,0.0,0.0,0.0,-0.058363468538474954,0.0,0.0,0.0,0.0,0.0,0.0,-14.496,0.0,0.0,0.0
218,0.0,0.0,0.0,0.0904677734375,0.0,0.0,0.0,0.0,0.0,0.0,-0.575,0.0,0.0,0.0,0.0,0.0,0.0,-0.06726654295933293,0.0,0.0,0.0,0.0,0.0,0.0,-14.496,0.0,0.0,0.0
219,0.0,0.0,0.0,0.0843857421875,0.0,0.0,0.0,0.0,0.0,0.0,-0.573,0.0,0.0,0.0,0.0,0.0,0.0,-0.076232967448095,0.0,0.0,0.0,0.0,0.0,0.0,-14.908,0.0,0.0,0.0
220,0.0,0.0,0.0,0.0783037109375,0.0,0.0,0.0,0.0,0.0,0.0,-0.609,0.0,0.0,0.0,0.0,0.0,0.0,-0.08537561510290494,0.0,0.0,0.0,0.0,0.0,0.0,-14.132,0.0,0.0,0.0
221,0.0,0.0,0.0,0.072646484375,0.0,0.0,0.0,0.0,0.0,0.0,-0.596,0.0,0.0,0.0,0.0,0.0,0.0,-0.09409014593687931,0.0,0.0,0.0,0.0,0.0,0.0,-14.224,0.0,0.0,0.0
222,0.0,0.0,0.0,0.066564453125,0.0,0.0,0.0,0.0,0.0,0.0,-0.594,0.0,0.0,0.0,0.0,0.0,0.0,-0.10295814433187224,0.0,0.0,0.0,0.0,0.0,0.0,-14.156,0.0,0.0,0.0
223,0.0,0.0,0.0,0.060771484375,0.0,0.0,0.0,0.0,0.0,0.0,-0.602,0.0,0.0,0.0,0.0,0.0,0.0,-0.11191897644164489,0.0,0.0,0.0,0.0,0.0,0.0,-14.132,0.0,0.0,0.0
224,0.0,0.0,0.0,0.054978515625,0.0,0.0,0.0,0.0,0.0,0.0,-0.576,0.0,0.0,0.0,0.0,0.0,0.0,-0.12065097856213286,0.0,0.0,0.0,0.0,0.0,0.0,-15.048,0.0,0.0,0.0
225,0.0,0.0,0.0,0.0487431640625,0.0,0.0,0.0,0.0,0.0,0.0,-0.603,0.0,0.0,0.0,0.0,0.0,0.0,-0.1294375165692198,0.0,0.0,0.0,0.0,0.0,0.0,-14.864,0.0,0.0,0.0
226,0.0,0.0,0.0,0.0432392578125,0.0,0.0,0.0,0.0,0.0,0.0,-0.592,0.0,0.0,0.0,0.0,0.0,0.0,-0.1383576915153423,0.0,0.0,0.0,0.0,0.0,0.0,-14.84,0.0,0.0,0.0
227,0.0,0.0,0.0,0.0374462890625,0.0,0.0,0.0,0.0,0.0,0.0,-0.571,0.0,0.0,0.0,0.0,0.0,0.0,-0.14692490157726718,0.0,0.0,0.0,0.0,0.0,0.0,-14.932,0.0,0.0,0.0
228,0.0,0.0,0.0,0.0316533203125,0.0,0.0,0.0,0.0,0.0,0.0,-0.592,0.0,0.0,0.0,0.0,0.0,0.0,-0.1556139279886827,0.0,0.0,0.0,0.0,0.0,0.0,-14.384,0.0,0.0,0.0
229,0.0,0.0,0.0,0.0261484375,0.0,0.0,0.0,0.0,0.0,0.0,-0.561,0.0,0.0,0.0,0.0,0.0,0.0,-0.16438779958582447,0.0,0.0,0.0,0.0,0.0,0.0,-14.932,0.0,0.0,0.0
230,0.0,0.0,0.0,0.0197783203125,0.0,0.0,0.0,0.0,0.0,0.0,-0.59,0.0,0.0,0.0,0.0,0.0,0.0,-0.17292802374409236,0.0,0.0,0.0,0.0,0.0,0.0,-14.84,0.0,0.0,0.0
231,0.0,0.0,0.0,0.0139853515625,0.0,0.0,0.0,0.0,0.0,0.0,-0.619,0.0,0.0,0.0,0.0,0.0,0.0,-0.18152633426457357,0.0,0.0,0.0,0.0,0.0,0.0,-14.016,0.0,0.0,0.0
232,0.0,0.0,0.0,0.0081826171875,0.0,0.0,0.0,0.0,0.0,0.0,-0.582,0.0,0.0,0.0,0.0,0.0,0.0,-0.19012735576717738,0.0,0.0,0.0,0.0,0.0,0.0,-14.408,0.0,0.0,0.0
233,0.0,0.0,0.0,0.0021015625,0.0,0.0,0.0,0.0,0.0,0.0,-0.607,0.0,0.0,0.0,0.0,0.0,0.0,-0.1985993120958408,0.0,0.0,0.0,0.0,0.0,0.0,-13.904,0.0,0.0,0.0
234,0.0,0.0,0.0,-0.0035458984375,0.0,0.0,0.0,0.0,0.0,0.0,-0.587,0.0,0.0,0.0,0.0,0.0,0.0,-0.2070820116877376,0.0,0.0,0.0,0.0,0.0,0.0,-14.384,0.0,0.0,0.0
235,0.0,0.0,0.0,-0.00978125,0.0,0.0,0.0,0.0,0.0,0.0,-0.587,0.0,0.0,0.0,0.0,0.0,0.0,-0.21569279194474372,0.0,0.0,0.0,0.0,0.0,0.0,-15.276,0.0,0.0,0.0
236,0.0,0.0,0.0,-0.01557421875,0.0,0.0,0.0,0.0,0.0,0.0,-0.622,0.0,0.0,0.0,0.0,0.0,0.0,-0.22390192513812288,0.0,0.0,0.0,0.0,0.0,0.0,-14.588,0.0,0.0,0.0
237,0.0,0.0,0.0,-0.0212236328125,0.0,0.0,0.0,0.0,0.0,0.0,-0.573,0.0,0.0,0.0,0.0,0.0,0.0,-0.2322114438537159,0.0,0.0,0.0,0.0,0.0,0.0,-15.344,0.0,0.0,0.0
238,0.0,0.0,0.0,-0.0273046875,0.0,0.0,0.0,0.0,0.0,0.0,-0.588,0.0,0.0,0.0,0.0,0.0,0.0,-0.24049347620375716,0.0,0.0,0.0,0.0,0.0,0.0,-14.568,0.0,0.0,0.0
239,0.0,0.0,0.0,-0.0326650390625,0.0,0.0,0.0,0.0,0.0,0.0,-0.583,0.0,0.0,0.0,0.0,0.0,0.0,-0.2486984225229007,0.0,0.0,0.0,0.0,0.0,0.0,-14.588,0.0,0.0,0.0
240,0.0,0.0,0.0,-0.0386025390625,0.0,0.0,0.0,0.0,0.0,0.0,-0.556,0.0,0.0,0.0,0.0,0.0,0.0,-0.2568793942117325,0.0,0.0,0.0,0.0,0.0,0.0,-15.068,0.0,0.0,0.0
241,0.0,0.0,0.0,-0.044828125,0.0,0.0,0.0,0.0,0.0,0.0,-0.619,0.0,0.0,0.0,0.0,0.0,0.0,-0.2650086545211242,0.0,0.0,0.0,0.0,0.0,0.0,-14.224,0.0,0.0,0.0
242,0.0,0.0,0.0,-0.0503330078125,0.0,0.0,0.0,0.0,0.0,0.0,-0.59,0.0,0.0,0.0,0.0,0.0,0.0,-0.27305059635650925,0.0,0.0,0.0,0.0,0.0,0.0,-14.428,0.0,0.0,0.0
243,0.0,0.0,0.0,-0.056568359375,0.0,0.0,0.0,0.0,0.0,0.0,-0.584,0.0,0.0,0.0,0.0,0.0,0.0,-0.28103133073688374,0.0,0.0,0.0,0.0,0.0,0.0,-14.084,0.0,0.0,0.0
244,0.0,0.0,0.0,-0.062361328125,0.0,0.0,0.0,0.0,0.0,0.0,-0.611,0.0,0.0,0.0,0.0,0.0,0.0,-0.2889407841359688,0.0,0.0,0.0,0.0,0.0,0.0,-14.084,0.0,0.0,0.0
245,0.0,0.0,0.0,-0.068154296875,0.0,0.0,0.0,0.0,0.0,0.0,-0.575,0.0,0.0,0.0,0.0,0.0,0.0,-0.29695993363331336,0.0,0.0,0.0,0.0,0.0,0.0,-15.116,0.0,0.0,0.0
246,0.0,0.0,0.0,-0.0743896484375,0.0,0.0,0.0,0.0,0.0,0.0,-0.609,0.0,0.0,0.0,0.0,0.0,0.0,-0.3046024188931061,0.0,0.0,0.0,0.0,0.0,0.0,-14.84,0.0,0.0,0.0
247,0.0,0.0,0.0,-0.0800380859375,0.0,0.0,0.0,0.0,0.0,0.0,-0.606,0.0,0.0,0.0,0.0,0.0,0.0,-0.312374028813807,0.0,0.0,0.0,0.0,0.0,0.0,-14.704,0.0,0.0,0.0
248,0.0,0.0,0.0,-0.0859755859375,0.0,0.0,0.0,0.0,0.0,0.0,-0.573,0.0,0.0,0.0,0.0,0.0,0.0,-0.320049351000722,0.0,0.0,0.0,0.0,0.0,0.0,-14.888,0.0,0.0,0.0
249,0.0,0.0,0.0,-0.0917685546875,0.0,0.0,0.0,0.0,0.0,0.0,-0.604,0.0,0.0,0.0,0.0,0.0,0.0,-0.3275081591149669,0.0,0.0,0.0,0.0,0.0,0.0,-14.36,0.0,0.0,0.0
250,0.0,0.0,0.0,-0.0971279296875,0.0,0.0,0.0,0.0,0.0,0.0,-0.555,0.0,0.0,0.0,0.0,0.0,0.0,-0.3350522194165612,0.0,0.0,0.0,0.0,0.0,0.0,-14.932,0.0,0.0,0.0
251,0.0,0.0,0.0,-0.1033544921875,0.0,0.0,0.0,0.0,0.0,0.0,-0.58,0.0,0.0,0.0,0.0,0.0,0.0,-0.3424818485979956,0.0,0.0,0.0,0.0,0.0,0.0,-14.796,0.0,0.0,0.0
252,0.0,0.0,0.0,-0.1091474609375,0.0,0.0,0.0,0.0,0.0,0.0,-0.62,0.0,0.0,0.0,0.0,0.0,0.0,-0.34983926907159396,0.0,0.0,0.0,0.0,0.0,0.0,-14.132,0.0,0.0,0.0
253,0.0,0.0,0.0,-0.1150849609375,0.0,0.0,0.0,0.0,0.0,0.0,-0.578,0.0,0.0,0.0,0.0,0.0,0.0,-0.3571014573851861,0.0,0.0,0.0,0.0,0.0,0.0,-14.452,0.0,0.0,0.0
254,0.0,0.0,0.0,-0.12117578125,0.0,0.0,0.0,0.0,0.0,0.0,-0.608,0.0,0.0,0.0,0.0,0.0,0.0,-0.3644098505457883,0.0,0.0,0.0,0.0,0.0,0.0,-13.744,0.0,0.0,0.0
255,0.0,0.0,0.0,-0.12682421875,0.0,0.0,0.0,0.0,0.0,0.0,-0.598,0.0,0.0,0.0,0.0,0.0,0.0,-0.37145142738124237,0.0,0.0,0.0,0.0,0.0,0.0,-14.176,0.0,0.0,0.0
256,0.0,0.0,0.0,-0.13290625,0.0,0.0,0.0,0.0,0.0,0.0,-0.581,0.0,0.0,0.0,0.0,0.0,0.0,-0.3784283257191515,0.0,0.0,0.0,0.0,0.0,0.0,-14.888,0.0,0.0,0.0
257,0.0,0.0,0.0,-0.13898828125,0.0,0.0,0.0,0.0,0.0,0.0,-0.621,0.0,0.0,0.0,0.0,0.0,0.0,-0.38539873379754225,0.0,0.0,0.0,0.0,0.0,0.0,-14.568,0.0,0.0,0.0
258,0.0,0.0,0.0,-0.1444921875,0.0,0.0,0.0,0.0,0.0,0.0,-0.582,0.0,0.0,0.0,0.0,0.0,0.0,-0.39217793556347835,0.0,0.0,0.0,0.0,0.0,0.0,-14.888,0.0,0.0,0.0
259,0.0,0.0,0.0,-0.1504296875,0.0,0.0,0.0,0.0,0.0,0.0,-0.578,0.0,0.0,0.0,0.0,0.0,0.0,-0.3989543397119856,0.0,0.0,0.0,0.0,0.0,0.0,-14.544,0.0,0.0,0.0
260,0.0,0.0,0.0,-0.156078125,0.0,0.0,0.0,0.0,0.0,0.0,-0.59,0.0,0.0,0.0,0.0,0.0,0.0,-0.4056930593765939,0.0,0.0,0.0,0.0,0.0,0.0,-14.224,0.0,0.0,0.0
261,0.0,0.0,0.0,-0.1617265625,0.0,0.0,0.0,0.0,0.0,0.0,-0.563,0.0,0.0,0.0,0.0,0.0,0.0,-0.4122479094935214,0.0,0.0,0.0,0.0,0.0,0.0,-14.956,0.0,0.0,0.0
262,0.0,0.0,0.0,-0.1679619140625,0.0,0.0,0.0,0.0,0.0,0.0,-0.599,0.0,0.0,0.0,0.0,0.0,0.0,-0.4187372910896282,0.0,0.0,0.0,0.0,0.0,0.0,-14.452,0.0,0.0,0.0
263,0.0,0.0,0.0,-0.1737548828125,0.0,0.0,0.0,0.0,0.0,0.0,-0.612,0.0,0.0,0.0,0.0,0.0,0.0,-0.4251720711535099,0.0,0.0,0.0,0.0,0.0,0.0,-13.72,0.0,0.0,0.0
264,0.0,0.0,0.0,-0.1796923828125,0.0,0.0,0.0,0.0,0.0,0.0,-0.578,0.0,0.0,0.0,0.0,0.0,0.0,-0.43141048567414253,0.0,0.0,0.0,0.0,0.0,0.0,-14.2,0.0,0.0,0.0
265,0.0,0.0,0.0,-0.185765625,0.0,0.0,0.0,0.0,0.0,0.0,-0.614,0.0,0.0,0.0,0.0,0.0,0.0,-0.43762339305960724,0.0,0.0,0.0,0.0,0.0,0.0,-13.604,0.0,0.0,0.0
266,0.0,0.0,0.0,-0.1912783203125,0.0,0.0,0.0,0.0,0.0,0.0,-0.585,0.0,0.0,0.0,0.0,0.0,0.0,-0.44383148795117355,0.0,0.0,0.0,0.0,0.0,0.0,-14.476,0.0,0.0,0.0
267,0.0,0.0,0.0,-0.1975048828125,0.0,0.0,0.0,0.0,0.0,0.0,-0.586,0.0,0.0,0.0,0.0,0.0,0.0,-0.4497213955004547,0.0,0.0,0.0,0.0,0.0,0.0,-15.116,0.0,0.0,0.0
268,0.0,0.0,0.0,-0.2034423828125,0.0,0.0,0.0,0.0,0.0,0.0,-0.617,0.0,0.0,0.0,0.0,0.0,0.0,-0.455613729376388,0.0,0.0,0.0,0.0,0.0,0.0,-14.36,0.0,0.0,0.0
269,0.0,0.0,0.0,-0.2089462890625,0.0,0.0,0.0,0.0,0.0,0.0,-0.569,0.0,0.0,0.0,0.0,0.0,0.0,-0.4616109765417854,0.0,0.0,0.0,0.0,0.0,0.0,-14.956,0.0,0.0,0.0
270,0.0,0.0,0.0,-0.215037109375,0.0,0.0,0.0,0.0,0.0,0.0,-0.583,0.0,0.0,0.0,0.0,0.0,0.0,-0.46714442037714593,0.0,0.0,0.0,0.0,0.0,0.0,-14.316,0.0,0.0,0.0
271,0.0,0.0,0.0,-0.2205322265625,0.0,0.0,0.0,0.0,0.0,0.0,-0.585,0.0,0.0,0.0,0.0,0.0,0.0,-0.47273685052903996,0.0,0.0,0.0,0.0,0.0,0.0,-14.248,0.0,0.0,0.0
272,0.0,0.0,0.0,-0.2263251953125,0.0,0.0,0.0,0.0,0.0,0.0,-0.57,0.0,0.0,0.0,0.0,0.0,0.0,-0.4782730403761956,0.0,0.0,0.0,0.0,0.0,0.0,-14.796,0.0,0.0,0.0
273,0.0,0.0,0.0,-0.2324072265625,0.0,0.0,0.0,0.0,0.0,0.0,-0.599,0.0,0.0,0.0,0.0,0.0,0.0,-0.48360450057631454,0.0,0.0,0.0,0.0,0.0,0.0,-13.948,0.0,0.0,0.0
274,0.0,0.0,0.0,-0.238208984375,0.0,0.0,0.0,0.0,0.0,0.0,-0.599,0.0,0.0,0.0,0.0,0.0,0.0,-0.4888696994848269,0.0,0.0,0.0,0.0,0.0,0.0,-13.72,0.0,0.0,0.0
275,0.0,0.0,0.0,-0.244291015625,0.0,0.0,0.0,0.0,0.0,0.0,-0.595,0.0,0.0,0.0,0.0,0.0,0.0,-0.49415693417616813,0.0,0.0,0.0,0.0,0.0,0.0,-13.972,0.0,0.0,0.0
276,0.0,0.0,0.0,-0.250228515625,0.0,0.0,0.0,0.0,0.0,0.0,-0.612,0.0,0.0,0.0,0.0,0.0,0.0,-0.49911335955725183,0.0,0.0,0.0,0.0,0.0,0.0,-13.652,0.0,0.0,0.0
277,0.0,0.0,0.0,-0.2558681640625,0.0,0.0,0.0,0.0,0.0,0.0,-0.579,0.0,0.0,0.0,0.0,0.0,0.0,-0.5040583493170484,0.0,0.0,0.0,0.0,0.0,0.0,-14.384,0.0,0.0,0.0
278,0.0,0.0,0.0,-0.261958984375,0.0,0.0,0.0,0.0,0.0,0.0,-0.592,0.0,0.0,0.0,0.0,0.0,0.0,-0.5089996361694389,0.0,0.0,0.0,0.0,0.0,0.0,-14.748,0.0,0.0,0.0
279,0.0,0.0,0.0,-0.267751953125,0.0,0.0,0.0,0.0,0.0,0.0,-0.602,0.0,0.0,0.0,0.0,0.0,0.0,-0.5135971284154198,0.0,0.0,0.0,0.0,0.0,0.0,-14.224,0.0,0.0,0.0
280,0.0,0.0,0.0,-0.273544921875,0.0,0.0,0.0,0.0,0.0,0.0,-0.578,0.0,0.0,0.0,0.0,0.0,0.0,-0.5181626013552035,0.0,0.0,0.0,0.0,0.0,0.0,-14.496,0.0,0.0,0.0
281,0.0,0.0,0.0,-0.2793291015625,0.0,0.0,0.0,0.0,0.0,0.0,-0.585,0.0,0.0,0.0,0.0,0.0,0.0,-0.5226752827157182,0.0,0.0,0.0,0.0,0.0,0.0,-14.224,0.0,0.0,0.0
282,0.0,0.0,0.0,-0.2849775390625,0.0,0.0,0.0,0.0,0.0,0.0,-0.574,0.0,0.0,0.0,0.0,0.0,0.0,-0.5270801547830655,0.0,0.0,0.0,0.0,0.0,0.0,-14.064,0.0,0.0,0.0
283,0.0,0.0,0.0,-0.2907802734375,0.0,0.0,0.0,0.0,0.0,0.0,-0.578,0.0,0.0,0.0,0.0,0.0,0.0,-0.531282438533871,0.0,0.0,0.0,0.0,0.0,0.0,-14.36,0.0,0.0,0.0
284,0.0,0.0,0.0,-0.296861328125,0.0,0.0,0.0,0.0,0.0,0.0,-0.594,0.0,0.0,0.0,0.0,0.0,0.0,-0.5354099959339518,0.0,0.0,0.0,0.0,0.0,0.0,-13.652,0.0,0.0,0.0
285,0.0,0.0,0.0,-0.302654296875,0.0,0.0,0.0,0.0,0.0,0.0,-0.597,0.0,0.0,0.0,0.0,0.0,0.0,-0.5394070058477488,0.0,0.0,0.0,0.0,0.0,0.0,-13.764,0.0,0.0,0.0
286,0.0,0.0,0.0,-0.3085830078125,0.0,0.0,0.0,0.0,0.0,0.0,-0.594,0.0,0.0,0.0,0.0,0.0,0.0,-0.5432523381504974,0.0,0.0,0.0,0.0,0.0,0.0,-13.56,0.0,0.0,0.0
287,0.0,0.0,0.0,-0.314529296875,0.0,0.0,0.0,0.0,0.0,0.0,-0.59,0.0,0.0,0.0,0.0,0.0,0.0,-0.5470468911522861,0.0,0.0,0.0,0.0,0.0,0.0,-13.72,0.0,0.0,0.0
288,0.0,0.0,0.0,-0.320466796875,0.0,0.0,0.0,0.0,0.0,0.0,-0.601,0.0,0.0,0.0,0.0,0.0,0.0,-0.5506870476450064,0.0,0.0,0.0,0.0,0.0,0.0,-14.268,0.0,0.0,0.0
289,0.0,0.0,0.0,-0.326404296875,0.0,0.0,0.0,0.0,0.0,0.0,-0.603,0.0,0.0,0.0,0.0,0.0,0.0,-0.5541615041037979,0.0,0.0,0.0,0.0,0.0,0.0,-14.268,0.0,0.0,0.0
290,0.0,0.0,0.0,-0.3320439453125,0.0,0.0,0.0,0.0,0.0,0.0,-0.591,0.0,0.0,0.0,0.0,0.0,0.0,-0.5575781246296779,0.0,0.0,0.0,0.0,0.0,0.0,-14.108,0.0,0.0,0.0
291,0.0,0.0,0.0,-0.3378369140625,0.0,0.0,0.0,0.0,0.0,0.0,-0.574,0.0,0.0,0.0,0.0,0.0,0.0,-0.5608497949920658,0.0,0.0,0.0,0.0,0.0,0.0,-14.108,0.0,0.0,0.0
292,0.0,0.0,0.0,-0.343638671875,0.0,0.0,0.0,0.0,0.0,0.0,-0.582,0.0,0.0,0.0,0.0,0.0,0.0,-0.5639659595058178,0.0,0.0,0.0,0.0,0.0,0.0,-14.04,0.0,0.0,0.0
293,0.0,0.0,0.0,-0.349576171875,0.0,0.0,0.0,0.0,0.0,0.0,-0.589,0.0,0.0,0.0,0.0,0.0,0.0,-0.5669870092466052,0.0,0.0,0.0,0.0,0.0,0.0,-13.88,0.0,0.0,0.0
294,0.0,0.0,0.0,-0.3555048828125,0.0,0.0,0.0,0.0,0.0,0.0,-0.595,0.0,0.0,0.0,0.0,0.0,0.0,-0.5698983207865365,0.0,0.0,0.0,0.0,0.0,0.0,-13.836,0.0,0.0,0.0
295,0.0,0.0,0.0,-0.3612978515625,0.0,0.0,0.0,0.0,0.0,0.0,-0.594,0.0,0.0,0.0,0.0,0.0,0.0,-0.5726150940878898,0.0,0.0,0.0,0.0,0.0,0.0,-13.148,0.0,0.0,0.0
296,0.0,0.0,0.0,-0.3672353515625,0.0,0.0,0.0,0.0,0.0,0.0,-0.593,0.0,0.0,0.0,0.0,0.0,0.0,-0.5752229238464597,0.0,0.0,0.0,0.0,0.0,0.0,-13.376,0.0,0.0,0.0
297,0.0,0.0,0.0,-0.3731728515625,0.0,0.0,0.0,0.0,0.0,0.0,-0.599,0.0,0.0,0.0,0.0,0.0,0.0,-0.5777563649650683,0.0,0.0,0.0,0.0,0.0,0.0,-13.332,0.0,0.0,0.0
298,0.0,0.0,0.0,-0.3791103515625,0.0,0.0,0.0,0.0,0.0,0.0,-0.59,0.0,0.0,0.0,0.0,0.0,0.0,-0.5800961666560385,0.0,0.0,0.0,0.0,0.0,0.0,-13.604,0.0,0.0,0.0
299,0.0,0.0,0.0,-0.3850478515625,0.0,0.0,0.0,0.0,0.0,0.0,-0.601,0.0,0.0,0.0,0.0,0.0,0.0,-0.582335343454324,0.0,0.0,0.0,0.0,0.0,0.0,-14.156,0.0,0.0,0.0
300,0.0,0.0,0.0,-0.3909853515625,0.0,0.0,0.0,0.0,0.0,0.0,-0.602,0.0,0.0,0.0,0.0,0.0,0.0,-0.5844487377021416,0.0,0.0,0.0,0.0,0.0,0.0,-13.676,0.0,0.0,0.0
301,0.0,0.0,0.0,-0.3966337890625,0.0,0.0,0.0,0.0,0.0,0.0,-0.577,0.0,0.0,0.0,0.0,0.0,0.0,-0.5864000324936508,0.0,0.0,0.0,0.0,0.0,0.0,-13.856,0.0,0.0,0.0
302,0.0,0.0,0.0,-0.4024267578125,0.0,0.0,0.0,0.0,0.0,0.0,-0.579,0.0,0.0,0.0,0.0,0.0,0.0,-0.5882395141007346,0.0,0.0,0.0,0.0,0.0,0.0,-13.604,0.0,0.0,0.0
303,0.0,0.0,0.0,-0.4082197265625,0.0,0.0,0.0,0.0,0.0,0.0,-0.58,0.0,0.0,0.0,0.0,0.0,0.0,-0.5899640183241935,0.0,0.0,0.0,0.0,0.0,0.0,-13.56,0.0,0.0,0.0
304,0.0,0.0,0.0,-0.41400390625,0.0,0.0,0.0,0.0,0.0,0.0,-0.584,0.0,0.0,0.0,0.0,0.0,0.0,-0.591512694273099,0.0,0.0,0.0,0.0,0.0,0.0,-13.72,0.0,0.0,0.0
305,0.0,0.0,0.0,-0.41994140625,0.0,0.0,0.0,0.0,0.0,0.0,-0.588,0.0,0.0,0.0,0.0,0.0,0.0,-0.5929516381805844,0.0,0.0,0.0,0.0,0.0,0.0,-13.376,0.0,0.0,0.0
306,0.0,0.0,0.0,-0.4257431640625,0.0,0.0,0.0,0.0,0.0,0.0,-0.593,0.0,0.0,0.0,0.0,0.0,0.0,-0.5942909699940963,0.0,0.0,0.0,0.0,0.0,0.0,-12.944,0.0,0.0,0.0
307,0.0,0.0,0.0,-0.43181640625,0.0,0.0,0.0,0.0,0.0,0.0,-0.594,0.0,0.0,0.0,0.0,0.0,0.0,-0.5954343237347184,0.0,0.0,0.0,0.0,0.0,0.0,-13.216,0.0,0.0,0.0
308,0.0,0.0,0.0,-0.437609375,0.0,0.0,0.0,0.0,0.0,0.0,-0.599,0.0,0.0,0.0,0.0,0.0,0.0,-0.5964731208817816,0.0,0.0,0.0,0.0,0.0,0.0,-13.104,0.0,0.0,0.0
309,0.0,0.0,0.0,-0.4435458984375,0.0,0.0,0.0,0.0,0.0,0.0,-0.59,0.0,0.0,0.0,0.0,0.0,0.0,-0.5973941453357253,0.0,0.0,0.0,0.0,0.0,0.0,-13.492,0.0,0.0,0.0
310,0.0,0.0,0.0,-0.449474609375,0.0,0.0,0.0,0.0,0.0,0.0,-0.598,0.0,0.0,0.0,0.0,0.0,0.0,-0.5981583987268037,0.0,0.0,0.0,0.0,0.0,0.0,-13.764,0.0,0.0,0.0
311,0.0,0.0,0.0,-0.455267578125,0.0,0.0,0.0,0.0,0.0,0.0,-0.593,0.0,0.0,0.0,0.0,0.0,0.0,-0.5987925449453201,0.0,0.0,0.0,0.0,0.0,0.0,-13.584,0.0,0.0,0.0
312,0.0,0.0,0.0,-0.4610703125,0.0,0.0,0.0,0.0,0.0,0.0,-0.575,0.0,0.0,0.0,0.0,0.0,0.0,-0.59930007173316,0.0,0.0,0.0,0.0,0.0,0.0,-13.604,0.0,0.0,0.0
313,0.0,0.0,0.0,-0.466853515625,0.0,0.0,0.0,0.0,0.0,0.0,-0.589,0.0,0.0,0.0,0.0,0.0,0.0,-0.5996647934650339,0.0,0.0,0.0,0.0,0.0,0.0,-13.308,0.0,0.0,0.0
314,0.0,0.0,0.0,-0.4725029296875,0.0,0.0,0.0,0.0,0.0,0.0,-0.573,0.0,0.0,0.0,0.0,0.0,0.0,-0.5998981879495576,0.0,0.0,0.0,0.0,0.0,0.0,-13.308,0.0,0.0,0.0
315,0.0,0.0,0.0,-0.4784306640625,0.0,0.0,0.0,0.0,0.0,0.0,-0.586,0.0,0.0,0.0,0.0,0.0,0.0,-0.5999972058379978,0.0,0.0,0.0,0.0,0.0,0.0,-13.376,0.0,0.0,0.0
316,0.0,0.0,0.0,-0.4842236328125,0.0,0.0,0.0,0.0,0.0,0.0,-0.592,0.0,0.0,0.0,0.0,0.0,0.0,-0.5999597781391913,0.0,0.0,0.0,0.0,0.0,0.0,-12.712,0.0,0.0,0.0
317,0.0,0.0,0.0,-0.490169921875,0.0,0.0,0.0,0.0,0.0,0.0,-0.59,0.0,0.0,0.0,0.0,0.0,0.0,-0.5997883639891474,0.0,0.0,0.0,0.0,0.0,0.0,-12.828,0.0,0.0,0.0
318,0.0,0.0,0.0,-0.4960986328125,0.0,0.0,0.0,0.0,0.0,0.0,-0.602,0.0,0.0,0.0,0.0,0.0,0.0,-0.5994779816746206,0.0,0.0,0.0,0.0,0.0,0.0,-12.668,0.0,0.0,0.0
319,0.0,0.0,0.0,-0.5020361328125,0.0,0.0,0.0,0.0,0.0,0.0,-0.589,0.0,0.0,0.0,0.0,0.0,0.0,-0.5990385172147398,0.0,0.0,0.0,0.0,0.0,0.0,-12.92,0.0,0.0,0.0
320,0.0,0.0,0.0,-0.50796484375,0.0,0.0,0.0,0.0,0.0,0.0,-0.596,0.0,0.0,0.0,0.0,0.0,0.0,-0.5984648026547952,0.0,0.0,0.0,0.0,0.0,0.0,-13.4,0.0,0.0,0.0
321,0.0,0.0,0.0,-0.5137578125,0.0,0.0,0.0,0.0,0.0,0.0,-0.597,0.0,0.0,0.0,0.0,0.0,0.0,-0.5977401426111789,0.0,0.0,0.0,0.0,0.0,0.0,-13.264,0.0,0.0,0.0
322,0.0,0.0,0.0,-0.5195419921875,0.0,0.0,0.0,0.0,0.0,0.0,-0.583,0.0,0.0,0.0,0.0,0.0,0.0,-0.5969079800860672,0.0,0.0,0.0,0.0,0.0,0.0,-13.148,0.0,0.0,0.0
323,0.0,0.0,0.0,-0.52548828125,0.0,0.0,0.0,0.0,0.0,0.0,-0.589,0.0,0.0,0.0,0.0,0.0,0.0,-0.5959276198491091,0.0,0.0,0.0,0.0,0.0,0.0,-13.148,0.0,0.0,0.0
324,0.0,0.0,0.0,-0.53113671875,0.0,0.0,0.0,0.0,0.0,0.0,-0.584,0.0,0.0,0.0,0.0,0.0,0.0,-0.5947966792922386,0.0,0.0,0.0,0.0,0.0,0.0,-12.896,0.0,0.0,0.0
325,0.0,0.0,0.0,-0.5369208984375,0.0,0.0,0.0,0.0,0.0,0.0,-0.575,0.0,0.0,0.0,0.0,0.0,0.0,-0.5935601191659273,0.0,0.0,0.0,0.0,0.0,0.0,-12.76,0.0,0.0,0.0
326,0.0,0.0,0.0,-0.5428583984375,0.0,0.0,0.0,0.0,0.0,0.0,-0.591,0.0,0.0,0.0,0.0,0.0,0.0,-0.5921857037739061,0.0,0.0,0.0,0.0,0.0,0.0,-12.76,0.0,0.0,0.0
327,0.0,0.0,0.0,-0.548642578125,0.0,0.0,0.0,0.0,0.0,0.0,-0.591,0.0,0.0,0.0,0.0,0.0,0.0,-0.5906488641271913,0.0,0.0,0.0,0.0,0.0,0.0,-12.212,0.0,0.0,0.0
328,0.0,0.0,0.0,-0.5545888671875,0.0,0.0,0.0,0.0,0.0,0.0,-0.589,0.0,0.0,0.0,0.0,0.0,0.0,-0.5890148045356962,0.0,0.0,0.0,0.0,0.0,0.0,-12.392,0.0,0.0,0.0
329,0.0,0.0,0.0,-0.5605166015625,0.0,0.0,0.0,0.0,0.0,0.0,-0.602,0.0,0.0,0.0,0.0,0.0,0.0,-0.5872398467665882,0.0,0.0,0.0,0.0,0.0,0.0,-12.324,0.0,0.0,0.0
330,0.0,0.0,0.0,-0.5664541015625,0.0,0.0,0.0,0.0,0.0,0.0,-0.591,0.0,0.0,0.0,0.0,0.0,0.0,-0.5853022761555133,0.0,0.0,0.0,0.0,0.0,0.0,-12.6,0.0,0.0,0.0
331,0.0,0.0,0.0,-0.5723828125,0.0,0.0,0.0,0.0,0.0,0.0,-0.6,0.0,0.0,0.0,0.0,0.0,0.0,-0.5832809176714341,0.0,0.0,0.0,0.0,0.0,0.0,-12.92,0.0,0.0,0.0
332,0.0,0.0,0.0,-0.57817578125,0.0,0.0,0.0,0.0,0.0,0.0,-0.594,0.0,0.0,0.0,0.0,0.0,0.0,-0.5811107623218379,0.0,0.0,0.0,0.0,0.0,0.0,-12.784,0.0,0.0,0.0
333,0.0,0.0,0.0,-0.5838154296875,0.0,0.0,0.0,0.0,0.0,0.0,-0.583,0.0,0.0,0.0,0.0,0.0,0.0,-0.5787812322542124,0.0,0.0,0.0,0.0,0.0,0.0,-12.6,0.0,0.0,0.0
334,0.0,0.0,0.0,-0.58903125,0.0,0.0,0.0,0.0,0.0,0.0,-0.558,0.0,0.0,0.0,0.0,0.0,0.0,-0.5763656913413573,0.0,0.0,0.0,0.0,0.0,0.0,-10.632,0.0,0.0,0.0
335,0.0,0.0,0.0,-0.591783203125,0.0,0.0,0.0,0.0,0.0,0.0,-0.422,0.0,0.0,0.0,0.0,0.0,0.0,-0.5738069178957053,0.0,0.0,0.0,0.0,0.0,0.0,-7.844,0.0,0.0,0.0
336,0.0,0.0,0.0,-0.5922158203125,0.0,0.0,0.0,0.0,0.0,0.0,-0.179,0.0,0.0,0.0,0.0,0.0,0.0,-0.5710940791210593,0.0,0.0,0.0,0.0,0.0,0.0,-6.172,0.0,0.0,0.0
337,0.0,0.0,0.0,-0.592072265625,0.0,0.0,0.0,0.0,0.0,0.0,-0.021,0.0,0.0,0.0,0.0,0.0,0.0,-0.5682808603042613,0.0,0.0,0.0,0.0,0.0,0.0,-6.812,0.0,0.0,0.0
338,0.0,0.0,0.0,-0.591349609375,0.0,0.0,0.0,0.0,0.0,0.0,0.037,0.0,0.0,0.0,0.0,0.0,0.0,-0.5653361302222008,0.0,0.0,0.0,0.0,0.0,0.0,-7.592,0.0,0.0,0.0
339,0.0,0.0,0.0,-0.5900419921875,0.0,0.0,0.0,0.0,0.0,0.0,0.098,0.0,0.0,0.0,0.0,0.0,0.0,-0.5622198090992667,0.0,0.0,0.0,0.0,0.0,0.0,-7.772,0.0,0.0,0.0
340,0.0,0.0,0.0,-0.5887333984375,0.0,0.0,0.0,0.0,0.0,0.0,0.132,0.0,0.0,0.0,0.0,0.0,0.0,-0.5590397003911283,0.0,0.0,0.0,0.0,0.0,0.0,-7.04,0.0,0.0,0.0
341,0.0,0.0,0.0,-0.5870009765625,0.0,0.0,0.0,0.0,0.0,0.0,0.143,0.0,0.0,0.0,0.0,0.0,0.0,-0.555716725807132,0.0,0.0,0.0,0.0,0.0,0.0,-5.944,0.0,0.0,0.0
342,0.0,0.0,0.0,-0.5842490234375,0.0,0.0,0.0,0.0,0.0,0.0,0.218,0.0,0.0,0.0,0.0,0.0,0.0,-0.5522405414269915,0.0,0.0,0.0,0.0,0.0,0.0,-5.488,0.0,0.0,0.0
343,0.0,0.0,0.0,-0.5809189453125,0.0,0.0,0.0,0.0,0.0,0.0,0.296,0.0,0.0,0.0,0.0,0.0,0.0,-0.5486831269416679,0.0,0.0,0.0,0.0,0.0,0.0,-6.152,0.0,0.0,0.0
344,0.0,0.0,0.0,-0.5768671875,0.0,0.0,0.0,0.0,0.0,0.0,0.363,0.0,0.0,0.0,0.0,0.0,0.0,-0.5449890311370159,0.0,0.0,0.0,0.0,0.0,0.0,-7.636,0.0,0.0,0.0
345,0.0,0.0,0.0,-0.572671875,0.0,0.0,0.0,0.0,0.0,0.0,0.421,0.0,0.0,0.0,0.0,0.0,0.0,-0.5411283448364178,0.0,0.0,0.0,0.0,0.0,0.0,-8.824,0.0,0.0,0.0
346,0.0,0.0,0.0,-0.5686201171875,0.0,0.0,0.0,0.0,0.0,0.0,0.41,0.0,0.0,0.0,0.0,0.0,0.0,-0.5371693302897368,0.0,0.0,0.0,0.0,0.0,0.0,-7.568,0.0,0.0,0.0
347,0.0,0.0,0.0,-0.5638466796875,0.0,0.0,0.0,0.0,0.0,0.0,0.439,0.0,0.0,0.0,0.0,0.0,0.0,-0.5331180693294703,0.0,0.0,0.0,0.0,0.0,0.0,-7.132,0.0,0.0,0.0
348,0.0,0.0,0.0,-0.55849609375,0.0,0.0,0.0,0.0,0.0,0.0,0.501,0.0,0.0,0.0,0.0,0.0,0.0,-0.5289030550556589,0.0,0.0,0.0,0.0,0.0,0.0,-7.592,0.0,0.0,0.0
349,0.0,0.0,0.0,-0.553126953125,0.0,0.0,0.0,0.0,0.0,0.0,0.542,0.0,0.0,0.0,0.0,0.0,0.0,-0.5245149790928559,0.0,0.0,0.0,0.0,0.0,0.0,-9.9,0.0,0.0,0.0
350,0.0,0.0,0.0,-0.548064453125,0.0,0.0,0.0,0.0,0.0,0.0,0.528,0.0,0.0,0.0,0.0,0.0,0.0,-0.5201922320979401,0.0,0.0,0.0,0.0,0.0,0.0,-10.792,0.0,0.0,0.0
351,0.0,0.0,0.0,-0.5427138671875,0.0,0.0,0.0,0.0,0.0,0.0,0.513,0.0,0.0,0.0,0.0,0.0,0.0,-0.5156346455117496,0.0,0.0,0.0,0.0,0.0,0.0,-11.136,0.0,0.0,0.0
352,0.0,0.0,0.0,-0.537208984375,0.0,0.0,0.0,0.0,0.0,0.0,0.553,0.0,0.0,0.0,0.0,0.0,0.0,-0.5109499748917549,0.0,0.0,0.0,0.0,0.0,0.0,-11.66,0.0,0.0,0.0
353,0.0,0.0,0.0,-0.5317138671875,0.0,0.0,0.0,0.0,0.0,0.0,0.545,0.0,0.0,0.0,0.0,0.0,0.0,-0.5062616694335802,0.0,0.0,0.0,0.0,0.0,0.0,-10.884,0.0,0.0,0.0
354,0.0,0.0,0.0,-0.52548828125,0.0,0.0,0.0,0.0,0.0,0.0,0.586,0.0,0.0,0.0,0.0,0.0,0.0,-0.5013439020374238,0.0,0.0,0.0,0.0,0.0,0.0,-11.616,0.0,0.0,0.0
355,0.0,0.0,0.0,-0.519685546875,0.0,0.0,0.0,0.0,0.0,0.0,0.614,0.0,0.0,0.0,0.0,0.0,0.0,-0.49634930749285217,0.0,0.0,0.0,0.0,0.0,0.0,-13.948,0.0,0.0,0.0
356,0.0,0.0,0.0,-0.5140458984375,0.0,0.0,0.0,0.0,0.0,0.0,0.57,0.0,0.0,0.0,0.0,0.0,0.0,-0.4912604273202105,0.0,0.0,0.0,0.0,0.0,0.0,-14.476,0.0,0.0,0.0
357,0.0,0.0,0.0,-0.5078203125,0.0,0.0,0.0,0.0,0.0,0.0,0.59,0.0,0.0,0.0,0.0,0.0,0.0,-0.4860197361992331,0.0,0.0,0.0,0.0,0.0,0.0,-13.536,0.0,0.0,0.0
358,0.0,0.0,0.0,-0.501603515625,0.0,0.0,0.0,0.0,0.0,0.0,0.623,0.0,0.0,0.0,0.0,0.0,0.0,-0.4806619899446338,0.0,0.0,0.0,0.0,0.0,0.0,-11.936,0.0,0.0,0.0
359,0.0,0.0,0.0,-0.495087890625,0.0,0.0,0.0,0.0,0.0,0.0,0.644,0.0,0.0,0.0,0.0,0.0,0.0,-0.47526199406983716,0.0,0.0,0.0,0.0,0.0,0.0,-12.804,0.0,0.0,0.0
360,0.0,0.0,0.0,-0.489728515625,0.0,0.0,0.0,0.0,0.0,0.0,0.61,0.0,0.0,0.0,0.0,0.0,0.0,-0.469714722143544,0.0,0.0,0.0,0.0,0.0,0.0,-15.344,0.0,0.0,0.0
361,0.0,0.0,0.0,-0.4842236328125,0.0,0.0,0.0,0.0,0.0,0.0,0.536,0.0,0.0,0.0,0.0,0.0,0.0,-0.4640017582083614,0.0,0.0,0.0,0.0,0.0,0.0,-15.228,0.0,0.0,0.0
362,0.0,0.0,0.0,-0.478142578125,0.0,0.0,0.0,0.0,0.0,0.0,0.58,0.0,0.0,0.0,0.0,0.0,0.0,-0.4582530941648634,0.0,0.0,0.0,0.0,0.0,0.0,-14.428,0.0,0.0,0.0
363,0.0,0.0,0.0,-0.4723583984375,0.0,0.0,0.0,0.0,0.0,0.0,0.6,0.0,0.0,0.0,0.0,0.0,0.0,-0.4523946069000305,0.0,0.0,0.0,0.0,0.0,0.0,-13.032,0.0,0.0,0.0
364,0.0,0.0,0.0,-0.4662763671875,0.0,0.0,0.0,0.0,0.0,0.0,0.598,0.0,0.0,0.0,0.0,0.0,0.0,-0.4464301145555051,0.0,0.0,0.0,0.0,0.0,0.0,-13.332,0.0,0.0,0.0
365,0.0,0.0,0.0,-0.4603388671875,0.0,0.0,0.0,0.0,0.0,0.0,0.606,0.0,0.0,0.0,0.0,0.0,0.0,-0.4404159761657013,0.0,0.0,0.0,0.0,0.0,0.0,-15.664,0.0,0.0,0.0
366,0.0,0.0,0.0,-0.4548349609375,0.0,0.0,0.0,0.0,0.0,0.0,0.575,0.0,0.0,0.0,0.0,0.0,0.0,-0.4342160792466205,0.0,0.0,0.0,0.0,0.0,0.0,-16.852,0.0,0.0,0.0
367,0.0,0.0,0.0,-0.449330078125,0.0,0.0,0.0,0.0,0.0,0.0,0.552,0.0,0.0,0.0,0.0,0.0,0.0,-0.4278894438378668,0.0,0.0,0.0,0.0,0.0,0.0,-14.816,0.0,0.0,0.0
368,0.0,0.0,0.0,-0.4436904296875,0.0,0.0,0.0,0.0,0.0,0.0,0.557,0.0,0.0,0.0,0.0,0.0,0.0,-0.4215548843974261,0.0,0.0,0.0,0.0,0.0,0.0,-12.872,0.0,0.0,0.0
369,0.0,0.0,0.0,-0.4380419921875,0.0,0.0,0.0,0.0,0.0,0.0,0.572,0.0,0.0,0.0,0.0,0.0,0.0,-0.41512087315444884,0.0,0.0,0.0,0.0,0.0,0.0,-12.668,0.0,0.0,0.0
370,0.0,0.0,0.0,-0.432546875,0.0,0.0,0.0,0.0,0.0,0.0,0.556,0.0,0.0,0.0,0.0,0.0,0.0,-0.40851884868761906,0.0,0.0,0.0,0.0,0.0,0.0,-13.376,0.0,0.0,0.0
371,0.0,0.0,0.0,-0.42675390625,0.0,0.0,0.0,0.0,0.0,0.0,0.568,0.0,0.0,0.0,0.0,0.0,0.0,-0.4019803972390789,0.0,0.0,0.0,0.0,0.0,0.0,-14.36,0.0,0.0,0.0
372,0.0,0.0,0.0,-0.421095703125,0.0,0.0,0.0,0.0,0.0,0.0,0.579,0.0,0.0,0.0,0.0,0.0,0.0,-0.39527958507532296,0.0,0.0,0.0,0.0,0.0,0.0,-13.4,0.0,0.0,0.0
373,0.0,0.0,0.0,-0.4157451171875,0.0,0.0,0.0,0.0,0.0,0.0,0.555,0.0,0.0,0.0,0.0,0.0,0.0,-0.3883169825000517,0.0,0.0,0.0,0.0,0.0,0.0,-12.484,0.0,0.0,0.0
374,0.0,0.0,0.0,-0.4103857421875,0.0,0.0,0.0,0.0,0.0,0.0,0.54,0.0,0.0,0.0,0.0,0.0,0.0,-0.38155225953418576,0.0,0.0,0.0,0.0,0.0,0.0,-12.324,0.0,0.0,0.0
375,0.0,0.0,0.0,-0.4048896484375,0.0,0.0,0.0,0.0,0.0,0.0,0.535,0.0,0.0,0.0,0.0,0.0,0.0,-0.37456884007980096,0.0,0.0,0.0,0.0,0.0,0.0,-12.92,0.0,0.0,0.0
376,0.0,0.0,0.0,-0.3993857421875,0.0,0.0,0.0,0.0,0.0,0.0,0.555,0.0,0.0,0.0,0.0,0.0,0.0,-0.36741848657059595,0.0,0.0,0.0,0.0,0.0,0.0,-13.904,0.0,0.0,0.0
377,0.0,0.0,0.0,-0.3938720703125,0.0,0.0,0.0,0.0,0.0,0.0,0.552,0.0,0.0,0.0,0.0,0.0,0.0,-0.3603523228318764,0.0,0.0,0.0,0.0,0.0,0.0,-13.376,0.0,0.0,0.0
378,0.0,0.0,0.0,-0.3880888671875,0.0,0.0,0.0,0.0,0.0,0.0,0.571,0.0,0.0,0.0,0.0,0.0,0.0,-0.3531224461551261,0.0,0.0,0.0,0.0,0.0,0.0,-12.828,0.0,0.0,0.0
379,0.0,0.0,0.0,-0.382583984375,0.0,0.0,0.0,0.0,0.0,0.0,0.576,0.0,0.0,0.0,0.0,0.0,0.0,-0.3457273309349876,0.0,0.0,0.0,0.0,0.0,0.0,-12.76,0.0,0.0,0.0
380,0.0,0.0,0.0,-0.3770888671875,0.0,0.0,0.0,0.0,0.0,0.0,0.549,0.0,0.0,0.0,0.0,0.0,0.0,-0.3383762567823402,0.0,0.0,0.0,0.0,0.0,0.0,-12.392,0.0,0.0,0.0
381,0.0,0.0,0.0,-0.3714404296875,0.0,0.0,0.0,0.0,0.0,0.0,0.56,0.0,0.0,0.0,0.0,0.0,0.0,-0.3309114504878279,0.0,0.0,0.0,0.0,0.0,0.0,-13.148,0.0,0.0,0.0
382,0.0,0.0,0.0,-0.3659267578125,0.0,0.0,0.0,0.0,0.0,0.0,0.558,0.0,0.0,0.0,0.0,0.0,0.0,-0.32331933335283963,0.0,0.0,0.0,0.0,0.0,0.0,-12.736,0.0,0.0,0.0
383,0.0,0.0,0.0,-0.360142578125,0.0,0.0,0.0,0.0,0.0,0.0,0.565,0.0,0.0,0.0,0.0,0.0,0.0,-0.3156411433575678,0.0,0.0,0.0,0.0,0.0,0.0,-11.892,0.0,0.0,0.0
384,0.0,0.0,0.0,-0.354349609375,0.0,0.0,0.0,0.0,0.0,0.0,0.583,0.0,0.0,0.0,0.0,0.0,0.0,-0.3080948439307573,0.0,0.0,0.0,0.0,0.0,0.0,-12.668,0.0,0.0,0.0
385,0.0,0.0,0.0,-0.348845703125,0.0,0.0,0.0,0.0,0.0,0.0,0.565,0.0,0.0,0.0,0.0,0.0,0.0,-0.30023712701531713,0.0,0.0,0.0,0.0,0.0,0.0,-13.032,0.0,0.0,0.0
386,0.0,0.0,0.0,-0.3430615234375,0.0,0.0,0.0,0.0,0.0,0.0,0.569,0.0,0.0,0.0,0.0,0.0,0.0,-0.29241466197518506,0.0,0.0,0.0,0.0,0.0,0.0,-13.308,0.0,0.0,0.0
387,0.0,0.0,0.0,-0.337404296875,0.0,0.0,0.0,0.0,0.0,0.0,0.573,0.0,0.0,0.0,0.0,0.0,0.0,-0.2846246896017943,0.0,0.0,0.0,0.0,0.0,0.0,-13.628,0.0,0.0,0.0
388,0.0,0.0,0.0,-0.331611328125,0.0,0.0,0.0,0.0,0.0,0.0,0.578,0.0,0.0,0.0,0.0,0.0,0.0,-0.27660285203851587,0.0,0.0,0.0,0.0,0.0,0.0,-13.308,0.0,0.0,0.0
389,0.0,0.0,0.0,-0.325529296875,0.0,0.0,0.0,0.0,0.0,0.0,0.598,0.0,0.0,0.0,0.0,0.0,0.0,-0.26856704260587605,0.0,0.0,0.0,0.0,0.0,0.0,-12.852,0.0,0.0,0.0
390,0.0,0.0,0.0,-0.3196005859375,0.0,0.0,0.0,0.0,0.0,0.0,0.604,0.0,0.0,0.0,0.0,0.0,0.0,-0.26058553916989136,0.0,0.0,0.0,0.0,0.0,0.0,-13.148,0.0,0.0,0.0
391,0.0,0.0,0.0,-0.3136630859375,0.0,0.0,0.0,0.0,0.0,0.0,0.596,0.0,0.0,0.0,0.0,0.0,0.0,-0.25238094444551074,0.0,0.0,0.0,0.0,0.0,0.0,-13.4,0.0,0.0,0.0
392,0.0,0.0,0.0,-0.307861328125,0.0,0.0,0.0,0.0,0.0,0.0,0.595,0.0,0.0,0.0,0.0,0.0,0.0,-0.2441854441090095,0.0,0.0,0.0,0.0,0.0,0.0,-13.468,0.0,0.0,0.0
393,0.0,0.0,0.0,-0.302068359375,0.0,0.0,0.0,0.0,0.0,0.0,0.58,0.0,0.0,0.0,0.0,0.0,0.0,-0.23598113698883671,0.0,0.0,0.0,0.0,0.0,0.0,-13.012,0.0,0.0,0.0
394,0.0,0.0,0.0,-0.2961396484375,0.0,0.0,0.0,0.0,0.0,0.0,0.586,0.0,0.0,0.0,0.0,0.0,0.0,-0.2276518336396115,0.0,0.0,0.0,0.0,0.0,0.0,-12.44,0.0,0.0,0.0
395,0.0,0.0,0.0,-0.2902021484375,0.0,0.0,0.0,0.0,0.0,0.0,0.596,0.0,0.0,0.0,0.0,0.0,0.0,-0.2192937293885992,0.0,0.0,0.0,0.0,0.0,0.0,-13.24,0.0,0.0,0.0
396,0.0,0.0,0.0,-0.284255859375,0.0,0.0,0.0,0.0,0.0,0.0,0.592,0.0,0.0,0.0,0.0,0.0,0.0,-0.21091655029151338,0.0,0.0,0.0,0.0,0.0,0.0,-13.924,0.0,0.0,0.0
397,0.0,0.0,0.0,-0.278318359375,0.0,0.0,0.0,0.0,0.0,0.0,0.603,0.0,0.0,0.0,0.0,0.0,0.0,-0.20247502257629688,0.0,0.0,0.0,0.0,0.0,0.0,-14.704,0.0,0.0,0.0
398,0.0,0.0,0.0,-0.272380859375,0.0,0.0,0.0,0.0,0.0,0.0,0.592,0.0,0.0,0.0,0.0,0.0,0.0,-0.19384181522783653,0.0,0.0,0.0,0.0,0.0,0.0,-14.36,0.0,0.0,0.0
399,0.0,0.0,0.0,-0.2662998046875,0.0,0.0,0.0,0.0,0.0,0.0,0.604,0.0,0.0,0.0,0.0,0.0,0.0,-0.18542520329626744,0.0,0.0,0.0,0.0,0.0,0.0,-13.744,0.0,0.0,0.0
400,0.0,0.0,0.0,-0.2602177734375,0.0,0.0,0.0,0.0,0.0,0.0,0.621,0.0,0.0,0.0,0.0,0.0,0.0,-0.1768538488761312,0.0,0.0,0.0,0.0,0.0,0.0,-13.604,0.0,0.0,0.0
401,0.0,0.0,0.0,-0.2544248046875,0.0,0.0,0.0,0.0,0.0,0.0,0.595,0.0,0.0,0.0,0.0,0.0,0.0,-0.16797850777094736,0.0,0.0,0.0,0.0,0.0,0.0,-13.652,0.0,0.0,0.0
402,0.0,0.0,0.0,-0.2481982421875,0.0,0.0,0.0,0.0,0.0,0.0,0.599,0.0,0.0,0.0,0.0,0.0,0.0,-0.1595548442695265,0.0,0.0,0.0,0.0,0.0,0.0,-13.788,0.0,0.0,0.0
403,0.0,0.0,0.0,-0.2424052734375,0.0,0.0,0.0,0.0,0.0,0.0,0.607,0.0,0.0,0.0,0.0,0.0,0.0,-0.15088579069147437,0.0,0.0,0.0,0.0,0.0,0.0,-13.444,0.0,0.0,0.0
404,0.0,0.0,0.0,-0.236603515625,0.0,0.0,0.0,0.0,0.0,0.0,0.584,0.0,0.0,0.0,0.0,0.0,0.0,-0.14192655375653834,0.0,0.0,0.0,0.0,0.0,0.0,-13.284,0.0,0.0,0.0
405,0.0,0.0,0.0,-0.2308193359375,0.0,0.0,0.0,0.0,0.0,0.0,0.591,0.0,0.0,0.0,0.0,0.0,0.0,-0.1333146734494046,0.0,0.0,0.0,0.0,0.0,0.0,-13.424,0.0,0.0,0.0
406,0.0,0.0,0.0,-0.2251708984375,0.0,0.0,0.0,0.0,0.0,0.0,0.574,0.0,0.0,0.0,0.0,0.0,0.0,-0.12451448986019342,0.0,0.0,0.0,0.0,0.0,0.0,-13.836,0.0,0.0,0.0
407,0.0,0.0,0.0,-0.2192333984375,0.0,0.0,0.0,0.0,0.0,0.0,0.576,0.0,0.0,0.0,0.0,0.0,0.0,-0.11565169379103296,0.0,0.0,0.0,0.0,0.0,0.0,-13.972,0.0,0.0,0.0
408,0.0,0.0,0.0,-0.2132958984375,0.0,0.0,0.0,0.0,0.0,0.0,0.603,0.0,0.0,0.0,0.0,0.0,0.0,-0.10695031956078356,0.0,0.0,0.0,0.0,0.0,0.0,-14.656,0.0,0.0,0.0
409,0.0,0.0,0.0,-0.207494140625,0.0,0.0,0.0,0.0,0.0,0.0,0.586,0.0,0.0,0.0,0.0,0.0,0.0,-0.09808001023701016,0.0,0.0,0.0,0.0,0.0,0.0,-14.612,0.0,0.0,0.0
410,0.0,0.0,0.0,-0.201412109375,0.0,0.0,0.0,0.0,0.0,0.0,0.595,0.0,0.0,0.0,0.0,0.0,0.0,-0.08910231722868796,0.0,0.0,0.0,0.0,0.0,0.0,-14.064,0.0,0.0,0.0
411,0.0,0.0,0.0,-0.1956279296875,0.0,0.0,0.0,0.0,0.0,0.0,0.599,0.0,0.0,0.0,0.0,0.0,0.0,-0.08023708581593537,0.0,0.0,0.0,0.0,0.0,0.0,-14.016,0.0,0.0,0.0
412,0.0,0.0,0.0,-0.1898349609375,0.0,0.0,0.0,0.0,0.0,0.0,0.576,0.0,0.0,0.0,0.0,0.0,0.0,-0.07129219571736567,0.0,0.0,0.0,0.0,0.0,0.0,-13.604,0.0,0.0,0.0
413,0.0,0.0,0.0,-0.183888671875,0.0,0.0,0.0,0.0,0.0,0.0,0.595,0.0,0.0,0.0,0.0,0.0,0.0,-0.06236257598226784,0.0,0.0,0.0,0.0,0.0,0.0,-13.468,0.0,0.0,0.0
414,0.0,0.0,0.0,-0.178240234375,0.0,0.0,0.0,0.0,0.0,0.0,0.585,0.0,0.0,0.0,0.0,0.0,0.0,-0.05344760878239245,0.0,0.0,0.0,0.0,0.0,0.0,-13.332,0.0,0.0,0.0
415,0.0,0.0,0.0,-0.1724462890625,0.0,0.0,0.0,0.0,0.0,0.0,0.573,0.0,0.0,0.0,0.0,0.0,0.0,-0.044481357725630465,0.0,0.0,0.0,0.0,0.0,0.0,-13.4,0.0,0.0,0.0
416,0.0,0.0,0.0,-0.1666533203125,0.0,0.0,0.0,0.0,0.0,0.0,0.582,0.0,0.0,0.0,0.0,0.0,0.0,-0.035444059297345516,0.0,0.0,0.0,0.0,0.0,0.0,-13.856,0.0,0.0,0.0
417,0.0,0.0,0.0,-0.1610048828125,0.0,0.0,0.0,0.0,0.0,0.0,0.572,0.0,0.0,0.0,0.0,0.0,0.0,-0.02649729323613247,0.0,0.0,0.0,0.0,0.0,0.0,-13.744,0.0,0.0,0.0
418,0.0,0.0,0.0,-0.1550673828125,0.0,0.0,0.0,0.0,0.0,0.0,0.583,0.0,0.0,0.0,0.0,0.0,0.0,-0.017515235401443178,0.0,0.0,0.0,0.0,0.0,0.0,-14.224,0.0,0.0,0.0
419,0.0,0.0,0.0,-0.1494189453125,0.0,0.0,0.0,0.0,0.0,0.0,0.59,0.0,0.0,0.0,0.0,0.0,0.0,-0.008443639501220302,0.0,0.0,0.0,0.0,0.0,0.0,-14.544,0.0,0.0,0.0
420,0.0,0.0,0.0,-0.1434814453125,0.0,0.0,0.0,0.0,0.0,0.0,0.577,0.0,0.0,0.0,0.0,0.0,0.0,0.0005363320621687503,0.0,0.0,0.0,0.0,0.0,0.0,-14.408,0.0,0.0,0.0
421,0.0,0.0,0.0,-0.13724609375,0.0,0.0,0.0,0.0,0.0,0.0,0.619,0.0,0.0,0.0,0.0,0.0,0.0,9.012222289700186e-06,0.0,0.0,0.0,0.0,0.0,0.0,-14.292,0.0,0.0,0.0
422,0.0,0.0,0.0,-0.1317421875,0.0,0.0,0.0,0.0,0.0,0.0,0.587,0.0,0.0,0.0,0.0,0.0,0.0,0.00909148232092364,0.0,0.0,0.0,0.0,0.0,0.0,-13.88,0.0,0.0,0.0
423,0.0,0.0,0.0,-0.12566015625,0.0,0.0,0.0,0.0,0.0,0.0,0.575,0.0,0.0,0.0,0.0,0.0,0.0,0.018042323747796084,0.0,0.0,0.0,0.0,0.0,0.0,-13.468,0.0,0.0,0.0
424,0.0,0.0,0.0,-0.1198759765625,0.0,0.0,0.0,0.0,0.0,0.0,0.606,0.0,0.0,0.0,0.0,0.0,0.0,0.02702880427673834,0.0,0.0,0.0,0.0,0.0,0.0,-13.652,0.0,0.0,0.0
425,0.0,0.0,0.0,-0.11421875,0.0,0.0,0.0,0.0,0.0,0.0,0.57,0.0,0.0,0.0,0.0,0.0,0.0,0.036038556993910106,0.0,0.0,0.0,0.0,0.0,0.0,-13.376,0.0,0.0,0.0
426,0.0,0.0,0.0,-0.10813671875,0.0,0.0,0.0,0.0,0.0,0.0,0.588,0.0,0.0,0.0,0.0,0.0,0.0,0.04513837315911491,0.0,0.0,0.0,0.0,0.0,0.0,-13.676,0.0,0.0,0.0
427,0.0,0.0,0.0,-0.1026328125,0.0,0.0,0.0,0.0,0.0,0.0,0.591,0.0,0.0,0.0,0.0,0.0,0.0,0.0539208806859876,0.0,0.0,0.0,0.0,0.0,0.0,-14.156,0.0,0.0,0.0
428,0.0,0.0,0.0,-0.09683984375,0.0,0.0,0.0,0.0,0.0,0.0,0.563,0.0,0.0,0.0,0.0,0.0,0.0,0.06292734716365096,0.0,0.0,0.0,0.0,0.0,0.0,-13.924,0.0,0.0,0.0
429,0.0,0.0,0.0,-0.0908935546875,0.0,0.0,0.0,0.0,0.0,0.0,0.596,0.0,0.0,0.0,0.0,0.0,0.0,0.07231167085982203,0.0,0.0,0.0,0.0,0.0,0.0,-14.704,0.0,0.0,0.0
430,0.0,0.0,0.0,-0.085244140625,0.0,0.0,0.0,0.0,0.0,0.0,0.582,0.0,0.0,0.0,0.0,0.0,0.0,0.08071052184836518,0.0,0.0,0.0,0.0,0.0,0.0,-14.704,0.0,0.0,0.0
431,0.0,0.0,0.0,-0.0788740234375,0.0,0.0,0.0,0.0,0.0,0.0,0.594,0.0,0.0,0.0,0.0,0.0,0.0,0.089645184695137,0.0,0.0,0.0,0.0,0.0,0.0,-14.636,0.0,0.0,0.0
432,0.0,0.0,0.0,-0.072927734375,0.0,0.0,0.0,0.0,0.0,0.0,0.625,0.0,0.0,0.0,0.0,0.0,0.0,0.0986429541095651,0.0,0.0,0.0,0.0,0.0,0.0,-14.248,0.0,0.0,0.0
433,0.0,0.0,0.0,-0.0671435546875,0.0,0.0,0.0,0.0,0.0,0.0,0.582,0.0,0.0,0.0,0.0,0.0,0.0,0.10742672043830892,0.0,0.0,0.0,0.0,0.0,0.0,-13.628,0.0,0.0,0.0
434,0.0,0.0,0.0,-0.0610615234375,0.0,0.0,0.0,0.0,0.0,0.0,0.592,0.0,0.0,0.0,0.0,0.0,0.0,0.11624233913104051,0.0,0.0,0.0,0.0,0.0,0.0,-13.904,0.0,0.0,0.0
435,0.0,0.0,0.0,-0.0554130859375,0.0,0.0,0.0,0.0,0.0,0.0,0.599,0.0,0.0,0.0,0.0,0.0,0.0,0.1251094002079232,0.0,0.0,0.0,0.0,0.0,0.0,-13.604,0.0,0.0,0.0
436,0.0,0.0,0.0,-0.049611328125,0.0,0.0,0.0,0.0,0.0,0.0,0.568,0.0,0.0,0.0,0.0,0.0,0.0,0.13387791517167044,0.0,0.0,0.0,0.0,0.0,0.0,-13.536,0.0,0.0,0.0
437,0.0,0.0,0.0,-0.043673828125,0.0,0.0,0.0,0.0,0.0,0.0,0.596,0.0,0.0,0.0,0.0,0.0,0.0,0.14265479047452106,0.0,0.0,0.0,0.0,0.0,0.0,-13.696,0.0,0.0,0.0
438,0.0,0.0,0.0,-0.0381689453125,0.0,0.0,0.0,0.0,0.0,0.0,0.578,0.0,0.0,0.0,0.0,0.0,0.0,0.1514195684803336,0.0,0.0,0.0,0.0,0.0,0.0,-13.836,0.0,0.0,0.0
439,0.0,0.0,0.0,-0.0322314453125,0.0,0.0,0.0,0.0,0.0,0.0,0.574,0.0,0.0,0.0,0.0,0.0,0.0,0.1600242368681755,0.0,0.0,0.0,0.0,0.0,0.0,-14.248,0.0,0.0,0.0
440,0.0,0.0,0.0,-0.0264296875,0.0,0.0,0.0,0.0,0.0,0.0,0.602,0.0,0.0,0.0,0.0,0.0,0.0,0.16866692658440838,0.0,0.0,0.0,0.0,0.0,0.0,-14.864,0.0,0.0,0.0
441,0.0,0.0,0.0,-0.0204921875,0.0,0.0,0.0,0.0,0.0,0.0,0.575,0.0,0.0,0.0,0.0,0.0,0.0,0.1774462255447186,0.0,0.0,0.0,0.0,0.0,0.0,-14.796,0.0,0.0,0.0
442,0.0,0.0,0.0,-0.0142666015625,0.0,0.0,0.0,0.0,0.0,0.0,0.605,0.0,0.0,0.0,0.0,0.0,0.0,0.18594805976213172,0.0,0.0,0.0,0.0,0.0,0.0,-14.52,0.0,0.0,0.0
443,0.0,0.0,0.0,-0.0086171875,0.0,0.0,0.0,0.0,0.0,0.0,0.607,0.0,0.0,0.0,0.0,0.0,0.0,0.19442421740667523,0.0,0.0,0.0,0.0,0.0,0.0,-13.996,0.0,0.0,0.0
444,0.0,0.0,0.0,-0.0025361328125,0.0,0.0,0.0,0.0,0.0,0.0,0.581,0.0,0.0,0.0,0.0,0.0,0.0,0.20297658194793947,0.0,0.0,0.0,0.0,0.0,0.0,-13.696,0.0,0.0,0.0
445,0.0,0.0,0.0,0.003255859375,0.0,0.0,0.0,0.0,0.0,0.0,0.603,0.0,0.0,0.0,0.0,0.0,0.0,0.2113392442528308,0.0,0.0,0.0,0.0,0.0,0.0,-14.016,0.0,0.0,0.0
446,0.0,0.0,0.0,0.0089052734375,0.0,0.0,0.0,0.0,0.0,0.0,0.577,0.0,0.0,0.0,0.0,0.0,0.0,0.21970161986609052,0.0,0.0,0.0,0.0,0.0,0.0,-13.56,0.0,0.0,0.0
447,0.0,0.0,0.0,0.0148515625,0.0,0.0,0.0,0.0,0.0,0.0,0.582,0.0,0.0,0.0,0.0,0.0,0.0,0.22820135470607417,0.0,0.0,0.0,0.0,0.0,0.0,-13.744,0.0,0.0,0.0
448,0.0,0.0,0.0,0.02064453125,0.0,0.0,0.0,0.0,0.0,0.0,0.597,0.0,0.0,0.0,0.0,0.0,0.0,0.23636903510473098,0.0,0.0,0.0,0.0,0.0,0.0,-13.788,0.0,0.0,0.0
449,0.0,0.0,0.0,0.0264375,0.0,0.0,0.0,0.0,0.0,0.0,0.571,0.0,0.0,0.0,0.0,0.0,0.0,0.2445955092542553,0.0,0.0,0.0,0.0,0.0,0.0,-13.788,0.0,0.0,0.0
450,0.0,0.0,0.0,0.032375,0.0,0.0,0.0,0.0,0.0,0.0,0.594,0.0,0.0,0.0,0.0,0.0,0.0,0.2528576906279089,0.0,0.0,0.0,0.0,0.0,0.0,-14.636,0.0,0.0,0.0
451,0.0,0.0,0.0,0.0381767578125,0.0,0.0,0.0,0.0,0.0,0.0,0.592,0.0,0.0,0.0,0.0,0.0,0.0,0.26097290571077986,0.0,0.0,0.0,0.0,0.0,0.0,-14.976,0.0,0.0,0.0
452,0.0,0.0,0.0,0.0441142578125,0.0,0.0,0.0,0.0,0.0,0.0,0.584,0.0,0.0,0.0,0.0,0.0,0.0,0.26903848305818706,0.0,0.0,0.0,0.0,0.0,0.0,-14.796,0.0,0.0,0.0
453,0.0,0.0,0.0,0.0501962890625,0.0,0.0,0.0,0.0,0.0,0.0,0.609,0.0,0.0,0.0,0.0,0.0,0.0,0.2770979041348643,0.0,0.0,0.0,0.0,0.0,0.0,-14.064,0.0,0.0,0.0
454,0.0,0.0,0.0,0.0558447265625,0.0,0.0,0.0,0.0,0.0,0.0,0.591,0.0,0.0,0.0,0.0,0.0,0.0,0.28499362802381356,0.0,0.0,0.0,0.0,0.0,0.0,-13.604,0.0,0.0,0.0
455,0.0,0.0,0.0,0.0619267578125,0.0,0.0,0.0,0.0,0.0,0.0,0.585,0.0,0.0,0.0,0.0,0.0,0.0,0.2928789387954656,0.0,0.0,0.0,0.0,0.0,0.0,-13.88,0.0,0.0,0.0
456,0.0,0.0,0.0,0.0675751953125,0.0,0.0,0.0,0.0,0.0,0.0,0.599,0.0,0.0,0.0,0.0,0.0,0.0,0.3007644921000859,0.0,0.0,0.0,0.0,0.0,0.0,-13.836,0.0,0.0,0.0
457,0.0,0.0,0.0,0.0733681640625,0.0,0.0,0.0,0.0,0.0,0.0,0.572,0.0,0.0,0.0,0.0,0.0,0.0,0.30854261455669774,0.0,0.0,0.0,0.0,0.0,0.0,-13.652,0.0,0.0,0.0
458,0.0,0.0,0.0,0.079458984375,0.0,0.0,0.0,0.0,0.0,0.0,0.59,0.0,0.0,0.0,0.0,0.0,0.0,0.31618285271489344,0.0,0.0,0.0,0.0,0.0,0.0,-13.516,0.0,0.0,0.0
459,0.0,0.0,0.0,0.084962890625,0.0,0.0,0.0,0.0,0.0,0.0,0.594,0.0,0.0,0.0,0.0,0.0,0.0,0.32386042467553716,0.0,0.0,0.0,0.0,0.0,0.0,-13.812,0.0,0.0,0.0
460,0.0,0.0,0.0,0.090900390625,0.0,0.0,0.0,0.0,0.0,0.0,0.57,0.0,0.0,0.0,0.0,0.0,0.0,0.3313984178921471,0.0,0.0,0.0,0.0,0.0,0.0,-14.176,0.0,0.0,0.0
461,0.0,0.0,0.0,0.09684765625,0.0,0.0,0.0,0.0,0.0,0.0,0.6,0.0,0.0,0.0,0.0,0.0,0.0,0.33878254420740306,0.0,0.0,0.0,0.0,0.0,0.0,-14.816,0.0,0.0,0.0
462,0.0,0.0,0.0,0.1024873046875,0.0,0.0,0.0,0.0,0.0,0.0,0.58,0.0,0.0,0.0,0.0,0.0,0.0,0.3462060216364846,0.0,0.0,0.0,0.0,0.0,0.0,-14.956,0.0,0.0,0.0
463,0.0,0.0,0.0,0.108712890625,0.0,0.0,0.0,0.0,0.0,0.0,0.586,0.0,0.0,0.0,0.0,0.0,0.0,0.3536184955883164,0.0,0.0,0.0,0.0,0.0,0.0,-14.428,0.0,0.0,0.0
464,0.0,0.0,0.0,0.114650390625,0.0,0.0,0.0,0.0,0.0,0.0,0.621,0.0,0.0,0.0,0.0,0.0,0.0,0.36069904902494254,0.0,0.0,0.0,0.0,0.0,0.0,-13.696,0.0,0.0,0.0
465,0.0,0.0,0.0,0.1204521484375,0.0,0.0,0.0,0.0,0.0,0.0,0.584,0.0,0.0,0.0,0.0,0.0,0.0,0.3678986295439156,0.0,0.0,0.0,0.0,0.0,0.0,-13.492,0.0,0.0,0.0
466,0.0,0.0,0.0,0.1263896484375,0.0,0.0,0.0,0.0,0.0,0.0,0.596,0.0,0.0,0.0,0.0,0.0,0.0,0.375057184250422,0.0,0.0,0.0,0.0,0.0,0.0,-13.764,0.0,0.0,0.0
467,0.0,0.0,0.0,0.1321826171875,0.0,0.0,0.0,0.0,0.0,0.0,0.59,0.0,0.0,0.0,0.0,0.0,0.0,0.3818960220564776,0.0,0.0,0.0,0.0,0.0,0.0,-13.628,0.0,0.0,0.0
468,0.0,0.0,0.0,0.1379755859375,0.0,0.0,0.0,0.0,0.0,0.0,0.577,0.0,0.0,0.0,0.0,0.0,0.0,0.38880658953210945,0.0,0.0,0.0,0.0,0.0,0.0,-13.332,0.0,0.0,0.0
469,0.0,0.0,0.0,0.1439130859375,0.0,0.0,0.0,0.0,0.0,0.0,0.599,0.0,0.0,0.0,0.0,0.0,0.0,0.3956409791483372,0.0,0.0,0.0,0.0,0.0,0.0,-13.376,0.0,0.0,0.0
470,0.0,0.0,0.0,0.1495625,0.0,0.0,0.0,0.0,0.0,0.0,0.579,0.0,0.0,0.0,0.0,0.0,0.0,0.4023042251615213,0.0,0.0,0.0,0.0,0.0,0.0,-13.788,0.0,0.0,0.0
471,0.0,0.0,0.0,0.1554990234375,0.0,0.0,0.0,0.0,0.0,0.0,0.581,0.0,0.0,0.0,0.0,0.0,0.0,0.4089529533839198,0.0,0.0,0.0,0.0,0.0,0.0,-14.2,0.0,0.0,0.0
472,0.0,0.0,0.0,0.1613017578125,0.0,0.0,0.0,0.0,0.0,0.0,0.593,0.0,0.0,0.0,0.0,0.0,0.0,0.415500211966013,0.0,0.0,0.0,0.0,0.0,0.0,-14.636,0.0,0.0,0.0
473,0.0,0.0,0.0,0.1672392578125,0.0,0.0,0.0,0.0,0.0,0.0,0.587,0.0,0.0,0.0,0.0,0.0,0.0,0.42194979112368125,0.0,0.0,0.0,0.0,0.0,0.0,-14.52,0.0,0.0,0.0
474,0.0,0.0,0.0,0.17346484375,0.0,0.0,0.0,0.0,0.0,0.0,0.61,0.0,0.0,0.0,0.0,0.0,0.0,0.42827847310898787,0.0,0.0,0.0,0.0,0.0,0.0,-13.924,0.0,0.0,0.0
475,0.0,0.0,0.0,0.179267578125,0.0,0.0,0.0,0.0,0.0,0.0,0.608,0.0,0.0,0.0,0.0,0.0,0.0,0.43467095145016627,0.0,0.0,0.0,0.0,0.0,0.0,-13.676,0.0,0.0,0.0
476,0.0,0.0,0.0,0.185060546875,0.0,0.0,0.0,0.0,0.0,0.0,0.583,0.0,0.0,0.0,0.0,0.0,0.0,0.44069689753431024,0.0,0.0,0.0,0.0,0.0,0.0,-13.676,0.0,0.0,0.0
477,0.0,0.0,0.0,0.190998046875,0.0,0.0,0.0,0.0,0.0,0.0,0.593,0.0,0.0,0.0,0.0,0.0,0.0,0.44675533002735024,0.0,0.0,0.0,0.0,0.0,0.0,-13.696,0.0,0.0,0.0
478,0.0,0.0,0.0,0.1966552734375,0.0,0.0,0.0,0.0,0.0,0.0,0.576,0.0,0.0,0.0,0.0,0.0,0.0,0.4528046014947238,0.0,0.0,0.0,0.0,0.0,0.0,-13.492,0.0,0.0,0.0
479,0.0,0.0,0.0,0.2025927734375,0.0,0.0,0.0,0.0,0.0,0.0,0.589,0.0,0.0,0.0,0.0,0.0,0.0,0.4585967644789655,0.0,0.0,0.0,0.0,0.0,0.0,-13.332,0.0,0.0,0.0
480,0.0,0.0,0.0,0.208376953125,0.0,0.0,0.0,0.0,0.0,0.0,0.586,0.0,0.0,0.0,0.0,0.0,0.0,0.46433535414037824,0.0,0.0,0.0,0.0,0.0,0.0,-13.4,0.0,0.0,0.0
481,0.0,0.0,0.0,0.214169921875,0.0,0.0,0.0,0.0,0.0,0.0,0.582,0.0,0.0,0.0,0.0,0.0,0.0,0.4700554419297803,0.0,0.0,0.0,0.0,0.0,0.0,-13.696,0.0,0.0,0.0
482,0.0,0.0,0.0,0.2201162109375,0.0,0.0,0.0,0.0,0.0,0.0,0.594,0.0,0.0,0.0,0.0,0.0,0.0,0.47557766168102616,0.0,0.0,0.0,0.0,0.0,0.0,-14.476,0.0,0.0,0.0
483,0.0,0.0,0.0,0.2259091796875,0.0,0.0,0.0,0.0,0.0,0.0,0.586,0.0,0.0,0.0,0.0,0.0,0.0,0.48097626448339953,0.0,0.0,0.0,0.0,0.0,0.0,-14.728,0.0,0.0,0.0
484,0.0,0.0,0.0,0.2319912109375,0.0,0.0,0.0,0.0,0.0,0.0,0.59,0.0,0.0,0.0,0.0,0.0,0.0,0.4863693493435802,0.0,0.0,0.0,0.0,0.0,0.0,-14.156,0.0,0.0,0.0
485,0.0,0.0,0.0,0.23808203125,0.0,0.0,0.0,0.0,0.0,0.0,0.611,0.0,0.0,0.0,0.0,0.0,0.0,0.491506257425578,0.0,0.0,0.0,0.0,0.0,0.0,-13.332,0.0,0.0,0.0
486,0.0,0.0,0.0,0.243875,0.0,0.0,0.0,0.0,0.0,0.0,0.596,0.0,0.0,0.0,0.0,0.0,0.0,0.4965813206928954,0.0,0.0,0.0,0.0,0.0,0.0,-13.4,0.0,0.0,0.0
487,0.0,0.0,0.0,0.24966796875,0.0,0.0,0.0,0.0,0.0,0.0,0.589,0.0,0.0,0.0,0.0,0.0,0.0,0.5017182709862059,0.0,0.0,0.0,0.0,0.0,0.0,-13.4,0.0,0.0,0.0
488,0.0,0.0,0.0,0.2556142578125,0.0,0.0,0.0,0.0,0.0,0.0,0.593,0.0,0.0,0.0,0.0,0.0,0.0,0.5064837576486191,0.0,0.0,0.0,0.0,0.0,0.0,-13.216,0.0,0.0,0.0
489,0.0,0.0,0.0,0.2614072265625,0.0,0.0,0.0,0.0,0.0,0.0,0.584,0.0,0.0,0.0,0.0,0.0,0.0,0.5112304771006386,0.0,0.0,0.0,0.0,0.0,0.0,-13.216,0.0,0.0,0.0
490,0.0,0.0,0.0,0.2672001953125,0.0,0.0,0.0,0.0,0.0,0.0,0.588,0.0,0.0,0.0,0.0,0.0,0.0,0.5159348573084214,0.0,0.0,0.0,0.0,0.0,0.0,-13.104,0.0,0.0,0.0
491,0.0,0.0,0.0,0.272984375,0.0,0.0,0.0,0.0,0.0,0.0,0.582,0.0,0.0,0.0,0.0,0.0,0.0,0.5204392222092199,0.0,0.0,0.0,0.0,0.0,0.0,-13.424,0.0,0.0,0.0
492,0.0,0.0,0.0,0.2789306640625,0.0,0.0,0.0,0.0,0.0,0.0,0.588,0.0,0.0,0.0,0.0,0.0,0.0,0.5248459248690094,0.0,0.0,0.0,0.0,0.0,0.0,-13.904,0.0,0.0,0.0
493,0.0,0.0,0.0,0.2847236328125,0.0,0.0,0.0,0.0,0.0,0.0,0.593,0.0,0.0,0.0,0.0,0.0,0.0,0.5292044273517797,0.0,0.0,0.0,0.0,0.0,0.0,-14.2,0.0,0.0,0.0
494,0.0,0.0,0.0,0.2906611328125,0.0,0.0,0.0,0.0,0.0,0.0,0.587,0.0,0.0,0.0,0.0,0.0,0.0,0.533377202654194,0.0,0.0,0.0,0.0,0.0,0.0,-14.428,0.0,0.0,0.0
495,0.0,0.0,0.0,0.296751953125,0.0,0.0,0.0,0.0,0.0,0.0,0.603,0.0,0.0,0.0,0.0,0.0,0.0,0.5374056657425392,0.0,0.0,0.0,0.0,0.0,0.0,-13.628,0.0,0.0,0.0
496,0.0,0.0,0.0,0.302689453125,0.0,0.0,0.0,0.0,0.0,0.0,0.61,0.0,0.0,0.0,0.0,0.0,0.0,0.5413784116154488,0.0,0.0,0.0,0.0,0.0,0.0,-13.24,0.0,0.0,0.0
497,0.0,0.0,0.0,0.308626953125,0.0,0.0,0.0,0.0,0.0,0.0,0.59,0.0,0.0,0.0,0.0,0.0,0.0,0.5451913838956303,0.0,0.0,0.0,0.0,0.0,0.0,-13.056,0.0,0.0,0.0
498,0.0,0.0,0.0,0.3144287109375,0.0,0.0,0.0,0.0,0.0,0.0,0.593,0.0,0.0,0.0,0.0,0.0,0.0,0.5488675211111336,0.0,0.0,0.0,0.0,0.0,0.0,-13.192,0.0,0.0,0.0
499,0.0,0.0,0.0,0.3202216796875,0.0,0.0,0.0,0.0,0.0,0.0,0.583,0.0,0.0,0.0,0.0,0.0,0.0,0.5525013194363869,0.0,0.0,0.0,0.0,0.0,0.0,-13.172,0.0,0.0,0.0
500,0.0,0.0,0.0,0.3261591796875,0.0,0.0,0.0,0.0,0.0,0.0,0.589,0.0,0.0,0.0,0.0,0.0,0.0,0.5559353540133611,0.0,0.0,0.0,0.0,0.0,0.0,-12.92,0.0,0.0,0.0
501,0.0,0.0,0.0,0.3319521484375,0.0,0.0,0.0,0.0,0.0,0.0,0.592,0.0,0.0,0.0,0.0,0.0,0.0,0.5592263906130066,0.0,0.0,0.0,0.0,0.0,0.0,-12.92,0.0,0.0,0.0
502,0.0,0.0,0.0,0.3377451171875,0.0,0.0,0.0,0.0,0.0,0.0,0.583,0.0,0.0,0.0,0.0,0.0,0.0,0.5624275990496252,0.0,0.0,0.0,0.0,0.0,0.0,-13.216,0.0,0.0,0.0
503,0.0,0.0,0.0,0.3436826171875,0.0,0.0,0.0,0.0,0.0,0.0,0.586,0.0,0.0,0.0,0.0,0.0,0.0,0.565498137846898,0.0,0.0,0.0,0.0,0.0,0.0,-13.856,0.0,0.0,0.0
504,0.0,0.0,0.0,0.3494755859375,0.0,0.0,0.0,0.0,0.0,0.0,0.593,0.0,0.0,0.0,0.0,0.0,0.0,0.5684155509837575,0.0,0.0,0.0,0.0,0.0,0.0,-14.108,0.0,0.0,0.0
505,0.0,0.0,0.0,0.355421875,0.0,0.0,0.0,0.0,0.0,0.0,0.59,0.0,0.0,0.0,0.0,0.0,0.0,0.5712501126748727,0.0,0.0,0.0,0.0,0.0,0.0,-13.812,0.0,0.0,0.0
506,0.0,0.0,0.0,0.36150390625,0.0,0.0,0.0,0.0,0.0,0.0,0.608,0.0,0.0,0.0,0.0,0.0,0.0,0.573943227335776,0.0,0.0,0.0,0.0,0.0,0.0,-13.032,0.0,0.0,0.0
507,0.0,0.0,0.0,0.36744140625,0.0,0.0,0.0,0.0,0.0,0.0,0.605,0.0,0.0,0.0,0.0,0.0,0.0,0.5764955413852266,0.0,0.0,0.0,0.0,0.0,0.0,-12.872,0.0,0.0,0.0
508,0.0,0.0,0.0,0.3733876953125,0.0,0.0,0.0,0.0,0.0,0.0,0.589,0.0,0.0,0.0,0.0,0.0,0.0,0.5789256976349968,0.0,0.0,0.0,0.0,0.0,0.0,-12.76,0.0,0.0,0.0
509,0.0,0.0,0.0,0.37902734375,0.0,0.0,0.0,0.0,0.0,0.0,0.583,0.0,0.0,0.0,0.0,0.0,0.0,0.5812328663822354,0.0,0.0,0.0,0.0,0.0,0.0,-12.712,0.0,0.0,0.0
510,0.0,0.0,0.0,0.38496484375,0.0,0.0,0.0,0.0,0.0,0.0,0.589,0.0,0.0,0.0,0.0,0.0,0.0,0.5833852074738284,0.0,0.0,0.0,0.0,0.0,0.0,-12.828,0.0,0.0,0.0
511,0.0,0.0,0.0,0.3907666015625,0.0,0.0,0.0,0.0,0.0,0.0,0.587,0.0,0.0,0.0,0.0,0.0,0.0,0.5854235990454806,0.0,0.0,0.0,0.0,0.0,0.0,-12.576,0.0,0.0,0.0
512,0.0,0.0,0.0,0.396560546875,0.0,0.0,0.0,0.0,0.0,0.0,0.583,0.0,0.0,0.0,0.0,0.0,0.0,0.5873652329388915,0.0,0.0,0.0,0.0,0.0,0.0,-12.828,0.0,0.0,0.0
513,0.0,0.0,0.0,0.4024970703125,0.0,0.0,0.0,0.0,0.0,0.0,0.589,0.0,0.0,0.0,0.0,0.0,0.0,0.5891083872176526,0.0,0.0,0.0,0.0,0.0,0.0,-13.172,0.0,0.0,0.0
514,0.0,0.0,0.0,0.40828125,0.0,0.0,0.0,0.0,0.0,0.0,0.592,0.0,0.0,0.0,0.0,0.0,0.0,0.5907487676476468,0.0,0.0,0.0,0.0,0.0,0.0,-13.72,0.0,0.0,0.0
515,0.0,0.0,0.0,0.4142275390625,0.0,0.0,0.0,0.0,0.0,0.0,0.588,0.0,0.0,0.0,0.0,0.0,0.0,0.5922750402766617,0.0,0.0,0.0,0.0,0.0,0.0,-14.016,0.0,0.0,0.0
516,0.0,0.0,0.0,0.4203095703125,0.0,0.0,0.0,0.0,0.0,0.0,0.601,0.0,0.0,0.0,0.0,0.0,0.0,0.5936296155005701,0.0,0.0,0.0,0.0,0.0,0.0,-13.172,0.0,0.0,0.0
517,0.0,0.0,0.0,0.4262470703125,0.0,0.0,0.0,0.0,0.0,0.0,0.607,0.0,0.0,0.0,0.0,0.0,0.0,0.5948697227026277,0.0,0.0,0.0,0.0,0.0,0.0,-12.624,0.0,0.0,0.0
518,0.0,0.0,0.0,0.432048828125,0.0,0.0,0.0,0.0,0.0,0.0,0.594,0.0,0.0,0.0,0.0,0.0,0.0,0.5960061677595053,0.0,0.0,0.0,0.0,0.0,0.0,-12.532,0.0,0.0,0.0
519,0.0,0.0,0.0,0.437986328125,0.0,0.0,0.0,0.0,0.0,0.0,0.591,0.0,0.0,0.0,0.0,0.0,0.0,0.5969549786457461,0.0,0.0,0.0,0.0,0.0,0.0,-12.692,0.0,0.0,0.0
520,0.0,0.0,0.0,0.443779296875,0.0,0.0,0.0,0.0,0.0,0.0,0.59,0.0,0.0,0.0,0.0,0.0,0.0,0.5977987668644288,0.0,0.0,0.0,0.0,0.0,0.0,-12.6,0.0,0.0,0.0
521,0.0,0.0,0.0,0.4497080078125,0.0,0.0,0.0,0.0,0.0,0.0,0.59,0.0,0.0,0.0,0.0,0.0,0.0,0.598508308987442,0.0,0.0,0.0,0.0,0.0,0.0,-12.348,0.0,0.0,0.0
522,0.0,0.0,0.0,0.4555009765625,0.0,0.0,0.0,0.0,0.0,0.0,0.591,0.0,0.0,0.0,0.0,0.0,0.0,0.5990648721846753,0.0,0.0,0.0,0.0,0.0,0.0,-12.256,0.0,0.0,0.0
523,0.0,0.0,0.0,0.4612939453125,0.0,0.0,0.0,0.0,0.0,0.0,0.582,0.0,0.0,0.0,0.0,0.0,0.0,0.5994991198219864,0.0,0.0,0.0,0.0,0.0,0.0,-12.532,0.0,0.0,0.0
524,0.0,0.0,0.0,0.467240234375,0.0,0.0,0.0,0.0,0.0,0.0,0.587,0.0,0.0,0.0,0.0,0.0,0.0,0.5998020707970663,0.0,0.0,0.0,0.0,0.0,0.0,-13.124,0.0,0.0,0.0
525,0.0,0.0,0.0,0.473033203125,0.0,0.0,0.0,0.0,0.0,0.0,0.593,0.0,0.0,0.0,0.0,0.0,0.0,0.5999652561172724,0.0,0.0,0.0,0.0,0.0,0.0,-13.4,0.0,0.0,0.0
526,0.0,0.0,0.0,0.4789619140625,0.0,0.0,0.0,0.0,0.0,0.0,0.588,0.0,0.0,0.0,0.0,0.0,0.0,0.5999948378146908,0.0,0.0,0.0,0.0,0.0,0.0,-13.308,0.0,0.0,0.0
527,0.0,0.0,0.0,0.4850439453125,0.0,0.0,0.0,0.0,0.0,0.0,0.604,0.0,0.0,0.0,0.0,0.0,0.0,0.59988754551696,0.0,0.0,0.0,0.0,0.0,0.0,-12.392,0.0,0.0,0.0
528,0.0,0.0,0.0,0.490990234375,0.0,0.0,0.0,0.0,0.0,0.0,0.601,0.0,0.0,0.0,0.0,0.0,0.0,0.5996484522404081,0.0,0.0,0.0,0.0,0.0,0.0,-11.868,0.0,0.0,0.0
529,0.0,0.0,0.0,0.496783203125,0.0,0.0,0.0,0.0,0.0,0.0,0.593,0.0,0.0,0.0,0.0,0.0,0.0,0.5992759270469283,0.0,0.0,0.0,0.0,0.0,0.0,-12.232,0.0,0.0,0.0
530,0.0,0.0,0.0,0.502576171875,0.0,0.0,0.0,0.0,0.0,0.0,0.584,0.0,0.0,0.0,0.0,0.0,0.0,0.5987582970189935,0.0,0.0,0.0,0.0,0.0,0.0,-12.004,0.0,0.0,0.0
531,0.0,0.0,0.0,0.508513671875,0.0,0.0,0.0,0.0,0.0,0.0,0.591,0.0,0.0,0.0,0.0,0.0,0.0,0.5981114613148321,0.0,0.0,0.0,0.0,0.0,0.0,-12.12,0.0,0.0,0.0
532,0.0,0.0,0.0,0.514451171875,0.0,0.0,0.0,0.0,0.0,0.0,0.596,0.0,0.0,0.0,0.0,0.0,0.0,0.5973401619232203,0.0,0.0,0.0,0.0,0.0,0.0,-11.8,0.0,0.0,0.0
533,0.0,0.0,0.0,0.520244140625,0.0,0.0,0.0,0.0,0.0,0.0,0.592,0.0,0.0,0.0,0.0,0.0,0.0,0.5964133398455591,0.0,0.0,0.0,0.0,0.0,0.0,-12.12,0.0,0.0,0.0
534,0.0,0.0,0.0,0.5260458984375,0.0,0.0,0.0,0.0,0.0,0.0,0.583,0.0,0.0,0.0,0.0,0.0,0.0,0.5953770906401812,0.0,0.0,0.0,0.0,0.0,0.0,-12.348,0.0,0.0,0.0
535,0.0,0.0,0.0,0.531974609375,0.0,0.0,0.0,0.0,0.0,0.0,0.586,0.0,0.0,0.0,0.0,0.0,0.0,0.5942041947341348,0.0,0.0,0.0,0.0,0.0,0.0,-12.988,0.0,0.0,0.0
536,0.0,0.0,0.0,0.537767578125,0.0,0.0,0.0,0.0,0.0,0.0,0.592,0.0,0.0,0.0,0.0,0.0,0.0,0.592874249184141,0.0,0.0,0.0,0.0,0.0,0.0,-13.104,0.0,0.0,0.0
537,0.0,0.0,0.0,0.5438583984375,0.0,0.0,0.0,0.0,0.0,0.0,0.597,0.0,0.0,0.0,0.0,0.0,0.0,0.5914096554388776,0.0,0.0,0.0,0.0,0.0,0.0,-12.44,0.0,0.0,0.0
538,0.0,0.0,0.0,0.5499404296875,0.0,0.0,0.0,0.0,0.0,0.0,0.607,0.0,0.0,0.0,0.0,0.0,0.0,0.5898567094375934,0.0,0.0,0.0,0.0,0.0,0.0,-11.592,0.0,0.0,0.0
539,0.0,0.0,0.0,0.555724609375,0.0,0.0,0.0,0.0,0.0,0.0,0.601,0.0,0.0,0.0,0.0,0.0,0.0,0.5881273671458072,0.0,0.0,0.0,0.0,0.0,0.0,-11.708,0.0,0.0,0.0
540,0.0,0.0,0.0,0.5616611328125,0.0,0.0,0.0,0.0,0.0,0.0,0.593,0.0,0.0,0.0,0.0,0.0,0.0,0.5862868008471673,0.0,0.0,0.0,0.0,0.0,0.0,-12.004,0.0,0.0,0.0
541,0.0,0.0,0.0,0.5674638671875,0.0,0.0,0.0,0.0,0.0,0.0,0.589,0.0,0.0,0.0,0.0,0.0,0.0,0.5843159295210935,0.0,0.0,0.0,0.0,0.0,0.0,-11.8,0.0,0.0,0.0
542,0.0,0.0,0.0,0.5734013671875,0.0,0.0,0.0,0.0,0.0,0.0,0.592,0.0,0.0,0.0,0.0,0.0,0.0,0.5821852257520088,0.0,0.0,0.0,0.0,0.0,0.0,-11.684,0.0,0.0,0.0
543,0.0,0.0,0.0,0.579185546875,0.0,0.0,0.0,0.0,0.0,0.0,0.588,0.0,0.0,0.0,0.0,0.0,0.0,0.5799527234294307,0.0,0.0,0.0,0.0,0.0,0.0,-11.752,0.0,0.0,0.0
544,0.0,0.0,0.0,0.58412109375,0.0,0.0,0.0,0.0,0.0,0.0,0.554,0.0,0.0,0.0,0.0,0.0,0.0,0.5776014636193741,0.0,0.0,0.0,0.0,0.0,0.0,-13.536,0.0,0.0,0.0
545,0.0,0.0,0.0,0.587162109375,0.0,0.0,0.0,0.0,0.0,0.0,0.421,0.0,0.0,0.0,0.0,0.0,0.0,0.5750886417744981,0.0,0.0,0.0,0.0,0.0,0.0,-15.868,0.0,0.0,0.0
546,0.0,0.0,0.0,0.5884609375,0.0,0.0,0.0,0.0,0.0,0.0,0.245,0.0,0.0,0.0,0.0,0.0,0.0,0.5724544254425661,0.0,0.0,0.0,0.0,0.0,0.0,-18.384,0.0,0.0,0.0
547,0.0,0.0,0.0,0.5881728515625,0.0,0.0,0.0,0.0,0.0,0.0,0.057,0.0,0.0,0.0,0.0,0.0,0.0,0.5697074629399141,0.0,0.0,0.0,0.0,0.0,0.0,-18.364,0.0,0.0,0.0
548,0.0,0.0,0.0,0.5874501953125,0.0,0.0,0.0,0.0,0.0,0.0,-0.053,0.0,0.0,0.0,0.0,0.0,0.0,0.5668090084159977,0.0,0.0,0.0,0.0,0.0,0.0,-17.356,0.0,0.0,0.0
549,0.0,0.0,0.0,0.585998046875,0.0,0.0,0.0,0.0,0.0,0.0,-0.093,0.0,0.0,0.0,0.0,0.0,0.0,0.5637783355689773,0.0,0.0,0.0,0.0,0.0,0.0,-17.404,0.0,0.0,0.0
550,0.0,0.0,0.0,0.58412109375,0.0,0.0,0.0,0.0,0.0,0.0,-0.169,0.0,0.0,0.0,0.0,0.0,0.0,0.5606506781855688,0.0,0.0,0.0,0.0,0.0,0.0,-17.332,0.0,0.0,0.0
551,0.0,0.0,0.0,0.5818017578125,0.0,0.0,0.0,0.0,0.0,0.0,-0.206,0.0,0.0,0.0,0.0,0.0,0.0,0.557371158266371,0.0,0.0,0.0,0.0,0.0,0.0,-18.844,0.0,0.0,0.0
552,0.0,0.0,0.0,0.578751953125,0.0,0.0,0.0,0.0,0.0,0.0,-0.264,0.0,0.0,0.0,0.0,0.0,0.0,0.5539380361743976,0.0,0.0,0.0,0.0,0.0,0.0,-19.232,0.0,0.0,0.0
553,0.0,0.0,0.0,0.57556640625,0.0,0.0,0.0,0.0,0.0,0.0,-0.312,0.0,0.0,0.0,0.0,0.0,0.0,0.5504394869325663,0.0,0.0,0.0,0.0,0.0,0.0,-18.316,0.0,0.0,0.0
554,0.0,0.0,0.0,0.5716591796875,0.0,0.0,0.0,0.0,0.0,0.0,-0.353,0.0,0.0,0.0,0.0,0.0,0.0,0.5468137408196838,0.0,0.0,0.0,0.0,0.0,0.0,-17.608,0.0,0.0,0.0
555,0.0,0.0,0.0,0.5673193359375,0.0,0.0,0.0,0.0,0.0,0.0,-0.413,0.0,0.0,0.0,0.0,0.0,0.0,0.5429965094290772,0.0,0.0,0.0,0.0,0.0,0.0,-16.692,0.0,0.0,0.0
556,0.0,0.0,0.0,0.563123046875,0.0,0.0,0.0,0.0,0.0,0.0,-0.426,0.0,0.0,0.0,0.0,0.0,0.0,0.5391324662472808,0.0,0.0,0.0,0.0,0.0,0.0,-16.556,0.0,0.0,0.0
557,0.0,0.0,0.0,0.5581875,0.0,0.0,0.0,0.0,0.0,0.0,-0.457,0.0,0.0,0.0,0.0,0.0,0.0,0.5351693610349577,0.0,0.0,0.0,0.0,0.0,0.0,-16.076,0.0,0.0,0.0
558,0.0,0.0,0.0,0.5528369140625,0.0,0.0,0.0,0.0,0.0,0.0,-0.515,0.0,0.0,0.0,0.0,0.0,0.0,0.5309751519807092,0.0,0.0,0.0,0.0,0.0,0.0,-15.868,0.0,0.0,0.0
559,0.0,0.0,0.0,0.5468994140625,0.0,0.0,0.0,0.0,0.0,0.0,-0.551,0.0,0.0,0.0,0.0,0.0,0.0,0.5267861952914925,0.0,0.0,0.0,0.0,0.0,0.0,-15.572,0.0,0.0,0.0
560,0.0,0.0,0.0,0.5416748046875,0.0,0.0,0.0,0.0,0.0,0.0,-0.585,0.0,0.0,0.0,0.0,0.0,0.0,0.5224413557228299,0.0,0.0,0.0,0.0,0.0,0.0,-13.4,0.0,0.0,0.0
561,0.0,0.0,0.0,0.5367568359375,0.0,0.0,0.0,0.0,0.0,0.0,-0.506,0.0,0.0,0.0,0.0,0.0,0.0,0.517897842455896,0.0,0.0,0.0,0.0,0.0,0.0,-14.04,0.0,0.0,0.0
562,0.0,0.0,0.0,0.5312529296875,0.0,0.0,0.0,0.0,0.0,0.0,-0.515,0.0,0.0,0.0,0.0,0.0,0.0,0.5133304243487123,0.0,0.0,0.0,0.0,0.0,0.0,-14.452,0.0,0.0,0.0
563,0.0,0.0,0.0,0.5254599609375,0.0,0.0,0.0,0.0,0.0,0.0,-0.571,0.0,0.0,0.0,0.0,0.0,0.0,0.5086177093809948,0.0,0.0,0.0,0.0,0.0,0.0,-14.268,0.0,0.0,0.0
564,0.0,0.0,0.0,0.5195224609375,0.0,0.0,0.0,0.0,0.0,0.0,-0.59,0.0,0.0,0.0,0.0,0.0,0.0,0.5037407625306148,0.0,0.0,0.0,0.0,0.0,0.0,-13.264,0.0,0.0,0.0
565,0.0,0.0,0.0,0.5138740234375,0.0,0.0,0.0,0.0,0.0,0.0,-0.586,0.0,0.0,0.0,0.0,0.0,0.0,0.49885151003691675,0.0,0.0,0.0,0.0,0.0,0.0,-11.936,0.0,0.0,0.0
566,0.0,0.0,0.0,0.508080078125,0.0,0.0,0.0,0.0,0.0,0.0,-0.575,0.0,0.0,0.0,0.0,0.0,0.0,0.4937784374350601,0.0,0.0,0.0,0.0,0.0,0.0,-10.748,0.0,0.0,0.0
567,0.0,0.0,0.0,0.5024228515625,0.0,0.0,0.0,0.0,0.0,0.0,-0.575,0.0,0.0,0.0,0.0,0.0,0.0,0.4885678987978753,0.0,0.0,0.0,0.0,0.0,0.0,-11.088,0.0,0.0,0.0
568,0.0,0.0,0.0,0.496783203125,0.0,0.0,0.0,0.0,0.0,0.0,-0.566,0.0,0.0,0.0,0.0,0.0,0.0,0.48332194438018644,0.0,0.0,0.0,0.0,0.0,0.0,-12.12,0.0,0.0,0.0
569,0.0,0.0,0.0,0.490701171875,0.0,0.0,0.0,0.0,0.0,0.0,-0.594,0.0,0.0,0.0,0.0,0.0,0.0,0.477958860417132,0.0,0.0,0.0,0.0,0.0,0.0,-12.484,0.0,0.0,0.0
570,0.0,0.0,0.0,0.485197265625,0.0,0.0,0.0,0.0,0.0,0.0,-0.595,0.0,0.0,0.0,0.0,0.0,0.0,0.4724247707197895,0.0,0.0,0.0,0.0,0.0,0.0,-11.432,0.0,0.0,0.0
571,0.0,0.0,0.0,0.4796923828125,0.0,0.0,0.0,0.0,0.0,0.0,-0.547,0.0,0.0,0.0,0.0,0.0,0.0,0.4667624932145948,0.0,0.0,0.0,0.0,0.0,0.0,-11.18,0.0,0.0,0.0
572,0.0,0.0,0.0,0.473755859375,0.0,0.0,0.0,0.0,0.0,0.0,-0.569,0.0,0.0,0.0,0.0,0.0,0.0,0.4611097730306776,0.0,0.0,0.0,0.0,0.0,0.0,-12.12,0.0,0.0,0.0
573,0.0,0.0,0.0,0.467818359375,0.0,0.0,0.0,0.0,0.0,0.0,-0.603,0.0,0.0,0.0,0.0,0.0,0.0,0.45532843608765095,0.0,0.0,0.0,0.0,0.0,0.0,-12.964,0.0,0.0,0.0
574,0.0,0.0,0.0,0.46216015625,0.0,0.0,0.0,0.0,0.0,0.0,-0.591,0.0,0.0,0.0,0.0,0.0,0.0,0.4494008749452408,0.0,0.0,0.0,0.0,0.0,0.0,-11.98,0.0,0.0,0.0
575,0.0,0.0,0.0,0.45651171875,0.0,0.0,0.0,0.0,0.0,0.0,-0.566,0.0,0.0,0.0,0.0,0.0,0.0,0.44338251726977695,0.0,0.0,0.0,0.0,0.0,0.0,-11.616,0.0,0.0,0.0
576,0.0,0.0,0.0,0.4507275390625,0.0,0.0,0.0,0.0,0.0,0.0,-0.573,0.0,0.0,0.0,0.0,0.0,0.0,0.4372580675822094,0.0,0.0,0.0,0.0,0.0,0.0,-11.136,0.0,0.0,0.0
577,0.0,0.0,0.0,0.4450791015625,0.0,0.0,0.0,0.0,0.0,0.0,-0.575,0.0,0.0,0.0,0.0,0.0,0.0,0.4310275658202917,0.0,0.0,0.0,0.0,0.0,0.0,-11.708,0.0,0.0,0.0
578,0.0,0.0,0.0,0.4391416015625,0.0,0.0,0.0,0.0,0.0,0.0,-0.582,0.0,0.0,0.0,0.0,0.0,0.0,0.42475785745804073,0.0,0.0,0.0,0.0,0.0,0.0,-12.944,0.0,0.0,0.0
579,0.0,0.0,0.0,0.4333486328125,0.0,0.0,0.0,0.0,0.0,0.0,-0.596,0.0,0.0,0.0,0.0,0.0,0.0,0.4182188572095895,0.0,0.0,0.0,0.0,0.0,0.0,-12.576,0.0,0.0,0.0
580,0.0,0.0,0.0,0.427853515625,0.0,0.0,0.0,0.0,0.0,0.0,-0.565,0.0,0.0,0.0,0.0,0.0,0.0,0.41175068811888693,0.0,0.0,0.0,0.0,0.0,0.0,-12.508,0.0,0.0,0.0
581,0.0,0.0,0.0,0.42205078125,0.0,0.0,0.0,0.0,0.0,0.0,-0.576,0.0,0.0,0.0,0.0,0.0,0.0,0.40527385768904745,0.0,0.0,0.0,0.0,0.0,0.0,-12.484,0.0,0.0,0.0
582,0.0,0.0,0.0,0.4168359375,0.0,0.0,0.0,0.0,0.0,0.0,-0.553,0.0,0.0,0.0,0.0,0.0,0.0,0.3986207899029413,0.0,0.0,0.0,0.0,0.0,0.0,-13.516,0.0,0.0,0.0
583,0.0,0.0,0.0,0.4111875,0.0,0.0,0.0,0.0,0.0,0.0,-0.54,0.0,0.0,0.0,0.0,0.0,0.0,0.3917351442691542,0.0,0.0,0.0,0.0,0.0,0.0,-14.636,0.0,0.0,0.0
584,0.0,0.0,0.0,0.4056826171875,0.0,0.0,0.0,0.0,0.0,0.0,-0.568,0.0,0.0,0.0,0.0,0.0,0.0,0.3849791266891775,0.0,0.0,0.0,0.0,0.0,0.0,-14.316,0.0,0.0,0.0
585,0.0,0.0,0.0,0.4003232421875,0.0,0.0,0.0,0.0,0.0,0.0,-0.545,0.0,0.0,0.0,0.0,0.0,0.0,0.378012805732713,0.0,0.0,0.0,0.0,0.0,0.0,-13.652,0.0,0.0,0.0
586,0.0,0.0,0.0,0.394818359375,0.0,0.0,0.0,0.0,0.0,0.0,-0.546,0.0,0.0,0.0,0.0,0.0,0.0,0.370989106162284,0.0,0.0,0.0,0.0,0.0,0.0,-13.356,0.0,0.0,0.0
587,0.0,0.0,0.0,0.389314453125,0.0,0.0,0.0,0.0,0.0,0.0,-0.558,0.0,0.0,0.0,0.0,0.0,0.0,0.36390856294294854,0.0,0.0,0.0,0.0,0.0,0.0,-13.628,0.0,0.0,0.0
588,0.0,0.0,0.0,0.383666015625,0.0,0.0,0.0,0.0,0.0,0.0,-0.561,0.0,0.0,0.0,0.0,0.0,0.0,0.35668481188417384,0.0,0.0,0.0,0.0,0.0,0.0,-13.924,0.0,0.0,0.0
589,0.0,0.0,0.0,0.377873046875,0.0,0.0,0.0,0.0,0.0,0.0,-0.568,0.0,0.0,0.0,0.0,0.0,0.0,0.34920084549115166,0.0,0.0,0.0,0.0,0.0,0.0,-14.224,0.0,0.0,0.0
590,0.0,0.0,0.0,0.3722236328125,0.0,0.0,0.0,0.0,0.0,0.0,-0.584,0.0,0.0,0.0,0.0,0.0,0.0,0.34202423561708817,0.0,0.0,0.0,0.0,0.0,0.0,-13.376,0.0,0.0,0.0
591,0.0,0.0,0.0,0.36656640625,0.0,0.0,0.0,0.0,0.0,0.0,-0.567,0.0,0.0,0.0,0.0,0.0,0.0,0.3345863276652124,0.0,0.0,0.0,0.0,0.0,0.0,-13.24,0.0,0.0,0.0
592,0.0,0.0,0.0,0.3607822265625,0.0,0.0,0.0,0.0,0.0,0.0,-0.574,0.0,0.0,0.0,0.0,0.0,0.0,0.32708580742859283,0.0,0.0,0.0,0.0,0.0,0.0,-14.224,0.0,0.0,0.0
593,0.0,0.0,0.0,0.3551337890625,0.0,0.0,0.0,0.0,0.0,0.0,-0.575,0.0,0.0,0.0,0.0,0.0,0.0,0.319513294685372,0.0,0.0,0.0,0.0,0.0,0.0,-14.772,0.0,0.0,0.0
594,0.0,0.0,0.0,0.3494755859375,0.0,0.0,0.0,0.0,0.0,0.0,-0.566,0.0,0.0,0.0,0.0,0.0,0.0,0.31187456359032106,0.0,0.0,0.0,0.0,0.0,0.0,-15.092,0.0,0.0,0.0
595,0.0,0.0,0.0,0.3436826171875,0.0,0.0,0.0,0.0,0.0,0.0,-0.581,0.0,0.0,0.0,0.0,0.0,0.0,0.30405790589029025,0.0,0.0,0.0,0.0,0.0,0.0,-14.132,0.0,0.0,0.0
596,0.0,0.0,0.0,0.3378896484375,0.0,0.0,0.0,0.0,0.0,0.0,-0.583,0.0,0.0,0.0,0.0,0.0,0.0,0.2963169156251084,0.0,0.0,0.0,0.0,0.0,0.0,-13.516,0.0,0.0,0.0
597,0.0,0.0,0.0,0.3320966796875,0.0,0.0,0.0,0.0,0.0,0.0,-0.583,0.0,0.0,0.0,0.0,0.0,0.0,0.28848793216117763,0.0,0.0,0.0,0.0,0.0,0.0,-13.744,0.0,0.0,0.0
598,0.0,0.0,0.0,0.3263037109375,0.0,0.0,0.0,0.0,0.0,0.0,-0.583,0.0,0.0,0.0,0.0,0.0,0.0,0.28042761105832326,0.0,0.0,0.0,0.0,0.0,0.0,-14.248,0.0,0.0,0.0
599,0.0,0.0,0.0,0.3203662109375,0.0,0.0,0.0,0.0,0.0,0.0,-0.587,0.0,0.0,0.0,0.0,0.0,0.0,0.27258820369538805,0.0,0.0,0.0,0.0,0.0,0.0,-14.108,0.0,0.0,0.0
600,0.0,0.0,0.0,0.3144287109375,0.0,0.0,0.0,0.0,0.0,0.0,-0.6,0.0,0.0,0.0,0.0,0.0,0.0,0.26455875931619016,0.0,0.0,0.0,0.0,0.0,0.0,-13.904,0.0,0.0,0.0
601,0.0,0.0,0.0,0.308482421875,0.0,0.0,0.0,0.0,0.0,0.0,-0.603,0.0,0.0,0.0,0.0,0.0,0.0,0.2564221471392243,0.0,0.0,0.0,0.0,0.0,0.0,-13.264,0.0,0.0,0.0
602,0.0,0.0,0.0,0.302400390625,0.0,0.0,0.0,0.0,0.0,0.0,-0.603,0.0,0.0,0.0,0.0,0.0,0.0,0.24823484838541637,0.0,0.0,0.0,0.0,0.0,0.0,-13.88,0.0,0.0,0.0
603,0.0,0.0,0.0,0.2963193359375,0.0,0.0,0.0,0.0,0.0,0.0,-0.613,0.0,0.0,0.0,0.0,0.0,0.0,0.24006219370813978,0.0,0.0,0.0,0.0,0.0,0.0,-14.428,0.0,0.0,0.0
604,0.0,0.0,0.0,0.2905166015625,0.0,0.0,0.0,0.0,0.0,0.0,-0.601,0.0,0.0,0.0,0.0,0.0,0.0,0.23168930200407484,0.0,0.0,0.0,0.0,0.0,0.0,-14.544,0.0,0.0,0.0
605,0.0,0.0,0.0,0.2845791015625,0.0,0.0,0.0,0.0,0.0,0.0,-0.587,0.0,0.0,0.0,0.0,0.0,0.0,0.22338851385612887,0.0,0.0,0.0,0.0,0.0,0.0,-14.408,0.0,0.0,0.0
606,0.0,0.0,0.0,0.2787861328125,0.0,0.0,0.0,0.0,0.0,0.0,-0.594,0.0,0.0,0.0,0.0,0.0,0.0,0.21505261112628501,0.0,0.0,0.0,0.0,0.0,0.0,-13.812,0.0,0.0,0.0
607,0.0,0.0,0.0,0.272984375,0.0,0.0,0.0,0.0,0.0,0.0,-0.583,0.0,0.0,0.0,0.0,0.0,0.0,0.2065354406573701,0.0,0.0,0.0,0.0,0.0,0.0,-13.88,0.0,0.0,0.0
608,0.0,0.0,0.0,0.26690234375,0.0,0.0,0.0,0.0,0.0,0.0,-0.597,0.0,0.0,0.0,0.0,0.0,0.0,0.19814923701423684,0.0,0.0,0.0,0.0,0.0,0.0,-14.176,0.0,0.0,0.0
609,0.0,0.0,0.0,0.2608203125,0.0,0.0,0.0,0.0,0.0,0.0,-0.609,0.0,0.0,0.0,0.0,0.0,0.0,0.18968088125201116,0.0,0.0,0.0,0.0,0.0,0.0,-13.904,0.0,0.0,0.0
610,0.0,0.0,0.0,0.254892578125,0.0,0.0,0.0,0.0,0.0,0.0,-0.602,0.0,0.0,0.0,0.0,0.0,0.0,0.18099010587294947,0.0,0.0,0.0,0.0,0.0,0.0,-13.904,0.0,0.0,0.0
611,0.0,0.0,0.0,0.2489462890625,0.0,0.0,0.0,0.0,0.0,0.0,-0.6,0.0,0.0,0.0,0.0,0.0,0.0,0.1719444897814098,0.0,0.0,0.0,0.0,0.0,0.0,-13.696,0.0,0.0,0.0
612,0.0,0.0,0.0,0.2431533203125,0.0,0.0,0.0,0.0,0.0,0.0,-0.594,0.0,0.0,0.0,0.0,0.0,0.0,0.1638502502746373,0.0,0.0,0.0,0.0,0.0,0.0,-13.696,0.0,0.0,0.0
613,0.0,0.0,0.0,0.2370712890625,0.0,0.0,0.0,0.0,0.0,0.0,-0.597,0.0,0.0,0.0,0.0,0.0,0.0,0.1551402444632183,0.0,0.0,0.0,0.0,0.0,0.0,-14.816,0.0,0.0,0.0
614,0.0,0.0,0.0,0.231125,0.0,0.0,0.0,0.0,0.0,0.0,-0.607,0.0,0.0,0.0,0.0,0.0,0.0,0.1462947569788786,0.0,0.0,0.0,0.0,0.0,0.0,-14.612,0.0,0.0,0.0
615,0.0,0.0,0.0,0.22533203125,0.0,0.0,0.0,0.0,0.0,0.0,-0.592,0.0,0.0,0.0,0.0,0.0,0.0,0.13771671808924596,0.0,0.0,0.0,0.0,0.0,0.0,-14.568,0.0,0.0,0.0
616,0.0,0.0,0.0,0.2195390625,0.0,0.0,0.0,0.0,0.0,0.0,-0.583,0.0,0.0,0.0,0.0,0.0,0.0,0.12890412165397847,0.0,0.0,0.0,0.0,0.0,0.0,-13.996,0.0,0.0,0.0
617,0.0,0.0,0.0,0.213880859375,0.0,0.0,0.0,0.0,0.0,0.0,-0.575,0.0,0.0,0.0,0.0,0.0,0.0,0.12005953984725372,0.0,0.0,0.0,0.0,0.0,0.0,-13.836,0.0,0.0,0.0
618,0.0,0.0,0.0,0.207943359375,0.0,0.0,0.0,0.0,0.0,0.0,-0.583,0.0,0.0,0.0,0.0,0.0,0.0,0.11136439185668602,0.0,0.0,0.0,0.0,0.0,0.0,-14.292,0.0,0.0,0.0
619,0.0,0.0,0.0,0.202005859375,0.0,0.0,0.0,0.0,0.0,0.0,-0.602,0.0,0.0,0.0,0.0,0.0,0.0,0.10247053154380244,0.0,0.0,0.0,0.0,0.0,0.0,-14.04,0.0,0.0,0.0
620,0.0,0.0,0.0,0.196068359375,0.0,0.0,0.0,0.0,0.0,0.0,-0.59,0.0,0.0,0.0,0.0,0.0,0.0,0.09355341753050493,0.0,0.0,0.0,0.0,0.0,0.0,-14.084,0.0,0.0,0.0
621,0.0,0.0,0.0,0.1901220703125,0.0,0.0,0.0,0.0,0.0,0.0,-0.601,0.0,0.0,0.0,0.0,0.0,0.0,0.08471746446750528,0.0,0.0,0.0,0.0,0.0,0.0,-13.764,0.0,0.0,0.0
622,0.0,0.0,0.0,0.184337890625,0.0,0.0,0.0,0.0,0.0,0.0,-0.595,0.0,0.0,0.0,0.0,0.0,0.0,0.07578141268306232,0.0,0.0,0.0,0.0,0.0,0.0,-13.788,0.0,0.0,0.0
623,0.0,0.0,0.0,0.178400390625,0.0,0.0,0.0,0.0,0.0,0.0,-0.583,0.0,0.0,0.0,0.0,0.0,0.0,0.06678346440711841,0.0,0.0,0.0,0.0,0.0,0.0,-14.544,0.0,0.0,0.0
624,0.0,0.0,0.0,0.1724541015625,0.0,0.0,0.0,0.0,0.0,0.0,-0.601,0.0,0.0,0.0,0.0,0.0,0.0,0.05792192144476702,0.0,0.0,0.0,0.0,0.0,0.0,-14.932,0.0,0.0,0.0
625,0.0,0.0,0.0,0.1668056640625,0.0,0.0,0.0,0.0,0.0,0.0,-0.589,0.0,0.0,0.0,0.0,0.0,0.0,0.048873523049709884,0.0,0.0,0.0,0.0,0.0,0.0,-14.84,0.0,0.0,0.0
626,0.0,0.0,0.0,0.1610126953125,0.0,0.0,0.0,0.0,0.0,0.0,-0.574,0.0,0.0,0.0,0.0,0.0,0.0,0.03991883102532744,0.0,0.0,0.0,0.0,0.0,0.0,-14.68,0.0,0.0,0.0
627,0.0,0.0,0.0,0.15535546875,0.0,0.0,0.0,0.0,0.0,0.0,-0.579,0.0,0.0,0.0,0.0,0.0,0.0,0.030921126203683827,0.0,0.0,0.0,0.0,0.0,0.0,-14.292,0.0,0.0,0.0
628,0.0,0.0,0.0,0.1495625,0.0,0.0,0.0,0.0,0.0,0.0,-0.565,0.0,0.0,0.0,0.0,0.0,0.0,0.021933598030295067,0.0,0.0,0.0,0.0,0.0,0.0,-14.496,0.0,0.0,0.0
629,0.0,0.0,0.0,0.143625,0.0,0.0,0.0,0.0,0.0,0.0,-0.59,0.0,0.0,0.0,0.0,0.0,0.0,0.012845674307314965,0.0,0.0,0.0,0.0,0.0,0.0,-14.772,0.0,0.0,0.0
630,0.0,0.0,0.0,0.13783203125,0.0,0.0,0.0,0.0,0.0,0.0,-0.595,0.0,0.0,0.0,0.0,0.0,0.0,0.003998769719564875,0.0,0.0,0.0,0.0,0.0,0.0,-14.084,0.0,0.0,0.0
631,0.0,0.0,0.0,0.131884765625,0.0,0.0,0.0,0.0,0.0,0.0,-0.593,0.0,0.0,0.0,0.0,0.0,0.0,-0.005065075795978875,0.0,0.0,0.0,0.0,0.0,0.0,-14.176,0.0,0.0,0.0
632,0.0,0.0,0.0,0.125947265625,0.0,0.0,0.0,0.0,0.0,0.0,-0.6,0.0,0.0,0.0,0.0,0.0,0.0,-0.014144926814650727,0.0,0.0,0.0,0.0,0.0,0.0,-13.88,0.0,0.0,0.0
633,0.0,0.0,0.0,0.1201640625,0.0,0.0,0.0,0.0,0.0,0.0,-0.59,0.0,0.0,0.0,0.0,0.0,0.0,-0.022998329056291577,0.0,0.0,0.0,0.0,0.0,0.0,-14.268,0.0,0.0,0.0
634,0.0,0.0,0.0,0.1140732421875,0.0,0.0,0.0,0.0,0.0,0.0,-0.591,0.0,0.0,0.0,0.0,0.0,0.0,-0.03197271162706442,0.0,0.0,0.0,0.0,0.0,0.0,-14.932,0.0,0.0,0.0
635,0.0,0.0,0.0,0.1082802734375,0.0,0.0,0.0,0.0,0.0,0.0,-0.603,0.0,0.0,0.0,0.0,0.0,0.0,-0.041145437336003565,0.0,0.0,0.0,0.0,0.0,0.0,-14.932,0.0,0.0,0.0
636,0.0,0.0,0.0,0.1024873046875,0.0,0.0,0.0,0.0,0.0,0.0,-0.585,0.0,0.0,0.0,0.0,0.0,0.0,-0.04993089264110714,0.0,0.0,0.0,0.0,0.0,0.0,-14.976,0.0,0.0,0.0
637,0.0,0.0,0.0,0.096703125,0.0,0.0,0.0,0.0,0.0,0.0,-0.582,0.0,0.0,0.0,0.0,0.0,0.0,-0.058881968095743024,0.0,0.0,0.0,0.0,0.0,0.0,-14.496,0.0,0.0,0.0
638,0.0,0.0,0.0,0.091189453125,0.0,0.0,0.0,0.0,0.0,0.0,-0.573,0.0,0.0,0.0,0.0,0.0,0.0,-0.06803729116450473,0.0,0.0,0.0,0.0,0.0,0.0,-14.476,0.0,0.0,0.0
639,0.0,0.0,0.0,0.085251953125,0.0,0.0,0.0,0.0,0.0,0.0,-0.569,0.0,0.0,0.0,0.0,0.0,0.0,-0.07678822780285342,0.0,0.0,0.0,0.0,0.0,0.0,-14.796,0.0,0.0,0.0
640,0.0,0.0,0.0,0.079169921875,0.0,0.0,0.0,0.0,0.0,0.0,-0.602,0.0,0.0,0.0,0.0,0.0,0.0,-0.0856929185258261,0.0,0.0,0.0,0.0,0.0,0.0,-14.476,0.0,0.0,0.0
641,0.0,0.0,0.0,0.0733681640625,0.0,0.0,0.0,0.0,0.0,0.0,-0.605,0.0,0.0,0.0,0.0,0.0,0.0,-0.0947968384231474,0.0,0.0,0.0,0.0,0.0,0.0,-14.316,0.0,0.0,0.0
642,0.0,0.0,0.0,0.0674306640625,0.0,0.0,0.0,0.0,0.0,0.0,-0.591,0.0,0.0,0.0,0.0,0.0,0.0,-0.1035024400387067,0.0,0.0,0.0,0.0,0.0,0.0,-14.268,0.0,0.0,0.0
643,0.0,0.0,0.0,0.0616376953125,0.0,0.0,0.0,0.0,0.0,0.0,-0.602,0.0,0.0,0.0,0.0,0.0,0.0,-0.11234942196000877,0.0,0.0,0.0,0.0,0.0,0.0,-14.084,0.0,0.0,0.0
644,0.0,0.0,0.0,0.0557001953125,0.0,0.0,0.0,0.0,0.0,0.0,-0.579,0.0,0.0,0.0,0.0,0.0,0.0,-0.12144161796003247,0.0,0.0,0.0,0.0,0.0,0.0,-14.888,0.0,0.0,0.0
645,0.0,0.0,0.0,0.049609375,0.0,0.0,0.0,0.0,0.0,0.0,-0.61,0.0,0.0,0.0,0.0,0.0,0.0,-0.1300014954630001,0.0,0.0,0.0,0.0,0.0,0.0,-15.068,0.0,0.0,0.0
646,0.0,0.0,0.0,0.0438251953125,0.0,0.0,0.0,0.0,0.0,0.0,-0.602,0.0,0.0,0.0,0.0,0.0,0.0,-0.13875875168582952,0.0,0.0,0.0,0.0,0.0,0.0,-14.772,0.0,0.0,0.0
647,0.0,0.0,0.0,0.0380322265625,0.0,0.0,0.0,0.0,0.0,0.0,-0.57,0.0,0.0,0.0,0.0,0.0,0.0,-0.14784531133733975,0.0,0.0,0.0,0.0,0.0,0.0,-14.976,0.0,0.0,0.0
648,0.0,0.0,0.0,0.03223046875,0.0,0.0,0.0,0.0,0.0,0.0,-0.591,0.0,0.0,0.0,0.0,0.0,0.0,-0.15624486391154888,0.0,0.0,0.0,0.0,0.0,0.0,-14.36,0.0,0.0,0.0
649,0.0,0.0,0.0,0.0267265625,0.0,0.0,0.0,0.0,0.0,0.0,-0.568,0.0,0.0,0.0,0.0,0.0,0.0,-0.16493975345441272,0.0,0.0,0.0,0.0,0.0,0.0,-14.728,0.0,0.0,0.0
650,0.0,0.0,0.0,0.0205,0.0,0.0,0.0,0.0,0.0,0.0,-0.584,0.0,0.0,0.0,0.0,0.0,0.0,-0.17362773093318276,0.0,0.0,0.0,0.0,0.0,0.0,-14.956,0.0,0.0,0.0
651,0.0,0.0,0.0,0.0145625,0.0,0.0,0.0,0.0,0.0,0.0,-0.622,0.0,0.0,0.0,0.0,0.0,0.0,-0.1821215954897452,0.0,0.0,0.0,0.0,0.0,0.0,-14.064,0.0,0.0,0.0
652,0.0,0.0,0.0,0.0087607421875,0.0,0.0,0.0,0.0,0.0,0.0,-0.584,0.0,0.0,0.0,0.0,0.0,0.0,-0.1906436044421106,0.0,0.0,0.0,0.0,0.0,0.0,-14.316,0.0,0.0,0.0
653,0.0,0.0,0.0,0.0026787109375,0.0,0.0,0.0,0.0,0.0,0.0,-0.607,0.0,0.0,0.0,0.0,0.0,0.0,-0.19920562949096268,0.0,0.0,0.0,0.0,0.0,0.0,-13.972,0.0,0.0,0.0
654,0.0,0.0,0.0,-0.00296875,0.0,0.0,0.0,0.0,0.0,0.0,-0.593,0.0,0.0,0.0,0.0,0.0,0.0,-0.20762426288393945,0.0,0.0,0.0,0.0,0.0,0.0,-14.248,0.0,0.0,0.0
655,0.0,0.0,0.0,-0.00905078125,0.0,0.0,0.0,0.0,0.0,0.0,-0.584,0.0,0.0,0.0,0.0,0.0,0.0,-0.21602193639256675,0.0,0.0,0.0,0.0,0.0,0.0,-15.208,0.0,0.0,0.0
656,0.0,0.0,0.0,-0.0151416015625,0.0,0.0,0.0,0.0,0.0,0.0,-0.621,0.0,0.0,0.0,0.0,0.0,0.0,-0.2244645994517748,0.0,0.0,0.0,0.0,0.0,0.0,-14.68,0.0,0.0,0.0
657,0.0,0.0,0.0,-0.02063671875,0.0,0.0,0.0,0.0,0.0,0.0,-0.579,0.0,0.0,0.0,0.0,0.0,0.0,-0.23274079774693213,0.0,0.0,0.0,0.0,0.0,0.0,-15.208,0.0,0.0,0.0
658,0.0,0.0,0.0,-0.02671875,0.0,0.0,0.0,0.0,0.0,0.0,-0.586,0.0,0.0,0.0,0.0,0.0,0.0,-0.24099722424755096,0.0,0.0,0.0,0.0,0.0,0.0,-14.568,0.0,0.0,0.0
659,0.0,0.0,0.0,-0.0322314453125,0.0,0.0,0.0,0.0,0.0,0.0,-0.591,0.0,0.0,0.0,0.0,0.0,0.0,-0.24930030607795176,0.0,0.0,0.0,0.0,0.0,0.0,-14.452,0.0,0.0,0.0
660,0.0,0.0,0.0,-0.0380244140625,0.0,0.0,0.0,0.0,0.0,0.0,-0.554,0.0,0.0,0.0,0.0,0.0,0.0,-0.25743870628222326,0.0,0.0,0.0,0.0,0.0,0.0,-15.16,0.0,0.0,0.0
661,0.0,0.0,0.0,-0.0442509765625,0.0,0.0,0.0,0.0,0.0,0.0,-0.609,0.0,0.0,0.0,0.0,0.0,0.0,-0.265530815442658,0.0,0.0,0.0,0.0,0.0,0.0,-14.336,0.0,0.0,0.0
662,0.0,0.0,0.0,-0.0497548828125,0.0,0.0,0.0,0.0,0.0,0.0,-0.6,0.0,0.0,0.0,0.0,0.0,0.0,-0.27360111348643157,0.0,0.0,0.0,0.0,0.0,0.0,-14.292,0.0,0.0,0.0
663,0.0,0.0,0.0,-0.055845703125,0.0,0.0,0.0,0.0,0.0,0.0,-0.579,0.0,0.0,0.0,0.0,0.0,0.0,-0.2815877935237349,0.0,0.0,0.0,0.0,0.0,0.0,-14.316,0.0,0.0,0.0
664,0.0,0.0,0.0,-0.061783203125,0.0,0.0,0.0,0.0,0.0,0.0,-0.616,0.0,0.0,0.0,0.0,0.0,0.0,-0.2894265997596829,0.0,0.0,0.0,0.0,0.0,0.0,-13.948,0.0,0.0,0.0
665,0.0,0.0,0.0,-0.0674326171875,0.0,0.0,0.0,0.0,0.0,0.0,-0.578,0.0,0.0,0.0,0.0,0.0,0.0,-0.2973163611090517,0.0,0.0,0.0,0.0,0.0,0.0,-14.728,0.0,0.0,0.0
666,0.0,0.0,0.0,-0.073802734375,0.0,0.0,0.0,0.0,0.0,0.0,-0.602,0.0,0.0,0.0,0.0,0.0,0.0,-0.3051875182372969,0.0,0.0,0.0,0.0,0.0,0.0,-15.024,0.0,0.0,0.0
667,0.0,0.0,0.0,-0.0794599609375,0.0,0.0,0.0,0.0,0.0,0.0,-0.613,0.0,0.0,0.0,0.0,0.0,0.0,-0.3127681884661705,0.0,0.0,0.0,0.0,0.0,0.0,-14.612,0.0,0.0,0.0
668,0.0,0.0,0.0,-0.085244140625,0.0,0.0,0.0,0.0,0.0,0.0,-0.571,0.0,0.0,0.0,0.0,0.0,0.0,-0.3204748569090217,0.0,0.0,0.0,0.0,0.0,0.0,-15.16,0.0,0.0,0.0
669,0.0,0.0,0.0,-0.091181640625,0.0,0.0,0.0,0.0,0.0,0.0,-0.6,0.0,0.0,0.0,0.0,0.0,0.0,-0.32807878301250465,0.0,0.0,0.0,0.0,0.0,0.0,-14.292,0.0,0.0,0.0
