EmanuelSamir/lab201_ws_projsamir/sawyer_dev/data/sawyer/vel_acel_ns/test_joint4/training_data_2.csv
,j1,j2,j3,j4,j5,j6,j7,v1,v2,v3,v4,v5,v6,v7,jd1,jd2,jd3,jd4,jd5,jd6,jd7,e1,e2,e3,e4,e5,e6,e7
0,0.0,0.0,0.0,0.0,0.0,0.0,0.0,0.0,0.0,0.0,0.0,0.0,0.0,0.0,0.0,0.0,0.0,0.0,0.0,0.0,0.0,0.0,0.0,0.0,0.0,0.0,0.0,0.0
1,0.0,0.0,0.0,-0.000361328125,0.0,0.0,0.0,0.0,0.0,0.0,-0.001,0.0,0.0,0.0,0.0,0.0,0.0,0.00010557174628143173,0.0,0.0,0.0,0.0,0.0,0.0,-14.016,0.0,0.0,0.0
2,0.0,0.0,0.0,-0.000361328125,0.0,0.0,0.0,0.0,0.0,0.0,-0.001,0.0,0.0,0.0,0.0,0.0,0.0,0.010378129289094675,0.0,0.0,0.0,0.0,0.0,0.0,-14.084,0.0,0.0,0.0
3,0.0,0.0,0.0,-0.000361328125,0.0,0.0,0.0,0.0,0.0,0.0,-0.001,0.0,0.0,0.0,0.0,0.0,0.0,0.022502960884355907,0.0,0.0,0.0,0.0,0.0,0.0,-14.016,0.0,0.0,0.0
4,0.0,0.0,0.0,-0.000361328125,0.0,0.0,0.0,0.0,0.0,0.0,-0.001,0.0,0.0,0.0,0.0,0.0,0.0,0.03454090566844482,0.0,0.0,0.0,0.0,0.0,0.0,-13.88,0.0,0.0,0.0
5,0.0,0.0,0.0,0.0002158203125,0.0,0.0,0.0,0.0,0.0,0.0,0.018,0.0,0.0,0.0,0.0,0.0,0.0,0.04648932627191436,0.0,0.0,0.0,0.0,0.0,0.0,-12.6,0.0,0.0,0.0
6,0.0,0.0,0.0,0.0023896484375,0.0,0.0,0.0,0.0,0.0,0.0,0.118,0.0,0.0,0.0,0.0,0.0,0.0,0.05837850782856154,0.0,0.0,0.0,0.0,0.0,0.0,-11.548,0.0,0.0,0.0
7,0.0,0.0,0.0,0.0052861328125,0.0,0.0,0.0,0.0,0.0,0.0,0.254,0.0,0.0,0.0,0.0,0.0,0.0,0.07032102255133518,0.0,0.0,0.0,0.0,0.0,0.0,-11.02,0.0,0.0,0.0
8,0.0,0.0,0.0,0.0090498046875,0.0,0.0,0.0,0.0,0.0,0.0,0.325,0.0,0.0,0.0,0.0,0.0,0.0,0.0823934890793029,0.0,0.0,0.0,0.0,0.0,0.0,-10.52,0.0,0.0,0.0
9,0.0,0.0,0.0,0.0136962890625,0.0,0.0,0.0,0.0,0.0,0.0,0.416,0.0,0.0,0.0,0.0,0.0,0.0,0.09605175972740765,0.0,0.0,0.0,0.0,0.0,0.0,-10.448,0.0,0.0,0.0
10,0.0,0.0,0.0,0.0184697265625,0.0,0.0,0.0,0.0,0.0,0.0,0.48,0.0,0.0,0.0,0.0,0.0,0.0,0.10584125554046753,0.0,0.0,0.0,0.0,0.0,0.0,-10.36,0.0,0.0,0.0
11,0.0,0.0,0.0,0.023541015625,0.0,0.0,0.0,0.0,0.0,0.0,0.477,0.0,0.0,0.0,0.0,0.0,0.0,0.11779326109454488,0.0,0.0,0.0,0.0,0.0,0.0,-9.26,0.0,0.0,0.0
12,0.0,0.0,0.0,0.029767578125,0.0,0.0,0.0,0.0,0.0,0.0,0.562,0.0,0.0,0.0,0.0,0.0,0.0,0.12942782722284843,0.0,0.0,0.0,0.0,0.0,0.0,-9.468,0.0,0.0,0.0
13,0.0,0.0,0.0,0.036146484375,0.0,0.0,0.0,0.0,0.0,0.0,0.633,0.0,0.0,0.0,0.0,0.0,0.0,0.14117674911771355,0.0,0.0,0.0,0.0,0.0,0.0,-10.36,0.0,0.0,0.0
14,0.0,0.0,0.0,0.0428056640625,0.0,0.0,0.0,0.0,0.0,0.0,0.648,0.0,0.0,0.0,0.0,0.0,0.0,0.15286780817613937,0.0,0.0,0.0,0.0,0.0,0.0,-10.748,0.0,0.0,0.0
15,0.0,0.0,0.0,0.049609375,0.0,0.0,0.0,0.0,0.0,0.0,0.692,0.0,0.0,0.0,0.0,0.0,0.0,0.1642695667334071,0.0,0.0,0.0,0.0,0.0,0.0,-11.66,0.0,0.0,0.0
16,0.0,0.0,0.0,0.055998046875,0.0,0.0,0.0,0.0,0.0,0.0,0.662,0.0,0.0,0.0,0.0,0.0,0.0,0.17598176289773176,0.0,0.0,0.0,0.0,0.0,0.0,-10.52,0.0,0.0,0.0
17,0.0,0.0,0.0,0.06337890625,0.0,0.0,0.0,0.0,0.0,0.0,0.678,0.0,0.0,0.0,0.0,0.0,0.0,0.18741340631045328,0.0,0.0,0.0,0.0,0.0,0.0,-9.924,0.0,0.0,0.0
18,0.0,0.0,0.0,0.0704716796875,0.0,0.0,0.0,0.0,0.0,0.0,0.735,0.0,0.0,0.0,0.0,0.0,0.0,0.1987917433261612,0.0,0.0,0.0,0.0,0.0,0.0,-11.32,0.0,0.0,0.0
19,0.0,0.0,0.0,0.0772939453125,0.0,0.0,0.0,0.0,0.0,0.0,0.694,0.0,0.0,0.0,0.0,0.0,0.0,0.20998125146588828,0.0,0.0,0.0,0.0,0.0,0.0,-11.66,0.0,0.0,0.0
20,0.0,0.0,0.0,0.0846748046875,0.0,0.0,0.0,0.0,0.0,0.0,0.723,0.0,0.0,0.0,0.0,0.0,0.0,0.22119186688570547,0.0,0.0,0.0,0.0,0.0,0.0,-13.376,0.0,0.0,0.0
21,0.0,0.0,0.0,0.091478515625,0.0,0.0,0.0,0.0,0.0,0.0,0.713,0.0,0.0,0.0,0.0,0.0,0.0,0.23223546764216124,0.0,0.0,0.0,0.0,0.0,0.0,-13.08,0.0,0.0,0.0
22,0.0,0.0,0.0,0.0985888671875,0.0,0.0,0.0,0.0,0.0,0.0,0.692,0.0,0.0,0.0,0.0,0.0,0.0,0.24324404062654975,0.0,0.0,0.0,0.0,0.0,0.0,-13.56,0.0,0.0,0.0
23,0.0,0.0,0.0,0.1052392578125,0.0,0.0,0.0,0.0,0.0,0.0,0.699,0.0,0.0,0.0,0.0,0.0,0.0,0.25430137871969544,0.0,0.0,0.0,0.0,0.0,0.0,-14.476,0.0,0.0,0.0
24,0.0,0.0,0.0,0.1121875,0.0,0.0,0.0,0.0,0.0,0.0,0.683,0.0,0.0,0.0,0.0,0.0,0.0,0.2651412403620419,0.0,0.0,0.0,0.0,0.0,0.0,-14.52,0.0,0.0,0.0
25,0.0,0.0,0.0,0.1194326171875,0.0,0.0,0.0,0.0,0.0,0.0,0.713,0.0,0.0,0.0,0.0,0.0,0.0,0.2756677727838102,0.0,0.0,0.0,0.0,0.0,0.0,-14.932,0.0,0.0,0.0
26,0.0,0.0,0.0,0.1265341796875,0.0,0.0,0.0,0.0,0.0,0.0,0.719,0.0,0.0,0.0,0.0,0.0,0.0,0.28635159821116507,0.0,0.0,0.0,0.0,0.0,0.0,-14.316,0.0,0.0,0.0
27,0.0,0.0,0.0,0.133048828125,0.0,0.0,0.0,0.0,0.0,0.0,0.692,0.0,0.0,0.0,0.0,0.0,0.0,0.29693477879021596,0.0,0.0,0.0,0.0,0.0,0.0,-15.276,0.0,0.0,0.0
28,0.0,0.0,0.0,0.1392841796875,0.0,0.0,0.0,0.0,0.0,0.0,0.639,0.0,0.0,0.0,0.0,0.0,0.0,0.30713626476429867,0.0,0.0,0.0,0.0,0.0,0.0,-15.344,0.0,0.0,0.0
29,0.0,0.0,0.0,0.146087890625,0.0,0.0,0.0,0.0,0.0,0.0,0.66,0.0,0.0,0.0,0.0,0.0,0.0,0.3174060359369208,0.0,0.0,0.0,0.0,0.0,0.0,-15.64,0.0,0.0,0.0
30,0.0,0.0,0.0,0.1527470703125,0.0,0.0,0.0,0.0,0.0,0.0,0.67,0.0,0.0,0.0,0.0,0.0,0.0,0.32753340529586317,0.0,0.0,0.0,0.0,0.0,0.0,-15.228,0.0,0.0,0.0
31,0.0,0.0,0.0,0.159712890625,0.0,0.0,0.0,0.0,0.0,0.0,0.679,0.0,0.0,0.0,0.0,0.0,0.0,0.33749572756951585,0.0,0.0,0.0,0.0,0.0,0.0,-16.144,0.0,0.0,0.0
32,0.0,0.0,0.0,0.165794921875,0.0,0.0,0.0,0.0,0.0,0.0,0.664,0.0,0.0,0.0,0.0,0.0,0.0,0.3473267898084584,0.0,0.0,0.0,0.0,0.0,0.0,-17.584,0.0,0.0,0.0
33,0.0,0.0,0.0,0.172021484375,0.0,0.0,0.0,0.0,0.0,0.0,0.614,0.0,0.0,0.0,0.0,0.0,0.0,0.3571841782768624,0.0,0.0,0.0,0.0,0.0,0.0,-16.852,0.0,0.0,0.0
34,0.0,0.0,0.0,0.178544921875,0.0,0.0,0.0,0.0,0.0,0.0,0.654,0.0,0.0,0.0,0.0,0.0,0.0,0.3666297493628475,0.0,0.0,0.0,0.0,0.0,0.0,-16.488,0.0,0.0,0.0
35,0.0,0.0,0.0,0.184771484375,0.0,0.0,0.0,0.0,0.0,0.0,0.633,0.0,0.0,0.0,0.0,0.0,0.0,0.37604374472066343,0.0,0.0,0.0,0.0,0.0,0.0,-14.728,0.0,0.0,0.0
36,0.0,0.0,0.0,0.190998046875,0.0,0.0,0.0,0.0,0.0,0.0,0.629,0.0,0.0,0.0,0.0,0.0,0.0,0.3854263217499665,0.0,0.0,0.0,0.0,0.0,0.0,-15.388,0.0,0.0,0.0
37,0.0,0.0,0.0,0.1967998046875,0.0,0.0,0.0,0.0,0.0,0.0,0.608,0.0,0.0,0.0,0.0,0.0,0.0,0.3944773793579293,0.0,0.0,0.0,0.0,0.0,0.0,-16.188,0.0,0.0,0.0
38,0.0,0.0,0.0,0.2025927734375,0.0,0.0,0.0,0.0,0.0,0.0,0.582,0.0,0.0,0.0,0.0,0.0,0.0,0.4034130408715633,0.0,0.0,0.0,0.0,0.0,0.0,-15.208,0.0,0.0,0.0
39,0.0,0.0,0.0,0.208232421875,0.0,0.0,0.0,0.0,0.0,0.0,0.582,0.0,0.0,0.0,0.0,0.0,0.0,0.4124036486904287,0.0,0.0,0.0,0.0,0.0,0.0,-14.452,0.0,0.0,0.0
40,0.0,0.0,0.0,0.213736328125,0.0,0.0,0.0,0.0,0.0,0.0,0.557,0.0,0.0,0.0,0.0,0.0,0.0,0.4208955431797264,0.0,0.0,0.0,0.0,0.0,0.0,-13.856,0.0,0.0,0.0
41,0.0,0.0,0.0,0.21939453125,0.0,0.0,0.0,0.0,0.0,0.0,0.562,0.0,0.0,0.0,0.0,0.0,0.0,0.42933373167280897,0.0,0.0,0.0,0.0,0.0,0.0,-14.384,0.0,0.0,0.0
42,0.0,0.0,0.0,0.22475390625,0.0,0.0,0.0,0.0,0.0,0.0,0.558,0.0,0.0,0.0,0.0,0.0,0.0,0.4377890537181149,0.0,0.0,0.0,0.0,0.0,0.0,-15.344,0.0,0.0,0.0
43,0.0,0.0,0.0,0.2299609375,0.0,0.0,0.0,0.0,0.0,0.0,0.531,0.0,0.0,0.0,0.0,0.0,0.0,0.4457720225203598,0.0,0.0,0.0,0.0,0.0,0.0,-14.84,0.0,0.0,0.0
44,0.0,0.0,0.0,0.2356181640625,0.0,0.0,0.0,0.0,0.0,0.0,0.537,0.0,0.0,0.0,0.0,0.0,0.0,0.4537097659433222,0.0,0.0,0.0,0.0,0.0,0.0,-13.744,0.0,0.0,0.0
45,0.0,0.0,0.0,0.240978515625,0.0,0.0,0.0,0.0,0.0,0.0,0.559,0.0,0.0,0.0,0.0,0.0,0.0,0.46152438992244066,0.0,0.0,0.0,0.0,0.0,0.0,-13.216,0.0,0.0,0.0
46,0.0,0.0,0.0,0.246193359375,0.0,0.0,0.0,0.0,0.0,0.0,0.528,0.0,0.0,0.0,0.0,0.0,0.0,0.4690606716923659,0.0,0.0,0.0,0.0,0.0,0.0,-12.896,0.0,0.0,0.0
47,0.0,0.0,0.0,0.2518427734375,0.0,0.0,0.0,0.0,0.0,0.0,0.545,0.0,0.0,0.0,0.0,0.0,0.0,0.4764062372546758,0.0,0.0,0.0,0.0,0.0,0.0,-13.516,0.0,0.0,0.0
48,0.0,0.0,0.0,0.2569140625,0.0,0.0,0.0,0.0,0.0,0.0,0.546,0.0,0.0,0.0,0.0,0.0,0.0,0.483718921954158,0.0,0.0,0.0,0.0,0.0,0.0,-13.444,0.0,0.0,0.0
49,0.0,0.0,0.0,0.2622734375,0.0,0.0,0.0,0.0,0.0,0.0,0.519,0.0,0.0,0.0,0.0,0.0,0.0,0.4906185359980984,0.0,0.0,0.0,0.0,0.0,0.0,-12.668,0.0,0.0,0.0
50,0.0,0.0,0.0,0.2676337890625,0.0,0.0,0.0,0.0,0.0,0.0,0.541,0.0,0.0,0.0,0.0,0.0,0.0,0.4974190862606263,0.0,0.0,0.0,0.0,0.0,0.0,-12.372,0.0,0.0,0.0
51,0.0,0.0,0.0,0.272984375,0.0,0.0,0.0,0.0,0.0,0.0,0.537,0.0,0.0,0.0,0.0,0.0,0.0,0.5041381908399722,0.0,0.0,0.0,0.0,0.0,0.0,-12.624,0.0,0.0,0.0
52,0.0,0.0,0.0,0.278498046875,0.0,0.0,0.0,0.0,0.0,0.0,0.541,0.0,0.0,0.0,0.0,0.0,0.0,0.5104465682470518,0.0,0.0,0.0,0.0,0.0,0.0,-13.172,0.0,0.0,0.0
53,0.0,0.0,0.0,0.284001953125,0.0,0.0,0.0,0.0,0.0,0.0,0.556,0.0,0.0,0.0,0.0,0.0,0.0,0.5166590149293887,0.0,0.0,0.0,0.0,0.0,0.0,-13.676,0.0,0.0,0.0
54,0.0,0.0,0.0,0.289650390625,0.0,0.0,0.0,0.0,0.0,0.0,0.555,0.0,0.0,0.0,0.0,0.0,0.0,0.5227041609917008,0.0,0.0,0.0,0.0,0.0,0.0,-13.948,0.0,0.0,0.0
55,0.0,0.0,0.0,0.295453125,0.0,0.0,0.0,0.0,0.0,0.0,0.571,0.0,0.0,0.0,0.0,0.0,0.0,0.5284613943765235,0.0,0.0,0.0,0.0,0.0,0.0,-12.852,0.0,0.0,0.0
56,0.0,0.0,0.0,0.3013896484375,0.0,0.0,0.0,0.0,0.0,0.0,0.6,0.0,0.0,0.0,0.0,0.0,0.0,0.5340351369769741,0.0,0.0,0.0,0.0,0.0,0.0,-12.372,0.0,0.0,0.0
57,0.0,0.0,0.0,0.307029296875,0.0,0.0,0.0,0.0,0.0,0.0,0.587,0.0,0.0,0.0,0.0,0.0,0.0,0.5394517353571352,0.0,0.0,0.0,0.0,0.0,0.0,-12.6,0.0,0.0,0.0
58,0.0,0.0,0.0,0.3129765625,0.0,0.0,0.0,0.0,0.0,0.0,0.582,0.0,0.0,0.0,0.0,0.0,0.0,0.5445549578989207,0.0,0.0,0.0,0.0,0.0,0.0,-12.828,0.0,0.0,0.0
59,0.0,0.0,0.0,0.31876953125,0.0,0.0,0.0,0.0,0.0,0.0,0.585,0.0,0.0,0.0,0.0,0.0,0.0,0.5494599419519024,0.0,0.0,0.0,0.0,0.0,0.0,-12.552,0.0,0.0,0.0
60,0.0,0.0,0.0,0.3245625,0.0,0.0,0.0,0.0,0.0,0.0,0.582,0.0,0.0,0.0,0.0,0.0,0.0,0.5542143340488427,0.0,0.0,0.0,0.0,0.0,0.0,-12.052,0.0,0.0,0.0
61,0.0,0.0,0.0,0.3305,0.0,0.0,0.0,0.0,0.0,0.0,0.592,0.0,0.0,0.0,0.0,0.0,0.0,0.558672896639377,0.0,0.0,0.0,0.0,0.0,0.0,-12.188,0.0,0.0,0.0
62,0.0,0.0,0.0,0.3364462890625,0.0,0.0,0.0,0.0,0.0,0.0,0.599,0.0,0.0,0.0,0.0,0.0,0.0,0.5629286677228302,0.0,0.0,0.0,0.0,0.0,0.0,-12.736,0.0,0.0,0.0
63,0.0,0.0,0.0,0.3425283203125,0.0,0.0,0.0,0.0,0.0,0.0,0.598,0.0,0.0,0.0,0.0,0.0,0.0,0.5669739813466311,0.0,0.0,0.0,0.0,0.0,0.0,-13.56,0.0,0.0,0.0
64,0.0,0.0,0.0,0.348609375,0.0,0.0,0.0,0.0,0.0,0.0,0.614,0.0,0.0,0.0,0.0,0.0,0.0,0.5707914340352228,0.0,0.0,0.0,0.0,0.0,0.0,-14.04,0.0,0.0,0.0
65,0.0,0.0,0.0,0.3547001953125,0.0,0.0,0.0,0.0,0.0,0.0,0.605,0.0,0.0,0.0,0.0,0.0,0.0,0.5743595563225172,0.0,0.0,0.0,0.0,0.0,0.0,-13.924,0.0,0.0,0.0
66,0.0,0.0,0.0,0.3609267578125,0.0,0.0,0.0,0.0,0.0,0.0,0.621,0.0,0.0,0.0,0.0,0.0,0.0,0.5777295616891671,0.0,0.0,0.0,0.0,0.0,0.0,-12.964,0.0,0.0,0.0
67,0.0,0.0,0.0,0.3670087890625,0.0,0.0,0.0,0.0,0.0,0.0,0.627,0.0,0.0,0.0,0.0,0.0,0.0,0.5808410866021309,0.0,0.0,0.0,0.0,0.0,0.0,-12.872,0.0,0.0,0.0
68,0.0,0.0,0.0,0.37308984375,0.0,0.0,0.0,0.0,0.0,0.0,0.61,0.0,0.0,0.0,0.0,0.0,0.0,0.5837343394248856,0.0,0.0,0.0,0.0,0.0,0.0,-13.124,0.0,0.0,0.0
69,0.0,0.0,0.0,0.379171875,0.0,0.0,0.0,0.0,0.0,0.0,0.614,0.0,0.0,0.0,0.0,0.0,0.0,0.5864038067290949,0.0,0.0,0.0,0.0,0.0,0.0,-13.032,0.0,0.0,0.0
70,0.0,0.0,0.0,0.38525390625,0.0,0.0,0.0,0.0,0.0,0.0,0.608,0.0,0.0,0.0,0.0,0.0,0.0,0.588816093094448,0.0,0.0,0.0,0.0,0.0,0.0,-13.032,0.0,0.0,0.0
71,0.0,0.0,0.0,0.3912001953125,0.0,0.0,0.0,0.0,0.0,0.0,0.603,0.0,0.0,0.0,0.0,0.0,0.0,0.5910032732699095,0.0,0.0,0.0,0.0,0.0,0.0,-12.736,0.0,0.0,0.0
72,0.0,0.0,0.0,0.3971376953125,0.0,0.0,0.0,0.0,0.0,0.0,0.598,0.0,0.0,0.0,0.0,0.0,0.0,0.5929607219646044,0.0,0.0,0.0,0.0,0.0,0.0,-12.988,0.0,0.0,0.0
73,0.0,0.0,0.0,0.4030751953125,0.0,0.0,0.0,0.0,0.0,0.0,0.592,0.0,0.0,0.0,0.0,0.0,0.0,0.5946987106632485,0.0,0.0,0.0,0.0,0.0,0.0,-13.308,0.0,0.0,0.0
74,0.0,0.0,0.0,0.409021484375,0.0,0.0,0.0,0.0,0.0,0.0,0.593,0.0,0.0,0.0,0.0,0.0,0.0,0.596154107337741,0.0,0.0,0.0,0.0,0.0,0.0,-13.676,0.0,0.0,0.0
75,0.0,0.0,0.0,0.414958984375,0.0,0.0,0.0,0.0,0.0,0.0,0.602,0.0,0.0,0.0,0.0,0.0,0.0,0.597387723970537,0.0,0.0,0.0,0.0,0.0,0.0,-13.948,0.0,0.0,0.0
76,0.0,0.0,0.0,0.42103125,0.0,0.0,0.0,0.0,0.0,0.0,0.609,0.0,0.0,0.0,0.0,0.0,0.0,0.5983887410732601,0.0,0.0,0.0,0.0,0.0,0.0,-13.172,0.0,0.0,0.0
77,0.0,0.0,0.0,0.42696875,0.0,0.0,0.0,0.0,0.0,0.0,0.606,0.0,0.0,0.0,0.0,0.0,0.0,0.5991425999980304,0.0,0.0,0.0,0.0,0.0,0.0,-12.76,0.0,0.0,0.0
78,0.0,0.0,0.0,0.4329150390625,0.0,0.0,0.0,0.0,0.0,0.0,0.598,0.0,0.0,0.0,0.0,0.0,0.0,0.5996677970375557,0.0,0.0,0.0,0.0,0.0,0.0,-12.804,0.0,0.0,0.0
79,0.0,0.0,0.0,0.4388525390625,0.0,0.0,0.0,0.0,0.0,0.0,0.592,0.0,0.0,0.0,0.0,0.0,0.0,0.5999465467268944,0.0,0.0,0.0,0.0,0.0,0.0,-12.712,0.0,0.0,0.0
80,0.0,0.0,0.0,0.4446455078125,0.0,0.0,0.0,0.0,0.0,0.0,0.592,0.0,0.0,0.0,0.0,0.0,0.0,0.5999871948082866,0.0,0.0,0.0,0.0,0.0,0.0,-12.576,0.0,0.0,0.0
81,0.0,0.0,0.0,0.4504384765625,0.0,0.0,0.0,0.0,0.0,0.0,0.583,0.0,0.0,0.0,0.0,0.0,0.0,0.5997870202545218,0.0,0.0,0.0,0.0,0.0,0.0,-12.44,0.0,0.0,0.0
82,0.0,0.0,0.0,0.45622265625,0.0,0.0,0.0,0.0,0.0,0.0,0.581,0.0,0.0,0.0,0.0,0.0,0.0,0.5993464215028677,0.0,0.0,0.0,0.0,0.0,0.0,-12.28,0.0,0.0,0.0
83,0.0,0.0,0.0,0.462015625,0.0,0.0,0.0,0.0,0.0,0.0,0.582,0.0,0.0,0.0,0.0,0.0,0.0,0.5986691950253482,0.0,0.0,0.0,0.0,0.0,0.0,-12.644,0.0,0.0,0.0
84,0.0,0.0,0.0,0.467818359375,0.0,0.0,0.0,0.0,0.0,0.0,0.583,0.0,0.0,0.0,0.0,0.0,0.0,0.5977500037841941,0.0,0.0,0.0,0.0,0.0,0.0,-13.24,0.0,0.0,0.0
85,0.0,0.0,0.0,0.473611328125,0.0,0.0,0.0,0.0,0.0,0.0,0.583,0.0,0.0,0.0,0.0,0.0,0.0,0.5965751394650406,0.0,0.0,0.0,0.0,0.0,0.0,-13.24,0.0,0.0,0.0
86,0.0,0.0,0.0,0.479548828125,0.0,0.0,0.0,0.0,0.0,0.0,0.588,0.0,0.0,0.0,0.0,0.0,0.0,0.5951934932007014,0.0,0.0,0.0,0.0,0.0,0.0,-13.192,0.0,0.0,0.0
87,0.0,0.0,0.0,0.485486328125,0.0,0.0,0.0,0.0,0.0,0.0,0.599,0.0,0.0,0.0,0.0,0.0,0.0,0.5935611510187528,0.0,0.0,0.0,0.0,0.0,0.0,-12.484,0.0,0.0,0.0
88,0.0,0.0,0.0,0.491279296875,0.0,0.0,0.0,0.0,0.0,0.0,0.591,0.0,0.0,0.0,0.0,0.0,0.0,0.5916772979996552,0.0,0.0,0.0,0.0,0.0,0.0,-11.98,0.0,0.0,0.0
89,0.0,0.0,0.0,0.497072265625,0.0,0.0,0.0,0.0,0.0,0.0,0.582,0.0,0.0,0.0,0.0,0.0,0.0,0.5895867008481153,0.0,0.0,0.0,0.0,0.0,0.0,-12.164,0.0,0.0,0.0
90,0.0,0.0,0.0,0.502865234375,0.0,0.0,0.0,0.0,0.0,0.0,0.582,0.0,0.0,0.0,0.0,0.0,0.0,0.5872289241235049,0.0,0.0,0.0,0.0,0.0,0.0,-11.776,0.0,0.0,0.0
91,0.0,0.0,0.0,0.508658203125,0.0,0.0,0.0,0.0,0.0,0.0,0.583,0.0,0.0,0.0,0.0,0.0,0.0,0.5846200664252581,0.0,0.0,0.0,0.0,0.0,0.0,-12.028,0.0,0.0,0.0
92,0.0,0.0,0.0,0.514595703125,0.0,0.0,0.0,0.0,0.0,0.0,0.593,0.0,0.0,0.0,0.0,0.0,0.0,0.5818462356321514,0.0,0.0,0.0,0.0,0.0,0.0,-11.844,0.0,0.0,0.0
93,0.0,0.0,0.0,0.520388671875,0.0,0.0,0.0,0.0,0.0,0.0,0.586,0.0,0.0,0.0,0.0,0.0,0.0,0.5787802845529842,0.0,0.0,0.0,0.0,0.0,0.0,-12.072,0.0,0.0,0.0
94,0.0,0.0,0.0,0.5261904296875,0.0,0.0,0.0,0.0,0.0,0.0,0.583,0.0,0.0,0.0,0.0,0.0,0.0,0.575505425596897,0.0,0.0,0.0,0.0,0.0,0.0,-12.44,0.0,0.0,0.0
95,0.0,0.0,0.0,0.531974609375,0.0,0.0,0.0,0.0,0.0,0.0,0.583,0.0,0.0,0.0,0.0,0.0,0.0,0.5720090935537362,0.0,0.0,0.0,0.0,0.0,0.0,-12.896,0.0,0.0,0.0
96,0.0,0.0,0.0,0.537912109375,0.0,0.0,0.0,0.0,0.0,0.0,0.592,0.0,0.0,0.0,0.0,0.0,0.0,0.568281749150403,0.0,0.0,0.0,0.0,0.0,0.0,-13.104,0.0,0.0,0.0
97,0.0,0.0,0.0,0.5438583984375,0.0,0.0,0.0,0.0,0.0,0.0,0.597,0.0,0.0,0.0,0.0,0.0,0.0,0.5642714192715438,0.0,0.0,0.0,0.0,0.0,0.0,-12.392,0.0,0.0,0.0
98,0.0,0.0,0.0,0.5499404296875,0.0,0.0,0.0,0.0,0.0,0.0,0.606,0.0,0.0,0.0,0.0,0.0,0.0,0.5601365678874307,0.0,0.0,0.0,0.0,0.0,0.0,-11.708,0.0,0.0,0.0
99,0.0,0.0,0.0,0.5558681640625,0.0,0.0,0.0,0.0,0.0,0.0,0.606,0.0,0.0,0.0,0.0,0.0,0.0,0.5557374010804697,0.0,0.0,0.0,0.0,0.0,0.0,-11.66,0.0,0.0,0.0
100,0.0,0.0,0.0,0.561228515625,0.0,0.0,0.0,0.0,0.0,0.0,0.575,0.0,0.0,0.0,0.0,0.0,0.0,0.5510507492864289,0.0,0.0,0.0,0.0,0.0,0.0,-12.92,0.0,0.0,0.0
101,0.0,0.0,0.0,0.565,0.0,0.0,0.0,0.0,0.0,0.0,0.478,0.0,0.0,0.0,0.0,0.0,0.0,0.5462357920907079,0.0,0.0,0.0,0.0,0.0,0.0,-14.816,0.0,0.0,0.0
102,0.0,0.0,0.0,0.5662998046875,0.0,0.0,0.0,0.0,0.0,0.0,0.278,0.0,0.0,0.0,0.0,0.0,0.0,0.5411536703797908,0.0,0.0,0.0,0.0,0.0,0.0,-18.364,0.0,0.0,0.0
103,0.0,0.0,0.0,0.5658662109375,0.0,0.0,0.0,0.0,0.0,0.0,0.056,0.0,0.0,0.0,0.0,0.0,0.0,0.535857620501231,0.0,0.0,0.0,0.0,0.0,0.0,-19.072,0.0,0.0,0.0
104,0.0,0.0,0.0,0.5641337890625,0.0,0.0,0.0,0.0,0.0,0.0,-0.087,0.0,0.0,0.0,0.0,0.0,0.0,0.5303708871852761,0.0,0.0,0.0,0.0,0.0,0.0,-19.988,0.0,0.0,0.0
105,0.0,0.0,0.0,0.561228515625,0.0,0.0,0.0,0.0,0.0,0.0,-0.232,0.0,0.0,0.0,0.0,0.0,0.0,0.5246524479952381,0.0,0.0,0.0,0.0,0.0,0.0,-19.116,0.0,0.0,0.0
106,0.0,0.0,0.0,0.5576103515625,0.0,0.0,0.0,0.0,0.0,0.0,-0.319,0.0,0.0,0.0,0.0,0.0,0.0,0.5186282383556402,0.0,0.0,0.0,0.0,0.0,0.0,-20.124,0.0,0.0,0.0
107,0.0,0.0,0.0,0.5529814453125,0.0,0.0,0.0,0.0,0.0,0.0,-0.411,0.0,0.0,0.0,0.0,0.0,0.0,0.5125531913738737,0.0,0.0,0.0,0.0,0.0,0.0,-20.72,0.0,0.0,0.0
108,0.0,0.0,0.0,0.5486318359375,0.0,0.0,0.0,0.0,0.0,0.0,-0.457,0.0,0.0,0.0,0.0,0.0,0.0,0.5062102509588542,0.0,0.0,0.0,0.0,0.0,0.0,-21.288,0.0,0.0,0.0
109,0.0,0.0,0.0,0.54328125,0.0,0.0,0.0,0.0,0.0,0.0,-0.467,0.0,0.0,0.0,0.0,0.0,0.0,0.4996394840066233,0.0,0.0,0.0,0.0,0.0,0.0,-21.884,0.0,0.0,0.0
110,0.0,0.0,0.0,0.5367568359375,0.0,0.0,0.0,0.0,0.0,0.0,-0.592,0.0,0.0,0.0,0.0,0.0,0.0,0.4929363576220531,0.0,0.0,0.0,0.0,0.0,0.0,-20.924,0.0,0.0,0.0
111,0.0,0.0,0.0,0.52980859375,0.0,0.0,0.0,0.0,0.0,0.0,-0.672,0.0,0.0,0.0,0.0,0.0,0.0,0.48600231870460486,0.0,0.0,0.0,0.0,0.0,0.0,-20.4,0.0,0.0,0.0
112,0.0,0.0,0.0,0.522265625,0.0,0.0,0.0,0.0,0.0,0.0,-0.736,0.0,0.0,0.0,0.0,0.0,0.0,0.47879402540691096,0.0,0.0,0.0,0.0,0.0,0.0,-19.004,0.0,0.0,0.0
113,0.0,0.0,0.0,0.5151728515625,0.0,0.0,0.0,0.0,0.0,0.0,-0.739,0.0,0.0,0.0,0.0,0.0,0.0,0.47146529574073925,0.0,0.0,0.0,0.0,0.0,0.0,-17.332,0.0,0.0,0.0
114,0.0,0.0,0.0,0.5077919921875,0.0,0.0,0.0,0.0,0.0,0.0,-0.716,0.0,0.0,0.0,0.0,0.0,0.0,0.4640284543176335,0.0,0.0,0.0,0.0,0.0,0.0,-16.58,0.0,0.0,0.0
115,0.0,0.0,0.0,0.499390625,0.0,0.0,0.0,0.0,0.0,0.0,-0.79,0.0,0.0,0.0,0.0,0.0,0.0,0.4562508359567172,0.0,0.0,0.0,0.0,0.0,0.0,-16.464,0.0,0.0,0.0
116,0.0,0.0,0.0,0.490701171875,0.0,0.0,0.0,0.0,0.0,0.0,-0.868,0.0,0.0,0.0,0.0,0.0,0.0,0.4483526501703754,0.0,0.0,0.0,0.0,0.0,0.0,-15.596,0.0,0.0,0.0
117,0.0,0.0,0.0,0.4831669921875,0.0,0.0,0.0,0.0,0.0,0.0,-0.836,0.0,0.0,0.0,0.0,0.0,0.0,0.4403998361351092,0.0,0.0,0.0,0.0,0.0,0.0,-14.016,0.0,0.0,0.0
118,0.0,0.0,0.0,0.4757763671875,0.0,0.0,0.0,0.0,0.0,0.0,-0.732,0.0,0.0,0.0,0.0,0.0,0.0,0.4321450477034991,0.0,0.0,0.0,0.0,0.0,0.0,-14.316,0.0,0.0,0.0
119,0.0,0.0,0.0,0.467095703125,0.0,0.0,0.0,0.0,0.0,0.0,-0.806,0.0,0.0,0.0,0.0,0.0,0.0,0.42373207599516605,0.0,0.0,0.0,0.0,0.0,0.0,-14.452,0.0,0.0,0.0
120,0.0,0.0,0.0,0.459119140625,0.0,0.0,0.0,0.0,0.0,0.0,-0.854,0.0,0.0,0.0,0.0,0.0,0.0,0.41517265452089963,0.0,0.0,0.0,0.0,0.0,0.0,-13.284,0.0,0.0,0.0
121,0.0,0.0,0.0,0.45202734375,0.0,0.0,0.0,0.0,0.0,0.0,-0.757,0.0,0.0,0.0,0.0,0.0,0.0,0.40643575402208754,0.0,0.0,0.0,0.0,0.0,0.0,-11.8,0.0,0.0,0.0
122,0.0,0.0,0.0,0.4446455078125,0.0,0.0,0.0,0.0,0.0,0.0,-0.721,0.0,0.0,0.0,0.0,0.0,0.0,0.397483677254644,0.0,0.0,0.0,0.0,0.0,0.0,-11.592,0.0,0.0,0.0
123,0.0,0.0,0.0,0.4358115234375,0.0,0.0,0.0,0.0,0.0,0.0,-0.808,0.0,0.0,0.0,0.0,0.0,0.0,0.38840660075392625,0.0,0.0,0.0,0.0,0.0,0.0,-11.204,0.0,0.0,0.0
124,0.0,0.0,0.0,0.4284306640625,0.0,0.0,0.0,0.0,0.0,0.0,-0.839,0.0,0.0,0.0,0.0,0.0,0.0,0.37924436171368275,0.0,0.0,0.0,0.0,0.0,0.0,-9.968,0.0,0.0,0.0
125,0.0,0.0,0.0,0.4221953125,0.0,0.0,0.0,0.0,0.0,0.0,-0.688,0.0,0.0,0.0,0.0,0.0,0.0,0.36984096080188006,0.0,0.0,0.0,0.0,0.0,0.0,-10.724,0.0,0.0,0.0
126,0.0,0.0,0.0,0.414958984375,0.0,0.0,0.0,0.0,0.0,0.0,-0.668,0.0,0.0,0.0,0.0,0.0,0.0,0.3603166206896608,0.0,0.0,0.0,0.0,0.0,0.0,-11.592,0.0,0.0,0.0
127,0.0,0.0,0.0,0.4075595703125,0.0,0.0,0.0,0.0,0.0,0.0,-0.742,0.0,0.0,0.0,0.0,0.0,0.0,0.3506539079874657,0.0,0.0,0.0,0.0,0.0,0.0,-11.912,0.0,0.0,0.0
128,0.0,0.0,0.0,0.400900390625,0.0,0.0,0.0,0.0,0.0,0.0,-0.718,0.0,0.0,0.0,0.0,0.0,0.0,0.34070364322445656,0.0,0.0,0.0,0.0,0.0,0.0,-10.952,0.0,0.0,0.0
129,0.0,0.0,0.0,0.394818359375,0.0,0.0,0.0,0.0,0.0,0.0,-0.643,0.0,0.0,0.0,0.0,0.0,0.0,0.3308656709563028,0.0,0.0,0.0,0.0,0.0,0.0,-10.268,0.0,0.0,0.0
130,0.0,0.0,0.0,0.388005859375,0.0,0.0,0.0,0.0,0.0,0.0,-0.639,0.0,0.0,0.0,0.0,0.0,0.0,0.32081090061502887,0.0,0.0,0.0,0.0,0.0,0.0,-10.06,0.0,0.0,0.0
131,0.0,0.0,0.0,0.3813466796875,0.0,0.0,0.0,0.0,0.0,0.0,-0.687,0.0,0.0,0.0,0.0,0.0,0.0,0.3104888145669511,0.0,0.0,0.0,0.0,0.0,0.0,-10.428,0.0,0.0,0.0
132,0.0,0.0,0.0,0.3751201171875,0.0,0.0,0.0,0.0,0.0,0.0,-0.647,0.0,0.0,0.0,0.0,0.0,0.0,0.3002120917937841,0.0,0.0,0.0,0.0,0.0,0.0,-11.18,0.0,0.0,0.0
133,0.0,0.0,0.0,0.369173828125,0.0,0.0,0.0,0.0,0.0,0.0,-0.609,0.0,0.0,0.0,0.0,0.0,0.0,0.28979947557844726,0.0,0.0,0.0,0.0,0.0,0.0,-10.564,0.0,0.0,0.0
134,0.0,0.0,0.0,0.363380859375,0.0,0.0,0.0,0.0,0.0,0.0,-0.596,0.0,0.0,0.0,0.0,0.0,0.0,0.279148929407396,0.0,0.0,0.0,0.0,0.0,0.0,-10.724,0.0,0.0,0.0
135,0.0,0.0,0.0,0.3571552734375,0.0,0.0,0.0,0.0,0.0,0.0,-0.604,0.0,0.0,0.0,0.0,0.0,0.0,0.26860776740671105,0.0,0.0,0.0,0.0,0.0,0.0,-11.752,0.0,0.0,0.0
136,0.0,0.0,0.0,0.35137109375,0.0,0.0,0.0,0.0,0.0,0.0,-0.617,0.0,0.0,0.0,0.0,0.0,0.0,0.25785492881078975,0.0,0.0,0.0,0.0,0.0,0.0,-12.6,0.0,0.0,0.0
137,0.0,0.0,0.0,0.345712890625,0.0,0.0,0.0,0.0,0.0,0.0,-0.575,0.0,0.0,0.0,0.0,0.0,0.0,0.24682091472797016,0.0,0.0,0.0,0.0,0.0,0.0,-12.576,0.0,0.0,0.0
138,0.0,0.0,0.0,0.3407861328125,0.0,0.0,0.0,0.0,0.0,0.0,-0.536,0.0,0.0,0.0,0.0,0.0,0.0,0.23600012432518835,0.0,0.0,0.0,0.0,0.0,0.0,-11.96,0.0,0.0,0.0
139,0.0,0.0,0.0,0.335724609375,0.0,0.0,0.0,0.0,0.0,0.0,-0.496,0.0,0.0,0.0,0.0,0.0,0.0,0.22492781800677783,0.0,0.0,0.0,0.0,0.0,0.0,-12.552,0.0,0.0,0.0
140,0.0,0.0,0.0,0.33035546875,0.0,0.0,0.0,0.0,0.0,0.0,-0.522,0.0,0.0,0.0,0.0,0.0,0.0,0.2136611260868963,0.0,0.0,0.0,0.0,0.0,0.0,-13.584,0.0,0.0,0.0
141,0.0,0.0,0.0,0.3251396484375,0.0,0.0,0.0,0.0,0.0,0.0,-0.537,0.0,0.0,0.0,0.0,0.0,0.0,0.20248146828188676,0.0,0.0,0.0,0.0,0.0,0.0,-14.016,0.0,0.0,0.0
142,0.0,0.0,0.0,0.3197802734375,0.0,0.0,0.0,0.0,0.0,0.0,-0.531,0.0,0.0,0.0,0.0,0.0,0.0,0.19116495279960413,0.0,0.0,0.0,0.0,0.0,0.0,-14.132,0.0,0.0,0.0
143,0.0,0.0,0.0,0.3145732421875,0.0,0.0,0.0,0.0,0.0,0.0,-0.538,0.0,0.0,0.0,0.0,0.0,0.0,0.17956040470949883,0.0,0.0,0.0,0.0,0.0,0.0,-12.988,0.0,0.0,0.0
144,0.0,0.0,0.0,0.3096376953125,0.0,0.0,0.0,0.0,0.0,0.0,-0.518,0.0,0.0,0.0,0.0,0.0,0.0,0.16822848398333815,0.0,0.0,0.0,0.0,0.0,0.0,-12.852,0.0,0.0,0.0
145,0.0,0.0,0.0,0.3045751953125,0.0,0.0,0.0,0.0,0.0,0.0,-0.498,0.0,0.0,0.0,0.0,0.0,0.0,0.1566838565395222,0.0,0.0,0.0,0.0,0.0,0.0,-14.108,0.0,0.0,0.0
146,0.0,0.0,0.0,0.2990712890625,0.0,0.0,0.0,0.0,0.0,0.0,-0.526,0.0,0.0,0.0,0.0,0.0,0.0,0.14497891065362592,0.0,0.0,0.0,0.0,0.0,0.0,-15.572,0.0,0.0,0.0
147,0.0,0.0,0.0,0.2937109375,0.0,0.0,0.0,0.0,0.0,0.0,-0.549,0.0,0.0,0.0,0.0,0.0,0.0,0.13330517051511626,0.0,0.0,0.0,0.0,0.0,0.0,-15.412,0.0,0.0,0.0
148,0.0,0.0,0.0,0.288630859375,0.0,0.0,0.0,0.0,0.0,0.0,-0.531,0.0,0.0,0.0,0.0,0.0,0.0,0.12170137090818448,0.0,0.0,0.0,0.0,0.0,0.0,-15.024,0.0,0.0,0.0
149,0.0,0.0,0.0,0.2834248046875,0.0,0.0,0.0,0.0,0.0,0.0,-0.523,0.0,0.0,0.0,0.0,0.0,0.0,0.10980689104494118,0.0,0.0,0.0,0.0,0.0,0.0,-14.544,0.0,0.0,0.0
150,0.0,0.0,0.0,0.2786416015625,0.0,0.0,0.0,0.0,0.0,0.0,-0.496,0.0,0.0,0.0,0.0,0.0,0.0,0.09793279298549488,0.0,0.0,0.0,0.0,0.0,0.0,-14.932,0.0,0.0,0.0
151,0.0,0.0,0.0,0.2732822265625,0.0,0.0,0.0,0.0,0.0,0.0,-0.504,0.0,0.0,0.0,0.0,0.0,0.0,0.08620800894107873,0.0,0.0,0.0,0.0,0.0,0.0,-15.48,0.0,0.0,0.0
152,0.0,0.0,0.0,0.2674892578125,0.0,0.0,0.0,0.0,0.0,0.0,-0.563,0.0,0.0,0.0,0.0,0.0,0.0,0.07423488471017298,0.0,0.0,0.0,0.0,0.0,0.0,-15.824,0.0,0.0,0.0
153,0.0,0.0,0.0,0.2616962890625,0.0,0.0,0.0,0.0,0.0,0.0,-0.584,0.0,0.0,0.0,0.0,0.0,0.0,0.06237052448408078,0.0,0.0,0.0,0.0,0.0,0.0,-14.816,0.0,0.0,0.0
154,0.0,0.0,0.0,0.2560478515625,0.0,0.0,0.0,0.0,0.0,0.0,-0.575,0.0,0.0,0.0,0.0,0.0,0.0,0.050425009014857525,0.0,0.0,0.0,0.0,0.0,0.0,-14.496,0.0,0.0,0.0
155,0.0,0.0,0.0,0.2505341796875,0.0,0.0,0.0,0.0,0.0,0.0,-0.563,0.0,0.0,0.0,0.0,0.0,0.0,0.03844619444898641,0.0,0.0,0.0,0.0,0.0,0.0,-14.292,0.0,0.0,0.0
156,0.0,0.0,0.0,0.2450302734375,0.0,0.0,0.0,0.0,0.0,0.0,-0.555,0.0,0.0,0.0,0.0,0.0,0.0,0.02646283244747825,0.0,0.0,0.0,0.0,0.0,0.0,-15.0,0.0,0.0,0.0
157,0.0,0.0,0.0,0.2389482421875,0.0,0.0,0.0,0.0,0.0,0.0,-0.577,0.0,0.0,0.0,0.0,0.0,0.0,0.014518936958319137,0.0,0.0,0.0,0.0,0.0,0.0,-16.1,0.0,0.0,0.0
158,0.0,0.0,0.0,0.232712890625,0.0,0.0,0.0,0.0,0.0,0.0,-0.619,0.0,0.0,0.0,0.0,0.0,0.0,0.00248087652763214,0.0,0.0,0.0,0.0,0.0,0.0,-15.62,0.0,0.0,0.0
159,0.0,0.0,0.0,0.226775390625,0.0,0.0,0.0,0.0,0.0,0.0,-0.616,0.0,0.0,0.0,0.0,0.0,0.0,-0.00954874258016255,0.0,0.0,0.0,0.0,0.0,0.0,-14.728,0.0,0.0,0.0
160,0.0,0.0,0.0,0.220837890625,0.0,0.0,0.0,0.0,0.0,0.0,-0.603,0.0,0.0,0.0,0.0,0.0,0.0,-0.02148217164317986,0.0,0.0,0.0,0.0,0.0,0.0,-14.156,0.0,0.0,0.0
161,0.0,0.0,0.0,0.2151982421875,0.0,0.0,0.0,0.0,0.0,0.0,-0.582,0.0,0.0,0.0,0.0,0.0,0.0,-0.03356277996650796,0.0,0.0,0.0,0.0,0.0,0.0,-14.316,0.0,0.0,0.0
162,0.0,0.0,0.0,0.209107421875,0.0,0.0,0.0,0.0,0.0,0.0,-0.585,0.0,0.0,0.0,0.0,0.0,0.0,-0.04570050108876752,0.0,0.0,0.0,0.0,0.0,0.0,-15.136,0.0,0.0,0.0
163,0.0,0.0,0.0,0.2028818359375,0.0,0.0,0.0,0.0,0.0,0.0,-0.62,0.0,0.0,0.0,0.0,0.0,0.0,-0.05738685611160795,0.0,0.0,0.0,0.0,0.0,0.0,-14.588,0.0,0.0,0.0
164,0.0,0.0,0.0,0.1966552734375,0.0,0.0,0.0,0.0,0.0,0.0,-0.627,0.0,0.0,0.0,0.0,0.0,0.0,-0.06931728432174893,0.0,0.0,0.0,0.0,0.0,0.0,-14.084,0.0,0.0,0.0
165,0.0,0.0,0.0,0.190275390625,0.0,0.0,0.0,0.0,0.0,0.0,-0.641,0.0,0.0,0.0,0.0,0.0,0.0,-0.08136002854612598,0.0,0.0,0.0,0.0,0.0,0.0,-13.604,0.0,0.0,0.0
166,0.0,0.0,0.0,0.1841943359375,0.0,0.0,0.0,0.0,0.0,0.0,-0.624,0.0,0.0,0.0,0.0,0.0,0.0,-0.09311962977763587,0.0,0.0,0.0,0.0,0.0,0.0,-13.284,0.0,0.0,0.0
167,0.0,0.0,0.0,0.1781123046875,0.0,0.0,0.0,0.0,0.0,0.0,-0.611,0.0,0.0,0.0,0.0,0.0,0.0,-0.10495480291740517,0.0,0.0,0.0,0.0,0.0,0.0,-14.384,0.0,0.0,0.0
168,0.0,0.0,0.0,0.171876953125,0.0,0.0,0.0,0.0,0.0,0.0,-0.619,0.0,0.0,0.0,0.0,0.0,0.0,-0.11692927958763534,0.0,0.0,0.0,0.0,0.0,0.0,-14.728,0.0,0.0,0.0
169,0.0,0.0,0.0,0.165939453125,0.0,0.0,0.0,0.0,0.0,0.0,-0.608,0.0,0.0,0.0,0.0,0.0,0.0,-0.12850035950852604,0.0,0.0,0.0,0.0,0.0,0.0,-14.588,0.0,0.0,0.0
170,0.0,0.0,0.0,0.159712890625,0.0,0.0,0.0,0.0,0.0,0.0,-0.612,0.0,0.0,0.0,0.0,0.0,0.0,-0.1401873644543688,0.0,0.0,0.0,0.0,0.0,0.0,-14.268,0.0,0.0,0.0
171,0.0,0.0,0.0,0.1537666015625,0.0,0.0,0.0,0.0,0.0,0.0,-0.622,0.0,0.0,0.0,0.0,0.0,0.0,-0.15187982092064958,0.0,0.0,0.0,0.0,0.0,0.0,-13.628,0.0,0.0,0.0
172,0.0,0.0,0.0,0.1478291015625,0.0,0.0,0.0,0.0,0.0,0.0,-0.595,0.0,0.0,0.0,0.0,0.0,0.0,-0.16340470891513173,0.0,0.0,0.0,0.0,0.0,0.0,-13.996,0.0,0.0,0.0
173,0.0,0.0,0.0,0.141748046875,0.0,0.0,0.0,0.0,0.0,0.0,-0.606,0.0,0.0,0.0,0.0,0.0,0.0,-0.17490944710100526,0.0,0.0,0.0,0.0,0.0,0.0,-14.156,0.0,0.0,0.0
174,0.0,0.0,0.0,0.135955078125,0.0,0.0,0.0,0.0,0.0,0.0,-0.601,0.0,0.0,0.0,0.0,0.0,0.0,-0.18643923349216135,0.0,0.0,0.0,0.0,0.0,0.0,-13.904,0.0,0.0,0.0
175,0.0,0.0,0.0,0.1298642578125,0.0,0.0,0.0,0.0,0.0,0.0,-0.598,0.0,0.0,0.0,0.0,0.0,0.0,-0.1977323248508288,0.0,0.0,0.0,0.0,0.0,0.0,-13.948,0.0,0.0,0.0
176,0.0,0.0,0.0,0.1239267578125,0.0,0.0,0.0,0.0,0.0,0.0,-0.608,0.0,0.0,0.0,0.0,0.0,0.0,-0.20897230900348016,0.0,0.0,0.0,0.0,0.0,0.0,-13.676,0.0,0.0,0.0
177,0.0,0.0,0.0,0.1179892578125,0.0,0.0,0.0,0.0,0.0,0.0,-0.597,0.0,0.0,0.0,0.0,0.0,0.0,-0.2203402152918195,0.0,0.0,0.0,0.0,0.0,0.0,-14.176,0.0,0.0,0.0
178,0.0,0.0,0.0,0.1118984375,0.0,0.0,0.0,0.0,0.0,0.0,-0.608,0.0,0.0,0.0,0.0,0.0,0.0,-0.23136164647462892,0.0,0.0,0.0,0.0,0.0,0.0,-14.772,0.0,0.0,0.0
179,0.0,0.0,0.0,0.10625,0.0,0.0,0.0,0.0,0.0,0.0,-0.595,0.0,0.0,0.0,0.0,0.0,0.0,-0.24237796923472243,0.0,0.0,0.0,0.0,0.0,0.0,-14.52,0.0,0.0,0.0
180,0.0,0.0,0.0,0.1006103515625,0.0,0.0,0.0,0.0,0.0,0.0,-0.568,0.0,0.0,0.0,0.0,0.0,0.0,-0.25337452335001864,0.0,0.0,0.0,0.0,0.0,0.0,-14.656,0.0,0.0,0.0
181,0.0,0.0,0.0,0.0948076171875,0.0,0.0,0.0,0.0,0.0,0.0,-0.573,0.0,0.0,0.0,0.0,0.0,0.0,-0.2641220335138452,0.0,0.0,0.0,0.0,0.0,0.0,-14.428,0.0,0.0,0.0
182,0.0,0.0,0.0,0.0891591796875,0.0,0.0,0.0,0.0,0.0,0.0,-0.575,0.0,0.0,0.0,0.0,0.0,0.0,-0.2748933593971811,0.0,0.0,0.0,0.0,0.0,0.0,-14.248,0.0,0.0,0.0
183,0.0,0.0,0.0,0.0832216796875,0.0,0.0,0.0,0.0,0.0,0.0,-0.581,0.0,0.0,0.0,0.0,0.0,0.0,-0.2855864070262667,0.0,0.0,0.0,0.0,0.0,0.0,-14.588,0.0,0.0,0.0
184,0.0,0.0,0.0,0.0772939453125,0.0,0.0,0.0,0.0,0.0,0.0,-0.603,0.0,0.0,0.0,0.0,0.0,0.0,-0.2959944723947363,0.0,0.0,0.0,0.0,0.0,0.0,-13.88,0.0,0.0,0.0
185,0.0,0.0,0.0,0.0716357421875,0.0,0.0,0.0,0.0,0.0,0.0,-0.583,0.0,0.0,0.0,0.0,0.0,0.0,-0.30642437345587314,0.0,0.0,0.0,0.0,0.0,0.0,-14.268,0.0,0.0,0.0
186,0.0,0.0,0.0,0.0656982421875,0.0,0.0,0.0,0.0,0.0,0.0,-0.586,0.0,0.0,0.0,0.0,0.0,0.0,-0.31664882957066537,0.0,0.0,0.0,0.0,0.0,0.0,-14.084,0.0,0.0,0.0
187,0.0,0.0,0.0,0.0600498046875,0.0,0.0,0.0,0.0,0.0,0.0,-0.587,0.0,0.0,0.0,0.0,0.0,0.0,-0.3266909985290917,0.0,0.0,0.0,0.0,0.0,0.0,-14.2,0.0,0.0,0.0
188,0.0,0.0,0.0,0.0541123046875,0.0,0.0,0.0,0.0,0.0,0.0,-0.579,0.0,0.0,0.0,0.0,0.0,0.0,-0.3367013590278644,0.0,0.0,0.0,0.0,0.0,0.0,-15.068,0.0,0.0,0.0
189,0.0,0.0,0.0,0.048021484375,0.0,0.0,0.0,0.0,0.0,0.0,-0.612,0.0,0.0,0.0,0.0,0.0,0.0,-0.3467791959460326,0.0,0.0,0.0,0.0,0.0,0.0,-14.704,0.0,0.0,0.0
190,0.0,0.0,0.0,0.042517578125,0.0,0.0,0.0,0.0,0.0,0.0,-0.582,0.0,0.0,0.0,0.0,0.0,0.0,-0.35630697264869177,0.0,0.0,0.0,0.0,0.0,0.0,-14.908,0.0,0.0,0.0
191,0.0,0.0,0.0,0.036724609375,0.0,0.0,0.0,0.0,0.0,0.0,-0.565,0.0,0.0,0.0,0.0,0.0,0.0,-0.3658813984034963,0.0,0.0,0.0,0.0,0.0,0.0,-14.908,0.0,0.0,0.0
192,0.0,0.0,0.0,0.0312109375,0.0,0.0,0.0,0.0,0.0,0.0,-0.579,0.0,0.0,0.0,0.0,0.0,0.0,-0.3753668833813657,0.0,0.0,0.0,0.0,0.0,0.0,-14.612,0.0,0.0,0.0
193,0.0,0.0,0.0,0.0255712890625,0.0,0.0,0.0,0.0,0.0,0.0,-0.554,0.0,0.0,0.0,0.0,0.0,0.0,-0.38463259587691,0.0,0.0,0.0,0.0,0.0,0.0,-15.136,0.0,0.0,0.0
194,0.0,0.0,0.0,0.0193447265625,0.0,0.0,0.0,0.0,0.0,0.0,-0.596,0.0,0.0,0.0,0.0,0.0,0.0,-0.39376585884650356,0.0,0.0,0.0,0.0,0.0,0.0,-14.772,0.0,0.0,0.0
195,0.0,0.0,0.0,0.0136962890625,0.0,0.0,0.0,0.0,0.0,0.0,-0.609,0.0,0.0,0.0,0.0,0.0,0.0,-0.4028181428365498,0.0,0.0,0.0,0.0,0.0,0.0,-14.04,0.0,0.0,0.0
196,0.0,0.0,0.0,0.00760546875,0.0,0.0,0.0,0.0,0.0,0.0,-0.581,0.0,0.0,0.0,0.0,0.0,0.0,-0.4115589078696879,0.0,0.0,0.0,0.0,0.0,0.0,-14.336,0.0,0.0,0.0
197,0.0,0.0,0.0,0.00166796875,0.0,0.0,0.0,0.0,0.0,0.0,-0.611,0.0,0.0,0.0,0.0,0.0,0.0,-0.42021576210841144,0.0,0.0,0.0,0.0,0.0,0.0,-13.924,0.0,0.0,0.0
198,0.0,0.0,0.0,-0.0038349609375,0.0,0.0,0.0,0.0,0.0,0.0,-0.575,0.0,0.0,0.0,0.0,0.0,0.0,-0.42872424731618247,0.0,0.0,0.0,0.0,0.0,0.0,-14.476,0.0,0.0,0.0
199,0.0,0.0,0.0,-0.0100703125,0.0,0.0,0.0,0.0,0.0,0.0,-0.588,0.0,0.0,0.0,0.0,0.0,0.0,-0.43704953375754685,0.0,0.0,0.0,0.0,0.0,0.0,-15.228,0.0,0.0,0.0
200,0.0,0.0,0.0,-0.0160078125,0.0,0.0,0.0,0.0,0.0,0.0,-0.623,0.0,0.0,0.0,0.0,0.0,0.0,-0.4450899613334062,0.0,0.0,0.0,0.0,0.0,0.0,-14.636,0.0,0.0,0.0
201,0.0,0.0,0.0,-0.02165625,0.0,0.0,0.0,0.0,0.0,0.0,-0.576,0.0,0.0,0.0,0.0,0.0,0.0,-0.45311759555891606,0.0,0.0,0.0,0.0,0.0,0.0,-15.048,0.0,0.0,0.0
202,0.0,0.0,0.0,-0.02759375,0.0,0.0,0.0,0.0,0.0,0.0,-0.588,0.0,0.0,0.0,0.0,0.0,0.0,-0.4609484805921774,0.0,0.0,0.0,0.0,0.0,0.0,-14.428,0.0,0.0,0.0
203,0.0,0.0,0.0,-0.033107421875,0.0,0.0,0.0,0.0,0.0,0.0,-0.579,0.0,0.0,0.0,0.0,0.0,0.0,-0.4684986475526936,0.0,0.0,0.0,0.0,0.0,0.0,-14.544,0.0,0.0,0.0
204,0.0,0.0,0.0,-0.03903515625,0.0,0.0,0.0,0.0,0.0,0.0,-0.561,0.0,0.0,0.0,0.0,0.0,0.0,-0.4759482164612595,0.0,0.0,0.0,0.0,0.0,0.0,-15.092,0.0,0.0,0.0
205,0.0,0.0,0.0,-0.04526171875,0.0,0.0,0.0,0.0,0.0,0.0,-0.622,0.0,0.0,0.0,0.0,0.0,0.0,-0.483711589589942,0.0,0.0,0.0,0.0,0.0,0.0,-14.248,0.0,0.0,0.0
206,0.0,0.0,0.0,-0.05091015625,0.0,0.0,0.0,0.0,0.0,0.0,-0.597,0.0,0.0,0.0,0.0,0.0,0.0,-0.4900428566606185,0.0,0.0,0.0,0.0,0.0,0.0,-14.176,0.0,0.0,0.0
207,0.0,0.0,0.0,-0.0571455078125,0.0,0.0,0.0,0.0,0.0,0.0,-0.593,0.0,0.0,0.0,0.0,0.0,0.0,-0.4969217251919097,0.0,0.0,0.0,0.0,0.0,0.0,-13.972,0.0,0.0,0.0
208,0.0,0.0,0.0,-0.0629384765625,0.0,0.0,0.0,0.0,0.0,0.0,-0.621,0.0,0.0,0.0,0.0,0.0,0.0,-0.5036220014667706,0.0,0.0,0.0,0.0,0.0,0.0,-13.88,0.0,0.0,0.0
209,0.0,0.0,0.0,-0.0687314453125,0.0,0.0,0.0,0.0,0.0,0.0,-0.572,0.0,0.0,0.0,0.0,0.0,0.0,-0.5100031788953154,0.0,0.0,0.0,0.0,0.0,0.0,-14.864,0.0,0.0,0.0
210,0.0,0.0,0.0,-0.074966796875,0.0,0.0,0.0,0.0,0.0,0.0,-0.605,0.0,0.0,0.0,0.0,0.0,0.0,-0.516266075674379,0.0,0.0,0.0,0.0,0.0,0.0,-14.956,0.0,0.0,0.0
211,0.0,0.0,0.0,-0.080615234375,0.0,0.0,0.0,0.0,0.0,0.0,-0.604,0.0,0.0,0.0,0.0,0.0,0.0,-0.5223867750054313,0.0,0.0,0.0,0.0,0.0,0.0,-14.728,0.0,0.0,0.0
212,0.0,0.0,0.0,-0.086552734375,0.0,0.0,0.0,0.0,0.0,0.0,-0.577,0.0,0.0,0.0,0.0,0.0,0.0,-0.5279815337333581,0.0,0.0,0.0,0.0,0.0,0.0,-15.136,0.0,0.0,0.0
213,0.0,0.0,0.0,-0.092345703125,0.0,0.0,0.0,0.0,0.0,0.0,-0.603,0.0,0.0,0.0,0.0,0.0,0.0,-0.5335895313621615,0.0,0.0,0.0,0.0,0.0,0.0,-14.292,0.0,0.0,0.0
214,0.0,0.0,0.0,-0.0978505859375,0.0,0.0,0.0,0.0,0.0,0.0,-0.559,0.0,0.0,0.0,0.0,0.0,0.0,-0.5390264020846179,0.0,0.0,0.0,0.0,0.0,0.0,-14.864,0.0,0.0,0.0
215,0.0,0.0,0.0,-0.104076171875,0.0,0.0,0.0,0.0,0.0,0.0,-0.586,0.0,0.0,0.0,0.0,0.0,0.0,-0.5441606177969741,0.0,0.0,0.0,0.0,0.0,0.0,-14.816,0.0,0.0,0.0
216,0.0,0.0,0.0,-0.109724609375,0.0,0.0,0.0,0.0,0.0,0.0,-0.612,0.0,0.0,0.0,0.0,0.0,0.0,-0.5498407858950057,0.0,0.0,0.0,0.0,0.0,0.0,-13.996,0.0,0.0,0.0
217,0.0,0.0,0.0,-0.115662109375,0.0,0.0,0.0,0.0,0.0,0.0,-0.574,0.0,0.0,0.0,0.0,0.0,0.0,-0.5538705807170581,0.0,0.0,0.0,0.0,0.0,0.0,-14.52,0.0,0.0,0.0
218,0.0,0.0,0.0,-0.1218974609375,0.0,0.0,0.0,0.0,0.0,0.0,-0.616,0.0,0.0,0.0,0.0,0.0,0.0,-0.558292419110647,0.0,0.0,0.0,0.0,0.0,0.0,-13.72,0.0,0.0,0.0
219,0.0,0.0,0.0,-0.1274013671875,0.0,0.0,0.0,0.0,0.0,0.0,-0.594,0.0,0.0,0.0,0.0,0.0,0.0,-0.5626039010137447,0.0,0.0,0.0,0.0,0.0,0.0,-14.132,0.0,0.0,0.0
220,0.0,0.0,0.0,-0.1334833984375,0.0,0.0,0.0,0.0,0.0,0.0,-0.576,0.0,0.0,0.0,0.0,0.0,0.0,-0.5666940412815858,0.0,0.0,0.0,0.0,0.0,0.0,-14.932,0.0,0.0,0.0
221,0.0,0.0,0.0,-0.1394208984375,0.0,0.0,0.0,0.0,0.0,0.0,-0.621,0.0,0.0,0.0,0.0,0.0,0.0,-0.5704649648785753,0.0,0.0,0.0,0.0,0.0,0.0,-14.52,0.0,0.0,0.0
222,0.0,0.0,0.0,-0.1450791015625,0.0,0.0,0.0,0.0,0.0,0.0,-0.577,0.0,0.0,0.0,0.0,0.0,0.0,-0.5740922529656103,0.0,0.0,0.0,0.0,0.0,0.0,-15.0,0.0,0.0,0.0
223,0.0,0.0,0.0,-0.1510068359375,0.0,0.0,0.0,0.0,0.0,0.0,-0.578,0.0,0.0,0.0,0.0,0.0,0.0,-0.5774650482549758,0.0,0.0,0.0,0.0,0.0,0.0,-14.568,0.0,0.0,0.0
224,0.0,0.0,0.0,-0.15665625,0.0,0.0,0.0,0.0,0.0,0.0,-0.589,0.0,0.0,0.0,0.0,0.0,0.0,-0.5805996217271345,0.0,0.0,0.0,0.0,0.0,0.0,-14.176,0.0,0.0,0.0
225,0.0,0.0,0.0,-0.1623046875,0.0,0.0,0.0,0.0,0.0,0.0,-0.559,0.0,0.0,0.0,0.0,0.0,0.0,-0.5834991935045428,0.0,0.0,0.0,0.0,0.0,0.0,-14.932,0.0,0.0,0.0
226,0.0,0.0,0.0,-0.1685400390625,0.0,0.0,0.0,0.0,0.0,0.0,-0.603,0.0,0.0,0.0,0.0,0.0,0.0,-0.5861959491935461,0.0,0.0,0.0,0.0,0.0,0.0,-14.316,0.0,0.0,0.0
227,0.0,0.0,0.0,-0.1741884765625,0.0,0.0,0.0,0.0,0.0,0.0,-0.6,0.0,0.0,0.0,0.0,0.0,0.0,-0.5886222070078374,0.0,0.0,0.0,0.0,0.0,0.0,-13.812,0.0,0.0,0.0
228,0.0,0.0,0.0,-0.1802705078125,0.0,0.0,0.0,0.0,0.0,0.0,-0.58,0.0,0.0,0.0,0.0,0.0,0.0,-0.5908280824001815,0.0,0.0,0.0,0.0,0.0,0.0,-14.292,0.0,0.0,0.0
229,0.0,0.0,0.0,-0.18620703125,0.0,0.0,0.0,0.0,0.0,0.0,-0.611,0.0,0.0,0.0,0.0,0.0,0.0,-0.5928277326791446,0.0,0.0,0.0,0.0,0.0,0.0,-13.744,0.0,0.0,0.0
230,0.0,0.0,0.0,-0.1918564453125,0.0,0.0,0.0,0.0,0.0,0.0,-0.582,0.0,0.0,0.0,0.0,0.0,0.0,-0.5945418208330338,0.0,0.0,0.0,0.0,0.0,0.0,-14.428,0.0,0.0,0.0
231,0.0,0.0,0.0,-0.1979375,0.0,0.0,0.0,0.0,0.0,0.0,-0.59,0.0,0.0,0.0,0.0,0.0,0.0,-0.5960389879602609,0.0,0.0,0.0,0.0,0.0,0.0,-15.048,0.0,0.0,0.0
232,0.0,0.0,0.0,-0.20373046875,0.0,0.0,0.0,0.0,0.0,0.0,-0.613,0.0,0.0,0.0,0.0,0.0,0.0,-0.5973167293940568,0.0,0.0,0.0,0.0,0.0,0.0,-14.36,0.0,0.0,0.0
233,0.0,0.0,0.0,-0.2093798828125,0.0,0.0,0.0,0.0,0.0,0.0,-0.567,0.0,0.0,0.0,0.0,0.0,0.0,-0.5983188049241349,0.0,0.0,0.0,0.0,0.0,0.0,-14.956,0.0,0.0,0.0
234,0.0,0.0,0.0,-0.215326171875,0.0,0.0,0.0,0.0,0.0,0.0,-0.585,0.0,0.0,0.0,0.0,0.0,0.0,-0.5990922314435668,0.0,0.0,0.0,0.0,0.0,0.0,-14.316,0.0,0.0,0.0
235,0.0,0.0,0.0,-0.2209658203125,0.0,0.0,0.0,0.0,0.0,0.0,-0.582,0.0,0.0,0.0,0.0,0.0,0.0,-0.5996409520007809,0.0,0.0,0.0,0.0,0.0,0.0,-14.224,0.0,0.0,0.0
236,0.0,0.0,0.0,-0.2267587890625,0.0,0.0,0.0,0.0,0.0,0.0,-0.574,0.0,0.0,0.0,0.0,0.0,0.0,-0.5999329224700031,0.0,0.0,0.0,0.0,0.0,0.0,-14.796,0.0,0.0,0.0
237,0.0,0.0,0.0,-0.2329853515625,0.0,0.0,0.0,0.0,0.0,0.0,-0.601,0.0,0.0,0.0,0.0,0.0,0.0,-0.599992292224096,0.0,0.0,0.0,0.0,0.0,0.0,-13.88,0.0,0.0,0.0
238,0.0,0.0,0.0,-0.238498046875,0.0,0.0,0.0,0.0,0.0,0.0,-0.594,0.0,0.0,0.0,0.0,0.0,0.0,-0.5998097589974992,0.0,0.0,0.0,0.0,0.0,0.0,-13.676,0.0,0.0,0.0
239,0.0,0.0,0.0,-0.244724609375,0.0,0.0,0.0,0.0,0.0,0.0,-0.592,0.0,0.0,0.0,0.0,0.0,0.0,-0.5993935521554443,0.0,0.0,0.0,0.0,0.0,0.0,-13.856,0.0,0.0,0.0
240,0.0,0.0,0.0,-0.250662109375,0.0,0.0,0.0,0.0,0.0,0.0,-0.618,0.0,0.0,0.0,0.0,0.0,0.0,-0.5987329992581264,0.0,0.0,0.0,0.0,0.0,0.0,-13.516,0.0,0.0,0.0
241,0.0,0.0,0.0,-0.2563017578125,0.0,0.0,0.0,0.0,0.0,0.0,-0.577,0.0,0.0,0.0,0.0,0.0,0.0,-0.597812521266727,0.0,0.0,0.0,0.0,0.0,0.0,-14.36,0.0,0.0,0.0
242,0.0,0.0,0.0,-0.2625361328125,0.0,0.0,0.0,0.0,0.0,0.0,-0.598,0.0,0.0,0.0,0.0,0.0,0.0,-0.5966979940612431,0.0,0.0,0.0,0.0,0.0,0.0,-14.68,0.0,0.0,0.0
243,0.0,0.0,0.0,-0.268185546875,0.0,0.0,0.0,0.0,0.0,0.0,-0.606,0.0,0.0,0.0,0.0,0.0,0.0,-0.5953182427414834,0.0,0.0,0.0,0.0,0.0,0.0,-14.084,0.0,0.0,0.0
244,0.0,0.0,0.0,-0.273978515625,0.0,0.0,0.0,0.0,0.0,0.0,-0.573,0.0,0.0,0.0,0.0,0.0,0.0,-0.5936965144582221,0.0,0.0,0.0,0.0,0.0,0.0,-14.612,0.0,0.0,0.0
245,0.0,0.0,0.0,-0.279771484375,0.0,0.0,0.0,0.0,0.0,0.0,-0.582,0.0,0.0,0.0,0.0,0.0,0.0,-0.59184302504404,0.0,0.0,0.0,0.0,0.0,0.0,-14.248,0.0,0.0,0.0
246,0.0,0.0,0.0,-0.2854111328125,0.0,0.0,0.0,0.0,0.0,0.0,-0.576,0.0,0.0,0.0,0.0,0.0,0.0,-0.5897649654061019,0.0,0.0,0.0,0.0,0.0,0.0,-14.04,0.0,0.0,0.0
247,0.0,0.0,0.0,-0.291357421875,0.0,0.0,0.0,0.0,0.0,0.0,-0.579,0.0,0.0,0.0,0.0,0.0,0.0,-0.587423782318456,0.0,0.0,0.0,0.0,0.0,0.0,-14.52,0.0,0.0,0.0
248,0.0,0.0,0.0,-0.297294921875,0.0,0.0,0.0,0.0,0.0,0.0,-0.603,0.0,0.0,0.0,0.0,0.0,0.0,-0.5848548928629934,0.0,0.0,0.0,0.0,0.0,0.0,-13.628,0.0,0.0,0.0
249,0.0,0.0,0.0,-0.303232421875,0.0,0.0,0.0,0.0,0.0,0.0,-0.594,0.0,0.0,0.0,0.0,0.0,0.0,-0.582065681649502,0.0,0.0,0.0,0.0,0.0,0.0,-13.604,0.0,0.0,0.0
250,0.0,0.0,0.0,-0.30916015625,0.0,0.0,0.0,0.0,0.0,0.0,-0.595,0.0,0.0,0.0,0.0,0.0,0.0,-0.5790214115795111,0.0,0.0,0.0,0.0,0.0,0.0,-13.676,0.0,0.0,0.0
251,0.0,0.0,0.0,-0.314962890625,0.0,0.0,0.0,0.0,0.0,0.0,-0.594,0.0,0.0,0.0,0.0,0.0,0.0,-0.5757840628264149,0.0,0.0,0.0,0.0,0.0,0.0,-13.604,0.0,0.0,0.0
252,0.0,0.0,0.0,-0.320900390625,0.0,0.0,0.0,0.0,0.0,0.0,-0.589,0.0,0.0,0.0,0.0,0.0,0.0,-0.5722820762934545,0.0,0.0,0.0,0.0,0.0,0.0,-14.292,0.0,0.0,0.0
253,0.0,0.0,0.0,-0.326837890625,0.0,0.0,0.0,0.0,0.0,0.0,-0.602,0.0,0.0,0.0,0.0,0.0,0.0,-0.5685515411763676,0.0,0.0,0.0,0.0,0.0,0.0,-14.224,0.0,0.0,0.0
254,0.0,0.0,0.0,-0.3324775390625,0.0,0.0,0.0,0.0,0.0,0.0,-0.586,0.0,0.0,0.0,0.0,0.0,0.0,-0.564608534107743,0.0,0.0,0.0,0.0,0.0,0.0,-13.996,0.0,0.0,0.0
255,0.0,0.0,0.0,-0.3382705078125,0.0,0.0,0.0,0.0,0.0,0.0,-0.573,0.0,0.0,0.0,0.0,0.0,0.0,-0.5604444775369011,0.0,0.0,0.0,0.0,0.0,0.0,-14.064,0.0,0.0,0.0
256,0.0,0.0,0.0,-0.344072265625,0.0,0.0,0.0,0.0,0.0,0.0,-0.584,0.0,0.0,0.0,0.0,0.0,0.0,-0.5560369833545286,0.0,0.0,0.0,0.0,0.0,0.0,-13.972,0.0,0.0,0.0
257,0.0,0.0,0.0,-0.349865234375,0.0,0.0,0.0,0.0,0.0,0.0,-0.584,0.0,0.0,0.0,0.0,0.0,0.0,-0.5514371460893102,0.0,0.0,0.0,0.0,0.0,0.0,-13.924,0.0,0.0,0.0
258,0.0,0.0,0.0,-0.3559375,0.0,0.0,0.0,0.0,0.0,0.0,-0.593,0.0,0.0,0.0,0.0,0.0,0.0,-0.5466408831338713,0.0,0.0,0.0,0.0,0.0,0.0,-13.856,0.0,0.0,0.0
259,0.0,0.0,0.0,-0.3617314453125,0.0,0.0,0.0,0.0,0.0,0.0,-0.599,0.0,0.0,0.0,0.0,0.0,0.0,-0.5415754649574033,0.0,0.0,0.0,0.0,0.0,0.0,-13.172,0.0,0.0,0.0
260,0.0,0.0,0.0,-0.36766796875,0.0,0.0,0.0,0.0,0.0,0.0,-0.585,0.0,0.0,0.0,0.0,0.0,0.0,-0.5362948195100602,0.0,0.0,0.0,0.0,0.0,0.0,-13.492,0.0,0.0,0.0
261,0.0,0.0,0.0,-0.373615234375,0.0,0.0,0.0,0.0,0.0,0.0,-0.596,0.0,0.0,0.0,0.0,0.0,0.0,-0.5307734469580333,0.0,0.0,0.0,0.0,0.0,0.0,-13.424,0.0,0.0,0.0
262,0.0,0.0,0.0,-0.3793984375,0.0,0.0,0.0,0.0,0.0,0.0,-0.593,0.0,0.0,0.0,0.0,0.0,0.0,-0.5250620094279091,0.0,0.0,0.0,0.0,0.0,0.0,-13.604,0.0,0.0,0.0
263,0.0,0.0,0.0,-0.38548046875,0.0,0.0,0.0,0.0,0.0,0.0,-0.599,0.0,0.0,0.0,0.0,0.0,0.0,-0.5191194627557264,0.0,0.0,0.0,0.0,0.0,0.0,-14.292,0.0,0.0,0.0
264,0.0,0.0,0.0,-0.3912734375,0.0,0.0,0.0,0.0,0.0,0.0,-0.601,0.0,0.0,0.0,0.0,0.0,0.0,-0.5130742705275646,0.0,0.0,0.0,0.0,0.0,0.0,-13.836,0.0,0.0,0.0
265,0.0,0.0,0.0,-0.39706640625,0.0,0.0,0.0,0.0,0.0,0.0,-0.583,0.0,0.0,0.0,0.0,0.0,0.0,-0.5067188219993423,0.0,0.0,0.0,0.0,0.0,0.0,-13.904,0.0,0.0,0.0
266,0.0,0.0,0.0,-0.402859375,0.0,0.0,0.0,0.0,0.0,0.0,-0.584,0.0,0.0,0.0,0.0,0.0,0.0,-0.5001706688370692,0.0,0.0,0.0,0.0,0.0,0.0,-13.628,0.0,0.0,0.0
267,0.0,0.0,0.0,-0.4085087890625,0.0,0.0,0.0,0.0,0.0,0.0,-0.573,0.0,0.0,0.0,0.0,0.0,0.0,-0.4934641439800347,0.0,0.0,0.0,0.0,0.0,0.0,-13.56,0.0,0.0,0.0
268,0.0,0.0,0.0,-0.4144365234375,0.0,0.0,0.0,0.0,0.0,0.0,-0.58,0.0,0.0,0.0,0.0,0.0,0.0,-0.48653467523452726,0.0,0.0,0.0,0.0,0.0,0.0,-13.676,0.0,0.0,0.0
269,0.0,0.0,0.0,-0.4202294921875,0.0,0.0,0.0,0.0,0.0,0.0,-0.594,0.0,0.0,0.0,0.0,0.0,0.0,-0.47934476750644417,0.0,0.0,0.0,0.0,0.0,0.0,-13.264,0.0,0.0,0.0
270,0.0,0.0,0.0,-0.4261767578125,0.0,0.0,0.0,0.0,0.0,0.0,-0.591,0.0,0.0,0.0,0.0,0.0,0.0,-0.472115653048904,0.0,0.0,0.0,0.0,0.0,0.0,-12.852,0.0,0.0,0.0
271,0.0,0.0,0.0,-0.4321044921875,0.0,0.0,0.0,0.0,0.0,0.0,-0.6,0.0,0.0,0.0,0.0,0.0,0.0,-0.46461234499986753,0.0,0.0,0.0,0.0,0.0,0.0,-13.056,0.0,0.0,0.0
272,0.0,0.0,0.0,-0.4380419921875,0.0,0.0,0.0,0.0,0.0,0.0,-0.595,0.0,0.0,0.0,0.0,0.0,0.0,-0.4569230124307111,0.0,0.0,0.0,0.0,0.0,0.0,-13.032,0.0,0.0,0.0
273,0.0,0.0,0.0,-0.4439794921875,0.0,0.0,0.0,0.0,0.0,0.0,-0.594,0.0,0.0,0.0,0.0,0.0,0.0,-0.449044472211319,0.0,0.0,0.0,0.0,0.0,0.0,-13.584,0.0,0.0,0.0
274,0.0,0.0,0.0,-0.449908203125,0.0,0.0,0.0,0.0,0.0,0.0,-0.597,0.0,0.0,0.0,0.0,0.0,0.0,-0.4409637406727483,0.0,0.0,0.0,0.0,0.0,0.0,-13.836,0.0,0.0,0.0
275,0.0,0.0,0.0,-0.4555654296875,0.0,0.0,0.0,0.0,0.0,0.0,-0.595,0.0,0.0,0.0,0.0,0.0,0.0,-0.43267786184566737,0.0,0.0,0.0,0.0,0.0,0.0,-13.444,0.0,0.0,0.0
276,0.0,0.0,0.0,-0.4603388671875,0.0,0.0,0.0,0.0,0.0,0.0,-0.548,0.0,0.0,0.0,0.0,0.0,0.0,-0.4244020797107691,0.0,0.0,0.0,0.0,0.0,0.0,-11.16,0.0,0.0,0.0
277,0.0,0.0,0.0,-0.4610703125,0.0,0.0,0.0,0.0,0.0,0.0,-0.328,0.0,0.0,0.0,0.0,0.0,0.0,-0.4158498988168793,0.0,0.0,0.0,0.0,0.0,0.0,-6.792,0.0,0.0,0.0
278,0.0,0.0,0.0,-0.4601943359375,0.0,0.0,0.0,0.0,0.0,0.0,0.017,0.0,0.0,0.0,0.0,0.0,0.0,-0.4070386277233742,0.0,0.0,0.0,0.0,0.0,0.0,-6.744,0.0,0.0,0.0
279,0.0,0.0,0.0,-0.4584619140625,0.0,0.0,0.0,0.0,0.0,0.0,0.11,0.0,0.0,0.0,0.0,0.0,0.0,-0.39817187304851837,0.0,0.0,0.0,0.0,0.0,0.0,-5.236,0.0,0.0,0.0
280,0.0,0.0,0.0,-0.4544013671875,0.0,0.0,0.0,0.0,0.0,0.0,0.274,0.0,0.0,0.0,0.0,0.0,0.0,-0.38914889165381905,0.0,0.0,0.0,0.0,0.0,0.0,-6.152,0.0,0.0,0.0
281,0.0,0.0,0.0,-0.450783203125,0.0,0.0,0.0,0.0,0.0,0.0,0.397,0.0,0.0,0.0,0.0,0.0,0.0,-0.3799250962643935,0.0,0.0,0.0,0.0,0.0,0.0,-5.6,0.0,0.0,0.0
282,0.0,0.0,0.0,-0.4461455078125,0.0,0.0,0.0,0.0,0.0,0.0,0.402,0.0,0.0,0.0,0.0,0.0,0.0,-0.370575017550959,0.0,0.0,0.0,0.0,0.0,0.0,-3.496,0.0,0.0,0.0
283,0.0,0.0,0.0,-0.440505859375,0.0,0.0,0.0,0.0,0.0,0.0,0.505,0.0,0.0,0.0,0.0,0.0,0.0,-0.3610956315805269,0.0,0.0,0.0,0.0,0.0,0.0,-2.88,0.0,0.0,0.0
284,0.0,0.0,0.0,-0.433990234375,0.0,0.0,0.0,0.0,0.0,0.0,0.591,0.0,0.0,0.0,0.0,0.0,0.0,-0.35133061331331533,0.0,0.0,0.0,0.0,0.0,0.0,-2.376,0.0,0.0,0.0
285,0.0,0.0,0.0,-0.4257431640625,0.0,0.0,0.0,0.0,0.0,0.0,0.737,0.0,0.0,0.0,0.0,0.0,0.0,-0.3405647581162247,0.0,0.0,0.0,0.0,0.0,0.0,-3.932,0.0,0.0,0.0
286,0.0,0.0,0.0,-0.4179111328125,0.0,0.0,0.0,0.0,0.0,0.0,0.82,0.0,0.0,0.0,0.0,0.0,0.0,-0.33174854906654355,0.0,0.0,0.0,0.0,0.0,0.0,-6.54,0.0,0.0,0.0
287,0.0,0.0,0.0,-0.410818359375,0.0,0.0,0.0,0.0,0.0,0.0,0.756,0.0,0.0,0.0,0.0,0.0,0.0,-0.3215217104760038,0.0,0.0,0.0,0.0,0.0,0.0,-8.276,0.0,0.0,0.0
288,0.0,0.0,0.0,-0.4034375,0.0,0.0,0.0,0.0,0.0,0.0,0.717,0.0,0.0,0.0,0.0,0.0,0.0,-0.31140865666895434,0.0,0.0,0.0,0.0,0.0,0.0,-8.184,0.0,0.0,0.0
289,0.0,0.0,0.0,-0.3950361328125,0.0,0.0,0.0,0.0,0.0,0.0,0.78,0.0,0.0,0.0,0.0,0.0,0.0,-0.3011532353186658,0.0,0.0,0.0,0.0,0.0,0.0,-7.156,0.0,0.0,0.0
290,0.0,0.0,0.0,-0.3863466796875,0.0,0.0,0.0,0.0,0.0,0.0,0.876,0.0,0.0,0.0,0.0,0.0,0.0,-0.29060437625154745,0.0,0.0,0.0,0.0,0.0,0.0,-8.072,0.0,0.0,0.0
291,0.0,0.0,0.0,-0.378244140625,0.0,0.0,0.0,0.0,0.0,0.0,0.844,0.0,0.0,0.0,0.0,0.0,0.0,-0.28009092070907754,0.0,0.0,0.0,0.0,0.0,0.0,-10.884,0.0,0.0,0.0
292,0.0,0.0,0.0,-0.36999609375,0.0,0.0,0.0,0.0,0.0,0.0,0.812,0.0,0.0,0.0,0.0,0.0,0.0,-0.2694791095997984,0.0,0.0,0.0,0.0,0.0,0.0,-12.164,0.0,0.0,0.0
293,0.0,0.0,0.0,-0.3610087890625,0.0,0.0,0.0,0.0,0.0,0.0,0.873,0.0,0.0,0.0,0.0,0.0,0.0,-0.258610129327599,0.0,0.0,0.0,0.0,0.0,0.0,-12.76,0.0,0.0,0.0
294,0.0,0.0,0.0,-0.3536279296875,0.0,0.0,0.0,0.0,0.0,0.0,0.844,0.0,0.0,0.0,0.0,0.0,0.0,-0.2477453466105986,0.0,0.0,0.0,0.0,0.0,0.0,-13.356,0.0,0.0,0.0
295,0.0,0.0,0.0,-0.3472578125,0.0,0.0,0.0,0.0,0.0,0.0,0.682,0.0,0.0,0.0,0.0,0.0,0.0,-0.23684876198710964,0.0,0.0,0.0,0.0,0.0,0.0,-13.012,0.0,0.0,0.0
296,0.0,0.0,0.0,-0.338703125,0.0,0.0,0.0,0.0,0.0,0.0,0.724,0.0,0.0,0.0,0.0,0.0,0.0,-0.2257867387159161,0.0,0.0,0.0,0.0,0.0,0.0,-13.696,0.0,0.0,0.0
297,0.0,0.0,0.0,-0.3300224609375,0.0,0.0,0.0,0.0,0.0,0.0,0.891,0.0,0.0,0.0,0.0,0.0,0.0,-0.2145851401879455,0.0,0.0,0.0,0.0,0.0,0.0,-16.852,0.0,0.0,0.0
298,0.0,0.0,0.0,-0.32321875,0.0,0.0,0.0,0.0,0.0,0.0,0.787,0.0,0.0,0.0,0.0,0.0,0.0,-0.20336601622257153,0.0,0.0,0.0,0.0,0.0,0.0,-16.968,0.0,0.0,0.0
299,0.0,0.0,0.0,-0.315982421875,0.0,0.0,0.0,0.0,0.0,0.0,0.689,0.0,0.0,0.0,0.0,0.0,0.0,-0.19198167299126578,0.0,0.0,0.0,0.0,0.0,0.0,-17.22,0.0,0.0,0.0
300,0.0,0.0,0.0,-0.3084384765625,0.0,0.0,0.0,0.0,0.0,0.0,0.752,0.0,0.0,0.0,0.0,0.0,0.0,-0.18056590879925102,0.0,0.0,0.0,0.0,0.0,0.0,-17.036,0.0,0.0,0.0
301,0.0,0.0,0.0,-0.301634765625,0.0,0.0,0.0,0.0,0.0,0.0,0.731,0.0,0.0,0.0,0.0,0.0,0.0,-0.16914560934863912,0.0,0.0,0.0,0.0,0.0,0.0,-16.304,0.0,0.0,0.0
302,0.0,0.0,0.0,-0.2946875,0.0,0.0,0.0,0.0,0.0,0.0,0.685,0.0,0.0,0.0,0.0,0.0,0.0,-0.15755399366554873,0.0,0.0,0.0,0.0,0.0,0.0,-16.42,0.0,0.0,0.0
303,0.0,0.0,0.0,-0.28802734375,0.0,0.0,0.0,0.0,0.0,0.0,0.694,0.0,0.0,0.0,0.0,0.0,0.0,-0.14583725570628198,0.0,0.0,0.0,0.0,0.0,0.0,-18.912,0.0,0.0,0.0
304,0.0,0.0,0.0,-0.28150390625,0.0,0.0,0.0,0.0,0.0,0.0,0.659,0.0,0.0,0.0,0.0,0.0,0.0,-0.13428335545820952,0.0,0.0,0.0,0.0,0.0,0.0,-17.884,0.0,0.0,0.0
305,0.0,0.0,0.0,-0.2745556640625,0.0,0.0,0.0,0.0,0.0,0.0,0.68,0.0,0.0,0.0,0.0,0.0,0.0,-0.12256168489842009,0.0,0.0,0.0,0.0,0.0,0.0,-17.724,0.0,0.0,0.0
306,0.0,0.0,0.0,-0.2684736328125,0.0,0.0,0.0,0.0,0.0,0.0,0.664,0.0,0.0,0.0,0.0,0.0,0.0,-0.11074150288408961,0.0,0.0,0.0,0.0,0.0,0.0,-18.776,0.0,0.0,0.0
307,0.0,0.0,0.0,-0.2626806640625,0.0,0.0,0.0,0.0,0.0,0.0,0.585,0.0,0.0,0.0,0.0,0.0,0.0,-0.09898416634217509,0.0,0.0,0.0,0.0,0.0,0.0,-17.952,0.0,0.0,0.0
308,0.0,0.0,0.0,-0.2563017578125,0.0,0.0,0.0,0.0,0.0,0.0,0.611,0.0,0.0,0.0,0.0,0.0,0.0,-0.08716639362031767,0.0,0.0,0.0,0.0,0.0,0.0,-17.904,0.0,0.0,0.0
309,0.0,0.0,0.0,-0.2500751953125,0.0,0.0,0.0,0.0,0.0,0.0,0.635,0.0,0.0,0.0,0.0,0.0,0.0,-0.07513202677145295,0.0,0.0,0.0,0.0,0.0,0.0,-16.144,0.0,0.0,0.0
310,0.0,0.0,0.0,-0.244435546875,0.0,0.0,0.0,0.0,0.0,0.0,0.602,0.0,0.0,0.0,0.0,0.0,0.0,-0.06326119352972713,0.0,0.0,0.0,0.0,0.0,0.0,-15.688,0.0,0.0,0.0
311,0.0,0.0,0.0,-0.2392197265625,0.0,0.0,0.0,0.0,0.0,0.0,0.551,0.0,0.0,0.0,0.0,0.0,0.0,-0.05138436225544562,0.0,0.0,0.0,0.0,0.0,0.0,-16.28,0.0,0.0,0.0
312,0.0,0.0,0.0,-0.2341484375,0.0,0.0,0.0,0.0,0.0,0.0,0.515,0.0,0.0,0.0,0.0,0.0,0.0,-0.03925711008443039,0.0,0.0,0.0,0.0,0.0,0.0,-15.868,0.0,0.0,0.0
313,0.0,0.0,0.0,-0.229078125,0.0,0.0,0.0,0.0,0.0,0.0,0.507,0.0,0.0,0.0,0.0,0.0,0.0,-0.02740410801851426,0.0,0.0,0.0,0.0,0.0,0.0,-14.68,0.0,0.0,0.0
314,0.0,0.0,0.0,-0.2240068359375,0.0,0.0,0.0,0.0,0.0,0.0,0.505,0.0,0.0,0.0,0.0,0.0,0.0,-0.015403666691958813,0.0,0.0,0.0,0.0,0.0,0.0,-13.536,0.0,0.0,0.0
315,0.0,0.0,0.0,-0.2186552734375,0.0,0.0,0.0,0.0,0.0,0.0,0.527,0.0,0.0,0.0,0.0,0.0,0.0,-0.0032265412236054942,0.0,0.0,0.0,0.0,0.0,0.0,-13.812,0.0,0.0,0.0
316,0.0,0.0,0.0,-0.213728515625,0.0,0.0,0.0,0.0,0.0,0.0,0.525,0.0,0.0,0.0,0.0,0.0,0.0,0.008592035348347366,0.0,0.0,0.0,0.0,0.0,0.0,-15.068,0.0,0.0,0.0
317,0.0,0.0,0.0,-0.2090908203125,0.0,0.0,0.0,0.0,0.0,0.0,0.475,0.0,0.0,0.0,0.0,0.0,0.0,1.544952392407402e-05,0.0,0.0,0.0,0.0,0.0,0.0,-15.252,0.0,0.0,0.0
318,0.0,0.0,0.0,-0.204453125,0.0,0.0,0.0,0.0,0.0,0.0,0.472,0.0,0.0,0.0,0.0,0.0,0.0,0.01204238134960387,0.0,0.0,0.0,0.0,0.0,0.0,-14.336,0.0,0.0,0.0
319,0.0,0.0,0.0,-0.1996796875,0.0,0.0,0.0,0.0,0.0,0.0,0.474,0.0,0.0,0.0,0.0,0.0,0.0,0.024001867969687795,0.0,0.0,0.0,0.0,0.0,0.0,-12.92,0.0,0.0,0.0
320,0.0,0.0,0.0,-0.1944638671875,0.0,0.0,0.0,0.0,0.0,0.0,0.491,0.0,0.0,0.0,0.0,0.0,0.0,0.03591496899819719,0.0,0.0,0.0,0.0,0.0,0.0,-12.096,0.0,0.0,0.0
321,0.0,0.0,0.0,-0.18911328125,0.0,0.0,0.0,0.0,0.0,0.0,0.531,0.0,0.0,0.0,0.0,0.0,0.0,0.04810790354205961,0.0,0.0,0.0,0.0,0.0,0.0,-12.828,0.0,0.0,0.0
322,0.0,0.0,0.0,-0.184033203125,0.0,0.0,0.0,0.0,0.0,0.0,0.535,0.0,0.0,0.0,0.0,0.0,0.0,0.059885759387584996,0.0,0.0,0.0,0.0,0.0,0.0,-13.444,0.0,0.0,0.0
323,0.0,0.0,0.0,-0.17925,0.0,0.0,0.0,0.0,0.0,0.0,0.49,0.0,0.0,0.0,0.0,0.0,0.0,0.07186787444670491,0.0,0.0,0.0,0.0,0.0,0.0,-12.92,0.0,0.0,0.0
324,0.0,0.0,0.0,-0.1744765625,0.0,0.0,0.0,0.0,0.0,0.0,0.483,0.0,0.0,0.0,0.0,0.0,0.0,0.08379236515834629,0.0,0.0,0.0,0.0,0.0,0.0,-12.28,0.0,0.0,0.0
325,0.0,0.0,0.0,-0.16926171875,0.0,0.0,0.0,0.0,0.0,0.0,0.498,0.0,0.0,0.0,0.0,0.0,0.0,0.09550214384255823,0.0,0.0,0.0,0.0,0.0,0.0,-11.204,0.0,0.0,0.0
326,0.0,0.0,0.0,-0.1637568359375,0.0,0.0,0.0,0.0,0.0,0.0,0.529,0.0,0.0,0.0,0.0,0.0,0.0,0.10731856026867356,0.0,0.0,0.0,0.0,0.0,0.0,-11.912,0.0,0.0,0.0
327,0.0,0.0,0.0,-0.1579638671875,0.0,0.0,0.0,0.0,0.0,0.0,0.572,0.0,0.0,0.0,0.0,0.0,0.0,0.11933691602040389,0.0,0.0,0.0,0.0,0.0,0.0,-13.172,0.0,0.0,0.0
328,0.0,0.0,0.0,-0.1526044921875,0.0,0.0,0.0,0.0,0.0,0.0,0.567,0.0,0.0,0.0,0.0,0.0,0.0,0.13082401148176442,0.0,0.0,0.0,0.0,0.0,0.0,-13.788,0.0,0.0,0.0
329,0.0,0.0,0.0,-0.147244140625,0.0,0.0,0.0,0.0,0.0,0.0,0.543,0.0,0.0,0.0,0.0,0.0,0.0,0.14247692902002784,0.0,0.0,0.0,0.0,0.0,0.0,-13.56,0.0,0.0,0.0
330,0.0,0.0,0.0,-0.1414423828125,0.0,0.0,0.0,0.0,0.0,0.0,0.554,0.0,0.0,0.0,0.0,0.0,0.0,0.1541810001297016,0.0,0.0,0.0,0.0,0.0,0.0,-12.508,0.0,0.0,0.0
331,0.0,0.0,0.0,-0.135513671875,0.0,0.0,0.0,0.0,0.0,0.0,0.592,0.0,0.0,0.0,0.0,0.0,0.0,0.16570379802073754,0.0,0.0,0.0,0.0,0.0,0.0,-11.936,0.0,0.0,0.0
332,0.0,0.0,0.0,-0.129431640625,0.0,0.0,0.0,0.0,0.0,0.0,0.594,0.0,0.0,0.0,0.0,0.0,0.0,0.17718376662000124,0.0,0.0,0.0,0.0,0.0,0.0,-12.372,0.0,0.0,0.0
333,0.0,0.0,0.0,-0.1230615234375,0.0,0.0,0.0,0.0,0.0,0.0,0.625,0.0,0.0,0.0,0.0,0.0,0.0,0.18878321456355848,0.0,0.0,0.0,0.0,0.0,0.0,-13.124,0.0,0.0,0.0
334,0.0,0.0,0.0,-0.117259765625,0.0,0.0,0.0,0.0,0.0,0.0,0.617,0.0,0.0,0.0,0.0,0.0,0.0,0.20002760646400666,0.0,0.0,0.0,0.0,0.0,0.0,-13.264,0.0,0.0,0.0
335,0.0,0.0,0.0,-0.111322265625,0.0,0.0,0.0,0.0,0.0,0.0,0.586,0.0,0.0,0.0,0.0,0.0,0.0,0.2112532216990864,0.0,0.0,0.0,0.0,0.0,0.0,-12.784,0.0,0.0,0.0
336,0.0,0.0,0.0,-0.105240234375,0.0,0.0,0.0,0.0,0.0,0.0,0.607,0.0,0.0,0.0,0.0,0.0,0.0,0.22246864958646254,0.0,0.0,0.0,0.0,0.0,0.0,-12.712,0.0,0.0,0.0
337,0.0,0.0,0.0,-0.099302734375,0.0,0.0,0.0,0.0,0.0,0.0,0.605,0.0,0.0,0.0,0.0,0.0,0.0,0.23360889458418535,0.0,0.0,0.0,0.0,0.0,0.0,-13.332,0.0,0.0,0.0
338,0.0,0.0,0.0,-0.092779296875,0.0,0.0,0.0,0.0,0.0,0.0,0.623,0.0,0.0,0.0,0.0,0.0,0.0,0.2445729762540237,0.0,0.0,0.0,0.0,0.0,0.0,-14.084,0.0,0.0,0.0
339,0.0,0.0,0.0,-0.086408203125,0.0,0.0,0.0,0.0,0.0,0.0,0.65,0.0,0.0,0.0,0.0,0.0,0.0,0.25556138043574733,0.0,0.0,0.0,0.0,0.0,0.0,-15.528,0.0,0.0,0.0
340,0.0,0.0,0.0,-0.080326171875,0.0,0.0,0.0,0.0,0.0,0.0,0.624,0.0,0.0,0.0,0.0,0.0,0.0,0.2663850354164088,0.0,0.0,0.0,0.0,0.0,0.0,-14.84,0.0,0.0,0.0
341,0.0,0.0,0.0,-0.073802734375,0.0,0.0,0.0,0.0,0.0,0.0,0.639,0.0,0.0,0.0,0.0,0.0,0.0,0.27698021442819304,0.0,0.0,0.0,0.0,0.0,0.0,-14.176,0.0,0.0,0.0
342,0.0,0.0,0.0,-0.067865234375,0.0,0.0,0.0,0.0,0.0,0.0,0.632,0.0,0.0,0.0,0.0,0.0,0.0,0.28765733178750835,0.0,0.0,0.0,0.0,0.0,0.0,-13.972,0.0,0.0,0.0
343,0.0,0.0,0.0,-0.0614951171875,0.0,0.0,0.0,0.0,0.0,0.0,0.603,0.0,0.0,0.0,0.0,0.0,0.0,0.29815712166306657,0.0,0.0,0.0,0.0,0.0,0.0,-13.788,0.0,0.0,0.0
344,0.0,0.0,0.0,-0.0549794921875,0.0,0.0,0.0,0.0,0.0,0.0,0.658,0.0,0.0,0.0,0.0,0.0,0.0,0.30842292456712456,0.0,0.0,0.0,0.0,0.0,0.0,-14.796,0.0,0.0,0.0
345,0.0,0.0,0.0,-0.049177734375,0.0,0.0,0.0,0.0,0.0,0.0,0.614,0.0,0.0,0.0,0.0,0.0,0.0,0.3187514425587777,0.0,0.0,0.0,0.0,0.0,0.0,-13.996,0.0,0.0,0.0
346,0.0,0.0,0.0,-0.042951171875,0.0,0.0,0.0,0.0,0.0,0.0,0.606,0.0,0.0,0.0,0.0,0.0,0.0,0.329029197511809,0.0,0.0,0.0,0.0,0.0,0.0,-13.948,0.0,0.0,0.0
347,0.0,0.0,0.0,-0.037302734375,0.0,0.0,0.0,0.0,0.0,0.0,0.612,0.0,0.0,0.0,0.0,0.0,0.0,0.3387160111359431,0.0,0.0,0.0,0.0,0.0,0.0,-14.656,0.0,0.0,0.0
348,0.0,0.0,0.0,-0.031365234375,0.0,0.0,0.0,0.0,0.0,0.0,0.569,0.0,0.0,0.0,0.0,0.0,0.0,0.34856631790851306,0.0,0.0,0.0,0.0,0.0,0.0,-14.452,0.0,0.0,0.0
349,0.0,0.0,0.0,-0.024986328125,0.0,0.0,0.0,0.0,0.0,0.0,0.619,0.0,0.0,0.0,0.0,0.0,0.0,0.3583479503467793,0.0,0.0,0.0,0.0,0.0,0.0,-15.688,0.0,0.0,0.0
350,0.0,0.0,0.0,-0.019193359375,0.0,0.0,0.0,0.0,0.0,0.0,0.602,0.0,0.0,0.0,0.0,0.0,0.0,0.3678341008407103,0.0,0.0,0.0,0.0,0.0,0.0,-15.228,0.0,0.0,0.0
351,0.0,0.0,0.0,-0.012966796875,0.0,0.0,0.0,0.0,0.0,0.0,0.607,0.0,0.0,0.0,0.0,0.0,0.0,0.3772152205697639,0.0,0.0,0.0,0.0,0.0,0.0,-14.428,0.0,0.0,0.0
352,0.0,0.0,0.0,-0.0073095703125,0.0,0.0,0.0,0.0,0.0,0.0,0.616,0.0,0.0,0.0,0.0,0.0,0.0,0.3866764602954617,0.0,0.0,0.0,0.0,0.0,0.0,-14.636,0.0,0.0,0.0
353,0.0,0.0,0.0,-0.0013720703125,0.0,0.0,0.0,0.0,0.0,0.0,0.568,0.0,0.0,0.0,0.0,0.0,0.0,0.3956126403801857,0.0,0.0,0.0,0.0,0.0,0.0,-13.924,0.0,0.0,0.0
354,0.0,0.0,0.0,0.004564453125,0.0,0.0,0.0,0.0,0.0,0.0,0.599,0.0,0.0,0.0,0.0,0.0,0.0,0.40457454705826895,0.0,0.0,0.0,0.0,0.0,0.0,-14.224,0.0,0.0,0.0
355,0.0,0.0,0.0,0.0100693359375,0.0,0.0,0.0,0.0,0.0,0.0,0.578,0.0,0.0,0.0,0.0,0.0,0.0,0.41336146899364373,0.0,0.0,0.0,0.0,0.0,0.0,-13.764,0.0,0.0,0.0
356,0.0,0.0,0.0,0.0160068359375,0.0,0.0,0.0,0.0,0.0,0.0,0.574,0.0,0.0,0.0,0.0,0.0,0.0,0.42192848419390155,0.0,0.0,0.0,0.0,0.0,0.0,-13.856,0.0,0.0,0.0
357,0.0,0.0,0.0,0.0215107421875,0.0,0.0,0.0,0.0,0.0,0.0,0.584,0.0,0.0,0.0,0.0,0.0,0.0,0.4303551272134442,0.0,0.0,0.0,0.0,0.0,0.0,-14.2,0.0,0.0,0.0
358,0.0,0.0,0.0,0.0271591796875,0.0,0.0,0.0,0.0,0.0,0.0,0.551,0.0,0.0,0.0,0.0,0.0,0.0,0.43875373009181745,0.0,0.0,0.0,0.0,0.0,0.0,-14.04,0.0,0.0,0.0
359,0.0,0.0,0.0,0.0329521484375,0.0,0.0,0.0,0.0,0.0,0.0,0.576,0.0,0.0,0.0,0.0,0.0,0.0,0.4467593883058821,0.0,0.0,0.0,0.0,0.0,0.0,-14.656,0.0,0.0,0.0
360,0.0,0.0,0.0,0.0384658203125,0.0,0.0,0.0,0.0,0.0,0.0,0.569,0.0,0.0,0.0,0.0,0.0,0.0,0.45472500248202186,0.0,0.0,0.0,0.0,0.0,0.0,-14.728,0.0,0.0,0.0
361,0.0,0.0,0.0,0.0444033203125,0.0,0.0,0.0,0.0,0.0,0.0,0.573,0.0,0.0,0.0,0.0,0.0,0.0,0.4627735085977143,0.0,0.0,0.0,0.0,0.0,0.0,-14.52,0.0,0.0,0.0
362,0.0,0.0,0.0,0.0503408203125,0.0,0.0,0.0,0.0,0.0,0.0,0.603,0.0,0.0,0.0,0.0,0.0,0.0,0.46997448357993465,0.0,0.0,0.0,0.0,0.0,0.0,-14.084,0.0,0.0,0.0
363,0.0,0.0,0.0,0.0558447265625,0.0,0.0,0.0,0.0,0.0,0.0,0.576,0.0,0.0,0.0,0.0,0.0,0.0,0.47735735987321637,0.0,0.0,0.0,0.0,0.0,0.0,-13.628,0.0,0.0,0.0
364,0.0,0.0,0.0,0.0617822265625,0.0,0.0,0.0,0.0,0.0,0.0,0.57,0.0,0.0,0.0,0.0,0.0,0.0,0.48465651317343117,0.0,0.0,0.0,0.0,0.0,0.0,-13.516,0.0,0.0,0.0
365,0.0,0.0,0.0,0.0674306640625,0.0,0.0,0.0,0.0,0.0,0.0,0.588,0.0,0.0,0.0,0.0,0.0,0.0,0.4914481621038543,0.0,0.0,0.0,0.0,0.0,0.0,-13.444,0.0,0.0,0.0
366,0.0,0.0,0.0,0.0730791015625,0.0,0.0,0.0,0.0,0.0,0.0,0.562,0.0,0.0,0.0,0.0,0.0,0.0,0.4982322822625547,0.0,0.0,0.0,0.0,0.0,0.0,-13.124,0.0,0.0,0.0
367,0.0,0.0,0.0,0.0790263671875,0.0,0.0,0.0,0.0,0.0,0.0,0.587,0.0,0.0,0.0,0.0,0.0,0.0,0.5048760983508417,0.0,0.0,0.0,0.0,0.0,0.0,-13.536,0.0,0.0,0.0
368,0.0,0.0,0.0,0.0845302734375,0.0,0.0,0.0,0.0,0.0,0.0,0.586,0.0,0.0,0.0,0.0,0.0,0.0,0.511206401220123,0.0,0.0,0.0,0.0,0.0,0.0,-13.812,0.0,0.0,0.0
369,0.0,0.0,0.0,0.0903232421875,0.0,0.0,0.0,0.0,0.0,0.0,0.562,0.0,0.0,0.0,0.0,0.0,0.0,0.5173926960078431,0.0,0.0,0.0,0.0,0.0,0.0,-13.948,0.0,0.0,0.0
370,0.0,0.0,0.0,0.09626953125,0.0,0.0,0.0,0.0,0.0,0.0,0.591,0.0,0.0,0.0,0.0,0.0,0.0,0.5234191469503631,0.0,0.0,0.0,0.0,0.0,0.0,-14.496,0.0,0.0,0.0
371,0.0,0.0,0.0,0.1019091796875,0.0,0.0,0.0,0.0,0.0,0.0,0.573,0.0,0.0,0.0,0.0,0.0,0.0,0.5291470161571684,0.0,0.0,0.0,0.0,0.0,0.0,-14.544,0.0,0.0,0.0
372,0.0,0.0,0.0,0.1079912109375,0.0,0.0,0.0,0.0,0.0,0.0,0.585,0.0,0.0,0.0,0.0,0.0,0.0,0.5346836347647651,0.0,0.0,0.0,0.0,0.0,0.0,-14.176,0.0,0.0,0.0
373,0.0,0.0,0.0,0.1140732421875,0.0,0.0,0.0,0.0,0.0,0.0,0.623,0.0,0.0,0.0,0.0,0.0,0.0,0.5401355014554748,0.0,0.0,0.0,0.0,0.0,0.0,-13.836,0.0,0.0,0.0
374,0.0,0.0,0.0,0.1198662109375,0.0,0.0,0.0,0.0,0.0,0.0,0.594,0.0,0.0,0.0,0.0,0.0,0.0,0.5451455308284865,0.0,0.0,0.0,0.0,0.0,0.0,-13.376,0.0,0.0,0.0
375,0.0,0.0,0.0,0.125947265625,0.0,0.0,0.0,0.0,0.0,0.0,0.595,0.0,0.0,0.0,0.0,0.0,0.0,0.5500377181145104,0.0,0.0,0.0,0.0,0.0,0.0,-13.72,0.0,0.0,0.0
376,0.0,0.0,0.0,0.1315966796875,0.0,0.0,0.0,0.0,0.0,0.0,0.594,0.0,0.0,0.0,0.0,0.0,0.0,0.554754958119706,0.0,0.0,0.0,0.0,0.0,0.0,-13.332,0.0,0.0,0.0
377,0.0,0.0,0.0,0.13754296875,0.0,0.0,0.0,0.0,0.0,0.0,0.573,0.0,0.0,0.0,0.0,0.0,0.0,0.5592225807362147,0.0,0.0,0.0,0.0,0.0,0.0,-13.264,0.0,0.0,0.0
378,0.0,0.0,0.0,0.14348046875,0.0,0.0,0.0,0.0,0.0,0.0,0.6,0.0,0.0,0.0,0.0,0.0,0.0,0.563453376250074,0.0,0.0,0.0,0.0,0.0,0.0,-13.24,0.0,0.0,0.0
379,0.0,0.0,0.0,0.14912890625,0.0,0.0,0.0,0.0,0.0,0.0,0.584,0.0,0.0,0.0,0.0,0.0,0.0,0.567497669446455,0.0,0.0,0.0,0.0,0.0,0.0,-13.652,0.0,0.0,0.0
380,0.0,0.0,0.0,0.1552109375,0.0,0.0,0.0,0.0,0.0,0.0,0.591,0.0,0.0,0.0,0.0,0.0,0.0,0.571285037094531,0.0,0.0,0.0,0.0,0.0,0.0,-14.156,0.0,0.0,0.0
381,0.0,0.0,0.0,0.1610126953125,0.0,0.0,0.0,0.0,0.0,0.0,0.603,0.0,0.0,0.0,0.0,0.0,0.0,0.5747953591516779,0.0,0.0,0.0,0.0,0.0,0.0,-14.796,0.0,0.0,0.0
382,0.0,0.0,0.0,0.1669501953125,0.0,0.0,0.0,0.0,0.0,0.0,0.584,0.0,0.0,0.0,0.0,0.0,0.0,0.5781291250532933,0.0,0.0,0.0,0.0,0.0,0.0,-14.704,0.0,0.0,0.0
383,0.0,0.0,0.0,0.1731767578125,0.0,0.0,0.0,0.0,0.0,0.0,0.612,0.0,0.0,0.0,0.0,0.0,0.0,0.581249316267804,0.0,0.0,0.0,0.0,0.0,0.0,-14.132,0.0,0.0,0.0
384,0.0,0.0,0.0,0.178978515625,0.0,0.0,0.0,0.0,0.0,0.0,0.607,0.0,0.0,0.0,0.0,0.0,0.0,0.5840800109217853,0.0,0.0,0.0,0.0,0.0,0.0,-13.764,0.0,0.0,0.0
385,0.0,0.0,0.0,0.185060546875,0.0,0.0,0.0,0.0,0.0,0.0,0.593,0.0,0.0,0.0,0.0,0.0,0.0,0.586709976828753,0.0,0.0,0.0,0.0,0.0,0.0,-13.584,0.0,0.0,0.0
386,0.0,0.0,0.0,0.190853515625,0.0,0.0,0.0,0.0,0.0,0.0,0.605,0.0,0.0,0.0,0.0,0.0,0.0,0.5891178274543347,0.0,0.0,0.0,0.0,0.0,0.0,-13.788,0.0,0.0,0.0
387,0.0,0.0,0.0,0.1966552734375,0.0,0.0,0.0,0.0,0.0,0.0,0.582,0.0,0.0,0.0,0.0,0.0,0.0,0.5912610438552419,0.0,0.0,0.0,0.0,0.0,0.0,-13.584,0.0,0.0,0.0
388,0.0,0.0,0.0,0.2025927734375,0.0,0.0,0.0,0.0,0.0,0.0,0.592,0.0,0.0,0.0,0.0,0.0,0.0,0.5931877977311962,0.0,0.0,0.0,0.0,0.0,0.0,-13.376,0.0,0.0,0.0
389,0.0,0.0,0.0,0.208376953125,0.0,0.0,0.0,0.0,0.0,0.0,0.586,0.0,0.0,0.0,0.0,0.0,0.0,0.594870310691296,0.0,0.0,0.0,0.0,0.0,0.0,-13.492,0.0,0.0,0.0
390,0.0,0.0,0.0,0.214314453125,0.0,0.0,0.0,0.0,0.0,0.0,0.582,0.0,0.0,0.0,0.0,0.0,0.0,0.5963133294501572,0.0,0.0,0.0,0.0,0.0,0.0,-13.604,0.0,0.0,0.0
391,0.0,0.0,0.0,0.2201162109375,0.0,0.0,0.0,0.0,0.0,0.0,0.594,0.0,0.0,0.0,0.0,0.0,0.0,0.5975238101496044,0.0,0.0,0.0,0.0,0.0,0.0,-14.408,0.0,0.0,0.0
392,0.0,0.0,0.0,0.2259091796875,0.0,0.0,0.0,0.0,0.0,0.0,0.584,0.0,0.0,0.0,0.0,0.0,0.0,0.5985017441526431,0.0,0.0,0.0,0.0,0.0,0.0,-14.728,0.0,0.0,0.0
393,0.0,0.0,0.0,0.2319912109375,0.0,0.0,0.0,0.0,0.0,0.0,0.594,0.0,0.0,0.0,0.0,0.0,0.0,0.5992236433955943,0.0,0.0,0.0,0.0,0.0,0.0,-14.224,0.0,0.0,0.0
394,0.0,0.0,0.0,0.2379375,0.0,0.0,0.0,0.0,0.0,0.0,0.607,0.0,0.0,0.0,0.0,0.0,0.0,0.5997135739434275,0.0,0.0,0.0,0.0,0.0,0.0,-13.4,0.0,0.0,0.0
395,0.0,0.0,0.0,0.24373046875,0.0,0.0,0.0,0.0,0.0,0.0,0.59,0.0,0.0,0.0,0.0,0.0,0.0,0.5999659827436924,0.0,0.0,0.0,0.0,0.0,0.0,-13.216,0.0,0.0,0.0
396,0.0,0.0,0.0,0.24966796875,0.0,0.0,0.0,0.0,0.0,0.0,0.586,0.0,0.0,0.0,0.0,0.0,0.0,0.599974698791813,0.0,0.0,0.0,0.0,0.0,0.0,-13.264,0.0,0.0,0.0
397,0.0,0.0,0.0,0.2554697265625,0.0,0.0,0.0,0.0,0.0,0.0,0.593,0.0,0.0,0.0,0.0,0.0,0.0,0.5997455650471868,0.0,0.0,0.0,0.0,0.0,0.0,-13.264,0.0,0.0,0.0
398,0.0,0.0,0.0,0.2612626953125,0.0,0.0,0.0,0.0,0.0,0.0,0.582,0.0,0.0,0.0,0.0,0.0,0.0,0.599268054535085,0.0,0.0,0.0,0.0,0.0,0.0,-13.192,0.0,0.0,0.0
399,0.0,0.0,0.0,0.267046875,0.0,0.0,0.0,0.0,0.0,0.0,0.583,0.0,0.0,0.0,0.0,0.0,0.0,0.5985619146919174,0.0,0.0,0.0,0.0,0.0,0.0,-13.124,0.0,0.0,0.0
400,0.0,0.0,0.0,0.2726953125,0.0,0.0,0.0,0.0,0.0,0.0,0.579,0.0,0.0,0.0,0.0,0.0,0.0,0.5976156763110136,0.0,0.0,0.0,0.0,0.0,0.0,-13.424,0.0,0.0,0.0
401,0.0,0.0,0.0,0.2786416015625,0.0,0.0,0.0,0.0,0.0,0.0,0.576,0.0,0.0,0.0,0.0,0.0,0.0,0.5964170403629625,0.0,0.0,0.0,0.0,0.0,0.0,-13.652,0.0,0.0,0.0
402,0.0,0.0,0.0,0.284435546875,0.0,0.0,0.0,0.0,0.0,0.0,0.593,0.0,0.0,0.0,0.0,0.0,0.0,0.5950035446367161,0.0,0.0,0.0,0.0,0.0,0.0,-14.156,0.0,0.0,0.0
403,0.0,0.0,0.0,0.2903720703125,0.0,0.0,0.0,0.0,0.0,0.0,0.586,0.0,0.0,0.0,0.0,0.0,0.0,0.5933394059778491,0.0,0.0,0.0,0.0,0.0,0.0,-14.384,0.0,0.0,0.0
404,0.0,0.0,0.0,0.296462890625,0.0,0.0,0.0,0.0,0.0,0.0,0.601,0.0,0.0,0.0,0.0,0.0,0.0,0.5914347581070835,0.0,0.0,0.0,0.0,0.0,0.0,-13.676,0.0,0.0,0.0
405,0.0,0.0,0.0,0.302400390625,0.0,0.0,0.0,0.0,0.0,0.0,0.608,0.0,0.0,0.0,0.0,0.0,0.0,0.5892786233566871,0.0,0.0,0.0,0.0,0.0,0.0,-13.172,0.0,0.0,0.0
406,0.0,0.0,0.0,0.308193359375,0.0,0.0,0.0,0.0,0.0,0.0,0.593,0.0,0.0,0.0,0.0,0.0,0.0,0.5869279182933778,0.0,0.0,0.0,0.0,0.0,0.0,-13.148,0.0,0.0,0.0
407,0.0,0.0,0.0,0.314140625,0.0,0.0,0.0,0.0,0.0,0.0,0.592,0.0,0.0,0.0,0.0,0.0,0.0,0.5843025716788102,0.0,0.0,0.0,0.0,0.0,0.0,-13.216,0.0,0.0,0.0
408,0.0,0.0,0.0,0.31993359375,0.0,0.0,0.0,0.0,0.0,0.0,0.589,0.0,0.0,0.0,0.0,0.0,0.0,0.5814589596516015,0.0,0.0,0.0,0.0,0.0,0.0,-13.08,0.0,0.0,0.0
409,0.0,0.0,0.0,0.325861328125,0.0,0.0,0.0,0.0,0.0,0.0,0.582,0.0,0.0,0.0,0.0,0.0,0.0,0.5783939582532812,0.0,0.0,0.0,0.0,0.0,0.0,-12.804,0.0,0.0,0.0
410,0.0,0.0,0.0,0.331654296875,0.0,0.0,0.0,0.0,0.0,0.0,0.593,0.0,0.0,0.0,0.0,0.0,0.0,0.5750184109004524,0.0,0.0,0.0,0.0,0.0,0.0,-12.736,0.0,0.0,0.0
411,0.0,0.0,0.0,0.3373125,0.0,0.0,0.0,0.0,0.0,0.0,0.577,0.0,0.0,0.0,0.0,0.0,0.0,0.5715355086408596,0.0,0.0,0.0,0.0,0.0,0.0,-13.24,0.0,0.0,0.0
412,0.0,0.0,0.0,0.34325,0.0,0.0,0.0,0.0,0.0,0.0,0.585,0.0,0.0,0.0,0.0,0.0,0.0,0.56776606606106,0.0,0.0,0.0,0.0,0.0,0.0,-13.924,0.0,0.0,0.0
413,0.0,0.0,0.0,0.3491875,0.0,0.0,0.0,0.0,0.0,0.0,0.593,0.0,0.0,0.0,0.0,0.0,0.0,0.5637754229420838,0.0,0.0,0.0,0.0,0.0,0.0,-14.108,0.0,0.0,0.0
414,0.0,0.0,0.0,0.3551337890625,0.0,0.0,0.0,0.0,0.0,0.0,0.59,0.0,0.0,0.0,0.0,0.0,0.0,0.5595634205232094,0.0,0.0,0.0,0.0,0.0,0.0,-13.88,0.0,0.0,0.0
415,0.0,0.0,0.0,0.3612158203125,0.0,0.0,0.0,0.0,0.0,0.0,0.608,0.0,0.0,0.0,0.0,0.0,0.0,0.5551391704915556,0.0,0.0,0.0,0.0,0.0,0.0,-13.104,0.0,0.0,0.0
416,0.0,0.0,0.0,0.36715234375,0.0,0.0,0.0,0.0,0.0,0.0,0.604,0.0,0.0,0.0,0.0,0.0,0.0,0.5503863577839019,0.0,0.0,0.0,0.0,0.0,0.0,-12.692,0.0,0.0,0.0
417,0.0,0.0,0.0,0.3729453125,0.0,0.0,0.0,0.0,0.0,0.0,0.593,0.0,0.0,0.0,0.0,0.0,0.0,0.5456119072164998,0.0,0.0,0.0,0.0,0.0,0.0,-12.896,0.0,0.0,0.0
418,0.0,0.0,0.0,0.3787392578125,0.0,0.0,0.0,0.0,0.0,0.0,0.583,0.0,0.0,0.0,0.0,0.0,0.0,0.5404769137947695,0.0,0.0,0.0,0.0,0.0,0.0,-12.736,0.0,0.0,0.0
419,0.0,0.0,0.0,0.38467578125,0.0,0.0,0.0,0.0,0.0,0.0,0.591,0.0,0.0,0.0,0.0,0.0,0.0,0.5351186436676505,0.0,0.0,0.0,0.0,0.0,0.0,-12.852,0.0,0.0,0.0
420,0.0,0.0,0.0,0.390478515625,0.0,0.0,0.0,0.0,0.0,0.0,0.59,0.0,0.0,0.0,0.0,0.0,0.0,0.5296300732517067,0.0,0.0,0.0,0.0,0.0,0.0,-12.784,0.0,0.0,0.0
421,0.0,0.0,0.0,0.396271484375,0.0,0.0,0.0,0.0,0.0,0.0,0.583,0.0,0.0,0.0,0.0,0.0,0.0,0.5239382373796903,0.0,0.0,0.0,0.0,0.0,0.0,-12.736,0.0,0.0,0.0
422,0.0,0.0,0.0,0.402208984375,0.0,0.0,0.0,0.0,0.0,0.0,0.592,0.0,0.0,0.0,0.0,0.0,0.0,0.5179450024587059,0.0,0.0,0.0,0.0,0.0,0.0,-13.216,0.0,0.0,0.0
423,0.0,0.0,0.0,0.4079931640625,0.0,0.0,0.0,0.0,0.0,0.0,0.588,0.0,0.0,0.0,0.0,0.0,0.0,0.5117949386104148,0.0,0.0,0.0,0.0,0.0,0.0,-13.696,0.0,0.0,0.0
424,0.0,0.0,0.0,0.413939453125,0.0,0.0,0.0,0.0,0.0,0.0,0.586,0.0,0.0,0.0,0.0,0.0,0.0,0.505442860602217,0.0,0.0,0.0,0.0,0.0,0.0,-13.812,0.0,0.0,0.0
425,0.0,0.0,0.0,0.419876953125,0.0,0.0,0.0,0.0,0.0,0.0,0.601,0.0,0.0,0.0,0.0,0.0,0.0,0.4988414151173971,0.0,0.0,0.0,0.0,0.0,0.0,-13.012,0.0,0.0,0.0
426,0.0,0.0,0.0,0.425814453125,0.0,0.0,0.0,0.0,0.0,0.0,0.6,0.0,0.0,0.0,0.0,0.0,0.0,0.4920959860897614,0.0,0.0,0.0,0.0,0.0,0.0,-12.348,0.0,0.0,0.0
427,0.0,0.0,0.0,0.4317607421875,0.0,0.0,0.0,0.0,0.0,0.0,0.6,0.0,0.0,0.0,0.0,0.0,0.0,0.48514589103139405,0.0,0.0,0.0,0.0,0.0,0.0,-12.348,0.0,0.0,0.0
428,0.0,0.0,0.0,0.4376982421875,0.0,0.0,0.0,0.0,0.0,0.0,0.588,0.0,0.0,0.0,0.0,0.0,0.0,0.4779770629596708,0.0,0.0,0.0,0.0,0.0,0.0,-12.624,0.0,0.0,0.0
429,0.0,0.0,0.0,0.4434814453125,0.0,0.0,0.0,0.0,0.0,0.0,0.593,0.0,0.0,0.0,0.0,0.0,0.0,0.4705850255506092,0.0,0.0,0.0,0.0,0.0,0.0,-12.508,0.0,0.0,0.0
430,0.0,0.0,0.0,0.449275390625,0.0,0.0,0.0,0.0,0.0,0.0,0.582,0.0,0.0,0.0,0.0,0.0,0.0,0.46312718740624215,0.0,0.0,0.0,0.0,0.0,0.0,-12.348,0.0,0.0,0.0
431,0.0,0.0,0.0,0.455068359375,0.0,0.0,0.0,0.0,0.0,0.0,0.588,0.0,0.0,0.0,0.0,0.0,0.0,0.45536206485319836,0.0,0.0,0.0,0.0,0.0,0.0,-12.304,0.0,0.0,0.0
432,0.0,0.0,0.0,0.460861328125,0.0,0.0,0.0,0.0,0.0,0.0,0.586,0.0,0.0,0.0,0.0,0.0,0.0,0.4474262916354545,0.0,0.0,0.0,0.0,0.0,0.0,-12.828,0.0,0.0,0.0
433,0.0,0.0,0.0,0.465634765625,0.0,0.0,0.0,0.0,0.0,0.0,0.545,0.0,0.0,0.0,0.0,0.0,0.0,0.43939276635612445,0.0,0.0,0.0,0.0,0.0,0.0,-15.32,0.0,0.0,0.0
434,0.0,0.0,0.0,0.467240234375,0.0,0.0,0.0,0.0,0.0,0.0,0.36,0.0,0.0,0.0,0.0,0.0,0.0,0.43107045397789284,0.0,0.0,0.0,0.0,0.0,0.0,-19.596,0.0,0.0,0.0
435,0.0,0.0,0.0,0.466365234375,0.0,0.0,0.0,0.0,0.0,0.0,0.05,0.0,0.0,0.0,0.0,0.0,0.0,0.4226149250847659,0.0,0.0,0.0,0.0,0.0,0.0,-21.016,0.0,0.0,0.0
436,0.0,0.0,0.0,0.4646240234375,0.0,0.0,0.0,0.0,0.0,0.0,-0.118,0.0,0.0,0.0,0.0,0.0,0.0,0.41403106700065023,0.0,0.0,0.0,0.0,0.0,0.0,-21.36,0.0,0.0,0.0
437,0.0,0.0,0.0,0.4610048828125,0.0,0.0,0.0,0.0,0.0,0.0,-0.253,0.0,0.0,0.0,0.0,0.0,0.0,0.4052753344894146,0.0,0.0,0.0,0.0,0.0,0.0,-20.856,0.0,0.0,0.0
438,0.0,0.0,0.0,0.4568095703125,0.0,0.0,0.0,0.0,0.0,0.0,-0.402,0.0,0.0,0.0,0.0,0.0,0.0,0.3962947706119595,0.0,0.0,0.0,0.0,0.0,0.0,-20.604,0.0,0.0,0.0
439,0.0,0.0,0.0,0.4523154296875,0.0,0.0,0.0,0.0,0.0,0.0,-0.433,0.0,0.0,0.0,0.0,0.0,0.0,0.38735165485055884,0.0,0.0,0.0,0.0,0.0,0.0,-21.748,0.0,0.0,0.0
440,0.0,0.0,0.0,0.4473984375,0.0,0.0,0.0,0.0,0.0,0.0,-0.467,0.0,0.0,0.0,0.0,0.0,0.0,0.3781209975383031,0.0,0.0,0.0,0.0,0.0,0.0,-22.912,0.0,0.0,0.0
441,0.0,0.0,0.0,0.441171875,0.0,0.0,0.0,0.0,0.0,0.0,-0.542,0.0,0.0,0.0,0.0,0.0,0.0,0.3686624686118127,0.0,0.0,0.0,0.0,0.0,0.0,-22.912,0.0,0.0,0.0
442,0.0,0.0,0.0,0.4334931640625,0.0,0.0,0.0,0.0,0.0,0.0,-0.682,0.0,0.0,0.0,0.0,0.0,0.0,0.3591928390489047,0.0,0.0,0.0,0.0,0.0,0.0,-22.112,0.0,0.0,0.0
443,0.0,0.0,0.0,0.425091796875,0.0,0.0,0.0,0.0,0.0,0.0,-0.816,0.0,0.0,0.0,0.0,0.0,0.0,0.3495165431856448,0.0,0.0,0.0,0.0,0.0,0.0,-21.588,0.0,0.0,0.0
444,0.0,0.0,0.0,0.4178466796875,0.0,0.0,0.0,0.0,0.0,0.0,-0.814,0.0,0.0,0.0,0.0,0.0,0.0,0.33956479391606914,0.0,0.0,0.0,0.0,0.0,0.0,-18.728,0.0,0.0,0.0
445,0.0,0.0,0.0,0.4111875,0.0,0.0,0.0,0.0,0.0,0.0,-0.682,0.0,0.0,0.0,0.0,0.0,0.0,0.32970460746893165,0.0,0.0,0.0,0.0,0.0,0.0,-18.752,0.0,0.0,0.0
446,0.0,0.0,0.0,0.4029306640625,0.0,0.0,0.0,0.0,0.0,0.0,-0.737,0.0,0.0,0.0,0.0,0.0,0.0,0.31963575861109733,0.0,0.0,0.0,0.0,0.0,0.0,-18.704,0.0,0.0,0.0
447,0.0,0.0,0.0,0.3942412109375,0.0,0.0,0.0,0.0,0.0,0.0,-0.857,0.0,0.0,0.0,0.0,0.0,0.0,0.30933985132957853,0.0,0.0,0.0,0.0,0.0,0.0,-19.184,0.0,0.0,0.0
448,0.0,0.0,0.0,0.38612890625,0.0,0.0,0.0,0.0,0.0,0.0,-0.857,0.0,0.0,0.0,0.0,0.0,0.0,0.2990401407031839,0.0,0.0,0.0,0.0,0.0,0.0,-15.436,0.0,0.0,0.0
449,0.0,0.0,0.0,0.3787392578125,0.0,0.0,0.0,0.0,0.0,0.0,-0.769,0.0,0.0,0.0,0.0,0.0,0.0,0.2885957336543598,0.0,0.0,0.0,0.0,0.0,0.0,-13.764,0.0,0.0,0.0
450,0.0,0.0,0.0,0.369607421875,0.0,0.0,0.0,0.0,0.0,0.0,-0.812,0.0,0.0,0.0,0.0,0.0,0.0,0.2779265038149116,0.0,0.0,0.0,0.0,0.0,0.0,-13.604,0.0,0.0,0.0
451,0.0,0.0,0.0,0.361359375,0.0,0.0,0.0,0.0,0.0,0.0,-0.904,0.0,0.0,0.0,0.0,0.0,0.0,0.2672709867653526,0.0,0.0,0.0,0.0,0.0,0.0,-14.176,0.0,0.0,0.0
452,0.0,0.0,0.0,0.3547001953125,0.0,0.0,0.0,0.0,0.0,0.0,-0.76,0.0,0.0,0.0,0.0,0.0,0.0,0.2565136439060225,0.0,0.0,0.0,0.0,0.0,0.0,-14.084,0.0,0.0,0.0
453,0.0,0.0,0.0,0.3471572265625,0.0,0.0,0.0,0.0,0.0,0.0,-0.691,0.0,0.0,0.0,0.0,0.0,0.0,0.24540043405116335,0.0,0.0,0.0,0.0,0.0,0.0,-14.2,0.0,0.0,0.0
454,0.0,0.0,0.0,0.3378896484375,0.0,0.0,0.0,0.0,0.0,0.0,-0.843,0.0,0.0,0.0,0.0,0.0,0.0,0.23463685205695683,0.0,0.0,0.0,0.0,0.0,0.0,-12.348,0.0,0.0,0.0
455,0.0,0.0,0.0,0.33035546875,0.0,0.0,0.0,0.0,0.0,0.0,-0.875,0.0,0.0,0.0,0.0,0.0,0.0,0.22356860024736092,0.0,0.0,0.0,0.0,0.0,0.0,-10.792,0.0,0.0,0.0
456,0.0,0.0,0.0,0.323984375,0.0,0.0,0.0,0.0,0.0,0.0,-0.695,0.0,0.0,0.0,0.0,0.0,0.0,0.2120901586152907,0.0,0.0,0.0,0.0,0.0,0.0,-10.244,0.0,0.0,0.0
457,0.0,0.0,0.0,0.316892578125,0.0,0.0,0.0,0.0,0.0,0.0,-0.665,0.0,0.0,0.0,0.0,0.0,0.0,0.20106071295555755,0.0,0.0,0.0,0.0,0.0,0.0,-10.976,0.0,0.0,0.0
458,0.0,0.0,0.0,0.3093486328125,0.0,0.0,0.0,0.0,0.0,0.0,-0.749,0.0,0.0,0.0,0.0,0.0,0.0,0.18973435199364963,0.0,0.0,0.0,0.0,0.0,0.0,-11.5,0.0,0.0,0.0
459,0.0,0.0,0.0,0.302400390625,0.0,0.0,0.0,0.0,0.0,0.0,-0.734,0.0,0.0,0.0,0.0,0.0,0.0,0.1782247233636307,0.0,0.0,0.0,0.0,0.0,0.0,-11.66,0.0,0.0,0.0
460,0.0,0.0,0.0,0.2955966796875,0.0,0.0,0.0,0.0,0.0,0.0,-0.69,0.0,0.0,0.0,0.0,0.0,0.0,0.1668238205877339,0.0,0.0,0.0,0.0,0.0,0.0,-10.632,0.0,0.0,0.0
461,0.0,0.0,0.0,0.2889287109375,0.0,0.0,0.0,0.0,0.0,0.0,-0.673,0.0,0.0,0.0,0.0,0.0,0.0,0.15524699086465304,0.0,0.0,0.0,0.0,0.0,0.0,-10.336,0.0,0.0,0.0
462,0.0,0.0,0.0,0.2819716796875,0.0,0.0,0.0,0.0,0.0,0.0,-0.693,0.0,0.0,0.0,0.0,0.0,0.0,0.14353204092289806,0.0,0.0,0.0,0.0,0.0,0.0,-11.044,0.0,0.0,0.0
463,0.0,0.0,0.0,0.2758896484375,0.0,0.0,0.0,0.0,0.0,0.0,-0.659,0.0,0.0,0.0,0.0,0.0,0.0,0.1318572837375376,0.0,0.0,0.0,0.0,0.0,0.0,-11.592,0.0,0.0,0.0
464,0.0,0.0,0.0,0.270087890625,0.0,0.0,0.0,0.0,0.0,0.0,-0.601,0.0,0.0,0.0,0.0,0.0,0.0,0.1202108364614542,0.0,0.0,0.0,0.0,0.0,0.0,-11.044,0.0,0.0,0.0
465,0.0,0.0,0.0,0.2643037109375,0.0,0.0,0.0,0.0,0.0,0.0,-0.584,0.0,0.0,0.0,0.0,0.0,0.0,0.10835661263247652,0.0,0.0,0.0,0.0,0.0,0.0,-10.724,0.0,0.0,0.0
466,0.0,0.0,0.0,0.25793359375,0.0,0.0,0.0,0.0,0.0,0.0,-0.603,0.0,0.0,0.0,0.0,0.0,0.0,0.09643958081623011,0.0,0.0,0.0,0.0,0.0,0.0,-11.64,0.0,0.0,0.0
467,0.0,0.0,0.0,0.251544921875,0.0,0.0,0.0,0.0,0.0,0.0,-0.646,0.0,0.0,0.0,0.0,0.0,0.0,0.08476462300018772,0.0,0.0,0.0,0.0,0.0,0.0,-11.868,0.0,0.0,0.0
468,0.0,0.0,0.0,0.246193359375,0.0,0.0,0.0,0.0,0.0,0.0,-0.604,0.0,0.0,0.0,0.0,0.0,0.0,0.07281515482933787,0.0,0.0,0.0,0.0,0.0,0.0,-11.684,0.0,0.0,0.0
469,0.0,0.0,0.0,0.240833984375,0.0,0.0,0.0,0.0,0.0,0.0,-0.541,0.0,0.0,0.0,0.0,0.0,0.0,0.06065384928202299,0.0,0.0,0.0,0.0,0.0,0.0,-11.684,0.0,0.0,0.0
470,0.0,0.0,0.0,0.2354736328125,0.0,0.0,0.0,0.0,0.0,0.0,-0.538,0.0,0.0,0.0,0.0,0.0,0.0,0.048963487814249175,0.0,0.0,0.0,0.0,0.0,0.0,-12.784,0.0,0.0,0.0
471,0.0,0.0,0.0,0.2301142578125,0.0,0.0,0.0,0.0,0.0,0.0,-0.536,0.0,0.0,0.0,0.0,0.0,0.0,0.036977680046090665,0.0,0.0,0.0,0.0,0.0,0.0,-14.04,0.0,0.0,0.0
472,0.0,0.0,0.0,0.2248984375,0.0,0.0,0.0,0.0,0.0,0.0,-0.532,0.0,0.0,0.0,0.0,0.0,0.0,0.024726629558012227,0.0,0.0,0.0,0.0,0.0,0.0,-14.956,0.0,0.0,0.0
473,0.0,0.0,0.0,0.2198271484375,0.0,0.0,0.0,0.0,0.0,0.0,-0.524,0.0,0.0,0.0,0.0,0.0,0.0,0.012943784729266019,0.0,0.0,0.0,0.0,0.0,0.0,-14.316,0.0,0.0,0.0
474,0.0,0.0,0.0,0.214900390625,0.0,0.0,0.0,0.0,0.0,0.0,-0.504,0.0,0.0,0.0,0.0,0.0,0.0,0.0007491062109697317,0.0,0.0,0.0,0.0,0.0,0.0,-13.216,0.0,0.0,0.0
475,0.0,0.0,0.0,0.2099736328125,0.0,0.0,0.0,0.0,0.0,0.0,-0.492,0.0,0.0,0.0,0.0,0.0,0.0,-0.01107744695669589,0.0,0.0,0.0,0.0,0.0,0.0,-13.628,0.0,0.0,0.0
476,0.0,0.0,0.0,0.20490234375,0.0,0.0,0.0,0.0,0.0,0.0,-0.508,0.0,0.0,0.0,0.0,0.0,0.0,-0.022970311611026684,0.0,0.0,0.0,0.0,0.0,0.0,-14.568,0.0,0.0,0.0
477,0.0,0.0,0.0,0.1998408203125,0.0,0.0,0.0,0.0,0.0,0.0,-0.513,0.0,0.0,0.0,0.0,0.0,0.0,-0.034920122014041106,0.0,0.0,0.0,0.0,0.0,0.0,-15.32,0.0,0.0,0.0
478,0.0,0.0,0.0,0.1943271484375,0.0,0.0,0.0,0.0,0.0,0.0,-0.524,0.0,0.0,0.0,0.0,0.0,0.0,-0.046918513448107504,0.0,0.0,0.0,0.0,0.0,0.0,-15.388,0.0,0.0,0.0
479,0.0,0.0,0.0,0.189111328125,0.0,0.0,0.0,0.0,0.0,0.0,-0.548,0.0,0.0,0.0,0.0,0.0,0.0,-0.05886189521325683,0.0,0.0,0.0,0.0,0.0,0.0,-14.248,0.0,0.0,0.0
480,0.0,0.0,0.0,0.184337890625,0.0,0.0,0.0,0.0,0.0,0.0,-0.506,0.0,0.0,0.0,0.0,0.0,0.0,-0.0708391599846489,0.0,0.0,0.0,0.0,0.0,0.0,-14.36,0.0,0.0,0.0
481,0.0,0.0,0.0,0.178978515625,0.0,0.0,0.0,0.0,0.0,0.0,-0.499,0.0,0.0,0.0,0.0,0.0,0.0,-0.08275102495304347,0.0,0.0,0.0,0.0,0.0,0.0,-15.708,0.0,0.0,0.0
482,0.0,0.0,0.0,0.173609375,0.0,0.0,0.0,0.0,0.0,0.0,-0.54,0.0,0.0,0.0,0.0,0.0,0.0,-0.09453706244372889,0.0,0.0,0.0,0.0,0.0,0.0,-16.672,0.0,0.0,0.0
483,0.0,0.0,0.0,0.16825,0.0,0.0,0.0,0.0,0.0,0.0,-0.545,0.0,0.0,0.0,0.0,0.0,0.0,-0.10640998089353261,0.0,0.0,0.0,0.0,0.0,0.0,-16.58,0.0,0.0,0.0
484,0.0,0.0,0.0,0.1624560546875,0.0,0.0,0.0,0.0,0.0,0.0,-0.558,0.0,0.0,0.0,0.0,0.0,0.0,-0.1184226243448483,0.0,0.0,0.0,0.0,0.0,0.0,-15.756,0.0,0.0,0.0
485,0.0,0.0,0.0,0.15710546875,0.0,0.0,0.0,0.0,0.0,0.0,-0.564,0.0,0.0,0.0,0.0,0.0,0.0,-0.1299347404943395,0.0,0.0,0.0,0.0,0.0,0.0,-14.84,0.0,0.0,0.0
486,0.0,0.0,0.0,0.152025390625,0.0,0.0,0.0,0.0,0.0,0.0,-0.524,0.0,0.0,0.0,0.0,0.0,0.0,-0.14162097545813424,0.0,0.0,0.0,0.0,0.0,0.0,-15.068,0.0,0.0,0.0
487,0.0,0.0,0.0,0.146376953125,0.0,0.0,0.0,0.0,0.0,0.0,-0.535,0.0,0.0,0.0,0.0,0.0,0.0,-0.1534475249090839,0.0,0.0,0.0,0.0,0.0,0.0,-15.848,0.0,0.0,0.0
488,0.0,0.0,0.0,0.140583984375,0.0,0.0,0.0,0.0,0.0,0.0,-0.579,0.0,0.0,0.0,0.0,0.0,0.0,-0.16487861608389134,0.0,0.0,0.0,0.0,0.0,0.0,-16.028,0.0,0.0,0.0
489,0.0,0.0,0.0,0.1346376953125,0.0,0.0,0.0,0.0,0.0,0.0,-0.588,0.0,0.0,0.0,0.0,0.0,0.0,-0.17640695053723118,0.0,0.0,0.0,0.0,0.0,0.0,-15.46,0.0,0.0,0.0
490,0.0,0.0,0.0,0.1284111328125,0.0,0.0,0.0,0.0,0.0,0.0,-0.618,0.0,0.0,0.0,0.0,0.0,0.0,-0.18776090125661518,0.0,0.0,0.0,0.0,0.0,0.0,-14.408,0.0,0.0,0.0
491,0.0,0.0,0.0,0.1226181640625,0.0,0.0,0.0,0.0,0.0,0.0,-0.604,0.0,0.0,0.0,0.0,0.0,0.0,-0.19921703160389392,0.0,0.0,0.0,0.0,0.0,0.0,-14.268,0.0,0.0,0.0
492,0.0,0.0,0.0,0.1165361328125,0.0,0.0,0.0,0.0,0.0,0.0,-0.594,0.0,0.0,0.0,0.0,0.0,0.0,-0.21041822669794896,0.0,0.0,0.0,0.0,0.0,0.0,-15.208,0.0,0.0,0.0
493,0.0,0.0,0.0,0.1104453125,0.0,0.0,0.0,0.0,0.0,0.0,-0.618,0.0,0.0,0.0,0.0,0.0,0.0,-0.2217001895159001,0.0,0.0,0.0,0.0,0.0,0.0,-15.732,0.0,0.0,0.0
494,0.0,0.0,0.0,0.1045078125,0.0,0.0,0.0,0.0,0.0,0.0,-0.608,0.0,0.0,0.0,0.0,0.0,0.0,-0.23277052966945616,0.0,0.0,0.0,0.0,0.0,0.0,-15.64,0.0,0.0,0.0
495,0.0,0.0,0.0,0.098291015625,0.0,0.0,0.0,0.0,0.0,0.0,-0.606,0.0,0.0,0.0,0.0,0.0,0.0,-0.24371881691285527,0.0,0.0,0.0,0.0,0.0,0.0,-15.024,0.0,0.0,0.0
496,0.0,0.0,0.0,0.0922001953125,0.0,0.0,0.0,0.0,0.0,0.0,-0.626,0.0,0.0,0.0,0.0,0.0,0.0,-0.2547616865390076,0.0,0.0,0.0,0.0,0.0,0.0,-14.084,0.0,0.0,0.0
497,0.0,0.0,0.0,0.0862626953125,0.0,0.0,0.0,0.0,0.0,0.0,-0.601,0.0,0.0,0.0,0.0,0.0,0.0,-0.26548758417911755,0.0,0.0,0.0,0.0,0.0,0.0,-14.452,0.0,0.0,0.0
498,0.0,0.0,0.0,0.079748046875,0.0,0.0,0.0,0.0,0.0,0.0,-0.623,0.0,0.0,0.0,0.0,0.0,0.0,-0.2762121224551105,0.0,0.0,0.0,0.0,0.0,0.0,-14.452,0.0,0.0,0.0
499,0.0,0.0,0.0,0.0738017578125,0.0,0.0,0.0,0.0,0.0,0.0,-0.633,0.0,0.0,0.0,0.0,0.0,0.0,-0.2868564839298884,0.0,0.0,0.0,0.0,0.0,0.0,-14.064,0.0,0.0,0.0
500,0.0,0.0,0.0,0.0674306640625,0.0,0.0,0.0,0.0,0.0,0.0,-0.612,0.0,0.0,0.0,0.0,0.0,0.0,-0.29722030838548685,0.0,0.0,0.0,0.0,0.0,0.0,-14.292,0.0,0.0,0.0
501,0.0,0.0,0.0,0.061205078125,0.0,0.0,0.0,0.0,0.0,0.0,-0.64,0.0,0.0,0.0,0.0,0.0,0.0,-0.3076420912834024,0.0,0.0,0.0,0.0,0.0,0.0,-13.424,0.0,0.0,0.0
502,0.0,0.0,0.0,0.055267578125,0.0,0.0,0.0,0.0,0.0,0.0,-0.617,0.0,0.0,0.0,0.0,0.0,0.0,-0.3179544820300324,0.0,0.0,0.0,0.0,0.0,0.0,-14.248,0.0,0.0,0.0
503,0.0,0.0,0.0,0.0488876953125,0.0,0.0,0.0,0.0,0.0,0.0,-0.617,0.0,0.0,0.0,0.0,0.0,0.0,-0.32803464589001585,0.0,0.0,0.0,0.0,0.0,0.0,-14.908,0.0,0.0,0.0
504,0.0,0.0,0.0,0.0429501953125,0.0,0.0,0.0,0.0,0.0,0.0,-0.625,0.0,0.0,0.0,0.0,0.0,0.0,-0.337971672285227,0.0,0.0,0.0,0.0,0.0,0.0,-14.476,0.0,0.0,0.0
505,0.0,0.0,0.0,0.0371572265625,0.0,0.0,0.0,0.0,0.0,0.0,-0.583,0.0,0.0,0.0,0.0,0.0,0.0,-0.3479064354087469,0.0,0.0,0.0,0.0,0.0,0.0,-14.636,0.0,0.0,0.0
506,0.0,0.0,0.0,0.030921875,0.0,0.0,0.0,0.0,0.0,0.0,-0.609,0.0,0.0,0.0,0.0,0.0,0.0,-0.3575263108388654,0.0,0.0,0.0,0.0,0.0,0.0,-13.972,0.0,0.0,0.0
507,0.0,0.0,0.0,0.0252734375,0.0,0.0,0.0,0.0,0.0,0.0,-0.597,0.0,0.0,0.0,0.0,0.0,0.0,-0.367070016514988,0.0,0.0,0.0,0.0,0.0,0.0,-14.108,0.0,0.0,0.0
508,0.0,0.0,0.0,0.019201171875,0.0,0.0,0.0,0.0,0.0,0.0,-0.588,0.0,0.0,0.0,0.0,0.0,0.0,-0.3765490801630859,0.0,0.0,0.0,0.0,0.0,0.0,-14.588,0.0,0.0,0.0
509,0.0,0.0,0.0,0.013263671875,0.0,0.0,0.0,0.0,0.0,0.0,-0.612,0.0,0.0,0.0,0.0,0.0,0.0,-0.38588016330830704,0.0,0.0,0.0,0.0,0.0,0.0,-13.788,0.0,0.0,0.0
510,0.0,0.0,0.0,0.00760546875,0.0,0.0,0.0,0.0,0.0,0.0,-0.577,0.0,0.0,0.0,0.0,0.0,0.0,-0.39489298739720835,0.0,0.0,0.0,0.0,0.0,0.0,-14.36,0.0,0.0,0.0
511,0.0,0.0,0.0,0.0015234375,0.0,0.0,0.0,0.0,0.0,0.0,-0.597,0.0,0.0,0.0,0.0,0.0,0.0,-0.4038718997703879,0.0,0.0,0.0,0.0,0.0,0.0,-13.904,0.0,0.0,0.0
512,0.0,0.0,0.0,-0.0042685546875,0.0,0.0,0.0,0.0,0.0,0.0,-0.595,0.0,0.0,0.0,0.0,0.0,0.0,-0.4126701214752473,0.0,0.0,0.0,0.0,0.0,0.0,-14.132,0.0,0.0,0.0
513,0.0,0.0,0.0,-0.010359375,0.0,0.0,0.0,0.0,0.0,0.0,-0.593,0.0,0.0,0.0,0.0,0.0,0.0,-0.4212380967217455,0.0,0.0,0.0,0.0,0.0,0.0,-14.908,0.0,0.0,0.0
514,0.0,0.0,0.0,-0.016296875,0.0,0.0,0.0,0.0,0.0,0.0,-0.613,0.0,0.0,0.0,0.0,0.0,0.0,-0.4297222080020287,0.0,0.0,0.0,0.0,0.0,0.0,-14.452,0.0,0.0,0.0
515,0.0,0.0,0.0,-0.02165625,0.0,0.0,0.0,0.0,0.0,0.0,-0.567,0.0,0.0,0.0,0.0,0.0,0.0,-0.43806279469012827,0.0,0.0,0.0,0.0,0.0,0.0,-14.932,0.0,0.0,0.0
516,0.0,0.0,0.0,-0.02759375,0.0,0.0,0.0,0.0,0.0,0.0,-0.568,0.0,0.0,0.0,0.0,0.0,0.0,-0.4461040629180042,0.0,0.0,0.0,0.0,0.0,0.0,-14.704,0.0,0.0,0.0
517,0.0,0.0,0.0,-0.0329541015625,0.0,0.0,0.0,0.0,0.0,0.0,-0.575,0.0,0.0,0.0,0.0,0.0,0.0,-0.4540900994867614,0.0,0.0,0.0,0.0,0.0,0.0,-14.544,0.0,0.0,0.0
518,0.0,0.0,0.0,-0.0387470703125,0.0,0.0,0.0,0.0,0.0,0.0,-0.551,0.0,0.0,0.0,0.0,0.0,0.0,-0.46188665612437674,0.0,0.0,0.0,0.0,0.0,0.0,-14.932,0.0,0.0,0.0
519,0.0,0.0,0.0,-0.044828125,0.0,0.0,0.0,0.0,0.0,0.0,-0.605,0.0,0.0,0.0,0.0,0.0,0.0,-0.4693657095725452,0.0,0.0,0.0,0.0,0.0,0.0,-14.336,0.0,0.0,0.0
520,0.0,0.0,0.0,-0.0503330078125,0.0,0.0,0.0,0.0,0.0,0.0,-0.59,0.0,0.0,0.0,0.0,0.0,0.0,-0.4767624962825447,0.0,0.0,0.0,0.0,0.0,0.0,-14.132,0.0,0.0,0.0
521,0.0,0.0,0.0,-0.056279296875,0.0,0.0,0.0,0.0,0.0,0.0,-0.57,0.0,0.0,0.0,0.0,0.0,0.0,-0.48400816124254165,0.0,0.0,0.0,0.0,0.0,0.0,-14.316,0.0,0.0,0.0
522,0.0,0.0,0.0,-0.062072265625,0.0,0.0,0.0,0.0,0.0,0.0,-0.594,0.0,0.0,0.0,0.0,0.0,0.0,-0.490930379147372,0.0,0.0,0.0,0.0,0.0,0.0,-14.132,0.0,0.0,0.0
523,0.0,0.0,0.0,-0.067720703125,0.0,0.0,0.0,0.0,0.0,0.0,-0.573,0.0,0.0,0.0,0.0,0.0,0.0,-0.49776882042066245,0.0,0.0,0.0,0.0,0.0,0.0,-14.976,0.0,0.0,0.0
524,0.0,0.0,0.0,-0.073947265625,0.0,0.0,0.0,0.0,0.0,0.0,-0.592,0.0,0.0,0.0,0.0,0.0,0.0,-0.5044170407967653,0.0,0.0,0.0,0.0,0.0,0.0,-15.136,0.0,0.0,0.0
525,0.0,0.0,0.0,-0.0796044921875,0.0,0.0,0.0,0.0,0.0,0.0,-0.61,0.0,0.0,0.0,0.0,0.0,0.0,-0.5107067867268994,0.0,0.0,0.0,0.0,0.0,0.0,-14.68,0.0,0.0,0.0
526,0.0,0.0,0.0,-0.085388671875,0.0,0.0,0.0,0.0,0.0,0.0,-0.567,0.0,0.0,0.0,0.0,0.0,0.0,-0.5169416768886564,0.0,0.0,0.0,0.0,0.0,0.0,-15.116,0.0,0.0,0.0
527,0.0,0.0,0.0,-0.091181640625,0.0,0.0,0.0,0.0,0.0,0.0,-0.588,0.0,0.0,0.0,0.0,0.0,0.0,-0.5229518593969521,0.0,0.0,0.0,0.0,0.0,0.0,-14.452,0.0,0.0,0.0
528,0.0,0.0,0.0,-0.09655078125,0.0,0.0,0.0,0.0,0.0,0.0,-0.559,0.0,0.0,0.0,0.0,0.0,0.0,-0.5286958272350358,0.0,0.0,0.0,0.0,0.0,0.0,-14.888,0.0,0.0,0.0
529,0.0,0.0,0.0,-0.1026328125,0.0,0.0,0.0,0.0,0.0,0.0,-0.568,0.0,0.0,0.0,0.0,0.0,0.0,-0.5342488190021479,0.0,0.0,0.0,0.0,0.0,0.0,-15.068,0.0,0.0,0.0
530,0.0,0.0,0.0,-0.1085703125,0.0,0.0,0.0,0.0,0.0,0.0,-0.614,0.0,0.0,0.0,0.0,0.0,0.0,-0.5396846938694212,0.0,0.0,0.0,0.0,0.0,0.0,-14.248,0.0,0.0,0.0
531,0.0,0.0,0.0,-0.11436328125,0.0,0.0,0.0,0.0,0.0,0.0,-0.583,0.0,0.0,0.0,0.0,0.0,0.0,-0.544750672946487,0.0,0.0,0.0,0.0,0.0,0.0,-14.384,0.0,0.0,0.0
532,0.0,0.0,0.0,-0.1205986328125,0.0,0.0,0.0,0.0,0.0,0.0,-0.604,0.0,0.0,0.0,0.0,0.0,0.0,-0.5496591217923452,0.0,0.0,0.0,0.0,0.0,0.0,-13.948,0.0,0.0,0.0
533,0.0,0.0,0.0,-0.1262470703125,0.0,0.0,0.0,0.0,0.0,0.0,-0.607,0.0,0.0,0.0,0.0,0.0,0.0,-0.5544319690573514,0.0,0.0,0.0,0.0,0.0,0.0,-14.084,0.0,0.0,0.0
534,0.0,0.0,0.0,-0.1321748046875,0.0,0.0,0.0,0.0,0.0,0.0,-0.569,0.0,0.0,0.0,0.0,0.0,0.0,-0.5588315282734254,0.0,0.0,0.0,0.0,0.0,0.0,-14.932,0.0,0.0,0.0
535,0.0,0.0,0.0,-0.1382568359375,0.0,0.0,0.0,0.0,0.0,0.0,-0.615,0.0,0.0,0.0,0.0,0.0,0.0,-0.5630845124339107,0.0,0.0,0.0,0.0,0.0,0.0,-14.656,0.0,0.0,0.0
536,0.0,0.0,0.0,-0.1439150390625,0.0,0.0,0.0,0.0,0.0,0.0,-0.599,0.0,0.0,0.0,0.0,0.0,0.0,-0.5671679179034149,0.0,0.0,0.0,0.0,0.0,0.0,-14.656,0.0,0.0,0.0
537,0.0,0.0,0.0,-0.14999609375,0.0,0.0,0.0,0.0,0.0,0.0,-0.583,0.0,0.0,0.0,0.0,0.0,0.0,-0.5709261680690223,0.0,0.0,0.0,0.0,0.0,0.0,-14.704,0.0,0.0,0.0
538,0.0,0.0,0.0,-0.1556455078125,0.0,0.0,0.0,0.0,0.0,0.0,-0.597,0.0,0.0,0.0,0.0,0.0,0.0,-0.5745001703025147,0.0,0.0,0.0,0.0,0.0,0.0,-14.084,0.0,0.0,0.0
539,0.0,0.0,0.0,-0.1612939453125,0.0,0.0,0.0,0.0,0.0,0.0,-0.56,0.0,0.0,0.0,0.0,0.0,0.0,-0.5778759504914986,0.0,0.0,0.0,0.0,0.0,0.0,-14.772,0.0,0.0,0.0
540,0.0,0.0,0.0,-0.167529296875,0.0,0.0,0.0,0.0,0.0,0.0,-0.592,0.0,0.0,0.0,0.0,0.0,0.0,-0.5809767396563525,0.0,0.0,0.0,0.0,0.0,0.0,-14.612,0.0,0.0,0.0
541,0.0,0.0,0.0,-0.1731689453125,0.0,0.0,0.0,0.0,0.0,0.0,-0.615,0.0,0.0,0.0,0.0,0.0,0.0,-0.5838522788319235,0.0,0.0,0.0,0.0,0.0,0.0,-13.924,0.0,0.0,0.0
542,0.0,0.0,0.0,-0.17925,0.0,0.0,0.0,0.0,0.0,0.0,-0.581,0.0,0.0,0.0,0.0,0.0,0.0,-0.5865580262625927,0.0,0.0,0.0,0.0,0.0,0.0,-14.2,0.0,0.0,0.0
543,0.0,0.0,0.0,-0.18533203125,0.0,0.0,0.0,0.0,0.0,0.0,-0.614,0.0,0.0,0.0,0.0,0.0,0.0,-0.5889239672590765,0.0,0.0,0.0,0.0,0.0,0.0,-13.584,0.0,0.0,0.0
544,0.0,0.0,0.0,-0.190990234375,0.0,0.0,0.0,0.0,0.0,0.0,-0.594,0.0,0.0,0.0,0.0,0.0,0.0,-0.5910939004211021,0.0,0.0,0.0,0.0,0.0,0.0,-14.108,0.0,0.0,0.0
545,0.0,0.0,0.0,-0.1970712890625,0.0,0.0,0.0,0.0,0.0,0.0,-0.583,0.0,0.0,0.0,0.0,0.0,0.0,-0.5930693114789228,0.0,0.0,0.0,0.0,0.0,0.0,-14.864,0.0,0.0,0.0
546,0.0,0.0,0.0,-0.2030087890625,0.0,0.0,0.0,0.0,0.0,0.0,-0.613,0.0,0.0,0.0,0.0,0.0,0.0,-0.5947478791974383,0.0,0.0,0.0,0.0,0.0,0.0,-14.408,0.0,0.0,0.0
547,0.0,0.0,0.0,-0.208513671875,0.0,0.0,0.0,0.0,0.0,0.0,-0.575,0.0,0.0,0.0,0.0,0.0,0.0,-0.5962174189045297,0.0,0.0,0.0,0.0,0.0,0.0,-14.816,0.0,0.0,0.0
548,0.0,0.0,0.0,-0.2145947265625,0.0,0.0,0.0,0.0,0.0,0.0,-0.584,0.0,0.0,0.0,0.0,0.0,0.0,-0.5974447651152603,0.0,0.0,0.0,0.0,0.0,0.0,-14.408,0.0,0.0,0.0
549,0.0,0.0,0.0,-0.220244140625,0.0,0.0,0.0,0.0,0.0,0.0,-0.592,0.0,0.0,0.0,0.0,0.0,0.0,-0.5984220233597302,0.0,0.0,0.0,0.0,0.0,0.0,-14.04,0.0,0.0,0.0
550,0.0,0.0,0.0,-0.226037109375,0.0,0.0,0.0,0.0,0.0,0.0,-0.565,0.0,0.0,0.0,0.0,0.0,0.0,-0.5991755429788446,0.0,0.0,0.0,0.0,0.0,0.0,-14.656,0.0,0.0,0.0
551,0.0,0.0,0.0,-0.231974609375,0.0,0.0,0.0,0.0,0.0,0.0,-0.597,0.0,0.0,0.0,0.0,0.0,0.0,-0.5996852732999294,0.0,0.0,0.0,0.0,0.0,0.0,-14.132,0.0,0.0,0.0
552,0.0,0.0,0.0,-0.2377763671875,0.0,0.0,0.0,0.0,0.0,0.0,-0.594,0.0,0.0,0.0,0.0,0.0,0.0,-0.5999532379246527,0.0,0.0,0.0,0.0,0.0,0.0,-13.628,0.0,0.0,0.0
553,0.0,0.0,0.0,-0.2437138671875,0.0,0.0,0.0,0.0,0.0,0.0,-0.585,0.0,0.0,0.0,0.0,0.0,0.0,-0.5999830748634865,0.0,0.0,0.0,0.0,0.0,0.0,-14.064,0.0,0.0,0.0
554,0.0,0.0,0.0,-0.249642578125,0.0,0.0,0.0,0.0,0.0,0.0,-0.608,0.0,0.0,0.0,0.0,0.0,0.0,-0.5997679783988952,0.0,0.0,0.0,0.0,0.0,0.0,-13.604,0.0,0.0,0.0
555,0.0,0.0,0.0,-0.255291015625,0.0,0.0,0.0,0.0,0.0,0.0,-0.58,0.0,0.0,0.0,0.0,0.0,0.0,-0.5993231666023654,0.0,0.0,0.0,0.0,0.0,0.0,-14.176,0.0,0.0,0.0
556,0.0,0.0,0.0,-0.2615166015625,0.0,0.0,0.0,0.0,0.0,0.0,-0.594,0.0,0.0,0.0,0.0,0.0,0.0,-0.5986344105748856,0.0,0.0,0.0,0.0,0.0,0.0,-14.704,0.0,0.0,0.0
557,0.0,0.0,0.0,-0.2673193359375,0.0,0.0,0.0,0.0,0.0,0.0,-0.607,0.0,0.0,0.0,0.0,0.0,0.0,-0.5977024337756904,0.0,0.0,0.0,0.0,0.0,0.0,-14.064,0.0,0.0,0.0
558,0.0,0.0,0.0,-0.272958984375,0.0,0.0,0.0,0.0,0.0,0.0,-0.573,0.0,0.0,0.0,0.0,0.0,0.0,-0.5965342154787012,0.0,0.0,0.0,0.0,0.0,0.0,-14.568,0.0,0.0,0.0
559,0.0,0.0,0.0,-0.278751953125,0.0,0.0,0.0,0.0,0.0,0.0,-0.578,0.0,0.0,0.0,0.0,0.0,0.0,-0.5951282675067201,0.0,0.0,0.0,0.0,0.0,0.0,-14.248,0.0,0.0,0.0
560,0.0,0.0,0.0,-0.284400390625,0.0,0.0,0.0,0.0,0.0,0.0,-0.583,0.0,0.0,0.0,0.0,0.0,0.0,-0.5934801090406945,0.0,0.0,0.0,0.0,0.0,0.0,-13.948,0.0,0.0,0.0
561,0.0,0.0,0.0,-0.2903466796875,0.0,0.0,0.0,0.0,0.0,0.0,-0.575,0.0,0.0,0.0,0.0,0.0,0.0,-0.5915770533721288,0.0,0.0,0.0,0.0,0.0,0.0,-14.568,0.0,0.0,0.0
562,0.0,0.0,0.0,-0.2962841796875,0.0,0.0,0.0,0.0,0.0,0.0,-0.6,0.0,0.0,0.0,0.0,0.0,0.0,-0.5894847864681872,0.0,0.0,0.0,0.0,0.0,0.0,-13.72,0.0,0.0,0.0
563,0.0,0.0,0.0,-0.302212890625,0.0,0.0,0.0,0.0,0.0,0.0,-0.593,0.0,0.0,0.0,0.0,0.0,0.0,-0.5871228621477763,0.0,0.0,0.0,0.0,0.0,0.0,-13.604,0.0,0.0,0.0
564,0.0,0.0,0.0,-0.308005859375,0.0,0.0,0.0,0.0,0.0,0.0,-0.594,0.0,0.0,0.0,0.0,0.0,0.0,-0.5845457878625706,0.0,0.0,0.0,0.0,0.0,0.0,-13.696,0.0,0.0,0.0
565,0.0,0.0,0.0,-0.3138076171875,0.0,0.0,0.0,0.0,0.0,0.0,-0.585,0.0,0.0,0.0,0.0,0.0,0.0,-0.5817333560442881,0.0,0.0,0.0,0.0,0.0,0.0,-13.56,0.0,0.0,0.0
566,0.0,0.0,0.0,-0.3198896484375,0.0,0.0,0.0,0.0,0.0,0.0,-0.599,0.0,0.0,0.0,0.0,0.0,0.0,-0.5786698358876511,0.0,0.0,0.0,0.0,0.0,0.0,-14.248,0.0,0.0,0.0
567,0.0,0.0,0.0,-0.3258173828125,0.0,0.0,0.0,0.0,0.0,0.0,-0.605,0.0,0.0,0.0,0.0,0.0,0.0,-0.5753787435969792,0.0,0.0,0.0,0.0,0.0,0.0,-14.248,0.0,0.0,0.0
568,0.0,0.0,0.0,-0.331466796875,0.0,0.0,0.0,0.0,0.0,0.0,-0.589,0.0,0.0,0.0,0.0,0.0,0.0,-0.5718597725232102,0.0,0.0,0.0,0.0,0.0,0.0,-14.084,0.0,0.0,0.0
569,0.0,0.0,0.0,-0.337259765625,0.0,0.0,0.0,0.0,0.0,0.0,-0.573,0.0,0.0,0.0,0.0,0.0,0.0,-0.5681021726955473,0.0,0.0,0.0,0.0,0.0,0.0,-14.108,0.0,0.0,0.0
570,0.0,0.0,0.0,-0.3430615234375,0.0,0.0,0.0,0.0,0.0,0.0,-0.584,0.0,0.0,0.0,0.0,0.0,0.0,-0.5641131464075302,0.0,0.0,0.0,0.0,0.0,0.0,-13.904,0.0,0.0,0.0
571,0.0,0.0,0.0,-0.348845703125,0.0,0.0,0.0,0.0,0.0,0.0,-0.584,0.0,0.0,0.0,0.0,0.0,0.0,-0.5599506836748214,0.0,0.0,0.0,0.0,0.0,0.0,-13.764,0.0,0.0,0.0
572,0.0,0.0,0.0,-0.354927734375,0.0,0.0,0.0,0.0,0.0,0.0,-0.594,0.0,0.0,0.0,0.0,0.0,0.0,-0.5554869926217818,0.0,0.0,0.0,0.0,0.0,0.0,-13.924,0.0,0.0,0.0
573,0.0,0.0,0.0,-0.360720703125,0.0,0.0,0.0,0.0,0.0,0.0,-0.597,0.0,0.0,0.0,0.0,0.0,0.0,-0.5506828391532509,0.0,0.0,0.0,0.0,0.0,0.0,-13.24,0.0,0.0,0.0
574,0.0,0.0,0.0,-0.366658203125,0.0,0.0,0.0,0.0,0.0,0.0,-0.587,0.0,0.0,0.0,0.0,0.0,0.0,-0.5460162707528465,0.0,0.0,0.0,0.0,0.0,0.0,-13.424,0.0,0.0,0.0
575,0.0,0.0,0.0,-0.372595703125,0.0,0.0,0.0,0.0,0.0,0.0,-0.602,0.0,0.0,0.0,0.0,0.0,0.0,-0.5408834224353204,0.0,0.0,0.0,0.0,0.0,0.0,-13.424,0.0,0.0,0.0
576,0.0,0.0,0.0,-0.378388671875,0.0,0.0,0.0,0.0,0.0,0.0,-0.592,0.0,0.0,0.0,0.0,0.0,0.0,-0.5355253190566388,0.0,0.0,0.0,0.0,0.0,0.0,-13.628,0.0,0.0,0.0
577,0.0,0.0,0.0,-0.3844697265625,0.0,0.0,0.0,0.0,0.0,0.0,-0.596,0.0,0.0,0.0,0.0,0.0,0.0,-0.5300834361215467,0.0,0.0,0.0,0.0,0.0,0.0,-14.108,0.0,0.0,0.0
578,0.0,0.0,0.0,-0.3903984375,0.0,0.0,0.0,0.0,0.0,0.0,-0.609,0.0,0.0,0.0,0.0,0.0,0.0,-0.524368241654602,0.0,0.0,0.0,0.0,0.0,0.0,-13.788,0.0,0.0,0.0
579,0.0,0.0,0.0,-0.3960556640625,0.0,0.0,0.0,0.0,0.0,0.0,-0.579,0.0,0.0,0.0,0.0,0.0,0.0,-0.5183832579670862,0.0,0.0,0.0,0.0,0.0,0.0,-13.764,0.0,0.0,0.0
580,0.0,0.0,0.0,-0.401849609375,0.0,0.0,0.0,0.0,0.0,0.0,-0.579,0.0,0.0,0.0,0.0,0.0,0.0,-0.5122537552653691,0.0,0.0,0.0,0.0,0.0,0.0,-13.652,0.0,0.0,0.0
581,0.0,0.0,0.0,-0.4074892578125,0.0,0.0,0.0,0.0,0.0,0.0,-0.577,0.0,0.0,0.0,0.0,0.0,0.0,-0.5059075015062209,0.0,0.0,0.0,0.0,0.0,0.0,-13.584,0.0,0.0,0.0
582,0.0,0.0,0.0,-0.41342578125,0.0,0.0,0.0,0.0,0.0,0.0,-0.58,0.0,0.0,0.0,0.0,0.0,0.0,-0.4993472370514685,0.0,0.0,0.0,0.0,0.0,0.0,-13.812,0.0,0.0,0.0
583,0.0,0.0,0.0,-0.41936328125,0.0,0.0,0.0,0.0,0.0,0.0,-0.596,0.0,0.0,0.0,0.0,0.0,0.0,-0.49265928194009223,0.0,0.0,0.0,0.0,0.0,0.0,-13.4,0.0,0.0,0.0
584,0.0,0.0,0.0,-0.4251474609375,0.0,0.0,0.0,0.0,0.0,0.0,-0.594,0.0,0.0,0.0,0.0,0.0,0.0,-0.4857188382649499,0.0,0.0,0.0,0.0,0.0,0.0,-12.828,0.0,0.0,0.0
585,0.0,0.0,0.0,-0.43109375,0.0,0.0,0.0,0.0,0.0,0.0,-0.594,0.0,0.0,0.0,0.0,0.0,0.0,-0.47851788742019175,0.0,0.0,0.0,0.0,0.0,0.0,-13.148,0.0,0.0,0.0
586,0.0,0.0,0.0,-0.43703125,0.0,0.0,0.0,0.0,0.0,0.0,-0.599,0.0,0.0,0.0,0.0,0.0,0.0,-0.4712277781386688,0.0,0.0,0.0,0.0,0.0,0.0,-13.056,0.0,0.0,0.0
587,0.0,0.0,0.0,-0.4429599609375,0.0,0.0,0.0,0.0,0.0,0.0,-0.588,0.0,0.0,0.0,0.0,0.0,0.0,-0.4637425382090299,0.0,0.0,0.0,0.0,0.0,0.0,-13.424,0.0,0.0,0.0
588,0.0,0.0,0.0,-0.4488974609375,0.0,0.0,0.0,0.0,0.0,0.0,-0.596,0.0,0.0,0.0,0.0,0.0,0.0,-0.4559376669873987,0.0,0.0,0.0,0.0,0.0,0.0,-13.88,0.0,0.0,0.0
589,0.0,0.0,0.0,-0.4546904296875,0.0,0.0,0.0,0.0,0.0,0.0,-0.594,0.0,0.0,0.0,0.0,0.0,0.0,-0.44813114461225606,0.0,0.0,0.0,0.0,0.0,0.0,-13.424,0.0,0.0,0.0
590,0.0,0.0,0.0,-0.4603388671875,0.0,0.0,0.0,0.0,0.0,0.0,-0.58,0.0,0.0,0.0,0.0,0.0,0.0,-0.44006826547847105,0.0,0.0,0.0,0.0,0.0,0.0,-13.376,0.0,0.0,0.0
591,0.0,0.0,0.0,-0.46541015625,0.0,0.0,0.0,0.0,0.0,0.0,-0.562,0.0,0.0,0.0,0.0,0.0,0.0,-0.4316138364944902,0.0,0.0,0.0,0.0,0.0,0.0,-11.616,0.0,0.0,0.0
592,0.0,0.0,0.0,-0.467287109375,0.0,0.0,0.0,0.0,0.0,0.0,-0.39,0.0,0.0,0.0,0.0,0.0,0.0,-0.42340326132077455,0.0,0.0,0.0,0.0,0.0,0.0,-8.004,0.0,0.0,0.0
593,0.0,0.0,0.0,-0.4665654296875,0.0,0.0,0.0,0.0,0.0,0.0,-0.062,0.0,0.0,0.0,0.0,0.0,0.0,-0.414808013947425,0.0,0.0,0.0,0.0,0.0,0.0,-6.7,0.0,0.0,0.0
594,0.0,0.0,0.0,-0.46512109375,0.0,0.0,0.0,0.0,0.0,0.0,0.094,0.0,0.0,0.0,0.0,0.0,0.0,-0.4059626772393322,0.0,0.0,0.0,0.0,0.0,0.0,-6.06,0.0,0.0,0.0
595,0.0,0.0,0.0,-0.4616474609375,0.0,0.0,0.0,0.0,0.0,0.0,0.224,0.0,0.0,0.0,0.0,0.0,0.0,-0.3971402962507034,0.0,0.0,0.0,0.0,0.0,0.0,-6.036,0.0,0.0,0.0
596,0.0,0.0,0.0,-0.457595703125,0.0,0.0,0.0,0.0,0.0,0.0,0.383,0.0,0.0,0.0,0.0,0.0,0.0,-0.3880489220537984,0.0,0.0,0.0,0.0,0.0,0.0,-5.716,0.0,0.0,0.0
597,0.0,0.0,0.0,-0.4532373046875,0.0,0.0,0.0,0.0,0.0,0.0,0.414,0.0,0.0,0.0,0.0,0.0,0.0,-0.37877200909872816,0.0,0.0,0.0,0.0,0.0,0.0,-4.32,0.0,0.0,0.0
598,0.0,0.0,0.0,-0.44788671875,0.0,0.0,0.0,0.0,0.0,0.0,0.48,0.0,0.0,0.0,0.0,0.0,0.0,-0.3692513962219955,0.0,0.0,0.0,0.0,0.0,0.0,-3.588,0.0,0.0,0.0
599,0.0,0.0,0.0,-0.44166015625,0.0,0.0,0.0,0.0,0.0,0.0,0.568,0.0,0.0,0.0,0.0,0.0,0.0,-0.35982923046480225,0.0,0.0,0.0,0.0,0.0,0.0,-2.696,0.0,0.0,0.0
600,0.0,0.0,0.0,-0.433845703125,0.0,0.0,0.0,0.0,0.0,0.0,0.696,0.0,0.0,0.0,0.0,0.0,0.0,-0.35013189029353214,0.0,0.0,0.0,0.0,0.0,0.0,-3.588,0.0,0.0,0.0
601,0.0,0.0,0.0,-0.4257431640625,0.0,0.0,0.0,0.0,0.0,0.0,0.809,0.0,0.0,0.0,0.0,0.0,0.0,-0.34027615405977885,0.0,0.0,0.0,0.0,0.0,0.0,-5.26,0.0,0.0,0.0
602,0.0,0.0,0.0,-0.41834375,0.0,0.0,0.0,0.0,0.0,0.0,0.789,0.0,0.0,0.0,0.0,0.0,0.0,-0.330374404133386,0.0,0.0,0.0,0.0,0.0,0.0,-7.568,0.0,0.0,0.0
603,0.0,0.0,0.0,-0.411251953125,0.0,0.0,0.0,0.0,0.0,0.0,0.72,0.0,0.0,0.0,0.0,0.0,0.0,-0.32029801654527285,0.0,0.0,0.0,0.0,0.0,0.0,-8.436,0.0,0.0,0.0
604,0.0,0.0,0.0,-0.40300390625,0.0,0.0,0.0,0.0,0.0,0.0,0.754,0.0,0.0,0.0,0.0,0.0,0.0,-0.3100351266552304,0.0,0.0,0.0,0.0,0.0,0.0,-7.612,0.0,0.0,0.0
605,0.0,0.0,0.0,-0.394169921875,0.0,0.0,0.0,0.0,0.0,0.0,0.863,0.0,0.0,0.0,0.0,0.0,0.0,-0.2998278846566337,0.0,0.0,0.0,0.0,0.0,0.0,-7.888,0.0,0.0,0.0
606,0.0,0.0,0.0,-0.3862021484375,0.0,0.0,0.0,0.0,0.0,0.0,0.854,0.0,0.0,0.0,0.0,0.0,0.0,-0.2893700718404702,0.0,0.0,0.0,0.0,0.0,0.0,-10.608,0.0,0.0,0.0
607,0.0,0.0,0.0,-0.378099609375,0.0,0.0,0.0,0.0,0.0,0.0,0.801,0.0,0.0,0.0,0.0,0.0,0.0,-0.27864440559720693,0.0,0.0,0.0,0.0,0.0,0.0,-11.8,0.0,0.0,0.0
608,0.0,0.0,0.0,-0.3689765625,0.0,0.0,0.0,0.0,0.0,0.0,0.862,0.0,0.0,0.0,0.0,0.0,0.0,-0.2681219153971313,0.0,0.0,0.0,0.0,0.0,0.0,-12.644,0.0,0.0,0.0
609,0.0,0.0,0.0,-0.3611533203125,0.0,0.0,0.0,0.0,0.0,0.0,0.881,0.0,0.0,0.0,0.0,0.0,0.0,-0.257312120870143,0.0,0.0,0.0,0.0,0.0,0.0,-13.536,0.0,0.0,0.0
610,0.0,0.0,0.0,-0.354783203125,0.0,0.0,0.0,0.0,0.0,0.0,0.712,0.0,0.0,0.0,0.0,0.0,0.0,-0.24635099252575368,0.0,0.0,0.0,0.0,0.0,0.0,-13.032,0.0,0.0,0.0
611,0.0,0.0,0.0,-0.34696875,0.0,0.0,0.0,0.0,0.0,0.0,0.683,0.0,0.0,0.0,0.0,0.0,0.0,-0.23549296443844545,0.0,0.0,0.0,0.0,0.0,0.0,-13.192,0.0,0.0,0.0
612,0.0,0.0,0.0,-0.3379814453125,0.0,0.0,0.0,0.0,0.0,0.0,0.851,0.0,0.0,0.0,0.0,0.0,0.0,-0.22436707504090228,0.0,0.0,0.0,0.0,0.0,0.0,-15.528,0.0,0.0,0.0
613,0.0,0.0,0.0,-0.330744140625,0.0,0.0,0.0,0.0,0.0,0.0,0.836,0.0,0.0,0.0,0.0,0.0,0.0,-0.21308924350120376,0.0,0.0,0.0,0.0,0.0,0.0,-17.448,0.0,0.0,0.0
614,0.0,0.0,0.0,-0.32394140625,0.0,0.0,0.0,0.0,0.0,0.0,0.698,0.0,0.0,0.0,0.0,0.0,0.0,-0.20183990631185314,0.0,0.0,0.0,0.0,0.0,0.0,-17.608,0.0,0.0,0.0
615,0.0,0.0,0.0,-0.3164150390625,0.0,0.0,0.0,0.0,0.0,0.0,0.721,0.0,0.0,0.0,0.0,0.0,0.0,-0.19053277103920416,0.0,0.0,0.0,0.0,0.0,0.0,-17.724,0.0,0.0,0.0
616,0.0,0.0,0.0,-0.30916015625,0.0,0.0,0.0,0.0,0.0,0.0,0.753,0.0,0.0,0.0,0.0,0.0,0.0,-0.1790810577993628,0.0,0.0,0.0,0.0,0.0,0.0,-15.664,0.0,0.0,0.0
617,0.0,0.0,0.0,-0.3025009765625,0.0,0.0,0.0,0.0,0.0,0.0,0.699,0.0,0.0,0.0,0.0,0.0,0.0,-0.1677459933940802,0.0,0.0,0.0,0.0,0.0,0.0,-16.396,0.0,0.0,0.0
618,0.0,0.0,0.0,-0.295697265625,0.0,0.0,0.0,0.0,0.0,0.0,0.673,0.0,0.0,0.0,0.0,0.0,0.0,-0.1561688160631754,0.0,0.0,0.0,0.0,0.0,0.0,-18.204,0.0,0.0,0.0
619,0.0,0.0,0.0,-0.2890380859375,0.0,0.0,0.0,0.0,0.0,0.0,0.68,0.0,0.0,0.0,0.0,0.0,0.0,-0.14451226521686925,0.0,0.0,0.0,0.0,0.0,0.0,-18.524,0.0,0.0,0.0
620,0.0,0.0,0.0,-0.2823701171875,0.0,0.0,0.0,0.0,0.0,0.0,0.672,0.0,0.0,0.0,0.0,0.0,0.0,-0.13287954336713065,0.0,0.0,0.0,0.0,0.0,0.0,-16.808,0.0,0.0,0.0
621,0.0,0.0,0.0,-0.27585546875,0.0,0.0,0.0,0.0,0.0,0.0,0.67,0.0,0.0,0.0,0.0,0.0,0.0,-0.12117051624463976,0.0,0.0,0.0,0.0,0.0,0.0,-17.792,0.0,0.0,0.0
622,0.0,0.0,0.0,-0.2703603515625,0.0,0.0,0.0,0.0,0.0,0.0,0.609,0.0,0.0,0.0,0.0,0.0,0.0,-0.10929165119846092,0.0,0.0,0.0,0.0,0.0,0.0,-18.5,0.0,0.0,0.0
623,0.0,0.0,0.0,-0.2641337890625,0.0,0.0,0.0,0.0,0.0,0.0,0.571,0.0,0.0,0.0,0.0,0.0,0.0,-0.0975529328505451,0.0,0.0,0.0,0.0,0.0,0.0,-17.836,0.0,0.0,0.0
624,0.0,0.0,0.0,-0.25775390625,0.0,0.0,0.0,0.0,0.0,0.0,0.644,0.0,0.0,0.0,0.0,0.0,0.0,-0.08569276277801206,0.0,0.0,0.0,0.0,0.0,0.0,-17.608,0.0,0.0,0.0
625,0.0,0.0,0.0,-0.25225,0.0,0.0,0.0,0.0,0.0,0.0,0.598,0.0,0.0,0.0,0.0,0.0,0.0,-0.07375060980630212,0.0,0.0,0.0,0.0,0.0,0.0,-14.956,0.0,0.0,0.0
626,0.0,0.0,0.0,-0.2467451171875,0.0,0.0,0.0,0.0,0.0,0.0,0.556,0.0,0.0,0.0,0.0,0.0,0.0,-0.06191844310666994,0.0,0.0,0.0,0.0,0.0,0.0,-15.596,0.0,0.0,0.0
627,0.0,0.0,0.0,-0.241828125,0.0,0.0,0.0,0.0,0.0,0.0,0.531,0.0,0.0,0.0,0.0,0.0,0.0,-0.04997920434711985,0.0,0.0,0.0,0.0,0.0,0.0,-16.12,0.0,0.0,0.0
628,0.0,0.0,0.0,-0.236748046875,0.0,0.0,0.0,0.0,0.0,0.0,0.497,0.0,0.0,0.0,0.0,0.0,0.0,-0.037718195051507745,0.0,0.0,0.0,0.0,0.0,0.0,-15.048,0.0,0.0,0.0
629,0.0,0.0,0.0,-0.231541015625,0.0,0.0,0.0,0.0,0.0,0.0,0.523,0.0,0.0,0.0,0.0,0.0,0.0,-0.025982158712813338,0.0,0.0,0.0,0.0,0.0,0.0,-14.064,0.0,0.0,0.0
630,0.0,0.0,0.0,-0.2264697265625,0.0,0.0,0.0,0.0,0.0,0.0,0.515,0.0,0.0,0.0,0.0,0.0,0.0,-0.01395556472695255,0.0,0.0,0.0,0.0,0.0,0.0,-13.4,0.0,0.0,0.0
631,0.0,0.0,0.0,-0.221408203125,0.0,0.0,0.0,0.0,0.0,0.0,0.507,0.0,0.0,0.0,0.0,0.0,0.0,-0.0019087663847483312,0.0,0.0,0.0,0.0,0.0,0.0,-14.108,0.0,0.0,0.0
632,0.0,0.0,0.0,-0.2164814453125,0.0,0.0,0.0,0.0,0.0,0.0,0.514,0.0,0.0,0.0,0.0,0.0,0.0,0.010054699401151165,0.0,0.0,0.0,0.0,0.0,0.0,-15.048,0.0,0.0,0.0
633,0.0,0.0,0.0,-0.2121318359375,0.0,0.0,0.0,0.0,0.0,0.0,0.465,0.0,0.0,0.0,0.0,0.0,0.0,1.0585784911560194e-05,0.0,0.0,0.0,0.0,0.0,0.0,-14.476,0.0,0.0,0.0
634,0.0,0.0,0.0,-0.207205078125,0.0,0.0,0.0,0.0,0.0,0.0,0.457,0.0,0.0,0.0,0.0,0.0,0.0,0.012084429885558816,0.0,0.0,0.0,0.0,0.0,0.0,-13.604,0.0,0.0,0.0
635,0.0,0.0,0.0,-0.201998046875,0.0,0.0,0.0,0.0,0.0,0.0,0.505,0.0,0.0,0.0,0.0,0.0,0.0,0.024126508202684978,0.0,0.0,0.0,0.0,0.0,0.0,-12.944,0.0,0.0,0.0
636,0.0,0.0,0.0,-0.1970712890625,0.0,0.0,0.0,0.0,0.0,0.0,0.516,0.0,0.0,0.0,0.0,0.0,0.0,0.03595666494611528,0.0,0.0,0.0,0.0,0.0,0.0,-12.484,0.0,0.0,0.0
637,0.0,0.0,0.0,-0.1917119140625,0.0,0.0,0.0,0.0,0.0,0.0,0.518,0.0,0.0,0.0,0.0,0.0,0.0,0.04802405980740065,0.0,0.0,0.0,0.0,0.0,0.0,-12.852,0.0,0.0,0.0
638,0.0,0.0,0.0,-0.18649609375,0.0,0.0,0.0,0.0,0.0,0.0,0.536,0.0,0.0,0.0,0.0,0.0,0.0,0.06002638651226544,0.0,0.0,0.0,0.0,0.0,0.0,-13.424,0.0,0.0,0.0
639,0.0,0.0,0.0,-0.1820029296875,0.0,0.0,0.0,0.0,0.0,0.0,0.487,0.0,0.0,0.0,0.0,0.0,0.0,0.07177840024978392,0.0,0.0,0.0,0.0,0.0,0.0,-12.096,0.0,0.0,0.0
640,0.0,0.0,0.0,-0.1766513671875,0.0,0.0,0.0,0.0,0.0,0.0,0.485,0.0,0.0,0.0,0.0,0.0,0.0,0.08384109223547094,0.0,0.0,0.0,0.0,0.0,0.0,-11.82,0.0,0.0,0.0
641,0.0,0.0,0.0,-0.1712919921875,0.0,0.0,0.0,0.0,0.0,0.0,0.539,0.0,0.0,0.0,0.0,0.0,0.0,0.09569618517604077,0.0,0.0,0.0,0.0,0.0,0.0,-11.64,0.0,0.0,0.0
642,0.0,0.0,0.0,-0.165787109375,0.0,0.0,0.0,0.0,0.0,0.0,0.541,0.0,0.0,0.0,0.0,0.0,0.0,0.10737288710243127,0.0,0.0,0.0,0.0,0.0,0.0,-12.232,0.0,0.0,0.0
643,0.0,0.0,0.0,-0.1599853515625,0.0,0.0,0.0,0.0,0.0,0.0,0.57,0.0,0.0,0.0,0.0,0.0,0.0,0.11920148631731571,0.0,0.0,0.0,0.0,0.0,0.0,-13.264,0.0,0.0,0.0
644,0.0,0.0,0.0,-0.154634765625,0.0,0.0,0.0,0.0,0.0,0.0,0.566,0.0,0.0,0.0,0.0,0.0,0.0,0.13092480746656504,0.0,0.0,0.0,0.0,0.0,0.0,-13.468,0.0,0.0,0.0
645,0.0,0.0,0.0,-0.1492744140625,0.0,0.0,0.0,0.0,0.0,0.0,0.537,0.0,0.0,0.0,0.0,0.0,0.0,0.14260977054905333,0.0,0.0,0.0,0.0,0.0,0.0,-12.988,0.0,0.0,0.0
646,0.0,0.0,0.0,-0.1433369140625,0.0,0.0,0.0,0.0,0.0,0.0,0.562,0.0,0.0,0.0,0.0,0.0,0.0,0.1542006311813252,0.0,0.0,0.0,0.0,0.0,0.0,-12.92,0.0,0.0,0.0
647,0.0,0.0,0.0,-0.13724609375,0.0,0.0,0.0,0.0,0.0,0.0,0.61,0.0,0.0,0.0,0.0,0.0,0.0,0.1660301670086289,0.0,0.0,0.0,0.0,0.0,0.0,-12.348,0.0,0.0,0.0
648,0.0,0.0,0.0,-0.1311650390625,0.0,0.0,0.0,0.0,0.0,0.0,0.608,0.0,0.0,0.0,0.0,0.0,0.0,0.17731086670615218,0.0,0.0,0.0,0.0,0.0,0.0,-12.644,0.0,0.0,0.0
649,0.0,0.0,0.0,-0.1249384765625,0.0,0.0,0.0,0.0,0.0,0.0,0.615,0.0,0.0,0.0,0.0,0.0,0.0,0.18874437938706748,0.0,0.0,0.0,0.0,0.0,0.0,-13.4,0.0,0.0,0.0
650,0.0,0.0,0.0,-0.1191455078125,0.0,0.0,0.0,0.0,0.0,0.0,0.609,0.0,0.0,0.0,0.0,0.0,0.0,0.20019051821196188,0.0,0.0,0.0,0.0,0.0,0.0,-12.92,0.0,0.0,0.0
651,0.0,0.0,0.0,-0.11319921875,0.0,0.0,0.0,0.0,0.0,0.0,0.593,0.0,0.0,0.0,0.0,0.0,0.0,0.21135765310462676,0.0,0.0,0.0,0.0,0.0,0.0,-12.92,0.0,0.0,0.0
652,0.0,0.0,0.0,-0.10697265625,0.0,0.0,0.0,0.0,0.0,0.0,0.607,0.0,0.0,0.0,0.0,0.0,0.0,0.22257678896253058,0.0,0.0,0.0,0.0,0.0,0.0,-12.76,0.0,0.0,0.0
653,0.0,0.0,0.0,-0.100890625,0.0,0.0,0.0,0.0,0.0,0.0,0.618,0.0,0.0,0.0,0.0,0.0,0.0,0.23395802008725092,0.0,0.0,0.0,0.0,0.0,0.0,-13.4,0.0,0.0,0.0
654,0.0,0.0,0.0,-0.0943671875,0.0,0.0,0.0,0.0,0.0,0.0,0.633,0.0,0.0,0.0,0.0,0.0,0.0,0.2446518725994471,0.0,0.0,0.0,0.0,0.0,0.0,-14.496,0.0,0.0,0.0
655,0.0,0.0,0.0,-0.088140625,0.0,0.0,0.0,0.0,0.0,0.0,0.64,0.0,0.0,0.0,0.0,0.0,0.0,0.25559063034562274,0.0,0.0,0.0,0.0,0.0,0.0,-15.46,0.0,0.0,0.0
656,0.0,0.0,0.0,-0.0820595703125,0.0,0.0,0.0,0.0,0.0,0.0,0.614,0.0,0.0,0.0,0.0,0.0,0.0,0.26647424463008673,0.0,0.0,0.0,0.0,0.0,0.0,-15.208,0.0,0.0,0.0
657,0.0,0.0,0.0,-0.0756884765625,0.0,0.0,0.0,0.0,0.0,0.0,0.629,0.0,0.0,0.0,0.0,0.0,0.0,0.27706320135486984,0.0,0.0,0.0,0.0,0.0,0.0,-13.972,0.0,0.0,0.0
658,0.0,0.0,0.0,-0.06959765625,0.0,0.0,0.0,0.0,0.0,0.0,0.64,0.0,0.0,0.0,0.0,0.0,0.0,0.2876605957941836,0.0,0.0,0.0,0.0,0.0,0.0,-14.016,0.0,0.0,0.0
659,0.0,0.0,0.0,-0.0633720703125,0.0,0.0,0.0,0.0,0.0,0.0,0.605,0.0,0.0,0.0,0.0,0.0,0.0,0.29818840404331026,0.0,0.0,0.0,0.0,0.0,0.0,-14.04,0.0,0.0,0.0
660,0.0,0.0,0.0,-0.0568564453125,0.0,0.0,0.0,0.0,0.0,0.0,0.642,0.0,0.0,0.0,0.0,0.0,0.0,0.3084918817805736,0.0,0.0,0.0,0.0,0.0,0.0,-14.496,0.0,0.0,0.0
661,0.0,0.0,0.0,-0.0510546875,0.0,0.0,0.0,0.0,0.0,0.0,0.626,0.0,0.0,0.0,0.0,0.0,0.0,0.31880525129835674,0.0,0.0,0.0,0.0,0.0,0.0,-14.476,0.0,0.0,0.0
662,0.0,0.0,0.0,-0.04497265625,0.0,0.0,0.0,0.0,0.0,0.0,0.589,0.0,0.0,0.0,0.0,0.0,0.0,0.32884734839058705,0.0,0.0,0.0,0.0,0.0,0.0,-13.812,0.0,0.0,0.0
663,0.0,0.0,0.0,-0.0391884765625,0.0,0.0,0.0,0.0,0.0,0.0,0.606,0.0,0.0,0.0,0.0,0.0,0.0,0.33880810497714636,0.0,0.0,0.0,0.0,0.0,0.0,-14.588,0.0,0.0,0.0
664,0.0,0.0,0.0,-0.0333955078125,0.0,0.0,0.0,0.0,0.0,0.0,0.582,0.0,0.0,0.0,0.0,0.0,0.0,0.3486785525904173,0.0,0.0,0.0,0.0,0.0,0.0,-14.384,0.0,0.0,0.0
665,0.0,0.0,0.0,-0.0271611328125,0.0,0.0,0.0,0.0,0.0,0.0,0.604,0.0,0.0,0.0,0.0,0.0,0.0,0.3585721041714051,0.0,0.0,0.0,0.0,0.0,0.0,-15.412,0.0,0.0,0.0
666,0.0,0.0,0.0,-0.0213671875,0.0,0.0,0.0,0.0,0.0,0.0,0.607,0.0,0.0,0.0,0.0,0.0,0.0,0.3679127548827709,0.0,0.0,0.0,0.0,0.0,0.0,-15.48,0.0,0.0,0.0
667,0.0,0.0,0.0,-0.0151416015625,0.0,0.0,0.0,0.0,0.0,0.0,0.596,0.0,0.0,0.0,0.0,0.0,0.0,0.37728507779344034,0.0,0.0,0.0,0.0,0.0,0.0,-14.636,0.0,0.0,0.0
668,0.0,0.0,0.0,-0.0093486328125,0.0,0.0,0.0,0.0,0.0,0.0,0.621,0.0,0.0,0.0,0.0,0.0,0.0,0.3866149839976062,0.0,0.0,0.0,0.0,0.0,0.0,-14.728,0.0,0.0,0.0
