EmanuelSamir/lab201_ws_projsamir/sawyer_dev/data/sawyer/vel_acel_ns/test_joint4/validation_data_random.csv
,j1,j2,j3,j4,j5,j6,j7,v1,v2,v3,v4,v5,v6,v7,jd1,jd2,jd3,jd4,jd5,jd6,jd7,e1,e2,e3,e4,e5,e6,e7
0,0.0,0.0,0.0,0.0,0.0,0.0,0.0,0.0,0.0,0.0,0.0,0.0,0.0,0.0,0.0,0.0,0.0,0.0,0.0,0.0,0.0,0.0,0.0,0.0,0.0,0.0,0.0,0.0
1,0.0,0.0,0.0,-0.0041240234375,0.0,0.0,0.0,0.0,0.0,0.0,-0.001,0.0,0.0,0.0,0.0,0.0,0.0,4.764613892496497e-05,0.0,0.0,0.0,0.0,0.0,0.0,-13.904,0.0,0.0,0.0
2,0.0,0.0,0.0,-0.0041240234375,0.0,0.0,0.0,0.0,0.0,0.0,-0.001,0.0,0.0,0.0,0.0,0.0,0.0,0.0025913792663789115,0.0,0.0,0.0,0.0,0.0,0.0,-13.788,0.0,0.0,0.0
3,0.0,0.0,0.0,-0.0041240234375,0.0,0.0,0.0,0.0,0.0,0.0,-0.001,0.0,0.0,0.0,0.0,0.0,0.0,0.004215875437913688,0.0,0.0,0.0,0.0,0.0,0.0,-13.948,0.0,0.0,0.0
4,0.0,0.0,0.0,-0.0041240234375,0.0,0.0,0.0,0.0,0.0,0.0,-0.001,0.0,0.0,0.0,0.0,0.0,0.0,0.005700349584891649,0.0,0.0,0.0,0.0,0.0,0.0,-13.904,0.0,0.0,0.0
5,0.0,0.0,0.0,-0.0041240234375,0.0,0.0,0.0,0.0,0.0,0.0,-0.001,0.0,0.0,0.0,0.0,0.0,0.0,0.006730246898732553,0.0,0.0,0.0,0.0,0.0,0.0,-13.904,0.0,0.0,0.0
6,0.0,0.0,0.0,-0.0039794921875,0.0,0.0,0.0,0.0,0.0,0.0,0.001,0.0,0.0,0.0,0.0,0.0,0.0,0.007720801486695097,0.0,0.0,0.0,0.0,0.0,0.0,-13.628,0.0,0.0,0.0
7,0.0,0.0,0.0,-0.0039794921875,0.0,0.0,0.0,0.0,0.0,0.0,0.001,0.0,0.0,0.0,0.0,0.0,0.0,0.008676494595160901,0.0,0.0,0.0,0.0,0.0,0.0,-13.628,0.0,0.0,0.0
8,0.0,0.0,0.0,-0.00340234375,0.0,0.0,0.0,0.0,0.0,0.0,0.028,0.0,0.0,0.0,0.0,0.0,0.0,0.009481788185741863,0.0,0.0,0.0,0.0,0.0,0.0,-12.988,0.0,0.0,0.0
9,0.0,0.0,0.0,-0.00340234375,0.0,0.0,0.0,0.0,0.0,0.0,0.028,0.0,0.0,0.0,0.0,0.0,0.0,0.0107088842689832,0.0,0.0,0.0,0.0,0.0,0.0,-12.988,0.0,0.0,0.0
10,0.0,0.0,0.0,-0.0025361328125,0.0,0.0,0.0,0.0,0.0,0.0,0.072,0.0,0.0,0.0,0.0,0.0,0.0,0.012251221525257266,0.0,0.0,0.0,0.0,0.0,0.0,-12.872,0.0,0.0,0.0
11,0.0,0.0,0.0,-0.0025361328125,0.0,0.0,0.0,0.0,0.0,0.0,0.072,0.0,0.0,0.0,0.0,0.0,0.0,0.013619888013093568,0.0,0.0,0.0,0.0,0.0,0.0,-12.872,0.0,0.0,0.0
12,0.0,0.0,0.0,-0.0013720703125,0.0,0.0,0.0,0.0,0.0,0.0,0.098,0.0,0.0,0.0,0.0,0.0,0.0,0.014671979483941541,0.0,0.0,0.0,0.0,0.0,0.0,-12.44,0.0,0.0,0.0
13,0.0,0.0,0.0,-0.0013720703125,0.0,0.0,0.0,0.0,0.0,0.0,0.098,0.0,0.0,0.0,0.0,0.0,0.0,0.015391480075776221,0.0,0.0,0.0,0.0,0.0,0.0,-12.44,0.0,0.0,0.0
14,0.0,0.0,0.0,0.0002158203125,0.0,0.0,0.0,0.0,0.0,0.0,0.141,0.0,0.0,0.0,0.0,0.0,0.0,0.01625885664077122,0.0,0.0,0.0,0.0,0.0,0.0,-12.324,0.0,0.0,0.0
15,0.0,0.0,0.0,0.0002158203125,0.0,0.0,0.0,0.0,0.0,0.0,0.141,0.0,0.0,0.0,0.0,0.0,0.0,0.017065794035975926,0.0,0.0,0.0,0.0,0.0,0.0,-12.324,0.0,0.0,0.0
16,0.0,0.0,0.0,0.0002158203125,0.0,0.0,0.0,0.0,0.0,0.0,0.141,0.0,0.0,0.0,0.0,0.0,0.0,0.01781985542939914,0.0,0.0,0.0,0.0,0.0,0.0,-12.324,0.0,0.0,0.0
17,0.0,0.0,0.0,0.00195703125,0.0,0.0,0.0,0.0,0.0,0.0,0.169,0.0,0.0,0.0,0.0,0.0,0.0,0.018693985000675355,0.0,0.0,0.0,0.0,0.0,0.0,-11.892,0.0,0.0,0.0
18,0.0,0.0,0.0,0.00195703125,0.0,0.0,0.0,0.0,0.0,0.0,0.169,0.0,0.0,0.0,0.0,0.0,0.0,0.019649665506526703,0.0,0.0,0.0,0.0,0.0,0.0,-11.892,0.0,0.0,0.0
19,0.0,0.0,0.0,0.0039873046875,0.0,0.0,0.0,0.0,0.0,0.0,0.186,0.0,0.0,0.0,0.0,0.0,0.0,0.021014414652149777,0.0,0.0,0.0,0.0,0.0,0.0,-11.936,0.0,0.0,0.0
20,0.0,0.0,0.0,0.0039873046875,0.0,0.0,0.0,0.0,0.0,0.0,0.186,0.0,0.0,0.0,0.0,0.0,0.0,0.021905217644608586,0.0,0.0,0.0,0.0,0.0,0.0,-11.936,0.0,0.0,0.0
21,0.0,0.0,0.0,0.0055751953125,0.0,0.0,0.0,0.0,0.0,0.0,0.186,0.0,0.0,0.0,0.0,0.0,0.0,0.0231556341946033,0.0,0.0,0.0,0.0,0.0,0.0,-12.052,0.0,0.0,0.0
22,0.0,0.0,0.0,0.0055751953125,0.0,0.0,0.0,0.0,0.0,0.0,0.186,0.0,0.0,0.0,0.0,0.0,0.0,0.02421028407431446,0.0,0.0,0.0,0.0,0.0,0.0,-12.052,0.0,0.0,0.0
23,0.0,0.0,0.0,0.00789453125,0.0,0.0,0.0,0.0,0.0,0.0,0.179,0.0,0.0,0.0,0.0,0.0,0.0,0.025140371655641532,0.0,0.0,0.0,0.0,0.0,0.0,-11.5,0.0,0.0,0.0
24,0.0,0.0,0.0,0.00789453125,0.0,0.0,0.0,0.0,0.0,0.0,0.179,0.0,0.0,0.0,0.0,0.0,0.0,0.02600290655201335,0.0,0.0,0.0,0.0,0.0,0.0,-11.5,0.0,0.0,0.0
25,0.0,0.0,0.0,0.010501953125,0.0,0.0,0.0,0.0,0.0,0.0,0.257,0.0,0.0,0.0,0.0,0.0,0.0,0.02691051790603783,0.0,0.0,0.0,0.0,0.0,0.0,-12.232,0.0,0.0,0.0
26,0.0,0.0,0.0,0.010501953125,0.0,0.0,0.0,0.0,0.0,0.0,0.257,0.0,0.0,0.0,0.0,0.0,0.0,0.027817054047952247,0.0,0.0,0.0,0.0,0.0,0.0,-12.232,0.0,0.0,0.0
27,0.0,0.0,0.0,0.010501953125,0.0,0.0,0.0,0.0,0.0,0.0,0.257,0.0,0.0,0.0,0.0,0.0,0.0,0.02887526902236287,0.0,0.0,0.0,0.0,0.0,0.0,-12.232,0.0,0.0,0.0
28,0.0,0.0,0.0,0.0126767578125,0.0,0.0,0.0,0.0,0.0,0.0,0.24,0.0,0.0,0.0,0.0,0.0,0.0,0.029938947036108145,0.0,0.0,0.0,0.0,0.0,0.0,-12.004,0.0,0.0,0.0
29,0.0,0.0,0.0,0.0126767578125,0.0,0.0,0.0,0.0,0.0,0.0,0.24,0.0,0.0,0.0,0.0,0.0,0.0,0.030697168976394098,0.0,0.0,0.0,0.0,0.0,0.0,-12.004,0.0,0.0,0.0
30,0.0,0.0,0.0,0.0155732421875,0.0,0.0,0.0,0.0,0.0,0.0,0.238,0.0,0.0,0.0,0.0,0.0,0.0,0.0317267006080342,0.0,0.0,0.0,0.0,0.0,0.0,-11.912,0.0,0.0,0.0
31,0.0,0.0,0.0,0.0155732421875,0.0,0.0,0.0,0.0,0.0,0.0,0.238,0.0,0.0,0.0,0.0,0.0,0.0,0.03281831342771515,0.0,0.0,0.0,0.0,0.0,0.0,-11.912,0.0,0.0,0.0
32,0.0,0.0,0.0,0.018037109375,0.0,0.0,0.0,0.0,0.0,0.0,0.287,0.0,0.0,0.0,0.0,0.0,0.0,0.03419207816787724,0.0,0.0,0.0,0.0,0.0,0.0,-12.736,0.0,0.0,0.0
33,0.0,0.0,0.0,0.018037109375,0.0,0.0,0.0,0.0,0.0,0.0,0.287,0.0,0.0,0.0,0.0,0.0,0.0,0.03497602248061051,0.0,0.0,0.0,0.0,0.0,0.0,-12.736,0.0,0.0,0.0
34,0.0,0.0,0.0,0.0202109375,0.0,0.0,0.0,0.0,0.0,0.0,0.222,0.0,0.0,0.0,0.0,0.0,0.0,0.03596169382374924,0.0,0.0,0.0,0.0,0.0,0.0,-12.028,0.0,0.0,0.0
35,0.0,0.0,0.0,0.0202109375,0.0,0.0,0.0,0.0,0.0,0.0,0.222,0.0,0.0,0.0,0.0,0.0,0.0,0.036732506752970746,0.0,0.0,0.0,0.0,0.0,0.0,-12.028,0.0,0.0,0.0
36,0.0,0.0,0.0,0.0202109375,0.0,0.0,0.0,0.0,0.0,0.0,0.222,0.0,0.0,0.0,0.0,0.0,0.0,0.03753541168739191,0.0,0.0,0.0,0.0,0.0,0.0,-12.028,0.0,0.0,0.0
37,0.0,0.0,0.0,0.023251953125,0.0,0.0,0.0,0.0,0.0,0.0,0.257,0.0,0.0,0.0,0.0,0.0,0.0,0.038349424028034165,0.0,0.0,0.0,0.0,0.0,0.0,-12.552,0.0,0.0,0.0
38,0.0,0.0,0.0,0.023251953125,0.0,0.0,0.0,0.0,0.0,0.0,0.257,0.0,0.0,0.0,0.0,0.0,0.0,0.039056923177195536,0.0,0.0,0.0,0.0,0.0,0.0,-12.552,0.0,0.0,0.0
39,0.0,0.0,0.0,0.0258603515625,0.0,0.0,0.0,0.0,0.0,0.0,0.29,0.0,0.0,0.0,0.0,0.0,0.0,0.040118251132889436,0.0,0.0,0.0,0.0,0.0,0.0,-12.944,0.0,0.0,0.0
40,0.0,0.0,0.0,0.0258603515625,0.0,0.0,0.0,0.0,0.0,0.0,0.29,0.0,0.0,0.0,0.0,0.0,0.0,0.04114667863724071,0.0,0.0,0.0,0.0,0.0,0.0,-12.944,0.0,0.0,0.0
41,0.0,0.0,0.0,0.0258603515625,0.0,0.0,0.0,0.0,0.0,0.0,0.29,0.0,0.0,0.0,0.0,0.0,0.0,0.041864097394334165,0.0,0.0,0.0,0.0,0.0,0.0,-12.944,0.0,0.0,0.0
42,0.0,0.0,0.0,0.0286123046875,0.0,0.0,0.0,0.0,0.0,0.0,0.262,0.0,0.0,0.0,0.0,0.0,0.0,0.042773312798951996,0.0,0.0,0.0,0.0,0.0,0.0,-13.628,0.0,0.0,0.0
43,0.0,0.0,0.0,0.0286123046875,0.0,0.0,0.0,0.0,0.0,0.0,0.262,0.0,0.0,0.0,0.0,0.0,0.0,0.04347326696959882,0.0,0.0,0.0,0.0,0.0,0.0,-13.628,0.0,0.0,0.0
44,0.0,0.0,0.0,0.03135546875,0.0,0.0,0.0,0.0,0.0,0.0,0.284,0.0,0.0,0.0,0.0,0.0,0.0,0.0444427494649389,0.0,0.0,0.0,0.0,0.0,0.0,-14.84,0.0,0.0,0.0
45,0.0,0.0,0.0,0.03135546875,0.0,0.0,0.0,0.0,0.0,0.0,0.284,0.0,0.0,0.0,0.0,0.0,0.0,0.04525855576911934,0.0,0.0,0.0,0.0,0.0,0.0,-14.84,0.0,0.0,0.0
46,0.0,0.0,0.0,0.03135546875,0.0,0.0,0.0,0.0,0.0,0.0,0.284,0.0,0.0,0.0,0.0,0.0,0.0,0.04594517932511333,0.0,0.0,0.0,0.0,0.0,0.0,-14.84,0.0,0.0,0.0
47,0.0,0.0,0.0,0.033828125,0.0,0.0,0.0,0.0,0.0,0.0,0.265,0.0,0.0,0.0,0.0,0.0,0.0,0.047043397680344046,0.0,0.0,0.0,0.0,0.0,0.0,-14.568,0.0,0.0,0.0
48,0.0,0.0,0.0,0.033828125,0.0,0.0,0.0,0.0,0.0,0.0,0.265,0.0,0.0,0.0,0.0,0.0,0.0,0.04807113411072422,0.0,0.0,0.0,0.0,0.0,0.0,-14.568,0.0,0.0,0.0
49,0.0,0.0,0.0,0.036580078125,0.0,0.0,0.0,0.0,0.0,0.0,0.264,0.0,0.0,0.0,0.0,0.0,0.0,0.04893945940917816,0.0,0.0,0.0,0.0,0.0,0.0,-14.908,0.0,0.0,0.0
50,0.0,0.0,0.0,0.036580078125,0.0,0.0,0.0,0.0,0.0,0.0,0.264,0.0,0.0,0.0,0.0,0.0,0.0,0.04964378966211902,0.0,0.0,0.0,0.0,0.0,0.0,-14.908,0.0,0.0,0.0
51,0.0,0.0,0.0,0.036580078125,0.0,0.0,0.0,0.0,0.0,0.0,0.264,0.0,0.0,0.0,0.0,0.0,0.0,0.05044859872555735,0.0,0.0,0.0,0.0,0.0,0.0,-14.908,0.0,0.0,0.0
52,0.0,0.0,0.0,0.0391875,0.0,0.0,0.0,0.0,0.0,0.0,0.267,0.0,0.0,0.0,0.0,0.0,0.0,0.05148950986295922,0.0,0.0,0.0,0.0,0.0,0.0,-14.932,0.0,0.0,0.0
53,0.0,0.0,0.0,0.0391875,0.0,0.0,0.0,0.0,0.0,0.0,0.267,0.0,0.0,0.0,0.0,0.0,0.0,0.05309815798470076,0.0,0.0,0.0,0.0,0.0,0.0,-14.932,0.0,0.0,0.0
54,0.0,0.0,0.0,0.042083984375,0.0,0.0,0.0,0.0,0.0,0.0,0.27,0.0,0.0,0.0,0.0,0.0,0.0,0.0546624000288805,0.0,0.0,0.0,0.0,0.0,0.0,-15.184,0.0,0.0,0.0
55,0.0,0.0,0.0,0.04498046875,0.0,0.0,0.0,0.0,0.0,0.0,0.294,0.0,0.0,0.0,0.0,0.0,0.0,0.05619828151525929,0.0,0.0,0.0,0.0,0.0,0.0,-15.732,0.0,0.0,0.0
56,0.0,0.0,0.0,0.0474443359375,0.0,0.0,0.0,0.0,0.0,0.0,0.27,0.0,0.0,0.0,0.0,0.0,0.0,0.057403164321796644,0.0,0.0,0.0,0.0,0.0,0.0,-14.68,0.0,0.0,0.0
57,0.0,0.0,0.0,0.0474443359375,0.0,0.0,0.0,0.0,0.0,0.0,0.27,0.0,0.0,0.0,0.0,0.0,0.0,0.058535063414638294,0.0,0.0,0.0,0.0,0.0,0.0,-14.68,0.0,0.0,0.0
58,0.0,0.0,0.0,0.0499072265625,0.0,0.0,0.0,0.0,0.0,0.0,0.255,0.0,0.0,0.0,0.0,0.0,0.0,0.0598220966066316,0.0,0.0,0.0,0.0,0.0,0.0,-14.772,0.0,0.0,0.0
59,0.0,0.0,0.0,0.0499072265625,0.0,0.0,0.0,0.0,0.0,0.0,0.255,0.0,0.0,0.0,0.0,0.0,0.0,0.06062532147937726,0.0,0.0,0.0,0.0,0.0,0.0,-14.772,0.0,0.0,0.0
60,0.0,0.0,0.0,0.0517841796875,0.0,0.0,0.0,0.0,0.0,0.0,0.221,0.0,0.0,0.0,0.0,0.0,0.0,0.061519932425256975,0.0,0.0,0.0,0.0,0.0,0.0,-14.268,0.0,0.0,0.0
61,0.0,0.0,0.0,0.0517841796875,0.0,0.0,0.0,0.0,0.0,0.0,0.221,0.0,0.0,0.0,0.0,0.0,0.0,0.06226474620001851,0.0,0.0,0.0,0.0,0.0,0.0,-14.268,0.0,0.0,0.0
62,0.0,0.0,0.0,0.0517841796875,0.0,0.0,0.0,0.0,0.0,0.0,0.221,0.0,0.0,0.0,0.0,0.0,0.0,0.06308037801764207,0.0,0.0,0.0,0.0,0.0,0.0,-14.268,0.0,0.0,0.0
63,0.0,0.0,0.0,0.0539677734375,0.0,0.0,0.0,0.0,0.0,0.0,0.195,0.0,0.0,0.0,0.0,0.0,0.0,0.06391555292751828,0.0,0.0,0.0,0.0,0.0,0.0,-13.72,0.0,0.0,0.0
64,0.0,0.0,0.0,0.0539677734375,0.0,0.0,0.0,0.0,0.0,0.0,0.195,0.0,0.0,0.0,0.0,0.0,0.0,0.06497229992332337,0.0,0.0,0.0,0.0,0.0,0.0,-13.72,0.0,0.0,0.0
65,0.0,0.0,0.0,0.056431640625,0.0,0.0,0.0,0.0,0.0,0.0,0.237,0.0,0.0,0.0,0.0,0.0,0.0,0.06624029521333977,0.0,0.0,0.0,0.0,0.0,0.0,-14.408,0.0,0.0,0.0
66,0.0,0.0,0.0,0.056431640625,0.0,0.0,0.0,0.0,0.0,0.0,0.237,0.0,0.0,0.0,0.0,0.0,0.0,0.06753997657811063,0.0,0.0,0.0,0.0,0.0,0.0,-14.408,0.0,0.0,0.0
67,0.0,0.0,0.0,0.0584521484375,0.0,0.0,0.0,0.0,0.0,0.0,0.218,0.0,0.0,0.0,0.0,0.0,0.0,0.06838092546382882,0.0,0.0,0.0,0.0,0.0,0.0,-14.292,0.0,0.0,0.0
68,0.0,0.0,0.0,0.0584521484375,0.0,0.0,0.0,0.0,0.0,0.0,0.218,0.0,0.0,0.0,0.0,0.0,0.0,0.0691068091492422,0.0,0.0,0.0,0.0,0.0,0.0,-14.292,0.0,0.0,0.0
69,0.0,0.0,0.0,0.0584521484375,0.0,0.0,0.0,0.0,0.0,0.0,0.218,0.0,0.0,0.0,0.0,0.0,0.0,0.06986582172906294,0.0,0.0,0.0,0.0,0.0,0.0,-14.292,0.0,0.0,0.0
70,0.0,0.0,0.0,0.060626953125,0.0,0.0,0.0,0.0,0.0,0.0,0.215,0.0,0.0,0.0,0.0,0.0,0.0,0.07075972204665164,0.0,0.0,0.0,0.0,0.0,0.0,-14.728,0.0,0.0,0.0
71,0.0,0.0,0.0,0.060626953125,0.0,0.0,0.0,0.0,0.0,0.0,0.215,0.0,0.0,0.0,0.0,0.0,0.0,0.07156268464319306,0.0,0.0,0.0,0.0,0.0,0.0,-14.728,0.0,0.0,0.0
72,0.0,0.0,0.0,0.062369140625,0.0,0.0,0.0,0.0,0.0,0.0,0.206,0.0,0.0,0.0,0.0,0.0,0.0,0.0724911600393444,0.0,0.0,0.0,0.0,0.0,0.0,-14.544,0.0,0.0,0.0
73,0.0,0.0,0.0,0.062369140625,0.0,0.0,0.0,0.0,0.0,0.0,0.206,0.0,0.0,0.0,0.0,0.0,0.0,0.07352581579565341,0.0,0.0,0.0,0.0,0.0,0.0,-14.544,0.0,0.0,0.0
74,0.0,0.0,0.0,0.0642451171875,0.0,0.0,0.0,0.0,0.0,0.0,0.177,0.0,0.0,0.0,0.0,0.0,0.0,0.07464953686787791,0.0,0.0,0.0,0.0,0.0,0.0,-14.108,0.0,0.0,0.0
75,0.0,0.0,0.0,0.0642451171875,0.0,0.0,0.0,0.0,0.0,0.0,0.177,0.0,0.0,0.0,0.0,0.0,0.0,0.07547831057584482,0.0,0.0,0.0,0.0,0.0,0.0,-14.108,0.0,0.0,0.0
76,0.0,0.0,0.0,0.0642451171875,0.0,0.0,0.0,0.0,0.0,0.0,0.177,0.0,0.0,0.0,0.0,0.0,0.0,0.07633422756918562,0.0,0.0,0.0,0.0,0.0,0.0,-14.108,0.0,0.0,0.0
77,0.0,0.0,0.0,0.0661318359375,0.0,0.0,0.0,0.0,0.0,0.0,0.189,0.0,0.0,0.0,0.0,0.0,0.0,0.07735728931514262,0.0,0.0,0.0,0.0,0.0,0.0,-14.292,0.0,0.0,0.0
78,0.0,0.0,0.0,0.0661318359375,0.0,0.0,0.0,0.0,0.0,0.0,0.189,0.0,0.0,0.0,0.0,0.0,0.0,0.07811076962121438,0.0,0.0,0.0,0.0,0.0,0.0,-14.292,0.0,0.0,0.0
79,0.0,0.0,0.0,0.0678642578125,0.0,0.0,0.0,0.0,0.0,0.0,0.18,0.0,0.0,0.0,0.0,0.0,0.0,0.07886391078038565,0.0,0.0,0.0,0.0,0.0,0.0,-13.924,0.0,0.0,0.0
80,0.0,0.0,0.0,0.0678642578125,0.0,0.0,0.0,0.0,0.0,0.0,0.18,0.0,0.0,0.0,0.0,0.0,0.0,0.07975821366068259,0.0,0.0,0.0,0.0,0.0,0.0,-13.924,0.0,0.0,0.0
81,0.0,0.0,0.0,0.0678642578125,0.0,0.0,0.0,0.0,0.0,0.0,0.18,0.0,0.0,0.0,0.0,0.0,0.0,0.08079276281246706,0.0,0.0,0.0,0.0,0.0,0.0,-13.924,0.0,0.0,0.0
82,0.0,0.0,0.0,0.0700390625,0.0,0.0,0.0,0.0,0.0,0.0,0.198,0.0,0.0,0.0,0.0,0.0,0.0,0.08189614407354344,0.0,0.0,0.0,0.0,0.0,0.0,-14.248,0.0,0.0,0.0
83,0.0,0.0,0.0,0.0700390625,0.0,0.0,0.0,0.0,0.0,0.0,0.198,0.0,0.0,0.0,0.0,0.0,0.0,0.08282813716908666,0.0,0.0,0.0,0.0,0.0,0.0,-14.248,0.0,0.0,0.0
84,0.0,0.0,0.0,0.0717802734375,0.0,0.0,0.0,0.0,0.0,0.0,0.197,0.0,0.0,0.0,0.0,0.0,0.0,0.0838231726514509,0.0,0.0,0.0,0.0,0.0,0.0,-14.108,0.0,0.0,0.0
85,0.0,0.0,0.0,0.0717802734375,0.0,0.0,0.0,0.0,0.0,0.0,0.197,0.0,0.0,0.0,0.0,0.0,0.0,0.08472540424171902,0.0,0.0,0.0,0.0,0.0,0.0,-14.108,0.0,0.0,0.0
86,0.0,0.0,0.0,0.0736572265625,0.0,0.0,0.0,0.0,0.0,0.0,0.178,0.0,0.0,0.0,0.0,0.0,0.0,0.08549916518558101,0.0,0.0,0.0,0.0,0.0,0.0,-13.468,0.0,0.0,0.0
87,0.0,0.0,0.0,0.0736572265625,0.0,0.0,0.0,0.0,0.0,0.0,0.178,0.0,0.0,0.0,0.0,0.0,0.0,0.08634649966370822,0.0,0.0,0.0,0.0,0.0,0.0,-13.468,0.0,0.0,0.0
88,0.0,0.0,0.0,0.0736572265625,0.0,0.0,0.0,0.0,0.0,0.0,0.178,0.0,0.0,0.0,0.0,0.0,0.0,0.08724211527291352,0.0,0.0,0.0,0.0,0.0,0.0,-13.468,0.0,0.0,0.0
89,0.0,0.0,0.0,0.0756962890625,0.0,0.0,0.0,0.0,0.0,0.0,0.198,0.0,0.0,0.0,0.0,0.0,0.0,0.08823403301702487,0.0,0.0,0.0,0.0,0.0,0.0,-13.08,0.0,0.0,0.0
90,0.0,0.0,0.0,0.0756962890625,0.0,0.0,0.0,0.0,0.0,0.0,0.198,0.0,0.0,0.0,0.0,0.0,0.0,0.08898688551802145,0.0,0.0,0.0,0.0,0.0,0.0,-13.08,0.0,0.0,0.0
91,0.0,0.0,0.0,0.07758203125,0.0,0.0,0.0,0.0,0.0,0.0,0.203,0.0,0.0,0.0,0.0,0.0,0.0,0.0897568817790941,0.0,0.0,0.0,0.0,0.0,0.0,-13.08,0.0,0.0,0.0
92,0.0,0.0,0.0,0.07758203125,0.0,0.0,0.0,0.0,0.0,0.0,0.203,0.0,0.0,0.0,0.0,0.0,0.0,0.09054892033791442,0.0,0.0,0.0,0.0,0.0,0.0,-13.08,0.0,0.0,0.0
93,0.0,0.0,0.0,0.07758203125,0.0,0.0,0.0,0.0,0.0,0.0,0.203,0.0,0.0,0.0,0.0,0.0,0.0,0.0914774064526329,0.0,0.0,0.0,0.0,0.0,0.0,-13.08,0.0,0.0,0.0
94,0.0,0.0,0.0,0.079458984375,0.0,0.0,0.0,0.0,0.0,0.0,0.185,0.0,0.0,0.0,0.0,0.0,0.0,0.09317956989672053,0.0,0.0,0.0,0.0,0.0,0.0,-12.736,0.0,0.0,0.0
95,0.0,0.0,0.0,0.0816337890625,0.0,0.0,0.0,0.0,0.0,0.0,0.204,0.0,0.0,0.0,0.0,0.0,0.0,0.0946243933757712,0.0,0.0,0.0,0.0,0.0,0.0,-13.148,0.0,0.0,0.0
96,0.0,0.0,0.0,0.0832216796875,0.0,0.0,0.0,0.0,0.0,0.0,0.194,0.0,0.0,0.0,0.0,0.0,0.0,0.09581335416868719,0.0,0.0,0.0,0.0,0.0,0.0,-13.08,0.0,0.0,0.0
97,0.0,0.0,0.0,0.0832216796875,0.0,0.0,0.0,0.0,0.0,0.0,0.194,0.0,0.0,0.0,0.0,0.0,0.0,0.09655980006669801,0.0,0.0,0.0,0.0,0.0,0.0,-13.08,0.0,0.0,0.0
98,0.0,0.0,0.0,0.0832216796875,0.0,0.0,0.0,0.0,0.0,0.0,0.194,0.0,0.0,0.0,0.0,0.0,0.0,0.09739002409297996,0.0,0.0,0.0,0.0,0.0,0.0,-13.08,0.0,0.0,0.0
99,0.0,0.0,0.0,0.085107421875,0.0,0.0,0.0,0.0,0.0,0.0,0.163,0.0,0.0,0.0,0.0,0.0,0.0,0.09815729143950896,0.0,0.0,0.0,0.0,0.0,0.0,-12.76,0.0,0.0,0.0
100,0.0,0.0,0.0,0.085107421875,0.0,0.0,0.0,0.0,0.0,0.0,0.163,0.0,0.0,0.0,0.0,0.0,0.0,0.09894134795756812,0.0,0.0,0.0,0.0,0.0,0.0,-12.76,0.0,0.0,0.0
101,0.0,0.0,0.0,0.085107421875,0.0,0.0,0.0,0.0,0.0,0.0,0.163,0.0,0.0,0.0,0.0,0.0,0.0,0.09971338858682352,0.0,0.0,0.0,0.0,0.0,0.0,-12.76,0.0,0.0,0.0
102,0.0,0.0,0.0,0.0872822265625,0.0,0.0,0.0,0.0,0.0,0.0,0.204,0.0,0.0,0.0,0.0,0.0,0.0,0.10072070202499693,0.0,0.0,0.0,0.0,0.0,0.0,-13.032,0.0,0.0,0.0
103,0.0,0.0,0.0,0.0872822265625,0.0,0.0,0.0,0.0,0.0,0.0,0.204,0.0,0.0,0.0,0.0,0.0,0.0,0.10185064452756748,0.0,0.0,0.0,0.0,0.0,0.0,-13.032,0.0,0.0,0.0
104,0.0,0.0,0.0,0.0891591796875,0.0,0.0,0.0,0.0,0.0,0.0,0.214,0.0,0.0,0.0,0.0,0.0,0.0,0.10312337263245192,0.0,0.0,0.0,0.0,0.0,0.0,-13.72,0.0,0.0,0.0
105,0.0,0.0,0.0,0.0891591796875,0.0,0.0,0.0,0.0,0.0,0.0,0.214,0.0,0.0,0.0,0.0,0.0,0.0,0.10393335029085041,0.0,0.0,0.0,0.0,0.0,0.0,-13.72,0.0,0.0,0.0
106,0.0,0.0,0.0,0.091044921875,0.0,0.0,0.0,0.0,0.0,0.0,0.18,0.0,0.0,0.0,0.0,0.0,0.0,0.10476561125234757,0.0,0.0,0.0,0.0,0.0,0.0,-13.744,0.0,0.0,0.0
107,0.0,0.0,0.0,0.091044921875,0.0,0.0,0.0,0.0,0.0,0.0,0.18,0.0,0.0,0.0,0.0,0.0,0.0,0.10552462859846744,0.0,0.0,0.0,0.0,0.0,0.0,-13.744,0.0,0.0,0.0
108,0.0,0.0,0.0,0.0936533203125,0.0,0.0,0.0,0.0,0.0,0.0,0.224,0.0,0.0,0.0,0.0,0.0,0.0,0.1064269608183131,0.0,0.0,0.0,0.0,0.0,0.0,-14.108,0.0,0.0,0.0
109,0.0,0.0,0.0,0.0936533203125,0.0,0.0,0.0,0.0,0.0,0.0,0.224,0.0,0.0,0.0,0.0,0.0,0.0,0.10723505150082452,0.0,0.0,0.0,0.0,0.0,0.0,-14.108,0.0,0.0,0.0
110,0.0,0.0,0.0,0.0936533203125,0.0,0.0,0.0,0.0,0.0,0.0,0.224,0.0,0.0,0.0,0.0,0.0,0.0,0.10808789282188783,0.0,0.0,0.0,0.0,0.0,0.0,-14.108,0.0,0.0,0.0
111,0.0,0.0,0.0,0.0956923828125,0.0,0.0,0.0,0.0,0.0,0.0,0.233,0.0,0.0,0.0,0.0,0.0,0.0,0.10882423262493442,0.0,0.0,0.0,0.0,0.0,0.0,-14.016,0.0,0.0,0.0
112,0.0,0.0,0.0,0.0956923828125,0.0,0.0,0.0,0.0,0.0,0.0,0.233,0.0,0.0,0.0,0.0,0.0,0.0,0.10977198123331033,0.0,0.0,0.0,0.0,0.0,0.0,-14.016,0.0,0.0,0.0
113,0.0,0.0,0.0,0.097857421875,0.0,0.0,0.0,0.0,0.0,0.0,0.209,0.0,0.0,0.0,0.0,0.0,0.0,0.11095537920787509,0.0,0.0,0.0,0.0,0.0,0.0,-13.856,0.0,0.0,0.0
114,0.0,0.0,0.0,0.097857421875,0.0,0.0,0.0,0.0,0.0,0.0,0.209,0.0,0.0,0.0,0.0,0.0,0.0,0.11199730950474325,0.0,0.0,0.0,0.0,0.0,0.0,-13.856,0.0,0.0,0.0
115,0.0,0.0,0.0,0.1004658203125,0.0,0.0,0.0,0.0,0.0,0.0,0.243,0.0,0.0,0.0,0.0,0.0,0.0,0.11315757096266739,0.0,0.0,0.0,0.0,0.0,0.0,-14.476,0.0,0.0,0.0
116,0.0,0.0,0.0,0.1004658203125,0.0,0.0,0.0,0.0,0.0,0.0,0.243,0.0,0.0,0.0,0.0,0.0,0.0,0.11414009535003052,0.0,0.0,0.0,0.0,0.0,0.0,-14.476,0.0,0.0,0.0
117,0.0,0.0,0.0,0.102775390625,0.0,0.0,0.0,0.0,0.0,0.0,0.243,0.0,0.0,0.0,0.0,0.0,0.0,0.11521592323365136,0.0,0.0,0.0,0.0,0.0,0.0,-14.336,0.0,0.0,0.0
118,0.0,0.0,0.0,0.102775390625,0.0,0.0,0.0,0.0,0.0,0.0,0.243,0.0,0.0,0.0,0.0,0.0,0.0,0.11618519787751501,0.0,0.0,0.0,0.0,0.0,0.0,-14.336,0.0,0.0,0.0
119,0.0,0.0,0.0,0.1053837890625,0.0,0.0,0.0,0.0,0.0,0.0,0.25,0.0,0.0,0.0,0.0,0.0,0.0,0.11705129587665555,0.0,0.0,0.0,0.0,0.0,0.0,-14.36,0.0,0.0,0.0
120,0.0,0.0,0.0,0.1053837890625,0.0,0.0,0.0,0.0,0.0,0.0,0.25,0.0,0.0,0.0,0.0,0.0,0.0,0.1180080476445389,0.0,0.0,0.0,0.0,0.0,0.0,-14.36,0.0,0.0,0.0
121,0.0,0.0,0.0,0.107693359375,0.0,0.0,0.0,0.0,0.0,0.0,0.255,0.0,0.0,0.0,0.0,0.0,0.0,0.11923229354868284,0.0,0.0,0.0,0.0,0.0,0.0,-14.452,0.0,0.0,0.0
122,0.0,0.0,0.0,0.107693359375,0.0,0.0,0.0,0.0,0.0,0.0,0.255,0.0,0.0,0.0,0.0,0.0,0.0,0.12036359746986394,0.0,0.0,0.0,0.0,0.0,0.0,-14.452,0.0,0.0,0.0
123,0.0,0.0,0.0,0.1100126953125,0.0,0.0,0.0,0.0,0.0,0.0,0.228,0.0,0.0,0.0,0.0,0.0,0.0,0.12106713248723516,0.0,0.0,0.0,0.0,0.0,0.0,-13.744,0.0,0.0,0.0
124,0.0,0.0,0.0,0.1100126953125,0.0,0.0,0.0,0.0,0.0,0.0,0.228,0.0,0.0,0.0,0.0,0.0,0.0,0.12181211388215543,0.0,0.0,0.0,0.0,0.0,0.0,-13.744,0.0,0.0,0.0
125,0.0,0.0,0.0,0.1100126953125,0.0,0.0,0.0,0.0,0.0,0.0,0.228,0.0,0.0,0.0,0.0,0.0,0.0,0.122805706679719,0.0,0.0,0.0,0.0,0.0,0.0,-13.744,0.0,0.0,0.0
126,0.0,0.0,0.0,0.1121875,0.0,0.0,0.0,0.0,0.0,0.0,0.227,0.0,0.0,0.0,0.0,0.0,0.0,0.12387727682873106,0.0,0.0,0.0,0.0,0.0,0.0,-13.972,0.0,0.0,0.0
127,0.0,0.0,0.0,0.1121875,0.0,0.0,0.0,0.0,0.0,0.0,0.227,0.0,0.0,0.0,0.0,0.0,0.0,0.12454920343894332,0.0,0.0,0.0,0.0,0.0,0.0,-13.972,0.0,0.0,0.0
128,0.0,0.0,0.0,0.1140732421875,0.0,0.0,0.0,0.0,0.0,0.0,0.201,0.0,0.0,0.0,0.0,0.0,0.0,0.1255498795916482,0.0,0.0,0.0,0.0,0.0,0.0,-13.332,0.0,0.0,0.0
129,0.0,0.0,0.0,0.1140732421875,0.0,0.0,0.0,0.0,0.0,0.0,0.201,0.0,0.0,0.0,0.0,0.0,0.0,0.12635962648993593,0.0,0.0,0.0,0.0,0.0,0.0,-13.332,0.0,0.0,0.0
130,0.0,0.0,0.0,0.1140732421875,0.0,0.0,0.0,0.0,0.0,0.0,0.201,0.0,0.0,0.0,0.0,0.0,0.0,0.12724051142083942,0.0,0.0,0.0,0.0,0.0,0.0,-13.332,0.0,0.0,0.0
131,0.0,0.0,0.0,0.1163916015625,0.0,0.0,0.0,0.0,0.0,0.0,0.214,0.0,0.0,0.0,0.0,0.0,0.0,0.1280072227874007,0.0,0.0,0.0,0.0,0.0,0.0,-13.56,0.0,0.0,0.0
132,0.0,0.0,0.0,0.1163916015625,0.0,0.0,0.0,0.0,0.0,0.0,0.214,0.0,0.0,0.0,0.0,0.0,0.0,0.12873822058124634,0.0,0.0,0.0,0.0,0.0,0.0,-13.56,0.0,0.0,0.0
133,0.0,0.0,0.0,0.11827734375,0.0,0.0,0.0,0.0,0.0,0.0,0.214,0.0,0.0,0.0,0.0,0.0,0.0,0.12962261643842407,0.0,0.0,0.0,0.0,0.0,0.0,-13.584,0.0,0.0,0.0
134,0.0,0.0,0.0,0.11827734375,0.0,0.0,0.0,0.0,0.0,0.0,0.214,0.0,0.0,0.0,0.0,0.0,0.0,0.13051295718077222,0.0,0.0,0.0,0.0,0.0,0.0,-13.584,0.0,0.0,0.0
135,0.0,0.0,0.0,0.11827734375,0.0,0.0,0.0,0.0,0.0,0.0,0.214,0.0,0.0,0.0,0.0,0.0,0.0,0.13134225886914014,0.0,0.0,0.0,0.0,0.0,0.0,-13.584,0.0,0.0,0.0
136,0.0,0.0,0.0,0.1207412109375,0.0,0.0,0.0,0.0,0.0,0.0,0.214,0.0,0.0,0.0,0.0,0.0,0.0,0.1321695014179714,0.0,0.0,0.0,0.0,0.0,0.0,-13.72,0.0,0.0,0.0
137,0.0,0.0,0.0,0.1207412109375,0.0,0.0,0.0,0.0,0.0,0.0,0.214,0.0,0.0,0.0,0.0,0.0,0.0,0.13295687672023362,0.0,0.0,0.0,0.0,0.0,0.0,-13.72,0.0,0.0,0.0
138,0.0,0.0,0.0,0.1229072265625,0.0,0.0,0.0,0.0,0.0,0.0,0.241,0.0,0.0,0.0,0.0,0.0,0.0,0.13378636552172649,0.0,0.0,0.0,0.0,0.0,0.0,-14.248,0.0,0.0,0.0
139,0.0,0.0,0.0,0.1229072265625,0.0,0.0,0.0,0.0,0.0,0.0,0.241,0.0,0.0,0.0,0.0,0.0,0.0,0.13447951755587237,0.0,0.0,0.0,0.0,0.0,0.0,-14.248,0.0,0.0,0.0
140,0.0,0.0,0.0,0.1229072265625,0.0,0.0,0.0,0.0,0.0,0.0,0.241,0.0,0.0,0.0,0.0,0.0,0.0,0.13526626328369626,0.0,0.0,0.0,0.0,0.0,0.0,-14.248,0.0,0.0,0.0
141,0.0,0.0,0.0,0.12479296875,0.0,0.0,0.0,0.0,0.0,0.0,0.206,0.0,0.0,0.0,0.0,0.0,0.0,0.13612290870773958,0.0,0.0,0.0,0.0,0.0,0.0,-14.132,0.0,0.0,0.0
142,0.0,0.0,0.0,0.12479296875,0.0,0.0,0.0,0.0,0.0,0.0,0.206,0.0,0.0,0.0,0.0,0.0,0.0,0.1371604406948153,0.0,0.0,0.0,0.0,0.0,0.0,-14.132,0.0,0.0,0.0
143,0.0,0.0,0.0,0.1268232421875,0.0,0.0,0.0,0.0,0.0,0.0,0.19,0.0,0.0,0.0,0.0,0.0,0.0,0.1385013556755992,0.0,0.0,0.0,0.0,0.0,0.0,-13.996,0.0,0.0,0.0
144,0.0,0.0,0.0,0.1268232421875,0.0,0.0,0.0,0.0,0.0,0.0,0.19,0.0,0.0,0.0,0.0,0.0,0.0,0.13925450017176355,0.0,0.0,0.0,0.0,0.0,0.0,-13.996,0.0,0.0,0.0
145,0.0,0.0,0.0,0.1287001953125,0.0,0.0,0.0,0.0,0.0,0.0,0.194,0.0,0.0,0.0,0.0,0.0,0.0,0.14006953714365183,0.0,0.0,0.0,0.0,0.0,0.0,-13.788,0.0,0.0,0.0
146,0.0,0.0,0.0,0.1287001953125,0.0,0.0,0.0,0.0,0.0,0.0,0.194,0.0,0.0,0.0,0.0,0.0,0.0,0.1408380492459774,0.0,0.0,0.0,0.0,0.0,0.0,-13.788,0.0,0.0,0.0
147,0.0,0.0,0.0,0.1287001953125,0.0,0.0,0.0,0.0,0.0,0.0,0.194,0.0,0.0,0.0,0.0,0.0,0.0,0.14148597907516655,0.0,0.0,0.0,0.0,0.0,0.0,-13.788,0.0,0.0,0.0
148,0.0,0.0,0.0,0.1305859375,0.0,0.0,0.0,0.0,0.0,0.0,0.194,0.0,0.0,0.0,0.0,0.0,0.0,0.1423332950999202,0.0,0.0,0.0,0.0,0.0,0.0,-13.628,0.0,0.0,0.0
149,0.0,0.0,0.0,0.1305859375,0.0,0.0,0.0,0.0,0.0,0.0,0.194,0.0,0.0,0.0,0.0,0.0,0.0,0.1430613004534954,0.0,0.0,0.0,0.0,0.0,0.0,-13.628,0.0,0.0,0.0
150,0.0,0.0,0.0,0.1305859375,0.0,0.0,0.0,0.0,0.0,0.0,0.194,0.0,0.0,0.0,0.0,0.0,0.0,0.143901563362708,0.0,0.0,0.0,0.0,0.0,0.0,-13.628,0.0,0.0,0.0
151,0.0,0.0,0.0,0.1326162109375,0.0,0.0,0.0,0.0,0.0,0.0,0.196,0.0,0.0,0.0,0.0,0.0,0.0,0.14484727548373427,0.0,0.0,0.0,0.0,0.0,0.0,-13.856,0.0,0.0,0.0
152,0.0,0.0,0.0,0.1326162109375,0.0,0.0,0.0,0.0,0.0,0.0,0.196,0.0,0.0,0.0,0.0,0.0,0.0,0.14558902674726945,0.0,0.0,0.0,0.0,0.0,0.0,-13.856,0.0,0.0,0.0
153,0.0,0.0,0.0,0.13478125,0.0,0.0,0.0,0.0,0.0,0.0,0.21,0.0,0.0,0.0,0.0,0.0,0.0,0.1466655319073048,0.0,0.0,0.0,0.0,0.0,0.0,-13.836,0.0,0.0,0.0
154,0.0,0.0,0.0,0.13478125,0.0,0.0,0.0,0.0,0.0,0.0,0.21,0.0,0.0,0.0,0.0,0.0,0.0,0.14731523810839037,0.0,0.0,0.0,0.0,0.0,0.0,-13.836,0.0,0.0,0.0
155,0.0,0.0,0.0,0.1368212890625,0.0,0.0,0.0,0.0,0.0,0.0,0.208,0.0,0.0,0.0,0.0,0.0,0.0,0.1482161115040389,0.0,0.0,0.0,0.0,0.0,0.0,-13.924,0.0,0.0,0.0
156,0.0,0.0,0.0,0.1368212890625,0.0,0.0,0.0,0.0,0.0,0.0,0.208,0.0,0.0,0.0,0.0,0.0,0.0,0.14936587118631023,0.0,0.0,0.0,0.0,0.0,0.0,-13.924,0.0,0.0,0.0
157,0.0,0.0,0.0,0.1388515625,0.0,0.0,0.0,0.0,0.0,0.0,0.198,0.0,0.0,0.0,0.0,0.0,0.0,0.1504264853097995,0.0,0.0,0.0,0.0,0.0,0.0,-13.492,0.0,0.0,0.0
158,0.0,0.0,0.0,0.1388515625,0.0,0.0,0.0,0.0,0.0,0.0,0.198,0.0,0.0,0.0,0.0,0.0,0.0,0.15171650533049985,0.0,0.0,0.0,0.0,0.0,0.0,-13.492,0.0,0.0,0.0
159,0.0,0.0,0.0,0.140728515625,0.0,0.0,0.0,0.0,0.0,0.0,0.199,0.0,0.0,0.0,0.0,0.0,0.0,0.1528927426718356,0.0,0.0,0.0,0.0,0.0,0.0,-13.332,0.0,0.0,0.0
160,0.0,0.0,0.0,0.140728515625,0.0,0.0,0.0,0.0,0.0,0.0,0.199,0.0,0.0,0.0,0.0,0.0,0.0,0.15376353598197842,0.0,0.0,0.0,0.0,0.0,0.0,-13.332,0.0,0.0,0.0
161,0.0,0.0,0.0,0.1424697265625,0.0,0.0,0.0,0.0,0.0,0.0,0.181,0.0,0.0,0.0,0.0,0.0,0.0,0.15461833084332474,0.0,0.0,0.0,0.0,0.0,0.0,-12.92,0.0,0.0,0.0
162,0.0,0.0,0.0,0.1424697265625,0.0,0.0,0.0,0.0,0.0,0.0,0.181,0.0,0.0,0.0,0.0,0.0,0.0,0.15536998550176107,0.0,0.0,0.0,0.0,0.0,0.0,-12.92,0.0,0.0,0.0
163,0.0,0.0,0.0,0.14435546875,0.0,0.0,0.0,0.0,0.0,0.0,0.182,0.0,0.0,0.0,0.0,0.0,0.0,0.15625239417314638,0.0,0.0,0.0,0.0,0.0,0.0,-13.056,0.0,0.0,0.0
164,0.0,0.0,0.0,0.14435546875,0.0,0.0,0.0,0.0,0.0,0.0,0.182,0.0,0.0,0.0,0.0,0.0,0.0,0.15720250373277658,0.0,0.0,0.0,0.0,0.0,0.0,-13.056,0.0,0.0,0.0
165,0.0,0.0,0.0,0.146087890625,0.0,0.0,0.0,0.0,0.0,0.0,0.188,0.0,0.0,0.0,0.0,0.0,0.0,0.15816679174324788,0.0,0.0,0.0,0.0,0.0,0.0,-12.896,0.0,0.0,0.0
166,0.0,0.0,0.0,0.146087890625,0.0,0.0,0.0,0.0,0.0,0.0,0.188,0.0,0.0,0.0,0.0,0.0,0.0,0.1588587713246739,0.0,0.0,0.0,0.0,0.0,0.0,-12.896,0.0,0.0,0.0
167,0.0,0.0,0.0,0.146087890625,0.0,0.0,0.0,0.0,0.0,0.0,0.188,0.0,0.0,0.0,0.0,0.0,0.0,0.15962456478200138,0.0,0.0,0.0,0.0,0.0,0.0,-12.896,0.0,0.0,0.0
168,0.0,0.0,0.0,0.1479736328125,0.0,0.0,0.0,0.0,0.0,0.0,0.184,0.0,0.0,0.0,0.0,0.0,0.0,0.16037863149665676,0.0,0.0,0.0,0.0,0.0,0.0,-13.24,0.0,0.0,0.0
169,0.0,0.0,0.0,0.1479736328125,0.0,0.0,0.0,0.0,0.0,0.0,0.184,0.0,0.0,0.0,0.0,0.0,0.0,0.16123011098838988,0.0,0.0,0.0,0.0,0.0,0.0,-13.24,0.0,0.0,0.0
170,0.0,0.0,0.0,0.1499951171875,0.0,0.0,0.0,0.0,0.0,0.0,0.191,0.0,0.0,0.0,0.0,0.0,0.0,0.16194454895600904,0.0,0.0,0.0,0.0,0.0,0.0,-13.104,0.0,0.0,0.0
171,0.0,0.0,0.0,0.1499951171875,0.0,0.0,0.0,0.0,0.0,0.0,0.191,0.0,0.0,0.0,0.0,0.0,0.0,0.1627102786664003,0.0,0.0,0.0,0.0,0.0,0.0,-13.104,0.0,0.0,0.0
172,0.0,0.0,0.0,0.1499951171875,0.0,0.0,0.0,0.0,0.0,0.0,0.191,0.0,0.0,0.0,0.0,0.0,0.0,0.16362300779588038,0.0,0.0,0.0,0.0,0.0,0.0,-13.104,0.0,0.0,0.0
173,0.0,0.0,0.0,0.152025390625,0.0,0.0,0.0,0.0,0.0,0.0,0.2,0.0,0.0,0.0,0.0,0.0,0.0,0.16439795532841023,0.0,0.0,0.0,0.0,0.0,0.0,-13.72,0.0,0.0,0.0
174,0.0,0.0,0.0,0.152025390625,0.0,0.0,0.0,0.0,0.0,0.0,0.2,0.0,0.0,0.0,0.0,0.0,0.0,0.1651677456966812,0.0,0.0,0.0,0.0,0.0,0.0,-13.72,0.0,0.0,0.0
175,0.0,0.0,0.0,0.1540556640625,0.0,0.0,0.0,0.0,0.0,0.0,0.203,0.0,0.0,0.0,0.0,0.0,0.0,0.16601662349461016,0.0,0.0,0.0,0.0,0.0,0.0,-13.904,0.0,0.0,0.0
176,0.0,0.0,0.0,0.1540556640625,0.0,0.0,0.0,0.0,0.0,0.0,0.203,0.0,0.0,0.0,0.0,0.0,0.0,0.16673283324932162,0.0,0.0,0.0,0.0,0.0,0.0,-13.904,0.0,0.0,0.0
177,0.0,0.0,0.0,0.1540556640625,0.0,0.0,0.0,0.0,0.0,0.0,0.203,0.0,0.0,0.0,0.0,0.0,0.0,0.16747817404203166,0.0,0.0,0.0,0.0,0.0,0.0,-13.904,0.0,0.0,0.0
178,0.0,0.0,0.0,0.1560859375,0.0,0.0,0.0,0.0,0.0,0.0,0.204,0.0,0.0,0.0,0.0,0.0,0.0,0.16819542604775478,0.0,0.0,0.0,0.0,0.0,0.0,-13.924,0.0,0.0,0.0
179,0.0,0.0,0.0,0.1560859375,0.0,0.0,0.0,0.0,0.0,0.0,0.204,0.0,0.0,0.0,0.0,0.0,0.0,0.16919463997829154,0.0,0.0,0.0,0.0,0.0,0.0,-13.924,0.0,0.0,0.0
180,0.0,0.0,0.0,0.1581162109375,0.0,0.0,0.0,0.0,0.0,0.0,0.206,0.0,0.0,0.0,0.0,0.0,0.0,0.1702249784130863,0.0,0.0,0.0,0.0,0.0,0.0,-13.924,0.0,0.0,0.0
181,0.0,0.0,0.0,0.1581162109375,0.0,0.0,0.0,0.0,0.0,0.0,0.206,0.0,0.0,0.0,0.0,0.0,0.0,0.17101500736576636,0.0,0.0,0.0,0.0,0.0,0.0,-13.924,0.0,0.0,0.0
182,0.0,0.0,0.0,0.1581162109375,0.0,0.0,0.0,0.0,0.0,0.0,0.206,0.0,0.0,0.0,0.0,0.0,0.0,0.1717817181969356,0.0,0.0,0.0,0.0,0.0,0.0,-13.924,0.0,0.0,0.0
183,0.0,0.0,0.0,0.160291015625,0.0,0.0,0.0,0.0,0.0,0.0,0.218,0.0,0.0,0.0,0.0,0.0,0.0,0.1725364157616026,0.0,0.0,0.0,0.0,0.0,0.0,-14.176,0.0,0.0,0.0
184,0.0,0.0,0.0,0.160291015625,0.0,0.0,0.0,0.0,0.0,0.0,0.218,0.0,0.0,0.0,0.0,0.0,0.0,0.1732511273772824,0.0,0.0,0.0,0.0,0.0,0.0,-14.176,0.0,0.0,0.0
185,0.0,0.0,0.0,0.1623125,0.0,0.0,0.0,0.0,0.0,0.0,0.208,0.0,0.0,0.0,0.0,0.0,0.0,0.17402937126689189,0.0,0.0,0.0,0.0,0.0,0.0,-14.268,0.0,0.0,0.0
186,0.0,0.0,0.0,0.1623125,0.0,0.0,0.0,0.0,0.0,0.0,0.208,0.0,0.0,0.0,0.0,0.0,0.0,0.1748740375110699,0.0,0.0,0.0,0.0,0.0,0.0,-14.268,0.0,0.0,0.0
187,0.0,0.0,0.0,0.1623125,0.0,0.0,0.0,0.0,0.0,0.0,0.208,0.0,0.0,0.0,0.0,0.0,0.0,0.1756051997970907,0.0,0.0,0.0,0.0,0.0,0.0,-14.268,0.0,0.0,0.0
188,0.0,0.0,0.0,0.164775390625,0.0,0.0,0.0,0.0,0.0,0.0,0.225,0.0,0.0,0.0,0.0,0.0,0.0,0.1770331826912298,0.0,0.0,0.0,0.0,0.0,0.0,-14.496,0.0,0.0,0.0
189,0.0,0.0,0.0,0.1670947265625,0.0,0.0,0.0,0.0,0.0,0.0,0.239,0.0,0.0,0.0,0.0,0.0,0.0,0.17798308785055386,0.0,0.0,0.0,0.0,0.0,0.0,-14.316,0.0,0.0,0.0
190,0.0,0.0,0.0,0.1670947265625,0.0,0.0,0.0,0.0,0.0,0.0,0.239,0.0,0.0,0.0,0.0,0.0,0.0,0.17874574059276563,0.0,0.0,0.0,0.0,0.0,0.0,-14.316,0.0,0.0,0.0
191,0.0,0.0,0.0,0.16926953125,0.0,0.0,0.0,0.0,0.0,0.0,0.224,0.0,0.0,0.0,0.0,0.0,0.0,0.17996778819068063,0.0,0.0,0.0,0.0,0.0,0.0,-14.176,0.0,0.0,0.0
192,0.0,0.0,0.0,0.16926953125,0.0,0.0,0.0,0.0,0.0,0.0,0.224,0.0,0.0,0.0,0.0,0.0,0.0,0.18140232013140037,0.0,0.0,0.0,0.0,0.0,0.0,-14.176,0.0,0.0,0.0
193,0.0,0.0,0.0,0.1714345703125,0.0,0.0,0.0,0.0,0.0,0.0,0.223,0.0,0.0,0.0,0.0,0.0,0.0,0.1826672187010004,0.0,0.0,0.0,0.0,0.0,0.0,-13.948,0.0,0.0,0.0
194,0.0,0.0,0.0,0.173609375,0.0,0.0,0.0,0.0,0.0,0.0,0.216,0.0,0.0,0.0,0.0,0.0,0.0,0.18400322757098955,0.0,0.0,0.0,0.0,0.0,0.0,-13.812,0.0,0.0,0.0
195,0.0,0.0,0.0,0.173609375,0.0,0.0,0.0,0.0,0.0,0.0,0.216,0.0,0.0,0.0,0.0,0.0,0.0,0.18535095842430338,0.0,0.0,0.0,0.0,0.0,0.0,-13.812,0.0,0.0,0.0
196,0.0,0.0,0.0,0.17520703125,0.0,0.0,0.0,0.0,0.0,0.0,0.19,0.0,0.0,0.0,0.0,0.0,0.0,0.18678014745151705,0.0,0.0,0.0,0.0,0.0,0.0,-13.628,0.0,0.0,0.0
197,0.0,0.0,0.0,0.1772373046875,0.0,0.0,0.0,0.0,0.0,0.0,0.178,0.0,0.0,0.0,0.0,0.0,0.0,0.18796797894030176,0.0,0.0,0.0,0.0,0.0,0.0,-13.376,0.0,0.0,0.0
198,0.0,0.0,0.0,0.1772373046875,0.0,0.0,0.0,0.0,0.0,0.0,0.178,0.0,0.0,0.0,0.0,0.0,0.0,0.18909626890804265,0.0,0.0,0.0,0.0,0.0,0.0,-13.376,0.0,0.0,0.0
199,0.0,0.0,0.0,0.178978515625,0.0,0.0,0.0,0.0,0.0,0.0,0.194,0.0,0.0,0.0,0.0,0.0,0.0,0.19019877838765456,0.0,0.0,0.0,0.0,0.0,0.0,-13.696,0.0,0.0,0.0
200,0.0,0.0,0.0,0.178978515625,0.0,0.0,0.0,0.0,0.0,0.0,0.194,0.0,0.0,0.0,0.0,0.0,0.0,0.19122777238352812,0.0,0.0,0.0,0.0,0.0,0.0,-13.696,0.0,0.0,0.0
201,0.0,0.0,0.0,0.18085546875,0.0,0.0,0.0,0.0,0.0,0.0,0.178,0.0,0.0,0.0,0.0,0.0,0.0,0.19229078384771958,0.0,0.0,0.0,0.0,0.0,0.0,-13.4,0.0,0.0,0.0
202,0.0,0.0,0.0,0.1828857421875,0.0,0.0,0.0,0.0,0.0,0.0,0.203,0.0,0.0,0.0,0.0,0.0,0.0,0.1934963575190748,0.0,0.0,0.0,0.0,0.0,0.0,-13.924,0.0,0.0,0.0
203,0.0,0.0,0.0,0.1828857421875,0.0,0.0,0.0,0.0,0.0,0.0,0.203,0.0,0.0,0.0,0.0,0.0,0.0,0.1946704054114536,0.0,0.0,0.0,0.0,0.0,0.0,-13.924,0.0,0.0,0.0
204,0.0,0.0,0.0,0.184771484375,0.0,0.0,0.0,0.0,0.0,0.0,0.193,0.0,0.0,0.0,0.0,0.0,0.0,0.19572465974323083,0.0,0.0,0.0,0.0,0.0,0.0,-14.084,0.0,0.0,0.0
205,0.0,0.0,0.0,0.184771484375,0.0,0.0,0.0,0.0,0.0,0.0,0.193,0.0,0.0,0.0,0.0,0.0,0.0,0.19683608198447466,0.0,0.0,0.0,0.0,0.0,0.0,-14.084,0.0,0.0,0.0
206,0.0,0.0,0.0,0.186359375,0.0,0.0,0.0,0.0,0.0,0.0,0.174,0.0,0.0,0.0,0.0,0.0,0.0,0.19785793377538752,0.0,0.0,0.0,0.0,0.0,0.0,-13.88,0.0,0.0,0.0
207,0.0,0.0,0.0,0.1881005859375,0.0,0.0,0.0,0.0,0.0,0.0,0.173,0.0,0.0,0.0,0.0,0.0,0.0,0.19897011364683245,0.0,0.0,0.0,0.0,0.0,0.0,-13.628,0.0,0.0,0.0
208,0.0,0.0,0.0,0.1881005859375,0.0,0.0,0.0,0.0,0.0,0.0,0.173,0.0,0.0,0.0,0.0,0.0,0.0,0.199914524337908,0.0,0.0,0.0,0.0,0.0,0.0,-13.628,0.0,0.0,0.0
209,0.0,0.0,0.0,0.1881005859375,0.0,0.0,0.0,0.0,0.0,0.0,0.173,0.0,0.0,0.0,0.0,0.0,0.0,0.20065225496254413,0.0,0.0,0.0,0.0,0.0,0.0,-13.628,0.0,0.0,0.0
210,0.0,0.0,0.0,0.1881005859375,0.0,0.0,0.0,0.0,0.0,0.0,0.173,0.0,0.0,0.0,0.0,0.0,0.0,0.20136943681287836,0.0,0.0,0.0,0.0,0.0,0.0,-13.628,0.0,0.0,0.0
211,0.0,0.0,0.0,0.1881005859375,0.0,0.0,0.0,0.0,0.0,0.0,0.173,0.0,0.0,0.0,0.0,0.0,0.0,0.20213654101048256,0.0,0.0,0.0,0.0,0.0,0.0,-13.628,0.0,0.0,0.0
212,0.0,0.0,0.0,0.1914306640625,0.0,0.0,0.0,0.0,0.0,0.0,0.161,0.0,0.0,0.0,0.0,0.0,0.0,0.2030542943904486,0.0,0.0,0.0,0.0,0.0,0.0,-13.216,0.0,0.0,0.0
213,0.0,0.0,0.0,0.1914306640625,0.0,0.0,0.0,0.0,0.0,0.0,0.161,0.0,0.0,0.0,0.0,0.0,0.0,0.20368255995173545,0.0,0.0,0.0,0.0,0.0,0.0,-13.216,0.0,0.0,0.0
214,0.0,0.0,0.0,0.1914306640625,0.0,0.0,0.0,0.0,0.0,0.0,0.161,0.0,0.0,0.0,0.0,0.0,0.0,0.20438969126083611,0.0,0.0,0.0,0.0,0.0,0.0,-13.216,0.0,0.0,0.0
215,0.0,0.0,0.0,0.1934609375,0.0,0.0,0.0,0.0,0.0,0.0,0.187,0.0,0.0,0.0,0.0,0.0,0.0,0.20516707086182373,0.0,0.0,0.0,0.0,0.0,0.0,-13.356,0.0,0.0,0.0
216,0.0,0.0,0.0,0.1934609375,0.0,0.0,0.0,0.0,0.0,0.0,0.187,0.0,0.0,0.0,0.0,0.0,0.0,0.20622094158760262,0.0,0.0,0.0,0.0,0.0,0.0,-13.356,0.0,0.0,0.0
217,0.0,0.0,0.0,0.195193359375,0.0,0.0,0.0,0.0,0.0,0.0,0.195,0.0,0.0,0.0,0.0,0.0,0.0,0.20692700681077106,0.0,0.0,0.0,0.0,0.0,0.0,-13.444,0.0,0.0,0.0
218,0.0,0.0,0.0,0.195193359375,0.0,0.0,0.0,0.0,0.0,0.0,0.195,0.0,0.0,0.0,0.0,0.0,0.0,0.20760265125882402,0.0,0.0,0.0,0.0,0.0,0.0,-13.444,0.0,0.0,0.0
219,0.0,0.0,0.0,0.197232421875,0.0,0.0,0.0,0.0,0.0,0.0,0.182,0.0,0.0,0.0,0.0,0.0,0.0,0.20840177470305324,0.0,0.0,0.0,0.0,0.0,0.0,-13.216,0.0,0.0,0.0
220,0.0,0.0,0.0,0.197232421875,0.0,0.0,0.0,0.0,0.0,0.0,0.182,0.0,0.0,0.0,0.0,0.0,0.0,0.20948466852540984,0.0,0.0,0.0,0.0,0.0,0.0,-13.216,0.0,0.0,0.0
221,0.0,0.0,0.0,0.197232421875,0.0,0.0,0.0,0.0,0.0,0.0,0.182,0.0,0.0,0.0,0.0,0.0,0.0,0.2102855762208448,0.0,0.0,0.0,0.0,0.0,0.0,-13.216,0.0,0.0,0.0
222,0.0,0.0,0.0,0.19896484375,0.0,0.0,0.0,0.0,0.0,0.0,0.196,0.0,0.0,0.0,0.0,0.0,0.0,0.21099892392268194,0.0,0.0,0.0,0.0,0.0,0.0,-13.284,0.0,0.0,0.0
223,0.0,0.0,0.0,0.19896484375,0.0,0.0,0.0,0.0,0.0,0.0,0.196,0.0,0.0,0.0,0.0,0.0,0.0,0.2117462828259425,0.0,0.0,0.0,0.0,0.0,0.0,-13.284,0.0,0.0,0.0
224,0.0,0.0,0.0,0.20070703125,0.0,0.0,0.0,0.0,0.0,0.0,0.172,0.0,0.0,0.0,0.0,0.0,0.0,0.2124110367067683,0.0,0.0,0.0,0.0,0.0,0.0,-12.692,0.0,0.0,0.0
225,0.0,0.0,0.0,0.20070703125,0.0,0.0,0.0,0.0,0.0,0.0,0.172,0.0,0.0,0.0,0.0,0.0,0.0,0.21304135586498904,0.0,0.0,0.0,0.0,0.0,0.0,-12.692,0.0,0.0,0.0
226,0.0,0.0,0.0,0.20070703125,0.0,0.0,0.0,0.0,0.0,0.0,0.172,0.0,0.0,0.0,0.0,0.0,0.0,0.2137505634869884,0.0,0.0,0.0,0.0,0.0,0.0,-12.692,0.0,0.0,0.0
227,0.0,0.0,0.0,0.2025927734375,0.0,0.0,0.0,0.0,0.0,0.0,0.184,0.0,0.0,0.0,0.0,0.0,0.0,0.2146018682390456,0.0,0.0,0.0,0.0,0.0,0.0,-12.896,0.0,0.0,0.0
228,0.0,0.0,0.0,0.2025927734375,0.0,0.0,0.0,0.0,0.0,0.0,0.184,0.0,0.0,0.0,0.0,0.0,0.0,0.21522903920798023,0.0,0.0,0.0,0.0,0.0,0.0,-12.896,0.0,0.0,0.0
229,0.0,0.0,0.0,0.2043251953125,0.0,0.0,0.0,0.0,0.0,0.0,0.183,0.0,0.0,0.0,0.0,0.0,0.0,0.2160676192759656,0.0,0.0,0.0,0.0,0.0,0.0,-12.532,0.0,0.0,0.0
230,0.0,0.0,0.0,0.2043251953125,0.0,0.0,0.0,0.0,0.0,0.0,0.183,0.0,0.0,0.0,0.0,0.0,0.0,0.2170586616708303,0.0,0.0,0.0,0.0,0.0,0.0,-12.532,0.0,0.0,0.0
231,0.0,0.0,0.0,0.2062109375,0.0,0.0,0.0,0.0,0.0,0.0,0.18,0.0,0.0,0.0,0.0,0.0,0.0,0.21808334843527125,0.0,0.0,0.0,0.0,0.0,0.0,-12.872,0.0,0.0,0.0
232,0.0,0.0,0.0,0.2062109375,0.0,0.0,0.0,0.0,0.0,0.0,0.18,0.0,0.0,0.0,0.0,0.0,0.0,0.21911790894286118,0.0,0.0,0.0,0.0,0.0,0.0,-12.872,0.0,0.0,0.0
233,0.0,0.0,0.0,0.207798828125,0.0,0.0,0.0,0.0,0.0,0.0,0.174,0.0,0.0,0.0,0.0,0.0,0.0,0.22017483913350178,0.0,0.0,0.0,0.0,0.0,0.0,-12.784,0.0,0.0,0.0
234,0.0,0.0,0.0,0.209685546875,0.0,0.0,0.0,0.0,0.0,0.0,0.171,0.0,0.0,0.0,0.0,0.0,0.0,0.2212840274342332,0.0,0.0,0.0,0.0,0.0,0.0,-12.852,0.0,0.0,0.0
235,0.0,0.0,0.0,0.209685546875,0.0,0.0,0.0,0.0,0.0,0.0,0.171,0.0,0.0,0.0,0.0,0.0,0.0,0.22236750060576665,0.0,0.0,0.0,0.0,0.0,0.0,-12.852,0.0,0.0,0.0
236,0.0,0.0,0.0,0.2115615234375,0.0,0.0,0.0,0.0,0.0,0.0,0.186,0.0,0.0,0.0,0.0,0.0,0.0,0.22345026068321738,0.0,0.0,0.0,0.0,0.0,0.0,-12.784,0.0,0.0,0.0
237,0.0,0.0,0.0,0.2115615234375,0.0,0.0,0.0,0.0,0.0,0.0,0.186,0.0,0.0,0.0,0.0,0.0,0.0,0.2244824972643038,0.0,0.0,0.0,0.0,0.0,0.0,-12.784,0.0,0.0,0.0
238,0.0,0.0,0.0,0.2134482421875,0.0,0.0,0.0,0.0,0.0,0.0,0.191,0.0,0.0,0.0,0.0,0.0,0.0,0.2254070604454592,0.0,0.0,0.0,0.0,0.0,0.0,-13.444,0.0,0.0,0.0
239,0.0,0.0,0.0,0.2134482421875,0.0,0.0,0.0,0.0,0.0,0.0,0.191,0.0,0.0,0.0,0.0,0.0,0.0,0.22606321468734247,0.0,0.0,0.0,0.0,0.0,0.0,-13.444,0.0,0.0,0.0
240,0.0,0.0,0.0,0.2153427734375,0.0,0.0,0.0,0.0,0.0,0.0,0.194,0.0,0.0,0.0,0.0,0.0,0.0,0.22720417619419783,0.0,0.0,0.0,0.0,0.0,0.0,-13.72,0.0,0.0,0.0
241,0.0,0.0,0.0,0.2153427734375,0.0,0.0,0.0,0.0,0.0,0.0,0.194,0.0,0.0,0.0,0.0,0.0,0.0,0.22794034535847751,0.0,0.0,0.0,0.0,0.0,0.0,-13.72,0.0,0.0,0.0
242,0.0,0.0,0.0,0.2175087890625,0.0,0.0,0.0,0.0,0.0,0.0,0.201,0.0,0.0,0.0,0.0,0.0,0.0,0.22872772116523976,0.0,0.0,0.0,0.0,0.0,0.0,-13.996,0.0,0.0,0.0
243,0.0,0.0,0.0,0.2175087890625,0.0,0.0,0.0,0.0,0.0,0.0,0.201,0.0,0.0,0.0,0.0,0.0,0.0,0.22947527058142617,0.0,0.0,0.0,0.0,0.0,0.0,-13.996,0.0,0.0,0.0
244,0.0,0.0,0.0,0.2175087890625,0.0,0.0,0.0,0.0,0.0,0.0,0.201,0.0,0.0,0.0,0.0,0.0,0.0,0.23010561811916408,0.0,0.0,0.0,0.0,0.0,0.0,-13.996,0.0,0.0,0.0
245,0.0,0.0,0.0,0.21925,0.0,0.0,0.0,0.0,0.0,0.0,0.199,0.0,0.0,0.0,0.0,0.0,0.0,0.23091686058814198,0.0,0.0,0.0,0.0,0.0,0.0,-14.156,0.0,0.0,0.0
246,0.0,0.0,0.0,0.21925,0.0,0.0,0.0,0.0,0.0,0.0,0.199,0.0,0.0,0.0,0.0,0.0,0.0,0.23164275419413383,0.0,0.0,0.0,0.0,0.0,0.0,-14.156,0.0,0.0,0.0
247,0.0,0.0,0.0,0.2211357421875,0.0,0.0,0.0,0.0,0.0,0.0,0.181,0.0,0.0,0.0,0.0,0.0,0.0,0.2326226117180184,0.0,0.0,0.0,0.0,0.0,0.0,-13.948,0.0,0.0,0.0
248,0.0,0.0,0.0,0.2211357421875,0.0,0.0,0.0,0.0,0.0,0.0,0.181,0.0,0.0,0.0,0.0,0.0,0.0,0.2334574827872658,0.0,0.0,0.0,0.0,0.0,0.0,-13.948,0.0,0.0,0.0
249,0.0,0.0,0.0,0.2233017578125,0.0,0.0,0.0,0.0,0.0,0.0,0.207,0.0,0.0,0.0,0.0,0.0,0.0,0.23427006845420353,0.0,0.0,0.0,0.0,0.0,0.0,-14.316,0.0,0.0,0.0
250,0.0,0.0,0.0,0.2233017578125,0.0,0.0,0.0,0.0,0.0,0.0,0.207,0.0,0.0,0.0,0.0,0.0,0.0,0.23520710664473576,0.0,0.0,0.0,0.0,0.0,0.0,-14.316,0.0,0.0,0.0
251,0.0,0.0,0.0,0.2251875,0.0,0.0,0.0,0.0,0.0,0.0,0.199,0.0,0.0,0.0,0.0,0.0,0.0,0.23627065678270928,0.0,0.0,0.0,0.0,0.0,0.0,-14.544,0.0,0.0,0.0
252,0.0,0.0,0.0,0.2251875,0.0,0.0,0.0,0.0,0.0,0.0,0.199,0.0,0.0,0.0,0.0,0.0,0.0,0.2372080941842666,0.0,0.0,0.0,0.0,0.0,0.0,-14.544,0.0,0.0,0.0
253,0.0,0.0,0.0,0.227505859375,0.0,0.0,0.0,0.0,0.0,0.0,0.202,0.0,0.0,0.0,0.0,0.0,0.0,0.2383893561949767,0.0,0.0,0.0,0.0,0.0,0.0,-14.428,0.0,0.0,0.0
254,0.0,0.0,0.0,0.22952734375,0.0,0.0,0.0,0.0,0.0,0.0,0.23,0.0,0.0,0.0,0.0,0.0,0.0,0.23941350073411455,0.0,0.0,0.0,0.0,0.0,0.0,-14.544,0.0,0.0,0.0
255,0.0,0.0,0.0,0.22952734375,0.0,0.0,0.0,0.0,0.0,0.0,0.23,0.0,0.0,0.0,0.0,0.0,0.0,0.24040287550365977,0.0,0.0,0.0,0.0,0.0,0.0,-14.544,0.0,0.0,0.0
256,0.0,0.0,0.0,0.2315576171875,0.0,0.0,0.0,0.0,0.0,0.0,0.201,0.0,0.0,0.0,0.0,0.0,0.0,0.24139361107248183,0.0,0.0,0.0,0.0,0.0,0.0,-14.224,0.0,0.0,0.0
257,0.0,0.0,0.0,0.2315576171875,0.0,0.0,0.0,0.0,0.0,0.0,0.201,0.0,0.0,0.0,0.0,0.0,0.0,0.24243207275249348,0.0,0.0,0.0,0.0,0.0,0.0,-14.224,0.0,0.0,0.0
258,0.0,0.0,0.0,0.233587890625,0.0,0.0,0.0,0.0,0.0,0.0,0.201,0.0,0.0,0.0,0.0,0.0,0.0,0.24350079711367123,0.0,0.0,0.0,0.0,0.0,0.0,-13.88,0.0,0.0,0.0
259,0.0,0.0,0.0,0.235330078125,0.0,0.0,0.0,0.0,0.0,0.0,0.2,0.0,0.0,0.0,0.0,0.0,0.0,0.2444592957180289,0.0,0.0,0.0,0.0,0.0,0.0,-13.924,0.0,0.0,0.0
260,0.0,0.0,0.0,0.235330078125,0.0,0.0,0.0,0.0,0.0,0.0,0.2,0.0,0.0,0.0,0.0,0.0,0.0,0.24544939492447534,0.0,0.0,0.0,0.0,0.0,0.0,-13.924,0.0,0.0,0.0
261,0.0,0.0,0.0,0.2367822265625,0.0,0.0,0.0,0.0,0.0,0.0,0.159,0.0,0.0,0.0,0.0,0.0,0.0,0.24641795312654474,0.0,0.0,0.0,0.0,0.0,0.0,-13.584,0.0,0.0,0.0
262,0.0,0.0,0.0,0.2367822265625,0.0,0.0,0.0,0.0,0.0,0.0,0.159,0.0,0.0,0.0,0.0,0.0,0.0,0.24707638938140858,0.0,0.0,0.0,0.0,0.0,0.0,-13.584,0.0,0.0,0.0
263,0.0,0.0,0.0,0.2367822265625,0.0,0.0,0.0,0.0,0.0,0.0,0.159,0.0,0.0,0.0,0.0,0.0,0.0,0.24804565843700416,0.0,0.0,0.0,0.0,0.0,0.0,-13.584,0.0,0.0,0.0
264,0.0,0.0,0.0,0.2385146484375,0.0,0.0,0.0,0.0,0.0,0.0,0.16,0.0,0.0,0.0,0.0,0.0,0.0,0.24880090060654944,0.0,0.0,0.0,0.0,0.0,0.0,-13.4,0.0,0.0,0.0
265,0.0,0.0,0.0,0.2385146484375,0.0,0.0,0.0,0.0,0.0,0.0,0.16,0.0,0.0,0.0,0.0,0.0,0.0,0.24934850134343575,0.0,0.0,0.0,0.0,0.0,0.0,-13.4,0.0,0.0,0.0
266,0.0,0.0,0.0,0.2401123046875,0.0,0.0,0.0,0.0,0.0,0.0,0.169,0.0,0.0,0.0,0.0,0.0,0.0,0.24999541785872992,0.0,0.0,0.0,0.0,0.0,0.0,-13.536,0.0,0.0,0.0
267,0.0,0.0,0.0,0.2401123046875,0.0,0.0,0.0,0.0,0.0,0.0,0.169,0.0,0.0,0.0,0.0,0.0,0.0,0.250679246876738,0.0,0.0,0.0,0.0,0.0,0.0,-13.536,0.0,0.0,0.0
268,0.0,0.0,0.0,0.2417001953125,0.0,0.0,0.0,0.0,0.0,0.0,0.152,0.0,0.0,0.0,0.0,0.0,0.0,0.2513271991550136,0.0,0.0,0.0,0.0,0.0,0.0,-13.148,0.0,0.0,0.0
269,0.0,0.0,0.0,0.2417001953125,0.0,0.0,0.0,0.0,0.0,0.0,0.152,0.0,0.0,0.0,0.0,0.0,0.0,0.251877735127859,0.0,0.0,0.0,0.0,0.0,0.0,-13.148,0.0,0.0,0.0
270,0.0,0.0,0.0,0.2417001953125,0.0,0.0,0.0,0.0,0.0,0.0,0.152,0.0,0.0,0.0,0.0,0.0,0.0,0.25243803579056007,0.0,0.0,0.0,0.0,0.0,0.0,-13.148,0.0,0.0,0.0
271,0.0,0.0,0.0,0.243296875,0.0,0.0,0.0,0.0,0.0,0.0,0.163,0.0,0.0,0.0,0.0,0.0,0.0,0.2531493439537437,0.0,0.0,0.0,0.0,0.0,0.0,-13.424,0.0,0.0,0.0
272,0.0,0.0,0.0,0.243296875,0.0,0.0,0.0,0.0,0.0,0.0,0.163,0.0,0.0,0.0,0.0,0.0,0.0,0.25418400138044833,0.0,0.0,0.0,0.0,0.0,0.0,-13.424,0.0,0.0,0.0
273,0.0,0.0,0.0,0.2448857421875,0.0,0.0,0.0,0.0,0.0,0.0,0.163,0.0,0.0,0.0,0.0,0.0,0.0,0.25482175463991164,0.0,0.0,0.0,0.0,0.0,0.0,-13.444,0.0,0.0,0.0
274,0.0,0.0,0.0,0.2448857421875,0.0,0.0,0.0,0.0,0.0,0.0,0.163,0.0,0.0,0.0,0.0,0.0,0.0,0.25554104412236706,0.0,0.0,0.0,0.0,0.0,0.0,-13.444,0.0,0.0,0.0
275,0.0,0.0,0.0,0.2448857421875,0.0,0.0,0.0,0.0,0.0,0.0,0.163,0.0,0.0,0.0,0.0,0.0,0.0,0.2562994049316833,0.0,0.0,0.0,0.0,0.0,0.0,-13.444,0.0,0.0,0.0
276,0.0,0.0,0.0,0.246337890625,0.0,0.0,0.0,0.0,0.0,0.0,0.154,0.0,0.0,0.0,0.0,0.0,0.0,0.2572097820413999,0.0,0.0,0.0,0.0,0.0,0.0,-13.56,0.0,0.0,0.0
277,0.0,0.0,0.0,0.2479267578125,0.0,0.0,0.0,0.0,0.0,0.0,0.151,0.0,0.0,0.0,0.0,0.0,0.0,0.2581751944006904,0.0,0.0,0.0,0.0,0.0,0.0,-13.192,0.0,0.0,0.0
278,0.0,0.0,0.0,0.2479267578125,0.0,0.0,0.0,0.0,0.0,0.0,0.151,0.0,0.0,0.0,0.0,0.0,0.0,0.2591641644598689,0.0,0.0,0.0,0.0,0.0,0.0,-13.192,0.0,0.0,0.0
279,0.0,0.0,0.0,0.24966796875,0.0,0.0,0.0,0.0,0.0,0.0,0.168,0.0,0.0,0.0,0.0,0.0,0.0,0.26015789552158297,0.0,0.0,0.0,0.0,0.0,0.0,-13.444,0.0,0.0,0.0
280,0.0,0.0,0.0,0.24966796875,0.0,0.0,0.0,0.0,0.0,0.0,0.168,0.0,0.0,0.0,0.0,0.0,0.0,0.2610941982798062,0.0,0.0,0.0,0.0,0.0,0.0,-13.444,0.0,0.0,0.0
281,0.0,0.0,0.0,0.250966796875,0.0,0.0,0.0,0.0,0.0,0.0,0.15,0.0,0.0,0.0,0.0,0.0,0.0,0.26210532359174726,0.0,0.0,0.0,0.0,0.0,0.0,-13.08,0.0,0.0,0.0
282,0.0,0.0,0.0,0.252564453125,0.0,0.0,0.0,0.0,0.0,0.0,0.148,0.0,0.0,0.0,0.0,0.0,0.0,0.2632482112130294,0.0,0.0,0.0,0.0,0.0,0.0,-13.148,0.0,0.0,0.0
283,0.0,0.0,0.0,0.252564453125,0.0,0.0,0.0,0.0,0.0,0.0,0.148,0.0,0.0,0.0,0.0,0.0,0.0,0.26404830731120876,0.0,0.0,0.0,0.0,0.0,0.0,-13.148,0.0,0.0,0.0
284,0.0,0.0,0.0,0.25415234375,0.0,0.0,0.0,0.0,0.0,0.0,0.16,0.0,0.0,0.0,0.0,0.0,0.0,0.264625625077399,0.0,0.0,0.0,0.0,0.0,0.0,-13.104,0.0,0.0,0.0
285,0.0,0.0,0.0,0.25415234375,0.0,0.0,0.0,0.0,0.0,0.0,0.16,0.0,0.0,0.0,0.0,0.0,0.0,0.2653339981697249,0.0,0.0,0.0,0.0,0.0,0.0,-13.104,0.0,0.0,0.0
286,0.0,0.0,0.0,0.25415234375,0.0,0.0,0.0,0.0,0.0,0.0,0.16,0.0,0.0,0.0,0.0,0.0,0.0,0.2658845964167302,0.0,0.0,0.0,0.0,0.0,0.0,-13.104,0.0,0.0,0.0
287,0.0,0.0,0.0,0.2556142578125,0.0,0.0,0.0,0.0,0.0,0.0,0.153,0.0,0.0,0.0,0.0,0.0,0.0,0.26643580995192917,0.0,0.0,0.0,0.0,0.0,0.0,-12.92,0.0,0.0,0.0
288,0.0,0.0,0.0,0.2556142578125,0.0,0.0,0.0,0.0,0.0,0.0,0.153,0.0,0.0,0.0,0.0,0.0,0.0,0.2670407661749144,0.0,0.0,0.0,0.0,0.0,0.0,-12.92,0.0,0.0,0.0
289,0.0,0.0,0.0,0.2556142578125,0.0,0.0,0.0,0.0,0.0,0.0,0.153,0.0,0.0,0.0,0.0,0.0,0.0,0.2678514318038358,0.0,0.0,0.0,0.0,0.0,0.0,-12.92,0.0,0.0,0.0
290,0.0,0.0,0.0,0.2572021484375,0.0,0.0,0.0,0.0,0.0,0.0,0.145,0.0,0.0,0.0,0.0,0.0,0.0,0.2686309477245403,0.0,0.0,0.0,0.0,0.0,0.0,-12.532,0.0,0.0,0.0
291,0.0,0.0,0.0,0.2572021484375,0.0,0.0,0.0,0.0,0.0,0.0,0.145,0.0,0.0,0.0,0.0,0.0,0.0,0.26938595195555187,0.0,0.0,0.0,0.0,0.0,0.0,-12.532,0.0,0.0,0.0
292,0.0,0.0,0.0,0.2589443359375,0.0,0.0,0.0,0.0,0.0,0.0,0.168,0.0,0.0,0.0,0.0,0.0,0.0,0.2703210756262055,0.0,0.0,0.0,0.0,0.0,0.0,-13.172,0.0,0.0,0.0
293,0.0,0.0,0.0,0.2605322265625,0.0,0.0,0.0,0.0,0.0,0.0,0.168,0.0,0.0,0.0,0.0,0.0,0.0,0.2711991570536949,0.0,0.0,0.0,0.0,0.0,0.0,-12.896,0.0,0.0,0.0
294,0.0,0.0,0.0,0.2605322265625,0.0,0.0,0.0,0.0,0.0,0.0,0.168,0.0,0.0,0.0,0.0,0.0,0.0,0.27239874250492346,0.0,0.0,0.0,0.0,0.0,0.0,-12.896,0.0,0.0,0.0
295,0.0,0.0,0.0,0.2622734375,0.0,0.0,0.0,0.0,0.0,0.0,0.165,0.0,0.0,0.0,0.0,0.0,0.0,0.2736889844564962,0.0,0.0,0.0,0.0,0.0,0.0,-12.668,0.0,0.0,0.0
296,0.0,0.0,0.0,0.2640146484375,0.0,0.0,0.0,0.0,0.0,0.0,0.178,0.0,0.0,0.0,0.0,0.0,0.0,0.27471892386478347,0.0,0.0,0.0,0.0,0.0,0.0,-12.872,0.0,0.0,0.0
297,0.0,0.0,0.0,0.2640146484375,0.0,0.0,0.0,0.0,0.0,0.0,0.178,0.0,0.0,0.0,0.0,0.0,0.0,0.27558243527831167,0.0,0.0,0.0,0.0,0.0,0.0,-12.872,0.0,0.0,0.0
298,0.0,0.0,0.0,0.265458984375,0.0,0.0,0.0,0.0,0.0,0.0,0.161,0.0,0.0,0.0,0.0,0.0,0.0,0.27634545883374145,0.0,0.0,0.0,0.0,0.0,0.0,-12.692,0.0,0.0,0.0
299,0.0,0.0,0.0,0.265458984375,0.0,0.0,0.0,0.0,0.0,0.0,0.161,0.0,0.0,0.0,0.0,0.0,0.0,0.2769384728844199,0.0,0.0,0.0,0.0,0.0,0.0,-12.692,0.0,0.0,0.0
300,0.0,0.0,0.0,0.267046875,0.0,0.0,0.0,0.0,0.0,0.0,0.147,0.0,0.0,0.0,0.0,0.0,0.0,0.2777448247002995,0.0,0.0,0.0,0.0,0.0,0.0,-12.576,0.0,0.0,0.0
301,0.0,0.0,0.0,0.267046875,0.0,0.0,0.0,0.0,0.0,0.0,0.147,0.0,0.0,0.0,0.0,0.0,0.0,0.2785234492567818,0.0,0.0,0.0,0.0,0.0,0.0,-12.576,0.0,0.0,0.0
302,0.0,0.0,0.0,0.26864453125,0.0,0.0,0.0,0.0,0.0,0.0,0.162,0.0,0.0,0.0,0.0,0.0,0.0,0.27909882341527337,0.0,0.0,0.0,0.0,0.0,0.0,-12.668,0.0,0.0,0.0
303,0.0,0.0,0.0,0.26864453125,0.0,0.0,0.0,0.0,0.0,0.0,0.162,0.0,0.0,0.0,0.0,0.0,0.0,0.2797224895116446,0.0,0.0,0.0,0.0,0.0,0.0,-12.668,0.0,0.0,0.0
304,0.0,0.0,0.0,0.26864453125,0.0,0.0,0.0,0.0,0.0,0.0,0.162,0.0,0.0,0.0,0.0,0.0,0.0,0.2802934724941138,0.0,0.0,0.0,0.0,0.0,0.0,-12.668,0.0,0.0,0.0
305,0.0,0.0,0.0,0.270087890625,0.0,0.0,0.0,0.0,0.0,0.0,0.154,0.0,0.0,0.0,0.0,0.0,0.0,0.2809833844447822,0.0,0.0,0.0,0.0,0.0,0.0,-13.08,0.0,0.0,0.0
306,0.0,0.0,0.0,0.270087890625,0.0,0.0,0.0,0.0,0.0,0.0,0.154,0.0,0.0,0.0,0.0,0.0,0.0,0.2816261206454711,0.0,0.0,0.0,0.0,0.0,0.0,-13.08,0.0,0.0,0.0
307,0.0,0.0,0.0,0.2716845703125,0.0,0.0,0.0,0.0,0.0,0.0,0.149,0.0,0.0,0.0,0.0,0.0,0.0,0.28230741679513566,0.0,0.0,0.0,0.0,0.0,0.0,-12.644,0.0,0.0,0.0
308,0.0,0.0,0.0,0.2716845703125,0.0,0.0,0.0,0.0,0.0,0.0,0.149,0.0,0.0,0.0,0.0,0.0,0.0,0.28329517480911276,0.0,0.0,0.0,0.0,0.0,0.0,-12.644,0.0,0.0,0.0
309,0.0,0.0,0.0,0.2735712890625,0.0,0.0,0.0,0.0,0.0,0.0,0.176,0.0,0.0,0.0,0.0,0.0,0.0,0.28408915561790116,0.0,0.0,0.0,0.0,0.0,0.0,-13.08,0.0,0.0,0.0
310,0.0,0.0,0.0,0.2735712890625,0.0,0.0,0.0,0.0,0.0,0.0,0.176,0.0,0.0,0.0,0.0,0.0,0.0,0.28489574075374025,0.0,0.0,0.0,0.0,0.0,0.0,-13.08,0.0,0.0,0.0
311,0.0,0.0,0.0,0.27516796875,0.0,0.0,0.0,0.0,0.0,0.0,0.179,0.0,0.0,0.0,0.0,0.0,0.0,0.2858054388382972,0.0,0.0,0.0,0.0,0.0,0.0,-13.4,0.0,0.0,0.0
312,0.0,0.0,0.0,0.27516796875,0.0,0.0,0.0,0.0,0.0,0.0,0.179,0.0,0.0,0.0,0.0,0.0,0.0,0.2866505071150662,0.0,0.0,0.0,0.0,0.0,0.0,-13.4,0.0,0.0,0.0
313,0.0,0.0,0.0,0.2769091796875,0.0,0.0,0.0,0.0,0.0,0.0,0.161,0.0,0.0,0.0,0.0,0.0,0.0,0.28765861349615246,0.0,0.0,0.0,0.0,0.0,0.0,-13.492,0.0,0.0,0.0
314,0.0,0.0,0.0,0.2786416015625,0.0,0.0,0.0,0.0,0.0,0.0,0.182,0.0,0.0,0.0,0.0,0.0,0.0,0.2885895396963694,0.0,0.0,0.0,0.0,0.0,0.0,-14.156,0.0,0.0,0.0
315,0.0,0.0,0.0,0.2786416015625,0.0,0.0,0.0,0.0,0.0,0.0,0.182,0.0,0.0,0.0,0.0,0.0,0.0,0.2893988850202432,0.0,0.0,0.0,0.0,0.0,0.0,-14.156,0.0,0.0,0.0
316,0.0,0.0,0.0,0.2800947265625,0.0,0.0,0.0,0.0,0.0,0.0,0.159,0.0,0.0,0.0,0.0,0.0,0.0,0.2902703200638399,0.0,0.0,0.0,0.0,0.0,0.0,-14.108,0.0,0.0,0.0
317,0.0,0.0,0.0,0.2800947265625,0.0,0.0,0.0,0.0,0.0,0.0,0.159,0.0,0.0,0.0,0.0,0.0,0.0,0.29105558616513477,0.0,0.0,0.0,0.0,0.0,0.0,-14.108,0.0,0.0,0.0
318,0.0,0.0,0.0,0.2818271484375,0.0,0.0,0.0,0.0,0.0,0.0,0.159,0.0,0.0,0.0,0.0,0.0,0.0,0.2919359955653143,0.0,0.0,0.0,0.0,0.0,0.0,-13.764,0.0,0.0,0.0
319,0.0,0.0,0.0,0.2818271484375,0.0,0.0,0.0,0.0,0.0,0.0,0.159,0.0,0.0,0.0,0.0,0.0,0.0,0.29278728487557737,0.0,0.0,0.0,0.0,0.0,0.0,-13.764,0.0,0.0,0.0
320,0.0,0.0,0.0,0.283712890625,0.0,0.0,0.0,0.0,0.0,0.0,0.175,0.0,0.0,0.0,0.0,0.0,0.0,0.2940352704458611,0.0,0.0,0.0,0.0,0.0,0.0,-14.04,0.0,0.0,0.0
321,0.0,0.0,0.0,0.2851572265625,0.0,0.0,0.0,0.0,0.0,0.0,0.17,0.0,0.0,0.0,0.0,0.0,0.0,0.2948691860011023,0.0,0.0,0.0,0.0,0.0,0.0,-14.408,0.0,0.0,0.0
322,0.0,0.0,0.0,0.2851572265625,0.0,0.0,0.0,0.0,0.0,0.0,0.17,0.0,0.0,0.0,0.0,0.0,0.0,0.29577566372675784,0.0,0.0,0.0,0.0,0.0,0.0,-14.408,0.0,0.0,0.0
323,0.0,0.0,0.0,0.28675390625,0.0,0.0,0.0,0.0,0.0,0.0,0.147,0.0,0.0,0.0,0.0,0.0,0.0,0.29661781580112895,0.0,0.0,0.0,0.0,0.0,0.0,-14.336,0.0,0.0,0.0
324,0.0,0.0,0.0,0.288486328125,0.0,0.0,0.0,0.0,0.0,0.0,0.168,0.0,0.0,0.0,0.0,0.0,0.0,0.2975562961628699,0.0,0.0,0.0,0.0,0.0,0.0,-14.428,0.0,0.0,0.0
325,0.0,0.0,0.0,0.288486328125,0.0,0.0,0.0,0.0,0.0,0.0,0.168,0.0,0.0,0.0,0.0,0.0,0.0,0.298428200421336,0.0,0.0,0.0,0.0,0.0,0.0,-14.428,0.0,0.0,0.0
326,0.0,0.0,0.0,0.290228515625,0.0,0.0,0.0,0.0,0.0,0.0,0.178,0.0,0.0,0.0,0.0,0.0,0.0,0.29922760201587534,0.0,0.0,0.0,0.0,0.0,0.0,-14.224,0.0,0.0,0.0
327,0.0,0.0,0.0,0.29181640625,0.0,0.0,0.0,0.0,0.0,0.0,0.16,0.0,0.0,0.0,0.0,0.0,0.0,0.3001470036685048,0.0,0.0,0.0,0.0,0.0,0.0,-14.176,0.0,0.0,0.0
328,0.0,0.0,0.0,0.29181640625,0.0,0.0,0.0,0.0,0.0,0.0,0.16,0.0,0.0,0.0,0.0,0.0,0.0,0.30099962831784144,0.0,0.0,0.0,0.0,0.0,0.0,-14.176,0.0,0.0,0.0
329,0.0,0.0,0.0,0.29356640625,0.0,0.0,0.0,0.0,0.0,0.0,0.163,0.0,0.0,0.0,0.0,0.0,0.0,0.3018941209790402,0.0,0.0,0.0,0.0,0.0,0.0,-14.04,0.0,0.0,0.0
330,0.0,0.0,0.0,0.29356640625,0.0,0.0,0.0,0.0,0.0,0.0,0.163,0.0,0.0,0.0,0.0,0.0,0.0,0.3026840962808555,0.0,0.0,0.0,0.0,0.0,0.0,-14.04,0.0,0.0,0.0
331,0.0,0.0,0.0,0.2951640625,0.0,0.0,0.0,0.0,0.0,0.0,0.176,0.0,0.0,0.0,0.0,0.0,0.0,0.3035106415792577,0.0,0.0,0.0,0.0,0.0,0.0,-14.04,0.0,0.0,0.0
332,0.0,0.0,0.0,0.2951640625,0.0,0.0,0.0,0.0,0.0,0.0,0.176,0.0,0.0,0.0,0.0,0.0,0.0,0.3043142511316537,0.0,0.0,0.0,0.0,0.0,0.0,-14.04,0.0,0.0,0.0
333,0.0,0.0,0.0,0.296462890625,0.0,0.0,0.0,0.0,0.0,0.0,0.148,0.0,0.0,0.0,0.0,0.0,0.0,0.3051318091627286,0.0,0.0,0.0,0.0,0.0,0.0,-13.604,0.0,0.0,0.0
334,0.0,0.0,0.0,0.2979072265625,0.0,0.0,0.0,0.0,0.0,0.0,0.129,0.0,0.0,0.0,0.0,0.0,0.0,0.30609034487287407,0.0,0.0,0.0,0.0,0.0,0.0,-13.148,0.0,0.0,0.0
335,0.0,0.0,0.0,0.2979072265625,0.0,0.0,0.0,0.0,0.0,0.0,0.129,0.0,0.0,0.0,0.0,0.0,0.0,0.30691428418435707,0.0,0.0,0.0,0.0,0.0,0.0,-13.148,0.0,0.0,0.0
336,0.0,0.0,0.0,0.2992158203125,0.0,0.0,0.0,0.0,0.0,0.0,0.145,0.0,0.0,0.0,0.0,0.0,0.0,0.30775981147854387,0.0,0.0,0.0,0.0,0.0,0.0,-13.264,0.0,0.0,0.0
337,0.0,0.0,0.0,0.2992158203125,0.0,0.0,0.0,0.0,0.0,0.0,0.145,0.0,0.0,0.0,0.0,0.0,0.0,0.30859100370610626,0.0,0.0,0.0,0.0,0.0,0.0,-13.264,0.0,0.0,0.0
338,0.0,0.0,0.0,0.3002255859375,0.0,0.0,0.0,0.0,0.0,0.0,0.119,0.0,0.0,0.0,0.0,0.0,0.0,0.30942360844107275,0.0,0.0,0.0,0.0,0.0,0.0,-13.264,0.0,0.0,0.0
339,0.0,0.0,0.0,0.3015341796875,0.0,0.0,0.0,0.0,0.0,0.0,0.114,0.0,0.0,0.0,0.0,0.0,0.0,0.3102690431392061,0.0,0.0,0.0,0.0,0.0,0.0,-13.264,0.0,0.0,0.0
340,0.0,0.0,0.0,0.3015341796875,0.0,0.0,0.0,0.0,0.0,0.0,0.114,0.0,0.0,0.0,0.0,0.0,0.0,0.31082139044060253,0.0,0.0,0.0,0.0,0.0,0.0,-13.264,0.0,0.0,0.0
341,0.0,0.0,0.0,0.302689453125,0.0,0.0,0.0,0.0,0.0,0.0,0.123,0.0,0.0,0.0,0.0,0.0,0.0,0.31144909788255537,0.0,0.0,0.0,0.0,0.0,0.0,-13.24,0.0,0.0,0.0
342,0.0,0.0,0.0,0.302689453125,0.0,0.0,0.0,0.0,0.0,0.0,0.123,0.0,0.0,0.0,0.0,0.0,0.0,0.3121233801547527,0.0,0.0,0.0,0.0,0.0,0.0,-13.24,0.0,0.0,0.0
343,0.0,0.0,0.0,0.302689453125,0.0,0.0,0.0,0.0,0.0,0.0,0.123,0.0,0.0,0.0,0.0,0.0,0.0,0.3126856797799033,0.0,0.0,0.0,0.0,0.0,0.0,-13.24,0.0,0.0,0.0
344,0.0,0.0,0.0,0.3038447265625,0.0,0.0,0.0,0.0,0.0,0.0,0.116,0.0,0.0,0.0,0.0,0.0,0.0,0.31325362417264807,0.0,0.0,0.0,0.0,0.0,0.0,-12.944,0.0,0.0,0.0
345,0.0,0.0,0.0,0.3038447265625,0.0,0.0,0.0,0.0,0.0,0.0,0.116,0.0,0.0,0.0,0.0,0.0,0.0,0.31373122421589583,0.0,0.0,0.0,0.0,0.0,0.0,-12.944,0.0,0.0,0.0
346,0.0,0.0,0.0,0.3050087890625,0.0,0.0,0.0,0.0,0.0,0.0,0.112,0.0,0.0,0.0,0.0,0.0,0.0,0.31444984780519447,0.0,0.0,0.0,0.0,0.0,0.0,-12.692,0.0,0.0,0.0
347,0.0,0.0,0.0,0.3050087890625,0.0,0.0,0.0,0.0,0.0,0.0,0.112,0.0,0.0,0.0,0.0,0.0,0.0,0.3150605383925282,0.0,0.0,0.0,0.0,0.0,0.0,-12.692,0.0,0.0,0.0
348,0.0,0.0,0.0,0.3063076171875,0.0,0.0,0.0,0.0,0.0,0.0,0.124,0.0,0.0,0.0,0.0,0.0,0.0,0.315685404012062,0.0,0.0,0.0,0.0,0.0,0.0,-12.784,0.0,0.0,0.0
349,0.0,0.0,0.0,0.3063076171875,0.0,0.0,0.0,0.0,0.0,0.0,0.124,0.0,0.0,0.0,0.0,0.0,0.0,0.3161498351239412,0.0,0.0,0.0,0.0,0.0,0.0,-12.784,0.0,0.0,0.0
350,0.0,0.0,0.0,0.3063076171875,0.0,0.0,0.0,0.0,0.0,0.0,0.124,0.0,0.0,0.0,0.0,0.0,0.0,0.31666922625077143,0.0,0.0,0.0,0.0,0.0,0.0,-12.784,0.0,0.0,0.0
351,0.0,0.0,0.0,0.3076162109375,0.0,0.0,0.0,0.0,0.0,0.0,0.128,0.0,0.0,0.0,0.0,0.0,0.0,0.31725365366457703,0.0,0.0,0.0,0.0,0.0,0.0,-12.896,0.0,0.0,0.0
352,0.0,0.0,0.0,0.3076162109375,0.0,0.0,0.0,0.0,0.0,0.0,0.128,0.0,0.0,0.0,0.0,0.0,0.0,0.3177085407919809,0.0,0.0,0.0,0.0,0.0,0.0,-12.896,0.0,0.0,0.0
353,0.0,0.0,0.0,0.308916015625,0.0,0.0,0.0,0.0,0.0,0.0,0.127,0.0,0.0,0.0,0.0,0.0,0.0,0.31826762307996986,0.0,0.0,0.0,0.0,0.0,0.0,-12.804,0.0,0.0,0.0
354,0.0,0.0,0.0,0.308916015625,0.0,0.0,0.0,0.0,0.0,0.0,0.127,0.0,0.0,0.0,0.0,0.0,0.0,0.31898115640116315,0.0,0.0,0.0,0.0,0.0,0.0,-12.804,0.0,0.0,0.0
355,0.0,0.0,0.0,0.31021484375,0.0,0.0,0.0,0.0,0.0,0.0,0.132,0.0,0.0,0.0,0.0,0.0,0.0,0.31954268407903563,0.0,0.0,0.0,0.0,0.0,0.0,-12.76,0.0,0.0,0.0
356,0.0,0.0,0.0,0.31021484375,0.0,0.0,0.0,0.0,0.0,0.0,0.132,0.0,0.0,0.0,0.0,0.0,0.0,0.3200244667605263,0.0,0.0,0.0,0.0,0.0,0.0,-12.76,0.0,0.0,0.0
357,0.0,0.0,0.0,0.31021484375,0.0,0.0,0.0,0.0,0.0,0.0,0.132,0.0,0.0,0.0,0.0,0.0,0.0,0.32054812412299444,0.0,0.0,0.0,0.0,0.0,0.0,-12.76,0.0,0.0,0.0
358,0.0,0.0,0.0,0.31137890625,0.0,0.0,0.0,0.0,0.0,0.0,0.125,0.0,0.0,0.0,0.0,0.0,0.0,0.3211269509609725,0.0,0.0,0.0,0.0,0.0,0.0,-12.552,0.0,0.0,0.0
359,0.0,0.0,0.0,0.31137890625,0.0,0.0,0.0,0.0,0.0,0.0,0.125,0.0,0.0,0.0,0.0,0.0,0.0,0.3216242265817437,0.0,0.0,0.0,0.0,0.0,0.0,-12.552,0.0,0.0,0.0
360,0.0,0.0,0.0,0.31137890625,0.0,0.0,0.0,0.0,0.0,0.0,0.125,0.0,0.0,0.0,0.0,0.0,0.0,0.3220554332060266,0.0,0.0,0.0,0.0,0.0,0.0,-12.552,0.0,0.0,0.0
361,0.0,0.0,0.0,0.3126875,0.0,0.0,0.0,0.0,0.0,0.0,0.122,0.0,0.0,0.0,0.0,0.0,0.0,0.3227306214489123,0.0,0.0,0.0,0.0,0.0,0.0,-12.392,0.0,0.0,0.0
362,0.0,0.0,0.0,0.31399609375,0.0,0.0,0.0,0.0,0.0,0.0,0.127,0.0,0.0,0.0,0.0,0.0,0.0,0.32340152878688383,0.0,0.0,0.0,0.0,0.0,0.0,-12.464,0.0,0.0,0.0
363,0.0,0.0,0.0,0.31399609375,0.0,0.0,0.0,0.0,0.0,0.0,0.127,0.0,0.0,0.0,0.0,0.0,0.0,0.32390992790045325,0.0,0.0,0.0,0.0,0.0,0.0,-12.464,0.0,0.0,0.0
364,0.0,0.0,0.0,0.31399609375,0.0,0.0,0.0,0.0,0.0,0.0,0.127,0.0,0.0,0.0,0.0,0.0,0.0,0.3243848498498058,0.0,0.0,0.0,0.0,0.0,0.0,-12.464,0.0,0.0,0.0
365,0.0,0.0,0.0,0.315294921875,0.0,0.0,0.0,0.0,0.0,0.0,0.133,0.0,0.0,0.0,0.0,0.0,0.0,0.32486056882486214,0.0,0.0,0.0,0.0,0.0,0.0,-12.416,0.0,0.0,0.0
366,0.0,0.0,0.0,0.315294921875,0.0,0.0,0.0,0.0,0.0,0.0,0.133,0.0,0.0,0.0,0.0,0.0,0.0,0.3253041859555402,0.0,0.0,0.0,0.0,0.0,0.0,-12.416,0.0,0.0,0.0
367,0.0,0.0,0.0,0.315294921875,0.0,0.0,0.0,0.0,0.0,0.0,0.133,0.0,0.0,0.0,0.0,0.0,0.0,0.3258099022764454,0.0,0.0,0.0,0.0,0.0,0.0,-12.416,0.0,0.0,0.0
368,0.0,0.0,0.0,0.3165947265625,0.0,0.0,0.0,0.0,0.0,0.0,0.126,0.0,0.0,0.0,0.0,0.0,0.0,0.32641094684115474,0.0,0.0,0.0,0.0,0.0,0.0,-12.392,0.0,0.0,0.0
369,0.0,0.0,0.0,0.3165947265625,0.0,0.0,0.0,0.0,0.0,0.0,0.126,0.0,0.0,0.0,0.0,0.0,0.0,0.3269197058365527,0.0,0.0,0.0,0.0,0.0,0.0,-12.392,0.0,0.0,0.0
370,0.0,0.0,0.0,0.3179033203125,0.0,0.0,0.0,0.0,0.0,0.0,0.136,0.0,0.0,0.0,0.0,0.0,0.0,0.3274423270946464,0.0,0.0,0.0,0.0,0.0,0.0,-12.736,0.0,0.0,0.0
371,0.0,0.0,0.0,0.3179033203125,0.0,0.0,0.0,0.0,0.0,0.0,0.136,0.0,0.0,0.0,0.0,0.0,0.0,0.3280860192129177,0.0,0.0,0.0,0.0,0.0,0.0,-12.736,0.0,0.0,0.0
372,0.0,0.0,0.0,0.3192021484375,0.0,0.0,0.0,0.0,0.0,0.0,0.128,0.0,0.0,0.0,0.0,0.0,0.0,0.32856086290844067,0.0,0.0,0.0,0.0,0.0,0.0,-12.964,0.0,0.0,0.0
373,0.0,0.0,0.0,0.3192021484375,0.0,0.0,0.0,0.0,0.0,0.0,0.128,0.0,0.0,0.0,0.0,0.0,0.0,0.32897534648659055,0.0,0.0,0.0,0.0,0.0,0.0,-12.964,0.0,0.0,0.0
374,0.0,0.0,0.0,0.3192021484375,0.0,0.0,0.0,0.0,0.0,0.0,0.128,0.0,0.0,0.0,0.0,0.0,0.0,0.3294962423514154,0.0,0.0,0.0,0.0,0.0,0.0,-12.964,0.0,0.0,0.0
375,0.0,0.0,0.0,0.3205107421875,0.0,0.0,0.0,0.0,0.0,0.0,0.127,0.0,0.0,0.0,0.0,0.0,0.0,0.33013619124310445,0.0,0.0,0.0,0.0,0.0,0.0,-12.784,0.0,0.0,0.0
376,0.0,0.0,0.0,0.3205107421875,0.0,0.0,0.0,0.0,0.0,0.0,0.127,0.0,0.0,0.0,0.0,0.0,0.0,0.3306303312249175,0.0,0.0,0.0,0.0,0.0,0.0,-12.784,0.0,0.0,0.0
377,0.0,0.0,0.0,0.3219541015625,0.0,0.0,0.0,0.0,0.0,0.0,0.139,0.0,0.0,0.0,0.0,0.0,0.0,0.33113133508711656,0.0,0.0,0.0,0.0,0.0,0.0,-12.76,0.0,0.0,0.0
378,0.0,0.0,0.0,0.3219541015625,0.0,0.0,0.0,0.0,0.0,0.0,0.139,0.0,0.0,0.0,0.0,0.0,0.0,0.33167228111148045,0.0,0.0,0.0,0.0,0.0,0.0,-12.76,0.0,0.0,0.0
379,0.0,0.0,0.0,0.3219541015625,0.0,0.0,0.0,0.0,0.0,0.0,0.139,0.0,0.0,0.0,0.0,0.0,0.0,0.3321312224131479,0.0,0.0,0.0,0.0,0.0,0.0,-12.76,0.0,0.0,0.0
380,0.0,0.0,0.0,0.3232626953125,0.0,0.0,0.0,0.0,0.0,0.0,0.145,0.0,0.0,0.0,0.0,0.0,0.0,0.33257117959780935,0.0,0.0,0.0,0.0,0.0,0.0,-12.944,0.0,0.0,0.0
381,0.0,0.0,0.0,0.3232626953125,0.0,0.0,0.0,0.0,0.0,0.0,0.145,0.0,0.0,0.0,0.0,0.0,0.0,0.3331101000362591,0.0,0.0,0.0,0.0,0.0,0.0,-12.944,0.0,0.0,0.0
382,0.0,0.0,0.0,0.3245625,0.0,0.0,0.0,0.0,0.0,0.0,0.133,0.0,0.0,0.0,0.0,0.0,0.0,0.333800231990044,0.0,0.0,0.0,0.0,0.0,0.0,-12.828,0.0,0.0,0.0
383,0.0,0.0,0.0,0.3245625,0.0,0.0,0.0,0.0,0.0,0.0,0.133,0.0,0.0,0.0,0.0,0.0,0.0,0.33424410764876805,0.0,0.0,0.0,0.0,0.0,0.0,-12.828,0.0,0.0,0.0
384,0.0,0.0,0.0,0.326005859375,0.0,0.0,0.0,0.0,0.0,0.0,0.132,0.0,0.0,0.0,0.0,0.0,0.0,0.3348596617377254,0.0,0.0,0.0,0.0,0.0,0.0,-13.056,0.0,0.0,0.0
385,0.0,0.0,0.0,0.326005859375,0.0,0.0,0.0,0.0,0.0,0.0,0.132,0.0,0.0,0.0,0.0,0.0,0.0,0.3355030649781059,0.0,0.0,0.0,0.0,0.0,0.0,-13.056,0.0,0.0,0.0
386,0.0,0.0,0.0,0.327169921875,0.0,0.0,0.0,0.0,0.0,0.0,0.137,0.0,0.0,0.0,0.0,0.0,0.0,0.3359357488347961,0.0,0.0,0.0,0.0,0.0,0.0,-12.944,0.0,0.0,0.0
387,0.0,0.0,0.0,0.327169921875,0.0,0.0,0.0,0.0,0.0,0.0,0.137,0.0,0.0,0.0,0.0,0.0,0.0,0.336329944751109,0.0,0.0,0.0,0.0,0.0,0.0,-12.944,0.0,0.0,0.0
388,0.0,0.0,0.0,0.327169921875,0.0,0.0,0.0,0.0,0.0,0.0,0.137,0.0,0.0,0.0,0.0,0.0,0.0,0.3367138275451286,0.0,0.0,0.0,0.0,0.0,0.0,-12.944,0.0,0.0,0.0
389,0.0,0.0,0.0,0.327169921875,0.0,0.0,0.0,0.0,0.0,0.0,0.137,0.0,0.0,0.0,0.0,0.0,0.0,0.33725051169036474,0.0,0.0,0.0,0.0,0.0,0.0,-12.944,0.0,0.0,0.0
390,0.0,0.0,0.0,0.3284697265625,0.0,0.0,0.0,0.0,0.0,0.0,0.121,0.0,0.0,0.0,0.0,0.0,0.0,0.33792522415341014,0.0,0.0,0.0,0.0,0.0,0.0,-12.784,0.0,0.0,0.0
391,0.0,0.0,0.0,0.3296337890625,0.0,0.0,0.0,0.0,0.0,0.0,0.117,0.0,0.0,0.0,0.0,0.0,0.0,0.3384684779056027,0.0,0.0,0.0,0.0,0.0,0.0,-12.668,0.0,0.0,0.0
392,0.0,0.0,0.0,0.3296337890625,0.0,0.0,0.0,0.0,0.0,0.0,0.117,0.0,0.0,0.0,0.0,0.0,0.0,0.3389203937314247,0.0,0.0,0.0,0.0,0.0,0.0,-12.668,0.0,0.0,0.0
393,0.0,0.0,0.0,0.3309326171875,0.0,0.0,0.0,0.0,0.0,0.0,0.123,0.0,0.0,0.0,0.0,0.0,0.0,0.33951514972566643,0.0,0.0,0.0,0.0,0.0,0.0,-12.896,0.0,0.0,0.0
394,0.0,0.0,0.0,0.3309326171875,0.0,0.0,0.0,0.0,0.0,0.0,0.123,0.0,0.0,0.0,0.0,0.0,0.0,0.34008626828410726,0.0,0.0,0.0,0.0,0.0,0.0,-12.896,0.0,0.0,0.0
395,0.0,0.0,0.0,0.3320966796875,0.0,0.0,0.0,0.0,0.0,0.0,0.124,0.0,0.0,0.0,0.0,0.0,0.0,0.34055914950929617,0.0,0.0,0.0,0.0,0.0,0.0,-12.944,0.0,0.0,0.0
396,0.0,0.0,0.0,0.3320966796875,0.0,0.0,0.0,0.0,0.0,0.0,0.124,0.0,0.0,0.0,0.0,0.0,0.0,0.34115118133962263,0.0,0.0,0.0,0.0,0.0,0.0,-12.944,0.0,0.0,0.0
397,0.0,0.0,0.0,0.3320966796875,0.0,0.0,0.0,0.0,0.0,0.0,0.124,0.0,0.0,0.0,0.0,0.0,0.0,0.3416363292732764,0.0,0.0,0.0,0.0,0.0,0.0,-12.944,0.0,0.0,0.0
398,0.0,0.0,0.0,0.3332607421875,0.0,0.0,0.0,0.0,0.0,0.0,0.117,0.0,0.0,0.0,0.0,0.0,0.0,0.34217741460622053,0.0,0.0,0.0,0.0,0.0,0.0,-12.784,0.0,0.0,0.0
399,0.0,0.0,0.0,0.3332607421875,0.0,0.0,0.0,0.0,0.0,0.0,0.117,0.0,0.0,0.0,0.0,0.0,0.0,0.3426507294102883,0.0,0.0,0.0,0.0,0.0,0.0,-12.784,0.0,0.0,0.0
400,0.0,0.0,0.0,0.334416015625,0.0,0.0,0.0,0.0,0.0,0.0,0.122,0.0,0.0,0.0,0.0,0.0,0.0,0.34320878675771616,0.0,0.0,0.0,0.0,0.0,0.0,-13.032,0.0,0.0,0.0
401,0.0,0.0,0.0,0.334416015625,0.0,0.0,0.0,0.0,0.0,0.0,0.122,0.0,0.0,0.0,0.0,0.0,0.0,0.34366385344480327,0.0,0.0,0.0,0.0,0.0,0.0,-13.032,0.0,0.0,0.0
402,0.0,0.0,0.0,0.335724609375,0.0,0.0,0.0,0.0,0.0,0.0,0.116,0.0,0.0,0.0,0.0,0.0,0.0,0.34409530096503427,0.0,0.0,0.0,0.0,0.0,0.0,-12.828,0.0,0.0,0.0
403,0.0,0.0,0.0,0.335724609375,0.0,0.0,0.0,0.0,0.0,0.0,0.116,0.0,0.0,0.0,0.0,0.0,0.0,0.3445351988151797,0.0,0.0,0.0,0.0,0.0,0.0,-12.828,0.0,0.0,0.0
404,0.0,0.0,0.0,0.3370234375,0.0,0.0,0.0,0.0,0.0,0.0,0.132,0.0,0.0,0.0,0.0,0.0,0.0,0.34500591236992834,0.0,0.0,0.0,0.0,0.0,0.0,-13.08,0.0,0.0,0.0
405,0.0,0.0,0.0,0.3370234375,0.0,0.0,0.0,0.0,0.0,0.0,0.132,0.0,0.0,0.0,0.0,0.0,0.0,0.34550153829612706,0.0,0.0,0.0,0.0,0.0,0.0,-13.08,0.0,0.0,0.0
406,0.0,0.0,0.0,0.3370234375,0.0,0.0,0.0,0.0,0.0,0.0,0.132,0.0,0.0,0.0,0.0,0.0,0.0,0.34593155485963145,0.0,0.0,0.0,0.0,0.0,0.0,-13.08,0.0,0.0,0.0
407,0.0,0.0,0.0,0.3380341796875,0.0,0.0,0.0,0.0,0.0,0.0,0.117,0.0,0.0,0.0,0.0,0.0,0.0,0.3463861163391612,0.0,0.0,0.0,0.0,0.0,0.0,-13.264,0.0,0.0,0.0
408,0.0,0.0,0.0,0.3380341796875,0.0,0.0,0.0,0.0,0.0,0.0,0.117,0.0,0.0,0.0,0.0,0.0,0.0,0.3468067698129237,0.0,0.0,0.0,0.0,0.0,0.0,-13.264,0.0,0.0,0.0
409,0.0,0.0,0.0,0.3391982421875,0.0,0.0,0.0,0.0,0.0,0.0,0.11,0.0,0.0,0.0,0.0,0.0,0.0,0.34730248784591783,0.0,0.0,0.0,0.0,0.0,0.0,-13.284,0.0,0.0,0.0
410,0.0,0.0,0.0,0.3391982421875,0.0,0.0,0.0,0.0,0.0,0.0,0.11,0.0,0.0,0.0,0.0,0.0,0.0,0.34786395413971105,0.0,0.0,0.0,0.0,0.0,0.0,-13.284,0.0,0.0,0.0
411,0.0,0.0,0.0,0.340353515625,0.0,0.0,0.0,0.0,0.0,0.0,0.118,0.0,0.0,0.0,0.0,0.0,0.0,0.3484395967134335,0.0,0.0,0.0,0.0,0.0,0.0,-13.104,0.0,0.0,0.0
412,0.0,0.0,0.0,0.340353515625,0.0,0.0,0.0,0.0,0.0,0.0,0.118,0.0,0.0,0.0,0.0,0.0,0.0,0.3489341492714297,0.0,0.0,0.0,0.0,0.0,0.0,-13.104,0.0,0.0,0.0
413,0.0,0.0,0.0,0.34165234375,0.0,0.0,0.0,0.0,0.0,0.0,0.123,0.0,0.0,0.0,0.0,0.0,0.0,0.34941924920886797,0.0,0.0,0.0,0.0,0.0,0.0,-13.468,0.0,0.0,0.0
414,0.0,0.0,0.0,0.34165234375,0.0,0.0,0.0,0.0,0.0,0.0,0.123,0.0,0.0,0.0,0.0,0.0,0.0,0.3499056754135545,0.0,0.0,0.0,0.0,0.0,0.0,-13.468,0.0,0.0,0.0
415,0.0,0.0,0.0,0.34165234375,0.0,0.0,0.0,0.0,0.0,0.0,0.123,0.0,0.0,0.0,0.0,0.0,0.0,0.35030835659367154,0.0,0.0,0.0,0.0,0.0,0.0,-13.468,0.0,0.0,0.0
416,0.0,0.0,0.0,0.34281640625,0.0,0.0,0.0,0.0,0.0,0.0,0.125,0.0,0.0,0.0,0.0,0.0,0.0,0.3508213441172899,0.0,0.0,0.0,0.0,0.0,0.0,-13.516,0.0,0.0,0.0
417,0.0,0.0,0.0,0.3439716796875,0.0,0.0,0.0,0.0,0.0,0.0,0.117,0.0,0.0,0.0,0.0,0.0,0.0,0.3516179372042518,0.0,0.0,0.0,0.0,0.0,0.0,-13.812,0.0,0.0,0.0
418,0.0,0.0,0.0,0.3439716796875,0.0,0.0,0.0,0.0,0.0,0.0,0.117,0.0,0.0,0.0,0.0,0.0,0.0,0.35228207317589755,0.0,0.0,0.0,0.0,0.0,0.0,-13.812,0.0,0.0,0.0
419,0.0,0.0,0.0,0.3451357421875,0.0,0.0,0.0,0.0,0.0,0.0,0.115,0.0,0.0,0.0,0.0,0.0,0.0,0.3529124667718957,0.0,0.0,0.0,0.0,0.0,0.0,-13.88,0.0,0.0,0.0
420,0.0,0.0,0.0,0.346001953125,0.0,0.0,0.0,0.0,0.0,0.0,0.101,0.0,0.0,0.0,0.0,0.0,0.0,0.35357064866185595,0.0,0.0,0.0,0.0,0.0,0.0,-13.744,0.0,0.0,0.0
421,0.0,0.0,0.0,0.346001953125,0.0,0.0,0.0,0.0,0.0,0.0,0.101,0.0,0.0,0.0,0.0,0.0,0.0,0.3542475318272673,0.0,0.0,0.0,0.0,0.0,0.0,-13.744,0.0,0.0,0.0
422,0.0,0.0,0.0,0.3470126953125,0.0,0.0,0.0,0.0,0.0,0.0,0.095,0.0,0.0,0.0,0.0,0.0,0.0,0.3548876670571417,0.0,0.0,0.0,0.0,0.0,0.0,-13.788,0.0,0.0,0.0
423,0.0,0.0,0.0,0.3470126953125,0.0,0.0,0.0,0.0,0.0,0.0,0.095,0.0,0.0,0.0,0.0,0.0,0.0,0.35545788857222776,0.0,0.0,0.0,0.0,0.0,0.0,-13.788,0.0,0.0,0.0
424,0.0,0.0,0.0,0.3481767578125,0.0,0.0,0.0,0.0,0.0,0.0,0.109,0.0,0.0,0.0,0.0,0.0,0.0,0.3560358873840896,0.0,0.0,0.0,0.0,0.0,0.0,-13.836,0.0,0.0,0.0
425,0.0,0.0,0.0,0.3493310546875,0.0,0.0,0.0,0.0,0.0,0.0,0.111,0.0,0.0,0.0,0.0,0.0,0.0,0.3567017844526225,0.0,0.0,0.0,0.0,0.0,0.0,-14.04,0.0,0.0,0.0
426,0.0,0.0,0.0,0.3493310546875,0.0,0.0,0.0,0.0,0.0,0.0,0.111,0.0,0.0,0.0,0.0,0.0,0.0,0.3573326263125497,0.0,0.0,0.0,0.0,0.0,0.0,-14.04,0.0,0.0,0.0
427,0.0,0.0,0.0,0.350486328125,0.0,0.0,0.0,0.0,0.0,0.0,0.118,0.0,0.0,0.0,0.0,0.0,0.0,0.3579379252357076,0.0,0.0,0.0,0.0,0.0,0.0,-14.292,0.0,0.0,0.0
428,0.0,0.0,0.0,0.3516591796875,0.0,0.0,0.0,0.0,0.0,0.0,0.122,0.0,0.0,0.0,0.0,0.0,0.0,0.35850316926338976,0.0,0.0,0.0,0.0,0.0,0.0,-14.36,0.0,0.0,0.0
429,0.0,0.0,0.0,0.3516591796875,0.0,0.0,0.0,0.0,0.0,0.0,0.122,0.0,0.0,0.0,0.0,0.0,0.0,0.35904223543945335,0.0,0.0,0.0,0.0,0.0,0.0,-14.36,0.0,0.0,0.0
430,0.0,0.0,0.0,0.352814453125,0.0,0.0,0.0,0.0,0.0,0.0,0.114,0.0,0.0,0.0,0.0,0.0,0.0,0.35960335596331183,0.0,0.0,0.0,0.0,0.0,0.0,-14.064,0.0,0.0,0.0
431,0.0,0.0,0.0,0.352814453125,0.0,0.0,0.0,0.0,0.0,0.0,0.114,0.0,0.0,0.0,0.0,0.0,0.0,0.3602404000268588,0.0,0.0,0.0,0.0,0.0,0.0,-14.064,0.0,0.0,0.0
432,0.0,0.0,0.0,0.3539697265625,0.0,0.0,0.0,0.0,0.0,0.0,0.116,0.0,0.0,0.0,0.0,0.0,0.0,0.360895644134834,0.0,0.0,0.0,0.0,0.0,0.0,-13.904,0.0,0.0,0.0
433,0.0,0.0,0.0,0.3549892578125,0.0,0.0,0.0,0.0,0.0,0.0,0.11,0.0,0.0,0.0,0.0,0.0,0.0,0.3614341353597299,0.0,0.0,0.0,0.0,0.0,0.0,-13.764,0.0,0.0,0.0
434,0.0,0.0,0.0,0.3549892578125,0.0,0.0,0.0,0.0,0.0,0.0,0.11,0.0,0.0,0.0,0.0,0.0,0.0,0.3619647104441209,0.0,0.0,0.0,0.0,0.0,0.0,-13.764,0.0,0.0,0.0
435,0.0,0.0,0.0,0.356,0.0,0.0,0.0,0.0,0.0,0.0,0.105,0.0,0.0,0.0,0.0,0.0,0.0,0.36246342274291327,0.0,0.0,0.0,0.0,0.0,0.0,-14.132,0.0,0.0,0.0
436,0.0,0.0,0.0,0.356,0.0,0.0,0.0,0.0,0.0,0.0,0.105,0.0,0.0,0.0,0.0,0.0,0.0,0.36305844991759273,0.0,0.0,0.0,0.0,0.0,0.0,-14.132,0.0,0.0,0.0
437,0.0,0.0,0.0,0.3567216796875,0.0,0.0,0.0,0.0,0.0,0.0,0.083,0.0,0.0,0.0,0.0,0.0,0.0,0.3636136157661403,0.0,0.0,0.0,0.0,0.0,0.0,-13.4,0.0,0.0,0.0
438,0.0,0.0,0.0,0.3567216796875,0.0,0.0,0.0,0.0,0.0,0.0,0.083,0.0,0.0,0.0,0.0,0.0,0.0,0.3640576688841409,0.0,0.0,0.0,0.0,0.0,0.0,-13.4,0.0,0.0,0.0
439,0.0,0.0,0.0,0.3577412109375,0.0,0.0,0.0,0.0,0.0,0.0,0.093,0.0,0.0,0.0,0.0,0.0,0.0,0.36440317705703323,0.0,0.0,0.0,0.0,0.0,0.0,-13.764,0.0,0.0,0.0
440,0.0,0.0,0.0,0.3577412109375,0.0,0.0,0.0,0.0,0.0,0.0,0.093,0.0,0.0,0.0,0.0,0.0,0.0,0.36470867408246854,0.0,0.0,0.0,0.0,0.0,0.0,-13.764,0.0,0.0,0.0
441,0.0,0.0,0.0,0.358462890625,0.0,0.0,0.0,0.0,0.0,0.0,0.082,0.0,0.0,0.0,0.0,0.0,0.0,0.36521616384105243,0.0,0.0,0.0,0.0,0.0,0.0,-13.376,0.0,0.0,0.0
442,0.0,0.0,0.0,0.358462890625,0.0,0.0,0.0,0.0,0.0,0.0,0.082,0.0,0.0,0.0,0.0,0.0,0.0,0.36575847744865936,0.0,0.0,0.0,0.0,0.0,0.0,-13.376,0.0,0.0,0.0
443,0.0,0.0,0.0,0.3593291015625,0.0,0.0,0.0,0.0,0.0,0.0,0.077,0.0,0.0,0.0,0.0,0.0,0.0,0.3662170878042472,0.0,0.0,0.0,0.0,0.0,0.0,-13.284,0.0,0.0,0.0
444,0.0,0.0,0.0,0.3600517578125,0.0,0.0,0.0,0.0,0.0,0.0,0.087,0.0,0.0,0.0,0.0,0.0,0.0,0.3668243359099967,0.0,0.0,0.0,0.0,0.0,0.0,-13.376,0.0,0.0,0.0
445,0.0,0.0,0.0,0.3600517578125,0.0,0.0,0.0,0.0,0.0,0.0,0.087,0.0,0.0,0.0,0.0,0.0,0.0,0.3673292146615239,0.0,0.0,0.0,0.0,0.0,0.0,-13.376,0.0,0.0,0.0
446,0.0,0.0,0.0,0.3607822265625,0.0,0.0,0.0,0.0,0.0,0.0,0.068,0.0,0.0,0.0,0.0,0.0,0.0,0.36788445756497284,0.0,0.0,0.0,0.0,0.0,0.0,-13.264,0.0,0.0,0.0
447,0.0,0.0,0.0,0.361359375,0.0,0.0,0.0,0.0,0.0,0.0,0.069,0.0,0.0,0.0,0.0,0.0,0.0,0.3684993065278941,0.0,0.0,0.0,0.0,0.0,0.0,-12.872,0.0,0.0,0.0
448,0.0,0.0,0.0,0.361359375,0.0,0.0,0.0,0.0,0.0,0.0,0.069,0.0,0.0,0.0,0.0,0.0,0.0,0.3689931870718271,0.0,0.0,0.0,0.0,0.0,0.0,-12.872,0.0,0.0,0.0
449,0.0,0.0,0.0,0.36208203125,0.0,0.0,0.0,0.0,0.0,0.0,0.063,0.0,0.0,0.0,0.0,0.0,0.0,0.3694673230683997,0.0,0.0,0.0,0.0,0.0,0.0,-12.76,0.0,0.0,0.0
450,0.0,0.0,0.0,0.36208203125,0.0,0.0,0.0,0.0,0.0,0.0,0.063,0.0,0.0,0.0,0.0,0.0,0.0,0.3699918760845745,0.0,0.0,0.0,0.0,0.0,0.0,-12.76,0.0,0.0,0.0
451,0.0,0.0,0.0,0.3628037109375,0.0,0.0,0.0,0.0,0.0,0.0,0.068,0.0,0.0,0.0,0.0,0.0,0.0,0.37045429833431714,0.0,0.0,0.0,0.0,0.0,0.0,-12.576,0.0,0.0,0.0
452,0.0,0.0,0.0,0.363525390625,0.0,0.0,0.0,0.0,0.0,0.0,0.075,0.0,0.0,0.0,0.0,0.0,0.0,0.37100322291401056,0.0,0.0,0.0,0.0,0.0,0.0,-12.576,0.0,0.0,0.0
453,0.0,0.0,0.0,0.363525390625,0.0,0.0,0.0,0.0,0.0,0.0,0.075,0.0,0.0,0.0,0.0,0.0,0.0,0.37148301206580264,0.0,0.0,0.0,0.0,0.0,0.0,-12.576,0.0,0.0,0.0
454,0.0,0.0,0.0,0.364255859375,0.0,0.0,0.0,0.0,0.0,0.0,0.078,0.0,0.0,0.0,0.0,0.0,0.0,0.3719505081933488,0.0,0.0,0.0,0.0,0.0,0.0,-12.576,0.0,0.0,0.0
455,0.0,0.0,0.0,0.364255859375,0.0,0.0,0.0,0.0,0.0,0.0,0.078,0.0,0.0,0.0,0.0,0.0,0.0,0.3724489680960337,0.0,0.0,0.0,0.0,0.0,0.0,-12.576,0.0,0.0,0.0
456,0.0,0.0,0.0,0.3651220703125,0.0,0.0,0.0,0.0,0.0,0.0,0.073,0.0,0.0,0.0,0.0,0.0,0.0,0.3729515787168633,0.0,0.0,0.0,0.0,0.0,0.0,-12.256,0.0,0.0,0.0
457,0.0,0.0,0.0,0.3658447265625,0.0,0.0,0.0,0.0,0.0,0.0,0.077,0.0,0.0,0.0,0.0,0.0,0.0,0.37344903196725526,0.0,0.0,0.0,0.0,0.0,0.0,-12.304,0.0,0.0,0.0
458,0.0,0.0,0.0,0.3658447265625,0.0,0.0,0.0,0.0,0.0,0.0,0.077,0.0,0.0,0.0,0.0,0.0,0.0,0.37394565267604624,0.0,0.0,0.0,0.0,0.0,0.0,-12.304,0.0,0.0,0.0
459,0.0,0.0,0.0,0.366421875,0.0,0.0,0.0,0.0,0.0,0.0,0.067,0.0,0.0,0.0,0.0,0.0,0.0,0.3744015144974084,0.0,0.0,0.0,0.0,0.0,0.0,-12.14,0.0,0.0,0.0
460,0.0,0.0,0.0,0.366421875,0.0,0.0,0.0,0.0,0.0,0.0,0.067,0.0,0.0,0.0,0.0,0.0,0.0,0.37487080037811094,0.0,0.0,0.0,0.0,0.0,0.0,-12.14,0.0,0.0,0.0
461,0.0,0.0,0.0,0.36715234375,0.0,0.0,0.0,0.0,0.0,0.0,0.07,0.0,0.0,0.0,0.0,0.0,0.0,0.3753500294773804,0.0,0.0,0.0,0.0,0.0,0.0,-12.14,0.0,0.0,0.0
462,0.0,0.0,0.0,0.36773046875,0.0,0.0,0.0,0.0,0.0,0.0,0.068,0.0,0.0,0.0,0.0,0.0,0.0,0.37582620015581547,0.0,0.0,0.0,0.0,0.0,0.0,-12.14,0.0,0.0,0.0
463,0.0,0.0,0.0,0.36773046875,0.0,0.0,0.0,0.0,0.0,0.0,0.068,0.0,0.0,0.0,0.0,0.0,0.0,0.37622774483421106,0.0,0.0,0.0,0.0,0.0,0.0,-12.14,0.0,0.0,0.0
464,0.0,0.0,0.0,0.3684521484375,0.0,0.0,0.0,0.0,0.0,0.0,0.06,0.0,0.0,0.0,0.0,0.0,0.0,0.3766784481662989,0.0,0.0,0.0,0.0,0.0,0.0,-12.028,0.0,0.0,0.0
465,0.0,0.0,0.0,0.3684521484375,0.0,0.0,0.0,0.0,0.0,0.0,0.06,0.0,0.0,0.0,0.0,0.0,0.0,0.3770923752227375,0.0,0.0,0.0,0.0,0.0,0.0,-12.028,0.0,0.0,0.0
466,0.0,0.0,0.0,0.369318359375,0.0,0.0,0.0,0.0,0.0,0.0,0.078,0.0,0.0,0.0,0.0,0.0,0.0,0.3775583432658087,0.0,0.0,0.0,0.0,0.0,0.0,-12.072,0.0,0.0,0.0
467,0.0,0.0,0.0,0.3698955078125,0.0,0.0,0.0,0.0,0.0,0.0,0.075,0.0,0.0,0.0,0.0,0.0,0.0,0.37804979830677377,0.0,0.0,0.0,0.0,0.0,0.0,-12.14,0.0,0.0,0.0
468,0.0,0.0,0.0,0.3698955078125,0.0,0.0,0.0,0.0,0.0,0.0,0.075,0.0,0.0,0.0,0.0,0.0,0.0,0.37841747393423214,0.0,0.0,0.0,0.0,0.0,0.0,-12.14,0.0,0.0,0.0
469,0.0,0.0,0.0,0.3709248046875,0.0,0.0,0.0,0.0,0.0,0.0,0.077,0.0,0.0,0.0,0.0,0.0,0.0,0.37869200853773266,0.0,0.0,0.0,0.0,0.0,0.0,-12.028,0.0,0.0,0.0
470,0.0,0.0,0.0,0.3709248046875,0.0,0.0,0.0,0.0,0.0,0.0,0.077,0.0,0.0,0.0,0.0,0.0,0.0,0.3789307551816983,0.0,0.0,0.0,0.0,0.0,0.0,-12.028,0.0,0.0,0.0
471,0.0,0.0,0.0,0.3709248046875,0.0,0.0,0.0,0.0,0.0,0.0,0.077,0.0,0.0,0.0,0.0,0.0,0.0,0.3791536291586907,0.0,0.0,0.0,0.0,0.0,0.0,-12.028,0.0,0.0,0.0
472,0.0,0.0,0.0,0.371646484375,0.0,0.0,0.0,0.0,0.0,0.0,0.088,0.0,0.0,0.0,0.0,0.0,0.0,0.37954562224081284,0.0,0.0,0.0,0.0,0.0,0.0,-12.372,0.0,0.0,0.0
473,0.0,0.0,0.0,0.371646484375,0.0,0.0,0.0,0.0,0.0,0.0,0.088,0.0,0.0,0.0,0.0,0.0,0.0,0.3797904180631486,0.0,0.0,0.0,0.0,0.0,0.0,-12.372,0.0,0.0,0.0
474,0.0,0.0,0.0,0.3725126953125,0.0,0.0,0.0,0.0,0.0,0.0,0.079,0.0,0.0,0.0,0.0,0.0,0.0,0.38009907464485726,0.0,0.0,0.0,0.0,0.0,0.0,-12.28,0.0,0.0,0.0
475,0.0,0.0,0.0,0.3725126953125,0.0,0.0,0.0,0.0,0.0,0.0,0.079,0.0,0.0,0.0,0.0,0.0,0.0,0.3804570982427349,0.0,0.0,0.0,0.0,0.0,0.0,-12.28,0.0,0.0,0.0
476,0.0,0.0,0.0,0.3733876953125,0.0,0.0,0.0,0.0,0.0,0.0,0.084,0.0,0.0,0.0,0.0,0.0,0.0,0.38085074434386645,0.0,0.0,0.0,0.0,0.0,0.0,-12.484,0.0,0.0,0.0
477,0.0,0.0,0.0,0.3733876953125,0.0,0.0,0.0,0.0,0.0,0.0,0.084,0.0,0.0,0.0,0.0,0.0,0.0,0.38115242525055343,0.0,0.0,0.0,0.0,0.0,0.0,-12.484,0.0,0.0,0.0
478,0.0,0.0,0.0,0.3739658203125,0.0,0.0,0.0,0.0,0.0,0.0,0.077,0.0,0.0,0.0,0.0,0.0,0.0,0.3815567929656478,0.0,0.0,0.0,0.0,0.0,0.0,-12.624,0.0,0.0,0.0
479,0.0,0.0,0.0,0.3739658203125,0.0,0.0,0.0,0.0,0.0,0.0,0.077,0.0,0.0,0.0,0.0,0.0,0.0,0.38192621514756186,0.0,0.0,0.0,0.0,0.0,0.0,-12.624,0.0,0.0,0.0
480,0.0,0.0,0.0,0.37483203125,0.0,0.0,0.0,0.0,0.0,0.0,0.071,0.0,0.0,0.0,0.0,0.0,0.0,0.3823480513475397,0.0,0.0,0.0,0.0,0.0,0.0,-12.508,0.0,0.0,0.0
481,0.0,0.0,0.0,0.3756982421875,0.0,0.0,0.0,0.0,0.0,0.0,0.086,0.0,0.0,0.0,0.0,0.0,0.0,0.3827467877907807,0.0,0.0,0.0,0.0,0.0,0.0,-12.552,0.0,0.0,0.0
482,0.0,0.0,0.0,0.3756982421875,0.0,0.0,0.0,0.0,0.0,0.0,0.086,0.0,0.0,0.0,0.0,0.0,0.0,0.38309681992451283,0.0,0.0,0.0,0.0,0.0,0.0,-12.552,0.0,0.0,0.0
483,0.0,0.0,0.0,0.376419921875,0.0,0.0,0.0,0.0,0.0,0.0,0.079,0.0,0.0,0.0,0.0,0.0,0.0,0.3834924202088589,0.0,0.0,0.0,0.0,0.0,0.0,-12.828,0.0,0.0,0.0
484,0.0,0.0,0.0,0.376419921875,0.0,0.0,0.0,0.0,0.0,0.0,0.079,0.0,0.0,0.0,0.0,0.0,0.0,0.3838554731785479,0.0,0.0,0.0,0.0,0.0,0.0,-12.828,0.0,0.0,0.0
485,0.0,0.0,0.0,0.377150390625,0.0,0.0,0.0,0.0,0.0,0.0,0.067,0.0,0.0,0.0,0.0,0.0,0.0,0.38419990872862897,0.0,0.0,0.0,0.0,0.0,0.0,-12.692,0.0,0.0,0.0
486,0.0,0.0,0.0,0.377150390625,0.0,0.0,0.0,0.0,0.0,0.0,0.067,0.0,0.0,0.0,0.0,0.0,0.0,0.38441066317476147,0.0,0.0,0.0,0.0,0.0,0.0,-12.692,0.0,0.0,0.0
487,0.0,0.0,0.0,0.377873046875,0.0,0.0,0.0,0.0,0.0,0.0,0.08,0.0,0.0,0.0,0.0,0.0,0.0,0.38465355551615343,0.0,0.0,0.0,0.0,0.0,0.0,-12.828,0.0,0.0,0.0
488,0.0,0.0,0.0,0.377873046875,0.0,0.0,0.0,0.0,0.0,0.0,0.08,0.0,0.0,0.0,0.0,0.0,0.0,0.38488525328775836,0.0,0.0,0.0,0.0,0.0,0.0,-12.828,0.0,0.0,0.0
489,0.0,0.0,0.0,0.3785947265625,0.0,0.0,0.0,0.0,0.0,0.0,0.077,0.0,0.0,0.0,0.0,0.0,0.0,0.38519752712842736,0.0,0.0,0.0,0.0,0.0,0.0,-12.964,0.0,0.0,0.0
490,0.0,0.0,0.0,0.3785947265625,0.0,0.0,0.0,0.0,0.0,0.0,0.077,0.0,0.0,0.0,0.0,0.0,0.0,0.38542618970305986,0.0,0.0,0.0,0.0,0.0,0.0,-12.964,0.0,0.0,0.0
491,0.0,0.0,0.0,0.379171875,0.0,0.0,0.0,0.0,0.0,0.0,0.063,0.0,0.0,0.0,0.0,0.0,0.0,0.385747315475308,0.0,0.0,0.0,0.0,0.0,0.0,-13.056,0.0,0.0,0.0
492,0.0,0.0,0.0,0.379171875,0.0,0.0,0.0,0.0,0.0,0.0,0.063,0.0,0.0,0.0,0.0,0.0,0.0,0.38607429692598383,0.0,0.0,0.0,0.0,0.0,0.0,-13.056,0.0,0.0,0.0
493,0.0,0.0,0.0,0.3797587890625,0.0,0.0,0.0,0.0,0.0,0.0,0.061,0.0,0.0,0.0,0.0,0.0,0.0,0.3863138827784893,0.0,0.0,0.0,0.0,0.0,0.0,-12.92,0.0,0.0,0.0
494,0.0,0.0,0.0,0.3797587890625,0.0,0.0,0.0,0.0,0.0,0.0,0.061,0.0,0.0,0.0,0.0,0.0,0.0,0.3865273420452927,0.0,0.0,0.0,0.0,0.0,0.0,-12.92,0.0,0.0,0.0
495,0.0,0.0,0.0,0.3797587890625,0.0,0.0,0.0,0.0,0.0,0.0,0.061,0.0,0.0,0.0,0.0,0.0,0.0,0.3867754809196342,0.0,0.0,0.0,0.0,0.0,0.0,-12.92,0.0,0.0,0.0
496,0.0,0.0,0.0,0.38048046875,0.0,0.0,0.0,0.0,0.0,0.0,0.06,0.0,0.0,0.0,0.0,0.0,0.0,0.38702057469050255,0.0,0.0,0.0,0.0,0.0,0.0,-13.012,0.0,0.0,0.0
497,0.0,0.0,0.0,0.38048046875,0.0,0.0,0.0,0.0,0.0,0.0,0.06,0.0,0.0,0.0,0.0,0.0,0.0,0.38725059522989097,0.0,0.0,0.0,0.0,0.0,0.0,-13.012,0.0,0.0,0.0
498,0.0,0.0,0.0,0.3809130859375,0.0,0.0,0.0,0.0,0.0,0.0,0.057,0.0,0.0,0.0,0.0,0.0,0.0,0.38750903716656454,0.0,0.0,0.0,0.0,0.0,0.0,-13.124,0.0,0.0,0.0
499,0.0,0.0,0.0,0.3809130859375,0.0,0.0,0.0,0.0,0.0,0.0,0.057,0.0,0.0,0.0,0.0,0.0,0.0,0.3877721661436917,0.0,0.0,0.0,0.0,0.0,0.0,-13.124,0.0,0.0,0.0
500,0.0,0.0,0.0,0.3814912109375,0.0,0.0,0.0,0.0,0.0,0.0,0.048,0.0,0.0,0.0,0.0,0.0,0.0,0.3880718399329578,0.0,0.0,0.0,0.0,0.0,0.0,-12.804,0.0,0.0,0.0
501,0.0,0.0,0.0,0.3814912109375,0.0,0.0,0.0,0.0,0.0,0.0,0.048,0.0,0.0,0.0,0.0,0.0,0.0,0.38827444156281243,0.0,0.0,0.0,0.0,0.0,0.0,-12.804,0.0,0.0,0.0
502,0.0,0.0,0.0,0.382068359375,0.0,0.0,0.0,0.0,0.0,0.0,0.054,0.0,0.0,0.0,0.0,0.0,0.0,0.3885368336189785,0.0,0.0,0.0,0.0,0.0,0.0,-12.872,0.0,0.0,0.0
503,0.0,0.0,0.0,0.382068359375,0.0,0.0,0.0,0.0,0.0,0.0,0.054,0.0,0.0,0.0,0.0,0.0,0.0,0.3888657804259212,0.0,0.0,0.0,0.0,0.0,0.0,-12.872,0.0,0.0,0.0
504,0.0,0.0,0.0,0.382501953125,0.0,0.0,0.0,0.0,0.0,0.0,0.056,0.0,0.0,0.0,0.0,0.0,0.0,0.38919580631719164,0.0,0.0,0.0,0.0,0.0,0.0,-12.784,0.0,0.0,0.0
505,0.0,0.0,0.0,0.383087890625,0.0,0.0,0.0,0.0,0.0,0.0,0.055,0.0,0.0,0.0,0.0,0.0,0.0,0.3894861023731601,0.0,0.0,0.0,0.0,0.0,0.0,-12.804,0.0,0.0,0.0
506,0.0,0.0,0.0,0.383087890625,0.0,0.0,0.0,0.0,0.0,0.0,0.055,0.0,0.0,0.0,0.0,0.0,0.0,0.3897833987780668,0.0,0.0,0.0,0.0,0.0,0.0,-12.804,0.0,0.0,0.0
507,0.0,0.0,0.0,0.383666015625,0.0,0.0,0.0,0.0,0.0,0.0,0.053,0.0,0.0,0.0,0.0,0.0,0.0,0.39007455860336476,0.0,0.0,0.0,0.0,0.0,0.0,-12.712,0.0,0.0,0.0
508,0.0,0.0,0.0,0.383666015625,0.0,0.0,0.0,0.0,0.0,0.0,0.053,0.0,0.0,0.0,0.0,0.0,0.0,0.39036241459386023,0.0,0.0,0.0,0.0,0.0,0.0,-12.712,0.0,0.0,0.0
509,0.0,0.0,0.0,0.3840986328125,0.0,0.0,0.0,0.0,0.0,0.0,0.051,0.0,0.0,0.0,0.0,0.0,0.0,0.3906530330374084,0.0,0.0,0.0,0.0,0.0,0.0,-12.6,0.0,0.0,0.0
510,0.0,0.0,0.0,0.3845322265625,0.0,0.0,0.0,0.0,0.0,0.0,0.05,0.0,0.0,0.0,0.0,0.0,0.0,0.39094240921458934,0.0,0.0,0.0,0.0,0.0,0.0,-12.508,0.0,0.0,0.0
511,0.0,0.0,0.0,0.3845322265625,0.0,0.0,0.0,0.0,0.0,0.0,0.05,0.0,0.0,0.0,0.0,0.0,0.0,0.3912142089928556,0.0,0.0,0.0,0.0,0.0,0.0,-12.508,0.0,0.0,0.0
512,0.0,0.0,0.0,0.385109375,0.0,0.0,0.0,0.0,0.0,0.0,0.045,0.0,0.0,0.0,0.0,0.0,0.0,0.39150308800605005,0.0,0.0,0.0,0.0,0.0,0.0,-12.508,0.0,0.0,0.0
513,0.0,0.0,0.0,0.385109375,0.0,0.0,0.0,0.0,0.0,0.0,0.045,0.0,0.0,0.0,0.0,0.0,0.0,0.3917546731916427,0.0,0.0,0.0,0.0,0.0,0.0,-12.508,0.0,0.0,0.0
514,0.0,0.0,0.0,0.38554296875,0.0,0.0,0.0,0.0,0.0,0.0,0.047,0.0,0.0,0.0,0.0,0.0,0.0,0.3920218071000242,0.0,0.0,0.0,0.0,0.0,0.0,-12.44,0.0,0.0,0.0
515,0.0,0.0,0.0,0.3859755859375,0.0,0.0,0.0,0.0,0.0,0.0,0.042,0.0,0.0,0.0,0.0,0.0,0.0,0.39229886447309825,0.0,0.0,0.0,0.0,0.0,0.0,-12.304,0.0,0.0,0.0
516,0.0,0.0,0.0,0.3859755859375,0.0,0.0,0.0,0.0,0.0,0.0,0.042,0.0,0.0,0.0,0.0,0.0,0.0,0.39256116919342066,0.0,0.0,0.0,0.0,0.0,0.0,-12.304,0.0,0.0,0.0
517,0.0,0.0,0.0,0.3862734375,0.0,0.0,0.0,0.0,0.0,0.0,0.043,0.0,0.0,0.0,0.0,0.0,0.0,0.3928073728116934,0.0,0.0,0.0,0.0,0.0,0.0,-12.392,0.0,0.0,0.0
518,0.0,0.0,0.0,0.3862734375,0.0,0.0,0.0,0.0,0.0,0.0,0.043,0.0,0.0,0.0,0.0,0.0,0.0,0.3930496347083725,0.0,0.0,0.0,0.0,0.0,0.0,-12.392,0.0,0.0,0.0
519,0.0,0.0,0.0,0.3867060546875,0.0,0.0,0.0,0.0,0.0,0.0,0.039,0.0,0.0,0.0,0.0,0.0,0.0,0.3932941237623741,0.0,0.0,0.0,0.0,0.0,0.0,-12.304,0.0,0.0,0.0
520,0.0,0.0,0.0,0.3871396484375,0.0,0.0,0.0,0.0,0.0,0.0,0.046,0.0,0.0,0.0,0.0,0.0,0.0,0.3935428103971856,0.0,0.0,0.0,0.0,0.0,0.0,-12.392,0.0,0.0,0.0
521,0.0,0.0,0.0,0.3871396484375,0.0,0.0,0.0,0.0,0.0,0.0,0.046,0.0,0.0,0.0,0.0,0.0,0.0,0.3937850234622795,0.0,0.0,0.0,0.0,0.0,0.0,-12.392,0.0,0.0,0.0
522,0.0,0.0,0.0,0.3875732421875,0.0,0.0,0.0,0.0,0.0,0.0,0.042,0.0,0.0,0.0,0.0,0.0,0.0,0.3940240784899798,0.0,0.0,0.0,0.0,0.0,0.0,-12.416,0.0,0.0,0.0
523,0.0,0.0,0.0,0.388150390625,0.0,0.0,0.0,0.0,0.0,0.0,0.046,0.0,0.0,0.0,0.0,0.0,0.0,0.3942480200290295,0.0,0.0,0.0,0.0,0.0,0.0,-12.576,0.0,0.0,0.0
524,0.0,0.0,0.0,0.388150390625,0.0,0.0,0.0,0.0,0.0,0.0,0.046,0.0,0.0,0.0,0.0,0.0,0.0,0.3944605073849981,0.0,0.0,0.0,0.0,0.0,0.0,-12.576,0.0,0.0,0.0
525,0.0,0.0,0.0,0.3885830078125,0.0,0.0,0.0,0.0,0.0,0.0,0.052,0.0,0.0,0.0,0.0,0.0,0.0,0.394669557451252,0.0,0.0,0.0,0.0,0.0,0.0,-12.532,0.0,0.0,0.0
526,0.0,0.0,0.0,0.3885830078125,0.0,0.0,0.0,0.0,0.0,0.0,0.052,0.0,0.0,0.0,0.0,0.0,0.0,0.39488134045877527,0.0,0.0,0.0,0.0,0.0,0.0,-12.532,0.0,0.0,0.0
527,0.0,0.0,0.0,0.3891611328125,0.0,0.0,0.0,0.0,0.0,0.0,0.052,0.0,0.0,0.0,0.0,0.0,0.0,0.3950848990564031,0.0,0.0,0.0,0.0,0.0,0.0,-12.532,0.0,0.0,0.0
528,0.0,0.0,0.0,0.3896123046875,0.0,0.0,0.0,0.0,0.0,0.0,0.048,0.0,0.0,0.0,0.0,0.0,0.0,0.39529783075360103,0.0,0.0,0.0,0.0,0.0,0.0,-12.6,0.0,0.0,0.0
529,0.0,0.0,0.0,0.3896123046875,0.0,0.0,0.0,0.0,0.0,0.0,0.048,0.0,0.0,0.0,0.0,0.0,0.0,0.3954287527662954,0.0,0.0,0.0,0.0,0.0,0.0,-12.6,0.0,0.0,0.0
530,0.0,0.0,0.0,0.3896123046875,0.0,0.0,0.0,0.0,0.0,0.0,0.048,0.0,0.0,0.0,0.0,0.0,0.0,0.39557999773639546,0.0,0.0,0.0,0.0,0.0,0.0,-12.6,0.0,0.0,0.0
531,0.0,0.0,0.0,0.389900390625,0.0,0.0,0.0,0.0,0.0,0.0,0.036,0.0,0.0,0.0,0.0,0.0,0.0,0.39576054829444623,0.0,0.0,0.0,0.0,0.0,0.0,-12.692,0.0,0.0,0.0
532,0.0,0.0,0.0,0.389900390625,0.0,0.0,0.0,0.0,0.0,0.0,0.036,0.0,0.0,0.0,0.0,0.0,0.0,0.39587589599457434,0.0,0.0,0.0,0.0,0.0,0.0,-12.692,0.0,0.0,0.0
533,0.0,0.0,0.0,0.390189453125,0.0,0.0,0.0,0.0,0.0,0.0,0.03,0.0,0.0,0.0,0.0,0.0,0.0,0.3960022494745226,0.0,0.0,0.0,0.0,0.0,0.0,-12.668,0.0,0.0,0.0
534,0.0,0.0,0.0,0.390189453125,0.0,0.0,0.0,0.0,0.0,0.0,0.03,0.0,0.0,0.0,0.0,0.0,0.0,0.3961129787244865,0.0,0.0,0.0,0.0,0.0,0.0,-12.668,0.0,0.0,0.0
535,0.0,0.0,0.0,0.390189453125,0.0,0.0,0.0,0.0,0.0,0.0,0.03,0.0,0.0,0.0,0.0,0.0,0.0,0.39622814769340176,0.0,0.0,0.0,0.0,0.0,0.0,-12.668,0.0,0.0,0.0
536,0.0,0.0,0.0,0.390478515625,0.0,0.0,0.0,0.0,0.0,0.0,0.028,0.0,0.0,0.0,0.0,0.0,0.0,0.39634540438181753,0.0,0.0,0.0,0.0,0.0,0.0,-12.532,0.0,0.0,0.0
537,0.0,0.0,0.0,0.390478515625,0.0,0.0,0.0,0.0,0.0,0.0,0.028,0.0,0.0,0.0,0.0,0.0,0.0,0.39648424909430185,0.0,0.0,0.0,0.0,0.0,0.0,-12.532,0.0,0.0,0.0
538,0.0,0.0,0.0,0.3907666015625,0.0,0.0,0.0,0.0,0.0,0.0,0.03,0.0,0.0,0.0,0.0,0.0,0.0,0.3966627226400643,0.0,0.0,0.0,0.0,0.0,0.0,-12.532,0.0,0.0,0.0
539,0.0,0.0,0.0,0.3907666015625,0.0,0.0,0.0,0.0,0.0,0.0,0.03,0.0,0.0,0.0,0.0,0.0,0.0,0.39678151810050843,0.0,0.0,0.0,0.0,0.0,0.0,-12.532,0.0,0.0,0.0
540,0.0,0.0,0.0,0.3910556640625,0.0,0.0,0.0,0.0,0.0,0.0,0.031,0.0,0.0,0.0,0.0,0.0,0.0,0.39689074597179796,0.0,0.0,0.0,0.0,0.0,0.0,-12.576,0.0,0.0,0.0
541,0.0,0.0,0.0,0.3910556640625,0.0,0.0,0.0,0.0,0.0,0.0,0.031,0.0,0.0,0.0,0.0,0.0,0.0,0.3969742843410517,0.0,0.0,0.0,0.0,0.0,0.0,-12.576,0.0,0.0,0.0
542,0.0,0.0,0.0,0.3913447265625,0.0,0.0,0.0,0.0,0.0,0.0,0.029,0.0,0.0,0.0,0.0,0.0,0.0,0.39709016257883323,0.0,0.0,0.0,0.0,0.0,0.0,-12.552,0.0,0.0,0.0
543,0.0,0.0,0.0,0.3913447265625,0.0,0.0,0.0,0.0,0.0,0.0,0.029,0.0,0.0,0.0,0.0,0.0,0.0,0.39718822844815826,0.0,0.0,0.0,0.0,0.0,0.0,-12.552,0.0,0.0,0.0
544,0.0,0.0,0.0,0.3913447265625,0.0,0.0,0.0,0.0,0.0,0.0,0.029,0.0,0.0,0.0,0.0,0.0,0.0,0.3973066527190585,0.0,0.0,0.0,0.0,0.0,0.0,-12.552,0.0,0.0,0.0
545,0.0,0.0,0.0,0.3916337890625,0.0,0.0,0.0,0.0,0.0,0.0,0.024,0.0,0.0,0.0,0.0,0.0,0.0,0.3974251366070755,0.0,0.0,0.0,0.0,0.0,0.0,-12.508,0.0,0.0,0.0
546,0.0,0.0,0.0,0.3916337890625,0.0,0.0,0.0,0.0,0.0,0.0,0.024,0.0,0.0,0.0,0.0,0.0,0.0,0.3975333570473433,0.0,0.0,0.0,0.0,0.0,0.0,-12.508,0.0,0.0,0.0
547,0.0,0.0,0.0,0.39177734375,0.0,0.0,0.0,0.0,0.0,0.0,0.023,0.0,0.0,0.0,0.0,0.0,0.0,0.3976500390496684,0.0,0.0,0.0,0.0,0.0,0.0,-12.324,0.0,0.0,0.0
548,0.0,0.0,0.0,0.39177734375,0.0,0.0,0.0,0.0,0.0,0.0,0.023,0.0,0.0,0.0,0.0,0.0,0.0,0.39774052521312486,0.0,0.0,0.0,0.0,0.0,0.0,-12.324,0.0,0.0,0.0
549,0.0,0.0,0.0,0.39206640625,0.0,0.0,0.0,0.0,0.0,0.0,0.027,0.0,0.0,0.0,0.0,0.0,0.0,0.39784214493455206,0.0,0.0,0.0,0.0,0.0,0.0,-12.256,0.0,0.0,0.0
550,0.0,0.0,0.0,0.39206640625,0.0,0.0,0.0,0.0,0.0,0.0,0.027,0.0,0.0,0.0,0.0,0.0,0.0,0.39797971108836905,0.0,0.0,0.0,0.0,0.0,0.0,-12.256,0.0,0.0,0.0
551,0.0,0.0,0.0,0.3923642578125,0.0,0.0,0.0,0.0,0.0,0.0,0.027,0.0,0.0,0.0,0.0,0.0,0.0,0.39812696377928875,0.0,0.0,0.0,0.0,0.0,0.0,-12.28,0.0,0.0,0.0
552,0.0,0.0,0.0,0.3923642578125,0.0,0.0,0.0,0.0,0.0,0.0,0.027,0.0,0.0,0.0,0.0,0.0,0.0,0.3982414639563008,0.0,0.0,0.0,0.0,0.0,0.0,-12.28,0.0,0.0,0.0
553,0.0,0.0,0.0,0.3926533203125,0.0,0.0,0.0,0.0,0.0,0.0,0.024,0.0,0.0,0.0,0.0,0.0,0.0,0.3983676724907919,0.0,0.0,0.0,0.0,0.0,0.0,-12.28,0.0,0.0,0.0
554,0.0,0.0,0.0,0.392796875,0.0,0.0,0.0,0.0,0.0,0.0,0.023,0.0,0.0,0.0,0.0,0.0,0.0,0.3984730112213446,0.0,0.0,0.0,0.0,0.0,0.0,-12.304,0.0,0.0,0.0
555,0.0,0.0,0.0,0.392796875,0.0,0.0,0.0,0.0,0.0,0.0,0.023,0.0,0.0,0.0,0.0,0.0,0.0,0.3985572471715526,0.0,0.0,0.0,0.0,0.0,0.0,-12.304,0.0,0.0,0.0
556,0.0,0.0,0.0,0.39294140625,0.0,0.0,0.0,0.0,0.0,0.0,0.019,0.0,0.0,0.0,0.0,0.0,0.0,0.39867589835424816,0.0,0.0,0.0,0.0,0.0,0.0,-12.072,0.0,0.0,0.0
557,0.0,0.0,0.0,0.39294140625,0.0,0.0,0.0,0.0,0.0,0.0,0.019,0.0,0.0,0.0,0.0,0.0,0.0,0.39874905640789926,0.0,0.0,0.0,0.0,0.0,0.0,-12.072,0.0,0.0,0.0
558,0.0,0.0,0.0,0.3930859375,0.0,0.0,0.0,0.0,0.0,0.0,0.016,0.0,0.0,0.0,0.0,0.0,0.0,0.39881684769781933,0.0,0.0,0.0,0.0,0.0,0.0,-12.188,0.0,0.0,0.0
559,0.0,0.0,0.0,0.3930859375,0.0,0.0,0.0,0.0,0.0,0.0,0.016,0.0,0.0,0.0,0.0,0.0,0.0,0.39888162780653813,0.0,0.0,0.0,0.0,0.0,0.0,-12.188,0.0,0.0,0.0
560,0.0,0.0,0.0,0.3930859375,0.0,0.0,0.0,0.0,0.0,0.0,0.016,0.0,0.0,0.0,0.0,0.0,0.0,0.39894867739282636,0.0,0.0,0.0,0.0,0.0,0.0,-12.188,0.0,0.0,0.0
561,0.0,0.0,0.0,0.39323046875,0.0,0.0,0.0,0.0,0.0,0.0,0.016,0.0,0.0,0.0,0.0,0.0,0.0,0.39900983019107084,0.0,0.0,0.0,0.0,0.0,0.0,-12.096,0.0,0.0,0.0
562,0.0,0.0,0.0,0.39323046875,0.0,0.0,0.0,0.0,0.0,0.0,0.016,0.0,0.0,0.0,0.0,0.0,0.0,0.3990702722160731,0.0,0.0,0.0,0.0,0.0,0.0,-12.096,0.0,0.0,0.0
563,0.0,0.0,0.0,0.39351953125,0.0,0.0,0.0,0.0,0.0,0.0,0.02,0.0,0.0,0.0,0.0,0.0,0.0,0.39915068148926225,0.0,0.0,0.0,0.0,0.0,0.0,-12.12,0.0,0.0,0.0
564,0.0,0.0,0.0,0.39351953125,0.0,0.0,0.0,0.0,0.0,0.0,0.02,0.0,0.0,0.0,0.0,0.0,0.0,0.3992246870258933,0.0,0.0,0.0,0.0,0.0,0.0,-12.12,0.0,0.0,0.0
565,0.0,0.0,0.0,0.3936630859375,0.0,0.0,0.0,0.0,0.0,0.0,0.013,0.0,0.0,0.0,0.0,0.0,0.0,0.3992886107267946,0.0,0.0,0.0,0.0,0.0,0.0,-12.212,0.0,0.0,0.0
566,0.0,0.0,0.0,0.3936630859375,0.0,0.0,0.0,0.0,0.0,0.0,0.013,0.0,0.0,0.0,0.0,0.0,0.0,0.39936886219071743,0.0,0.0,0.0,0.0,0.0,0.0,-12.212,0.0,0.0,0.0
567,0.0,0.0,0.0,0.3936630859375,0.0,0.0,0.0,0.0,0.0,0.0,0.01,0.0,0.0,0.0,0.0,0.0,0.0,0.3994404635818751,0.0,0.0,0.0,0.0,0.0,0.0,-12.256,0.0,0.0,0.0
568,0.0,0.0,0.0,0.3939521484375,0.0,0.0,0.0,0.0,0.0,0.0,0.012,0.0,0.0,0.0,0.0,0.0,0.0,0.39951244969755606,0.0,0.0,0.0,0.0,0.0,0.0,-12.256,0.0,0.0,0.0
569,0.0,0.0,0.0,0.3939521484375,0.0,0.0,0.0,0.0,0.0,0.0,0.012,0.0,0.0,0.0,0.0,0.0,0.0,0.3995794957362348,0.0,0.0,0.0,0.0,0.0,0.0,-12.256,0.0,0.0,0.0
570,0.0,0.0,0.0,0.3942412109375,0.0,0.0,0.0,0.0,0.0,0.0,0.02,0.0,0.0,0.0,0.0,0.0,0.0,0.399643664590983,0.0,0.0,0.0,0.0,0.0,0.0,-12.052,0.0,0.0,0.0
571,0.0,0.0,0.0,0.3943857421875,0.0,0.0,0.0,0.0,0.0,0.0,0.03,0.0,0.0,0.0,0.0,0.0,0.0,0.39970197099424953,0.0,0.0,0.0,0.0,0.0,0.0,-12.28,0.0,0.0,0.0
572,0.0,0.0,0.0,0.3943857421875,0.0,0.0,0.0,0.0,0.0,0.0,0.03,0.0,0.0,0.0,0.0,0.0,0.0,0.3997499360572193,0.0,0.0,0.0,0.0,0.0,0.0,-12.28,0.0,0.0,0.0
573,0.0,0.0,0.0,0.3945302734375,0.0,0.0,0.0,0.0,0.0,0.0,0.019,0.0,0.0,0.0,0.0,0.0,0.0,0.39979532898555004,0.0,0.0,0.0,0.0,0.0,0.0,-12.484,0.0,0.0,0.0
574,0.0,0.0,0.0,0.3945302734375,0.0,0.0,0.0,0.0,0.0,0.0,0.019,0.0,0.0,0.0,0.0,0.0,0.0,0.39982298518791537,0.0,0.0,0.0,0.0,0.0,0.0,-12.484,0.0,0.0,0.0
575,0.0,0.0,0.0,0.394818359375,0.0,0.0,0.0,0.0,0.0,0.0,0.016,0.0,0.0,0.0,0.0,0.0,0.0,0.3998510617506652,0.0,0.0,0.0,0.0,0.0,0.0,-12.712,0.0,0.0,0.0
576,0.0,0.0,0.0,0.394818359375,0.0,0.0,0.0,0.0,0.0,0.0,0.016,0.0,0.0,0.0,0.0,0.0,0.0,0.3998723014348073,0.0,0.0,0.0,0.0,0.0,0.0,-12.712,0.0,0.0,0.0
577,0.0,0.0,0.0,0.394818359375,0.0,0.0,0.0,0.0,0.0,0.0,0.016,0.0,0.0,0.0,0.0,0.0,0.0,0.39989116530521257,0.0,0.0,0.0,0.0,0.0,0.0,-12.712,0.0,0.0,0.0
578,0.0,0.0,0.0,0.394818359375,0.0,0.0,0.0,0.0,0.0,0.0,0.015,0.0,0.0,0.0,0.0,0.0,0.0,0.3999094976143773,0.0,0.0,0.0,0.0,0.0,0.0,-12.532,0.0,0.0,0.0
579,0.0,0.0,0.0,0.394818359375,0.0,0.0,0.0,0.0,0.0,0.0,0.015,0.0,0.0,0.0,0.0,0.0,0.0,0.39992437308214956,0.0,0.0,0.0,0.0,0.0,0.0,-12.532,0.0,0.0,0.0
580,0.0,0.0,0.0,0.394818359375,0.0,0.0,0.0,0.0,0.0,0.0,0.015,0.0,0.0,0.0,0.0,0.0,0.0,0.3999409875664097,0.0,0.0,0.0,0.0,0.0,0.0,-12.532,0.0,0.0,0.0
581,0.0,0.0,0.0,0.394818359375,0.0,0.0,0.0,0.0,0.0,0.0,-0.001,0.0,0.0,0.0,0.0,0.0,0.0,0.3999586284456975,0.0,0.0,0.0,0.0,0.0,0.0,-12.484,0.0,0.0,0.0
582,0.0,0.0,0.0,0.394818359375,0.0,0.0,0.0,0.0,0.0,0.0,-0.001,0.0,0.0,0.0,0.0,0.0,0.0,0.39997142022348453,0.0,0.0,0.0,0.0,0.0,0.0,-12.484,0.0,0.0,0.0
583,0.0,0.0,0.0,0.394818359375,0.0,0.0,0.0,0.0,0.0,0.0,-0.001,0.0,0.0,0.0,0.0,0.0,0.0,0.39998026653994184,0.0,0.0,0.0,0.0,0.0,0.0,-12.416,0.0,0.0,0.0
584,0.0,0.0,0.0,0.394818359375,0.0,0.0,0.0,0.0,0.0,0.0,-0.001,0.0,0.0,0.0,0.0,0.0,0.0,0.39999074755343816,0.0,0.0,0.0,0.0,0.0,0.0,-12.416,0.0,0.0,0.0
585,0.0,0.0,0.0,0.394962890625,0.0,0.0,0.0,0.0,0.0,0.0,0.004,0.0,0.0,0.0,0.0,0.0,0.0,0.39999774548410655,0.0,0.0,0.0,0.0,0.0,0.0,-12.464,0.0,0.0,0.0
586,0.0,0.0,0.0,0.395251953125,0.0,0.0,0.0,0.0,0.0,0.0,0.021,0.0,0.0,0.0,0.0,0.0,0.0,0.39999999640583406,0.0,0.0,0.0,0.0,0.0,0.0,-12.44,0.0,0.0,0.0
587,0.0,0.0,0.0,0.395251953125,0.0,0.0,0.0,0.0,0.0,0.0,0.021,0.0,0.0,0.0,0.0,0.0,0.0,0.39999837317612613,0.0,0.0,0.0,0.0,0.0,0.0,-12.44,0.0,0.0,0.0
588,0.0,0.0,0.0,0.395396484375,0.0,0.0,0.0,0.0,0.0,0.0,0.021,0.0,0.0,0.0,0.0,0.0,0.0,0.39999259529793335,0.0,0.0,0.0,0.0,0.0,0.0,-12.624,0.0,0.0,0.0
589,0.0,0.0,0.0,0.395396484375,0.0,0.0,0.0,0.0,0.0,0.0,0.021,0.0,0.0,0.0,0.0,0.0,0.0,0.3999838201590604,0.0,0.0,0.0,0.0,0.0,0.0,-12.624,0.0,0.0,0.0
590,0.0,0.0,0.0,0.395396484375,0.0,0.0,0.0,0.0,0.0,0.0,0.01,0.0,0.0,0.0,0.0,0.0,0.0,0.39997163807893826,0.0,0.0,0.0,0.0,0.0,0.0,-12.712,0.0,0.0,0.0
591,0.0,0.0,0.0,0.395396484375,0.0,0.0,0.0,0.0,0.0,0.0,0.01,0.0,0.0,0.0,0.0,0.0,0.0,0.39995508927809587,0.0,0.0,0.0,0.0,0.0,0.0,-12.712,0.0,0.0,0.0
592,0.0,0.0,0.0,0.395396484375,0.0,0.0,0.0,0.0,0.0,0.0,-0.001,0.0,0.0,0.0,0.0,0.0,0.0,0.39994004388975846,0.0,0.0,0.0,0.0,0.0,0.0,-12.712,0.0,0.0,0.0
593,0.0,0.0,0.0,0.395396484375,0.0,0.0,0.0,0.0,0.0,0.0,-0.001,0.0,0.0,0.0,0.0,0.0,0.0,0.3999161045550822,0.0,0.0,0.0,0.0,0.0,0.0,-12.712,0.0,0.0,0.0
594,0.0,0.0,0.0,0.395396484375,0.0,0.0,0.0,0.0,0.0,0.0,-0.001,0.0,0.0,0.0,0.0,0.0,0.0,0.3998919618503391,0.0,0.0,0.0,0.0,0.0,0.0,-12.576,0.0,0.0,0.0
595,0.0,0.0,0.0,0.395396484375,0.0,0.0,0.0,0.0,0.0,0.0,-0.001,0.0,0.0,0.0,0.0,0.0,0.0,0.3998630615708917,0.0,0.0,0.0,0.0,0.0,0.0,-12.576,0.0,0.0,0.0
596,0.0,0.0,0.0,0.395251953125,0.0,0.0,0.0,0.0,0.0,0.0,-0.011,0.0,0.0,0.0,0.0,0.0,0.0,0.39982717835073445,0.0,0.0,0.0,0.0,0.0,0.0,-12.416,0.0,0.0,0.0
597,0.0,0.0,0.0,0.395251953125,0.0,0.0,0.0,0.0,0.0,0.0,-0.004,0.0,0.0,0.0,0.0,0.0,0.0,0.3997839027057308,0.0,0.0,0.0,0.0,0.0,0.0,-12.392,0.0,0.0,0.0
598,0.0,0.0,0.0,0.395251953125,0.0,0.0,0.0,0.0,0.0,0.0,-0.004,0.0,0.0,0.0,0.0,0.0,0.0,0.39973336400432646,0.0,0.0,0.0,0.0,0.0,0.0,-12.392,0.0,0.0,0.0
599,0.0,0.0,0.0,0.395251953125,0.0,0.0,0.0,0.0,0.0,0.0,-0.001,0.0,0.0,0.0,0.0,0.0,0.0,0.399684850397243,0.0,0.0,0.0,0.0,0.0,0.0,-12.44,0.0,0.0,0.0
600,0.0,0.0,0.0,0.395251953125,0.0,0.0,0.0,0.0,0.0,0.0,-0.001,0.0,0.0,0.0,0.0,0.0,0.0,0.3996364841865161,0.0,0.0,0.0,0.0,0.0,0.0,-12.44,0.0,0.0,0.0
601,0.0,0.0,0.0,0.395251953125,0.0,0.0,0.0,0.0,0.0,0.0,-0.001,0.0,0.0,0.0,0.0,0.0,0.0,0.3995760266449382,0.0,0.0,0.0,0.0,0.0,0.0,-12.576,0.0,0.0,0.0
602,0.0,0.0,0.0,0.395251953125,0.0,0.0,0.0,0.0,0.0,0.0,-0.001,0.0,0.0,0.0,0.0,0.0,0.0,0.3995188668707328,0.0,0.0,0.0,0.0,0.0,0.0,-12.532,0.0,0.0,0.0
603,0.0,0.0,0.0,0.395251953125,0.0,0.0,0.0,0.0,0.0,0.0,-0.001,0.0,0.0,0.0,0.0,0.0,0.0,0.3994485194267463,0.0,0.0,0.0,0.0,0.0,0.0,-12.532,0.0,0.0,0.0
604,0.0,0.0,0.0,0.395251953125,0.0,0.0,0.0,0.0,0.0,0.0,-0.001,0.0,0.0,0.0,0.0,0.0,0.0,0.3993763984980279,0.0,0.0,0.0,0.0,0.0,0.0,-12.392,0.0,0.0,0.0
605,0.0,0.0,0.0,0.395251953125,0.0,0.0,0.0,0.0,0.0,0.0,-0.001,0.0,0.0,0.0,0.0,0.0,0.0,0.39930983450934016,0.0,0.0,0.0,0.0,0.0,0.0,-12.392,0.0,0.0,0.0
606,0.0,0.0,0.0,0.395251953125,0.0,0.0,0.0,0.0,0.0,0.0,-0.001,0.0,0.0,0.0,0.0,0.0,0.0,0.39923391896778515,0.0,0.0,0.0,0.0,0.0,0.0,-12.348,0.0,0.0,0.0
607,0.0,0.0,0.0,0.395251953125,0.0,0.0,0.0,0.0,0.0,0.0,-0.001,0.0,0.0,0.0,0.0,0.0,0.0,0.39915571011719947,0.0,0.0,0.0,0.0,0.0,0.0,-12.484,0.0,0.0,0.0
608,0.0,0.0,0.0,0.395251953125,0.0,0.0,0.0,0.0,0.0,0.0,-0.001,0.0,0.0,0.0,0.0,0.0,0.0,0.39907560442666373,0.0,0.0,0.0,0.0,0.0,0.0,-12.484,0.0,0.0,0.0
609,0.0,0.0,0.0,0.395251953125,0.0,0.0,0.0,0.0,0.0,0.0,-0.001,0.0,0.0,0.0,0.0,0.0,0.0,0.3989838384558222,0.0,0.0,0.0,0.0,0.0,0.0,-12.324,0.0,0.0,0.0
610,0.0,0.0,0.0,0.395251953125,0.0,0.0,0.0,0.0,0.0,0.0,-0.001,0.0,0.0,0.0,0.0,0.0,0.0,0.39888760815924523,0.0,0.0,0.0,0.0,0.0,0.0,-12.324,0.0,0.0,0.0
611,0.0,0.0,0.0,0.395107421875,0.0,0.0,0.0,0.0,0.0,0.0,-0.009,0.0,0.0,0.0,0.0,0.0,0.0,0.3987912790602148,0.0,0.0,0.0,0.0,0.0,0.0,-12.212,0.0,0.0,0.0
612,0.0,0.0,0.0,0.395107421875,0.0,0.0,0.0,0.0,0.0,0.0,-0.009,0.0,0.0,0.0,0.0,0.0,0.0,0.39869069126594486,0.0,0.0,0.0,0.0,0.0,0.0,-12.212,0.0,0.0,0.0
613,0.0,0.0,0.0,0.395107421875,0.0,0.0,0.0,0.0,0.0,0.0,-0.008,0.0,0.0,0.0,0.0,0.0,0.0,0.39858548613984107,0.0,0.0,0.0,0.0,0.0,0.0,-12.28,0.0,0.0,0.0
614,0.0,0.0,0.0,0.395251953125,0.0,0.0,0.0,0.0,0.0,0.0,0.01,0.0,0.0,0.0,0.0,0.0,0.0,0.39847704620341895,0.0,0.0,0.0,0.0,0.0,0.0,-12.392,0.0,0.0,0.0
615,0.0,0.0,0.0,0.395251953125,0.0,0.0,0.0,0.0,0.0,0.0,0.01,0.0,0.0,0.0,0.0,0.0,0.0,0.3983651746705473,0.0,0.0,0.0,0.0,0.0,0.0,-12.392,0.0,0.0,0.0
616,0.0,0.0,0.0,0.395251953125,0.0,0.0,0.0,0.0,0.0,0.0,0.004,0.0,0.0,0.0,0.0,0.0,0.0,0.398249088773553,0.0,0.0,0.0,0.0,0.0,0.0,-12.392,0.0,0.0,0.0
617,0.0,0.0,0.0,0.395251953125,0.0,0.0,0.0,0.0,0.0,0.0,0.004,0.0,0.0,0.0,0.0,0.0,0.0,0.398131854693973,0.0,0.0,0.0,0.0,0.0,0.0,-12.392,0.0,0.0,0.0
618,0.0,0.0,0.0,0.395251953125,0.0,0.0,0.0,0.0,0.0,0.0,-0.001,0.0,0.0,0.0,0.0,0.0,0.0,0.3979958857204795,0.0,0.0,0.0,0.0,0.0,0.0,-12.508,0.0,0.0,0.0
619,0.0,0.0,0.0,0.395251953125,0.0,0.0,0.0,0.0,0.0,0.0,-0.001,0.0,0.0,0.0,0.0,0.0,0.0,0.3978565601822771,0.0,0.0,0.0,0.0,0.0,0.0,-12.552,0.0,0.0,0.0
620,0.0,0.0,0.0,0.395251953125,0.0,0.0,0.0,0.0,0.0,0.0,-0.001,0.0,0.0,0.0,0.0,0.0,0.0,0.3977329236457426,0.0,0.0,0.0,0.0,0.0,0.0,-12.552,0.0,0.0,0.0
621,0.0,0.0,0.0,0.395251953125,0.0,0.0,0.0,0.0,0.0,0.0,-0.001,0.0,0.0,0.0,0.0,0.0,0.0,0.3975951179342573,0.0,0.0,0.0,0.0,0.0,0.0,-12.464,0.0,0.0,0.0
622,0.0,0.0,0.0,0.395251953125,0.0,0.0,0.0,0.0,0.0,0.0,-0.001,0.0,0.0,0.0,0.0,0.0,0.0,0.39751137966251143,0.0,0.0,0.0,0.0,0.0,0.0,-12.464,0.0,0.0,0.0
623,0.0,0.0,0.0,0.395251953125,0.0,0.0,0.0,0.0,0.0,0.0,-0.001,0.0,0.0,0.0,0.0,0.0,0.0,0.39743091630993627,0.0,0.0,0.0,0.0,0.0,0.0,-12.464,0.0,0.0,0.0
624,0.0,0.0,0.0,0.395251953125,0.0,0.0,0.0,0.0,0.0,0.0,-0.001,0.0,0.0,0.0,0.0,0.0,0.0,0.3973383092766445,0.0,0.0,0.0,0.0,0.0,0.0,-12.416,0.0,0.0,0.0
625,0.0,0.0,0.0,0.395251953125,0.0,0.0,0.0,0.0,0.0,0.0,-0.001,0.0,0.0,0.0,0.0,0.0,0.0,0.3972506738482412,0.0,0.0,0.0,0.0,0.0,0.0,-12.416,0.0,0.0,0.0
626,0.0,0.0,0.0,0.395251953125,0.0,0.0,0.0,0.0,0.0,0.0,-0.001,0.0,0.0,0.0,0.0,0.0,0.0,0.3971133782733161,0.0,0.0,0.0,0.0,0.0,0.0,-12.416,0.0,0.0,0.0
627,0.0,0.0,0.0,0.395251953125,0.0,0.0,0.0,0.0,0.0,0.0,-0.001,0.0,0.0,0.0,0.0,0.0,0.0,0.396990008894913,0.0,0.0,0.0,0.0,0.0,0.0,-12.392,0.0,0.0,0.0
628,0.0,0.0,0.0,0.395251953125,0.0,0.0,0.0,0.0,0.0,0.0,-0.001,0.0,0.0,0.0,0.0,0.0,0.0,0.3968837118120973,0.0,0.0,0.0,0.0,0.0,0.0,-12.392,0.0,0.0,0.0
629,0.0,0.0,0.0,0.395251953125,0.0,0.0,0.0,0.0,0.0,0.0,-0.001,0.0,0.0,0.0,0.0,0.0,0.0,0.3967530462663668,0.0,0.0,0.0,0.0,0.0,0.0,-12.464,0.0,0.0,0.0
630,0.0,0.0,0.0,0.395396484375,0.0,0.0,0.0,0.0,0.0,0.0,0.01,0.0,0.0,0.0,0.0,0.0,0.0,0.3965802418944655,0.0,0.0,0.0,0.0,0.0,0.0,-12.552,0.0,0.0,0.0
631,0.0,0.0,0.0,0.395396484375,0.0,0.0,0.0,0.0,0.0,0.0,0.01,0.0,0.0,0.0,0.0,0.0,0.0,0.3964194967051313,0.0,0.0,0.0,0.0,0.0,0.0,-12.552,0.0,0.0,0.0
632,0.0,0.0,0.0,0.395396484375,0.0,0.0,0.0,0.0,0.0,0.0,0.003,0.0,0.0,0.0,0.0,0.0,0.0,0.3962336469792267,0.0,0.0,0.0,0.0,0.0,0.0,-12.532,0.0,0.0,0.0
633,0.0,0.0,0.0,0.395396484375,0.0,0.0,0.0,0.0,0.0,0.0,0.003,0.0,0.0,0.0,0.0,0.0,0.0,0.3961254763665698,0.0,0.0,0.0,0.0,0.0,0.0,-12.532,0.0,0.0,0.0
634,0.0,0.0,0.0,0.395396484375,0.0,0.0,0.0,0.0,0.0,0.0,0.003,0.0,0.0,0.0,0.0,0.0,0.0,0.3960205289926434,0.0,0.0,0.0,0.0,0.0,0.0,-12.532,0.0,0.0,0.0
635,0.0,0.0,0.0,0.395251953125,0.0,0.0,0.0,0.0,0.0,0.0,-0.002,0.0,0.0,0.0,0.0,0.0,0.0,0.39583664451840883,0.0,0.0,0.0,0.0,0.0,0.0,-12.644,0.0,0.0,0.0
636,0.0,0.0,0.0,0.395251953125,0.0,0.0,0.0,0.0,0.0,0.0,-0.002,0.0,0.0,0.0,0.0,0.0,0.0,0.3957043139209927,0.0,0.0,0.0,0.0,0.0,0.0,-12.644,0.0,0.0,0.0
637,0.0,0.0,0.0,0.395251953125,0.0,0.0,0.0,0.0,0.0,0.0,-0.011,0.0,0.0,0.0,0.0,0.0,0.0,0.39554357239929167,0.0,0.0,0.0,0.0,0.0,0.0,-12.552,0.0,0.0,0.0
638,0.0,0.0,0.0,0.395251953125,0.0,0.0,0.0,0.0,0.0,0.0,-0.001,0.0,0.0,0.0,0.0,0.0,0.0,0.3953288870860454,0.0,0.0,0.0,0.0,0.0,0.0,-12.552,0.0,0.0,0.0
639,0.0,0.0,0.0,0.395251953125,0.0,0.0,0.0,0.0,0.0,0.0,-0.001,0.0,0.0,0.0,0.0,0.0,0.0,0.3951385573499649,0.0,0.0,0.0,0.0,0.0,0.0,-12.552,0.0,0.0,0.0
640,0.0,0.0,0.0,0.395251953125,0.0,0.0,0.0,0.0,0.0,0.0,-0.001,0.0,0.0,0.0,0.0,0.0,0.0,0.394915857950073,0.0,0.0,0.0,0.0,0.0,0.0,-12.624,0.0,0.0,0.0
641,0.0,0.0,0.0,0.395251953125,0.0,0.0,0.0,0.0,0.0,0.0,-0.001,0.0,0.0,0.0,0.0,0.0,0.0,0.39472149580210425,0.0,0.0,0.0,0.0,0.0,0.0,-12.624,0.0,0.0,0.0
642,0.0,0.0,0.0,0.394962890625,0.0,0.0,0.0,0.0,0.0,0.0,-0.014,0.0,0.0,0.0,0.0,0.0,0.0,0.39451107486562687,0.0,0.0,0.0,0.0,0.0,0.0,-12.872,0.0,0.0,0.0
643,0.0,0.0,0.0,0.394818359375,0.0,0.0,0.0,0.0,0.0,0.0,-0.023,0.0,0.0,0.0,0.0,0.0,0.0,0.39426874820592267,0.0,0.0,0.0,0.0,0.0,0.0,-12.784,0.0,0.0,0.0
644,0.0,0.0,0.0,0.394818359375,0.0,0.0,0.0,0.0,0.0,0.0,-0.023,0.0,0.0,0.0,0.0,0.0,0.0,0.3940593633714762,0.0,0.0,0.0,0.0,0.0,0.0,-12.784,0.0,0.0,0.0
645,0.0,0.0,0.0,0.3943857421875,0.0,0.0,0.0,0.0,0.0,0.0,-0.026,0.0,0.0,0.0,0.0,0.0,0.0,0.3938463599338798,0.0,0.0,0.0,0.0,0.0,0.0,-12.872,0.0,0.0,0.0
646,0.0,0.0,0.0,0.3943857421875,0.0,0.0,0.0,0.0,0.0,0.0,-0.026,0.0,0.0,0.0,0.0,0.0,0.0,0.39364598848880317,0.0,0.0,0.0,0.0,0.0,0.0,-12.872,0.0,0.0,0.0
647,0.0,0.0,0.0,0.3942412109375,0.0,0.0,0.0,0.0,0.0,0.0,-0.03,0.0,0.0,0.0,0.0,0.0,0.0,0.3934142108848078,0.0,0.0,0.0,0.0,0.0,0.0,-12.712,0.0,0.0,0.0
648,0.0,0.0,0.0,0.3942412109375,0.0,0.0,0.0,0.0,0.0,0.0,-0.03,0.0,0.0,0.0,0.0,0.0,0.0,0.3931900163599285,0.0,0.0,0.0,0.0,0.0,0.0,-12.712,0.0,0.0,0.0
649,0.0,0.0,0.0,0.3938076171875,0.0,0.0,0.0,0.0,0.0,0.0,-0.029,0.0,0.0,0.0,0.0,0.0,0.0,0.39294207135228526,0.0,0.0,0.0,0.0,0.0,0.0,-13.124,0.0,0.0,0.0
650,0.0,0.0,0.0,0.393375,0.0,0.0,0.0,0.0,0.0,0.0,-0.045,0.0,0.0,0.0,0.0,0.0,0.0,0.3926840772757403,0.0,0.0,0.0,0.0,0.0,0.0,-12.872,0.0,0.0,0.0
651,0.0,0.0,0.0,0.393375,0.0,0.0,0.0,0.0,0.0,0.0,-0.045,0.0,0.0,0.0,0.0,0.0,0.0,0.39245662099247536,0.0,0.0,0.0,0.0,0.0,0.0,-12.872,0.0,0.0,0.0
652,0.0,0.0,0.0,0.3930859375,0.0,0.0,0.0,0.0,0.0,0.0,-0.032,0.0,0.0,0.0,0.0,0.0,0.0,0.39219874339538263,0.0,0.0,0.0,0.0,0.0,0.0,-12.872,0.0,0.0,0.0
653,0.0,0.0,0.0,0.3930859375,0.0,0.0,0.0,0.0,0.0,0.0,-0.032,0.0,0.0,0.0,0.0,0.0,0.0,0.3919623298505417,0.0,0.0,0.0,0.0,0.0,0.0,-12.872,0.0,0.0,0.0
654,0.0,0.0,0.0,0.3926533203125,0.0,0.0,0.0,0.0,0.0,0.0,-0.033,0.0,0.0,0.0,0.0,0.0,0.0,0.3917095792275267,0.0,0.0,0.0,0.0,0.0,0.0,-12.92,0.0,0.0,0.0
655,0.0,0.0,0.0,0.3922109375,0.0,0.0,0.0,0.0,0.0,0.0,-0.045,0.0,0.0,0.0,0.0,0.0,0.0,0.3914440158064949,0.0,0.0,0.0,0.0,0.0,0.0,-12.872,0.0,0.0,0.0
656,0.0,0.0,0.0,0.3922109375,0.0,0.0,0.0,0.0,0.0,0.0,-0.045,0.0,0.0,0.0,0.0,0.0,0.0,0.3911818026120099,0.0,0.0,0.0,0.0,0.0,0.0,-12.872,0.0,0.0,0.0
657,0.0,0.0,0.0,0.3916337890625,0.0,0.0,0.0,0.0,0.0,0.0,-0.052,0.0,0.0,0.0,0.0,0.0,0.0,0.39091048391606853,0.0,0.0,0.0,0.0,0.0,0.0,-13.124,0.0,0.0,0.0
658,0.0,0.0,0.0,0.3916337890625,0.0,0.0,0.0,0.0,0.0,0.0,-0.052,0.0,0.0,0.0,0.0,0.0,0.0,0.3906023402269079,0.0,0.0,0.0,0.0,0.0,0.0,-13.124,0.0,0.0,0.0
659,0.0,0.0,0.0,0.3910556640625,0.0,0.0,0.0,0.0,0.0,0.0,-0.057,0.0,0.0,0.0,0.0,0.0,0.0,0.3902985501063318,0.0,0.0,0.0,0.0,0.0,0.0,-13.24,0.0,0.0,0.0
660,0.0,0.0,0.0,0.390478515625,0.0,0.0,0.0,0.0,0.0,0.0,-0.06,0.0,0.0,0.0,0.0,0.0,0.0,0.38999076429942936,0.0,0.0,0.0,0.0,0.0,0.0,-13.056,0.0,0.0,0.0
661,0.0,0.0,0.0,0.390478515625,0.0,0.0,0.0,0.0,0.0,0.0,-0.06,0.0,0.0,0.0,0.0,0.0,0.0,0.3897803814991229,0.0,0.0,0.0,0.0,0.0,0.0,-13.056,0.0,0.0,0.0
662,0.0,0.0,0.0,0.390478515625,0.0,0.0,0.0,0.0,0.0,0.0,-0.06,0.0,0.0,0.0,0.0,0.0,0.0,0.38957895442644325,0.0,0.0,0.0,0.0,0.0,0.0,-13.056,0.0,0.0,0.0
663,0.0,0.0,0.0,0.389900390625,0.0,0.0,0.0,0.0,0.0,0.0,-0.065,0.0,0.0,0.0,0.0,0.0,0.0,0.389378392323053,0.0,0.0,0.0,0.0,0.0,0.0,-12.736,0.0,0.0,0.0
664,0.0,0.0,0.0,0.389900390625,0.0,0.0,0.0,0.0,0.0,0.0,-0.065,0.0,0.0,0.0,0.0,0.0,0.0,0.3891989623183805,0.0,0.0,0.0,0.0,0.0,0.0,-12.736,0.0,0.0,0.0
665,0.0,0.0,0.0,0.3896123046875,0.0,0.0,0.0,0.0,0.0,0.0,-0.044,0.0,0.0,0.0,0.0,0.0,0.0,0.38889954206458777,0.0,0.0,0.0,0.0,0.0,0.0,-12.784,0.0,0.0,0.0
666,0.0,0.0,0.0,0.3896123046875,0.0,0.0,0.0,0.0,0.0,0.0,-0.044,0.0,0.0,0.0,0.0,0.0,0.0,0.3886674100757071,0.0,0.0,0.0,0.0,0.0,0.0,-12.784,0.0,0.0,0.0
667,0.0,0.0,0.0,0.3890166015625,0.0,0.0,0.0,0.0,0.0,0.0,-0.041,0.0,0.0,0.0,0.0,0.0,0.0,0.3884804670098906,0.0,0.0,0.0,0.0,0.0,0.0,-13.056,0.0,0.0,0.0
668,0.0,0.0,0.0,0.3890166015625,0.0,0.0,0.0,0.0,0.0,0.0,-0.041,0.0,0.0,0.0,0.0,0.0,0.0,0.38829642379247475,0.0,0.0,0.0,0.0,0.0,0.0,-13.056,0.0,0.0,0.0
669,0.0,0.0,0.0,0.3890166015625,0.0,0.0,0.0,0.0,0.0,0.0,-0.041,0.0,0.0,0.0,0.0,0.0,0.0,0.3880881881873587,0.0,0.0,0.0,0.0,0.0,0.0,-13.056,0.0,0.0,0.0
670,0.0,0.0,0.0,0.3885830078125,0.0,0.0,0.0,0.0,0.0,0.0,-0.05,0.0,0.0,0.0,0.0,0.0,0.0,0.38785226380693083,0.0,0.0,0.0,0.0,0.0,0.0,-13.104,0.0,0.0,0.0
671,0.0,0.0,0.0,0.3885830078125,0.0,0.0,0.0,0.0,0.0,0.0,-0.05,0.0,0.0,0.0,0.0,0.0,0.0,0.3875709041359273,0.0,0.0,0.0,0.0,0.0,0.0,-13.104,0.0,0.0,0.0
672,0.0,0.0,0.0,0.388005859375,0.0,0.0,0.0,0.0,0.0,0.0,-0.049,0.0,0.0,0.0,0.0,0.0,0.0,0.38711099161863044,0.0,0.0,0.0,0.0,0.0,0.0,-13.104,0.0,0.0,0.0
