EmanuelSamir/lab201_ws_projsamir/sawyer_dev/data/sawyer/vel_acel_ns/test_joint4/validation_data_5.csv
,j1,j2,j3,j4,j5,j6,j7,v1,v2,v3,v4,v5,v6,v7,jd1,jd2,jd3,jd4,jd5,jd6,jd7,e1,e2,e3,e4,e5,e6,e7
0,0.0,0.0,0.0,0.0,0.0,0.0,0.0,0.0,0.0,0.0,0.0,0.0,0.0,0.0,0.0,0.0,0.0,0.0,0.0,0.0,0.0,0.0,0.0,0.0,0.0,0.0,0.0,0.0
1,0.0,0.0,0.0,-0.0006494140625,0.0,0.0,0.0,0.0,0.0,0.0,-0.001,0.0,0.0,0.0,0.0,0.0,0.0,0.00017380714173423969,0.0,0.0,0.0,0.0,0.0,0.0,-13.924,0.0,0.0,0.0
2,0.0,0.0,0.0,-0.0006494140625,0.0,0.0,0.0,0.0,0.0,0.0,-0.001,0.0,0.0,0.0,0.0,0.0,0.0,0.02911234805148119,0.0,0.0,0.0,0.0,0.0,0.0,-13.88,0.0,0.0,0.0
3,0.0,0.0,0.0,-0.0006494140625,0.0,0.0,0.0,0.0,0.0,0.0,-0.001,0.0,0.0,0.0,0.0,0.0,0.0,0.05886725273221793,0.0,0.0,0.0,0.0,0.0,0.0,-13.996,0.0,0.0,0.0
4,0.0,0.0,0.0,-0.0006494140625,0.0,0.0,0.0,0.0,0.0,0.0,-0.001,0.0,0.0,0.0,0.0,0.0,0.0,0.08893287157337393,0.0,0.0,0.0,0.0,0.0,0.0,-13.948,0.0,0.0,0.0
5,0.0,0.0,0.0,-7.32421875e-05,0.0,0.0,0.0,0.0,0.0,0.0,0.015,0.0,0.0,0.0,0.0,0.0,0.0,0.11849900118108923,0.0,0.0,0.0,0.0,0.0,0.0,-12.784,0.0,0.0,0.0
6,0.0,0.0,0.0,0.0018125,0.0,0.0,0.0,0.0,0.0,0.0,0.109,0.0,0.0,0.0,0.0,0.0,0.0,0.14755846505812273,0.0,0.0,0.0,0.0,0.0,0.0,-11.592,0.0,0.0,0.0
7,0.0,0.0,0.0,0.004853515625,0.0,0.0,0.0,0.0,0.0,0.0,0.238,0.0,0.0,0.0,0.0,0.0,0.0,0.17655264734354906,0.0,0.0,0.0,0.0,0.0,0.0,-10.928,0.0,0.0,0.0
8,0.0,0.0,0.0,0.0084716796875,0.0,0.0,0.0,0.0,0.0,0.0,0.323,0.0,0.0,0.0,0.0,0.0,0.0,0.20494680519844108,0.0,0.0,0.0,0.0,0.0,0.0,-10.52,0.0,0.0,0.0
9,0.0,0.0,0.0,0.013119140625,0.0,0.0,0.0,0.0,0.0,0.0,0.408,0.0,0.0,0.0,0.0,0.0,0.0,0.23282176895883072,0.0,0.0,0.0,0.0,0.0,0.0,-10.496,0.0,0.0,0.0
10,0.0,0.0,0.0,0.017892578125,0.0,0.0,0.0,0.0,0.0,0.0,0.474,0.0,0.0,0.0,0.0,0.0,0.0,0.2601170179771793,0.0,0.0,0.0,0.0,0.0,0.0,-10.22,0.0,0.0,0.0
11,0.0,0.0,0.0,0.0228193359375,0.0,0.0,0.0,0.0,0.0,0.0,0.479,0.0,0.0,0.0,0.0,0.0,0.0,0.2872337960032608,0.0,0.0,0.0,0.0,0.0,0.0,-9.284,0.0,0.0,0.0
12,0.0,0.0,0.0,0.029044921875,0.0,0.0,0.0,0.0,0.0,0.0,0.551,0.0,0.0,0.0,0.0,0.0,0.0,0.31279884570320254,0.0,0.0,0.0,0.0,0.0,0.0,-9.376,0.0,0.0,0.0
13,0.0,0.0,0.0,0.0355693359375,0.0,0.0,0.0,0.0,0.0,0.0,0.641,0.0,0.0,0.0,0.0,0.0,0.0,0.33793345007856396,0.0,0.0,0.0,0.0,0.0,0.0,-10.22,0.0,0.0,0.0
14,0.0,0.0,0.0,0.042083984375,0.0,0.0,0.0,0.0,0.0,0.0,0.655,0.0,0.0,0.0,0.0,0.0,0.0,0.36272936129605515,0.0,0.0,0.0,0.0,0.0,0.0,-10.816,0.0,0.0,0.0
15,0.0,0.0,0.0,0.0490322265625,0.0,0.0,0.0,0.0,0.0,0.0,0.677,0.0,0.0,0.0,0.0,0.0,0.0,0.3859408060402829,0.0,0.0,0.0,0.0,0.0,0.0,-11.32,0.0,0.0,0.0
16,0.0,0.0,0.0,0.055412109375,0.0,0.0,0.0,0.0,0.0,0.0,0.673,0.0,0.0,0.0,0.0,0.0,0.0,0.408262793525201,0.0,0.0,0.0,0.0,0.0,0.0,-10.608,0.0,0.0,0.0
17,0.0,0.0,0.0,0.0625126953125,0.0,0.0,0.0,0.0,0.0,0.0,0.667,0.0,0.0,0.0,0.0,0.0,0.0,0.43026730046886424,0.0,0.0,0.0,0.0,0.0,0.0,-9.58,0.0,0.0,0.0
18,0.0,0.0,0.0,0.06989453125,0.0,0.0,0.0,0.0,0.0,0.0,0.744,0.0,0.0,0.0,0.0,0.0,0.0,0.45022321454685776,0.0,0.0,0.0,0.0,0.0,0.0,-11.02,0.0,0.0,0.0
19,0.0,0.0,0.0,0.07670703125,0.0,0.0,0.0,0.0,0.0,0.0,0.715,0.0,0.0,0.0,0.0,0.0,0.0,0.4693147901029991,0.0,0.0,0.0,0.0,0.0,0.0,-11.844,0.0,0.0,0.0
20,0.0,0.0,0.0,0.083953125,0.0,0.0,0.0,0.0,0.0,0.0,0.707,0.0,0.0,0.0,0.0,0.0,0.0,0.4876213349051176,0.0,0.0,0.0,0.0,0.0,0.0,-12.92,0.0,0.0,0.0
21,0.0,0.0,0.0,0.090900390625,0.0,0.0,0.0,0.0,0.0,0.0,0.713,0.0,0.0,0.0,0.0,0.0,0.0,0.5046003654864039,0.0,0.0,0.0,0.0,0.0,0.0,-13.172,0.0,0.0,0.0
22,0.0,0.0,0.0,0.097857421875,0.0,0.0,0.0,0.0,0.0,0.0,0.691,0.0,0.0,0.0,0.0,0.0,0.0,0.5201237641549634,0.0,0.0,0.0,0.0,0.0,0.0,-12.988,0.0,0.0,0.0
23,0.0,0.0,0.0,0.10465234375,0.0,0.0,0.0,0.0,0.0,0.0,0.701,0.0,0.0,0.0,0.0,0.0,0.0,0.5343388128860794,0.0,0.0,0.0,0.0,0.0,0.0,-14.292,0.0,0.0,0.0
24,0.0,0.0,0.0,0.11175390625,0.0,0.0,0.0,0.0,0.0,0.0,0.693,0.0,0.0,0.0,0.0,0.0,0.0,0.5472667636784406,0.0,0.0,0.0,0.0,0.0,0.0,-14.68,0.0,0.0,0.0
25,0.0,0.0,0.0,0.11885546875,0.0,0.0,0.0,0.0,0.0,0.0,0.709,0.0,0.0,0.0,0.0,0.0,0.0,0.5588616555174973,0.0,0.0,0.0,0.0,0.0,0.0,-14.908,0.0,0.0,0.0
26,0.0,0.0,0.0,0.1258037109375,0.0,0.0,0.0,0.0,0.0,0.0,0.71,0.0,0.0,0.0,0.0,0.0,0.0,0.5691870088993646,0.0,0.0,0.0,0.0,0.0,0.0,-14.2,0.0,0.0,0.0
27,0.0,0.0,0.0,0.1324716796875,0.0,0.0,0.0,0.0,0.0,0.0,0.693,0.0,0.0,0.0,0.0,0.0,0.0,0.57787816861211,0.0,0.0,0.0,0.0,0.0,0.0,-15.068,0.0,0.0,0.0
28,0.0,0.0,0.0,0.13870703125,0.0,0.0,0.0,0.0,0.0,0.0,0.645,0.0,0.0,0.0,0.0,0.0,0.0,0.5852097794044867,0.0,0.0,0.0,0.0,0.0,0.0,-15.16,0.0,0.0,0.0
29,0.0,0.0,0.0,0.1456552734375,0.0,0.0,0.0,0.0,0.0,0.0,0.665,0.0,0.0,0.0,0.0,0.0,0.0,0.5910904532519571,0.0,0.0,0.0,0.0,0.0,0.0,-15.596,0.0,0.0,0.0
30,0.0,0.0,0.0,0.152169921875,0.0,0.0,0.0,0.0,0.0,0.0,0.68,0.0,0.0,0.0,0.0,0.0,0.0,0.5955124862885319,0.0,0.0,0.0,0.0,0.0,0.0,-15.436,0.0,0.0,0.0
31,0.0,0.0,0.0,0.158982421875,0.0,0.0,0.0,0.0,0.0,0.0,0.669,0.0,0.0,0.0,0.0,0.0,0.0,0.5984176931364696,0.0,0.0,0.0,0.0,0.0,0.0,-15.688,0.0,0.0,0.0
32,0.0,0.0,0.0,0.165208984375,0.0,0.0,0.0,0.0,0.0,0.0,0.667,0.0,0.0,0.0,0.0,0.0,0.0,0.599849734808609,0.0,0.0,0.0,0.0,0.0,0.0,-17.652,0.0,0.0,0.0
33,0.0,0.0,0.0,0.1714345703125,0.0,0.0,0.0,0.0,0.0,0.0,0.61,0.0,0.0,0.0,0.0,0.0,0.0,0.5997729058944418,0.0,0.0,0.0,0.0,0.0,0.0,-16.808,0.0,0.0,0.0
34,0.0,0.0,0.0,0.1781123046875,0.0,0.0,0.0,0.0,0.0,0.0,0.649,0.0,0.0,0.0,0.0,0.0,0.0,0.5982044039451238,0.0,0.0,0.0,0.0,0.0,0.0,-16.188,0.0,0.0,0.0
35,0.0,0.0,0.0,0.1841943359375,0.0,0.0,0.0,0.0,0.0,0.0,0.649,0.0,0.0,0.0,0.0,0.0,0.0,0.59512720076999,0.0,0.0,0.0,0.0,0.0,0.0,-15.0,0.0,0.0,0.0
36,0.0,0.0,0.0,0.190419921875,0.0,0.0,0.0,0.0,0.0,0.0,0.622,0.0,0.0,0.0,0.0,0.0,0.0,0.5905375526168063,0.0,0.0,0.0,0.0,0.0,0.0,-15.068,0.0,0.0,0.0
37,0.0,0.0,0.0,0.196212890625,0.0,0.0,0.0,0.0,0.0,0.0,0.605,0.0,0.0,0.0,0.0,0.0,0.0,0.5845204990992785,0.0,0.0,0.0,0.0,0.0,0.0,-16.212,0.0,0.0,0.0
38,0.0,0.0,0.0,0.202005859375,0.0,0.0,0.0,0.0,0.0,0.0,0.583,0.0,0.0,0.0,0.0,0.0,0.0,0.5770444921655952,0.0,0.0,0.0,0.0,0.0,0.0,-15.116,0.0,0.0,0.0
39,0.0,0.0,0.0,0.2076552734375,0.0,0.0,0.0,0.0,0.0,0.0,0.579,0.0,0.0,0.0,0.0,0.0,0.0,0.567867290842385,0.0,0.0,0.0,0.0,0.0,0.0,-14.476,0.0,0.0,0.0
40,0.0,0.0,0.0,0.2133037109375,0.0,0.0,0.0,0.0,0.0,0.0,0.562,0.0,0.0,0.0,0.0,0.0,0.0,0.5577261067469882,0.0,0.0,0.0,0.0,0.0,0.0,-13.88,0.0,0.0,0.0
41,0.0,0.0,0.0,0.21881640625,0.0,0.0,0.0,0.0,0.0,0.0,0.568,0.0,0.0,0.0,0.0,0.0,0.0,0.5459773839308546,0.0,0.0,0.0,0.0,0.0,0.0,-14.452,0.0,0.0,0.0
42,0.0,0.0,0.0,0.2241767578125,0.0,0.0,0.0,0.0,0.0,0.0,0.547,0.0,0.0,0.0,0.0,0.0,0.0,0.5326966881848437,0.0,0.0,0.0,0.0,0.0,0.0,-14.864,0.0,0.0,0.0
43,0.0,0.0,0.0,0.22952734375,0.0,0.0,0.0,0.0,0.0,0.0,0.536,0.0,0.0,0.0,0.0,0.0,0.0,0.5183568466808574,0.0,0.0,0.0,0.0,0.0,0.0,-14.888,0.0,0.0,0.0
44,0.0,0.0,0.0,0.234896484375,0.0,0.0,0.0,0.0,0.0,0.0,0.54,0.0,0.0,0.0,0.0,0.0,0.0,0.50267055541237,0.0,0.0,0.0,0.0,0.0,0.0,-13.788,0.0,0.0,0.0
45,0.0,0.0,0.0,0.240544921875,0.0,0.0,0.0,0.0,0.0,0.0,0.554,0.0,0.0,0.0,0.0,0.0,0.0,0.48559353723334575,0.0,0.0,0.0,0.0,0.0,0.0,-13.104,0.0,0.0,0.0
46,0.0,0.0,0.0,0.2457607421875,0.0,0.0,0.0,0.0,0.0,0.0,0.547,0.0,0.0,0.0,0.0,0.0,0.0,0.4675085209481039,0.0,0.0,0.0,0.0,0.0,0.0,-12.964,0.0,0.0,0.0
47,0.0,0.0,0.0,0.251255859375,0.0,0.0,0.0,0.0,0.0,0.0,0.543,0.0,0.0,0.0,0.0,0.0,0.0,0.4481818760452254,0.0,0.0,0.0,0.0,0.0,0.0,-13.4,0.0,0.0,0.0
48,0.0,0.0,0.0,0.256625,0.0,0.0,0.0,0.0,0.0,0.0,0.546,0.0,0.0,0.0,0.0,0.0,0.0,0.42745503758576786,0.0,0.0,0.0,0.0,0.0,0.0,-13.332,0.0,0.0,0.0
49,0.0,0.0,0.0,0.2618408203125,0.0,0.0,0.0,0.0,0.0,0.0,0.525,0.0,0.0,0.0,0.0,0.0,0.0,0.40605571787111944,0.0,0.0,0.0,0.0,0.0,0.0,-12.624,0.0,0.0,0.0
50,0.0,0.0,0.0,0.2673447265625,0.0,0.0,0.0,0.0,0.0,0.0,0.542,0.0,0.0,0.0,0.0,0.0,0.0,0.3835175603229222,0.0,0.0,0.0,0.0,0.0,0.0,-12.096,0.0,0.0,0.0
51,0.0,0.0,0.0,0.2726953125,0.0,0.0,0.0,0.0,0.0,0.0,0.546,0.0,0.0,0.0,0.0,0.0,0.0,0.3598878791326309,0.0,0.0,0.0,0.0,0.0,0.0,-12.576,0.0,0.0,0.0
52,0.0,0.0,0.0,0.278208984375,0.0,0.0,0.0,0.0,0.0,0.0,0.546,0.0,0.0,0.0,0.0,0.0,0.0,0.3353668355724752,0.0,0.0,0.0,0.0,0.0,0.0,-13.216,0.0,0.0,0.0
53,0.0,0.0,0.0,0.283712890625,0.0,0.0,0.0,0.0,0.0,0.0,0.552,0.0,0.0,0.0,0.0,0.0,0.0,0.3101278788924264,0.0,0.0,0.0,0.0,0.0,0.0,-13.652,0.0,0.0,0.0
54,0.0,0.0,0.0,0.2893623046875,0.0,0.0,0.0,0.0,0.0,0.0,0.554,0.0,0.0,0.0,0.0,0.0,0.0,0.2839665874252841,0.0,0.0,0.0,0.0,0.0,0.0,-13.924,0.0,0.0,0.0
55,0.0,0.0,0.0,0.2951640625,0.0,0.0,0.0,0.0,0.0,0.0,0.569,0.0,0.0,0.0,0.0,0.0,0.0,0.2572334652730817,0.0,0.0,0.0,0.0,0.0,0.0,-12.988,0.0,0.0,0.0
56,0.0,0.0,0.0,0.3009482421875,0.0,0.0,0.0,0.0,0.0,0.0,0.59,0.0,0.0,0.0,0.0,0.0,0.0,0.2298922357779861,0.0,0.0,0.0,0.0,0.0,0.0,-12.532,0.0,0.0,0.0
57,0.0,0.0,0.0,0.3045751953125,0.0,0.0,0.0,0.0,0.0,0.0,0.514,0.0,0.0,0.0,0.0,0.0,0.0,0.2017220765540696,0.0,0.0,0.0,0.0,0.0,0.0,-17.196,0.0,0.0,0.0
58,0.0,0.0,0.0,0.3041328125,0.0,0.0,0.0,0.0,0.0,0.0,0.192,0.0,0.0,0.0,0.0,0.0,0.0,0.17325411553460082,0.0,0.0,0.0,0.0,0.0,0.0,-20.328,0.0,0.0,0.0
59,0.0,0.0,0.0,0.302978515625,0.0,0.0,0.0,0.0,0.0,0.0,-0.082,0.0,0.0,0.0,0.0,0.0,0.0,0.14451356568533105,0.0,0.0,0.0,0.0,0.0,0.0,-20.9,0.0,0.0,0.0
60,0.0,0.0,0.0,0.3002255859375,0.0,0.0,0.0,0.0,0.0,0.0,-0.165,0.0,0.0,0.0,0.0,0.0,0.0,0.11508720004027087,0.0,0.0,0.0,0.0,0.0,0.0,-21.772,0.0,0.0,0.0
61,0.0,0.0,0.0,0.2961748046875,0.0,0.0,0.0,0.0,0.0,0.0,-0.35,0.0,0.0,0.0,0.0,0.0,0.0,0.08536970584132546,0.0,0.0,0.0,0.0,0.0,0.0,-21.152,0.0,0.0,0.0
62,0.0,0.0,0.0,0.29269140625,0.0,0.0,0.0,0.0,0.0,0.0,-0.384,0.0,0.0,0.0,0.0,0.0,0.0,0.05576010137643431,0.0,0.0,0.0,0.0,0.0,0.0,-23.12,0.0,0.0,0.0
63,0.0,0.0,0.0,0.2887841796875,0.0,0.0,0.0,0.0,0.0,0.0,-0.357,0.0,0.0,0.0,0.0,0.0,0.0,0.025584038766700432,0.0,0.0,0.0,0.0,0.0,0.0,-25.088,0.0,0.0,0.0
64,0.0,0.0,0.0,0.2834248046875,0.0,0.0,0.0,0.0,0.0,0.0,-0.451,0.0,0.0,0.0,0.0,0.0,0.0,-0.004189271268497875,0.0,0.0,0.0,0.0,0.0,0.0,-24.996,0.0,0.0,0.0
65,0.0,0.0,0.0,0.2763232421875,0.0,0.0,0.0,0.0,0.0,0.0,-0.61,0.0,0.0,0.0,0.0,0.0,0.0,-0.03391655697984749,0.0,0.0,0.0,0.0,0.0,0.0,-23.396,0.0,0.0,0.0
66,0.0,0.0,0.0,0.26864453125,0.0,0.0,0.0,0.0,0.0,0.0,-0.741,0.0,0.0,0.0,0.0,0.0,0.0,-0.06396233291241744,0.0,0.0,0.0,0.0,0.0,0.0,-22.664,0.0,0.0,0.0
67,0.0,0.0,0.0,0.2608203125,0.0,0.0,0.0,0.0,0.0,0.0,-0.789,0.0,0.0,0.0,0.0,0.0,0.0,-0.09379082956760977,0.0,0.0,0.0,0.0,0.0,0.0,-20.328,0.0,0.0,0.0
68,0.0,0.0,0.0,0.2544501953125,0.0,0.0,0.0,0.0,0.0,0.0,-0.729,0.0,0.0,0.0,0.0,0.0,0.0,-0.12316644442359843,0.0,0.0,0.0,0.0,0.0,0.0,-18.684,0.0,0.0,0.0
69,0.0,0.0,0.0,0.2474931640625,0.0,0.0,0.0,0.0,0.0,0.0,-0.657,0.0,0.0,0.0,0.0,0.0,0.0,-0.15250664880628526,0.0,0.0,0.0,0.0,0.0,0.0,-19.484,0.0,0.0,0.0
70,0.0,0.0,0.0,0.2386591796875,0.0,0.0,0.0,0.0,0.0,0.0,-0.782,0.0,0.0,0.0,0.0,0.0,0.0,-0.18121025393400375,0.0,0.0,0.0,0.0,0.0,0.0,-20.924,0.0,0.0,0.0
71,0.0,0.0,0.0,0.22981640625,0.0,0.0,0.0,0.0,0.0,0.0,-0.901,0.0,0.0,0.0,0.0,0.0,0.0,-0.20957896448802157,0.0,0.0,0.0,0.0,0.0,0.0,-18.936,0.0,0.0,0.0
72,0.0,0.0,0.0,0.222291015625,0.0,0.0,0.0,0.0,0.0,0.0,-0.832,0.0,0.0,0.0,0.0,0.0,0.0,-0.23749841956813067,0.0,0.0,0.0,0.0,0.0,0.0,-15.412,0.0,0.0,0.0
73,0.0,0.0,0.0,0.214755859375,0.0,0.0,0.0,0.0,0.0,0.0,-0.743,0.0,0.0,0.0,0.0,0.0,0.0,-0.2648290258411837,0.0,0.0,0.0,0.0,0.0,0.0,-14.452,0.0,0.0,0.0
74,0.0,0.0,0.0,0.20606640625,0.0,0.0,0.0,0.0,0.0,0.0,-0.816,0.0,0.0,0.0,0.0,0.0,0.0,-0.2912250669805569,0.0,0.0,0.0,0.0,0.0,0.0,-15.228,0.0,0.0,0.0
75,0.0,0.0,0.0,0.1988212890625,0.0,0.0,0.0,0.0,0.0,0.0,-0.826,0.0,0.0,0.0,0.0,0.0,0.0,-0.31717345371209366,0.0,0.0,0.0,0.0,0.0,0.0,-15.756,0.0,0.0,0.0
76,0.0,0.0,0.0,0.1914306640625,0.0,0.0,0.0,0.0,0.0,0.0,-0.721,0.0,0.0,0.0,0.0,0.0,0.0,-0.3422691600100359,0.0,0.0,0.0,0.0,0.0,0.0,-14.268,0.0,0.0,0.0
77,0.0,0.0,0.0,0.1830302734375,0.0,0.0,0.0,0.0,0.0,0.0,-0.783,0.0,0.0,0.0,0.0,0.0,0.0,-0.36639296429434914,0.0,0.0,0.0,0.0,0.0,0.0,-12.052,0.0,0.0,0.0
78,0.0,0.0,0.0,0.1741865234375,0.0,0.0,0.0,0.0,0.0,0.0,-0.873,0.0,0.0,0.0,0.0,0.0,0.0,-0.38964996393399604,0.0,0.0,0.0,0.0,0.0,0.0,-12.256,0.0,0.0,0.0
79,0.0,0.0,0.0,0.1668056640625,0.0,0.0,0.0,0.0,0.0,0.0,-0.841,0.0,0.0,0.0,0.0,0.0,0.0,-0.4120189803858363,0.0,0.0,0.0,0.0,0.0,0.0,-11.892,0.0,0.0,0.0
80,0.0,0.0,0.0,0.160580078125,0.0,0.0,0.0,0.0,0.0,0.0,-0.684,0.0,0.0,0.0,0.0,0.0,0.0,-0.4333136241095092,0.0,0.0,0.0,0.0,0.0,0.0,-12.232,0.0,0.0,0.0
81,0.0,0.0,0.0,0.1531806640625,0.0,0.0,0.0,0.0,0.0,0.0,-0.666,0.0,0.0,0.0,0.0,0.0,0.0,-0.45345715479273546,0.0,0.0,0.0,0.0,0.0,0.0,-12.096,0.0,0.0,0.0
82,0.0,0.0,0.0,0.1456552734375,0.0,0.0,0.0,0.0,0.0,0.0,-0.757,0.0,0.0,0.0,0.0,0.0,0.0,-0.47257215906156075,0.0,0.0,0.0,0.0,0.0,0.0,-12.532,0.0,0.0,0.0
83,0.0,0.0,0.0,0.13841796875,0.0,0.0,0.0,0.0,0.0,0.0,-0.747,0.0,0.0,0.0,0.0,0.0,0.0,-0.49043107195378044,0.0,0.0,0.0,0.0,0.0,0.0,-11.388,0.0,0.0,0.0
84,0.0,0.0,0.0,0.132029296875,0.0,0.0,0.0,0.0,0.0,0.0,-0.694,0.0,0.0,0.0,0.0,0.0,0.0,-0.5071483582936509,0.0,0.0,0.0,0.0,0.0,0.0,-10.036,0.0,0.0,0.0
85,0.0,0.0,0.0,0.1250810546875,0.0,0.0,0.0,0.0,0.0,0.0,-0.666,0.0,0.0,0.0,0.0,0.0,0.0,-0.5227070663363744,0.0,0.0,0.0,0.0,0.0,0.0,-10.036,0.0,0.0,0.0
86,0.0,0.0,0.0,0.11827734375,0.0,0.0,0.0,0.0,0.0,0.0,-0.694,0.0,0.0,0.0,0.0,0.0,0.0,-0.5366225364009594,0.0,0.0,0.0,0.0,0.0,0.0,-11.296,0.0,0.0,0.0
87,0.0,0.0,0.0,0.1118984375,0.0,0.0,0.0,0.0,0.0,0.0,-0.665,0.0,0.0,0.0,0.0,0.0,0.0,-0.5493683813586359,0.0,0.0,0.0,0.0,0.0,0.0,-12.532,0.0,0.0,0.0
88,0.0,0.0,0.0,0.10581640625,0.0,0.0,0.0,0.0,0.0,0.0,-0.638,0.0,0.0,0.0,0.0,0.0,0.0,-0.5608537339947506,0.0,0.0,0.0,0.0,0.0,0.0,-11.412,0.0,0.0,0.0
89,0.0,0.0,0.0,0.1000322265625,0.0,0.0,0.0,0.0,0.0,0.0,-0.596,0.0,0.0,0.0,0.0,0.0,0.0,-0.5706859395440396,0.0,0.0,0.0,0.0,0.0,0.0,-11.616,0.0,0.0,0.0
90,0.0,0.0,0.0,0.093796875,0.0,0.0,0.0,0.0,0.0,0.0,-0.605,0.0,0.0,0.0,0.0,0.0,0.0,-0.5792296847620025,0.0,0.0,0.0,0.0,0.0,0.0,-11.776,0.0,0.0,0.0
91,0.0,0.0,0.0,0.0881484375,0.0,0.0,0.0,0.0,0.0,0.0,-0.604,0.0,0.0,0.0,0.0,0.0,0.0,-0.5864142021262585,0.0,0.0,0.0,0.0,0.0,0.0,-12.508,0.0,0.0,0.0
92,0.0,0.0,0.0,0.0825,0.0,0.0,0.0,0.0,0.0,0.0,-0.564,0.0,0.0,0.0,0.0,0.0,0.0,-0.592003104312546,0.0,0.0,0.0,0.0,0.0,0.0,-12.784,0.0,0.0,0.0
93,0.0,0.0,0.0,0.0771396484375,0.0,0.0,0.0,0.0,0.0,0.0,-0.566,0.0,0.0,0.0,0.0,0.0,0.0,-0.5961157257686784,0.0,0.0,0.0,0.0,0.0,0.0,-11.684,0.0,0.0,0.0
94,0.0,0.0,0.0,0.0719248046875,0.0,0.0,0.0,0.0,0.0,0.0,-0.528,0.0,0.0,0.0,0.0,0.0,0.0,-0.5987839259409008,0.0,0.0,0.0,0.0,0.0,0.0,-12.736,0.0,0.0,0.0
95,0.0,0.0,0.0,0.066419921875,0.0,0.0,0.0,0.0,0.0,0.0,-0.545,0.0,0.0,0.0,0.0,0.0,0.0,-0.5999401111331731,0.0,0.0,0.0,0.0,0.0,0.0,-13.424,0.0,0.0,0.0
96,0.0,0.0,0.0,0.061205078125,0.0,0.0,0.0,0.0,0.0,0.0,-0.538,0.0,0.0,0.0,0.0,0.0,0.0,-0.5996113289662648,0.0,0.0,0.0,0.0,0.0,0.0,-14.084,0.0,0.0,0.0
97,0.0,0.0,0.0,0.0558447265625,0.0,0.0,0.0,0.0,0.0,0.0,-0.52,0.0,0.0,0.0,0.0,0.0,0.0,-0.5977768141902892,0.0,0.0,0.0,0.0,0.0,0.0,-14.292,0.0,0.0,0.0
98,0.0,0.0,0.0,0.05062890625,0.0,0.0,0.0,0.0,0.0,0.0,-0.544,0.0,0.0,0.0,0.0,0.0,0.0,-0.5944754906040141,0.0,0.0,0.0,0.0,0.0,0.0,-14.084,0.0,0.0,0.0
99,0.0,0.0,0.0,0.0458466796875,0.0,0.0,0.0,0.0,0.0,0.0,-0.508,0.0,0.0,0.0,0.0,0.0,0.0,-0.5896748167248138,0.0,0.0,0.0,0.0,0.0,0.0,-14.316,0.0,0.0,0.0
100,0.0,0.0,0.0,0.0409287109375,0.0,0.0,0.0,0.0,0.0,0.0,-0.481,0.0,0.0,0.0,0.0,0.0,0.0,-0.5832279255586612,0.0,0.0,0.0,0.0,0.0,0.0,-15.48,0.0,0.0,0.0
101,0.0,0.0,0.0,0.0358583984375,0.0,0.0,0.0,0.0,0.0,0.0,-0.511,0.0,0.0,0.0,0.0,0.0,0.0,-0.575633775714115,0.0,0.0,0.0,0.0,0.0,0.0,-15.64,0.0,0.0,0.0
102,0.0,0.0,0.0,0.030921875,0.0,0.0,0.0,0.0,0.0,0.0,-0.502,0.0,0.0,0.0,0.0,0.0,0.0,-0.5664671791243208,0.0,0.0,0.0,0.0,0.0,0.0,-15.664,0.0,0.0,0.0
103,0.0,0.0,0.0,0.0257158203125,0.0,0.0,0.0,0.0,0.0,0.0,-0.501,0.0,0.0,0.0,0.0,0.0,0.0,-0.5557730725769332,0.0,0.0,0.0,0.0,0.0,0.0,-15.092,0.0,0.0,0.0
104,0.0,0.0,0.0,0.02035546875,0.0,0.0,0.0,0.0,0.0,0.0,-0.541,0.0,0.0,0.0,0.0,0.0,0.0,-0.5439053603359156,0.0,0.0,0.0,0.0,0.0,0.0,-14.932,0.0,0.0,0.0
105,0.0,0.0,0.0,0.0155732421875,0.0,0.0,0.0,0.0,0.0,0.0,-0.51,0.0,0.0,0.0,0.0,0.0,0.0,-0.5305863518095983,0.0,0.0,0.0,0.0,0.0,0.0,-15.732,0.0,0.0,0.0
106,0.0,0.0,0.0,0.0100693359375,0.0,0.0,0.0,0.0,0.0,0.0,-0.513,0.0,0.0,0.0,0.0,0.0,0.0,-0.5158257092026161,0.0,0.0,0.0,0.0,0.0,0.0,-15.984,0.0,0.0,0.0
107,0.0,0.0,0.0,0.004708984375,0.0,0.0,0.0,0.0,0.0,0.0,-0.547,0.0,0.0,0.0,0.0,0.0,0.0,-0.4999185514542028,0.0,0.0,0.0,0.0,0.0,0.0,-15.892,0.0,0.0,0.0
108,0.0,0.0,0.0,-0.0007939453125,0.0,0.0,0.0,0.0,0.0,0.0,-0.546,0.0,0.0,0.0,0.0,0.0,0.0,-0.4827416097800853,0.0,0.0,0.0,0.0,0.0,0.0,-15.572,0.0,0.0,0.0
109,0.0,0.0,0.0,-0.0067314453125,0.0,0.0,0.0,0.0,0.0,0.0,-0.577,0.0,0.0,0.0,0.0,0.0,0.0,-0.46419134141395013,0.0,0.0,0.0,0.0,0.0,0.0,-15.024,0.0,0.0,0.0
110,0.0,0.0,0.0,-0.0123896484375,0.0,0.0,0.0,0.0,0.0,0.0,-0.585,0.0,0.0,0.0,0.0,0.0,0.0,-0.444649268249191,0.0,0.0,0.0,0.0,0.0,0.0,-15.94,0.0,0.0,0.0
111,0.0,0.0,0.0,-0.0177490234375,0.0,0.0,0.0,0.0,0.0,0.0,-0.559,0.0,0.0,0.0,0.0,0.0,0.0,-0.4240486208879344,0.0,0.0,0.0,0.0,0.0,0.0,-16.236,0.0,0.0,0.0
112,0.0,0.0,0.0,-0.023388671875,0.0,0.0,0.0,0.0,0.0,0.0,-0.552,0.0,0.0,0.0,0.0,0.0,0.0,-0.4019808220381954,0.0,0.0,0.0,0.0,0.0,0.0,-16.328,0.0,0.0,0.0
113,0.0,0.0,0.0,-0.029037109375,0.0,0.0,0.0,0.0,0.0,0.0,-0.57,0.0,0.0,0.0,0.0,0.0,0.0,-0.3793485119505496,0.0,0.0,0.0,0.0,0.0,0.0,-15.78,0.0,0.0,0.0
114,0.0,0.0,0.0,-0.03483984375,0.0,0.0,0.0,0.0,0.0,0.0,-0.574,0.0,0.0,0.0,0.0,0.0,0.0,-0.3558801610734678,0.0,0.0,0.0,0.0,0.0,0.0,-15.092,0.0,0.0,0.0
115,0.0,0.0,0.0,-0.0410654296875,0.0,0.0,0.0,0.0,0.0,0.0,-0.604,0.0,0.0,0.0,0.0,0.0,0.0,-0.3312047015535307,0.0,0.0,0.0,0.0,0.0,0.0,-15.048,0.0,0.0,0.0
116,0.0,0.0,0.0,-0.0471474609375,0.0,0.0,0.0,0.0,0.0,0.0,-0.616,0.0,0.0,0.0,0.0,0.0,0.0,-0.3058272910821694,0.0,0.0,0.0,0.0,0.0,0.0,-14.588,0.0,0.0,0.0
117,0.0,0.0,0.0,-0.05309375,0.0,0.0,0.0,0.0,0.0,0.0,-0.598,0.0,0.0,0.0,0.0,0.0,0.0,-0.27975182277219607,0.0,0.0,0.0,0.0,0.0,0.0,-14.932,0.0,0.0,0.0
118,0.0,0.0,0.0,-0.05917578125,0.0,0.0,0.0,0.0,0.0,0.0,-0.611,0.0,0.0,0.0,0.0,0.0,0.0,-0.25277839414878733,0.0,0.0,0.0,0.0,0.0,0.0,-14.496,0.0,0.0,0.0
119,0.0,0.0,0.0,-0.06540234375,0.0,0.0,0.0,0.0,0.0,0.0,-0.622,0.0,0.0,0.0,0.0,0.0,0.0,-0.22501290809486252,0.0,0.0,0.0,0.0,0.0,0.0,-14.292,0.0,0.0,0.0
120,0.0,0.0,0.0,-0.0717724609375,0.0,0.0,0.0,0.0,0.0,0.0,-0.625,0.0,0.0,0.0,0.0,0.0,0.0,-0.19725034631014798,0.0,0.0,0.0,0.0,0.0,0.0,-14.816,0.0,0.0,0.0
121,0.0,0.0,0.0,-0.07815234375,0.0,0.0,0.0,0.0,0.0,0.0,-0.656,0.0,0.0,0.0,0.0,0.0,0.0,-0.16847860241248366,0.0,0.0,0.0,0.0,0.0,0.0,-14.452,0.0,0.0,0.0
122,0.0,0.0,0.0,-0.08408984375,0.0,0.0,0.0,0.0,0.0,0.0,-0.614,0.0,0.0,0.0,0.0,0.0,0.0,-0.13947871393297348,0.0,0.0,0.0,0.0,0.0,0.0,-14.748,0.0,0.0,0.0
123,0.0,0.0,0.0,-0.0903154296875,0.0,0.0,0.0,0.0,0.0,0.0,-0.61,0.0,0.0,0.0,0.0,0.0,0.0,-0.11028257234172376,0.0,0.0,0.0,0.0,0.0,0.0,-14.408,0.0,0.0,0.0
124,0.0,0.0,0.0,-0.0959638671875,0.0,0.0,0.0,0.0,0.0,0.0,-0.606,0.0,0.0,0.0,0.0,0.0,0.0,-0.08057603589609992,0.0,0.0,0.0,0.0,0.0,0.0,-14.108,0.0,0.0,0.0
125,0.0,0.0,0.0,-0.10219921875,0.0,0.0,0.0,0.0,0.0,0.0,-0.587,0.0,0.0,0.0,0.0,0.0,0.0,-0.05011377404789138,0.0,0.0,0.0,0.0,0.0,0.0,-14.68,0.0,0.0,0.0
126,0.0,0.0,0.0,-0.1085703125,0.0,0.0,0.0,0.0,0.0,0.0,-0.643,0.0,0.0,0.0,0.0,0.0,0.0,-0.020741039440009004,0.0,0.0,0.0,0.0,0.0,0.0,-13.468,0.0,0.0,0.0
127,0.0,0.0,0.0,-0.1121884765625,0.0,0.0,0.0,0.0,0.0,0.0,-0.545,0.0,0.0,0.0,0.0,0.0,0.0,0.00922153404872951,0.0,0.0,0.0,0.0,0.0,0.0,-9.556,0.0,0.0,0.0
128,0.0,0.0,0.0,-0.1120439453125,0.0,0.0,0.0,0.0,0.0,0.0,-0.204,0.0,0.0,0.0,0.0,0.0,0.0,0.00010728836002395589,0.0,0.0,0.0,0.0,0.0,0.0,-7.18,0.0,0.0,0.0
129,0.0,0.0,0.0,-0.111322265625,0.0,0.0,0.0,0.0,0.0,0.0,0.042,0.0,0.0,0.0,0.0,0.0,0.0,0.02974744500535571,0.0,0.0,0.0,0.0,0.0,0.0,-6.996,0.0,0.0,0.0
130,0.0,0.0,0.0,-0.1087138671875,0.0,0.0,0.0,0.0,0.0,0.0,0.134,0.0,0.0,0.0,0.0,0.0,0.0,0.05981886070192996,0.0,0.0,0.0,0.0,0.0,0.0,-6.812,0.0,0.0,0.0
131,0.0,0.0,0.0,-0.1048076171875,0.0,0.0,0.0,0.0,0.0,0.0,0.336,0.0,0.0,0.0,0.0,0.0,0.0,0.08946971766542339,0.0,0.0,0.0,0.0,0.0,0.0,-8.576,0.0,0.0,0.0
132,0.0,0.0,0.0,-0.1017666015625,0.0,0.0,0.0,0.0,0.0,0.0,0.342,0.0,0.0,0.0,0.0,0.0,0.0,0.11869812595730211,0.0,0.0,0.0,0.0,0.0,0.0,-5.008,0.0,0.0,0.0
133,0.0,0.0,0.0,-0.09655078125,0.0,0.0,0.0,0.0,0.0,0.0,0.394,0.0,0.0,0.0,0.0,0.0,0.0,0.14811649416733003,0.0,0.0,0.0,0.0,0.0,0.0,-3.864,0.0,0.0,0.0
134,0.0,0.0,0.0,-0.0906044921875,0.0,0.0,0.0,0.0,0.0,0.0,0.566,0.0,0.0,0.0,0.0,0.0,0.0,0.17695933853753262,0.0,0.0,0.0,0.0,0.0,0.0,-5.188,0.0,0.0,0.0
135,0.0,0.0,0.0,-0.0833671875,0.0,0.0,0.0,0.0,0.0,0.0,0.634,0.0,0.0,0.0,0.0,0.0,0.0,0.20527885400644222,0.0,0.0,0.0,0.0,0.0,0.0,-4.824,0.0,0.0,0.0
136,0.0,0.0,0.0,-0.074533203125,0.0,0.0,0.0,0.0,0.0,0.0,0.804,0.0,0.0,0.0,0.0,0.0,0.0,0.23321657709515548,0.0,0.0,0.0,0.0,0.0,0.0,-6.448,0.0,0.0,0.0
137,0.0,0.0,0.0,-0.0671435546875,0.0,0.0,0.0,0.0,0.0,0.0,0.844,0.0,0.0,0.0,0.0,0.0,0.0,0.26087603584783486,0.0,0.0,0.0,0.0,0.0,0.0,-7.112,0.0,0.0,0.0
138,0.0,0.0,0.0,-0.0603310546875,0.0,0.0,0.0,0.0,0.0,0.0,0.705,0.0,0.0,0.0,0.0,0.0,0.0,0.2873600097703637,0.0,0.0,0.0,0.0,0.0,0.0,-7.384,0.0,0.0,0.0
139,0.0,0.0,0.0,-0.0525166015625,0.0,0.0,0.0,0.0,0.0,0.0,0.724,0.0,0.0,0.0,0.0,0.0,0.0,0.31324856507630094,0.0,0.0,0.0,0.0,0.0,0.0,-7.752,0.0,0.0,0.0
140,0.0,0.0,0.0,-0.043673828125,0.0,0.0,0.0,0.0,0.0,0.0,0.828,0.0,0.0,0.0,0.0,0.0,0.0,0.3384828905479688,0.0,0.0,0.0,0.0,0.0,0.0,-7.02,0.0,0.0,0.0
141,0.0,0.0,0.0,-0.0346953125,0.0,0.0,0.0,0.0,0.0,0.0,0.903,0.0,0.0,0.0,0.0,0.0,0.0,0.3627458838245072,0.0,0.0,0.0,0.0,0.0,0.0,-10.084,0.0,0.0,0.0
142,0.0,0.0,0.0,-0.02744921875,0.0,0.0,0.0,0.0,0.0,0.0,0.826,0.0,0.0,0.0,0.0,0.0,0.0,0.38622988835241895,0.0,0.0,0.0,0.0,0.0,0.0,-13.308,0.0,0.0,0.0
143,0.0,0.0,0.0,-0.019193359375,0.0,0.0,0.0,0.0,0.0,0.0,0.753,0.0,0.0,0.0,0.0,0.0,0.0,0.4087395237549107,0.0,0.0,0.0,0.0,0.0,0.0,-13.148,0.0,0.0,0.0
144,0.0,0.0,0.0,-0.01021484375,0.0,0.0,0.0,0.0,0.0,0.0,0.888,0.0,0.0,0.0,0.0,0.0,0.0,0.4300873010323582,0.0,0.0,0.0,0.0,0.0,0.0,-13.264,0.0,0.0,0.0
145,0.0,0.0,0.0,-0.00340234375,0.0,0.0,0.0,0.0,0.0,0.0,0.806,0.0,0.0,0.0,0.0,0.0,0.0,0.45043543513796636,0.0,0.0,0.0,0.0,0.0,0.0,-12.484,0.0,0.0,0.0
146,0.0,0.0,0.0,0.004419921875,0.0,0.0,0.0,0.0,0.0,0.0,0.708,0.0,0.0,0.0,0.0,0.0,0.0,0.4698913237302989,0.0,0.0,0.0,0.0,0.0,0.0,-14.016,0.0,0.0,0.0
147,0.0,0.0,0.0,0.013119140625,0.0,0.0,0.0,0.0,0.0,0.0,0.842,0.0,0.0,0.0,0.0,0.0,0.0,0.4878308798588574,0.0,0.0,0.0,0.0,0.0,0.0,-16.692,0.0,0.0,0.0
148,0.0,0.0,0.0,0.0207890625,0.0,0.0,0.0,0.0,0.0,0.0,0.833,0.0,0.0,0.0,0.0,0.0,0.0,0.5047431114692305,0.0,0.0,0.0,0.0,0.0,0.0,-15.504,0.0,0.0,0.0
149,0.0,0.0,0.0,0.027880859375,0.0,0.0,0.0,0.0,0.0,0.0,0.755,0.0,0.0,0.0,0.0,0.0,0.0,0.5204269424903754,0.0,0.0,0.0,0.0,0.0,0.0,-17.172,0.0,0.0,0.0
150,0.0,0.0,0.0,0.0344052734375,0.0,0.0,0.0,0.0,0.0,0.0,0.678,0.0,0.0,0.0,0.0,0.0,0.0,0.5344831884599796,0.0,0.0,0.0,0.0,0.0,0.0,-17.492,0.0,0.0,0.0
151,0.0,0.0,0.0,0.042228515625,0.0,0.0,0.0,0.0,0.0,0.0,0.706,0.0,0.0,0.0,0.0,0.0,0.0,0.5475440884299182,0.0,0.0,0.0,0.0,0.0,0.0,-17.792,0.0,0.0,0.0
152,0.0,0.0,0.0,0.0501962890625,0.0,0.0,0.0,0.0,0.0,0.0,0.809,0.0,0.0,0.0,0.0,0.0,0.0,0.5591384086755177,0.0,0.0,0.0,0.0,0.0,0.0,-18.524,0.0,0.0,0.0
153,0.0,0.0,0.0,0.0567197265625,0.0,0.0,0.0,0.0,0.0,0.0,0.733,0.0,0.0,0.0,0.0,0.0,0.0,0.5692722536420718,0.0,0.0,0.0,0.0,0.0,0.0,-18.82,0.0,0.0,0.0
154,0.0,0.0,0.0,0.0635234375,0.0,0.0,0.0,0.0,0.0,0.0,0.663,0.0,0.0,0.0,0.0,0.0,0.0,0.5779756246308388,0.0,0.0,0.0,0.0,0.0,0.0,-18.684,0.0,0.0,0.0
155,0.0,0.0,0.0,0.0704716796875,0.0,0.0,0.0,0.0,0.0,0.0,0.708,0.0,0.0,0.0,0.0,0.0,0.0,0.5853530621516573,0.0,0.0,0.0,0.0,0.0,0.0,-18.888,0.0,0.0,0.0
156,0.0,0.0,0.0,0.0768515625,0.0,0.0,0.0,0.0,0.0,0.0,0.667,0.0,0.0,0.0,0.0,0.0,0.0,0.5911771874976303,0.0,0.0,0.0,0.0,0.0,0.0,-16.464,0.0,0.0,0.0
157,0.0,0.0,0.0,0.0836640625,0.0,0.0,0.0,0.0,0.0,0.0,0.664,0.0,0.0,0.0,0.0,0.0,0.0,0.5955562119041773,0.0,0.0,0.0,0.0,0.0,0.0,-17.836,0.0,0.0,0.0
158,0.0,0.0,0.0,0.0891591796875,0.0,0.0,0.0,0.0,0.0,0.0,0.625,0.0,0.0,0.0,0.0,0.0,0.0,0.5984745865863564,0.0,0.0,0.0,0.0,0.0,0.0,-18.524,0.0,0.0,0.0
159,0.0,0.0,0.0,0.0956923828125,0.0,0.0,0.0,0.0,0.0,0.0,0.585,0.0,0.0,0.0,0.0,0.0,0.0,0.5998592938553038,0.0,0.0,0.0,0.0,0.0,0.0,-17.54,0.0,0.0,0.0
160,0.0,0.0,0.0,0.1017646484375,0.0,0.0,0.0,0.0,0.0,0.0,0.659,0.0,0.0,0.0,0.0,0.0,0.0,0.5997609663646741,0.0,0.0,0.0,0.0,0.0,0.0,-18.224,0.0,0.0,0.0
161,0.0,0.0,0.0,0.1069716796875,0.0,0.0,0.0,0.0,0.0,0.0,0.56,0.0,0.0,0.0,0.0,0.0,0.0,0.5981551916901838,0.0,0.0,0.0,0.0,0.0,0.0,-16.488,0.0,0.0,0.0
162,0.0,0.0,0.0,0.1126201171875,0.0,0.0,0.0,0.0,0.0,0.0,0.542,0.0,0.0,0.0,0.0,0.0,0.0,0.5950579096375446,0.0,0.0,0.0,0.0,0.0,0.0,-17.08,0.0,0.0,0.0
163,0.0,0.0,0.0,0.1175556640625,0.0,0.0,0.0,0.0,0.0,0.0,0.545,0.0,0.0,0.0,0.0,0.0,0.0,0.590488650657582,0.0,0.0,0.0,0.0,0.0,0.0,-16.6,0.0,0.0,0.0
164,0.0,0.0,0.0,0.123060546875,0.0,0.0,0.0,0.0,0.0,0.0,0.511,0.0,0.0,0.0,0.0,0.0,0.0,0.5843902861218644,0.0,0.0,0.0,0.0,0.0,0.0,-14.2,0.0,0.0,0.0
165,0.0,0.0,0.0,0.1287001953125,0.0,0.0,0.0,0.0,0.0,0.0,0.571,0.0,0.0,0.0,0.0,0.0,0.0,0.5768288424712863,0.0,0.0,0.0,0.0,0.0,0.0,-14.476,0.0,0.0,0.0
166,0.0,0.0,0.0,0.133193359375,0.0,0.0,0.0,0.0,0.0,0.0,0.516,0.0,0.0,0.0,0.0,0.0,0.0,0.5679196911798104,0.0,0.0,0.0,0.0,0.0,0.0,-14.084,0.0,0.0,0.0
167,0.0,0.0,0.0,0.1382734375,0.0,0.0,0.0,0.0,0.0,0.0,0.471,0.0,0.0,0.0,0.0,0.0,0.0,0.5574503473616466,0.0,0.0,0.0,0.0,0.0,0.0,-14.336,0.0,0.0,0.0
168,0.0,0.0,0.0,0.14290234375,0.0,0.0,0.0,0.0,0.0,0.0,0.496,0.0,0.0,0.0,0.0,0.0,0.0,0.5456458839994078,0.0,0.0,0.0,0.0,0.0,0.0,-14.452,0.0,0.0,0.0
169,0.0,0.0,0.0,0.1470986328125,0.0,0.0,0.0,0.0,0.0,0.0,0.442,0.0,0.0,0.0,0.0,0.0,0.0,0.5325280675591328,0.0,0.0,0.0,0.0,0.0,0.0,-12.896,0.0,0.0,0.0
170,0.0,0.0,0.0,0.152458984375,0.0,0.0,0.0,0.0,0.0,0.0,0.468,0.0,0.0,0.0,0.0,0.0,0.0,0.5181575359040645,0.0,0.0,0.0,0.0,0.0,0.0,-12.624,0.0,0.0,0.0
171,0.0,0.0,0.0,0.1576826171875,0.0,0.0,0.0,0.0,0.0,0.0,0.541,0.0,0.0,0.0,0.0,0.0,0.0,0.5022644086117275,0.0,0.0,0.0,0.0,0.0,0.0,-13.652,0.0,0.0,0.0
172,0.0,0.0,0.0,0.1624560546875,0.0,0.0,0.0,0.0,0.0,0.0,0.495,0.0,0.0,0.0,0.0,0.0,0.0,0.485255120484048,0.0,0.0,0.0,0.0,0.0,0.0,-13.676,0.0,0.0,0.0
173,0.0,0.0,0.0,0.16781640625,0.0,0.0,0.0,0.0,0.0,0.0,0.514,0.0,0.0,0.0,0.0,0.0,0.0,0.46702125195332556,0.0,0.0,0.0,0.0,0.0,0.0,-14.452,0.0,0.0,0.0
174,0.0,0.0,0.0,0.1724541015625,0.0,0.0,0.0,0.0,0.0,0.0,0.511,0.0,0.0,0.0,0.0,0.0,0.0,0.4474354413459362,0.0,0.0,0.0,0.0,0.0,0.0,-13.012,0.0,0.0,0.0
175,0.0,0.0,0.0,0.177669921875,0.0,0.0,0.0,0.0,0.0,0.0,0.483,0.0,0.0,0.0,0.0,0.0,0.0,0.42715628207780565,0.0,0.0,0.0,0.0,0.0,0.0,-11.32,0.0,0.0,0.0
176,0.0,0.0,0.0,0.183173828125,0.0,0.0,0.0,0.0,0.0,0.0,0.541,0.0,0.0,0.0,0.0,0.0,0.0,0.4056453415141547,0.0,0.0,0.0,0.0,0.0,0.0,-11.8,0.0,0.0,0.0
177,0.0,0.0,0.0,0.1886787109375,0.0,0.0,0.0,0.0,0.0,0.0,0.556,0.0,0.0,0.0,0.0,0.0,0.0,0.3824951542974612,0.0,0.0,0.0,0.0,0.0,0.0,-12.004,0.0,0.0,0.0
178,0.0,0.0,0.0,0.1941826171875,0.0,0.0,0.0,0.0,0.0,0.0,0.552,0.0,0.0,0.0,0.0,0.0,0.0,0.3594848498573677,0.0,0.0,0.0,0.0,0.0,0.0,-12.416,0.0,0.0,0.0
179,0.0,0.0,0.0,0.1995517578125,0.0,0.0,0.0,0.0,0.0,0.0,0.553,0.0,0.0,0.0,0.0,0.0,0.0,0.33502869484018477,0.0,0.0,0.0,0.0,0.0,0.0,-12.464,0.0,0.0,0.0
180,0.0,0.0,0.0,0.20490234375,0.0,0.0,0.0,0.0,0.0,0.0,0.534,0.0,0.0,0.0,0.0,0.0,0.0,0.3095276130182845,0.0,0.0,0.0,0.0,0.0,0.0,-11.524,0.0,0.0,0.0
181,0.0,0.0,0.0,0.2104072265625,0.0,0.0,0.0,0.0,0.0,0.0,0.544,0.0,0.0,0.0,0.0,0.0,0.0,0.2836098984943536,0.0,0.0,0.0,0.0,0.0,0.0,-11.936,0.0,0.0,0.0
182,0.0,0.0,0.0,0.216498046875,0.0,0.0,0.0,0.0,0.0,0.0,0.578,0.0,0.0,0.0,0.0,0.0,0.0,0.25685926119726804,0.0,0.0,0.0,0.0,0.0,0.0,-12.44,0.0,0.0,0.0
183,0.0,0.0,0.0,0.222435546875,0.0,0.0,0.0,0.0,0.0,0.0,0.608,0.0,0.0,0.0,0.0,0.0,0.0,0.2286224856734913,0.0,0.0,0.0,0.0,0.0,0.0,-13.332,0.0,0.0,0.0
184,0.0,0.0,0.0,0.2285166015625,0.0,0.0,0.0,0.0,0.0,0.0,0.599,0.0,0.0,0.0,0.0,0.0,0.0,0.20145664793262225,0.0,0.0,0.0,0.0,0.0,0.0,-13.836,0.0,0.0,0.0
185,0.0,0.0,0.0,0.2344541015625,0.0,0.0,0.0,0.0,0.0,0.0,0.61,0.0,0.0,0.0,0.0,0.0,0.0,0.17289525305159617,0.0,0.0,0.0,0.0,0.0,0.0,-13.468,0.0,0.0,0.0
186,0.0,0.0,0.0,0.2388037109375,0.0,0.0,0.0,0.0,0.0,0.0,0.555,0.0,0.0,0.0,0.0,0.0,0.0,0.14381787512281918,0.0,0.0,0.0,0.0,0.0,0.0,-15.688,0.0,0.0,0.0
187,0.0,0.0,0.0,0.2389482421875,0.0,0.0,0.0,0.0,0.0,0.0,0.265,0.0,0.0,0.0,0.0,0.0,0.0,0.11462526536584328,0.0,0.0,0.0,0.0,0.0,0.0,-20.376,0.0,0.0,0.0
188,0.0,0.0,0.0,0.23808203125,0.0,0.0,0.0,0.0,0.0,0.0,-0.044,0.0,0.0,0.0,0.0,0.0,0.0,0.08513535823360516,0.0,0.0,0.0,0.0,0.0,0.0,-21.04,0.0,0.0,0.0
189,0.0,0.0,0.0,0.236349609375,0.0,0.0,0.0,0.0,0.0,0.0,-0.105,0.0,0.0,0.0,0.0,0.0,0.0,0.05487340066964624,0.0,0.0,0.0,0.0,0.0,0.0,-23.144,0.0,0.0,0.0
190,0.0,0.0,0.0,0.232279296875,0.0,0.0,0.0,0.0,0.0,0.0,-0.289,0.0,0.0,0.0,0.0,0.0,0.0,0.02516741778330947,0.0,0.0,0.0,0.0,0.0,0.0,-21.908,0.0,0.0,0.0
191,0.0,0.0,0.0,0.2290947265625,0.0,0.0,0.0,0.0,0.0,0.0,-0.374,0.0,0.0,0.0,0.0,0.0,0.0,-0.0047078174088238086,0.0,0.0,0.0,0.0,0.0,0.0,-23.232,0.0,0.0,0.0
192,0.0,0.0,0.0,0.2254755859375,0.0,0.0,0.0,0.0,0.0,0.0,-0.334,0.0,0.0,0.0,0.0,0.0,0.0,-0.03472775694350128,0.0,0.0,0.0,0.0,0.0,0.0,-25.268,0.0,0.0,0.0
193,0.0,0.0,0.0,0.2204052734375,0.0,0.0,0.0,0.0,0.0,0.0,-0.422,0.0,0.0,0.0,0.0,0.0,0.0,-0.06451418107011116,0.0,0.0,0.0,0.0,0.0,0.0,-25.224,0.0,0.0,0.0
194,0.0,0.0,0.0,0.213880859375,0.0,0.0,0.0,0.0,0.0,0.0,-0.57,0.0,0.0,0.0,0.0,0.0,0.0,-0.09419066620944724,0.0,0.0,0.0,0.0,0.0,0.0,-24.332,0.0,0.0,0.0
195,0.0,0.0,0.0,0.20635546875,0.0,0.0,0.0,0.0,0.0,0.0,-0.7,0.0,0.0,0.0,0.0,0.0,0.0,-0.1241763956500734,0.0,0.0,0.0,0.0,0.0,0.0,-23.852,0.0,0.0,0.0
196,0.0,0.0,0.0,0.1985322265625,0.0,0.0,0.0,0.0,0.0,0.0,-0.78,0.0,0.0,0.0,0.0,0.0,0.0,-0.15319968834153672,0.0,0.0,0.0,0.0,0.0,0.0,-21.816,0.0,0.0,0.0
197,0.0,0.0,0.0,0.1920078125,0.0,0.0,0.0,0.0,0.0,0.0,-0.741,0.0,0.0,0.0,0.0,0.0,0.0,-0.18179859887849895,0.0,0.0,0.0,0.0,0.0,0.0,-19.78,0.0,0.0,0.0
198,0.0,0.0,0.0,0.1854931640625,0.0,0.0,0.0,0.0,0.0,0.0,-0.642,0.0,0.0,0.0,0.0,0.0,0.0,-0.21037696465774722,0.0,0.0,0.0,0.0,0.0,0.0,-20.032,0.0,0.0,0.0
199,0.0,0.0,0.0,0.1769482421875,0.0,0.0,0.0,0.0,0.0,0.0,-0.732,0.0,0.0,0.0,0.0,0.0,0.0,-0.2381314526606769,0.0,0.0,0.0,0.0,0.0,0.0,-21.336,0.0,0.0,0.0
200,0.0,0.0,0.0,0.16825,0.0,0.0,0.0,0.0,0.0,0.0,-0.872,0.0,0.0,0.0,0.0,0.0,0.0,-0.2651004790089404,0.0,0.0,0.0,0.0,0.0,0.0,-21.288,0.0,0.0,0.0
201,0.0,0.0,0.0,0.160146484375,0.0,0.0,0.0,0.0,0.0,0.0,-0.863,0.0,0.0,0.0,0.0,0.0,0.0,-0.29179646608577176,0.0,0.0,0.0,0.0,0.0,0.0,-17.312,0.0,0.0,0.0
202,0.0,0.0,0.0,0.1528916015625,0.0,0.0,0.0,0.0,0.0,0.0,-0.775,0.0,0.0,0.0,0.0,0.0,0.0,-0.31743570039577496,0.0,0.0,0.0,0.0,0.0,0.0,-14.384,0.0,0.0,0.0
203,0.0,0.0,0.0,0.14464453125,0.0,0.0,0.0,0.0,0.0,0.0,-0.759,0.0,0.0,0.0,0.0,0.0,0.0,-0.3424588852972577,0.0,0.0,0.0,0.0,0.0,0.0,-15.528,0.0,0.0,0.0
204,0.0,0.0,0.0,0.1366767578125,0.0,0.0,0.0,0.0,0.0,0.0,-0.84,0.0,0.0,0.0,0.0,0.0,0.0,-0.3668108320919946,0.0,0.0,0.0,0.0,0.0,0.0,-16.236,0.0,0.0,0.0
205,0.0,0.0,0.0,0.1294306640625,0.0,0.0,0.0,0.0,0.0,0.0,-0.764,0.0,0.0,0.0,0.0,0.0,0.0,-0.3899691401200532,0.0,0.0,0.0,0.0,0.0,0.0,-15.732,0.0,0.0,0.0
206,0.0,0.0,0.0,0.1211748046875,0.0,0.0,0.0,0.0,0.0,0.0,-0.765,0.0,0.0,0.0,0.0,0.0,0.0,-0.41233707999474073,0.0,0.0,0.0,0.0,0.0,0.0,-12.484,0.0,0.0,0.0
207,0.0,0.0,0.0,0.1123310546875,0.0,0.0,0.0,0.0,0.0,0.0,-0.854,0.0,0.0,0.0,0.0,0.0,0.0,-0.433838195552748,0.0,0.0,0.0,0.0,0.0,0.0,-12.12,0.0,0.0,0.0
208,0.0,0.0,0.0,0.10436328125,0.0,0.0,0.0,0.0,0.0,0.0,-0.868,0.0,0.0,0.0,0.0,0.0,0.0,-0.45375772365877276,0.0,0.0,0.0,0.0,0.0,0.0,-12.256,0.0,0.0,0.0
209,0.0,0.0,0.0,0.098001953125,0.0,0.0,0.0,0.0,0.0,0.0,-0.729,0.0,0.0,0.0,0.0,0.0,0.0,-0.4727862660896559,0.0,0.0,0.0,0.0,0.0,0.0,-12.508,0.0,0.0,0.0
210,0.0,0.0,0.0,0.091044921875,0.0,0.0,0.0,0.0,0.0,0.0,-0.656,0.0,0.0,0.0,0.0,0.0,0.0,-0.4909904079362707,0.0,0.0,0.0,0.0,0.0,0.0,-12.304,0.0,0.0,0.0
211,0.0,0.0,0.0,0.0832216796875,0.0,0.0,0.0,0.0,0.0,0.0,-0.74,0.0,0.0,0.0,0.0,0.0,0.0,-0.5074042806001436,0.0,0.0,0.0,0.0,0.0,0.0,-12.532,0.0,0.0,0.0
212,0.0,0.0,0.0,0.0755517578125,0.0,0.0,0.0,0.0,0.0,0.0,-0.789,0.0,0.0,0.0,0.0,0.0,0.0,-0.5227597329719718,0.0,0.0,0.0,0.0,0.0,0.0,-11.776,0.0,0.0,0.0
213,0.0,0.0,0.0,0.0688837890625,0.0,0.0,0.0,0.0,0.0,0.0,-0.736,0.0,0.0,0.0,0.0,0.0,0.0,-0.5368661188612516,0.0,0.0,0.0,0.0,0.0,0.0,-10.336,0.0,0.0,0.0
214,0.0,0.0,0.0,0.062224609375,0.0,0.0,0.0,0.0,0.0,0.0,-0.66,0.0,0.0,0.0,0.0,0.0,0.0,-0.5496237266898419,0.0,0.0,0.0,0.0,0.0,0.0,-9.764,0.0,0.0,0.0
215,0.0,0.0,0.0,0.055267578125,0.0,0.0,0.0,0.0,0.0,0.0,-0.688,0.0,0.0,0.0,0.0,0.0,0.0,-0.5608974313658225,0.0,0.0,0.0,0.0,0.0,0.0,-10.84,0.0,0.0,0.0
216,0.0,0.0,0.0,0.048455078125,0.0,0.0,0.0,0.0,0.0,0.0,-0.696,0.0,0.0,0.0,0.0,0.0,0.0,-0.5708799604639782,0.0,0.0,0.0,0.0,0.0,0.0,-12.508,0.0,0.0,0.0
217,0.0,0.0,0.0,0.042228515625,0.0,0.0,0.0,0.0,0.0,0.0,-0.657,0.0,0.0,0.0,0.0,0.0,0.0,-0.5793671457698316,0.0,0.0,0.0,0.0,0.0,0.0,-11.98,0.0,0.0,0.0
218,0.0,0.0,0.0,0.036435546875,0.0,0.0,0.0,0.0,0.0,0.0,-0.609,0.0,0.0,0.0,0.0,0.0,0.0,-0.5863917937969798,0.0,0.0,0.0,0.0,0.0,0.0,-11.044,0.0,0.0,0.0
219,0.0,0.0,0.0,0.0302001953125,0.0,0.0,0.0,0.0,0.0,0.0,-0.605,0.0,0.0,0.0,0.0,0.0,0.0,-0.5920240405863956,0.0,0.0,0.0,0.0,0.0,0.0,-11.364,0.0,0.0,0.0
220,0.0,0.0,0.0,0.0242626953125,0.0,0.0,0.0,0.0,0.0,0.0,-0.616,0.0,0.0,0.0,0.0,0.0,0.0,-0.5961571366171232,0.0,0.0,0.0,0.0,0.0,0.0,-12.072,0.0,0.0,0.0
221,0.0,0.0,0.0,0.0184697265625,0.0,0.0,0.0,0.0,0.0,0.0,-0.591,0.0,0.0,0.0,0.0,0.0,0.0,-0.5987958671228933,0.0,0.0,0.0,0.0,0.0,0.0,-13.032,0.0,0.0,0.0
222,0.0,0.0,0.0,0.0129658203125,0.0,0.0,0.0,0.0,0.0,0.0,-0.575,0.0,0.0,0.0,0.0,0.0,0.0,-0.5999478096620984,0.0,0.0,0.0,0.0,0.0,0.0,-11.572,0.0,0.0,0.0
223,0.0,0.0,0.0,0.00775,0.0,0.0,0.0,0.0,0.0,0.0,-0.533,0.0,0.0,0.0,0.0,0.0,0.0,-0.599591889254022,0.0,0.0,0.0,0.0,0.0,0.0,-12.164,0.0,0.0,0.0
224,0.0,0.0,0.0,0.00224609375,0.0,0.0,0.0,0.0,0.0,0.0,-0.545,0.0,0.0,0.0,0.0,0.0,0.0,-0.5977473745635605,0.0,0.0,0.0,0.0,0.0,0.0,-12.712,0.0,0.0,0.0
225,0.0,0.0,0.0,-0.00282421875,0.0,0.0,0.0,0.0,0.0,0.0,-0.543,0.0,0.0,0.0,0.0,0.0,0.0,-0.5943755925382344,0.0,0.0,0.0,0.0,0.0,0.0,-14.064,0.0,0.0,0.0
226,0.0,0.0,0.0,-0.0084736328125,0.0,0.0,0.0,0.0,0.0,0.0,-0.526,0.0,0.0,0.0,0.0,0.0,0.0,-0.5895252507321096,0.0,0.0,0.0,0.0,0.0,0.0,-14.864,0.0,0.0,0.0
227,0.0,0.0,0.0,-0.0135439453125,0.0,0.0,0.0,0.0,0.0,0.0,-0.553,0.0,0.0,0.0,0.0,0.0,0.0,-0.58326451539695,0.0,0.0,0.0,0.0,0.0,0.0,-13.764,0.0,0.0,0.0
228,0.0,0.0,0.0,-0.0181826171875,0.0,0.0,0.0,0.0,0.0,0.0,-0.494,0.0,0.0,0.0,0.0,0.0,0.0,-0.5754559080911822,0.0,0.0,0.0,0.0,0.0,0.0,-14.248,0.0,0.0,0.0
229,0.0,0.0,0.0,-0.023244140625,0.0,0.0,0.0,0.0,0.0,0.0,-0.485,0.0,0.0,0.0,0.0,0.0,0.0,-0.5662355052587448,0.0,0.0,0.0,0.0,0.0,0.0,-14.656,0.0,0.0,0.0
230,0.0,0.0,0.0,-0.0278828125,0.0,0.0,0.0,0.0,0.0,0.0,-0.494,0.0,0.0,0.0,0.0,0.0,0.0,-0.5556338955142847,0.0,0.0,0.0,0.0,0.0,0.0,-15.664,0.0,0.0,0.0
231,0.0,0.0,0.0,-0.0329541015625,0.0,0.0,0.0,0.0,0.0,0.0,-0.476,0.0,0.0,0.0,0.0,0.0,0.0,-0.5436695875420025,0.0,0.0,0.0,0.0,0.0,0.0,-16.008,0.0,0.0,0.0
232,0.0,0.0,0.0,-0.0384580078125,0.0,0.0,0.0,0.0,0.0,0.0,-0.535,0.0,0.0,0.0,0.0,0.0,0.0,-0.5301502371566716,0.0,0.0,0.0,0.0,0.0,0.0,-14.656,0.0,0.0,0.0
233,0.0,0.0,0.0,-0.043384765625,0.0,0.0,0.0,0.0,0.0,0.0,-0.53,0.0,0.0,0.0,0.0,0.0,0.0,-0.5155727179799676,0.0,0.0,0.0,0.0,0.0,0.0,-14.908,0.0,0.0,0.0
234,0.0,0.0,0.0,-0.0484560546875,0.0,0.0,0.0,0.0,0.0,0.0,-0.506,0.0,0.0,0.0,0.0,0.0,0.0,-0.49957497355246705,0.0,0.0,0.0,0.0,0.0,0.0,-15.024,0.0,0.0,0.0
235,0.0,0.0,0.0,-0.0533828125,0.0,0.0,0.0,0.0,0.0,0.0,-0.505,0.0,0.0,0.0,0.0,0.0,0.0,-0.48228204260631785,0.0,0.0,0.0,0.0,0.0,0.0,-16.052,0.0,0.0,0.0
236,0.0,0.0,0.0,-0.0587421875,0.0,0.0,0.0,0.0,0.0,0.0,-0.51,0.0,0.0,0.0,0.0,0.0,0.0,-0.4639691974108485,0.0,0.0,0.0,0.0,0.0,0.0,-16.512,0.0,0.0,0.0
237,0.0,0.0,0.0,-0.0645361328125,0.0,0.0,0.0,0.0,0.0,0.0,-0.558,0.0,0.0,0.0,0.0,0.0,0.0,-0.4443691850451325,0.0,0.0,0.0,0.0,0.0,0.0,-15.548,0.0,0.0,0.0
238,0.0,0.0,0.0,-0.0701845703125,0.0,0.0,0.0,0.0,0.0,0.0,-0.573,0.0,0.0,0.0,0.0,0.0,0.0,-0.4234668075875279,0.0,0.0,0.0,0.0,0.0,0.0,-15.412,0.0,0.0,0.0
239,0.0,0.0,0.0,-0.0758330078125,0.0,0.0,0.0,0.0,0.0,0.0,-0.577,0.0,0.0,0.0,0.0,0.0,0.0,-0.4019409955315739,0.0,0.0,0.0,0.0,0.0,0.0,-15.48,0.0,0.0,0.0
240,0.0,0.0,0.0,-0.081048828125,0.0,0.0,0.0,0.0,0.0,0.0,-0.549,0.0,0.0,0.0,0.0,0.0,0.0,-0.3792254760006554,0.0,0.0,0.0,0.0,0.0,0.0,-16.212,0.0,0.0,0.0
241,0.0,0.0,0.0,-0.086408203125,0.0,0.0,0.0,0.0,0.0,0.0,-0.524,0.0,0.0,0.0,0.0,0.0,0.0,-0.3550492523489192,0.0,0.0,0.0,0.0,0.0,0.0,-16.74,0.0,0.0,0.0
242,0.0,0.0,0.0,-0.092201171875,0.0,0.0,0.0,0.0,0.0,0.0,-0.564,0.0,0.0,0.0,0.0,0.0,0.0,-0.3308073894340343,0.0,0.0,0.0,0.0,0.0,0.0,-16.028,0.0,0.0,0.0
243,0.0,0.0,0.0,-0.09800390625,0.0,0.0,0.0,0.0,0.0,0.0,-0.583,0.0,0.0,0.0,0.0,0.0,0.0,-0.3054869268691295,0.0,0.0,0.0,0.0,0.0,0.0,-15.344,0.0,0.0,0.0
244,0.0,0.0,0.0,-0.1043740234375,0.0,0.0,0.0,0.0,0.0,0.0,-0.61,0.0,0.0,0.0,0.0,0.0,0.0,-0.2790536556945908,0.0,0.0,0.0,0.0,0.0,0.0,-14.932,0.0,0.0,0.0
245,0.0,0.0,0.0,-0.110302734375,0.0,0.0,0.0,0.0,0.0,0.0,-0.625,0.0,0.0,0.0,0.0,0.0,0.0,-0.25233526089377584,0.0,0.0,0.0,0.0,0.0,0.0,-14.268,0.0,0.0,0.0
246,0.0,0.0,0.0,-0.116240234375,0.0,0.0,0.0,0.0,0.0,0.0,-0.59,0.0,0.0,0.0,0.0,0.0,0.0,-0.22476888272988207,0.0,0.0,0.0,0.0,0.0,0.0,-14.976,0.0,0.0,0.0
247,0.0,0.0,0.0,-0.1223310546875,0.0,0.0,0.0,0.0,0.0,0.0,-0.609,0.0,0.0,0.0,0.0,0.0,0.0,-0.19604345801082398,0.0,0.0,0.0,0.0,0.0,0.0,-14.728,0.0,0.0,0.0
248,0.0,0.0,0.0,-0.128412109375,0.0,0.0,0.0,0.0,0.0,0.0,-0.615,0.0,0.0,0.0,0.0,0.0,0.0,-0.1681476918163379,0.0,0.0,0.0,0.0,0.0,0.0,-14.568,0.0,0.0,0.0
249,0.0,0.0,0.0,-0.1350712890625,0.0,0.0,0.0,0.0,0.0,0.0,-0.632,0.0,0.0,0.0,0.0,0.0,0.0,-0.1391691250801354,0.0,0.0,0.0,0.0,0.0,0.0,-14.976,0.0,0.0,0.0
250,0.0,0.0,0.0,-0.1412978515625,0.0,0.0,0.0,0.0,0.0,0.0,-0.655,0.0,0.0,0.0,0.0,0.0,0.0,-0.10961317899347468,0.0,0.0,0.0,0.0,0.0,0.0,-14.316,0.0,0.0,0.0
251,0.0,0.0,0.0,-0.147099609375,0.0,0.0,0.0,0.0,0.0,0.0,-0.615,0.0,0.0,0.0,0.0,0.0,0.0,-0.0800678136486253,0.0,0.0,0.0,0.0,0.0,0.0,-14.268,0.0,0.0,0.0
252,0.0,0.0,0.0,-0.15116015625,0.0,0.0,0.0,0.0,0.0,0.0,-0.529,0.0,0.0,0.0,0.0,0.0,0.0,-0.050320470442507745,0.0,0.0,0.0,0.0,0.0,0.0,-10.84,0.0,0.0,0.0
253,0.0,0.0,0.0,-0.15173828125,0.0,0.0,0.0,0.0,0.0,0.0,-0.268,0.0,0.0,0.0,0.0,0.0,0.0,-0.020309992681634297,0.0,0.0,0.0,0.0,0.0,0.0,-9.148,0.0,0.0,0.0
254,0.0,0.0,0.0,-0.1513046875,0.0,0.0,0.0,0.0,0.0,0.0,-0.004,0.0,0.0,0.0,0.0,0.0,0.0,0.009785084846932085,0.0,0.0,0.0,0.0,0.0,0.0,-8.824,0.0,0.0,0.0
255,0.0,0.0,0.0,-0.1495634765625,0.0,0.0,0.0,0.0,0.0,0.0,0.087,0.0,0.0,0.0,0.0,0.0,0.0,5.078315728800033e-05,0.0,0.0,0.0,0.0,0.0,0.0,-7.316,0.0,0.0,0.0
256,0.0,0.0,0.0,-0.14580078125,0.0,0.0,0.0,0.0,0.0,0.0,0.272,0.0,0.0,0.0,0.0,0.0,0.0,0.0302474978720636,0.0,0.0,0.0,0.0,0.0,0.0,-7.772,0.0,0.0,0.0
257,0.0,0.0,0.0,-0.142470703125,0.0,0.0,0.0,0.0,0.0,0.0,0.356,0.0,0.0,0.0,0.0,0.0,0.0,0.0601085123516865,0.0,0.0,0.0,0.0,0.0,0.0,-5.808,0.0,0.0,0.0
258,0.0,0.0,0.0,-0.13782421875,0.0,0.0,0.0,0.0,0.0,0.0,0.379,0.0,0.0,0.0,0.0,0.0,0.0,0.08971583607394594,0.0,0.0,0.0,0.0,0.0,0.0,-4.0,0.0,0.0,0.0
259,0.0,0.0,0.0,-0.13203125,0.0,0.0,0.0,0.0,0.0,0.0,0.523,0.0,0.0,0.0,0.0,0.0,0.0,0.11936271143684898,0.0,0.0,0.0,0.0,0.0,0.0,-4.732,0.0,0.0,0.0
260,0.0,0.0,0.0,-0.1258046875,0.0,0.0,0.0,0.0,0.0,0.0,0.593,0.0,0.0,0.0,0.0,0.0,0.0,0.14885801106884253,0.0,0.0,0.0,0.0,0.0,0.0,-4.388,0.0,0.0,0.0
261,0.0,0.0,0.0,-0.1179814453125,0.0,0.0,0.0,0.0,0.0,0.0,0.699,0.0,0.0,0.0,0.0,0.0,0.0,0.17726002771741656,0.0,0.0,0.0,0.0,0.0,0.0,-5.42,0.0,0.0,0.0
262,0.0,0.0,0.0,-0.110158203125,0.0,0.0,0.0,0.0,0.0,0.0,0.797,0.0,0.0,0.0,0.0,0.0,0.0,0.2057499184619999,0.0,0.0,0.0,0.0,0.0,0.0,-6.472,0.0,0.0,0.0
263,0.0,0.0,0.0,-0.1033544921875,0.0,0.0,0.0,0.0,0.0,0.0,0.736,0.0,0.0,0.0,0.0,0.0,0.0,0.23370020320711649,0.0,0.0,0.0,0.0,0.0,0.0,-7.452,0.0,0.0,0.0
264,0.0,0.0,0.0,-0.0961083984375,0.0,0.0,0.0,0.0,0.0,0.0,0.699,0.0,0.0,0.0,0.0,0.0,0.0,0.2609275634148436,0.0,0.0,0.0,0.0,0.0,0.0,-8.504,0.0,0.0,0.0
265,0.0,0.0,0.0,-0.0878525390625,0.0,0.0,0.0,0.0,0.0,0.0,0.769,0.0,0.0,0.0,0.0,0.0,0.0,0.2876236867668515,0.0,0.0,0.0,0.0,0.0,0.0,-8.552,0.0,0.0,0.0
266,0.0,0.0,0.0,-0.0787294921875,0.0,0.0,0.0,0.0,0.0,0.0,0.876,0.0,0.0,0.0,0.0,0.0,0.0,0.31371206587748396,0.0,0.0,0.0,0.0,0.0,0.0,-8.896,0.0,0.0,0.0
267,0.0,0.0,0.0,-0.0706171875,0.0,0.0,0.0,0.0,0.0,0.0,0.881,0.0,0.0,0.0,0.0,0.0,0.0,0.33880231993970034,0.0,0.0,0.0,0.0,0.0,0.0,-11.868,0.0,0.0,0.0
268,0.0,0.0,0.0,-0.0630830078125,0.0,0.0,0.0,0.0,0.0,0.0,0.776,0.0,0.0,0.0,0.0,0.0,0.0,0.3630181581942812,0.0,0.0,0.0,0.0,0.0,0.0,-12.484,0.0,0.0,0.0
269,0.0,0.0,0.0,-0.0542490234375,0.0,0.0,0.0,0.0,0.0,0.0,0.818,0.0,0.0,0.0,0.0,0.0,0.0,0.38665173934467817,0.0,0.0,0.0,0.0,0.0,0.0,-12.784,0.0,0.0,0.0
270,0.0,0.0,0.0,-0.0465703125,0.0,0.0,0.0,0.0,0.0,0.0,0.86,0.0,0.0,0.0,0.0,0.0,0.0,0.4089876520886513,0.0,0.0,0.0,0.0,0.0,0.0,-12.712,0.0,0.0,0.0
271,0.0,0.0,0.0,-0.0397666015625,0.0,0.0,0.0,0.0,0.0,0.0,0.713,0.0,0.0,0.0,0.0,0.0,0.0,0.43038193999542884,0.0,0.0,0.0,0.0,0.0,0.0,-13.216,0.0,0.0,0.0
272,0.0,0.0,0.0,-0.031365234375,0.0,0.0,0.0,0.0,0.0,0.0,0.746,0.0,0.0,0.0,0.0,0.0,0.0,0.45097179099889617,0.0,0.0,0.0,0.0,0.0,0.0,-15.184,0.0,0.0,0.0
273,0.0,0.0,0.0,-0.0231005859375,0.0,0.0,0.0,0.0,0.0,0.0,0.856,0.0,0.0,0.0,0.0,0.0,0.0,0.4700927348910159,0.0,0.0,0.0,0.0,0.0,0.0,-17.196,0.0,0.0,0.0
274,0.0,0.0,0.0,-0.01571875,0.0,0.0,0.0,0.0,0.0,0.0,0.791,0.0,0.0,0.0,0.0,0.0,0.0,0.4881625432121303,0.0,0.0,0.0,0.0,0.0,0.0,-17.012,0.0,0.0,0.0
275,0.0,0.0,0.0,-0.0086171875,0.0,0.0,0.0,0.0,0.0,0.0,0.731,0.0,0.0,0.0,0.0,0.0,0.0,0.5049522183043734,0.0,0.0,0.0,0.0,0.0,0.0,-18.34,0.0,0.0,0.0
276,0.0,0.0,0.0,-0.001515625,0.0,0.0,0.0,0.0,0.0,0.0,0.699,0.0,0.0,0.0,0.0,0.0,0.0,0.5204881543718173,0.0,0.0,0.0,0.0,0.0,0.0,-16.42,0.0,0.0,0.0
277,0.0,0.0,0.0,0.00673046875,0.0,0.0,0.0,0.0,0.0,0.0,0.763,0.0,0.0,0.0,0.0,0.0,0.0,0.5347202372223305,0.0,0.0,0.0,0.0,0.0,0.0,-17.08,0.0,0.0,0.0
278,0.0,0.0,0.0,0.0136962890625,0.0,0.0,0.0,0.0,0.0,0.0,0.791,0.0,0.0,0.0,0.0,0.0,0.0,0.5478297589384711,0.0,0.0,0.0,0.0,0.0,0.0,-18.636,0.0,0.0,0.0
279,0.0,0.0,0.0,0.0200673828125,0.0,0.0,0.0,0.0,0.0,0.0,0.659,0.0,0.0,0.0,0.0,0.0,0.0,0.5591819832265403,0.0,0.0,0.0,0.0,0.0,0.0,-18.272,0.0,0.0,0.0
280,0.0,0.0,0.0,0.0271591796875,0.0,0.0,0.0,0.0,0.0,0.0,0.685,0.0,0.0,0.0,0.0,0.0,0.0,0.5693623476381732,0.0,0.0,0.0,0.0,0.0,0.0,-18.864,0.0,0.0,0.0
281,0.0,0.0,0.0,0.03368359375,0.0,0.0,0.0,0.0,0.0,0.0,0.69,0.0,0.0,0.0,0.0,0.0,0.0,0.5782573773967123,0.0,0.0,0.0,0.0,0.0,0.0,-17.332,0.0,0.0,0.0
282,0.0,0.0,0.0,0.0403427734375,0.0,0.0,0.0,0.0,0.0,0.0,0.662,0.0,0.0,0.0,0.0,0.0,0.0,0.5853932461224506,0.0,0.0,0.0,0.0,0.0,0.0,-17.996,0.0,0.0,0.0
283,0.0,0.0,0.0,0.046568359375,0.0,0.0,0.0,0.0,0.0,0.0,0.651,0.0,0.0,0.0,0.0,0.0,0.0,0.5912391610667909,0.0,0.0,0.0,0.0,0.0,0.0,-19.712,0.0,0.0,0.0
284,0.0,0.0,0.0,0.052650390625,0.0,0.0,0.0,0.0,0.0,0.0,0.61,0.0,0.0,0.0,0.0,0.0,0.0,0.5956284703284693,0.0,0.0,0.0,0.0,0.0,0.0,-18.844,0.0,0.0,0.0
285,0.0,0.0,0.0,0.0590390625,0.0,0.0,0.0,0.0,0.0,0.0,0.627,0.0,0.0,0.0,0.0,0.0,0.0,0.5984888756993203,0.0,0.0,0.0,0.0,0.0,0.0,-17.06,0.0,0.0,0.0
286,0.0,0.0,0.0,0.0648232421875,0.0,0.0,0.0,0.0,0.0,0.0,0.625,0.0,0.0,0.0,0.0,0.0,0.0,0.5998702549439209,0.0,0.0,0.0,0.0,0.0,0.0,-15.96,0.0,0.0,0.0
287,0.0,0.0,0.0,0.06989453125,0.0,0.0,0.0,0.0,0.0,0.0,0.552,0.0,0.0,0.0,0.0,0.0,0.0,0.5997408362023151,0.0,0.0,0.0,0.0,0.0,0.0,-16.168,0.0,0.0,0.0
288,0.0,0.0,0.0,0.075263671875,0.0,0.0,0.0,0.0,0.0,0.0,0.518,0.0,0.0,0.0,0.0,0.0,0.0,0.5981150150500423,0.0,0.0,0.0,0.0,0.0,0.0,-16.532,0.0,0.0,0.0
289,0.0,0.0,0.0,0.080623046875,0.0,0.0,0.0,0.0,0.0,0.0,0.537,0.0,0.0,0.0,0.0,0.0,0.0,0.5949892383585897,0.0,0.0,0.0,0.0,0.0,0.0,-15.78,0.0,0.0,0.0
290,0.0,0.0,0.0,0.085541015625,0.0,0.0,0.0,0.0,0.0,0.0,0.518,0.0,0.0,0.0,0.0,0.0,0.0,0.590359464704607,0.0,0.0,0.0,0.0,0.0,0.0,-14.064,0.0,0.0,0.0
291,0.0,0.0,0.0,0.090900390625,0.0,0.0,0.0,0.0,0.0,0.0,0.516,0.0,0.0,0.0,0.0,0.0,0.0,0.5842915821930855,0.0,0.0,0.0,0.0,0.0,0.0,-14.108,0.0,0.0,0.0
292,0.0,0.0,0.0,0.0956923828125,0.0,0.0,0.0,0.0,0.0,0.0,0.517,0.0,0.0,0.0,0.0,0.0,0.0,0.5767188712487227,0.0,0.0,0.0,0.0,0.0,0.0,-14.84,0.0,0.0,0.0
293,0.0,0.0,0.0,0.1003212890625,0.0,0.0,0.0,0.0,0.0,0.0,0.477,0.0,0.0,0.0,0.0,0.0,0.0,0.5676482382396322,0.0,0.0,0.0,0.0,0.0,0.0,-15.548,0.0,0.0,0.0
294,0.0,0.0,0.0,0.1049501953125,0.0,0.0,0.0,0.0,0.0,0.0,0.468,0.0,0.0,0.0,0.0,0.0,0.0,0.5573436690116518,0.0,0.0,0.0,0.0,0.0,0.0,-14.816,0.0,0.0,0.0
295,0.0,0.0,0.0,0.1098681640625,0.0,0.0,0.0,0.0,0.0,0.0,0.47,0.0,0.0,0.0,0.0,0.0,0.0,0.5456134545401922,0.0,0.0,0.0,0.0,0.0,0.0,-12.988,0.0,0.0,0.0
296,0.0,0.0,0.0,0.114939453125,0.0,0.0,0.0,0.0,0.0,0.0,0.505,0.0,0.0,0.0,0.0,0.0,0.0,0.5323345025498325,0.0,0.0,0.0,0.0,0.0,0.0,-12.464,0.0,0.0,0.0
297,0.0,0.0,0.0,0.1201640625,0.0,0.0,0.0,0.0,0.0,0.0,0.512,0.0,0.0,0.0,0.0,0.0,0.0,0.5177907650660144,0.0,0.0,0.0,0.0,0.0,0.0,-12.668,0.0,0.0,0.0
298,0.0,0.0,0.0,0.1252255859375,0.0,0.0,0.0,0.0,0.0,0.0,0.519,0.0,0.0,0.0,0.0,0.0,0.0,0.5021920109790249,0.0,0.0,0.0,0.0,0.0,0.0,-13.424,0.0,0.0,0.0
299,0.0,0.0,0.0,0.1300078125,0.0,0.0,0.0,0.0,0.0,0.0,0.501,0.0,0.0,0.0,0.0,0.0,0.0,0.4851562437352109,0.0,0.0,0.0,0.0,0.0,0.0,-12.964,0.0,0.0,0.0
300,0.0,0.0,0.0,0.13478125,0.0,0.0,0.0,0.0,0.0,0.0,0.476,0.0,0.0,0.0,0.0,0.0,0.0,0.46687617650641067,0.0,0.0,0.0,0.0,0.0,0.0,-12.28,0.0,0.0,0.0
301,0.0,0.0,0.0,0.140005859375,0.0,0.0,0.0,0.0,0.0,0.0,0.499,0.0,0.0,0.0,0.0,0.0,0.0,0.447543123444061,0.0,0.0,0.0,0.0,0.0,0.0,-11.524,0.0,0.0,0.0
302,0.0,0.0,0.0,0.1455107421875,0.0,0.0,0.0,0.0,0.0,0.0,0.532,0.0,0.0,0.0,0.0,0.0,0.0,0.42690104007702295,0.0,0.0,0.0,0.0,0.0,0.0,-11.776,0.0,0.0,0.0
303,0.0,0.0,0.0,0.1510146484375,0.0,0.0,0.0,0.0,0.0,0.0,0.553,0.0,0.0,0.0,0.0,0.0,0.0,0.4052826129395423,0.0,0.0,0.0,0.0,0.0,0.0,-12.532,0.0,0.0,0.0
304,0.0,0.0,0.0,0.15651953125,0.0,0.0,0.0,0.0,0.0,0.0,0.556,0.0,0.0,0.0,0.0,0.0,0.0,0.3827722756480374,0.0,0.0,0.0,0.0,0.0,0.0,-13.4,0.0,0.0,0.0
305,0.0,0.0,0.0,0.161734375,0.0,0.0,0.0,0.0,0.0,0.0,0.543,0.0,0.0,0.0,0.0,0.0,0.0,0.35919902660897846,0.0,0.0,0.0,0.0,0.0,0.0,-13.24,0.0,0.0,0.0
306,0.0,0.0,0.0,0.16752734375,0.0,0.0,0.0,0.0,0.0,0.0,0.545,0.0,0.0,0.0,0.0,0.0,0.0,0.3344214333747531,0.0,0.0,0.0,0.0,0.0,0.0,-12.712,0.0,0.0,0.0
307,0.0,0.0,0.0,0.173609375,0.0,0.0,0.0,0.0,0.0,0.0,0.592,0.0,0.0,0.0,0.0,0.0,0.0,0.30940934757587807,0.0,0.0,0.0,0.0,0.0,0.0,-12.12,0.0,0.0,0.0
308,0.0,0.0,0.0,0.1795556640625,0.0,0.0,0.0,0.0,0.0,0.0,0.606,0.0,0.0,0.0,0.0,0.0,0.0,0.2832795625446369,0.0,0.0,0.0,0.0,0.0,0.0,-12.164,0.0,0.0,0.0
309,0.0,0.0,0.0,0.1856376953125,0.0,0.0,0.0,0.0,0.0,0.0,0.605,0.0,0.0,0.0,0.0,0.0,0.0,0.2558316722398662,0.0,0.0,0.0,0.0,0.0,0.0,-12.692,0.0,0.0,0.0
310,0.0,0.0,0.0,0.1915751953125,0.0,0.0,0.0,0.0,0.0,0.0,0.61,0.0,0.0,0.0,0.0,0.0,0.0,0.22890813545572145,0.0,0.0,0.0,0.0,0.0,0.0,-12.852,0.0,0.0,0.0
311,0.0,0.0,0.0,0.197376953125,0.0,0.0,0.0,0.0,0.0,0.0,0.587,0.0,0.0,0.0,0.0,0.0,0.0,0.20086904390717455,0.0,0.0,0.0,0.0,0.0,0.0,-12.576,0.0,0.0,0.0
312,0.0,0.0,0.0,0.203603515625,0.0,0.0,0.0,0.0,0.0,0.0,0.603,0.0,0.0,0.0,0.0,0.0,0.0,0.17224858255115838,0.0,0.0,0.0,0.0,0.0,0.0,-12.212,0.0,0.0,0.0
313,0.0,0.0,0.0,0.209541015625,0.0,0.0,0.0,0.0,0.0,0.0,0.613,0.0,0.0,0.0,0.0,0.0,0.0,0.1435644038680772,0.0,0.0,0.0,0.0,0.0,0.0,-13.468,0.0,0.0,0.0
314,0.0,0.0,0.0,0.2134482421875,0.0,0.0,0.0,0.0,0.0,0.0,0.535,0.0,0.0,0.0,0.0,0.0,0.0,0.1143303765525201,0.0,0.0,0.0,0.0,0.0,0.0,-18.064,0.0,0.0,0.0
315,0.0,0.0,0.0,0.2130146484375,0.0,0.0,0.0,0.0,0.0,0.0,0.21,0.0,0.0,0.0,0.0,0.0,0.0,0.0845830668018353,0.0,0.0,0.0,0.0,0.0,0.0,-21.38,0.0,0.0,0.0
316,0.0,0.0,0.0,0.2121484375,0.0,0.0,0.0,0.0,0.0,0.0,-0.073,0.0,0.0,0.0,0.0,0.0,0.0,0.054846334801490426,0.0,0.0,0.0,0.0,0.0,0.0,-21.792,0.0,0.0,0.0
317,0.0,0.0,0.0,0.209396484375,0.0,0.0,0.0,0.0,0.0,0.0,-0.146,0.0,0.0,0.0,0.0,0.0,0.0,0.024993762554688354,0.0,0.0,0.0,0.0,0.0,0.0,-22.272,0.0,0.0,0.0
318,0.0,0.0,0.0,0.2053359375,0.0,0.0,0.0,0.0,0.0,0.0,-0.353,0.0,0.0,0.0,0.0,0.0,0.0,-0.005101194914449534,0.0,0.0,0.0,0.0,0.0,0.0,-20.764,0.0,0.0,0.0
319,0.0,0.0,0.0,0.202150390625,0.0,0.0,0.0,0.0,0.0,0.0,-0.365,0.0,0.0,0.0,0.0,0.0,0.0,-0.03503622480274459,0.0,0.0,0.0,0.0,0.0,0.0,-23.6,0.0,0.0,0.0
320,0.0,0.0,0.0,0.197955078125,0.0,0.0,0.0,0.0,0.0,0.0,-0.351,0.0,0.0,0.0,0.0,0.0,0.0,-0.06489887762980477,0.0,0.0,0.0,0.0,0.0,0.0,-25.636,0.0,0.0,0.0
321,0.0,0.0,0.0,0.1925859375,0.0,0.0,0.0,0.0,0.0,0.0,-0.475,0.0,0.0,0.0,0.0,0.0,0.0,-0.0949195864774426,0.0,0.0,0.0,0.0,0.0,0.0,-24.584,0.0,0.0,0.0
322,0.0,0.0,0.0,0.1859267578125,0.0,0.0,0.0,0.0,0.0,0.0,-0.592,0.0,0.0,0.0,0.0,0.0,0.0,-0.1245927274841521,0.0,0.0,0.0,0.0,0.0,0.0,-24.056,0.0,0.0,0.0
323,0.0,0.0,0.0,0.177814453125,0.0,0.0,0.0,0.0,0.0,0.0,-0.733,0.0,0.0,0.0,0.0,0.0,0.0,-0.15353022306843336,0.0,0.0,0.0,0.0,0.0,0.0,-23.988,0.0,0.0,0.0
324,0.0,0.0,0.0,0.1699912109375,0.0,0.0,0.0,0.0,0.0,0.0,-0.82,0.0,0.0,0.0,0.0,0.0,0.0,-0.18223342778749776,0.0,0.0,0.0,0.0,0.0,0.0,-22.068,0.0,0.0,0.0
325,0.0,0.0,0.0,0.1640537109375,0.0,0.0,0.0,0.0,0.0,0.0,-0.703,0.0,0.0,0.0,0.0,0.0,0.0,-0.21053704967518144,0.0,0.0,0.0,0.0,0.0,0.0,-21.22,0.0,0.0,0.0
326,0.0,0.0,0.0,0.15710546875,0.0,0.0,0.0,0.0,0.0,0.0,-0.626,0.0,0.0,0.0,0.0,0.0,0.0,-0.23836843084474996,0.0,0.0,0.0,0.0,0.0,0.0,-20.352,0.0,0.0,0.0
327,0.0,0.0,0.0,0.148984375,0.0,0.0,0.0,0.0,0.0,0.0,-0.747,0.0,0.0,0.0,0.0,0.0,0.0,-0.26585608531680066,0.0,0.0,0.0,0.0,0.0,0.0,-20.88,0.0,0.0,0.0
328,0.0,0.0,0.0,0.140294921875,0.0,0.0,0.0,0.0,0.0,0.0,-0.847,0.0,0.0,0.0,0.0,0.0,0.0,-0.2921919913589638,0.0,0.0,0.0,0.0,0.0,0.0,-20.512,0.0,0.0,0.0
329,0.0,0.0,0.0,0.132029296875,0.0,0.0,0.0,0.0,0.0,0.0,-0.878,0.0,0.0,0.0,0.0,0.0,0.0,-0.31804364280368336,0.0,0.0,0.0,0.0,0.0,0.0,-15.32,0.0,0.0,0.0
330,0.0,0.0,0.0,0.12479296875,0.0,0.0,0.0,0.0,0.0,0.0,-0.767,0.0,0.0,0.0,0.0,0.0,0.0,-0.3430101511612885,0.0,0.0,0.0,0.0,0.0,0.0,-14.156,0.0,0.0,0.0
331,0.0,0.0,0.0,0.115958984375,0.0,0.0,0.0,0.0,0.0,0.0,-0.791,0.0,0.0,0.0,0.0,0.0,0.0,-0.3672306785365003,0.0,0.0,0.0,0.0,0.0,0.0,-14.796,0.0,0.0,0.0
332,0.0,0.0,0.0,0.1081357421875,0.0,0.0,0.0,0.0,0.0,0.0,-0.867,0.0,0.0,0.0,0.0,0.0,0.0,-0.3903565708696285,0.0,0.0,0.0,0.0,0.0,0.0,-16.692,0.0,0.0,0.0
333,0.0,0.0,0.0,0.1011875,0.0,0.0,0.0,0.0,0.0,0.0,-0.744,0.0,0.0,0.0,0.0,0.0,0.0,-0.412740106392183,0.0,0.0,0.0,0.0,0.0,0.0,-16.052,0.0,0.0,0.0
334,0.0,0.0,0.0,0.0929306640625,0.0,0.0,0.0,0.0,0.0,0.0,-0.743,0.0,0.0,0.0,0.0,0.0,0.0,-0.43398540561235277,0.0,0.0,0.0,0.0,0.0,0.0,-13.216,0.0,0.0,0.0
335,0.0,0.0,0.0,0.0842412109375,0.0,0.0,0.0,0.0,0.0,0.0,-0.858,0.0,0.0,0.0,0.0,0.0,0.0,-0.45396730898805104,0.0,0.0,0.0,0.0,0.0,0.0,-11.936,0.0,0.0,0.0
336,0.0,0.0,0.0,0.0765625,0.0,0.0,0.0,0.0,0.0,0.0,-0.84,0.0,0.0,0.0,0.0,0.0,0.0,-0.4731427584500607,0.0,0.0,0.0,0.0,0.0,0.0,-11.98,0.0,0.0,0.0
337,0.0,0.0,0.0,0.0700390625,0.0,0.0,0.0,0.0,0.0,0.0,-0.721,0.0,0.0,0.0,0.0,0.0,0.0,-0.49102658248823733,0.0,0.0,0.0,0.0,0.0,0.0,-11.5,0.0,0.0,0.0
338,0.0,0.0,0.0,0.0629462890625,0.0,0.0,0.0,0.0,0.0,0.0,-0.677,0.0,0.0,0.0,0.0,0.0,0.0,-0.5075611115754637,0.0,0.0,0.0,0.0,0.0,0.0,-11.708,0.0,0.0,0.0
339,0.0,0.0,0.0,0.054689453125,0.0,0.0,0.0,0.0,0.0,0.0,-0.763,0.0,0.0,0.0,0.0,0.0,0.0,-0.5229099165440719,0.0,0.0,0.0,0.0,0.0,0.0,-12.232,0.0,0.0,0.0
340,0.0,0.0,0.0,0.0470107421875,0.0,0.0,0.0,0.0,0.0,0.0,-0.815,0.0,0.0,0.0,0.0,0.0,0.0,-0.5370202862412313,0.0,0.0,0.0,0.0,0.0,0.0,-11.844,0.0,0.0,0.0
341,0.0,0.0,0.0,0.04078515625,0.0,0.0,0.0,0.0,0.0,0.0,-0.708,0.0,0.0,0.0,0.0,0.0,0.0,-0.5496549920206147,0.0,0.0,0.0,0.0,0.0,0.0,-10.632,0.0,0.0,0.0
342,0.0,0.0,0.0,0.0341162109375,0.0,0.0,0.0,0.0,0.0,0.0,-0.64,0.0,0.0,0.0,0.0,0.0,0.0,-0.5610164630998086,0.0,0.0,0.0,0.0,0.0,0.0,-10.68,0.0,0.0,0.0
343,0.0,0.0,0.0,0.0273037109375,0.0,0.0,0.0,0.0,0.0,0.0,-0.694,0.0,0.0,0.0,0.0,0.0,0.0,-0.5710320902117447,0.0,0.0,0.0,0.0,0.0,0.0,-11.432,0.0,0.0,0.0
344,0.0,0.0,0.0,0.02093359375,0.0,0.0,0.0,0.0,0.0,0.0,-0.661,0.0,0.0,0.0,0.0,0.0,0.0,-0.5794559395074648,0.0,0.0,0.0,0.0,0.0,0.0,-12.784,0.0,0.0,0.0
345,0.0,0.0,0.0,0.01441796875,0.0,0.0,0.0,0.0,0.0,0.0,-0.648,0.0,0.0,0.0,0.0,0.0,0.0,-0.5865439008316338,0.0,0.0,0.0,0.0,0.0,0.0,-10.908,0.0,0.0,0.0
346,0.0,0.0,0.0,0.0087607421875,0.0,0.0,0.0,0.0,0.0,0.0,-0.614,0.0,0.0,0.0,0.0,0.0,0.0,-0.5922270848620038,0.0,0.0,0.0,0.0,0.0,0.0,-10.268,0.0,0.0,0.0
347,0.0,0.0,0.0,0.00224609375,0.0,0.0,0.0,0.0,0.0,0.0,-0.601,0.0,0.0,0.0,0.0,0.0,0.0,-0.5962367355993703,0.0,0.0,0.0,0.0,0.0,0.0,-11.272,0.0,0.0,0.0
348,0.0,0.0,0.0,-0.0036904296875,0.0,0.0,0.0,0.0,0.0,0.0,-0.647,0.0,0.0,0.0,0.0,0.0,0.0,-0.5988473900338408,0.0,0.0,0.0,0.0,0.0,0.0,-11.912,0.0,0.0,0.0
349,0.0,0.0,0.0,-0.0092041015625,0.0,0.0,0.0,0.0,0.0,0.0,-0.574,0.0,0.0,0.0,0.0,0.0,0.0,-0.5999553111272521,0.0,0.0,0.0,0.0,0.0,0.0,-13.172,0.0,0.0,0.0
350,0.0,0.0,0.0,-0.0149970703125,0.0,0.0,0.0,0.0,0.0,0.0,-0.568,0.0,0.0,0.0,0.0,0.0,0.0,-0.5995772533474211,0.0,0.0,0.0,0.0,0.0,0.0,-11.96,0.0,0.0,0.0
351,0.0,0.0,0.0,-0.0197705078125,0.0,0.0,0.0,0.0,0.0,0.0,-0.541,0.0,0.0,0.0,0.0,0.0,0.0,-0.5976843384363448,0.0,0.0,0.0,0.0,0.0,0.0,-12.712,0.0,0.0,0.0
352,0.0,0.0,0.0,-0.0252744140625,0.0,0.0,0.0,0.0,0.0,0.0,-0.507,0.0,0.0,0.0,0.0,0.0,0.0,-0.5943197632009583,0.0,0.0,0.0,0.0,0.0,0.0,-14.292,0.0,0.0,0.0
353,0.0,0.0,0.0,-0.030345703125,0.0,0.0,0.0,0.0,0.0,0.0,-0.545,0.0,0.0,0.0,0.0,0.0,0.0,-0.5894928908372106,0.0,0.0,0.0,0.0,0.0,0.0,-14.384,0.0,0.0,0.0
354,0.0,0.0,0.0,-0.0351279296875,0.0,0.0,0.0,0.0,0.0,0.0,-0.497,0.0,0.0,0.0,0.0,0.0,0.0,-0.5831623684107612,0.0,0.0,0.0,0.0,0.0,0.0,-14.748,0.0,0.0,0.0
355,0.0,0.0,0.0,-0.04077734375,0.0,0.0,0.0,0.0,0.0,0.0,-0.515,0.0,0.0,0.0,0.0,0.0,0.0,-0.5752924418718357,0.0,0.0,0.0,0.0,0.0,0.0,-13.652,0.0,0.0,0.0
356,0.0,0.0,0.0,-0.0454150390625,0.0,0.0,0.0,0.0,0.0,0.0,-0.53,0.0,0.0,0.0,0.0,0.0,0.0,-0.5661770514637742,0.0,0.0,0.0,0.0,0.0,0.0,-13.376,0.0,0.0,0.0
357,0.0,0.0,0.0,-0.0501884765625,0.0,0.0,0.0,0.0,0.0,0.0,-0.469,0.0,0.0,0.0,0.0,0.0,0.0,-0.555558014932248,0.0,0.0,0.0,0.0,0.0,0.0,-14.908,0.0,0.0,0.0
358,0.0,0.0,0.0,-0.0557021484375,0.0,0.0,0.0,0.0,0.0,0.0,-0.517,0.0,0.0,0.0,0.0,0.0,0.0,-0.5434360732564437,0.0,0.0,0.0,0.0,0.0,0.0,-15.116,0.0,0.0,0.0
359,0.0,0.0,0.0,-0.060619140625,0.0,0.0,0.0,0.0,0.0,0.0,-0.522,0.0,0.0,0.0,0.0,0.0,0.0,-0.5301334894601188,0.0,0.0,0.0,0.0,0.0,0.0,-15.48,0.0,0.0,0.0
360,0.0,0.0,0.0,-0.0659794921875,0.0,0.0,0.0,0.0,0.0,0.0,-0.511,0.0,0.0,0.0,0.0,0.0,0.0,-0.5154285170839816,0.0,0.0,0.0,0.0,0.0,0.0,-14.908,0.0,0.0,0.0
361,0.0,0.0,0.0,-0.0711953125,0.0,0.0,0.0,0.0,0.0,0.0,-0.546,0.0,0.0,0.0,0.0,0.0,0.0,-0.4992225288326999,0.0,0.0,0.0,0.0,0.0,0.0,-14.408,0.0,0.0,0.0
362,0.0,0.0,0.0,-0.0759775390625,0.0,0.0,0.0,0.0,0.0,0.0,-0.505,0.0,0.0,0.0,0.0,0.0,0.0,-0.482160320984477,0.0,0.0,0.0,0.0,0.0,0.0,-16.1,0.0,0.0,0.0
363,0.0,0.0,0.0,-0.0813369140625,0.0,0.0,0.0,0.0,0.0,0.0,-0.504,0.0,0.0,0.0,0.0,0.0,0.0,-0.4636760880928822,0.0,0.0,0.0,0.0,0.0,0.0,-16.716,0.0,0.0,0.0
364,0.0,0.0,0.0,-0.086552734375,0.0,0.0,0.0,0.0,0.0,0.0,-0.531,0.0,0.0,0.0,0.0,0.0,0.0,-0.44386276193476804,0.0,0.0,0.0,0.0,0.0,0.0,-16.624,0.0,0.0,0.0
365,0.0,0.0,0.0,-0.0919130859375,0.0,0.0,0.0,0.0,0.0,0.0,-0.529,0.0,0.0,0.0,0.0,0.0,0.0,-0.42331172590921173,0.0,0.0,0.0,0.0,0.0,0.0,-16.328,0.0,0.0,0.0
366,0.0,0.0,0.0,-0.0974169921875,0.0,0.0,0.0,0.0,0.0,0.0,-0.55,0.0,0.0,0.0,0.0,0.0,0.0,-0.40147505255293026,0.0,0.0,0.0,0.0,0.0,0.0,-15.048,0.0,0.0,0.0
367,0.0,0.0,0.0,-0.10277734375,0.0,0.0,0.0,0.0,0.0,0.0,-0.553,0.0,0.0,0.0,0.0,0.0,0.0,-0.37870421875125565,0.0,0.0,0.0,0.0,0.0,0.0,-15.412,0.0,0.0,0.0
368,0.0,0.0,0.0,-0.10828125,0.0,0.0,0.0,0.0,0.0,0.0,-0.548,0.0,0.0,0.0,0.0,0.0,0.0,-0.3547009037827538,0.0,0.0,0.0,0.0,0.0,0.0,-15.848,0.0,0.0,0.0
369,0.0,0.0,0.0,-0.1139296875,0.0,0.0,0.0,0.0,0.0,0.0,-0.561,0.0,0.0,0.0,0.0,0.0,0.0,-0.33035374550220764,0.0,0.0,0.0,0.0,0.0,0.0,-15.94,0.0,0.0,0.0
370,0.0,0.0,0.0,-0.1198759765625,0.0,0.0,0.0,0.0,0.0,0.0,-0.575,0.0,0.0,0.0,0.0,0.0,0.0,-0.30489512830442084,0.0,0.0,0.0,0.0,0.0,0.0,-15.688,0.0,0.0,0.0
371,0.0,0.0,0.0,-0.12594921875,0.0,0.0,0.0,0.0,0.0,0.0,-0.602,0.0,0.0,0.0,0.0,0.0,0.0,-0.2784266034624406,0.0,0.0,0.0,0.0,0.0,0.0,-14.888,0.0,0.0,0.0
372,0.0,0.0,0.0,-0.13203125,0.0,0.0,0.0,0.0,0.0,0.0,-0.61,0.0,0.0,0.0,0.0,0.0,0.0,-0.2519237693299396,0.0,0.0,0.0,0.0,0.0,0.0,-14.864,0.0,0.0,0.0
373,0.0,0.0,0.0,-0.1381123046875,0.0,0.0,0.0,0.0,0.0,0.0,-0.615,0.0,0.0,0.0,0.0,0.0,0.0,-0.22441006039283695,0.0,0.0,0.0,0.0,0.0,0.0,-15.344,0.0,0.0,0.0
374,0.0,0.0,0.0,-0.1439150390625,0.0,0.0,0.0,0.0,0.0,0.0,-0.604,0.0,0.0,0.0,0.0,0.0,0.0,-0.19611443633032724,0.0,0.0,0.0,0.0,0.0,0.0,-15.528,0.0,0.0,0.0
375,0.0,0.0,0.0,-0.1498525390625,0.0,0.0,0.0,0.0,0.0,0.0,-0.593,0.0,0.0,0.0,0.0,0.0,0.0,-0.16771852385330993,0.0,0.0,0.0,0.0,0.0,0.0,-15.46,0.0,0.0,0.0
376,0.0,0.0,0.0,-0.156078125,0.0,0.0,0.0,0.0,0.0,0.0,-0.608,0.0,0.0,0.0,0.0,0.0,0.0,-0.13874328949460676,0.0,0.0,0.0,0.0,0.0,0.0,-14.612,0.0,0.0,0.0
377,0.0,0.0,0.0,-0.16216015625,0.0,0.0,0.0,0.0,0.0,0.0,-0.615,0.0,0.0,0.0,0.0,0.0,0.0,-0.10932765942669515,0.0,0.0,0.0,0.0,0.0,0.0,-14.336,0.0,0.0,0.0
378,0.0,0.0,0.0,-0.1685400390625,0.0,0.0,0.0,0.0,0.0,0.0,-0.631,0.0,0.0,0.0,0.0,0.0,0.0,-0.07981190831770811,0.0,0.0,0.0,0.0,0.0,0.0,-13.696,0.0,0.0,0.0
379,0.0,0.0,0.0,-0.172013671875,0.0,0.0,0.0,0.0,0.0,0.0,-0.552,0.0,0.0,0.0,0.0,0.0,0.0,-0.04985717709059018,0.0,0.0,0.0,0.0,0.0,0.0,-9.216,0.0,0.0,0.0
380,0.0,0.0,0.0,-0.171724609375,0.0,0.0,0.0,0.0,0.0,0.0,-0.18,0.0,0.0,0.0,0.0,0.0,0.0,-0.019602281318308056,0.0,0.0,0.0,0.0,0.0,0.0,-7.204,0.0,0.0,0.0
381,0.0,0.0,0.0,-0.1712919921875,0.0,0.0,0.0,0.0,0.0,0.0,0.049,0.0,0.0,0.0,0.0,0.0,0.0,0.009988905053266528,0.0,0.0,0.0,0.0,0.0,0.0,-7.224,0.0,0.0,0.0
382,0.0,0.0,0.0,-0.16868359375,0.0,0.0,0.0,0.0,0.0,0.0,0.107,0.0,0.0,0.0,0.0,0.0,0.0,4.792213434846283e-05,0.0,0.0,0.0,0.0,0.0,0.0,-6.22,0.0,0.0,0.0
383,0.0,0.0,0.0,-0.164623046875,0.0,0.0,0.0,0.0,0.0,0.0,0.347,0.0,0.0,0.0,0.0,0.0,0.0,0.03020035092423947,0.0,0.0,0.0,0.0,0.0,0.0,-8.416,0.0,0.0,0.0
384,0.0,0.0,0.0,-0.1615830078125,0.0,0.0,0.0,0.0,0.0,0.0,0.354,0.0,0.0,0.0,0.0,0.0,0.0,0.06015049999313212,0.0,0.0,0.0,0.0,0.0,0.0,-5.212,0.0,0.0,0.0
385,0.0,0.0,0.0,-0.15651171875,0.0,0.0,0.0,0.0,0.0,0.0,0.382,0.0,0.0,0.0,0.0,0.0,0.0,0.0897844352943159,0.0,0.0,0.0,0.0,0.0,0.0,-3.908,0.0,0.0,0.0
386,0.0,0.0,0.0,-0.15057421875,0.0,0.0,0.0,0.0,0.0,0.0,0.559,0.0,0.0,0.0,0.0,0.0,0.0,0.11941948858219224,0.0,0.0,0.0,0.0,0.0,0.0,-5.028,0.0,0.0,0.0
387,0.0,0.0,0.0,-0.1436259765625,0.0,0.0,0.0,0.0,0.0,0.0,0.615,0.0,0.0,0.0,0.0,0.0,0.0,0.14850945891656006,0.0,0.0,0.0,0.0,0.0,0.0,-4.16,0.0,0.0,0.0
388,0.0,0.0,0.0,-0.1350712890625,0.0,0.0,0.0,0.0,0.0,0.0,0.777,0.0,0.0,0.0,0.0,0.0,0.0,0.17734680848293802,0.0,0.0,0.0,0.0,0.0,0.0,-5.92,0.0,0.0,0.0
389,0.0,0.0,0.0,-0.1275458984375,0.0,0.0,0.0,0.0,0.0,0.0,0.835,0.0,0.0,0.0,0.0,0.0,0.0,0.20618926987719097,0.0,0.0,0.0,0.0,0.0,0.0,-6.996,0.0,0.0,0.0
390,0.0,0.0,0.0,-0.1207421875,0.0,0.0,0.0,0.0,0.0,0.0,0.719,0.0,0.0,0.0,0.0,0.0,0.0,0.23361785444268326,0.0,0.0,0.0,0.0,0.0,0.0,-7.704,0.0,0.0,0.0
391,0.0,0.0,0.0,-0.11319921875,0.0,0.0,0.0,0.0,0.0,0.0,0.705,0.0,0.0,0.0,0.0,0.0,0.0,0.26102223913226225,0.0,0.0,0.0,0.0,0.0,0.0,-7.408,0.0,0.0,0.0
392,0.0,0.0,0.0,-0.1045185546875,0.0,0.0,0.0,0.0,0.0,0.0,0.803,0.0,0.0,0.0,0.0,0.0,0.0,0.28776051926380647,0.0,0.0,0.0,0.0,0.0,0.0,-7.156,0.0,0.0,0.0
393,0.0,0.0,0.0,-0.09567578125,0.0,0.0,0.0,0.0,0.0,0.0,0.891,0.0,0.0,0.0,0.0,0.0,0.0,0.31356633481094637,0.0,0.0,0.0,0.0,0.0,0.0,-9.672,0.0,0.0,0.0
394,0.0,0.0,0.0,-0.08828515625,0.0,0.0,0.0,0.0,0.0,0.0,0.829,0.0,0.0,0.0,0.0,0.0,0.0,0.33878283937155856,0.0,0.0,0.0,0.0,0.0,0.0,-13.104,0.0,0.0,0.0
395,0.0,0.0,0.0,-0.0800380859375,0.0,0.0,0.0,0.0,0.0,0.0,0.769,0.0,0.0,0.0,0.0,0.0,0.0,0.3634769981971723,0.0,0.0,0.0,0.0,0.0,0.0,-13.444,0.0,0.0,0.0
396,0.0,0.0,0.0,-0.0711953125,0.0,0.0,0.0,0.0,0.0,0.0,0.873,0.0,0.0,0.0,0.0,0.0,0.0,0.3865718808171021,0.0,0.0,0.0,0.0,0.0,0.0,-13.148,0.0,0.0,0.0
397,0.0,0.0,0.0,-0.0641025390625,0.0,0.0,0.0,0.0,0.0,0.0,0.821,0.0,0.0,0.0,0.0,0.0,0.0,0.40892851098305955,0.0,0.0,0.0,0.0,0.0,0.0,-12.6,0.0,0.0,0.0
398,0.0,0.0,0.0,-0.056568359375,0.0,0.0,0.0,0.0,0.0,0.0,0.711,0.0,0.0,0.0,0.0,0.0,0.0,0.43054088647671385,0.0,0.0,0.0,0.0,0.0,0.0,-13.584,0.0,0.0,0.0
399,0.0,0.0,0.0,-0.047869140625,0.0,0.0,0.0,0.0,0.0,0.0,0.813,0.0,0.0,0.0,0.0,0.0,0.0,0.4507783071881072,0.0,0.0,0.0,0.0,0.0,0.0,-16.236,0.0,0.0,0.0
400,0.0,0.0,0.0,-0.0399111328125,0.0,0.0,0.0,0.0,0.0,0.0,0.844,0.0,0.0,0.0,0.0,0.0,0.0,0.46997937460852124,0.0,0.0,0.0,0.0,0.0,0.0,-15.94,0.0,0.0,0.0
401,0.0,0.0,0.0,-0.0328095703125,0.0,0.0,0.0,0.0,0.0,0.0,0.768,0.0,0.0,0.0,0.0,0.0,0.0,0.4882481963379686,0.0,0.0,0.0,0.0,0.0,0.0,-16.92,0.0,0.0,0.0
402,0.0,0.0,0.0,-0.026140625,0.0,0.0,0.0,0.0,0.0,0.0,0.695,0.0,0.0,0.0,0.0,0.0,0.0,0.505029855138196,0.0,0.0,0.0,0.0,0.0,0.0,-18.364,0.0,0.0,0.0
403,0.0,0.0,0.0,-0.018759765625,0.0,0.0,0.0,0.0,0.0,0.0,0.687,0.0,0.0,0.0,0.0,0.0,0.0,0.5205030981352209,0.0,0.0,0.0,0.0,0.0,0.0,-17.7,0.0,0.0,0.0
404,0.0,0.0,0.0,-0.0106474609375,0.0,0.0,0.0,0.0,0.0,0.0,0.79,0.0,0.0,0.0,0.0,0.0,0.0,0.5348930595327908,0.0,0.0,0.0,0.0,0.0,0.0,-18.204,0.0,0.0,0.0
405,0.0,0.0,0.0,-0.0038349609375,0.0,0.0,0.0,0.0,0.0,0.0,0.771,0.0,0.0,0.0,0.0,0.0,0.0,0.5477465882604844,0.0,0.0,0.0,0.0,0.0,0.0,-18.476,0.0,0.0,0.0
406,0.0,0.0,0.0,0.0029677734375,0.0,0.0,0.0,0.0,0.0,0.0,0.666,0.0,0.0,0.0,0.0,0.0,0.0,0.5592996260591131,0.0,0.0,0.0,0.0,0.0,0.0,-18.456,0.0,0.0,0.0
407,0.0,0.0,0.0,0.009916015625,0.0,0.0,0.0,0.0,0.0,0.0,0.703,0.0,0.0,0.0,0.0,0.0,0.0,0.5694417221136967,0.0,0.0,0.0,0.0,0.0,0.0,-19.368,0.0,0.0,0.0
408,0.0,0.0,0.0,0.0163037109375,0.0,0.0,0.0,0.0,0.0,0.0,0.671,0.0,0.0,0.0,0.0,0.0,0.0,0.5781878705156959,0.0,0.0,0.0,0.0,0.0,0.0,-16.9,0.0,0.0,0.0
409,0.0,0.0,0.0,0.0229638671875,0.0,0.0,0.0,0.0,0.0,0.0,0.656,0.0,0.0,0.0,0.0,0.0,0.0,0.5854379180507443,0.0,0.0,0.0,0.0,0.0,0.0,-17.7,0.0,0.0,0.0
410,0.0,0.0,0.0,0.0287568359375,0.0,0.0,0.0,0.0,0.0,0.0,0.637,0.0,0.0,0.0,0.0,0.0,0.0,0.5912830695513294,0.0,0.0,0.0,0.0,0.0,0.0,-18.408,0.0,0.0,0.0
411,0.0,0.0,0.0,0.0351357421875,0.0,0.0,0.0,0.0,0.0,0.0,0.595,0.0,0.0,0.0,0.0,0.0,0.0,0.5956429372384863,0.0,0.0,0.0,0.0,0.0,0.0,-18.132,0.0,0.0,0.0
412,0.0,0.0,0.0,0.0413623046875,0.0,0.0,0.0,0.0,0.0,0.0,0.65,0.0,0.0,0.0,0.0,0.0,0.0,0.5984923234709378,0.0,0.0,0.0,0.0,0.0,0.0,-18.364,0.0,0.0,0.0
413,0.0,0.0,0.0,0.0467216796875,0.0,0.0,0.0,0.0,0.0,0.0,0.574,0.0,0.0,0.0,0.0,0.0,0.0,0.5998717528521827,0.0,0.0,0.0,0.0,0.0,0.0,-16.372,0.0,0.0,0.0
414,0.0,0.0,0.0,0.0520732421875,0.0,0.0,0.0,0.0,0.0,0.0,0.549,0.0,0.0,0.0,0.0,0.0,0.0,0.5997405628650897,0.0,0.0,0.0,0.0,0.0,0.0,-16.992,0.0,0.0,0.0
415,0.0,0.0,0.0,0.0571533203125,0.0,0.0,0.0,0.0,0.0,0.0,0.521,0.0,0.0,0.0,0.0,0.0,0.0,0.5981111607661873,0.0,0.0,0.0,0.0,0.0,0.0,-15.984,0.0,0.0,0.0
416,0.0,0.0,0.0,0.0626572265625,0.0,0.0,0.0,0.0,0.0,0.0,0.521,0.0,0.0,0.0,0.0,0.0,0.0,0.5949799172766628,0.0,0.0,0.0,0.0,0.0,0.0,-14.772,0.0,0.0,0.0
417,0.0,0.0,0.0,0.0678642578125,0.0,0.0,0.0,0.0,0.0,0.0,0.557,0.0,0.0,0.0,0.0,0.0,0.0,0.5903611247675133,0.0,0.0,0.0,0.0,0.0,0.0,-14.84,0.0,0.0,0.0
418,0.0,0.0,0.0,0.072791015625,0.0,0.0,0.0,0.0,0.0,0.0,0.501,0.0,0.0,0.0,0.0,0.0,0.0,0.5842595349801124,0.0,0.0,0.0,0.0,0.0,0.0,-13.948,0.0,0.0,0.0
419,0.0,0.0,0.0,0.07787109375,0.0,0.0,0.0,0.0,0.0,0.0,0.505,0.0,0.0,0.0,0.0,0.0,0.0,0.5767064391100888,0.0,0.0,0.0,0.0,0.0,0.0,-14.816,0.0,0.0,0.0
420,0.0,0.0,0.0,0.0822109375,0.0,0.0,0.0,0.0,0.0,0.0,0.489,0.0,0.0,0.0,0.0,0.0,0.0,0.5676246012393351,0.0,0.0,0.0,0.0,0.0,0.0,-14.408,0.0,0.0,0.0
421,0.0,0.0,0.0,0.086705078125,0.0,0.0,0.0,0.0,0.0,0.0,0.434,0.0,0.0,0.0,0.0,0.0,0.0,0.557288028816253,0.0,0.0,0.0,0.0,0.0,0.0,-13.104,0.0,0.0,0.0
422,0.0,0.0,0.0,0.0919111328125,0.0,0.0,0.0,0.0,0.0,0.0,0.483,0.0,0.0,0.0,0.0,0.0,0.0,0.5455196846014134,0.0,0.0,0.0,0.0,0.0,0.0,-13.284,0.0,0.0,0.0
423,0.0,0.0,0.0,0.09684765625,0.0,0.0,0.0,0.0,0.0,0.0,0.51,0.0,0.0,0.0,0.0,0.0,0.0,0.532371784901069,0.0,0.0,0.0,0.0,0.0,0.0,-13.284,0.0,0.0,0.0
424,0.0,0.0,0.0,0.1021982421875,0.0,0.0,0.0,0.0,0.0,0.0,0.507,0.0,0.0,0.0,0.0,0.0,0.0,0.5179045597313392,0.0,0.0,0.0,0.0,0.0,0.0,-13.88,0.0,0.0,0.0
425,0.0,0.0,0.0,0.107259765625,0.0,0.0,0.0,0.0,0.0,0.0,0.532,0.0,0.0,0.0,0.0,0.0,0.0,0.5020573255844433,0.0,0.0,0.0,0.0,0.0,0.0,-14.544,0.0,0.0,0.0
426,0.0,0.0,0.0,0.1118984375,0.0,0.0,0.0,0.0,0.0,0.0,0.493,0.0,0.0,0.0,0.0,0.0,0.0,0.48485222254756866,0.0,0.0,0.0,0.0,0.0,0.0,-12.6,0.0,0.0,0.0
427,0.0,0.0,0.0,0.117123046875,0.0,0.0,0.0,0.0,0.0,0.0,0.489,0.0,0.0,0.0,0.0,0.0,0.0,0.4668361899922714,0.0,0.0,0.0,0.0,0.0,0.0,-11.82,0.0,0.0,0.0
428,0.0,0.0,0.0,0.1224736328125,0.0,0.0,0.0,0.0,0.0,0.0,0.528,0.0,0.0,0.0,0.0,0.0,0.0,0.44738111150426646,0.0,0.0,0.0,0.0,0.0,0.0,-11.868,0.0,0.0,0.0
429,0.0,0.0,0.0,0.1279775390625,0.0,0.0,0.0,0.0,0.0,0.0,0.541,0.0,0.0,0.0,0.0,0.0,0.0,0.42675727195264734,0.0,0.0,0.0,0.0,0.0,0.0,-11.64,0.0,0.0,0.0
430,0.0,0.0,0.0,0.133771484375,0.0,0.0,0.0,0.0,0.0,0.0,0.571,0.0,0.0,0.0,0.0,0.0,0.0,0.40527997583260145,0.0,0.0,0.0,0.0,0.0,0.0,-12.784,0.0,0.0,0.0
431,0.0,0.0,0.0,0.1388515625,0.0,0.0,0.0,0.0,0.0,0.0,0.554,0.0,0.0,0.0,0.0,0.0,0.0,0.38260590915339104,0.0,0.0,0.0,0.0,0.0,0.0,-12.624,0.0,0.0,0.0
432,0.0,0.0,0.0,0.14435546875,0.0,0.0,0.0,0.0,0.0,0.0,0.527,0.0,0.0,0.0,0.0,0.0,0.0,0.3587829526001478,0.0,0.0,0.0,0.0,0.0,0.0,-11.96,0.0,0.0,0.0
433,0.0,0.0,0.0,0.1498505859375,0.0,0.0,0.0,0.0,0.0,0.0,0.552,0.0,0.0,0.0,0.0,0.0,0.0,0.33453069404248376,0.0,0.0,0.0,0.0,0.0,0.0,-12.072,0.0,0.0,0.0
434,0.0,0.0,0.0,0.155796875,0.0,0.0,0.0,0.0,0.0,0.0,0.567,0.0,0.0,0.0,0.0,0.0,0.0,0.30921874030728064,0.0,0.0,0.0,0.0,0.0,0.0,-12.484,0.0,0.0,0.0
435,0.0,0.0,0.0,0.16187890625,0.0,0.0,0.0,0.0,0.0,0.0,0.606,0.0,0.0,0.0,0.0,0.0,0.0,0.28297245273784305,0.0,0.0,0.0,0.0,0.0,0.0,-13.376,0.0,0.0,0.0
436,0.0,0.0,0.0,0.1679609375,0.0,0.0,0.0,0.0,0.0,0.0,0.616,0.0,0.0,0.0,0.0,0.0,0.0,0.2564086321573142,0.0,0.0,0.0,0.0,0.0,0.0,-13.812,0.0,0.0,0.0
437,0.0,0.0,0.0,0.1741865234375,0.0,0.0,0.0,0.0,0.0,0.0,0.616,0.0,0.0,0.0,0.0,0.0,0.0,0.22898284401935487,0.0,0.0,0.0,0.0,0.0,0.0,-12.896,0.0,0.0,0.0
438,0.0,0.0,0.0,0.1799892578125,0.0,0.0,0.0,0.0,0.0,0.0,0.606,0.0,0.0,0.0,0.0,0.0,0.0,0.20042213088069524,0.0,0.0,0.0,0.0,0.0,0.0,-12.692,0.0,0.0,0.0
439,0.0,0.0,0.0,0.18621484375,0.0,0.0,0.0,0.0,0.0,0.0,0.601,0.0,0.0,0.0,0.0,0.0,0.0,0.1722424162093302,0.0,0.0,0.0,0.0,0.0,0.0,-12.644,0.0,0.0,0.0
440,0.0,0.0,0.0,0.19244140625,0.0,0.0,0.0,0.0,0.0,0.0,0.619,0.0,0.0,0.0,0.0,0.0,0.0,0.14333729831716205,0.0,0.0,0.0,0.0,0.0,0.0,-12.964,0.0,0.0,0.0
441,0.0,0.0,0.0,0.1982431640625,0.0,0.0,0.0,0.0,0.0,0.0,0.622,0.0,0.0,0.0,0.0,0.0,0.0,0.11405020563213894,0.0,0.0,0.0,0.0,0.0,0.0,-15.092,0.0,0.0,0.0
442,0.0,0.0,0.0,0.2012841796875,0.0,0.0,0.0,0.0,0.0,0.0,0.489,0.0,0.0,0.0,0.0,0.0,0.0,0.08445489639571961,0.0,0.0,0.0,0.0,0.0,0.0,-19.208,0.0,0.0,0.0
443,0.0,0.0,0.0,0.2008515625,0.0,0.0,0.0,0.0,0.0,0.0,0.153,0.0,0.0,0.0,0.0,0.0,0.0,0.05487553744391615,0.0,0.0,0.0,0.0,0.0,0.0,-21.86,0.0,0.0,0.0
444,0.0,0.0,0.0,0.1994072265625,0.0,0.0,0.0,0.0,0.0,0.0,-0.091,0.0,0.0,0.0,0.0,0.0,0.0,0.02443562194922523,0.0,0.0,0.0,0.0,0.0,0.0,-21.976,0.0,0.0,0.0
445,0.0,0.0,0.0,0.1966552734375,0.0,0.0,0.0,0.0,0.0,0.0,-0.19,0.0,0.0,0.0,0.0,0.0,0.0,-0.005158413282054434,0.0,0.0,0.0,0.0,0.0,0.0,-22.044,0.0,0.0,0.0
446,0.0,0.0,0.0,0.1928740234375,0.0,0.0,0.0,0.0,0.0,0.0,-0.339,0.0,0.0,0.0,0.0,0.0,0.0,-0.03492269256970702,0.0,0.0,0.0,0.0,0.0,0.0,-21.656,0.0,0.0,0.0
447,0.0,0.0,0.0,0.189544921875,0.0,0.0,0.0,0.0,0.0,0.0,-0.354,0.0,0.0,0.0,0.0,0.0,0.0,-0.06503611035886059,0.0,0.0,0.0,0.0,0.0,0.0,-23.988,0.0,0.0,0.0
448,0.0,0.0,0.0,0.185060546875,0.0,0.0,0.0,0.0,0.0,0.0,-0.372,0.0,0.0,0.0,0.0,0.0,0.0,-0.09460034831729935,0.0,0.0,0.0,0.0,0.0,0.0,-25.864,0.0,0.0,0.0
449,0.0,0.0,0.0,0.178978515625,0.0,0.0,0.0,0.0,0.0,0.0,-0.524,0.0,0.0,0.0,0.0,0.0,0.0,-0.12405043420575018,0.0,0.0,0.0,0.0,0.0,0.0,-25.568,0.0,0.0,0.0
450,0.0,0.0,0.0,0.172021484375,0.0,0.0,0.0,0.0,0.0,0.0,-0.651,0.0,0.0,0.0,0.0,0.0,0.0,-0.15352745729413975,0.0,0.0,0.0,0.0,0.0,0.0,-24.856,0.0,0.0,0.0
451,0.0,0.0,0.0,0.164486328125,0.0,0.0,0.0,0.0,0.0,0.0,-0.72,0.0,0.0,0.0,0.0,0.0,0.0,-0.1820964475963094,0.0,0.0,0.0,0.0,0.0,0.0,-23.464,0.0,0.0,0.0
452,0.0,0.0,0.0,0.15725,0.0,0.0,0.0,0.0,0.0,0.0,-0.758,0.0,0.0,0.0,0.0,0.0,0.0,-0.2103829932733519,0.0,0.0,0.0,0.0,0.0,0.0,-20.948,0.0,0.0,0.0
453,0.0,0.0,0.0,0.1510146484375,0.0,0.0,0.0,0.0,0.0,0.0,-0.68,0.0,0.0,0.0,0.0,0.0,0.0,-0.23835464661910397,0.0,0.0,0.0,0.0,0.0,0.0,-20.9,0.0,0.0,0.0
454,0.0,0.0,0.0,0.14348046875,0.0,0.0,0.0,0.0,0.0,0.0,-0.679,0.0,0.0,0.0,0.0,0.0,0.0,-0.26552003985781775,0.0,0.0,0.0,0.0,0.0,0.0,-20.948,0.0,0.0,0.0
455,0.0,0.0,0.0,0.13492578125,0.0,0.0,0.0,0.0,0.0,0.0,-0.801,0.0,0.0,0.0,0.0,0.0,0.0,-0.2920301772614941,0.0,0.0,0.0,0.0,0.0,0.0,-20.308,0.0,0.0,0.0
456,0.0,0.0,0.0,0.125947265625,0.0,0.0,0.0,0.0,0.0,0.0,-0.883,0.0,0.0,0.0,0.0,0.0,0.0,-0.31801392363083775,0.0,0.0,0.0,0.0,0.0,0.0,-17.928,0.0,0.0,0.0
457,0.0,0.0,0.0,0.1179892578125,0.0,0.0,0.0,0.0,0.0,0.0,-0.861,0.0,0.0,0.0,0.0,0.0,0.0,-0.3432765302971661,0.0,0.0,0.0,0.0,0.0,0.0,-15.0,0.0,0.0,0.0
458,0.0,0.0,0.0,0.11058984375,0.0,0.0,0.0,0.0,0.0,0.0,-0.77,0.0,0.0,0.0,0.0,0.0,0.0,-0.367169586670236,0.0,0.0,0.0,0.0,0.0,0.0,-15.436,0.0,0.0,0.0
459,0.0,0.0,0.0,0.1021982421875,0.0,0.0,0.0,0.0,0.0,0.0,-0.791,0.0,0.0,0.0,0.0,0.0,0.0,-0.390589002562857,0.0,0.0,0.0,0.0,0.0,0.0,-16.968,0.0,0.0,0.0
460,0.0,0.0,0.0,0.09423046875,0.0,0.0,0.0,0.0,0.0,0.0,-0.831,0.0,0.0,0.0,0.0,0.0,0.0,-0.4130296931746955,0.0,0.0,0.0,0.0,0.0,0.0,-16.352,0.0,0.0,0.0
461,0.0,0.0,0.0,0.0869931640625,0.0,0.0,0.0,0.0,0.0,0.0,-0.767,0.0,0.0,0.0,0.0,0.0,0.0,-0.4340120753998748,0.0,0.0,0.0,0.0,0.0,0.0,-14.064,0.0,0.0,0.0
462,0.0,0.0,0.0,0.0785927734375,0.0,0.0,0.0,0.0,0.0,0.0,-0.766,0.0,0.0,0.0,0.0,0.0,0.0,-0.4542814441893568,0.0,0.0,0.0,0.0,0.0,0.0,-12.576,0.0,0.0,0.0
463,0.0,0.0,0.0,0.0700390625,0.0,0.0,0.0,0.0,0.0,0.0,-0.865,0.0,0.0,0.0,0.0,0.0,0.0,-0.4734671785398371,0.0,0.0,0.0,0.0,0.0,0.0,-11.572,0.0,0.0,0.0
464,0.0,0.0,0.0,0.0628017578125,0.0,0.0,0.0,0.0,0.0,0.0,-0.8,0.0,0.0,0.0,0.0,0.0,0.0,-0.49102658248823733,0.0,0.0,0.0,0.0,0.0,0.0,-12.44,0.0,0.0,0.0
465,0.0,0.0,0.0,0.0558447265625,0.0,0.0,0.0,0.0,0.0,0.0,-0.717,0.0,0.0,0.0,0.0,0.0,0.0,-0.5076781783338904,0.0,0.0,0.0,0.0,0.0,0.0,-11.572,0.0,0.0,0.0
466,0.0,0.0,0.0,0.048455078125,0.0,0.0,0.0,0.0,0.0,0.0,-0.718,0.0,0.0,0.0,0.0,0.0,0.0,-0.5231468450684057,0.0,0.0,0.0,0.0,0.0,0.0,-12.096,0.0,0.0,0.0
467,0.0,0.0,0.0,0.0404873046875,0.0,0.0,0.0,0.0,0.0,0.0,-0.773,0.0,0.0,0.0,0.0,0.0,0.0,-0.5371111710549844,0.0,0.0,0.0,0.0,0.0,0.0,-12.6,0.0,0.0,0.0
468,0.0,0.0,0.0,0.03325,0.0,0.0,0.0,0.0,0.0,0.0,-0.78,0.0,0.0,0.0,0.0,0.0,0.0,-0.5498509772801564,0.0,0.0,0.0,0.0,0.0,0.0,-11.524,0.0,0.0,0.0
469,0.0,0.0,0.0,0.0271591796875,0.0,0.0,0.0,0.0,0.0,0.0,-0.669,0.0,0.0,0.0,0.0,0.0,0.0,-0.5614789856970916,0.0,0.0,0.0,0.0,0.0,0.0,-10.68,0.0,0.0,0.0
470,0.0,0.0,0.0,0.02035546875,0.0,0.0,0.0,0.0,0.0,0.0,-0.641,0.0,0.0,0.0,0.0,0.0,0.0,-0.5709760760478206,0.0,0.0,0.0,0.0,0.0,0.0,-10.68,0.0,0.0,0.0
471,0.0,0.0,0.0,0.0135517578125,0.0,0.0,0.0,0.0,0.0,0.0,-0.696,0.0,0.0,0.0,0.0,0.0,0.0,-0.5794373789740911,0.0,0.0,0.0,0.0,0.0,0.0,-11.34,0.0,0.0,0.0
472,0.0,0.0,0.0,0.0070283203125,0.0,0.0,0.0,0.0,0.0,0.0,-0.668,0.0,0.0,0.0,0.0,0.0,0.0,-0.5865401348201261,0.0,0.0,0.0,0.0,0.0,0.0,-12.164,0.0,0.0,0.0
473,0.0,0.0,0.0,0.0006484375,0.0,0.0,0.0,0.0,0.0,0.0,-0.652,0.0,0.0,0.0,0.0,0.0,0.0,-0.5920980285044782,0.0,0.0,0.0,0.0,0.0,0.0,-10.54,0.0,0.0,0.0
474,0.0,0.0,0.0,-0.005279296875,0.0,0.0,0.0,0.0,0.0,0.0,-0.621,0.0,0.0,0.0,0.0,0.0,0.0,-0.5962155903983145,0.0,0.0,0.0,0.0,0.0,0.0,-10.108,0.0,0.0,0.0
475,0.0,0.0,0.0,-0.0115234375,0.0,0.0,0.0,0.0,0.0,0.0,-0.611,0.0,0.0,0.0,0.0,0.0,0.0,-0.5988488961911815,0.0,0.0,0.0,0.0,0.0,0.0,-11.8,0.0,0.0,0.0
476,0.0,0.0,0.0,-0.017451171875,0.0,0.0,0.0,0.0,0.0,0.0,-0.621,0.0,0.0,0.0,0.0,0.0,0.0,-0.5999536904556875,0.0,0.0,0.0,0.0,0.0,0.0,-12.872,0.0,0.0,0.0
477,0.0,0.0,0.0,-0.0228115234375,0.0,0.0,0.0,0.0,0.0,0.0,-0.566,0.0,0.0,0.0,0.0,0.0,0.0,-0.599578701738105,0.0,0.0,0.0,0.0,0.0,0.0,-13.264,0.0,0.0,0.0
478,0.0,0.0,0.0,-0.0281708984375,0.0,0.0,0.0,0.0,0.0,0.0,-0.542,0.0,0.0,0.0,0.0,0.0,0.0,-0.5976682390166287,0.0,0.0,0.0,0.0,0.0,0.0,-12.304,0.0,0.0,0.0
479,0.0,0.0,0.0,-0.033251953125,0.0,0.0,0.0,0.0,0.0,0.0,-0.53,0.0,0.0,0.0,0.0,0.0,0.0,-0.5943271248444465,0.0,0.0,0.0,0.0,0.0,0.0,-12.304,0.0,0.0,0.0
480,0.0,0.0,0.0,-0.0383134765625,0.0,0.0,0.0,0.0,0.0,0.0,-0.504,0.0,0.0,0.0,0.0,0.0,0.0,-0.5894564768897371,0.0,0.0,0.0,0.0,0.0,0.0,-13.744,0.0,0.0,0.0
481,0.0,0.0,0.0,-0.043818359375,0.0,0.0,0.0,0.0,0.0,0.0,-0.539,0.0,0.0,0.0,0.0,0.0,0.0,-0.5830902785741369,0.0,0.0,0.0,0.0,0.0,0.0,-14.452,0.0,0.0,0.0
482,0.0,0.0,0.0,-0.048888671875,0.0,0.0,0.0,0.0,0.0,0.0,-0.537,0.0,0.0,0.0,0.0,0.0,0.0,-0.5752804551189273,0.0,0.0,0.0,0.0,0.0,0.0,-14.108,0.0,0.0,0.0
483,0.0,0.0,0.0,-0.0541044921875,0.0,0.0,0.0,0.0,0.0,0.0,-0.506,0.0,0.0,0.0,0.0,0.0,0.0,-0.5661183116282829,0.0,0.0,0.0,0.0,0.0,0.0,-13.812,0.0,0.0,0.0
484,0.0,0.0,0.0,-0.05903125,0.0,0.0,0.0,0.0,0.0,0.0,-0.523,0.0,0.0,0.0,0.0,0.0,0.0,-0.5554444828966798,0.0,0.0,0.0,0.0,0.0,0.0,-13.264,0.0,0.0,0.0
485,0.0,0.0,0.0,-0.06366015625,0.0,0.0,0.0,0.0,0.0,0.0,-0.481,0.0,0.0,0.0,0.0,0.0,0.0,-0.5433581331363075,0.0,0.0,0.0,0.0,0.0,0.0,-14.772,0.0,0.0,0.0
486,0.0,0.0,0.0,-0.0691650390625,0.0,0.0,0.0,0.0,0.0,0.0,-0.495,0.0,0.0,0.0,0.0,0.0,0.0,-0.5300208960880138,0.0,0.0,0.0,0.0,0.0,0.0,-15.868,0.0,0.0,0.0
487,0.0,0.0,0.0,-0.074533203125,0.0,0.0,0.0,0.0,0.0,0.0,-0.555,0.0,0.0,0.0,0.0,0.0,0.0,-0.5151885406222267,0.0,0.0,0.0,0.0,0.0,0.0,-15.708,0.0,0.0,0.0
488,0.0,0.0,0.0,-0.0794599609375,0.0,0.0,0.0,0.0,0.0,0.0,-0.52,0.0,0.0,0.0,0.0,0.0,0.0,-0.49928560568614344,0.0,0.0,0.0,0.0,0.0,0.0,-15.732,0.0,0.0,0.0
489,0.0,0.0,0.0,-0.0846669921875,0.0,0.0,0.0,0.0,0.0,0.0,-0.517,0.0,0.0,0.0,0.0,0.0,0.0,-0.48214797545241567,0.0,0.0,0.0,0.0,0.0,0.0,-14.956,0.0,0.0,0.0
490,0.0,0.0,0.0,-0.0893046875,0.0,0.0,0.0,0.0,0.0,0.0,-0.502,0.0,0.0,0.0,0.0,0.0,0.0,-0.4636511202603474,0.0,0.0,0.0,0.0,0.0,0.0,-15.504,0.0,0.0,0.0
491,0.0,0.0,0.0,-0.094078125,0.0,0.0,0.0,0.0,0.0,0.0,-0.458,0.0,0.0,0.0,0.0,0.0,0.0,-0.44344285837383496,0.0,0.0,0.0,0.0,0.0,0.0,-16.716,0.0,0.0,0.0
492,0.0,0.0,0.0,-0.099736328125,0.0,0.0,0.0,0.0,0.0,0.0,-0.523,0.0,0.0,0.0,0.0,0.0,0.0,-0.42315405250068233,0.0,0.0,0.0,0.0,0.0,0.0,-16.168,0.0,0.0,0.0
493,0.0,0.0,0.0,-0.105384765625,0.0,0.0,0.0,0.0,0.0,0.0,-0.569,0.0,0.0,0.0,0.0,0.0,0.0,-0.4014165794644229,0.0,0.0,0.0,0.0,0.0,0.0,-16.076,0.0,0.0,0.0
494,0.0,0.0,0.0,-0.111033203125,0.0,0.0,0.0,0.0,0.0,0.0,-0.571,0.0,0.0,0.0,0.0,0.0,0.0,-0.3785344302530967,0.0,0.0,0.0,0.0,0.0,0.0,-14.956,0.0,0.0,0.0
495,0.0,0.0,0.0,-0.1165283203125,0.0,0.0,0.0,0.0,0.0,0.0,-0.562,0.0,0.0,0.0,0.0,0.0,0.0,-0.35493046540003037,0.0,0.0,0.0,0.0,0.0,0.0,-14.956,0.0,0.0,0.0
496,0.0,0.0,0.0,-0.1217529296875,0.0,0.0,0.0,0.0,0.0,0.0,-0.54,0.0,0.0,0.0,0.0,0.0,0.0,-0.33017340642483833,0.0,0.0,0.0,0.0,0.0,0.0,-15.96,0.0,0.0,0.0
497,0.0,0.0,0.0,-0.1275458984375,0.0,0.0,0.0,0.0,0.0,0.0,-0.551,0.0,0.0,0.0,0.0,0.0,0.0,-0.3045408430831055,0.0,0.0,0.0,0.0,0.0,0.0,-16.144,0.0,0.0,0.0
498,0.0,0.0,0.0,-0.1336279296875,0.0,0.0,0.0,0.0,0.0,0.0,-0.594,0.0,0.0,0.0,0.0,0.0,0.0,-0.2785805522276657,0.0,0.0,0.0,0.0,0.0,0.0,-16.12,0.0,0.0,0.0
499,0.0,0.0,0.0,-0.1398544921875,0.0,0.0,0.0,0.0,0.0,0.0,-0.618,0.0,0.0,0.0,0.0,0.0,0.0,-0.2515673299286643,0.0,0.0,0.0,0.0,0.0,0.0,-15.572,0.0,0.0,0.0
500,0.0,0.0,0.0,-0.14580078125,0.0,0.0,0.0,0.0,0.0,0.0,-0.616,0.0,0.0,0.0,0.0,0.0,0.0,-0.22411749475144283,0.0,0.0,0.0,0.0,0.0,0.0,-14.956,0.0,0.0,0.0
501,0.0,0.0,0.0,-0.15144921875,0.0,0.0,0.0,0.0,0.0,0.0,-0.585,0.0,0.0,0.0,0.0,0.0,0.0,-0.19602588195245746,0.0,0.0,0.0,0.0,0.0,0.0,-15.068,0.0,0.0,0.0
502,0.0,0.0,0.0,-0.1570888671875,0.0,0.0,0.0,0.0,0.0,0.0,-0.567,0.0,0.0,0.0,0.0,0.0,0.0,-0.16762649811349076,0.0,0.0,0.0,0.0,0.0,0.0,-15.3,0.0,0.0,0.0
503,0.0,0.0,0.0,-0.1631708984375,0.0,0.0,0.0,0.0,0.0,0.0,-0.583,0.0,0.0,0.0,0.0,0.0,0.0,-0.13838419425871826,0.0,0.0,0.0,0.0,0.0,0.0,-15.504,0.0,0.0,0.0
504,0.0,0.0,0.0,-0.1696943359375,0.0,0.0,0.0,0.0,0.0,0.0,-0.637,0.0,0.0,0.0,0.0,0.0,0.0,-0.10921161582696645,0.0,0.0,0.0,0.0,0.0,0.0,-14.588,0.0,0.0,0.0
505,0.0,0.0,0.0,-0.1750546875,0.0,0.0,0.0,0.0,0.0,0.0,-0.622,0.0,0.0,0.0,0.0,0.0,0.0,-0.07968075996536209,0.0,0.0,0.0,0.0,0.0,0.0,-11.708,0.0,0.0,0.0
506,0.0,0.0,0.0,-0.1770849609375,0.0,0.0,0.0,0.0,0.0,0.0,-0.417,0.0,0.0,0.0,0.0,0.0,0.0,-0.04950077720480354,0.0,0.0,0.0,0.0,0.0,0.0,-7.796,0.0,0.0,0.0
507,0.0,0.0,0.0,-0.1765068359375,0.0,0.0,0.0,0.0,0.0,0.0,-0.085,0.0,0.0,0.0,0.0,0.0,0.0,-0.01985391520424923,0.0,0.0,0.0,0.0,0.0,0.0,-7.18,0.0,0.0,0.0
508,0.0,0.0,0.0,-0.1750546875,0.0,0.0,0.0,0.0,0.0,0.0,0.09,0.0,0.0,0.0,0.0,0.0,0.0,0.010112626933440977,0.0,0.0,0.0,0.0,0.0,0.0,-6.928,0.0,0.0,0.0
509,0.0,0.0,0.0,-0.171869140625,0.0,0.0,0.0,0.0,0.0,0.0,0.22,0.0,0.0,0.0,0.0,0.0,0.0,9.870529130283416e-05,0.0,0.0,0.0,0.0,0.0,0.0,-7.524,0.0,0.0,0.0
510,0.0,0.0,0.0,-0.168828125,0.0,0.0,0.0,0.0,0.0,0.0,0.322,0.0,0.0,0.0,0.0,0.0,0.0,0.029274518802004764,0.0,0.0,0.0,0.0,0.0,0.0,-6.88,0.0,0.0,0.0
511,0.0,0.0,0.0,-0.1649208984375,0.0,0.0,0.0,0.0,0.0,0.0,0.323,0.0,0.0,0.0,0.0,0.0,0.0,0.059192538816752745,0.0,0.0,0.0,0.0,0.0,0.0,-3.908,0.0,0.0,0.0
512,0.0,0.0,0.0,-0.159552734375,0.0,0.0,0.0,0.0,0.0,0.0,0.465,0.0,0.0,0.0,0.0,0.0,0.0,0.08911112105874382,0.0,0.0,0.0,0.0,0.0,0.0,-4.252,0.0,0.0,0.0
513,0.0,0.0,0.0,-0.153470703125,0.0,0.0,0.0,0.0,0.0,0.0,0.56,0.0,0.0,0.0,0.0,0.0,0.0,0.11844290724198221,0.0,0.0,0.0,0.0,0.0,0.0,-4.776,0.0,0.0,0.0
514,0.0,0.0,0.0,-0.14565625,0.0,0.0,0.0,0.0,0.0,0.0,0.68,0.0,0.0,0.0,0.0,0.0,0.0,0.1478461616628483,0.0,0.0,0.0,0.0,0.0,0.0,-5.716,0.0,0.0,0.0
515,0.0,0.0,0.0,-0.137390625,0.0,0.0,0.0,0.0,0.0,0.0,0.815,0.0,0.0,0.0,0.0,0.0,0.0,0.17689919485665653,0.0,0.0,0.0,0.0,0.0,0.0,-6.356,0.0,0.0,0.0
516,0.0,0.0,0.0,-0.130009765625,0.0,0.0,0.0,0.0,0.0,0.0,0.794,0.0,0.0,0.0,0.0,0.0,0.0,0.20518879111829763,0.0,0.0,0.0,0.0,0.0,0.0,-6.86,0.0,0.0,0.0
517,0.0,0.0,0.0,-0.1232060546875,0.0,0.0,0.0,0.0,0.0,0.0,0.714,0.0,0.0,0.0,0.0,0.0,0.0,0.23309267681860305,0.0,0.0,0.0,0.0,0.0,0.0,-7.704,0.0,0.0,0.0
518,0.0,0.0,0.0,-0.1153740234375,0.0,0.0,0.0,0.0,0.0,0.0,0.714,0.0,0.0,0.0,0.0,0.0,0.0,0.26084447404132904,0.0,0.0,0.0,0.0,0.0,0.0,-7.064,0.0,0.0,0.0
519,0.0,0.0,0.0,-0.1061064453125,0.0,0.0,0.0,0.0,0.0,0.0,0.861,0.0,0.0,0.0,0.0,0.0,0.0,0.2871942330695205,0.0,0.0,0.0,0.0,0.0,0.0,-7.5,0.0,0.0,0.0
520,0.0,0.0,0.0,-0.0978505859375,0.0,0.0,0.0,0.0,0.0,0.0,0.901,0.0,0.0,0.0,0.0,0.0,0.0,0.3130264814998528,0.0,0.0,0.0,0.0,0.0,0.0,-10.86,0.0,0.0,0.0
521,0.0,0.0,0.0,-0.0907490234375,0.0,0.0,0.0,0.0,0.0,0.0,0.771,0.0,0.0,0.0,0.0,0.0,0.0,0.3383051063929265,0.0,0.0,0.0,0.0,0.0,0.0,-12.872,0.0,0.0,0.0
522,0.0,0.0,0.0,-0.0819150390625,0.0,0.0,0.0,0.0,0.0,0.0,0.788,0.0,0.0,0.0,0.0,0.0,0.0,0.3626005846708824,0.0,0.0,0.0,0.0,0.0,0.0,-13.676,0.0,0.0,0.0
523,0.0,0.0,0.0,-0.073513671875,0.0,0.0,0.0,0.0,0.0,0.0,0.883,0.0,0.0,0.0,0.0,0.0,0.0,0.38619321403304724,0.0,0.0,0.0,0.0,0.0,0.0,-13.056,0.0,0.0,0.0
524,0.0,0.0,0.0,-0.066556640625,0.0,0.0,0.0,0.0,0.0,0.0,0.774,0.0,0.0,0.0,0.0,0.0,0.0,0.4085614610226679,0.0,0.0,0.0,0.0,0.0,0.0,-12.736,0.0,0.0,0.0
525,0.0,0.0,0.0,-0.0585986328125,0.0,0.0,0.0,0.0,0.0,0.0,0.728,0.0,0.0,0.0,0.0,0.0,0.0,0.4299700840801633,0.0,0.0,0.0,0.0,0.0,0.0,-14.636,0.0,0.0,0.0
526,0.0,0.0,0.0,-0.0500439453125,0.0,0.0,0.0,0.0,0.0,0.0,0.838,0.0,0.0,0.0,0.0,0.0,0.0,0.4503404481066071,0.0,0.0,0.0,0.0,0.0,0.0,-16.488,0.0,0.0,0.0
527,0.0,0.0,0.0,-0.0422294921875,0.0,0.0,0.0,0.0,0.0,0.0,0.828,0.0,0.0,0.0,0.0,0.0,0.0,0.4697405091765246,0.0,0.0,0.0,0.0,0.0,0.0,-15.848,0.0,0.0,0.0
528,0.0,0.0,0.0,-0.0355615234375,0.0,0.0,0.0,0.0,0.0,0.0,0.743,0.0,0.0,0.0,0.0,0.0,0.0,0.48777340784474815,0.0,0.0,0.0,0.0,0.0,0.0,-17.152,0.0,0.0,0.0
529,0.0,0.0,0.0,-0.0288935546875,0.0,0.0,0.0,0.0,0.0,0.0,0.658,0.0,0.0,0.0,0.0,0.0,0.0,0.5044946938284063,0.0,0.0,0.0,0.0,0.0,0.0,-17.264,0.0,0.0,0.0
530,0.0,0.0,0.0,-0.0207900390625,0.0,0.0,0.0,0.0,0.0,0.0,0.737,0.0,0.0,0.0,0.0,0.0,0.0,0.5202478077834881,0.0,0.0,0.0,0.0,0.0,0.0,-18.18,0.0,0.0,0.0
531,0.0,0.0,0.0,-0.013255859375,0.0,0.0,0.0,0.0,0.0,0.0,0.799,0.0,0.0,0.0,0.0,0.0,0.0,0.5344477587727892,0.0,0.0,0.0,0.0,0.0,0.0,-18.616,0.0,0.0,0.0
532,0.0,0.0,0.0,-0.0065869140625,0.0,0.0,0.0,0.0,0.0,0.0,0.712,0.0,0.0,0.0,0.0,0.0,0.0,0.5473760783492969,0.0,0.0,0.0,0.0,0.0,0.0,-19.164,0.0,0.0,0.0
533,0.0,0.0,0.0,0.0002158203125,0.0,0.0,0.0,0.0,0.0,0.0,0.673,0.0,0.0,0.0,0.0,0.0,0.0,0.5590200218522285,0.0,0.0,0.0,0.0,0.0,0.0,-18.888,0.0,0.0,0.0
534,0.0,0.0,0.0,0.0071728515625,0.0,0.0,0.0,0.0,0.0,0.0,0.691,0.0,0.0,0.0,0.0,0.0,0.0,0.5693074936969703,0.0,0.0,0.0,0.0,0.0,0.0,-18.132,0.0,0.0,0.0
535,0.0,0.0,0.0,0.0138408203125,0.0,0.0,0.0,0.0,0.0,0.0,0.683,0.0,0.0,0.0,0.0,0.0,0.0,0.5779506560339167,0.0,0.0,0.0,0.0,0.0,0.0,-17.036,0.0,0.0,0.0
536,0.0,0.0,0.0,0.0200673828125,0.0,0.0,0.0,0.0,0.0,0.0,0.659,0.0,0.0,0.0,0.0,0.0,0.0,0.5853175419330005,0.0,0.0,0.0,0.0,0.0,0.0,-17.996,0.0,0.0,0.0
537,0.0,0.0,0.0,0.0258603515625,0.0,0.0,0.0,0.0,0.0,0.0,0.608,0.0,0.0,0.0,0.0,0.0,0.0,0.5912080793883705,0.0,0.0,0.0,0.0,0.0,0.0,-18.704,0.0,0.0,0.0
538,0.0,0.0,0.0,0.03223046875,0.0,0.0,0.0,0.0,0.0,0.0,0.601,0.0,0.0,0.0,0.0,0.0,0.0,0.5955722721441549,0.0,0.0,0.0,0.0,0.0,0.0,-17.836,0.0,0.0,0.0
539,0.0,0.0,0.0,0.0380322265625,0.0,0.0,0.0,0.0,0.0,0.0,0.629,0.0,0.0,0.0,0.0,0.0,0.0,0.598458539944666,0.0,0.0,0.0,0.0,0.0,0.0,-17.564,0.0,0.0,0.0
540,0.0,0.0,0.0,0.0433837890625,0.0,0.0,0.0,0.0,0.0,0.0,0.558,0.0,0.0,0.0,0.0,0.0,0.0,0.599862527811719,0.0,0.0,0.0,0.0,0.0,0.0,-16.168,0.0,0.0,0.0
541,0.0,0.0,0.0,0.0488876953125,0.0,0.0,0.0,0.0,0.0,0.0,0.546,0.0,0.0,0.0,0.0,0.0,0.0,0.5997642456382039,0.0,0.0,0.0,0.0,0.0,0.0,-17.356,0.0,0.0,0.0
542,0.0,0.0,0.0,0.053814453125,0.0,0.0,0.0,0.0,0.0,0.0,0.535,0.0,0.0,0.0,0.0,0.0,0.0,0.5981535099368179,0.0,0.0,0.0,0.0,0.0,0.0,-16.832,0.0,0.0,0.0
543,0.0,0.0,0.0,0.059328125,0.0,0.0,0.0,0.0,0.0,0.0,0.513,0.0,0.0,0.0,0.0,0.0,0.0,0.5948771892201677,0.0,0.0,0.0,0.0,0.0,0.0,-14.408,0.0,0.0,0.0
544,0.0,0.0,0.0,0.0648232421875,0.0,0.0,0.0,0.0,0.0,0.0,0.564,0.0,0.0,0.0,0.0,0.0,0.0,0.5905433719732972,0.0,0.0,0.0,0.0,0.0,0.0,-14.316,0.0,0.0,0.0
545,0.0,0.0,0.0,0.0694609375,0.0,0.0,0.0,0.0,0.0,0.0,0.506,0.0,0.0,0.0,0.0,0.0,0.0,0.5844113507445062,0.0,0.0,0.0,0.0,0.0,0.0,-13.972,0.0,0.0,0.0
546,0.0,0.0,0.0,0.0745322265625,0.0,0.0,0.0,0.0,0.0,0.0,0.48,0.0,0.0,0.0,0.0,0.0,0.0,0.5768955283163899,0.0,0.0,0.0,0.0,0.0,0.0,-14.816,0.0,0.0,0.0
547,0.0,0.0,0.0,0.0790263671875,0.0,0.0,0.0,0.0,0.0,0.0,0.491,0.0,0.0,0.0,0.0,0.0,0.0,0.5680510857908971,0.0,0.0,0.0,0.0,0.0,0.0,-14.704,0.0,0.0,0.0
548,0.0,0.0,0.0,0.083375,0.0,0.0,0.0,0.0,0.0,0.0,0.444,0.0,0.0,0.0,0.0,0.0,0.0,0.557614216665986,0.0,0.0,0.0,0.0,0.0,0.0,-12.644,0.0,0.0,0.0
549,0.0,0.0,0.0,0.0887265625,0.0,0.0,0.0,0.0,0.0,0.0,0.479,0.0,0.0,0.0,0.0,0.0,0.0,0.5457356863033208,0.0,0.0,0.0,0.0,0.0,0.0,-12.624,0.0,0.0,0.0
550,0.0,0.0,0.0,0.093796875,0.0,0.0,0.0,0.0,0.0,0.0,0.524,0.0,0.0,0.0,0.0,0.0,0.0,0.5326621239563888,0.0,0.0,0.0,0.0,0.0,0.0,-13.264,0.0,0.0,0.0
551,0.0,0.0,0.0,0.0988779296875,0.0,0.0,0.0,0.0,0.0,0.0,0.506,0.0,0.0,0.0,0.0,0.0,0.0,0.5182220752558655,0.0,0.0,0.0,0.0,0.0,0.0,-13.72,0.0,0.0,0.0
552,0.0,0.0,0.0,0.1039306640625,0.0,0.0,0.0,0.0,0.0,0.0,0.517,0.0,0.0,0.0,0.0,0.0,0.0,0.5024873179893642,0.0,0.0,0.0,0.0,0.0,0.0,-14.612,0.0,0.0,0.0
553,0.0,0.0,0.0,0.108568359375,0.0,0.0,0.0,0.0,0.0,0.0,0.488,0.0,0.0,0.0,0.0,0.0,0.0,0.4856074006786278,0.0,0.0,0.0,0.0,0.0,0.0,-13.216,0.0,0.0,0.0
554,0.0,0.0,0.0,0.1139287109375,0.0,0.0,0.0,0.0,0.0,0.0,0.497,0.0,0.0,0.0,0.0,0.0,0.0,0.4673542589822531,0.0,0.0,0.0,0.0,0.0,0.0,-11.616,0.0,0.0,0.0
555,0.0,0.0,0.0,0.1192880859375,0.0,0.0,0.0,0.0,0.0,0.0,0.539,0.0,0.0,0.0,0.0,0.0,0.0,0.44767077515844983,0.0,0.0,0.0,0.0,0.0,0.0,-11.592,0.0,0.0,0.0
556,0.0,0.0,0.0,0.1249375,0.0,0.0,0.0,0.0,0.0,0.0,0.552,0.0,0.0,0.0,0.0,0.0,0.0,0.4274003236702472,0.0,0.0,0.0,0.0,0.0,0.0,-11.98,0.0,0.0,0.0
557,0.0,0.0,0.0,0.1305859375,0.0,0.0,0.0,0.0,0.0,0.0,0.572,0.0,0.0,0.0,0.0,0.0,0.0,0.40585294403133043,0.0,0.0,0.0,0.0,0.0,0.0,-12.668,0.0,0.0,0.0
558,0.0,0.0,0.0,0.135810546875,0.0,0.0,0.0,0.0,0.0,0.0,0.548,0.0,0.0,0.0,0.0,0.0,0.0,0.3829474026383946,0.0,0.0,0.0,0.0,0.0,0.0,-12.736,0.0,0.0,0.0
559,0.0,0.0,0.0,0.1411611328125,0.0,0.0,0.0,0.0,0.0,0.0,0.531,0.0,0.0,0.0,0.0,0.0,0.0,0.3597367728431009,0.0,0.0,0.0,0.0,0.0,0.0,-11.708,0.0,0.0,0.0
560,0.0,0.0,0.0,0.1468095703125,0.0,0.0,0.0,0.0,0.0,0.0,0.557,0.0,0.0,0.0,0.0,0.0,0.0,0.33521261513717676,0.0,0.0,0.0,0.0,0.0,0.0,-11.98,0.0,0.0,0.0
561,0.0,0.0,0.0,0.1527470703125,0.0,0.0,0.0,0.0,0.0,0.0,0.576,0.0,0.0,0.0,0.0,0.0,0.0,0.30981738597280123,0.0,0.0,0.0,0.0,0.0,0.0,-12.372,0.0,0.0,0.0
562,0.0,0.0,0.0,0.158982421875,0.0,0.0,0.0,0.0,0.0,0.0,0.611,0.0,0.0,0.0,0.0,0.0,0.0,0.2838474954195385,0.0,0.0,0.0,0.0,0.0,0.0,-13.604,0.0,0.0,0.0
563,0.0,0.0,0.0,0.164919921875,0.0,0.0,0.0,0.0,0.0,0.0,0.615,0.0,0.0,0.0,0.0,0.0,0.0,0.2571190842779587,0.0,0.0,0.0,0.0,0.0,0.0,-14.224,0.0,0.0,0.0
564,0.0,0.0,0.0,0.171001953125,0.0,0.0,0.0,0.0,0.0,0.0,0.606,0.0,0.0,0.0,0.0,0.0,0.0,0.22957573704987855,0.0,0.0,0.0,0.0,0.0,0.0,-13.584,0.0,0.0,0.0
565,0.0,0.0,0.0,0.1772373046875,0.0,0.0,0.0,0.0,0.0,0.0,0.616,0.0,0.0,0.0,0.0,0.0,0.0,0.2016291142295323,0.0,0.0,0.0,0.0,0.0,0.0,-12.44,0.0,0.0,0.0
566,0.0,0.0,0.0,0.183318359375,0.0,0.0,0.0,0.0,0.0,0.0,0.618,0.0,0.0,0.0,0.0,0.0,0.0,0.1731849507309143,0.0,0.0,0.0,0.0,0.0,0.0,-12.576,0.0,0.0,0.0
567,0.0,0.0,0.0,0.189689453125,0.0,0.0,0.0,0.0,0.0,0.0,0.627,0.0,0.0,0.0,0.0,0.0,0.0,0.1439373096757257,0.0,0.0,0.0,0.0,0.0,0.0,-13.172,0.0,0.0,0.0
568,0.0,0.0,0.0,0.1956357421875,0.0,0.0,0.0,0.0,0.0,0.0,0.632,0.0,0.0,0.0,0.0,0.0,0.0,0.11448624992937774,0.0,0.0,0.0,0.0,0.0,0.0,-14.612,0.0,0.0,0.0
569,0.0,0.0,0.0,0.1986767578125,0.0,0.0,0.0,0.0,0.0,0.0,0.501,0.0,0.0,0.0,0.0,0.0,0.0,0.08514456246851208,0.0,0.0,0.0,0.0,0.0,0.0,-19.14,0.0,0.0,0.0
570,0.0,0.0,0.0,0.197955078125,0.0,0.0,0.0,0.0,0.0,0.0,0.134,0.0,0.0,0.0,0.0,0.0,0.0,0.05544959195159451,0.0,0.0,0.0,0.0,0.0,0.0,-21.404,0.0,0.0,0.0
571,0.0,0.0,0.0,0.1967998046875,0.0,0.0,0.0,0.0,0.0,0.0,-0.097,0.0,0.0,0.0,0.0,0.0,0.0,0.025514721890308244,0.0,0.0,0.0,0.0,0.0,0.0,-22.044,0.0,0.0,0.0
572,0.0,0.0,0.0,0.19375,0.0,0.0,0.0,0.0,0.0,0.0,-0.181,0.0,0.0,0.0,0.0,0.0,0.0,-0.004696373668456758,0.0,0.0,0.0,0.0,0.0,0.0,-22.136,0.0,0.0,0.0
573,0.0,0.0,0.0,0.1899775390625,0.0,0.0,0.0,0.0,0.0,0.0,-0.349,0.0,0.0,0.0,0.0,0.0,0.0,-0.03473703967593508,0.0,0.0,0.0,0.0,0.0,0.0,-21.404,0.0,0.0,0.0
574,0.0,0.0,0.0,0.18679296875,0.0,0.0,0.0,0.0,0.0,0.0,-0.354,0.0,0.0,0.0,0.0,0.0,0.0,-0.0641657266430339,0.0,0.0,0.0,0.0,0.0,0.0,-24.172,0.0,0.0,0.0
575,0.0,0.0,0.0,0.181875,0.0,0.0,0.0,0.0,0.0,0.0,-0.385,0.0,0.0,0.0,0.0,0.0,0.0,-0.09384452036570429,0.0,0.0,0.0,0.0,0.0,0.0,-26.276,0.0,0.0,0.0
576,0.0,0.0,0.0,0.1756484375,0.0,0.0,0.0,0.0,0.0,0.0,-0.557,0.0,0.0,0.0,0.0,0.0,0.0,-0.12378309711373145,0.0,0.0,0.0,0.0,0.0,0.0,-25.132,0.0,0.0,0.0
577,0.0,0.0,0.0,0.169125,0.0,0.0,0.0,0.0,0.0,0.0,-0.634,0.0,0.0,0.0,0.0,0.0,0.0,-0.15263738851303263,0.0,0.0,0.0,0.0,0.0,0.0,-24.812,0.0,0.0,0.0
578,0.0,0.0,0.0,0.1614462890625,0.0,0.0,0.0,0.0,0.0,0.0,-0.706,0.0,0.0,0.0,0.0,0.0,0.0,-0.18147002202391152,0.0,0.0,0.0,0.0,0.0,0.0,-23.304,0.0,0.0,0.0
579,0.0,0.0,0.0,0.1542001953125,0.0,0.0,0.0,0.0,0.0,0.0,-0.767,0.0,0.0,0.0,0.0,0.0,0.0,-0.20989660719481582,0.0,0.0,0.0,0.0,0.0,0.0,-20.968,0.0,0.0,0.0
580,0.0,0.0,0.0,0.1478291015625,0.0,0.0,0.0,0.0,0.0,0.0,-0.679,0.0,0.0,0.0,0.0,0.0,0.0,-0.23762780974029982,0.0,0.0,0.0,0.0,0.0,0.0,-21.36,0.0,0.0,0.0
581,0.0,0.0,0.0,0.140150390625,0.0,0.0,0.0,0.0,0.0,0.0,-0.694,0.0,0.0,0.0,0.0,0.0,0.0,-0.2651056122257315,0.0,0.0,0.0,0.0,0.0,0.0,-20.696,0.0,0.0,0.0
582,0.0,0.0,0.0,0.1317412109375,0.0,0.0,0.0,0.0,0.0,0.0,-0.807,0.0,0.0,0.0,0.0,0.0,0.0,-0.29164458522249165,0.0,0.0,0.0,0.0,0.0,0.0,-20.056,0.0,0.0,0.0
583,0.0,0.0,0.0,0.1229072265625,0.0,0.0,0.0,0.0,0.0,0.0,-0.869,0.0,0.0,0.0,0.0,0.0,0.0,-0.3173567924216521,0.0,0.0,0.0,0.0,0.0,0.0,-18.044,0.0,0.0,0.0
584,0.0,0.0,0.0,0.114794921875,0.0,0.0,0.0,0.0,0.0,0.0,-0.871,0.0,0.0,0.0,0.0,0.0,0.0,-0.3423431765317793,0.0,0.0,0.0,0.0,0.0,0.0,-15.0,0.0,0.0,0.0
585,0.0,0.0,0.0,0.107548828125,0.0,0.0,0.0,0.0,0.0,0.0,-0.765,0.0,0.0,0.0,0.0,0.0,0.0,-0.3667870586136381,0.0,0.0,0.0,0.0,0.0,0.0,-15.824,0.0,0.0,0.0
586,0.0,0.0,0.0,0.099021484375,0.0,0.0,0.0,0.0,0.0,0.0,-0.785,0.0,0.0,0.0,0.0,0.0,0.0,-0.3897685218330996,0.0,0.0,0.0,0.0,0.0,0.0,-16.944,0.0,0.0,0.0
587,0.0,0.0,0.0,0.091189453125,0.0,0.0,0.0,0.0,0.0,0.0,-0.842,0.0,0.0,0.0,0.0,0.0,0.0,-0.4120080613105904,0.0,0.0,0.0,0.0,0.0,0.0,-15.64,0.0,0.0,0.0
588,0.0,0.0,0.0,0.083953125,0.0,0.0,0.0,0.0,0.0,0.0,-0.747,0.0,0.0,0.0,0.0,0.0,0.0,-0.43347537086708177,0.0,0.0,0.0,0.0,0.0,0.0,-14.36,0.0,0.0,0.0
589,0.0,0.0,0.0,0.0754072265625,0.0,0.0,0.0,0.0,0.0,0.0,-0.78,0.0,0.0,0.0,0.0,0.0,0.0,-0.45352600008719407,0.0,0.0,0.0,0.0,0.0,0.0,-12.096,0.0,0.0,0.0
590,0.0,0.0,0.0,0.067142578125,0.0,0.0,0.0,0.0,0.0,0.0,-0.864,0.0,0.0,0.0,0.0,0.0,0.0,-0.4725664297402912,0.0,0.0,0.0,0.0,0.0,0.0,-11.96,0.0,0.0,0.0
591,0.0,0.0,0.0,0.0597607421875,0.0,0.0,0.0,0.0,0.0,0.0,-0.792,0.0,0.0,0.0,0.0,0.0,0.0,-0.49066953370893474,0.0,0.0,0.0,0.0,0.0,0.0,-12.348,0.0,0.0,0.0
592,0.0,0.0,0.0,0.052794921875,0.0,0.0,0.0,0.0,0.0,0.0,-0.73,0.0,0.0,0.0,0.0,0.0,0.0,-0.5072156169827816,0.0,0.0,0.0,0.0,0.0,0.0,-11.364,0.0,0.0,0.0
593,0.0,0.0,0.0,0.0455576171875,0.0,0.0,0.0,0.0,0.0,0.0,-0.705,0.0,0.0,0.0,0.0,0.0,0.0,-0.5225686490389423,0.0,0.0,0.0,0.0,0.0,0.0,-12.324,0.0,0.0,0.0
594,0.0,0.0,0.0,0.0374462890625,0.0,0.0,0.0,0.0,0.0,0.0,-0.769,0.0,0.0,0.0,0.0,0.0,0.0,-0.5367015414323693,0.0,0.0,0.0,0.0,0.0,0.0,-12.668,0.0,0.0,0.0
595,0.0,0.0,0.0,0.0303447265625,0.0,0.0,0.0,0.0,0.0,0.0,-0.785,0.0,0.0,0.0,0.0,0.0,0.0,-0.549454043943535,0.0,0.0,0.0,0.0,0.0,0.0,-11.34,0.0,0.0,0.0
596,0.0,0.0,0.0,0.0242626953125,0.0,0.0,0.0,0.0,0.0,0.0,-0.656,0.0,0.0,0.0,0.0,0.0,0.0,-0.5607749175608235,0.0,0.0,0.0,0.0,0.0,0.0,-10.86,0.0,0.0,0.0
597,0.0,0.0,0.0,0.017314453125,0.0,0.0,0.0,0.0,0.0,0.0,-0.656,0.0,0.0,0.0,0.0,0.0,0.0,-0.5707812646689513,0.0,0.0,0.0,0.0,0.0,0.0,-10.632,0.0,0.0,0.0
598,0.0,0.0,0.0,0.010646484375,0.0,0.0,0.0,0.0,0.0,0.0,-0.698,0.0,0.0,0.0,0.0,0.0,0.0,-0.5794178815518877,0.0,0.0,0.0,0.0,0.0,0.0,-11.296,0.0,0.0,0.0
599,0.0,0.0,0.0,0.0039873046875,0.0,0.0,0.0,0.0,0.0,0.0,-0.657,0.0,0.0,0.0,0.0,0.0,0.0,-0.5863919452658592,0.0,0.0,0.0,0.0,0.0,0.0,-12.304,0.0,0.0,0.0
600,0.0,0.0,0.0,-0.0023916015625,0.0,0.0,0.0,0.0,0.0,0.0,-0.667,0.0,0.0,0.0,0.0,0.0,0.0,-0.592035776223634,0.0,0.0,0.0,0.0,0.0,0.0,-10.084,0.0,0.0,0.0
601,0.0,0.0,0.0,-0.00817578125,0.0,0.0,0.0,0.0,0.0,0.0,-0.615,0.0,0.0,0.0,0.0,0.0,0.0,-0.5961882709446831,0.0,0.0,0.0,0.0,0.0,0.0,-10.38,0.0,0.0,0.0
602,0.0,0.0,0.0,-0.0147080078125,0.0,0.0,0.0,0.0,0.0,0.0,-0.609,0.0,0.0,0.0,0.0,0.0,0.0,-0.5987960935714363,0.0,0.0,0.0,0.0,0.0,0.0,-11.936,0.0,0.0,0.0
603,0.0,0.0,0.0,-0.02034765625,0.0,0.0,0.0,0.0,0.0,0.0,-0.63,0.0,0.0,0.0,0.0,0.0,0.0,-0.5999460210423267,0.0,0.0,0.0,0.0,0.0,0.0,-12.896,0.0,0.0,0.0
604,0.0,0.0,0.0,-0.0257080078125,0.0,0.0,0.0,0.0,0.0,0.0,-0.549,0.0,0.0,0.0,0.0,0.0,0.0,-0.5995832985701304,0.0,0.0,0.0,0.0,0.0,0.0,-13.56,0.0,0.0,0.0
605,0.0,0.0,0.0,-0.0312216796875,0.0,0.0,0.0,0.0,0.0,0.0,-0.555,0.0,0.0,0.0,0.0,0.0,0.0,-0.5977582594842265,0.0,0.0,0.0,0.0,0.0,0.0,-12.072,0.0,0.0,0.0
606,0.0,0.0,0.0,-0.035994140625,0.0,0.0,0.0,0.0,0.0,0.0,-0.521,0.0,0.0,0.0,0.0,0.0,0.0,-0.5944005774643888,0.0,0.0,0.0,0.0,0.0,0.0,-12.484,0.0,0.0,0.0
607,0.0,0.0,0.0,-0.0414990234375,0.0,0.0,0.0,0.0,0.0,0.0,-0.509,0.0,0.0,0.0,0.0,0.0,0.0,-0.5895731003852495,0.0,0.0,0.0,0.0,0.0,0.0,-14.084,0.0,0.0,0.0
608,0.0,0.0,0.0,-0.0468583984375,0.0,0.0,0.0,0.0,0.0,0.0,-0.561,0.0,0.0,0.0,0.0,0.0,0.0,-0.5833144689715992,0.0,0.0,0.0,0.0,0.0,0.0,-14.016,0.0,0.0,0.0
609,0.0,0.0,0.0,-0.05178515625,0.0,0.0,0.0,0.0,0.0,0.0,-0.515,0.0,0.0,0.0,0.0,0.0,0.0,-0.57560592471313,0.0,0.0,0.0,0.0,0.0,0.0,-14.636,0.0,0.0,0.0
610,0.0,0.0,0.0,-0.0572900390625,0.0,0.0,0.0,0.0,0.0,0.0,-0.522,0.0,0.0,0.0,0.0,0.0,0.0,-0.5662631767641553,0.0,0.0,0.0,0.0,0.0,0.0,-13.356,0.0,0.0,0.0
611,0.0,0.0,0.0,-0.061927734375,0.0,0.0,0.0,0.0,0.0,0.0,-0.52,0.0,0.0,0.0,0.0,0.0,0.0,-0.5558056786228753,0.0,0.0,0.0,0.0,0.0,0.0,-13.376,0.0,0.0,0.0
612,0.0,0.0,0.0,-0.066701171875,0.0,0.0,0.0,0.0,0.0,0.0,-0.465,0.0,0.0,0.0,0.0,0.0,0.0,-0.5438355843184906,0.0,0.0,0.0,0.0,0.0,0.0,-15.228,0.0,0.0,0.0
613,0.0,0.0,0.0,-0.072349609375,0.0,0.0,0.0,0.0,0.0,0.0,-0.522,0.0,0.0,0.0,0.0,0.0,0.0,-0.5303634379417571,0.0,0.0,0.0,0.0,0.0,0.0,-16.028,0.0,0.0,0.0
614,0.0,0.0,0.0,-0.0774296875,0.0,0.0,0.0,0.0,0.0,0.0,-0.543,0.0,0.0,0.0,0.0,0.0,0.0,-0.5157321579739201,0.0,0.0,0.0,0.0,0.0,0.0,-16.168,0.0,0.0,0.0
615,0.0,0.0,0.0,-0.0825009765625,0.0,0.0,0.0,0.0,0.0,0.0,-0.509,0.0,0.0,0.0,0.0,0.0,0.0,-0.49979076181910015,0.0,0.0,0.0,0.0,0.0,0.0,-15.48,0.0,0.0,0.0
616,0.0,0.0,0.0,-0.0875634765625,0.0,0.0,0.0,0.0,0.0,0.0,-0.524,0.0,0.0,0.0,0.0,0.0,0.0,-0.4822190607930593,0.0,0.0,0.0,0.0,0.0,0.0,-14.476,0.0,0.0,0.0
617,0.0,0.0,0.0,-0.0919130859375,0.0,0.0,0.0,0.0,0.0,0.0,-0.472,0.0,0.0,0.0,0.0,0.0,0.0,-0.4640771157036142,0.0,0.0,0.0,0.0,0.0,0.0,-16.1,0.0,0.0,0.0
618,0.0,0.0,0.0,-0.0971279296875,0.0,0.0,0.0,0.0,0.0,0.0,-0.473,0.0,0.0,0.0,0.0,0.0,0.0,-0.4446007614929846,0.0,0.0,0.0,0.0,0.0,0.0,-16.624,0.0,0.0,0.0
619,0.0,0.0,0.0,-0.10277734375,0.0,0.0,0.0,0.0,0.0,0.0,-0.55,0.0,0.0,0.0,0.0,0.0,0.0,-0.423728190234292,0.0,0.0,0.0,0.0,0.0,0.0,-16.144,0.0,0.0,0.0
620,0.0,0.0,0.0,-0.10828125,0.0,0.0,0.0,0.0,0.0,0.0,-0.56,0.0,0.0,0.0,0.0,0.0,0.0,-0.4019425886535298,0.0,0.0,0.0,0.0,0.0,0.0,-15.8,0.0,0.0,0.0
621,0.0,0.0,0.0,-0.11407421875,0.0,0.0,0.0,0.0,0.0,0.0,-0.57,0.0,0.0,0.0,0.0,0.0,0.0,-0.37923933272764837,0.0,0.0,0.0,0.0,0.0,0.0,-14.704,0.0,0.0,0.0
622,0.0,0.0,0.0,-0.1194345703125,0.0,0.0,0.0,0.0,0.0,0.0,-0.564,0.0,0.0,0.0,0.0,0.0,0.0,-0.3555610596564747,0.0,0.0,0.0,0.0,0.0,0.0,-15.136,0.0,0.0,0.0
623,0.0,0.0,0.0,-0.1246494140625,0.0,0.0,0.0,0.0,0.0,0.0,-0.525,0.0,0.0,0.0,0.0,0.0,0.0,-0.3308521422131897,0.0,0.0,0.0,0.0,0.0,0.0,-16.12,0.0,0.0,0.0
624,0.0,0.0,0.0,-0.1305869140625,0.0,0.0,0.0,0.0,0.0,0.0,-0.561,0.0,0.0,0.0,0.0,0.0,0.0,-0.30562604294076834,0.0,0.0,0.0,0.0,0.0,0.0,-16.028,0.0,0.0,0.0
625,0.0,0.0,0.0,-0.1366689453125,0.0,0.0,0.0,0.0,0.0,0.0,-0.608,0.0,0.0,0.0,0.0,0.0,0.0,-0.27933475292826954,0.0,0.0,0.0,0.0,0.0,0.0,-16.44,0.0,0.0,0.0
626,0.0,0.0,0.0,-0.142759765625,0.0,0.0,0.0,0.0,0.0,0.0,-0.613,0.0,0.0,0.0,0.0,0.0,0.0,-0.25226971746720867,0.0,0.0,0.0,0.0,0.0,0.0,-15.368,0.0,0.0,0.0
627,0.0,0.0,0.0,-0.148697265625,0.0,0.0,0.0,0.0,0.0,0.0,-0.609,0.0,0.0,0.0,0.0,0.0,0.0,-0.22494328570542488,0.0,0.0,0.0,0.0,0.0,0.0,-14.888,0.0,0.0,0.0
628,0.0,0.0,0.0,-0.154345703125,0.0,0.0,0.0,0.0,0.0,0.0,-0.578,0.0,0.0,0.0,0.0,0.0,0.0,-0.1964767158515636,0.0,0.0,0.0,0.0,0.0,0.0,-15.184,0.0,0.0,0.0
629,0.0,0.0,0.0,-0.1599853515625,0.0,0.0,0.0,0.0,0.0,0.0,-0.565,0.0,0.0,0.0,0.0,0.0,0.0,-0.16817927489357318,0.0,0.0,0.0,0.0,0.0,0.0,-15.436,0.0,0.0,0.0
630,0.0,0.0,0.0,-0.166365234375,0.0,0.0,0.0,0.0,0.0,0.0,-0.604,0.0,0.0,0.0,0.0,0.0,0.0,-0.1394258431080501,0.0,0.0,0.0,0.0,0.0,0.0,-15.344,0.0,0.0,0.0
631,0.0,0.0,0.0,-0.1727353515625,0.0,0.0,0.0,0.0,0.0,0.0,-0.649,0.0,0.0,0.0,0.0,0.0,0.0,-0.10991976747089259,0.0,0.0,0.0,0.0,0.0,0.0,-13.996,0.0,0.0,0.0
632,0.0,0.0,0.0,-0.177951171875,0.0,0.0,0.0,0.0,0.0,0.0,-0.601,0.0,0.0,0.0,0.0,0.0,0.0,-0.07994305278827028,0.0,0.0,0.0,0.0,0.0,0.0,-11.272,0.0,0.0,0.0
633,0.0,0.0,0.0,-0.17939453125,0.0,0.0,0.0,0.0,0.0,0.0,-0.381,0.0,0.0,0.0,0.0,0.0,0.0,-0.0504010091349101,0.0,0.0,0.0,0.0,0.0,0.0,-7.5,0.0,0.0,0.0
634,0.0,0.0,0.0,-0.1785283203125,0.0,0.0,0.0,0.0,0.0,0.0,-0.035,0.0,0.0,0.0,0.0,0.0,0.0,-0.020585206182125063,0.0,0.0,0.0,0.0,0.0,0.0,-7.66,0.0,0.0,0.0
635,0.0,0.0,0.0,-0.1770849609375,0.0,0.0,0.0,0.0,0.0,0.0,0.099,0.0,0.0,0.0,0.0,0.0,0.0,0.00963204015878908,0.0,0.0,0.0,0.0,0.0,0.0,-6.952,0.0,0.0,0.0
636,0.0,0.0,0.0,-0.1736103515625,0.0,0.0,0.0,0.0,0.0,0.0,0.23,0.0,0.0,0.0,0.0,0.0,0.0,2.074241637770428e-05,0.0,0.0,0.0,0.0,0.0,0.0,-7.34,0.0,0.0,0.0
637,0.0,0.0,0.0,-0.1705703125,0.0,0.0,0.0,0.0,0.0,0.0,0.348,0.0,0.0,0.0,0.0,0.0,0.0,0.03026607086072252,0.0,0.0,0.0,0.0,0.0,0.0,-6.7,0.0,0.0,0.0
638,0.0,0.0,0.0,-0.1666533203125,0.0,0.0,0.0,0.0,0.0,0.0,0.322,0.0,0.0,0.0,0.0,0.0,0.0,0.060141248504466255,0.0,0.0,0.0,0.0,0.0,0.0,-3.636,0.0,0.0,0.0
639,0.0,0.0,0.0,-0.1610048828125,0.0,0.0,0.0,0.0,0.0,0.0,0.475,0.0,0.0,0.0,0.0,0.0,0.0,0.08976039034336689,0.0,0.0,0.0,0.0,0.0,0.0,-4.296,0.0,0.0,0.0
640,0.0,0.0,0.0,-0.154634765625,0.0,0.0,0.0,0.0,0.0,0.0,0.593,0.0,0.0,0.0,0.0,0.0,0.0,0.1193192516353531,0.0,0.0,0.0,0.0,0.0,0.0,-5.008,0.0,0.0,0.0
641,0.0,0.0,0.0,-0.1468115234375,0.0,0.0,0.0,0.0,0.0,0.0,0.693,0.0,0.0,0.0,0.0,0.0,0.0,0.14871249877845796,0.0,0.0,0.0,0.0,0.0,0.0,-5.624,0.0,0.0,0.0
642,0.0,0.0,0.0,-0.1384013671875,0.0,0.0,0.0,0.0,0.0,0.0,0.82,0.0,0.0,0.0,0.0,0.0,0.0,0.17741240384434698,0.0,0.0,0.0,0.0,0.0,0.0,-6.652,0.0,0.0,0.0
643,0.0,0.0,0.0,-0.13130859375,0.0,0.0,0.0,0.0,0.0,0.0,0.791,0.0,0.0,0.0,0.0,0.0,0.0,0.2061106795092245,0.0,0.0,0.0,0.0,0.0,0.0,-7.132,0.0,0.0,0.0
644,0.0,0.0,0.0,-0.1245048828125,0.0,0.0,0.0,0.0,0.0,0.0,0.695,0.0,0.0,0.0,0.0,0.0,0.0,0.2339906881876607,0.0,0.0,0.0,0.0,0.0,0.0,-7.452,0.0,0.0,0.0
645,0.0,0.0,0.0,-0.116240234375,0.0,0.0,0.0,0.0,0.0,0.0,0.734,0.0,0.0,0.0,0.0,0.0,0.0,0.26112205858788773,0.0,0.0,0.0,0.0,0.0,0.0,-7.156,0.0,0.0,0.0
646,0.0,0.0,0.0,-0.1071171875,0.0,0.0,0.0,0.0,0.0,0.0,0.874,0.0,0.0,0.0,0.0,0.0,0.0,0.2877736993498299,0.0,0.0,0.0,0.0,0.0,0.0,-7.592,0.0,0.0,0.0
647,0.0,0.0,0.0,-0.099158203125,0.0,0.0,0.0,0.0,0.0,0.0,0.88,0.0,0.0,0.0,0.0,0.0,0.0,0.3138474083235644,0.0,0.0,0.0,0.0,0.0,0.0,-11.068,0.0,0.0,0.0
648,0.0,0.0,0.0,-0.0917685546875,0.0,0.0,0.0,0.0,0.0,0.0,0.769,0.0,0.0,0.0,0.0,0.0,0.0,0.33893630842601247,0.0,0.0,0.0,0.0,0.0,0.0,-13.012,0.0,0.0,0.0
649,0.0,0.0,0.0,-0.0829345703125,0.0,0.0,0.0,0.0,0.0,0.0,0.801,0.0,0.0,0.0,0.0,0.0,0.0,0.3631331843225226,0.0,0.0,0.0,0.0,0.0,0.0,-13.652,0.0,0.0,0.0
650,0.0,0.0,0.0,-0.074677734375,0.0,0.0,0.0,0.0,0.0,0.0,0.874,0.0,0.0,0.0,0.0,0.0,0.0,0.3868885111596233,0.0,0.0,0.0,0.0,0.0,0.0,-12.92,0.0,0.0,0.0
651,0.0,0.0,0.0,-0.067865234375,0.0,0.0,0.0,0.0,0.0,0.0,0.764,0.0,0.0,0.0,0.0,0.0,0.0,0.40909963349173734,0.0,0.0,0.0,0.0,0.0,0.0,-13.332,0.0,0.0,0.0
652,0.0,0.0,0.0,-0.0597529296875,0.0,0.0,0.0,0.0,0.0,0.0,0.73,0.0,0.0,0.0,0.0,0.0,0.0,0.4305369011190881,0.0,0.0,0.0,0.0,0.0,0.0,-14.52,0.0,0.0,0.0
653,0.0,0.0,0.0,-0.0597529296875,0.0,0.0,0.0,0.0,0.0,0.0,0.73,0.0,0.0,0.0,0.0,0.0,0.0,0.4509444266592732,0.0,0.0,0.0,0.0,0.0,0.0,-14.52,0.0,0.0,0.0
654,0.0,0.0,0.0,-0.043673828125,0.0,0.0,0.0,0.0,0.0,0.0,0.822,0.0,0.0,0.0,0.0,0.0,0.0,0.470197165708689,0.0,0.0,0.0,0.0,0.0,0.0,-15.868,0.0,0.0,0.0
655,0.0,0.0,0.0,-0.0368701171875,0.0,0.0,0.0,0.0,0.0,0.0,0.717,0.0,0.0,0.0,0.0,0.0,0.0,0.4881030676632221,0.0,0.0,0.0,0.0,0.0,0.0,-17.332,0.0,0.0,0.0
656,0.0,0.0,0.0,-0.0299130859375,0.0,0.0,0.0,0.0,0.0,0.0,0.679,0.0,0.0,0.0,0.0,0.0,0.0,0.5050039794150815,0.0,0.0,0.0,0.0,0.0,0.0,-17.424,0.0,0.0,0.0
657,0.0,0.0,0.0,-0.0219453125,0.0,0.0,0.0,0.0,0.0,0.0,0.743,0.0,0.0,0.0,0.0,0.0,0.0,0.5205881104258862,0.0,0.0,0.0,0.0,0.0,0.0,-18.064,0.0,0.0,0.0
658,0.0,0.0,0.0,-0.01441015625,0.0,0.0,0.0,0.0,0.0,0.0,0.793,0.0,0.0,0.0,0.0,0.0,0.0,0.5347896514831119,0.0,0.0,0.0,0.0,0.0,0.0,-18.82,0.0,0.0,0.0
659,0.0,0.0,0.0,-0.00788671875,0.0,0.0,0.0,0.0,0.0,0.0,0.711,0.0,0.0,0.0,0.0,0.0,0.0,0.547743960788155,0.0,0.0,0.0,0.0,0.0,0.0,-19.484,0.0,0.0,0.0
660,0.0,0.0,0.0,-0.0010830078125,0.0,0.0,0.0,0.0,0.0,0.0,0.661,0.0,0.0,0.0,0.0,0.0,0.0,0.5593744279049908,0.0,0.0,0.0,0.0,0.0,0.0,-18.568,0.0,0.0,0.0
661,0.0,0.0,0.0,0.0060087890625,0.0,0.0,0.0,0.0,0.0,0.0,0.707,0.0,0.0,0.0,0.0,0.0,0.0,0.5694520875071256,0.0,0.0,0.0,0.0,0.0,0.0,-17.836,0.0,0.0,0.0
662,0.0,0.0,0.0,0.0123876953125,0.0,0.0,0.0,0.0,0.0,0.0,0.686,0.0,0.0,0.0,0.0,0.0,0.0,0.5782543244368603,0.0,0.0,0.0,0.0,0.0,0.0,-16.9,0.0,0.0,0.0
663,0.0,0.0,0.0,0.0187587890625,0.0,0.0,0.0,0.0,0.0,0.0,0.64,0.0,0.0,0.0,0.0,0.0,0.0,0.5854753276777784,0.0,0.0,0.0,0.0,0.0,0.0,-18.044,0.0,0.0,0.0
664,0.0,0.0,0.0,0.02483984375,0.0,0.0,0.0,0.0,0.0,0.0,0.623,0.0,0.0,0.0,0.0,0.0,0.0,0.591261676323731,0.0,0.0,0.0,0.0,0.0,0.0,-19.256,0.0,0.0,0.0
665,0.0,0.0,0.0,0.030921875,0.0,0.0,0.0,0.0,0.0,0.0,0.603,0.0,0.0,0.0,0.0,0.0,0.0,0.5956314000837033,0.0,0.0,0.0,0.0,0.0,0.0,-17.24,0.0,0.0,0.0
666,0.0,0.0,0.0,0.0370126953125,0.0,0.0,0.0,0.0,0.0,0.0,0.624,0.0,0.0,0.0,0.0,0.0,0.0,0.5985075881148848,0.0,0.0,0.0,0.0,0.0,0.0,-17.332,0.0,0.0,0.0
667,0.0,0.0,0.0,0.042083984375,0.0,0.0,0.0,0.0,0.0,0.0,0.565,0.0,0.0,0.0,0.0,0.0,0.0,0.5998694355942186,0.0,0.0,0.0,0.0,0.0,0.0,-16.58,0.0,0.0,0.0
668,0.0,0.0,0.0,0.047587890625,0.0,0.0,0.0,0.0,0.0,0.0,0.522,0.0,0.0,0.0,0.0,0.0,0.0,0.5997390674818147,0.0,0.0,0.0,0.0,0.0,0.0,-17.448,0.0,0.0,0.0
669,0.0,0.0,0.0,0.052794921875,0.0,0.0,0.0,0.0,0.0,0.0,0.55,0.0,0.0,0.0,0.0,0.0,0.0,0.598103838162906,0.0,0.0,0.0,0.0,0.0,0.0,-17.06,0.0,0.0,0.0
