EmanuelSamir/lab201_ws_projsamir/sawyer_dev/data/sawyer/vel_acel_ns/test_joint4/validation_data_15.csv
,j1,j2,j3,j4,j5,j6,j7,v1,v2,v3,v4,v5,v6,v7,jd1,jd2,jd3,jd4,jd5,jd6,jd7,e1,e2,e3,e4,e5,e6,e7
0,0.0,0.0,0.0,0.0,0.0,0.0,0.0,0.0,0.0,0.0,0.0,0.0,0.0,0.0,0.0,0.0,0.0,0.0,0.0,0.0,0.0,0.0,0.0,0.0,0.0,0.0,0.0,0.0
1,0.0,0.0,0.0,-0.0041240234375,0.0,0.0,0.0,0.0,0.0,0.0,-0.001,0.0,0.0,0.0,0.0,0.0,0.0,7.724761941550274e-05,0.0,0.0,0.0,0.0,0.0,0.0,-14.016,0.0,0.0,0.0
2,0.0,0.0,0.0,-0.0041240234375,0.0,0.0,0.0,0.0,0.0,0.0,-0.001,0.0,0.0,0.0,0.0,0.0,0.0,0.010031638016011604,0.0,0.0,0.0,0.0,0.0,0.0,-14.016,0.0,0.0,0.0
3,0.0,0.0,0.0,-0.0041240234375,0.0,0.0,0.0,0.0,0.0,0.0,-0.001,0.0,0.0,0.0,0.0,0.0,0.0,0.01889679221097949,0.0,0.0,0.0,0.0,0.0,0.0,-14.016,0.0,0.0,0.0
4,0.0,0.0,0.0,-0.0041240234375,0.0,0.0,0.0,0.0,0.0,0.0,-0.001,0.0,0.0,0.0,0.0,0.0,0.0,0.027895214360661932,0.0,0.0,0.0,0.0,0.0,0.0,-13.996,0.0,0.0,0.0
5,0.0,0.0,0.0,-0.0039794921875,0.0,0.0,0.0,0.0,0.0,0.0,0.006,0.0,0.0,0.0,0.0,0.0,0.0,0.03701949523207551,0.0,0.0,0.0,0.0,0.0,0.0,-13.652,0.0,0.0,0.0
6,0.0,0.0,0.0,-0.00296875,0.0,0.0,0.0,0.0,0.0,0.0,0.044,0.0,0.0,0.0,0.0,0.0,0.0,0.04691304185497417,0.0,0.0,0.0,0.0,0.0,0.0,-12.004,0.0,0.0,0.0
7,0.0,0.0,0.0,-0.000505859375,0.0,0.0,0.0,0.0,0.0,0.0,0.163,0.0,0.0,0.0,0.0,0.0,0.0,0.05479467666972294,0.0,0.0,0.0,0.0,0.0,0.0,-11.252,0.0,0.0,0.0
8,0.0,0.0,0.0,0.0026787109375,0.0,0.0,0.0,0.0,0.0,0.0,0.273,0.0,0.0,0.0,0.0,0.0,0.0,0.06382480798433537,0.0,0.0,0.0,0.0,0.0,0.0,-10.22,0.0,0.0,0.0
9,0.0,0.0,0.0,0.00673046875,0.0,0.0,0.0,0.0,0.0,0.0,0.355,0.0,0.0,0.0,0.0,0.0,0.0,0.07269571763413266,0.0,0.0,0.0,0.0,0.0,0.0,-10.312,0.0,0.0,0.0
10,0.0,0.0,0.0,0.0113681640625,0.0,0.0,0.0,0.0,0.0,0.0,0.436,0.0,0.0,0.0,0.0,0.0,0.0,0.08168679336710706,0.0,0.0,0.0,0.0,0.0,0.0,-10.38,0.0,0.0,0.0
11,0.0,0.0,0.0,0.0163037109375,0.0,0.0,0.0,0.0,0.0,0.0,0.476,0.0,0.0,0.0,0.0,0.0,0.0,0.0906744893854558,0.0,0.0,0.0,0.0,0.0,0.0,-9.352,0.0,0.0,0.0
12,0.0,0.0,0.0,0.0215107421875,0.0,0.0,0.0,0.0,0.0,0.0,0.506,0.0,0.0,0.0,0.0,0.0,0.0,0.09942388217972765,0.0,0.0,0.0,0.0,0.0,0.0,-9.216,0.0,0.0,0.0
13,0.0,0.0,0.0,0.027880859375,0.0,0.0,0.0,0.0,0.0,0.0,0.576,0.0,0.0,0.0,0.0,0.0,0.0,0.10838965798159148,0.0,0.0,0.0,0.0,0.0,0.0,-9.308,0.0,0.0,0.0
14,0.0,0.0,0.0,0.027880859375,0.0,0.0,0.0,0.0,0.0,0.0,0.576,0.0,0.0,0.0,0.0,0.0,0.0,0.11718843652529508,0.0,0.0,0.0,0.0,0.0,0.0,-9.308,0.0,0.0,0.0
15,0.0,0.0,0.0,0.0412177734375,0.0,0.0,0.0,0.0,0.0,0.0,0.667,0.0,0.0,0.0,0.0,0.0,0.0,0.1260131189570626,0.0,0.0,0.0,0.0,0.0,0.0,-11.204,0.0,0.0,0.0
16,0.0,0.0,0.0,0.048021484375,0.0,0.0,0.0,0.0,0.0,0.0,0.683,0.0,0.0,0.0,0.0,0.0,0.0,0.13481272006311854,0.0,0.0,0.0,0.0,0.0,0.0,-10.884,0.0,0.0,0.0
17,0.0,0.0,0.0,0.054689453125,0.0,0.0,0.0,0.0,0.0,0.0,0.673,0.0,0.0,0.0,0.0,0.0,0.0,0.14356980228058794,0.0,0.0,0.0,0.0,0.0,0.0,-10.084,0.0,0.0,0.0
18,0.0,0.0,0.0,0.062080078125,0.0,0.0,0.0,0.0,0.0,0.0,0.698,0.0,0.0,0.0,0.0,0.0,0.0,0.1522231637842215,0.0,0.0,0.0,0.0,0.0,0.0,-10.036,0.0,0.0,0.0
19,0.0,0.0,0.0,0.06931640625,0.0,0.0,0.0,0.0,0.0,0.0,0.746,0.0,0.0,0.0,0.0,0.0,0.0,0.16089904210965456,0.0,0.0,0.0,0.0,0.0,0.0,-11.32,0.0,0.0,0.0
20,0.0,0.0,0.0,0.0761298828125,0.0,0.0,0.0,0.0,0.0,0.0,0.698,0.0,0.0,0.0,0.0,0.0,0.0,0.16960530338759872,0.0,0.0,0.0,0.0,0.0,0.0,-11.844,0.0,0.0,0.0
21,0.0,0.0,0.0,0.083375,0.0,0.0,0.0,0.0,0.0,0.0,0.707,0.0,0.0,0.0,0.0,0.0,0.0,0.17820694778364446,0.0,0.0,0.0,0.0,0.0,0.0,-12.804,0.0,0.0,0.0
22,0.0,0.0,0.0,0.0901787109375,0.0,0.0,0.0,0.0,0.0,0.0,0.704,0.0,0.0,0.0,0.0,0.0,0.0,0.18683508263664902,0.0,0.0,0.0,0.0,0.0,0.0,-12.532,0.0,0.0,0.0
23,0.0,0.0,0.0,0.0974248046875,0.0,0.0,0.0,0.0,0.0,0.0,0.707,0.0,0.0,0.0,0.0,0.0,0.0,0.1955092961799951,0.0,0.0,0.0,0.0,0.0,0.0,-13.604,0.0,0.0,0.0
24,0.0,0.0,0.0,0.1040751953125,0.0,0.0,0.0,0.0,0.0,0.0,0.707,0.0,0.0,0.0,0.0,0.0,0.0,0.20383493355481733,0.0,0.0,0.0,0.0,0.0,0.0,-15.16,0.0,0.0,0.0
25,0.0,0.0,0.0,0.1113203125,0.0,0.0,0.0,0.0,0.0,0.0,0.694,0.0,0.0,0.0,0.0,0.0,0.0,0.21226034480605302,0.0,0.0,0.0,0.0,0.0,0.0,-14.796,0.0,0.0,0.0
26,0.0,0.0,0.0,0.11827734375,0.0,0.0,0.0,0.0,0.0,0.0,0.718,0.0,0.0,0.0,0.0,0.0,0.0,0.22068347574595423,0.0,0.0,0.0,0.0,0.0,0.0,-14.428,0.0,0.0,0.0
27,0.0,0.0,0.0,0.1252255859375,0.0,0.0,0.0,0.0,0.0,0.0,0.702,0.0,0.0,0.0,0.0,0.0,0.0,0.22896755444701128,0.0,0.0,0.0,0.0,0.0,0.0,-14.336,0.0,0.0,0.0
28,0.0,0.0,0.0,0.1317412109375,0.0,0.0,0.0,0.0,0.0,0.0,0.683,0.0,0.0,0.0,0.0,0.0,0.0,0.23725801245514547,0.0,0.0,0.0,0.0,0.0,0.0,-15.048,0.0,0.0,0.0
29,0.0,0.0,0.0,0.1381201171875,0.0,0.0,0.0,0.0,0.0,0.0,0.639,0.0,0.0,0.0,0.0,0.0,0.0,0.24553936755697664,0.0,0.0,0.0,0.0,0.0,0.0,-14.956,0.0,0.0,0.0
30,0.0,0.0,0.0,0.1450771484375,0.0,0.0,0.0,0.0,0.0,0.0,0.674,0.0,0.0,0.0,0.0,0.0,0.0,0.25366282670098783,0.0,0.0,0.0,0.0,0.0,0.0,-15.368,0.0,0.0,0.0
31,0.0,0.0,0.0,0.1514482421875,0.0,0.0,0.0,0.0,0.0,0.0,0.669,0.0,0.0,0.0,0.0,0.0,0.0,0.2617918416129772,0.0,0.0,0.0,0.0,0.0,0.0,-15.16,0.0,0.0,0.0
32,0.0,0.0,0.0,0.1582607421875,0.0,0.0,0.0,0.0,0.0,0.0,0.662,0.0,0.0,0.0,0.0,0.0,0.0,0.269911564974789,0.0,0.0,0.0,0.0,0.0,0.0,-16.672,0.0,0.0,0.0
33,0.0,0.0,0.0,0.1643427734375,0.0,0.0,0.0,0.0,0.0,0.0,0.659,0.0,0.0,0.0,0.0,0.0,0.0,0.27788610705970107,0.0,0.0,0.0,0.0,0.0,0.0,-17.792,0.0,0.0,0.0
34,0.0,0.0,0.0,0.170712890625,0.0,0.0,0.0,0.0,0.0,0.0,0.613,0.0,0.0,0.0,0.0,0.0,0.0,0.2858090145865937,0.0,0.0,0.0,0.0,0.0,0.0,-16.488,0.0,0.0,0.0
35,0.0,0.0,0.0,0.177380859375,0.0,0.0,0.0,0.0,0.0,0.0,0.658,0.0,0.0,0.0,0.0,0.0,0.0,0.29373458630901167,0.0,0.0,0.0,0.0,0.0,0.0,-15.64,0.0,0.0,0.0
36,0.0,0.0,0.0,0.183318359375,0.0,0.0,0.0,0.0,0.0,0.0,0.636,0.0,0.0,0.0,0.0,0.0,0.0,0.3015068672042808,0.0,0.0,0.0,0.0,0.0,0.0,-14.84,0.0,0.0,0.0
37,0.0,0.0,0.0,0.189544921875,0.0,0.0,0.0,0.0,0.0,0.0,0.611,0.0,0.0,0.0,0.0,0.0,0.0,0.309243119163056,0.0,0.0,0.0,0.0,0.0,0.0,-15.344,0.0,0.0,0.0
38,0.0,0.0,0.0,0.195193359375,0.0,0.0,0.0,0.0,0.0,0.0,0.601,0.0,0.0,0.0,0.0,0.0,0.0,0.3169671950861532,0.0,0.0,0.0,0.0,0.0,0.0,-15.504,0.0,0.0,0.0
39,0.0,0.0,0.0,0.2008515625,0.0,0.0,0.0,0.0,0.0,0.0,0.572,0.0,0.0,0.0,0.0,0.0,0.0,0.3245849740808758,0.0,0.0,0.0,0.0,0.0,0.0,-14.656,0.0,0.0,0.0
40,0.0,0.0,0.0,0.2065,0.0,0.0,0.0,0.0,0.0,0.0,0.567,0.0,0.0,0.0,0.0,0.0,0.0,0.3321196607343876,0.0,0.0,0.0,0.0,0.0,0.0,-13.88,0.0,0.0,0.0
41,0.0,0.0,0.0,0.211859375,0.0,0.0,0.0,0.0,0.0,0.0,0.553,0.0,0.0,0.0,0.0,0.0,0.0,0.33954419773830286,0.0,0.0,0.0,0.0,0.0,0.0,-13.924,0.0,0.0,0.0
42,0.0,0.0,0.0,0.21765234375,0.0,0.0,0.0,0.0,0.0,0.0,0.56,0.0,0.0,0.0,0.0,0.0,0.0,0.34695534746841283,0.0,0.0,0.0,0.0,0.0,0.0,-14.544,0.0,0.0,0.0
43,0.0,0.0,0.0,0.2230126953125,0.0,0.0,0.0,0.0,0.0,0.0,0.564,0.0,0.0,0.0,0.0,0.0,0.0,0.3542694504912289,0.0,0.0,0.0,0.0,0.0,0.0,-15.32,0.0,0.0,0.0
44,0.0,0.0,0.0,0.228228515625,0.0,0.0,0.0,0.0,0.0,0.0,0.534,0.0,0.0,0.0,0.0,0.0,0.0,0.3620216198821566,0.0,0.0,0.0,0.0,0.0,0.0,-14.908,0.0,0.0,0.0
45,0.0,0.0,0.0,0.233876953125,0.0,0.0,0.0,0.0,0.0,0.0,0.54,0.0,0.0,0.0,0.0,0.0,0.0,0.36867938269326095,0.0,0.0,0.0,0.0,0.0,0.0,-13.696,0.0,0.0,0.0
46,0.0,0.0,0.0,0.239236328125,0.0,0.0,0.0,0.0,0.0,0.0,0.566,0.0,0.0,0.0,0.0,0.0,0.0,0.3767545409442762,0.0,0.0,0.0,0.0,0.0,0.0,-13.172,0.0,0.0,0.0
47,0.0,0.0,0.0,0.2445966796875,0.0,0.0,0.0,0.0,0.0,0.0,0.533,0.0,0.0,0.0,0.0,0.0,0.0,0.3826533304954203,0.0,0.0,0.0,0.0,0.0,0.0,-12.852,0.0,0.0,0.0
48,0.0,0.0,0.0,0.2501005859375,0.0,0.0,0.0,0.0,0.0,0.0,0.545,0.0,0.0,0.0,0.0,0.0,0.0,0.3904784617455768,0.0,0.0,0.0,0.0,0.0,0.0,-13.284,0.0,0.0,0.0
49,0.0,0.0,0.0,0.2553251953125,0.0,0.0,0.0,0.0,0.0,0.0,0.549,0.0,0.0,0.0,0.0,0.0,0.0,0.39629873035891183,0.0,0.0,0.0,0.0,0.0,0.0,-13.216,0.0,0.0,0.0
50,0.0,0.0,0.0,0.2606767578125,0.0,0.0,0.0,0.0,0.0,0.0,0.524,0.0,0.0,0.0,0.0,0.0,0.0,0.40308747790009797,0.0,0.0,0.0,0.0,0.0,0.0,-12.392,0.0,0.0,0.0
51,0.0,0.0,0.0,0.2661806640625,0.0,0.0,0.0,0.0,0.0,0.0,0.547,0.0,0.0,0.0,0.0,0.0,0.0,0.4096727804745626,0.0,0.0,0.0,0.0,0.0,0.0,-12.508,0.0,0.0,0.0
52,0.0,0.0,0.0,0.271541015625,0.0,0.0,0.0,0.0,0.0,0.0,0.543,0.0,0.0,0.0,0.0,0.0,0.0,0.41617092238221615,0.0,0.0,0.0,0.0,0.0,0.0,-12.644,0.0,0.0,0.0
53,0.0,0.0,0.0,0.2770537109375,0.0,0.0,0.0,0.0,0.0,0.0,0.541,0.0,0.0,0.0,0.0,0.0,0.0,0.42265674567845063,0.0,0.0,0.0,0.0,0.0,0.0,-12.896,0.0,0.0,0.0
54,0.0,0.0,0.0,0.28255859375,0.0,0.0,0.0,0.0,0.0,0.0,0.563,0.0,0.0,0.0,0.0,0.0,0.0,0.4289466732605594,0.0,0.0,0.0,0.0,0.0,0.0,-13.628,0.0,0.0,0.0
55,0.0,0.0,0.0,0.2881982421875,0.0,0.0,0.0,0.0,0.0,0.0,0.556,0.0,0.0,0.0,0.0,0.0,0.0,0.43520780552797184,0.0,0.0,0.0,0.0,0.0,0.0,-13.924,0.0,0.0,0.0
56,0.0,0.0,0.0,0.29414453125,0.0,0.0,0.0,0.0,0.0,0.0,0.572,0.0,0.0,0.0,0.0,0.0,0.0,0.44136932691256536,0.0,0.0,0.0,0.0,0.0,0.0,-13.08,0.0,0.0,0.0
57,0.0,0.0,0.0,0.2999375,0.0,0.0,0.0,0.0,0.0,0.0,0.594,0.0,0.0,0.0,0.0,0.0,0.0,0.4478672472172637,0.0,0.0,0.0,0.0,0.0,0.0,-12.508,0.0,0.0,0.0
58,0.0,0.0,0.0,0.30573046875,0.0,0.0,0.0,0.0,0.0,0.0,0.584,0.0,0.0,0.0,0.0,0.0,0.0,0.45339566308095397,0.0,0.0,0.0,0.0,0.0,0.0,-12.464,0.0,0.0,0.0
59,0.0,0.0,0.0,0.31166796875,0.0,0.0,0.0,0.0,0.0,0.0,0.587,0.0,0.0,0.0,0.0,0.0,0.0,0.45920900762035366,0.0,0.0,0.0,0.0,0.0,0.0,-12.464,0.0,0.0,0.0
60,0.0,0.0,0.0,0.3174697265625,0.0,0.0,0.0,0.0,0.0,0.0,0.593,0.0,0.0,0.0,0.0,0.0,0.0,0.46508391223858353,0.0,0.0,0.0,0.0,0.0,0.0,-12.532,0.0,0.0,0.0
61,0.0,0.0,0.0,0.3232626953125,0.0,0.0,0.0,0.0,0.0,0.0,0.583,0.0,0.0,0.0,0.0,0.0,0.0,0.470554439544846,0.0,0.0,0.0,0.0,0.0,0.0,-12.44,0.0,0.0,0.0
62,0.0,0.0,0.0,0.3293447265625,0.0,0.0,0.0,0.0,0.0,0.0,0.598,0.0,0.0,0.0,0.0,0.0,0.0,0.4761066251837272,0.0,0.0,0.0,0.0,0.0,0.0,-12.372,0.0,0.0,0.0
63,0.0,0.0,0.0,0.3351376953125,0.0,0.0,0.0,0.0,0.0,0.0,0.596,0.0,0.0,0.0,0.0,0.0,0.0,0.48245008229979053,0.0,0.0,0.0,0.0,0.0,0.0,-12.804,0.0,0.0,0.0
64,0.0,0.0,0.0,0.3410751953125,0.0,0.0,0.0,0.0,0.0,0.0,0.586,0.0,0.0,0.0,0.0,0.0,0.0,0.48695145191648803,0.0,0.0,0.0,0.0,0.0,0.0,-13.376,0.0,0.0,0.0
65,0.0,0.0,0.0,0.3471572265625,0.0,0.0,0.0,0.0,0.0,0.0,0.609,0.0,0.0,0.0,0.0,0.0,0.0,0.492869053104259,0.0,0.0,0.0,0.0,0.0,0.0,-13.788,0.0,0.0,0.0
66,0.0,0.0,0.0,0.353248046875,0.0,0.0,0.0,0.0,0.0,0.0,0.612,0.0,0.0,0.0,0.0,0.0,0.0,0.4978274085773865,0.0,0.0,0.0,0.0,0.0,0.0,-14.108,0.0,0.0,0.0
67,0.0,0.0,0.0,0.3596181640625,0.0,0.0,0.0,0.0,0.0,0.0,0.625,0.0,0.0,0.0,0.0,0.0,0.0,0.5022245237997468,0.0,0.0,0.0,0.0,0.0,0.0,-13.4,0.0,0.0,0.0
68,0.0,0.0,0.0,0.3658447265625,0.0,0.0,0.0,0.0,0.0,0.0,0.631,0.0,0.0,0.0,0.0,0.0,0.0,0.5070916398365265,0.0,0.0,0.0,0.0,0.0,0.0,-12.988,0.0,0.0,0.0
69,0.0,0.0,0.0,0.377873046875,0.0,0.0,0.0,0.0,0.0,0.0,0.61,0.0,0.0,0.0,0.0,0.0,0.0,0.5129479120463865,0.0,0.0,0.0,0.0,0.0,0.0,-13.012,0.0,0.0,0.0
70,0.0,0.0,0.0,0.377873046875,0.0,0.0,0.0,0.0,0.0,0.0,0.61,0.0,0.0,0.0,0.0,0.0,0.0,0.5170879893413104,0.0,0.0,0.0,0.0,0.0,0.0,-13.012,0.0,0.0,0.0
71,0.0,0.0,0.0,0.3838095703125,0.0,0.0,0.0,0.0,0.0,0.0,0.603,0.0,0.0,0.0,0.0,0.0,0.0,0.5210033501882088,0.0,0.0,0.0,0.0,0.0,0.0,-12.988,0.0,0.0,0.0
72,0.0,0.0,0.0,0.389900390625,0.0,0.0,0.0,0.0,0.0,0.0,0.604,0.0,0.0,0.0,0.0,0.0,0.0,0.5253952522360513,0.0,0.0,0.0,0.0,0.0,0.0,-12.804,0.0,0.0,0.0
73,0.0,0.0,0.0,0.4017666015625,0.0,0.0,0.0,0.0,0.0,0.0,0.592,0.0,0.0,0.0,0.0,0.0,0.0,0.5309758758582036,0.0,0.0,0.0,0.0,0.0,0.0,-13.264,0.0,0.0,0.0
74,0.0,0.0,0.0,0.4017666015625,0.0,0.0,0.0,0.0,0.0,0.0,0.592,0.0,0.0,0.0,0.0,0.0,0.0,0.5338474367893683,0.0,0.0,0.0,0.0,0.0,0.0,-13.264,0.0,0.0,0.0
75,0.0,0.0,0.0,0.4077041015625,0.0,0.0,0.0,0.0,0.0,0.0,0.593,0.0,0.0,0.0,0.0,0.0,0.0,0.5378187769133602,0.0,0.0,0.0,0.0,0.0,0.0,-13.744,0.0,0.0,0.0
76,0.0,0.0,0.0,0.413650390625,0.0,0.0,0.0,0.0,0.0,0.0,0.595,0.0,0.0,0.0,0.0,0.0,0.0,0.5417502838377842,0.0,0.0,0.0,0.0,0.0,0.0,-14.04,0.0,0.0,0.0
77,0.0,0.0,0.0,0.419732421875,0.0,0.0,0.0,0.0,0.0,0.0,0.603,0.0,0.0,0.0,0.0,0.0,0.0,0.5455601113594476,0.0,0.0,0.0,0.0,0.0,0.0,-13.332,0.0,0.0,0.0
78,0.0,0.0,0.0,0.425669921875,0.0,0.0,0.0,0.0,0.0,0.0,0.611,0.0,0.0,0.0,0.0,0.0,0.0,0.5492641207113573,0.0,0.0,0.0,0.0,0.0,0.0,-12.692,0.0,0.0,0.0
79,0.0,0.0,0.0,0.4314716796875,0.0,0.0,0.0,0.0,0.0,0.0,0.593,0.0,0.0,0.0,0.0,0.0,0.0,0.5528833903367615,0.0,0.0,0.0,0.0,0.0,0.0,-12.712,0.0,0.0,0.0
80,0.0,0.0,0.0,0.4374091796875,0.0,0.0,0.0,0.0,0.0,0.0,0.59,0.0,0.0,0.0,0.0,0.0,0.0,0.5562829683544395,0.0,0.0,0.0,0.0,0.0,0.0,-12.552,0.0,0.0,0.0
81,0.0,0.0,0.0,0.443193359375,0.0,0.0,0.0,0.0,0.0,0.0,0.591,0.0,0.0,0.0,0.0,0.0,0.0,0.5596041114261007,0.0,0.0,0.0,0.0,0.0,0.0,-12.484,0.0,0.0,0.0
82,0.0,0.0,0.0,0.448986328125,0.0,0.0,0.0,0.0,0.0,0.0,0.582,0.0,0.0,0.0,0.0,0.0,0.0,0.5628202527319893,0.0,0.0,0.0,0.0,0.0,0.0,-12.392,0.0,0.0,0.0
83,0.0,0.0,0.0,0.454779296875,0.0,0.0,0.0,0.0,0.0,0.0,0.582,0.0,0.0,0.0,0.0,0.0,0.0,0.5658051284044348,0.0,0.0,0.0,0.0,0.0,0.0,-12.348,0.0,0.0,0.0
84,0.0,0.0,0.0,0.460572265625,0.0,0.0,0.0,0.0,0.0,0.0,0.582,0.0,0.0,0.0,0.0,0.0,0.0,0.568739696017981,0.0,0.0,0.0,0.0,0.0,0.0,-12.532,0.0,0.0,0.0
85,0.0,0.0,0.0,0.466365234375,0.0,0.0,0.0,0.0,0.0,0.0,0.582,0.0,0.0,0.0,0.0,0.0,0.0,0.5719841657183278,0.0,0.0,0.0,0.0,0.0,0.0,-12.988,0.0,0.0,0.0
86,0.0,0.0,0.0,0.472013671875,0.0,0.0,0.0,0.0,0.0,0.0,0.575,0.0,0.0,0.0,0.0,0.0,0.0,0.5741879146913302,0.0,0.0,0.0,0.0,0.0,0.0,-13.148,0.0,0.0,0.0
87,0.0,0.0,0.0,0.484033203125,0.0,0.0,0.0,0.0,0.0,0.0,0.596,0.0,0.0,0.0,0.0,0.0,0.0,0.57788992449929,0.0,0.0,0.0,0.0,0.0,0.0,-12.464,0.0,0.0,0.0
88,0.0,0.0,0.0,0.484033203125,0.0,0.0,0.0,0.0,0.0,0.0,0.596,0.0,0.0,0.0,0.0,0.0,0.0,0.5791663968150981,0.0,0.0,0.0,0.0,0.0,0.0,-12.464,0.0,0.0,0.0
89,0.0,0.0,0.0,0.4898349609375,0.0,0.0,0.0,0.0,0.0,0.0,0.598,0.0,0.0,0.0,0.0,0.0,0.0,0.581459290173423,0.0,0.0,0.0,0.0,0.0,0.0,-11.98,0.0,0.0,0.0
90,0.0,0.0,0.0,0.495619140625,0.0,0.0,0.0,0.0,0.0,0.0,0.584,0.0,0.0,0.0,0.0,0.0,0.0,0.5836111080183497,0.0,0.0,0.0,0.0,0.0,0.0,-12.004,0.0,0.0,0.0
91,0.0,0.0,0.0,0.501412109375,0.0,0.0,0.0,0.0,0.0,0.0,0.582,0.0,0.0,0.0,0.0,0.0,0.0,0.5856247710368307,0.0,0.0,0.0,0.0,0.0,0.0,-11.868,0.0,0.0,0.0
92,0.0,0.0,0.0,0.5072138671875,0.0,0.0,0.0,0.0,0.0,0.0,0.583,0.0,0.0,0.0,0.0,0.0,0.0,0.5875313172309927,0.0,0.0,0.0,0.0,0.0,0.0,-12.072,0.0,0.0,0.0
93,0.0,0.0,0.0,0.5130068359375,0.0,0.0,0.0,0.0,0.0,0.0,0.583,0.0,0.0,0.0,0.0,0.0,0.0,0.5892870177996853,0.0,0.0,0.0,0.0,0.0,0.0,-11.868,0.0,0.0,0.0
94,0.0,0.0,0.0,0.518935546875,0.0,0.0,0.0,0.0,0.0,0.0,0.593,0.0,0.0,0.0,0.0,0.0,0.0,0.590942967325584,0.0,0.0,0.0,0.0,0.0,0.0,-11.82,0.0,0.0,0.0
95,0.0,0.0,0.0,0.5247373046875,0.0,0.0,0.0,0.0,0.0,0.0,0.586,0.0,0.0,0.0,0.0,0.0,0.0,0.5925426027851282,0.0,0.0,0.0,0.0,0.0,0.0,-12.188,0.0,0.0,0.0
96,0.0,0.0,0.0,0.53053125,0.0,0.0,0.0,0.0,0.0,0.0,0.583,0.0,0.0,0.0,0.0,0.0,0.0,0.5937718941891068,0.0,0.0,0.0,0.0,0.0,0.0,-12.804,0.0,0.0,0.0
97,0.0,0.0,0.0,0.542541015625,0.0,0.0,0.0,0.0,0.0,0.0,0.597,0.0,0.0,0.0,0.0,0.0,0.0,0.5957801466796839,0.0,0.0,0.0,0.0,0.0,0.0,-12.576,0.0,0.0,0.0
98,0.0,0.0,0.0,0.542541015625,0.0,0.0,0.0,0.0,0.0,0.0,0.597,0.0,0.0,0.0,0.0,0.0,0.0,0.5962821509818836,0.0,0.0,0.0,0.0,0.0,0.0,-12.576,0.0,0.0,0.0
99,0.0,0.0,0.0,0.5484873046875,0.0,0.0,0.0,0.0,0.0,0.0,0.605,0.0,0.0,0.0,0.0,0.0,0.0,0.5970570548937824,0.0,0.0,0.0,0.0,0.0,0.0,-11.8,0.0,0.0,0.0
100,0.0,0.0,0.0,0.5544248046875,0.0,0.0,0.0,0.0,0.0,0.0,0.604,0.0,0.0,0.0,0.0,0.0,0.0,0.5978804664338939,0.0,0.0,0.0,0.0,0.0,0.0,-11.548,0.0,0.0,0.0
101,0.0,0.0,0.0,0.5603623046875,0.0,0.0,0.0,0.0,0.0,0.0,0.592,0.0,0.0,0.0,0.0,0.0,0.0,0.5985623389698902,0.0,0.0,0.0,0.0,0.0,0.0,-11.776,0.0,0.0,0.0
102,0.0,0.0,0.0,0.5661552734375,0.0,0.0,0.0,0.0,0.0,0.0,0.592,0.0,0.0,0.0,0.0,0.0,0.0,0.5991158325022751,0.0,0.0,0.0,0.0,0.0,0.0,-11.5,0.0,0.0,0.0
103,0.0,0.0,0.0,0.5720927734375,0.0,0.0,0.0,0.0,0.0,0.0,0.593,0.0,0.0,0.0,0.0,0.0,0.0,0.5995447196778793,0.0,0.0,0.0,0.0,0.0,0.0,-11.732,0.0,0.0,0.0
104,0.0,0.0,0.0,0.5778857421875,0.0,0.0,0.0,0.0,0.0,0.0,0.587,0.0,0.0,0.0,0.0,0.0,0.0,0.5998229130525207,0.0,0.0,0.0,0.0,0.0,0.0,-11.548,0.0,0.0,0.0
105,0.0,0.0,0.0,0.58383203125,0.0,0.0,0.0,0.0,0.0,0.0,0.583,0.0,0.0,0.0,0.0,0.0,0.0,0.599977373503611,0.0,0.0,0.0,0.0,0.0,0.0,-11.548,0.0,0.0,0.0
106,0.0,0.0,0.0,0.6001826171875,0.0,0.0,0.0,0.0,0.0,0.0,0.55,0.0,0.0,0.0,0.0,0.0,0.0,0.5997919346995729,0.0,0.0,0.0,0.0,0.0,0.0,-15.16,0.0,0.0,0.0
107,0.0,0.0,0.0,0.603232421875,0.0,0.0,0.0,0.0,0.0,0.0,0.406,0.0,0.0,0.0,0.0,0.0,0.0,0.599330299637054,0.0,0.0,0.0,0.0,0.0,0.0,-16.832,0.0,0.0,0.0
108,0.0,0.0,0.0,0.603232421875,0.0,0.0,0.0,0.0,0.0,0.0,0.406,0.0,0.0,0.0,0.0,0.0,0.0,0.5988575751512255,0.0,0.0,0.0,0.0,0.0,0.0,-16.832,0.0,0.0,0.0
109,0.0,0.0,0.0,0.6049736328125,0.0,0.0,0.0,0.0,0.0,0.0,0.104,0.0,0.0,0.0,0.0,0.0,0.0,0.5984821375044821,0.0,0.0,0.0,0.0,0.0,0.0,-19.324,0.0,0.0,0.0
110,0.0,0.0,0.0,0.604396484375,0.0,0.0,0.0,0.0,0.0,0.0,-0.044,0.0,0.0,0.0,0.0,0.0,0.0,0.597332143583636,0.0,0.0,0.0,0.0,0.0,0.0,-17.928,0.0,0.0,0.0
111,0.0,0.0,0.0,0.603521484375,0.0,0.0,0.0,0.0,0.0,0.0,-0.064,0.0,0.0,0.0,0.0,0.0,0.0,0.5967006892154106,0.0,0.0,0.0,0.0,0.0,0.0,-17.516,0.0,0.0,0.0
112,0.0,0.0,0.0,0.6025107421875,0.0,0.0,0.0,0.0,0.0,0.0,-0.094,0.0,0.0,0.0,0.0,0.0,0.0,0.5960210767962941,0.0,0.0,0.0,0.0,0.0,0.0,-17.06,0.0,0.0,0.0
113,0.0,0.0,0.0,0.6025107421875,0.0,0.0,0.0,0.0,0.0,0.0,-0.094,0.0,0.0,0.0,0.0,0.0,0.0,0.595473830164499,0.0,0.0,0.0,0.0,0.0,0.0,-17.06,0.0,0.0,0.0
114,0.0,0.0,0.0,0.60193359375,0.0,0.0,0.0,0.0,0.0,0.0,-0.085,0.0,0.0,0.0,0.0,0.0,0.0,0.5947500842502371,0.0,0.0,0.0,0.0,0.0,0.0,-17.288,0.0,0.0,0.0
115,0.0,0.0,0.0,0.60193359375,0.0,0.0,0.0,0.0,0.0,0.0,-0.085,0.0,0.0,0.0,0.0,0.0,0.0,0.5939607348345378,0.0,0.0,0.0,0.0,0.0,0.0,-17.288,0.0,0.0,0.0
116,0.0,0.0,0.0,0.60106640625,0.0,0.0,0.0,0.0,0.0,0.0,-0.068,0.0,0.0,0.0,0.0,0.0,0.0,0.5927360305509295,0.0,0.0,0.0,0.0,0.0,0.0,-17.196,0.0,0.0,0.0
117,0.0,0.0,0.0,0.6003271484375,0.0,0.0,0.0,0.0,0.0,0.0,-0.08,0.0,0.0,0.0,0.0,0.0,0.0,0.5912663007614269,0.0,0.0,0.0,0.0,0.0,0.0,-16.304,0.0,0.0,0.0
118,0.0,0.0,0.0,0.59931640625,0.0,0.0,0.0,0.0,0.0,0.0,-0.087,0.0,0.0,0.0,0.0,0.0,0.0,0.5896689990487727,0.0,0.0,0.0,0.0,0.0,0.0,-15.708,0.0,0.0,0.0
119,0.0,0.0,0.0,0.5981611328125,0.0,0.0,0.0,0.0,0.0,0.0,-0.106,0.0,0.0,0.0,0.0,0.0,0.0,0.5878534695221908,0.0,0.0,0.0,0.0,0.0,0.0,-15.252,0.0,0.0,0.0
120,0.0,0.0,0.0,0.596564453125,0.0,0.0,0.0,0.0,0.0,0.0,-0.14,0.0,0.0,0.0,0.0,0.0,0.0,0.586084639555123,0.0,0.0,0.0,0.0,0.0,0.0,-15.32,0.0,0.0,0.0
121,0.0,0.0,0.0,0.5946875,0.0,0.0,0.0,0.0,0.0,0.0,-0.175,0.0,0.0,0.0,0.0,0.0,0.0,0.5840964763965198,0.0,0.0,0.0,0.0,0.0,0.0,-14.772,0.0,0.0,0.0
122,0.0,0.0,0.0,0.5925126953125,0.0,0.0,0.0,0.0,0.0,0.0,-0.197,0.0,0.0,0.0,0.0,0.0,0.0,0.5819686790732068,0.0,0.0,0.0,0.0,0.0,0.0,-14.016,0.0,0.0,0.0
123,0.0,0.0,0.0,0.590048828125,0.0,0.0,0.0,0.0,0.0,0.0,-0.229,0.0,0.0,0.0,0.0,0.0,0.0,0.5797183435230039,0.0,0.0,0.0,0.0,0.0,0.0,-13.444,0.0,0.0,0.0
124,0.0,0.0,0.0,0.5875947265625,0.0,0.0,0.0,0.0,0.0,0.0,-0.249,0.0,0.0,0.0,0.0,0.0,0.0,0.5773180798346594,0.0,0.0,0.0,0.0,0.0,0.0,-13.104,0.0,0.0,0.0
125,0.0,0.0,0.0,0.5848427734375,0.0,0.0,0.0,0.0,0.0,0.0,-0.258,0.0,0.0,0.0,0.0,0.0,0.0,0.5748100294041362,0.0,0.0,0.0,0.0,0.0,0.0,-13.444,0.0,0.0,0.0
126,0.0,0.0,0.0,0.5820908203125,0.0,0.0,0.0,0.0,0.0,0.0,-0.284,0.0,0.0,0.0,0.0,0.0,0.0,0.5721685408735835,0.0,0.0,0.0,0.0,0.0,0.0,-13.492,0.0,0.0,0.0
127,0.0,0.0,0.0,0.579185546875,0.0,0.0,0.0,0.0,0.0,0.0,-0.287,0.0,0.0,0.0,0.0,0.0,0.0,0.5694001366788141,0.0,0.0,0.0,0.0,0.0,0.0,-13.172,0.0,0.0,0.0
128,0.0,0.0,0.0,0.57614453125,0.0,0.0,0.0,0.0,0.0,0.0,-0.294,0.0,0.0,0.0,0.0,0.0,0.0,0.5665075477675855,0.0,0.0,0.0,0.0,0.0,0.0,-12.784,0.0,0.0,0.0
129,0.0,0.0,0.0,0.572814453125,0.0,0.0,0.0,0.0,0.0,0.0,-0.323,0.0,0.0,0.0,0.0,0.0,0.0,0.5632055645985835,0.0,0.0,0.0,0.0,0.0,0.0,-12.004,0.0,0.0,0.0
130,0.0,0.0,0.0,0.5697822265625,0.0,0.0,0.0,0.0,0.0,0.0,-0.325,0.0,0.0,0.0,0.0,0.0,0.0,0.5596535380807623,0.0,0.0,0.0,0.0,0.0,0.0,-11.364,0.0,0.0,0.0
131,0.0,0.0,0.0,0.566453125,0.0,0.0,0.0,0.0,0.0,0.0,-0.318,0.0,0.0,0.0,0.0,0.0,0.0,0.5563579365962155,0.0,0.0,0.0,0.0,0.0,0.0,-11.752,0.0,0.0,0.0
132,0.0,0.0,0.0,0.563123046875,0.0,0.0,0.0,0.0,0.0,0.0,-0.332,0.0,0.0,0.0,0.0,0.0,0.0,0.5536290928119236,0.0,0.0,0.0,0.0,0.0,0.0,-11.48,0.0,0.0,0.0
133,0.0,0.0,0.0,0.556166015625,0.0,0.0,0.0,0.0,0.0,0.0,-0.348,0.0,0.0,0.0,0.0,0.0,0.0,0.5491725214190853,0.0,0.0,0.0,0.0,0.0,0.0,-11.732,0.0,0.0,0.0
134,0.0,0.0,0.0,0.556166015625,0.0,0.0,0.0,0.0,0.0,0.0,-0.348,0.0,0.0,0.0,0.0,0.0,0.0,0.5464553675684115,0.0,0.0,0.0,0.0,0.0,0.0,-11.732,0.0,0.0,0.0
135,0.0,0.0,0.0,0.55239453125,0.0,0.0,0.0,0.0,0.0,0.0,-0.377,0.0,0.0,0.0,0.0,0.0,0.0,0.5426450012230357,0.0,0.0,0.0,0.0,0.0,0.0,-12.624,0.0,0.0,0.0
136,0.0,0.0,0.0,0.5483427734375,0.0,0.0,0.0,0.0,0.0,0.0,-0.401,0.0,0.0,0.0,0.0,0.0,0.0,0.538752780223344,0.0,0.0,0.0,0.0,0.0,0.0,-11.524,0.0,0.0,0.0
137,0.0,0.0,0.0,0.545158203125,0.0,0.0,0.0,0.0,0.0,0.0,-0.364,0.0,0.0,0.0,0.0,0.0,0.0,0.5347243987328243,0.0,0.0,0.0,0.0,0.0,0.0,-11.844,0.0,0.0,0.0
138,0.0,0.0,0.0,0.54109765625,0.0,0.0,0.0,0.0,0.0,0.0,-0.357,0.0,0.0,0.0,0.0,0.0,0.0,0.5305236133682686,0.0,0.0,0.0,0.0,0.0,0.0,-12.28,0.0,0.0,0.0
139,0.0,0.0,0.0,0.537912109375,0.0,0.0,0.0,0.0,0.0,0.0,-0.379,0.0,0.0,0.0,0.0,0.0,0.0,0.5259031152109602,0.0,0.0,0.0,0.0,0.0,0.0,-12.576,0.0,0.0,0.0
140,0.0,0.0,0.0,0.5344375,0.0,0.0,0.0,0.0,0.0,0.0,-0.326,0.0,0.0,0.0,0.0,0.0,0.0,0.5218117033084516,0.0,0.0,0.0,0.0,0.0,0.0,-12.944,0.0,0.0,0.0
141,0.0,0.0,0.0,0.5311083984375,0.0,0.0,0.0,0.0,0.0,0.0,-0.347,0.0,0.0,0.0,0.0,0.0,0.0,0.5173836509822642,0.0,0.0,0.0,0.0,0.0,0.0,-12.872,0.0,0.0,0.0
142,0.0,0.0,0.0,0.527056640625,0.0,0.0,0.0,0.0,0.0,0.0,-0.354,0.0,0.0,0.0,0.0,0.0,0.0,0.5128313008017865,0.0,0.0,0.0,0.0,0.0,0.0,-13.88,0.0,0.0,0.0
143,0.0,0.0,0.0,0.52241015625,0.0,0.0,0.0,0.0,0.0,0.0,-0.445,0.0,0.0,0.0,0.0,0.0,0.0,0.5078892425056909,0.0,0.0,0.0,0.0,0.0,0.0,-13.468,0.0,0.0,0.0
144,0.0,0.0,0.0,0.5177802734375,0.0,0.0,0.0,0.0,0.0,0.0,-0.463,0.0,0.0,0.0,0.0,0.0,0.0,0.5032685938863737,0.0,0.0,0.0,0.0,0.0,0.0,-13.972,0.0,0.0,0.0
145,0.0,0.0,0.0,0.51286328125,0.0,0.0,0.0,0.0,0.0,0.0,-0.489,0.0,0.0,0.0,0.0,0.0,0.0,0.49832891585715283,0.0,0.0,0.0,0.0,0.0,0.0,-13.308,0.0,0.0,0.0
146,0.0,0.0,0.0,0.508369140625,0.0,0.0,0.0,0.0,0.0,0.0,-0.467,0.0,0.0,0.0,0.0,0.0,0.0,0.49322106347923594,0.0,0.0,0.0,0.0,0.0,0.0,-12.896,0.0,0.0,0.0
147,0.0,0.0,0.0,0.5038759765625,0.0,0.0,0.0,0.0,0.0,0.0,-0.453,0.0,0.0,0.0,0.0,0.0,0.0,0.4880492057938469,0.0,0.0,0.0,0.0,0.0,0.0,-12.692,0.0,0.0,0.0
148,0.0,0.0,0.0,0.49982421875,0.0,0.0,0.0,0.0,0.0,0.0,-0.436,0.0,0.0,0.0,0.0,0.0,0.0,0.482792989496478,0.0,0.0,0.0,0.0,0.0,0.0,-13.148,0.0,0.0,0.0
149,0.0,0.0,0.0,0.4951865234375,0.0,0.0,0.0,0.0,0.0,0.0,-0.425,0.0,0.0,0.0,0.0,0.0,0.0,0.4773762202917974,0.0,0.0,0.0,0.0,0.0,0.0,-14.016,0.0,0.0,0.0
150,0.0,0.0,0.0,0.4901240234375,0.0,0.0,0.0,0.0,0.0,0.0,-0.492,0.0,0.0,0.0,0.0,0.0,0.0,0.4718689222589952,0.0,0.0,0.0,0.0,0.0,0.0,-13.72,0.0,0.0,0.0
151,0.0,0.0,0.0,0.485197265625,0.0,0.0,0.0,0.0,0.0,0.0,-0.495,0.0,0.0,0.0,0.0,0.0,0.0,0.46625606534819247,0.0,0.0,0.0,0.0,0.0,0.0,-14.176,0.0,0.0,0.0
152,0.0,0.0,0.0,0.4798369140625,0.0,0.0,0.0,0.0,0.0,0.0,-0.518,0.0,0.0,0.0,0.0,0.0,0.0,0.46056810728330166,0.0,0.0,0.0,0.0,0.0,0.0,-14.064,0.0,0.0,0.0
153,0.0,0.0,0.0,0.474765625,0.0,0.0,0.0,0.0,0.0,0.0,-0.534,0.0,0.0,0.0,0.0,0.0,0.0,0.4546949624405108,0.0,0.0,0.0,0.0,0.0,0.0,-14.064,0.0,0.0,0.0
154,0.0,0.0,0.0,0.4644794921875,0.0,0.0,0.0,0.0,0.0,0.0,-0.512,0.0,0.0,0.0,0.0,0.0,0.0,0.44623956871469206,0.0,0.0,0.0,0.0,0.0,0.0,-14.224,0.0,0.0,0.0
155,0.0,0.0,0.0,0.4585419921875,0.0,0.0,0.0,0.0,0.0,0.0,-0.55,0.0,0.0,0.0,0.0,0.0,0.0,0.4387449611960797,0.0,0.0,0.0,0.0,0.0,0.0,-14.796,0.0,0.0,0.0
156,0.0,0.0,0.0,0.44696484375,0.0,0.0,0.0,0.0,0.0,0.0,-0.582,0.0,0.0,0.0,0.0,0.0,0.0,0.42788511837852133,0.0,0.0,0.0,0.0,0.0,0.0,-13.24,0.0,0.0,0.0
157,0.0,0.0,0.0,0.44131640625,0.0,0.0,0.0,0.0,0.0,0.0,-0.556,0.0,0.0,0.0,0.0,0.0,0.0,0.4206515747878477,0.0,0.0,0.0,0.0,0.0,0.0,-13.08,0.0,0.0,0.0
158,0.0,0.0,0.0,0.4359560546875,0.0,0.0,0.0,0.0,0.0,0.0,-0.566,0.0,0.0,0.0,0.0,0.0,0.0,0.4107547938060902,0.0,0.0,0.0,0.0,0.0,0.0,-12.164,0.0,0.0,0.0
159,0.0,0.0,0.0,0.425380859375,0.0,0.0,0.0,0.0,0.0,0.0,-0.524,0.0,0.0,0.0,0.0,0.0,0.0,0.3971005517058602,0.0,0.0,0.0,0.0,0.0,0.0,-13.856,0.0,0.0,0.0
160,0.0,0.0,0.0,0.419298828125,0.0,0.0,0.0,0.0,0.0,0.0,-0.601,0.0,0.0,0.0,0.0,0.0,0.0,0.39415517145489753,0.0,0.0,0.0,0.0,0.0,0.0,-13.924,0.0,0.0,0.0
161,0.0,0.0,0.0,0.419298828125,0.0,0.0,0.0,0.0,0.0,0.0,-0.601,0.0,0.0,0.0,0.0,0.0,0.0,0.3907116688356643,0.0,0.0,0.0,0.0,0.0,0.0,-13.924,0.0,0.0,0.0
162,0.0,0.0,0.0,0.413650390625,0.0,0.0,0.0,0.0,0.0,0.0,-0.59,0.0,0.0,0.0,0.0,0.0,0.0,0.38397326534227916,0.0,0.0,0.0,0.0,0.0,0.0,-13.332,0.0,0.0,0.0
163,0.0,0.0,0.0,0.40813671875,0.0,0.0,0.0,0.0,0.0,0.0,-0.56,0.0,0.0,0.0,0.0,0.0,0.0,0.3770343237509766,0.0,0.0,0.0,0.0,0.0,0.0,-13.24,0.0,0.0,0.0
164,0.0,0.0,0.0,0.4026416015625,0.0,0.0,0.0,0.0,0.0,0.0,-0.554,0.0,0.0,0.0,0.0,0.0,0.0,0.36996626317620457,0.0,0.0,0.0,0.0,0.0,0.0,-13.468,0.0,0.0,0.0
165,0.0,0.0,0.0,0.3967041015625,0.0,0.0,0.0,0.0,0.0,0.0,-0.563,0.0,0.0,0.0,0.0,0.0,0.0,0.36283659427478626,0.0,0.0,0.0,0.0,0.0,0.0,-14.108,0.0,0.0,0.0
166,0.0,0.0,0.0,0.390478515625,0.0,0.0,0.0,0.0,0.0,0.0,-0.614,0.0,0.0,0.0,0.0,0.0,0.0,0.3556571942469721,0.0,0.0,0.0,0.0,0.0,0.0,-13.812,0.0,0.0,0.0
167,0.0,0.0,0.0,0.3845322265625,0.0,0.0,0.0,0.0,0.0,0.0,-0.617,0.0,0.0,0.0,0.0,0.0,0.0,0.3483381399076744,0.0,0.0,0.0,0.0,0.0,0.0,-13.356,0.0,0.0,0.0
168,0.0,0.0,0.0,0.3783056640625,0.0,0.0,0.0,0.0,0.0,0.0,-0.609,0.0,0.0,0.0,0.0,0.0,0.0,0.3410062582462314,0.0,0.0,0.0,0.0,0.0,0.0,-12.552,0.0,0.0,0.0
169,0.0,0.0,0.0,0.3725126953125,0.0,0.0,0.0,0.0,0.0,0.0,-0.611,0.0,0.0,0.0,0.0,0.0,0.0,0.33353309445947626,0.0,0.0,0.0,0.0,0.0,0.0,-12.372,0.0,0.0,0.0
170,0.0,0.0,0.0,0.3667109375,0.0,0.0,0.0,0.0,0.0,0.0,-0.575,0.0,0.0,0.0,0.0,0.0,0.0,0.3260462521464592,0.0,0.0,0.0,0.0,0.0,0.0,-14.064,0.0,0.0,0.0
171,0.0,0.0,0.0,0.360484375,0.0,0.0,0.0,0.0,0.0,0.0,-0.604,0.0,0.0,0.0,0.0,0.0,0.0,0.318451567163071,0.0,0.0,0.0,0.0,0.0,0.0,-15.116,0.0,0.0,0.0
172,0.0,0.0,0.0,0.3547001953125,0.0,0.0,0.0,0.0,0.0,0.0,-0.612,0.0,0.0,0.0,0.0,0.0,0.0,0.3107743445652618,0.0,0.0,0.0,0.0,0.0,0.0,-14.612,0.0,0.0,0.0
173,0.0,0.0,0.0,0.33687890625,0.0,0.0,0.0,0.0,0.0,0.0,-0.593,0.0,0.0,0.0,0.0,0.0,0.0,0.2872073120415594,0.0,0.0,0.0,0.0,0.0,0.0,-13.308,0.0,0.0,0.0
174,0.0,0.0,0.0,0.3252841796875,0.0,0.0,0.0,0.0,0.0,0.0,-0.586,0.0,0.0,0.0,0.0,0.0,0.0,0.2743258760112933,0.0,0.0,0.0,0.0,0.0,0.0,-13.88,0.0,0.0,0.0
175,0.0,0.0,0.0,0.3252841796875,0.0,0.0,0.0,0.0,0.0,0.0,-0.586,0.0,0.0,0.0,0.0,0.0,0.0,0.26739866954023284,0.0,0.0,0.0,0.0,0.0,0.0,-13.88,0.0,0.0,0.0
176,0.0,0.0,0.0,0.3131201171875,0.0,0.0,0.0,0.0,0.0,0.0,-0.615,0.0,0.0,0.0,0.0,0.0,0.0,0.2611780351528722,0.0,0.0,0.0,0.0,0.0,0.0,-13.056,0.0,0.0,0.0
177,0.0,0.0,0.0,0.3131201171875,0.0,0.0,0.0,0.0,0.0,0.0,-0.615,0.0,0.0,0.0,0.0,0.0,0.0,0.255027650825,0.0,0.0,0.0,0.0,0.0,0.0,-13.056,0.0,0.0,0.0
178,0.0,0.0,0.0,0.307173828125,0.0,0.0,0.0,0.0,0.0,0.0,-0.607,0.0,0.0,0.0,0.0,0.0,0.0,0.24686094279087495,0.0,0.0,0.0,0.0,0.0,0.0,-13.104,0.0,0.0,0.0
179,0.0,0.0,0.0,0.3009482421875,0.0,0.0,0.0,0.0,0.0,0.0,-0.61,0.0,0.0,0.0,0.0,0.0,0.0,0.23844467022702429,0.0,0.0,0.0,0.0,0.0,0.0,-13.904,0.0,0.0,0.0
180,0.0,0.0,0.0,0.2951640625,0.0,0.0,0.0,0.0,0.0,0.0,-0.613,0.0,0.0,0.0,0.0,0.0,0.0,0.23029571246602537,0.0,0.0,0.0,0.0,0.0,0.0,-13.836,0.0,0.0,0.0
181,0.0,0.0,0.0,0.289505859375,0.0,0.0,0.0,0.0,0.0,0.0,-0.575,0.0,0.0,0.0,0.0,0.0,0.0,0.22191262701106387,0.0,0.0,0.0,0.0,0.0,0.0,-13.948,0.0,0.0,0.0
182,0.0,0.0,0.0,0.283568359375,0.0,0.0,0.0,0.0,0.0,0.0,-0.581,0.0,0.0,0.0,0.0,0.0,0.0,0.21358934154008094,0.0,0.0,0.0,0.0,0.0,0.0,-13.948,0.0,0.0,0.0
183,0.0,0.0,0.0,0.278064453125,0.0,0.0,0.0,0.0,0.0,0.0,-0.58,0.0,0.0,0.0,0.0,0.0,0.0,0.20467804008484833,0.0,0.0,0.0,0.0,0.0,0.0,-13.72,0.0,0.0,0.0
184,0.0,0.0,0.0,0.2721181640625,0.0,0.0,0.0,0.0,0.0,0.0,-0.57,0.0,0.0,0.0,0.0,0.0,0.0,0.19668503981826682,0.0,0.0,0.0,0.0,0.0,0.0,-14.064,0.0,0.0,0.0
185,0.0,0.0,0.0,0.2661806640625,0.0,0.0,0.0,0.0,0.0,0.0,-0.604,0.0,0.0,0.0,0.0,0.0,0.0,0.1875929985341454,0.0,0.0,0.0,0.0,0.0,0.0,-13.856,0.0,0.0,0.0
186,0.0,0.0,0.0,0.2603876953125,0.0,0.0,0.0,0.0,0.0,0.0,-0.59,0.0,0.0,0.0,0.0,0.0,0.0,0.17959718974498853,0.0,0.0,0.0,0.0,0.0,0.0,-13.492,0.0,0.0,0.0
187,0.0,0.0,0.0,0.2545947265625,0.0,0.0,0.0,0.0,0.0,0.0,-0.583,0.0,0.0,0.0,0.0,0.0,0.0,0.17107614252270367,0.0,0.0,0.0,0.0,0.0,0.0,-13.56,0.0,0.0,0.0
188,0.0,0.0,0.0,0.2488017578125,0.0,0.0,0.0,0.0,0.0,0.0,-0.584,0.0,0.0,0.0,0.0,0.0,0.0,0.161957734283233,0.0,0.0,0.0,0.0,0.0,0.0,-13.628,0.0,0.0,0.0
189,0.0,0.0,0.0,0.2428642578125,0.0,0.0,0.0,0.0,0.0,0.0,-0.588,0.0,0.0,0.0,0.0,0.0,0.0,0.1536705492600703,0.0,0.0,0.0,0.0,0.0,0.0,-14.316,0.0,0.0,0.0
190,0.0,0.0,0.0,0.2367822265625,0.0,0.0,0.0,0.0,0.0,0.0,-0.602,0.0,0.0,0.0,0.0,0.0,0.0,0.14502020693839662,0.0,0.0,0.0,0.0,0.0,0.0,-14.816,0.0,0.0,0.0
191,0.0,0.0,0.0,0.231125,0.0,0.0,0.0,0.0,0.0,0.0,-0.602,0.0,0.0,0.0,0.0,0.0,0.0,0.13609406669885127,0.0,0.0,0.0,0.0,0.0,0.0,-14.36,0.0,0.0,0.0
192,0.0,0.0,0.0,0.22533203125,0.0,0.0,0.0,0.0,0.0,0.0,-0.575,0.0,0.0,0.0,0.0,0.0,0.0,0.12744640126925955,0.0,0.0,0.0,0.0,0.0,0.0,-14.452,0.0,0.0,0.0
193,0.0,0.0,0.0,0.2196826171875,0.0,0.0,0.0,0.0,0.0,0.0,-0.577,0.0,0.0,0.0,0.0,0.0,0.0,0.11856626106603883,0.0,0.0,0.0,0.0,0.0,0.0,-14.248,0.0,0.0,0.0
194,0.0,0.0,0.0,0.214025390625,0.0,0.0,0.0,0.0,0.0,0.0,-0.565,0.0,0.0,0.0,0.0,0.0,0.0,0.10973179099873133,0.0,0.0,0.0,0.0,0.0,0.0,-14.316,0.0,0.0,0.0
195,0.0,0.0,0.0,0.207943359375,0.0,0.0,0.0,0.0,0.0,0.0,-0.588,0.0,0.0,0.0,0.0,0.0,0.0,0.10089548203046385,0.0,0.0,0.0,0.0,0.0,0.0,-14.336,0.0,0.0,0.0
196,0.0,0.0,0.0,0.202005859375,0.0,0.0,0.0,0.0,0.0,0.0,-0.609,0.0,0.0,0.0,0.0,0.0,0.0,0.09195305062240258,0.0,0.0,0.0,0.0,0.0,0.0,-13.836,0.0,0.0,0.0
197,0.0,0.0,0.0,0.196212890625,0.0,0.0,0.0,0.0,0.0,0.0,-0.591,0.0,0.0,0.0,0.0,0.0,0.0,0.08310717081756454,0.0,0.0,0.0,0.0,0.0,0.0,-13.836,0.0,0.0,0.0
198,0.0,0.0,0.0,0.190275390625,0.0,0.0,0.0,0.0,0.0,0.0,-0.592,0.0,0.0,0.0,0.0,0.0,0.0,0.07397070469543457,0.0,0.0,0.0,0.0,0.0,0.0,-13.856,0.0,0.0,0.0
199,0.0,0.0,0.0,0.184626953125,0.0,0.0,0.0,0.0,0.0,0.0,-0.589,0.0,0.0,0.0,0.0,0.0,0.0,0.06527284886327761,0.0,0.0,0.0,0.0,0.0,0.0,-14.016,0.0,0.0,0.0
200,0.0,0.0,0.0,0.178544921875,0.0,0.0,0.0,0.0,0.0,0.0,-0.584,0.0,0.0,0.0,0.0,0.0,0.0,0.05621800404789983,0.0,0.0,0.0,0.0,0.0,0.0,-14.748,0.0,0.0,0.0
201,0.0,0.0,0.0,0.1724541015625,0.0,0.0,0.0,0.0,0.0,0.0,-0.617,0.0,0.0,0.0,0.0,0.0,0.0,0.04727215245691056,0.0,0.0,0.0,0.0,0.0,0.0,-14.588,0.0,0.0,0.0
202,0.0,0.0,0.0,0.1666611328125,0.0,0.0,0.0,0.0,0.0,0.0,-0.598,0.0,0.0,0.0,0.0,0.0,0.0,0.03838423763091366,0.0,0.0,0.0,0.0,0.0,0.0,-14.268,0.0,0.0,0.0
203,0.0,0.0,0.0,0.1608681640625,0.0,0.0,0.0,0.0,0.0,0.0,-0.584,0.0,0.0,0.0,0.0,0.0,0.0,0.029188237559439688,0.0,0.0,0.0,0.0,0.0,0.0,-14.408,0.0,0.0,0.0
204,0.0,0.0,0.0,0.1552109375,0.0,0.0,0.0,0.0,0.0,0.0,-0.582,0.0,0.0,0.0,0.0,0.0,0.0,0.02037674009635283,0.0,0.0,0.0,0.0,0.0,0.0,-14.292,0.0,0.0,0.0
205,0.0,0.0,0.0,0.14941796875,0.0,0.0,0.0,0.0,0.0,0.0,-0.566,0.0,0.0,0.0,0.0,0.0,0.0,0.011382774276195783,0.0,0.0,0.0,0.0,0.0,0.0,-14.612,0.0,0.0,0.0
206,0.0,0.0,0.0,0.1433359375,0.0,0.0,0.0,0.0,0.0,0.0,-0.596,0.0,0.0,0.0,0.0,0.0,0.0,0.002348269187999754,0.0,0.0,0.0,0.0,0.0,0.0,-14.612,0.0,0.0,0.0
207,0.0,0.0,0.0,0.1373984375,0.0,0.0,0.0,0.0,0.0,0.0,-0.613,0.0,0.0,0.0,0.0,0.0,0.0,-0.00666144990302291,0.0,0.0,0.0,0.0,0.0,0.0,-13.764,0.0,0.0,0.0
208,0.0,0.0,0.0,0.1314521484375,0.0,0.0,0.0,0.0,0.0,0.0,-0.598,0.0,0.0,0.0,0.0,0.0,0.0,-0.015551046150338164,0.0,0.0,0.0,0.0,0.0,0.0,-13.948,0.0,0.0,0.0
209,0.0,0.0,0.0,0.1253701171875,0.0,0.0,0.0,0.0,0.0,0.0,-0.607,0.0,0.0,0.0,0.0,0.0,0.0,-0.024605100762076212,0.0,0.0,0.0,0.0,0.0,0.0,-13.744,0.0,0.0,0.0
210,0.0,0.0,0.0,0.1197216796875,0.0,0.0,0.0,0.0,0.0,0.0,-0.587,0.0,0.0,0.0,0.0,0.0,0.0,-0.03372124552950166,0.0,0.0,0.0,0.0,0.0,0.0,-14.336,0.0,0.0,0.0
211,0.0,0.0,0.0,0.113630859375,0.0,0.0,0.0,0.0,0.0,0.0,-0.594,0.0,0.0,0.0,0.0,0.0,0.0,-0.04255284298879033,0.0,0.0,0.0,0.0,0.0,0.0,-14.864,0.0,0.0,0.0
212,0.0,0.0,0.0,0.107693359375,0.0,0.0,0.0,0.0,0.0,0.0,-0.61,0.0,0.0,0.0,0.0,0.0,0.0,-0.051543005684290676,0.0,0.0,0.0,0.0,0.0,0.0,-14.588,0.0,0.0,0.0
213,0.0,0.0,0.0,0.1020537109375,0.0,0.0,0.0,0.0,0.0,0.0,-0.579,0.0,0.0,0.0,0.0,0.0,0.0,-0.06145372802588748,0.0,0.0,0.0,0.0,0.0,0.0,-14.772,0.0,0.0,0.0
214,0.0,0.0,0.0,0.096125,0.0,0.0,0.0,0.0,0.0,0.0,-0.584,0.0,0.0,0.0,0.0,0.0,0.0,-0.06936488535462018,0.0,0.0,0.0,0.0,0.0,0.0,-14.224,0.0,0.0,0.0
215,0.0,0.0,0.0,0.0906123046875,0.0,0.0,0.0,0.0,0.0,0.0,-0.58,0.0,0.0,0.0,0.0,0.0,0.0,-0.078287457135705,0.0,0.0,0.0,0.0,0.0,0.0,-14.2,0.0,0.0,0.0
216,0.0,0.0,0.0,0.0846748046875,0.0,0.0,0.0,0.0,0.0,0.0,-0.569,0.0,0.0,0.0,0.0,0.0,0.0,-0.08729668727744265,0.0,0.0,0.0,0.0,0.0,0.0,-14.68,0.0,0.0,0.0
217,0.0,0.0,0.0,0.0785927734375,0.0,0.0,0.0,0.0,0.0,0.0,-0.607,0.0,0.0,0.0,0.0,0.0,0.0,-0.09620049862439267,0.0,0.0,0.0,0.0,0.0,0.0,-13.948,0.0,0.0,0.0
218,0.0,0.0,0.0,0.072935546875,0.0,0.0,0.0,0.0,0.0,0.0,-0.594,0.0,0.0,0.0,0.0,0.0,0.0,-0.10546180820811302,0.0,0.0,0.0,0.0,0.0,0.0,-14.132,0.0,0.0,0.0
219,0.0,0.0,0.0,0.066853515625,0.0,0.0,0.0,0.0,0.0,0.0,-0.588,0.0,0.0,0.0,0.0,0.0,0.0,-0.1152027054164675,0.0,0.0,0.0,0.0,0.0,0.0,-14.04,0.0,0.0,0.0
220,0.0,0.0,0.0,0.061060546875,0.0,0.0,0.0,0.0,0.0,0.0,-0.6,0.0,0.0,0.0,0.0,0.0,0.0,-0.12272357455898227,0.0,0.0,0.0,0.0,0.0,0.0,-13.996,0.0,0.0,0.0
221,0.0,0.0,0.0,0.055267578125,0.0,0.0,0.0,0.0,0.0,0.0,-0.577,0.0,0.0,0.0,0.0,0.0,0.0,-0.13153234440999206,0.0,0.0,0.0,0.0,0.0,0.0,-14.728,0.0,0.0,0.0
222,0.0,0.0,0.0,0.0491767578125,0.0,0.0,0.0,0.0,0.0,0.0,-0.607,0.0,0.0,0.0,0.0,0.0,0.0,-0.14029056834066864,0.0,0.0,0.0,0.0,0.0,0.0,-14.908,0.0,0.0,0.0
223,0.0,0.0,0.0,0.04352734375,0.0,0.0,0.0,0.0,0.0,0.0,-0.599,0.0,0.0,0.0,0.0,0.0,0.0,-0.1490738186409621,0.0,0.0,0.0,0.0,0.0,0.0,-14.84,0.0,0.0,0.0
224,0.0,0.0,0.0,0.037599609375,0.0,0.0,0.0,0.0,0.0,0.0,-0.572,0.0,0.0,0.0,0.0,0.0,0.0,-0.15768941169641706,0.0,0.0,0.0,0.0,0.0,0.0,-14.796,0.0,0.0,0.0
225,0.0,0.0,0.0,0.03194140625,0.0,0.0,0.0,0.0,0.0,0.0,-0.592,0.0,0.0,0.0,0.0,0.0,0.0,-0.16671014215320581,0.0,0.0,0.0,0.0,0.0,0.0,-14.452,0.0,0.0,0.0
226,0.0,0.0,0.0,0.0264375,0.0,0.0,0.0,0.0,0.0,0.0,-0.562,0.0,0.0,0.0,0.0,0.0,0.0,-0.1749485823246698,0.0,0.0,0.0,0.0,0.0,0.0,-14.796,0.0,0.0,0.0
227,0.0,0.0,0.0,0.0202109375,0.0,0.0,0.0,0.0,0.0,0.0,-0.585,0.0,0.0,0.0,0.0,0.0,0.0,-0.1835331952125284,0.0,0.0,0.0,0.0,0.0,0.0,-14.84,0.0,0.0,0.0
228,0.0,0.0,0.0,0.0084716796875,0.0,0.0,0.0,0.0,0.0,0.0,-0.585,0.0,0.0,0.0,0.0,0.0,0.0,-0.19537382602429787,0.0,0.0,0.0,0.0,0.0,0.0,-14.336,0.0,0.0,0.0
229,0.0,0.0,0.0,0.0084716796875,0.0,0.0,0.0,0.0,0.0,0.0,-0.585,0.0,0.0,0.0,0.0,0.0,0.0,-0.2009643736188547,0.0,0.0,0.0,0.0,0.0,0.0,-14.336,0.0,0.0,0.0
230,0.0,0.0,0.0,0.0023896484375,0.0,0.0,0.0,0.0,0.0,0.0,-0.604,0.0,0.0,0.0,0.0,0.0,0.0,-0.2091330126227376,0.0,0.0,0.0,0.0,0.0,0.0,-13.764,0.0,0.0,0.0
231,0.0,0.0,0.0,-0.0093486328125,0.0,0.0,0.0,0.0,0.0,0.0,-0.585,0.0,0.0,0.0,0.0,0.0,0.0,-0.22022811118504845,0.0,0.0,0.0,0.0,0.0,0.0,-15.068,0.0,0.0,0.0
232,0.0,0.0,0.0,-0.0093486328125,0.0,0.0,0.0,0.0,0.0,0.0,-0.585,0.0,0.0,0.0,0.0,0.0,0.0,-0.22588349978265151,0.0,0.0,0.0,0.0,0.0,0.0,-15.068,0.0,0.0,0.0
233,0.0,0.0,0.0,-0.0154306640625,0.0,0.0,0.0,0.0,0.0,0.0,-0.621,0.0,0.0,0.0,0.0,0.0,0.0,-0.23424283291879275,0.0,0.0,0.0,0.0,0.0,0.0,-14.568,0.0,0.0,0.0
234,0.0,0.0,0.0,-0.0209345703125,0.0,0.0,0.0,0.0,0.0,0.0,-0.579,0.0,0.0,0.0,0.0,0.0,0.0,-0.24254473865612514,0.0,0.0,0.0,0.0,0.0,0.0,-14.976,0.0,0.0,0.0
235,0.0,0.0,0.0,-0.0270166015625,0.0,0.0,0.0,0.0,0.0,0.0,-0.58,0.0,0.0,0.0,0.0,0.0,0.0,-0.2507261998689947,0.0,0.0,0.0,0.0,0.0,0.0,-14.52,0.0,0.0,0.0
236,0.0,0.0,0.0,-0.0323759765625,0.0,0.0,0.0,0.0,0.0,0.0,-0.585,0.0,0.0,0.0,0.0,0.0,0.0,-0.2588612421258986,0.0,0.0,0.0,0.0,0.0,0.0,-14.384,0.0,0.0,0.0
237,0.0,0.0,0.0,-0.0383134765625,0.0,0.0,0.0,0.0,0.0,0.0,-0.562,0.0,0.0,0.0,0.0,0.0,0.0,-0.26695340913006876,0.0,0.0,0.0,0.0,0.0,0.0,-14.864,0.0,0.0,0.0
238,0.0,0.0,0.0,-0.0443955078125,0.0,0.0,0.0,0.0,0.0,0.0,-0.608,0.0,0.0,0.0,0.0,0.0,0.0,-0.274985669199398,0.0,0.0,0.0,0.0,0.0,0.0,-14.176,0.0,0.0,0.0
239,0.0,0.0,0.0,-0.0501884765625,0.0,0.0,0.0,0.0,0.0,0.0,-0.601,0.0,0.0,0.0,0.0,0.0,0.0,-0.28289395522013583,0.0,0.0,0.0,0.0,0.0,0.0,-14.108,0.0,0.0,0.0
240,0.0,0.0,0.0,-0.056279296875,0.0,0.0,0.0,0.0,0.0,0.0,-0.59,0.0,0.0,0.0,0.0,0.0,0.0,-0.29093098055262906,0.0,0.0,0.0,0.0,0.0,0.0,-14.132,0.0,0.0,0.0
241,0.0,0.0,0.0,-0.067865234375,0.0,0.0,0.0,0.0,0.0,0.0,-0.584,0.0,0.0,0.0,0.0,0.0,0.0,-0.3012935428493244,0.0,0.0,0.0,0.0,0.0,0.0,-14.636,0.0,0.0,0.0
242,0.0,0.0,0.0,-0.067865234375,0.0,0.0,0.0,0.0,0.0,0.0,-0.584,0.0,0.0,0.0,0.0,0.0,0.0,-0.3063899358839687,0.0,0.0,0.0,0.0,0.0,0.0,-14.636,0.0,0.0,0.0
243,0.0,0.0,0.0,-0.0797490234375,0.0,0.0,0.0,0.0,0.0,0.0,-0.609,0.0,0.0,0.0,0.0,0.0,0.0,-0.3159952222028753,0.0,0.0,0.0,0.0,0.0,0.0,-14.544,0.0,0.0,0.0
244,0.0,0.0,0.0,-0.0856865234375,0.0,0.0,0.0,0.0,0.0,0.0,-0.573,0.0,0.0,0.0,0.0,0.0,0.0,-0.32435922110637333,0.0,0.0,0.0,0.0,0.0,0.0,-14.864,0.0,0.0,0.0
245,0.0,0.0,0.0,-0.0856865234375,0.0,0.0,0.0,0.0,0.0,0.0,-0.573,0.0,0.0,0.0,0.0,0.0,0.0,-0.3293080923929791,0.0,0.0,0.0,0.0,0.0,0.0,-14.864,0.0,0.0,0.0
246,0.0,0.0,0.0,-0.091470703125,0.0,0.0,0.0,0.0,0.0,0.0,-0.594,0.0,0.0,0.0,0.0,0.0,0.0,-0.33683135466361486,0.0,0.0,0.0,0.0,0.0,0.0,-14.336,0.0,0.0,0.0
247,0.0,0.0,0.0,-0.1030654296875,0.0,0.0,0.0,0.0,0.0,0.0,-0.575,0.0,0.0,0.0,0.0,0.0,0.0,-0.3474756567071017,0.0,0.0,0.0,0.0,0.0,0.0,-14.612,0.0,0.0,0.0
248,0.0,0.0,0.0,-0.1030654296875,0.0,0.0,0.0,0.0,0.0,0.0,-0.575,0.0,0.0,0.0,0.0,0.0,0.0,-0.35195768876680694,0.0,0.0,0.0,0.0,0.0,0.0,-14.612,0.0,0.0,0.0
249,0.0,0.0,0.0,-0.1090029296875,0.0,0.0,0.0,0.0,0.0,0.0,-0.612,0.0,0.0,0.0,0.0,0.0,0.0,-0.3588202421175667,0.0,0.0,0.0,0.0,0.0,0.0,-13.924,0.0,0.0,0.0
250,0.0,0.0,0.0,-0.1147958984375,0.0,0.0,0.0,0.0,0.0,0.0,-0.586,0.0,0.0,0.0,0.0,0.0,0.0,-0.36599147639647583,0.0,0.0,0.0,0.0,0.0,0.0,-14.108,0.0,0.0,0.0
251,0.0,0.0,0.0,-0.12653515625,0.0,0.0,0.0,0.0,0.0,0.0,-0.597,0.0,0.0,0.0,0.0,0.0,0.0,-0.37644688683000965,0.0,0.0,0.0,0.0,0.0,0.0,-14.084,0.0,0.0,0.0
252,0.0,0.0,0.0,-0.12653515625,0.0,0.0,0.0,0.0,0.0,0.0,-0.597,0.0,0.0,0.0,0.0,0.0,0.0,-0.38005751170435975,0.0,0.0,0.0,0.0,0.0,0.0,-14.084,0.0,0.0,0.0
253,0.0,0.0,0.0,-0.13247265625,0.0,0.0,0.0,0.0,0.0,0.0,-0.578,0.0,0.0,0.0,0.0,0.0,0.0,-0.38771480276621234,0.0,0.0,0.0,0.0,0.0,0.0,-14.636,0.0,0.0,0.0
254,0.0,0.0,0.0,-0.1385546875,0.0,0.0,0.0,0.0,0.0,0.0,-0.612,0.0,0.0,0.0,0.0,0.0,0.0,-0.39383854801177237,0.0,0.0,0.0,0.0,0.0,0.0,-14.68,0.0,0.0,0.0
255,0.0,0.0,0.0,-0.144203125,0.0,0.0,0.0,0.0,0.0,0.0,-0.595,0.0,0.0,0.0,0.0,0.0,0.0,-0.40593361437336134,0.0,0.0,0.0,0.0,0.0,0.0,-14.704,0.0,0.0,0.0
256,0.0,0.0,0.0,-0.1557890625,0.0,0.0,0.0,0.0,0.0,0.0,-0.587,0.0,0.0,0.0,0.0,0.0,0.0,-0.4102569053792527,0.0,0.0,0.0,0.0,0.0,0.0,-14.336,0.0,0.0,0.0
257,0.0,0.0,0.0,-0.1557890625,0.0,0.0,0.0,0.0,0.0,0.0,-0.587,0.0,0.0,0.0,0.0,0.0,0.0,-0.4141136008364927,0.0,0.0,0.0,0.0,0.0,0.0,-14.336,0.0,0.0,0.0
258,0.0,0.0,0.0,-0.1614384765625,0.0,0.0,0.0,0.0,0.0,0.0,-0.563,0.0,0.0,0.0,0.0,0.0,0.0,-0.4202782990867736,0.0,0.0,0.0,0.0,0.0,0.0,-14.728,0.0,0.0,0.0
259,0.0,0.0,0.0,-0.167673828125,0.0,0.0,0.0,0.0,0.0,0.0,-0.59,0.0,0.0,0.0,0.0,0.0,0.0,-0.4267615186848071,0.0,0.0,0.0,0.0,0.0,0.0,-14.496,0.0,0.0,0.0
260,0.0,0.0,0.0,-0.173466796875,0.0,0.0,0.0,0.0,0.0,0.0,-0.612,0.0,0.0,0.0,0.0,0.0,0.0,-0.43304013728710683,0.0,0.0,0.0,0.0,0.0,0.0,-13.856,0.0,0.0,0.0
261,0.0,0.0,0.0,-0.17925,0.0,0.0,0.0,0.0,0.0,0.0,-0.58,0.0,0.0,0.0,0.0,0.0,0.0,-0.43912700496967666,0.0,0.0,0.0,0.0,0.0,0.0,-14.156,0.0,0.0,0.0
262,0.0,0.0,0.0,-0.18533203125,0.0,0.0,0.0,0.0,0.0,0.0,-0.603,0.0,0.0,0.0,0.0,0.0,0.0,-0.44520539536758597,0.0,0.0,0.0,0.0,0.0,0.0,-13.856,0.0,0.0,0.0
263,0.0,0.0,0.0,-0.190990234375,0.0,0.0,0.0,0.0,0.0,0.0,-0.589,0.0,0.0,0.0,0.0,0.0,0.0,-0.45118745657100756,0.0,0.0,0.0,0.0,0.0,0.0,-14.224,0.0,0.0,0.0
264,0.0,0.0,0.0,-0.1970712890625,0.0,0.0,0.0,0.0,0.0,0.0,-0.585,0.0,0.0,0.0,0.0,0.0,0.0,-0.45708597327797473,0.0,0.0,0.0,0.0,0.0,0.0,-14.772,0.0,0.0,0.0
265,0.0,0.0,0.0,-0.2030087890625,0.0,0.0,0.0,0.0,0.0,0.0,-0.613,0.0,0.0,0.0,0.0,0.0,0.0,-0.46284569075436083,0.0,0.0,0.0,0.0,0.0,0.0,-14.316,0.0,0.0,0.0
266,0.0,0.0,0.0,-0.208658203125,0.0,0.0,0.0,0.0,0.0,0.0,-0.581,0.0,0.0,0.0,0.0,0.0,0.0,-0.46946010780991937,0.0,0.0,0.0,0.0,0.0,0.0,-14.728,0.0,0.0,0.0
267,0.0,0.0,0.0,-0.2145947265625,0.0,0.0,0.0,0.0,0.0,0.0,-0.585,0.0,0.0,0.0,0.0,0.0,0.0,-0.4740744125333489,0.0,0.0,0.0,0.0,0.0,0.0,-14.224,0.0,0.0,0.0
268,0.0,0.0,0.0,-0.220244140625,0.0,0.0,0.0,0.0,0.0,0.0,-0.584,0.0,0.0,0.0,0.0,0.0,0.0,-0.47957092035791804,0.0,0.0,0.0,0.0,0.0,0.0,-14.084,0.0,0.0,0.0
269,0.0,0.0,0.0,-0.226037109375,0.0,0.0,0.0,0.0,0.0,0.0,-0.573,0.0,0.0,0.0,0.0,0.0,0.0,-0.48489247615436254,0.0,0.0,0.0,0.0,0.0,0.0,-14.544,0.0,0.0,0.0
270,0.0,0.0,0.0,-0.2321181640625,0.0,0.0,0.0,0.0,0.0,0.0,-0.595,0.0,0.0,0.0,0.0,0.0,0.0,-0.49014724966919954,0.0,0.0,0.0,0.0,0.0,0.0,-13.996,0.0,0.0,0.0
271,0.0,0.0,0.0,-0.2438583984375,0.0,0.0,0.0,0.0,0.0,0.0,-0.587,0.0,0.0,0.0,0.0,0.0,0.0,-0.49681643773198586,0.0,0.0,0.0,0.0,0.0,0.0,-13.764,0.0,0.0,0.0
272,0.0,0.0,0.0,-0.2438583984375,0.0,0.0,0.0,0.0,0.0,0.0,-0.587,0.0,0.0,0.0,0.0,0.0,0.0,-0.5011151730104055,0.0,0.0,0.0,0.0,0.0,0.0,-13.764,0.0,0.0,0.0
273,0.0,0.0,0.0,-0.2497861328125,0.0,0.0,0.0,0.0,0.0,0.0,-0.611,0.0,0.0,0.0,0.0,0.0,0.0,-0.505318353007712,0.0,0.0,0.0,0.0,0.0,0.0,-13.72,0.0,0.0,0.0
274,0.0,0.0,0.0,-0.2616611328125,0.0,0.0,0.0,0.0,0.0,0.0,-0.593,0.0,0.0,0.0,0.0,0.0,0.0,-0.5139879792941412,0.0,0.0,0.0,0.0,0.0,0.0,-14.68,0.0,0.0,0.0
275,0.0,0.0,0.0,-0.267462890625,0.0,0.0,0.0,0.0,0.0,0.0,-0.603,0.0,0.0,0.0,0.0,0.0,0.0,-0.5170874717523752,0.0,0.0,0.0,0.0,0.0,0.0,-14.268,0.0,0.0,0.0
276,0.0,0.0,0.0,-0.267462890625,0.0,0.0,0.0,0.0,0.0,0.0,-0.603,0.0,0.0,0.0,0.0,0.0,0.0,-0.5196535034319337,0.0,0.0,0.0,0.0,0.0,0.0,-14.268,0.0,0.0,0.0
277,0.0,0.0,0.0,-0.2790400390625,0.0,0.0,0.0,0.0,0.0,0.0,-0.583,0.0,0.0,0.0,0.0,0.0,0.0,-0.5286812845288051,0.0,0.0,0.0,0.0,0.0,0.0,-14.248,0.0,0.0,0.0
278,0.0,0.0,0.0,-0.284689453125,0.0,0.0,0.0,0.0,0.0,0.0,-0.575,0.0,0.0,0.0,0.0,0.0,0.0,-0.5311366856748317,0.0,0.0,0.0,0.0,0.0,0.0,-13.904,0.0,0.0,0.0
279,0.0,0.0,0.0,-0.2904912109375,0.0,0.0,0.0,0.0,0.0,0.0,-0.576,0.0,0.0,0.0,0.0,0.0,0.0,-0.5334017925538641,0.0,0.0,0.0,0.0,0.0,0.0,-14.336,0.0,0.0,0.0
280,0.0,0.0,0.0,-0.3023564453125,0.0,0.0,0.0,0.0,0.0,0.0,-0.597,0.0,0.0,0.0,0.0,0.0,0.0,-0.5437110087572621,0.0,0.0,0.0,0.0,0.0,0.0,-13.584,0.0,0.0,0.0
281,0.0,0.0,0.0,-0.3082939453125,0.0,0.0,0.0,0.0,0.0,0.0,-0.59,0.0,0.0,0.0,0.0,0.0,0.0,-0.5464726879129733,0.0,0.0,0.0,0.0,0.0,0.0,-13.56,0.0,0.0,0.0
282,0.0,0.0,0.0,-0.3140966796875,0.0,0.0,0.0,0.0,0.0,0.0,-0.594,0.0,0.0,0.0,0.0,0.0,0.0,-0.5498452805324301,0.0,0.0,0.0,0.0,0.0,0.0,-13.56,0.0,0.0,0.0
283,0.0,0.0,0.0,-0.3200341796875,0.0,0.0,0.0,0.0,0.0,0.0,-0.591,0.0,0.0,0.0,0.0,0.0,0.0,-0.5522481531506293,0.0,0.0,0.0,0.0,0.0,0.0,-14.176,0.0,0.0,0.0
284,0.0,0.0,0.0,-0.3200341796875,0.0,0.0,0.0,0.0,0.0,0.0,-0.591,0.0,0.0,0.0,0.0,0.0,0.0,-0.5545061998632363,0.0,0.0,0.0,0.0,0.0,0.0,-14.176,0.0,0.0,0.0
285,0.0,0.0,0.0,-0.3259716796875,0.0,0.0,0.0,0.0,0.0,0.0,-0.602,0.0,0.0,0.0,0.0,0.0,0.0,-0.5567109414523317,0.0,0.0,0.0,0.0,0.0,0.0,-14.2,0.0,0.0,0.0
286,0.0,0.0,0.0,-0.3317548828125,0.0,0.0,0.0,0.0,0.0,0.0,-0.59,0.0,0.0,0.0,0.0,0.0,0.0,-0.5600247564782702,0.0,0.0,0.0,0.0,0.0,0.0,-13.924,0.0,0.0,0.0
287,0.0,0.0,0.0,-0.3317548828125,0.0,0.0,0.0,0.0,0.0,0.0,-0.59,0.0,0.0,0.0,0.0,0.0,0.0,-0.5620702929692578,0.0,0.0,0.0,0.0,0.0,0.0,-13.924,0.0,0.0,0.0
288,0.0,0.0,0.0,-0.3376923828125,0.0,0.0,0.0,0.0,0.0,0.0,-0.581,0.0,0.0,0.0,0.0,0.0,0.0,-0.5648261998949089,0.0,0.0,0.0,0.0,0.0,0.0,-14.2,0.0,0.0,0.0
289,0.0,0.0,0.0,-0.3434951171875,0.0,0.0,0.0,0.0,0.0,0.0,-0.594,0.0,0.0,0.0,0.0,0.0,0.0,-0.5678063079662564,0.0,0.0,0.0,0.0,0.0,0.0,-13.924,0.0,0.0,0.0
290,0.0,0.0,0.0,-0.349134765625,0.0,0.0,0.0,0.0,0.0,0.0,-0.575,0.0,0.0,0.0,0.0,0.0,0.0,-0.5705820574332507,0.0,0.0,0.0,0.0,0.0,0.0,-13.744,0.0,0.0,0.0
291,0.0,0.0,0.0,-0.3550712890625,0.0,0.0,0.0,0.0,0.0,0.0,-0.588,0.0,0.0,0.0,0.0,0.0,0.0,-0.5732941538333799,0.0,0.0,0.0,0.0,0.0,0.0,-13.836,0.0,0.0,0.0
292,0.0,0.0,0.0,-0.3610087890625,0.0,0.0,0.0,0.0,0.0,0.0,-0.6,0.0,0.0,0.0,0.0,0.0,0.0,-0.5760418716021206,0.0,0.0,0.0,0.0,0.0,0.0,-13.124,0.0,0.0,0.0
293,0.0,0.0,0.0,-0.3668017578125,0.0,0.0,0.0,0.0,0.0,0.0,-0.588,0.0,0.0,0.0,0.0,0.0,0.0,-0.5784817203870632,0.0,0.0,0.0,0.0,0.0,0.0,-13.284,0.0,0.0,0.0
294,0.0,0.0,0.0,-0.3727392578125,0.0,0.0,0.0,0.0,0.0,0.0,-0.594,0.0,0.0,0.0,0.0,0.0,0.0,-0.5806758443709009,0.0,0.0,0.0,0.0,0.0,0.0,-13.308,0.0,0.0,0.0
295,0.0,0.0,0.0,-0.3786767578125,0.0,0.0,0.0,0.0,0.0,0.0,-0.597,0.0,0.0,0.0,0.0,0.0,0.0,-0.5832018388324802,0.0,0.0,0.0,0.0,0.0,0.0,-13.444,0.0,0.0,0.0
296,0.0,0.0,0.0,-0.3847587890625,0.0,0.0,0.0,0.0,0.0,0.0,-0.601,0.0,0.0,0.0,0.0,0.0,0.0,-0.5849455138933424,0.0,0.0,0.0,0.0,0.0,0.0,-13.948,0.0,0.0,0.0
297,0.0,0.0,0.0,-0.3963447265625,0.0,0.0,0.0,0.0,0.0,0.0,-0.583,0.0,0.0,0.0,0.0,0.0,0.0,-0.587734555273651,0.0,0.0,0.0,0.0,0.0,0.0,-13.72,0.0,0.0,0.0
298,0.0,0.0,0.0,-0.4021376953125,0.0,0.0,0.0,0.0,0.0,0.0,-0.584,0.0,0.0,0.0,0.0,0.0,0.0,-0.5895326239921511,0.0,0.0,0.0,0.0,0.0,0.0,-13.628,0.0,0.0,0.0
299,0.0,0.0,0.0,-0.4079306640625,0.0,0.0,0.0,0.0,0.0,0.0,-0.582,0.0,0.0,0.0,0.0,0.0,0.0,-0.5910422095723357,0.0,0.0,0.0,0.0,0.0,0.0,-13.604,0.0,0.0,0.0
300,0.0,0.0,0.0,-0.4079306640625,0.0,0.0,0.0,0.0,0.0,0.0,-0.582,0.0,0.0,0.0,0.0,0.0,0.0,-0.5920741880137975,0.0,0.0,0.0,0.0,0.0,0.0,-13.604,0.0,0.0,0.0
301,0.0,0.0,0.0,-0.41965234375,0.0,0.0,0.0,0.0,0.0,0.0,-0.588,0.0,0.0,0.0,0.0,0.0,0.0,-0.5942451364025391,0.0,0.0,0.0,0.0,0.0,0.0,-13.284,0.0,0.0,0.0
302,0.0,0.0,0.0,-0.4254541015625,0.0,0.0,0.0,0.0,0.0,0.0,-0.593,0.0,0.0,0.0,0.0,0.0,0.0,-0.5954359616809988,0.0,0.0,0.0,0.0,0.0,0.0,-12.872,0.0,0.0,0.0
303,0.0,0.0,0.0,-0.4313828125,0.0,0.0,0.0,0.0,0.0,0.0,-0.594,0.0,0.0,0.0,0.0,0.0,0.0,-0.5967759962935004,0.0,0.0,0.0,0.0,0.0,0.0,-12.964,0.0,0.0,0.0
304,0.0,0.0,0.0,-0.4373203125,0.0,0.0,0.0,0.0,0.0,0.0,-0.596,0.0,0.0,0.0,0.0,0.0,0.0,-0.5972945075645857,0.0,0.0,0.0,0.0,0.0,0.0,-13.08,0.0,0.0,0.0
305,0.0,0.0,0.0,-0.4432578125,0.0,0.0,0.0,0.0,0.0,0.0,-0.593,0.0,0.0,0.0,0.0,0.0,0.0,-0.5978837852474699,0.0,0.0,0.0,0.0,0.0,0.0,-13.332,0.0,0.0,0.0
306,0.0,0.0,0.0,-0.449185546875,0.0,0.0,0.0,0.0,0.0,0.0,-0.596,0.0,0.0,0.0,0.0,0.0,0.0,-0.5985322288811289,0.0,0.0,0.0,0.0,0.0,0.0,-13.676,0.0,0.0,0.0
307,0.0,0.0,0.0,-0.449185546875,0.0,0.0,0.0,0.0,0.0,0.0,-0.596,0.0,0.0,0.0,0.0,0.0,0.0,-0.5990409531352353,0.0,0.0,0.0,0.0,0.0,0.0,-13.676,0.0,0.0,0.0
308,0.0,0.0,0.0,-0.4606279296875,0.0,0.0,0.0,0.0,0.0,0.0,-0.574,0.0,0.0,0.0,0.0,0.0,0.0,-0.5996532279900108,0.0,0.0,0.0,0.0,0.0,0.0,-13.516,0.0,0.0,0.0
309,0.0,0.0,0.0,-0.4665654296875,0.0,0.0,0.0,0.0,0.0,0.0,-0.588,0.0,0.0,0.0,0.0,0.0,0.0,-0.5998329944318759,0.0,0.0,0.0,0.0,0.0,0.0,-13.284,0.0,0.0,0.0
310,0.0,0.0,0.0,-0.4722138671875,0.0,0.0,0.0,0.0,0.0,0.0,-0.576,0.0,0.0,0.0,0.0,0.0,0.0,-0.5999951855565788,0.0,0.0,0.0,0.0,0.0,0.0,-13.032,0.0,0.0,0.0
311,0.0,0.0,0.0,-0.478142578125,0.0,0.0,0.0,0.0,0.0,0.0,-0.582,0.0,0.0,0.0,0.0,0.0,0.0,-0.5999854917681475,0.0,0.0,0.0,0.0,0.0,0.0,-13.284,0.0,0.0,0.0
312,0.0,0.0,0.0,-0.478142578125,0.0,0.0,0.0,0.0,0.0,0.0,-0.582,0.0,0.0,0.0,0.0,0.0,0.0,-0.5999149938360786,0.0,0.0,0.0,0.0,0.0,0.0,-13.284,0.0,0.0,0.0
313,0.0,0.0,0.0,-0.483935546875,0.0,0.0,0.0,0.0,0.0,0.0,-0.594,0.0,0.0,0.0,0.0,0.0,0.0,-0.5997197925609,0.0,0.0,0.0,0.0,0.0,0.0,-12.712,0.0,0.0,0.0
314,0.0,0.0,0.0,-0.489873046875,0.0,0.0,0.0,0.0,0.0,0.0,-0.588,0.0,0.0,0.0,0.0,0.0,0.0,-0.5993392873262824,0.0,0.0,0.0,0.0,0.0,0.0,-12.624,0.0,0.0,0.0
315,0.0,0.0,0.0,-0.5017470703125,0.0,0.0,0.0,0.0,0.0,0.0,-0.592,0.0,0.0,0.0,0.0,0.0,0.0,-0.5987833059387805,0.0,0.0,0.0,0.0,0.0,0.0,-12.852,0.0,0.0,0.0
316,0.0,0.0,0.0,-0.5017470703125,0.0,0.0,0.0,0.0,0.0,0.0,-0.592,0.0,0.0,0.0,0.0,0.0,0.0,-0.5982892467506985,0.0,0.0,0.0,0.0,0.0,0.0,-12.852,0.0,0.0,0.0
317,0.0,0.0,0.0,-0.50753125,0.0,0.0,0.0,0.0,0.0,0.0,-0.594,0.0,0.0,0.0,0.0,0.0,0.0,-0.597517610374171,0.0,0.0,0.0,0.0,0.0,0.0,-13.192,0.0,0.0,0.0
318,0.0,0.0,0.0,-0.51346875,0.0,0.0,0.0,0.0,0.0,0.0,-0.595,0.0,0.0,0.0,0.0,0.0,0.0,-0.596637259615217,0.0,0.0,0.0,0.0,0.0,0.0,-13.264,0.0,0.0,0.0
319,0.0,0.0,0.0,-0.5250546875,0.0,0.0,0.0,0.0,0.0,0.0,-0.584,0.0,0.0,0.0,0.0,0.0,0.0,-0.5944832059053569,0.0,0.0,0.0,0.0,0.0,0.0,-13.148,0.0,0.0,0.0
320,0.0,0.0,0.0,-0.5364873046875,0.0,0.0,0.0,0.0,0.0,0.0,-0.572,0.0,0.0,0.0,0.0,0.0,0.0,-0.5928105303342203,0.0,0.0,0.0,0.0,0.0,0.0,-12.76,0.0,0.0,0.0
321,0.0,0.0,0.0,-0.5364873046875,0.0,0.0,0.0,0.0,0.0,0.0,-0.572,0.0,0.0,0.0,0.0,0.0,0.0,-0.5918887898011072,0.0,0.0,0.0,0.0,0.0,0.0,-12.76,0.0,0.0,0.0
322,0.0,0.0,0.0,-0.5424248046875,0.0,0.0,0.0,0.0,0.0,0.0,-0.594,0.0,0.0,0.0,0.0,0.0,0.0,-0.5908514994389228,0.0,0.0,0.0,0.0,0.0,0.0,-12.736,0.0,0.0,0.0
323,0.0,0.0,0.0,-0.554146484375,0.0,0.0,0.0,0.0,0.0,0.0,-0.591,0.0,0.0,0.0,0.0,0.0,0.0,-0.5880956917822484,0.0,0.0,0.0,0.0,0.0,0.0,-12.304,0.0,0.0,0.0
324,0.0,0.0,0.0,-0.554146484375,0.0,0.0,0.0,0.0,0.0,0.0,-0.591,0.0,0.0,0.0,0.0,0.0,0.0,-0.5870339526949694,0.0,0.0,0.0,0.0,0.0,0.0,-12.304,0.0,0.0,0.0
325,0.0,0.0,0.0,-0.560083984375,0.0,0.0,0.0,0.0,0.0,0.0,-0.602,0.0,0.0,0.0,0.0,0.0,0.0,-0.5850599956763148,0.0,0.0,0.0,0.0,0.0,0.0,-12.232,0.0,0.0,0.0
326,0.0,0.0,0.0,-0.566021484375,0.0,0.0,0.0,0.0,0.0,0.0,-0.59,0.0,0.0,0.0,0.0,0.0,0.0,-0.5828469925439671,0.0,0.0,0.0,0.0,0.0,0.0,-12.464,0.0,0.0,0.0
327,0.0,0.0,0.0,-0.57194921875,0.0,0.0,0.0,0.0,0.0,0.0,-0.601,0.0,0.0,0.0,0.0,0.0,0.0,-0.5803745829502492,0.0,0.0,0.0,0.0,0.0,0.0,-12.852,0.0,0.0,0.0
328,0.0,0.0,0.0,-0.5835263671875,0.0,0.0,0.0,0.0,0.0,0.0,-0.579,0.0,0.0,0.0,0.0,0.0,0.0,-0.5764971179875948,0.0,0.0,0.0,0.0,0.0,0.0,-12.624,0.0,0.0,0.0
329,0.0,0.0,0.0,-0.5885888671875,0.0,0.0,0.0,0.0,0.0,0.0,-0.557,0.0,0.0,0.0,0.0,0.0,0.0,-0.5744474910925438,0.0,0.0,0.0,0.0,0.0,0.0,-10.748,0.0,0.0,0.0
330,0.0,0.0,0.0,-0.5885888671875,0.0,0.0,0.0,0.0,0.0,0.0,-0.557,0.0,0.0,0.0,0.0,0.0,0.0,-0.5727896658182524,0.0,0.0,0.0,0.0,0.0,0.0,-10.748,0.0,0.0,0.0
331,0.0,0.0,0.0,-0.591927734375,0.0,0.0,0.0,0.0,0.0,0.0,-0.175,0.0,0.0,0.0,0.0,0.0,0.0,-0.568312039149147,0.0,0.0,0.0,0.0,0.0,0.0,-6.104,0.0,0.0,0.0
332,0.0,0.0,0.0,-0.591783203125,0.0,0.0,0.0,0.0,0.0,0.0,-0.025,0.0,0.0,0.0,0.0,0.0,0.0,-0.5659264476988807,0.0,0.0,0.0,0.0,0.0,0.0,-6.812,0.0,0.0,0.0
333,0.0,0.0,0.0,-0.590763671875,0.0,0.0,0.0,0.0,0.0,0.0,0.036,0.0,0.0,0.0,0.0,0.0,0.0,-0.5638929213063238,0.0,0.0,0.0,0.0,0.0,0.0,-6.608,0.0,0.0,0.0
334,0.0,0.0,0.0,-0.590763671875,0.0,0.0,0.0,0.0,0.0,0.0,0.036,0.0,0.0,0.0,0.0,0.0,0.0,-0.5621459593588005,0.0,0.0,0.0,0.0,0.0,0.0,-6.608,0.0,0.0,0.0
335,0.0,0.0,0.0,-0.590763671875,0.0,0.0,0.0,0.0,0.0,0.0,0.036,0.0,0.0,0.0,0.0,0.0,0.0,-0.5603817265621381,0.0,0.0,0.0,0.0,0.0,0.0,-6.608,0.0,0.0,0.0
336,0.0,0.0,0.0,-0.5884443359375,0.0,0.0,0.0,0.0,0.0,0.0,0.164,0.0,0.0,0.0,0.0,0.0,0.0,-0.5573932194119928,0.0,0.0,0.0,0.0,0.0,0.0,-6.492,0.0,0.0,0.0
337,0.0,0.0,0.0,-0.5867119140625,0.0,0.0,0.0,0.0,0.0,0.0,0.22,0.0,0.0,0.0,0.0,0.0,0.0,-0.5548837147994718,0.0,0.0,0.0,0.0,0.0,0.0,-6.836,0.0,0.0,0.0
338,0.0,0.0,0.0,-0.584681640625,0.0,0.0,0.0,0.0,0.0,0.0,0.166,0.0,0.0,0.0,0.0,0.0,0.0,-0.5509622925214736,0.0,0.0,0.0,0.0,0.0,0.0,-5.74,0.0,0.0,0.0
339,0.0,0.0,0.0,-0.581072265625,0.0,0.0,0.0,0.0,0.0,0.0,0.278,0.0,0.0,0.0,0.0,0.0,0.0,-0.5475960649319469,0.0,0.0,0.0,0.0,0.0,0.0,-5.028,0.0,0.0,0.0
340,0.0,0.0,0.0,-0.5777421875,0.0,0.0,0.0,0.0,0.0,0.0,0.357,0.0,0.0,0.0,0.0,0.0,0.0,-0.5440111840048155,0.0,0.0,0.0,0.0,0.0,0.0,-6.676,0.0,0.0,0.0
341,0.0,0.0,0.0,-0.5697841796875,0.0,0.0,0.0,0.0,0.0,0.0,0.394,0.0,0.0,0.0,0.0,0.0,0.0,-0.5365614051387755,0.0,0.0,0.0,0.0,0.0,0.0,-8.092,0.0,0.0,0.0
342,0.0,0.0,0.0,-0.565001953125,0.0,0.0,0.0,0.0,0.0,0.0,0.461,0.0,0.0,0.0,0.0,0.0,0.0,-0.5337276491711052,0.0,0.0,0.0,0.0,0.0,0.0,-6.676,0.0,0.0,0.0
343,0.0,0.0,0.0,-0.559794921875,0.0,0.0,0.0,0.0,0.0,0.0,0.495,0.0,0.0,0.0,0.0,0.0,0.0,-0.5311566733315427,0.0,0.0,0.0,0.0,0.0,0.0,-7.34,0.0,0.0,0.0
344,0.0,0.0,0.0,-0.559794921875,0.0,0.0,0.0,0.0,0.0,0.0,0.495,0.0,0.0,0.0,0.0,0.0,0.0,-0.527915665720689,0.0,0.0,0.0,0.0,0.0,0.0,-7.34,0.0,0.0,0.0
345,0.0,0.0,0.0,-0.5545888671875,0.0,0.0,0.0,0.0,0.0,0.0,0.525,0.0,0.0,0.0,0.0,0.0,0.0,-0.522684267031983,0.0,0.0,0.0,0.0,0.0,0.0,-8.848,0.0,0.0,0.0
346,0.0,0.0,0.0,-0.5493642578125,0.0,0.0,0.0,0.0,0.0,0.0,0.523,0.0,0.0,0.0,0.0,0.0,0.0,-0.5190584816660216,0.0,0.0,0.0,0.0,0.0,0.0,-9.924,0.0,0.0,0.0
347,0.0,0.0,0.0,-0.539095703125,0.0,0.0,0.0,0.0,0.0,0.0,0.52,0.0,0.0,0.0,0.0,0.0,0.0,-0.511614629926139,0.0,0.0,0.0,0.0,0.0,0.0,-11.82,0.0,0.0,0.0
348,0.0,0.0,0.0,-0.5337353515625,0.0,0.0,0.0,0.0,0.0,0.0,0.517,0.0,0.0,0.0,0.0,0.0,0.0,-0.5085079200693584,0.0,0.0,0.0,0.0,0.0,0.0,-10.312,0.0,0.0,0.0
349,0.0,0.0,0.0,-0.5337353515625,0.0,0.0,0.0,0.0,0.0,0.0,0.517,0.0,0.0,0.0,0.0,0.0,0.0,-0.5050816561170456,0.0,0.0,0.0,0.0,0.0,0.0,-10.312,0.0,0.0,0.0
350,0.0,0.0,0.0,-0.5276630859375,0.0,0.0,0.0,0.0,0.0,0.0,0.575,0.0,0.0,0.0,0.0,0.0,0.0,-0.5001446719821296,0.0,0.0,0.0,0.0,0.0,0.0,-11.204,0.0,0.0,0.0
351,0.0,0.0,0.0,-0.516654296875,0.0,0.0,0.0,0.0,0.0,0.0,0.541,0.0,0.0,0.0,0.0,0.0,0.0,-0.4936915990845736,0.0,0.0,0.0,0.0,0.0,0.0,-13.744,0.0,0.0,0.0
352,0.0,0.0,0.0,-0.516654296875,0.0,0.0,0.0,0.0,0.0,0.0,0.541,0.0,0.0,0.0,0.0,0.0,0.0,-0.4899891903882545,0.0,0.0,0.0,0.0,0.0,0.0,-13.744,0.0,0.0,0.0
353,0.0,0.0,0.0,-0.510716796875,0.0,0.0,0.0,0.0,0.0,0.0,0.573,0.0,0.0,0.0,0.0,0.0,0.0,-0.4847204499744694,0.0,0.0,0.0,0.0,0.0,0.0,-14.52,0.0,0.0,0.0
354,0.0,0.0,0.0,-0.500150390625,0.0,0.0,0.0,0.0,0.0,0.0,0.51,0.0,0.0,0.0,0.0,0.0,0.0,-0.477542522821363,0.0,0.0,0.0,0.0,0.0,0.0,-11.892,0.0,0.0,0.0
355,0.0,0.0,0.0,-0.500150390625,0.0,0.0,0.0,0.0,0.0,0.0,0.51,0.0,0.0,0.0,0.0,0.0,0.0,-0.47382628525379733,0.0,0.0,0.0,0.0,0.0,0.0,-11.892,0.0,0.0,0.0
356,0.0,0.0,0.0,-0.4937890625,0.0,0.0,0.0,0.0,0.0,0.0,0.612,0.0,0.0,0.0,0.0,0.0,0.0,-0.4683341078575618,0.0,0.0,0.0,0.0,0.0,0.0,-13.308,0.0,0.0,0.0
357,0.0,0.0,0.0,-0.4842236328125,0.0,0.0,0.0,0.0,0.0,0.0,0.47,0.0,0.0,0.0,0.0,0.0,0.0,-0.4606189538932812,0.0,0.0,0.0,0.0,0.0,0.0,-15.572,0.0,0.0,0.0
358,0.0,0.0,0.0,-0.4842236328125,0.0,0.0,0.0,0.0,0.0,0.0,0.47,0.0,0.0,0.0,0.0,0.0,0.0,-0.4568863418986151,0.0,0.0,0.0,0.0,0.0,0.0,-15.572,0.0,0.0,0.0
359,0.0,0.0,0.0,-0.4785751953125,0.0,0.0,0.0,0.0,0.0,0.0,0.51,0.0,0.0,0.0,0.0,0.0,0.0,-0.4509628050370391,0.0,0.0,0.0,0.0,0.0,0.0,-13.904,0.0,0.0,0.0
360,0.0,0.0,0.0,-0.466853515625,0.0,0.0,0.0,0.0,0.0,0.0,0.58,0.0,0.0,0.0,0.0,0.0,0.0,-0.44363177798718323,0.0,0.0,0.0,0.0,0.0,0.0,-12.964,0.0,0.0,0.0
361,0.0,0.0,0.0,-0.466853515625,0.0,0.0,0.0,0.0,0.0,0.0,0.58,0.0,0.0,0.0,0.0,0.0,0.0,-0.4389009205130542,0.0,0.0,0.0,0.0,0.0,0.0,-12.964,0.0,0.0,0.0
362,0.0,0.0,0.0,-0.460916015625,0.0,0.0,0.0,0.0,0.0,0.0,0.608,0.0,0.0,0.0,0.0,0.0,0.0,-0.4315945087173646,0.0,0.0,0.0,0.0,0.0,0.0,-14.888,0.0,0.0,0.0
363,0.0,0.0,0.0,-0.4488974609375,0.0,0.0,0.0,0.0,0.0,0.0,0.613,0.0,0.0,0.0,0.0,0.0,0.0,-0.4249587304227304,0.0,0.0,0.0,0.0,0.0,0.0,-14.864,0.0,0.0,0.0
364,0.0,0.0,0.0,-0.4488974609375,0.0,0.0,0.0,0.0,0.0,0.0,0.613,0.0,0.0,0.0,0.0,0.0,0.0,-0.4196107489148447,0.0,0.0,0.0,0.0,0.0,0.0,-14.864,0.0,0.0,0.0
365,0.0,0.0,0.0,-0.4435458984375,0.0,0.0,0.0,0.0,0.0,0.0,0.574,0.0,0.0,0.0,0.0,0.0,0.0,-0.4135998619989002,0.0,0.0,0.0,0.0,0.0,0.0,-11.96,0.0,0.0,0.0
366,0.0,0.0,0.0,-0.43152734375,0.0,0.0,0.0,0.0,0.0,0.0,0.613,0.0,0.0,0.0,0.0,0.0,0.0,-0.4024346700723274,0.0,0.0,0.0,0.0,0.0,0.0,-13.468,0.0,0.0,0.0
367,0.0,0.0,0.0,-0.4260322265625,0.0,0.0,0.0,0.0,0.0,0.0,0.586,0.0,0.0,0.0,0.0,0.0,0.0,-0.39829267548281333,0.0,0.0,0.0,0.0,0.0,0.0,-13.744,0.0,0.0,0.0
368,0.0,0.0,0.0,-0.4260322265625,0.0,0.0,0.0,0.0,0.0,0.0,0.586,0.0,0.0,0.0,0.0,0.0,0.0,-0.3936303719602769,0.0,0.0,0.0,0.0,0.0,0.0,-13.744,0.0,0.0,0.0
369,0.0,0.0,0.0,-0.41400390625,0.0,0.0,0.0,0.0,0.0,0.0,0.612,0.0,0.0,0.0,0.0,0.0,0.0,-0.38153503681024103,0.0,0.0,0.0,0.0,0.0,0.0,-13.264,0.0,0.0,0.0
370,0.0,0.0,0.0,-0.3976533203125,0.0,0.0,0.0,0.0,0.0,0.0,0.575,0.0,0.0,0.0,0.0,0.0,0.0,-0.36203556764222183,0.0,0.0,0.0,0.0,0.0,0.0,-13.972,0.0,0.0,0.0
371,0.0,0.0,0.0,-0.3919951171875,0.0,0.0,0.0,0.0,0.0,0.0,0.589,0.0,0.0,0.0,0.0,0.0,0.0,-0.35278494441390135,0.0,0.0,0.0,0.0,0.0,0.0,-13.584,0.0,0.0,0.0
372,0.0,0.0,0.0,-0.37028515625,0.0,0.0,0.0,0.0,0.0,0.0,0.52,0.0,0.0,0.0,0.0,0.0,0.0,-0.32607196629428603,0.0,0.0,0.0,0.0,0.0,0.0,-13.056,0.0,0.0,0.0
373,0.0,0.0,0.0,-0.3534833984375,0.0,0.0,0.0,0.0,0.0,0.0,0.575,0.0,0.0,0.0,0.0,0.0,0.0,-0.304160520494916,0.0,0.0,0.0,0.0,0.0,0.0,-12.896,0.0,0.0,0.0
374,0.0,0.0,0.0,-0.336681640625,0.0,0.0,0.0,0.0,0.0,0.0,0.552,0.0,0.0,0.0,0.0,0.0,0.0,-0.2808700325369393,0.0,0.0,0.0,0.0,0.0,0.0,-13.356,0.0,0.0,0.0
375,0.0,0.0,0.0,-0.330744140625,0.0,0.0,0.0,0.0,0.0,0.0,0.553,0.0,0.0,0.0,0.0,0.0,0.0,-0.266906378116749,0.0,0.0,0.0,0.0,0.0,0.0,-12.784,0.0,0.0,0.0
376,0.0,0.0,0.0,-0.3246630859375,0.0,0.0,0.0,0.0,0.0,0.0,0.611,0.0,0.0,0.0,0.0,0.0,0.0,-0.25811286364177605,0.0,0.0,0.0,0.0,0.0,0.0,-12.736,0.0,0.0,0.0
377,0.0,0.0,0.0,-0.3188701171875,0.0,0.0,0.0,0.0,0.0,0.0,0.596,0.0,0.0,0.0,0.0,0.0,0.0,-0.250532072005307,0.0,0.0,0.0,0.0,0.0,0.0,-12.784,0.0,0.0,0.0
378,0.0,0.0,0.0,-0.3188701171875,0.0,0.0,0.0,0.0,0.0,0.0,0.596,0.0,0.0,0.0,0.0,0.0,0.0,-0.2457826099444407,0.0,0.0,0.0,0.0,0.0,0.0,-12.784,0.0,0.0,0.0
379,0.0,0.0,0.0,-0.3068505859375,0.0,0.0,0.0,0.0,0.0,0.0,0.612,0.0,0.0,0.0,0.0,0.0,0.0,-0.23849522557962752,0.0,0.0,0.0,0.0,0.0,0.0,-13.516,0.0,0.0,0.0
380,0.0,0.0,0.0,-0.3013466796875,0.0,0.0,0.0,0.0,0.0,0.0,0.563,0.0,0.0,0.0,0.0,0.0,0.0,-0.2297696933608496,0.0,0.0,0.0,0.0,0.0,0.0,-12.784,0.0,0.0,0.0
381,0.0,0.0,0.0,-0.3013466796875,0.0,0.0,0.0,0.0,0.0,0.0,0.563,0.0,0.0,0.0,0.0,0.0,0.0,-0.2228865162438771,0.0,0.0,0.0,0.0,0.0,0.0,-12.784,0.0,0.0,0.0
382,0.0,0.0,0.0,-0.28948046875,0.0,0.0,0.0,0.0,0.0,0.0,0.601,0.0,0.0,0.0,0.0,0.0,0.0,-0.21137147855785535,0.0,0.0,0.0,0.0,0.0,0.0,-13.172,0.0,0.0,0.0
383,0.0,0.0,0.0,-0.2775966796875,0.0,0.0,0.0,0.0,0.0,0.0,0.601,0.0,0.0,0.0,0.0,0.0,0.0,-0.19349696650916637,0.0,0.0,0.0,0.0,0.0,0.0,-14.476,0.0,0.0,0.0
384,0.0,0.0,0.0,-0.2718037109375,0.0,0.0,0.0,0.0,0.0,0.0,0.599,0.0,0.0,0.0,0.0,0.0,0.0,-0.18824260257393563,0.0,0.0,0.0,0.0,0.0,0.0,-14.52,0.0,0.0,0.0
385,0.0,0.0,0.0,-0.2718037109375,0.0,0.0,0.0,0.0,0.0,0.0,0.599,0.0,0.0,0.0,0.0,0.0,0.0,-0.1828943156238234,0.0,0.0,0.0,0.0,0.0,0.0,-14.52,0.0,0.0,0.0
386,0.0,0.0,0.0,-0.2657216796875,0.0,0.0,0.0,0.0,0.0,0.0,0.592,0.0,0.0,0.0,0.0,0.0,0.0,-0.17783595267386573,0.0,0.0,0.0,0.0,0.0,0.0,-13.492,0.0,0.0,0.0
387,0.0,0.0,0.0,-0.259630859375,0.0,0.0,0.0,0.0,0.0,0.0,0.617,0.0,0.0,0.0,0.0,0.0,0.0,-0.16913257063672343,0.0,0.0,0.0,0.0,0.0,0.0,-13.424,0.0,0.0,0.0
388,0.0,0.0,0.0,-0.2538466796875,0.0,0.0,0.0,0.0,0.0,0.0,0.598,0.0,0.0,0.0,0.0,0.0,0.0,-0.1623762364387405,0.0,0.0,0.0,0.0,0.0,0.0,-13.536,0.0,0.0,0.0
389,0.0,0.0,0.0,-0.247765625,0.0,0.0,0.0,0.0,0.0,0.0,0.597,0.0,0.0,0.0,0.0,0.0,0.0,-0.15171075458567793,0.0,0.0,0.0,0.0,0.0,0.0,-13.696,0.0,0.0,0.0
390,0.0,0.0,0.0,-0.241828125,0.0,0.0,0.0,0.0,0.0,0.0,0.607,0.0,0.0,0.0,0.0,0.0,0.0,-0.14513383851560166,0.0,0.0,0.0,0.0,0.0,0.0,-13.492,0.0,0.0,0.0
391,0.0,0.0,0.0,-0.236025390625,0.0,0.0,0.0,0.0,0.0,0.0,0.589,0.0,0.0,0.0,0.0,0.0,0.0,-0.13689513199030273,0.0,0.0,0.0,0.0,0.0,0.0,-13.264,0.0,0.0,0.0
392,0.0,0.0,0.0,-0.21271875,0.0,0.0,0.0,0.0,0.0,0.0,0.599,0.0,0.0,0.0,0.0,0.0,0.0,-0.10271910572158435,0.0,0.0,0.0,0.0,0.0,0.0,-14.544,0.0,0.0,0.0
393,0.0,0.0,0.0,-0.21271875,0.0,0.0,0.0,0.0,0.0,0.0,0.599,0.0,0.0,0.0,0.0,0.0,0.0,-0.09723844200334436,0.0,0.0,0.0,0.0,0.0,0.0,-14.544,0.0,0.0,0.0
394,0.0,0.0,0.0,-0.206771484375,0.0,0.0,0.0,0.0,0.0,0.0,0.589,0.0,0.0,0.0,0.0,0.0,0.0,-0.08628907404854058,0.0,0.0,0.0,0.0,0.0,0.0,-14.588,0.0,0.0,0.0
395,0.0,0.0,0.0,-0.1948974609375,0.0,0.0,0.0,0.0,0.0,0.0,0.595,0.0,0.0,0.0,0.0,0.0,0.0,-0.07130668354581438,0.0,0.0,0.0,0.0,0.0,0.0,-13.744,0.0,0.0,0.0
396,0.0,0.0,0.0,-0.1948974609375,0.0,0.0,0.0,0.0,0.0,0.0,0.595,0.0,0.0,0.0,0.0,0.0,0.0,-0.0658463387627933,0.0,0.0,0.0,0.0,0.0,0.0,-13.744,0.0,0.0,0.0
397,0.0,0.0,0.0,-0.1831669921875,0.0,0.0,0.0,0.0,0.0,0.0,0.594,0.0,0.0,0.0,0.0,0.0,0.0,-0.052713641549821603,0.0,0.0,0.0,0.0,0.0,0.0,-13.424,0.0,0.0,0.0
398,0.0,0.0,0.0,-0.177373046875,0.0,0.0,0.0,0.0,0.0,0.0,0.583,0.0,0.0,0.0,0.0,0.0,0.0,-0.040250415446881,0.0,0.0,0.0,0.0,0.0,0.0,-13.332,0.0,0.0,0.0
399,0.0,0.0,0.0,-0.165931640625,0.0,0.0,0.0,0.0,0.0,0.0,0.579,0.0,0.0,0.0,0.0,0.0,0.0,-0.026949815170689576,0.0,0.0,0.0,0.0,0.0,0.0,-13.812,0.0,0.0,0.0
400,0.0,0.0,0.0,-0.154345703125,0.0,0.0,0.0,0.0,0.0,0.0,0.583,0.0,0.0,0.0,0.0,0.0,0.0,-0.009238345331108384,0.0,0.0,0.0,0.0,0.0,0.0,-14.224,0.0,0.0,0.0
401,0.0,0.0,0.0,-0.148697265625,0.0,0.0,0.0,0.0,0.0,0.0,0.577,0.0,0.0,0.0,0.0,0.0,0.0,0.0009536834547422535,0.0,0.0,0.0,0.0,0.0,0.0,-14.52,0.0,0.0,0.0
402,0.0,0.0,0.0,-0.142615234375,0.0,0.0,0.0,0.0,0.0,0.0,0.584,0.0,0.0,0.0,0.0,0.0,0.0,0.00016200542253101398,0.0,0.0,0.0,0.0,0.0,0.0,-14.656,0.0,0.0,0.0
403,0.0,0.0,0.0,-0.1365244140625,0.0,0.0,0.0,0.0,0.0,0.0,0.62,0.0,0.0,0.0,0.0,0.0,0.0,0.008207732731659671,0.0,0.0,0.0,0.0,0.0,0.0,-14.248,0.0,0.0,0.0
404,0.0,0.0,0.0,-0.1308759765625,0.0,0.0,0.0,0.0,0.0,0.0,0.585,0.0,0.0,0.0,0.0,0.0,0.0,0.016471628935906195,0.0,0.0,0.0,0.0,0.0,0.0,-13.744,0.0,0.0,0.0
405,0.0,0.0,0.0,-0.1249384765625,0.0,0.0,0.0,0.0,0.0,0.0,0.584,0.0,0.0,0.0,0.0,0.0,0.0,0.025476757060775426,0.0,0.0,0.0,0.0,0.0,0.0,-13.628,0.0,0.0,0.0
406,0.0,0.0,0.0,-0.1191455078125,0.0,0.0,0.0,0.0,0.0,0.0,0.592,0.0,0.0,0.0,0.0,0.0,0.0,0.034356816912538016,0.0,0.0,0.0,0.0,0.0,0.0,-13.4,0.0,0.0,0.0
407,0.0,0.0,0.0,-0.11334375,0.0,0.0,0.0,0.0,0.0,0.0,0.577,0.0,0.0,0.0,0.0,0.0,0.0,0.04362590018179525,0.0,0.0,0.0,0.0,0.0,0.0,-13.424,0.0,0.0,0.0
408,0.0,0.0,0.0,-0.1074150390625,0.0,0.0,0.0,0.0,0.0,0.0,0.594,0.0,0.0,0.0,0.0,0.0,0.0,0.05249636188271234,0.0,0.0,0.0,0.0,0.0,0.0,-13.628,0.0,0.0,0.0
409,0.0,0.0,0.0,-0.1019111328125,0.0,0.0,0.0,0.0,0.0,0.0,0.579,0.0,0.0,0.0,0.0,0.0,0.0,0.06132133642166242,0.0,0.0,0.0,0.0,0.0,0.0,-13.924,0.0,0.0,0.0
410,0.0,0.0,0.0,-0.0961083984375,0.0,0.0,0.0,0.0,0.0,0.0,0.564,0.0,0.0,0.0,0.0,0.0,0.0,0.07314959083765833,0.0,0.0,0.0,0.0,0.0,0.0,-13.88,0.0,0.0,0.0
411,0.0,0.0,0.0,-0.0901708984375,0.0,0.0,0.0,0.0,0.0,0.0,0.594,0.0,0.0,0.0,0.0,0.0,0.0,0.07915318313789312,0.0,0.0,0.0,0.0,0.0,0.0,-14.476,0.0,0.0,0.0
412,0.0,0.0,0.0,-0.0843779296875,0.0,0.0,0.0,0.0,0.0,0.0,0.581,0.0,0.0,0.0,0.0,0.0,0.0,0.08964879155308801,0.0,0.0,0.0,0.0,0.0,0.0,-14.588,0.0,0.0,0.0
413,0.0,0.0,0.0,-0.07815234375,0.0,0.0,0.0,0.0,0.0,0.0,0.601,0.0,0.0,0.0,0.0,0.0,0.0,0.09711658118599754,0.0,0.0,0.0,0.0,0.0,0.0,-14.408,0.0,0.0,0.0
414,0.0,0.0,0.0,-0.0722060546875,0.0,0.0,0.0,0.0,0.0,0.0,0.619,0.0,0.0,0.0,0.0,0.0,0.0,0.10603352304274453,0.0,0.0,0.0,0.0,0.0,0.0,-14.2,0.0,0.0,0.0
415,0.0,0.0,0.0,-0.0604755859375,0.0,0.0,0.0,0.0,0.0,0.0,0.594,0.0,0.0,0.0,0.0,0.0,0.0,0.12548271600849484,0.0,0.0,0.0,0.0,0.0,0.0,-13.788,0.0,0.0,0.0
416,0.0,0.0,0.0,-0.0548359375,0.0,0.0,0.0,0.0,0.0,0.0,0.59,0.0,0.0,0.0,0.0,0.0,0.0,0.13414898117444835,0.0,0.0,0.0,0.0,0.0,0.0,-13.424,0.0,0.0,0.0
417,0.0,0.0,0.0,-0.0548359375,0.0,0.0,0.0,0.0,0.0,0.0,0.59,0.0,0.0,0.0,0.0,0.0,0.0,0.13924401903270223,0.0,0.0,0.0,0.0,0.0,0.0,-13.424,0.0,0.0,0.0
418,0.0,0.0,0.0,-0.043095703125,0.0,0.0,0.0,0.0,0.0,0.0,0.597,0.0,0.0,0.0,0.0,0.0,0.0,0.1577094432421366,0.0,0.0,0.0,0.0,0.0,0.0,-13.744,0.0,0.0,0.0
419,0.0,0.0,0.0,-0.037447265625,0.0,0.0,0.0,0.0,0.0,0.0,0.574,0.0,0.0,0.0,0.0,0.0,0.0,0.16338084590622623,0.0,0.0,0.0,0.0,0.0,0.0,-13.72,0.0,0.0,0.0
420,0.0,0.0,0.0,-0.0257080078125,0.0,0.0,0.0,0.0,0.0,0.0,0.596,0.0,0.0,0.0,0.0,0.0,0.0,0.18110676354719732,0.0,0.0,0.0,0.0,0.0,0.0,-14.84,0.0,0.0,0.0
421,0.0,0.0,0.0,-0.0197705078125,0.0,0.0,0.0,0.0,0.0,0.0,0.576,0.0,0.0,0.0,0.0,0.0,0.0,0.18990545616160534,0.0,0.0,0.0,0.0,0.0,0.0,-14.772,0.0,0.0,0.0
422,0.0,0.0,0.0,-0.0135439453125,0.0,0.0,0.0,0.0,0.0,0.0,0.614,0.0,0.0,0.0,0.0,0.0,0.0,0.2004387648523985,0.0,0.0,0.0,0.0,0.0,0.0,-14.268,0.0,0.0,0.0
423,0.0,0.0,0.0,-0.00788671875,0.0,0.0,0.0,0.0,0.0,0.0,0.6,0.0,0.0,0.0,0.0,0.0,0.0,0.20800586880596647,0.0,0.0,0.0,0.0,0.0,0.0,-13.72,0.0,0.0,0.0
424,0.0,0.0,0.0,-0.0018046875,0.0,0.0,0.0,0.0,0.0,0.0,0.585,0.0,0.0,0.0,0.0,0.0,0.0,0.21509893333846453,0.0,0.0,0.0,0.0,0.0,0.0,-13.676,0.0,0.0,0.0
425,0.0,0.0,0.0,0.0039873046875,0.0,0.0,0.0,0.0,0.0,0.0,0.6,0.0,0.0,0.0,0.0,0.0,0.0,0.22435708916035133,0.0,0.0,0.0,0.0,0.0,0.0,-13.836,0.0,0.0,0.0
426,0.0,0.0,0.0,0.009626953125,0.0,0.0,0.0,0.0,0.0,0.0,0.573,0.0,0.0,0.0,0.0,0.0,0.0,0.23185124998607345,0.0,0.0,0.0,0.0,0.0,0.0,-13.536,0.0,0.0,0.0
427,0.0,0.0,0.0,0.0157177734375,0.0,0.0,0.0,0.0,0.0,0.0,0.588,0.0,0.0,0.0,0.0,0.0,0.0,0.24012733227340322,0.0,0.0,0.0,0.0,0.0,0.0,-13.812,0.0,0.0,0.0
428,0.0,0.0,0.0,0.0213662109375,0.0,0.0,0.0,0.0,0.0,0.0,0.591,0.0,0.0,0.0,0.0,0.0,0.0,0.2499517780747508,0.0,0.0,0.0,0.0,0.0,0.0,-13.652,0.0,0.0,0.0
429,0.0,0.0,0.0,0.0271591796875,0.0,0.0,0.0,0.0,0.0,0.0,0.572,0.0,0.0,0.0,0.0,0.0,0.0,0.2591544290922557,0.0,0.0,0.0,0.0,0.0,0.0,-13.88,0.0,0.0,0.0
430,0.0,0.0,0.0,0.0387548828125,0.0,0.0,0.0,0.0,0.0,0.0,0.581,0.0,0.0,0.0,0.0,0.0,0.0,0.2689009564631891,0.0,0.0,0.0,0.0,0.0,0.0,-15.024,0.0,0.0,0.0
431,0.0,0.0,0.0,0.0448359375,0.0,0.0,0.0,0.0,0.0,0.0,0.587,0.0,0.0,0.0,0.0,0.0,0.0,0.281578273255635,0.0,0.0,0.0,0.0,0.0,0.0,-14.612,0.0,0.0,0.0
432,0.0,0.0,0.0,0.05091796875,0.0,0.0,0.0,0.0,0.0,0.0,0.618,0.0,0.0,0.0,0.0,0.0,0.0,0.2864482003877589,0.0,0.0,0.0,0.0,0.0,0.0,-13.88,0.0,0.0,0.0
433,0.0,0.0,0.0,0.056576171875,0.0,0.0,0.0,0.0,0.0,0.0,0.586,0.0,0.0,0.0,0.0,0.0,0.0,0.2916377885532857,0.0,0.0,0.0,0.0,0.0,0.0,-13.536,0.0,0.0,0.0
434,0.0,0.0,0.0,0.056576171875,0.0,0.0,0.0,0.0,0.0,0.0,0.586,0.0,0.0,0.0,0.0,0.0,0.0,0.2962356073787392,0.0,0.0,0.0,0.0,0.0,0.0,-13.536,0.0,0.0,0.0
435,0.0,0.0,0.0,0.0626572265625,0.0,0.0,0.0,0.0,0.0,0.0,0.591,0.0,0.0,0.0,0.0,0.0,0.0,0.30408514325383323,0.0,0.0,0.0,0.0,0.0,0.0,-13.88,0.0,0.0,0.0
436,0.0,0.0,0.0,0.0683056640625,0.0,0.0,0.0,0.0,0.0,0.0,0.591,0.0,0.0,0.0,0.0,0.0,0.0,0.3117537974704832,0.0,0.0,0.0,0.0,0.0,0.0,-13.628,0.0,0.0,0.0
437,0.0,0.0,0.0,0.07408984375,0.0,0.0,0.0,0.0,0.0,0.0,0.572,0.0,0.0,0.0,0.0,0.0,0.0,0.3193921886711972,0.0,0.0,0.0,0.0,0.0,0.0,-13.4,0.0,0.0,0.0
438,0.0,0.0,0.0,0.0800361328125,0.0,0.0,0.0,0.0,0.0,0.0,0.592,0.0,0.0,0.0,0.0,0.0,0.0,0.32704951299229695,0.0,0.0,0.0,0.0,0.0,0.0,-13.424,0.0,0.0,0.0
439,0.0,0.0,0.0,0.085685546875,0.0,0.0,0.0,0.0,0.0,0.0,0.584,0.0,0.0,0.0,0.0,0.0,0.0,0.33463481714730314,0.0,0.0,0.0,0.0,0.0,0.0,-13.676,0.0,0.0,0.0
440,0.0,0.0,0.0,0.091623046875,0.0,0.0,0.0,0.0,0.0,0.0,0.576,0.0,0.0,0.0,0.0,0.0,0.0,0.3419437051376019,0.0,0.0,0.0,0.0,0.0,0.0,-14.2,0.0,0.0,0.0
441,0.0,0.0,0.0,0.0974248046875,0.0,0.0,0.0,0.0,0.0,0.0,0.593,0.0,0.0,0.0,0.0,0.0,0.0,0.35159851804381487,0.0,0.0,0.0,0.0,0.0,0.0,-14.748,0.0,0.0,0.0
442,0.0,0.0,0.0,0.103208984375,0.0,0.0,0.0,0.0,0.0,0.0,0.575,0.0,0.0,0.0,0.0,0.0,0.0,0.3565725181203395,0.0,0.0,0.0,0.0,0.0,0.0,-14.612,0.0,0.0,0.0
443,0.0,0.0,0.0,0.1152275390625,0.0,0.0,0.0,0.0,0.0,0.0,0.613,0.0,0.0,0.0,0.0,0.0,0.0,0.36663314649917894,0.0,0.0,0.0,0.0,0.0,0.0,-13.696,0.0,0.0,0.0
444,0.0,0.0,0.0,0.1211748046875,0.0,0.0,0.0,0.0,0.0,0.0,0.588,0.0,0.0,0.0,0.0,0.0,0.0,0.3766987603954355,0.0,0.0,0.0,0.0,0.0,0.0,-13.468,0.0,0.0,0.0
445,0.0,0.0,0.0,0.127111328125,0.0,0.0,0.0,0.0,0.0,0.0,0.602,0.0,0.0,0.0,0.0,0.0,0.0,0.38513451139377136,0.0,0.0,0.0,0.0,0.0,0.0,-13.72,0.0,0.0,0.0
446,0.0,0.0,0.0,0.1327607421875,0.0,0.0,0.0,0.0,0.0,0.0,0.581,0.0,0.0,0.0,0.0,0.0,0.0,0.39350395701069585,0.0,0.0,0.0,0.0,0.0,0.0,-13.516,0.0,0.0,0.0
447,0.0,0.0,0.0,0.14464453125,0.0,0.0,0.0,0.0,0.0,0.0,0.602,0.0,0.0,0.0,0.0,0.0,0.0,0.40261869429648706,0.0,0.0,0.0,0.0,0.0,0.0,-13.4,0.0,0.0,0.0
448,0.0,0.0,0.0,0.14464453125,0.0,0.0,0.0,0.0,0.0,0.0,0.602,0.0,0.0,0.0,0.0,0.0,0.0,0.4067529604720874,0.0,0.0,0.0,0.0,0.0,0.0,-13.4,0.0,0.0,0.0
449,0.0,0.0,0.0,0.1502841796875,0.0,0.0,0.0,0.0,0.0,0.0,0.577,0.0,0.0,0.0,0.0,0.0,0.0,0.41089636227609827,0.0,0.0,0.0,0.0,0.0,0.0,-13.652,0.0,0.0,0.0
450,0.0,0.0,0.0,0.15623046875,0.0,0.0,0.0,0.0,0.0,0.0,0.588,0.0,0.0,0.0,0.0,0.0,0.0,0.41492383563916874,0.0,0.0,0.0,0.0,0.0,0.0,-14.336,0.0,0.0,0.0
451,0.0,0.0,0.0,0.15623046875,0.0,0.0,0.0,0.0,0.0,0.0,0.588,0.0,0.0,0.0,0.0,0.0,0.0,0.41861613723083396,0.0,0.0,0.0,0.0,0.0,0.0,-14.336,0.0,0.0,0.0
452,0.0,0.0,0.0,0.1620234375,0.0,0.0,0.0,0.0,0.0,0.0,0.591,0.0,0.0,0.0,0.0,0.0,0.0,0.4248092674582328,0.0,0.0,0.0,0.0,0.0,0.0,-14.588,0.0,0.0,0.0
453,0.0,0.0,0.0,0.1679609375,0.0,0.0,0.0,0.0,0.0,0.0,0.583,0.0,0.0,0.0,0.0,0.0,0.0,0.4317062127671561,0.0,0.0,0.0,0.0,0.0,0.0,-14.428,0.0,0.0,0.0
454,0.0,0.0,0.0,0.17404296875,0.0,0.0,0.0,0.0,0.0,0.0,0.61,0.0,0.0,0.0,0.0,0.0,0.0,0.4373443445516057,0.0,0.0,0.0,0.0,0.0,0.0,-13.652,0.0,0.0,0.0
455,0.0,0.0,0.0,0.1799892578125,0.0,0.0,0.0,0.0,0.0,0.0,0.607,0.0,0.0,0.0,0.0,0.0,0.0,0.44344066450230035,0.0,0.0,0.0,0.0,0.0,0.0,-13.652,0.0,0.0,0.0
456,0.0,0.0,0.0,0.1857822265625,0.0,0.0,0.0,0.0,0.0,0.0,0.586,0.0,0.0,0.0,0.0,0.0,0.0,0.4514058874733878,0.0,0.0,0.0,0.0,0.0,0.0,-13.584,0.0,0.0,0.0
457,0.0,0.0,0.0,0.1915751953125,0.0,0.0,0.0,0.0,0.0,0.0,0.591,0.0,0.0,0.0,0.0,0.0,0.0,0.4555000254639099,0.0,0.0,0.0,0.0,0.0,0.0,-13.536,0.0,0.0,0.0
458,0.0,0.0,0.0,0.197376953125,0.0,0.0,0.0,0.0,0.0,0.0,0.577,0.0,0.0,0.0,0.0,0.0,0.0,0.46115359994893185,0.0,0.0,0.0,0.0,0.0,0.0,-13.4,0.0,0.0,0.0
459,0.0,0.0,0.0,0.209107421875,0.0,0.0,0.0,0.0,0.0,0.0,0.586,0.0,0.0,0.0,0.0,0.0,0.0,0.4714655051415299,0.0,0.0,0.0,0.0,0.0,0.0,-13.536,0.0,0.0,0.0
460,0.0,0.0,0.0,0.209107421875,0.0,0.0,0.0,0.0,0.0,0.0,0.586,0.0,0.0,0.0,0.0,0.0,0.0,0.4740529411362746,0.0,0.0,0.0,0.0,0.0,0.0,-13.536,0.0,0.0,0.0
461,0.0,0.0,0.0,0.214900390625,0.0,0.0,0.0,0.0,0.0,0.0,0.581,0.0,0.0,0.0,0.0,0.0,0.0,0.47784510978896305,0.0,0.0,0.0,0.0,0.0,0.0,-13.812,0.0,0.0,0.0
462,0.0,0.0,0.0,0.226486328125,0.0,0.0,0.0,0.0,0.0,0.0,0.579,0.0,0.0,0.0,0.0,0.0,0.0,0.48538460121463983,0.0,0.0,0.0,0.0,0.0,0.0,-14.568,0.0,0.0,0.0
463,0.0,0.0,0.0,0.226486328125,0.0,0.0,0.0,0.0,0.0,0.0,0.579,0.0,0.0,0.0,0.0,0.0,0.0,0.4900311051853944,0.0,0.0,0.0,0.0,0.0,0.0,-14.568,0.0,0.0,0.0
464,0.0,0.0,0.0,0.232568359375,0.0,0.0,0.0,0.0,0.0,0.0,0.593,0.0,0.0,0.0,0.0,0.0,0.0,0.49393688335834557,0.0,0.0,0.0,0.0,0.0,0.0,-13.948,0.0,0.0,0.0
465,0.0,0.0,0.0,0.2386591796875,0.0,0.0,0.0,0.0,0.0,0.0,0.611,0.0,0.0,0.0,0.0,0.0,0.0,0.49878106392840676,0.0,0.0,0.0,0.0,0.0,0.0,-13.356,0.0,0.0,0.0
466,0.0,0.0,0.0,0.2444521484375,0.0,0.0,0.0,0.0,0.0,0.0,0.598,0.0,0.0,0.0,0.0,0.0,0.0,0.5037476685322819,0.0,0.0,0.0,0.0,0.0,0.0,-13.216,0.0,0.0,0.0
467,0.0,0.0,0.0,0.2502451171875,0.0,0.0,0.0,0.0,0.0,0.0,0.582,0.0,0.0,0.0,0.0,0.0,0.0,0.5085078618596569,0.0,0.0,0.0,0.0,0.0,0.0,-13.444,0.0,0.0,0.0
468,0.0,0.0,0.0,0.2560478515625,0.0,0.0,0.0,0.0,0.0,0.0,0.59,0.0,0.0,0.0,0.0,0.0,0.0,0.5132306658247537,0.0,0.0,0.0,0.0,0.0,0.0,-13.172,0.0,0.0,0.0
469,0.0,0.0,0.0,0.261984375,0.0,0.0,0.0,0.0,0.0,0.0,0.589,0.0,0.0,0.0,0.0,0.0,0.0,0.5216396333901125,0.0,0.0,0.0,0.0,0.0,0.0,-13.148,0.0,0.0,0.0
470,0.0,0.0,0.0,0.2735712890625,0.0,0.0,0.0,0.0,0.0,0.0,0.582,0.0,0.0,0.0,0.0,0.0,0.0,0.5245421183011382,0.0,0.0,0.0,0.0,0.0,0.0,-13.356,0.0,0.0,0.0
471,0.0,0.0,0.0,0.2793642578125,0.0,0.0,0.0,0.0,0.0,0.0,0.583,0.0,0.0,0.0,0.0,0.0,0.0,0.5309684814892258,0.0,0.0,0.0,0.0,0.0,0.0,-13.72,0.0,0.0,0.0
472,0.0,0.0,0.0,0.2851572265625,0.0,0.0,0.0,0.0,0.0,0.0,0.583,0.0,0.0,0.0,0.0,0.0,0.0,0.5332637512865732,0.0,0.0,0.0,0.0,0.0,0.0,-14.384,0.0,0.0,0.0
473,0.0,0.0,0.0,0.2851572265625,0.0,0.0,0.0,0.0,0.0,0.0,0.583,0.0,0.0,0.0,0.0,0.0,0.0,0.5350773810500306,0.0,0.0,0.0,0.0,0.0,0.0,-14.384,0.0,0.0,0.0
474,0.0,0.0,0.0,0.29123828125,0.0,0.0,0.0,0.0,0.0,0.0,0.592,0.0,0.0,0.0,0.0,0.0,0.0,0.5391885080400326,0.0,0.0,0.0,0.0,0.0,0.0,-14.108,0.0,0.0,0.0
475,0.0,0.0,0.0,0.2973291015625,0.0,0.0,0.0,0.0,0.0,0.0,0.612,0.0,0.0,0.0,0.0,0.0,0.0,0.5430565829351395,0.0,0.0,0.0,0.0,0.0,0.0,-13.492,0.0,0.0,0.0
476,0.0,0.0,0.0,0.3032666015625,0.0,0.0,0.0,0.0,0.0,0.0,0.613,0.0,0.0,0.0,0.0,0.0,0.0,0.5467937111203772,0.0,0.0,0.0,0.0,0.0,0.0,-13.148,0.0,0.0,0.0
477,0.0,0.0,0.0,0.3092041015625,0.0,0.0,0.0,0.0,0.0,0.0,0.592,0.0,0.0,0.0,0.0,0.0,0.0,0.5504452290961489,0.0,0.0,0.0,0.0,0.0,0.0,-12.988,0.0,0.0,0.0
478,0.0,0.0,0.0,0.3150068359375,0.0,0.0,0.0,0.0,0.0,0.0,0.593,0.0,0.0,0.0,0.0,0.0,0.0,0.5544633046796568,0.0,0.0,0.0,0.0,0.0,0.0,-13.104,0.0,0.0,0.0
479,0.0,0.0,0.0,0.3207998046875,0.0,0.0,0.0,0.0,0.0,0.0,0.583,0.0,0.0,0.0,0.0,0.0,0.0,0.5573997701560719,0.0,0.0,0.0,0.0,0.0,0.0,-12.988,0.0,0.0,0.0
480,0.0,0.0,0.0,0.3267373046875,0.0,0.0,0.0,0.0,0.0,0.0,0.592,0.0,0.0,0.0,0.0,0.0,0.0,0.5606170617506688,0.0,0.0,0.0,0.0,0.0,0.0,-12.872,0.0,0.0,0.0
481,0.0,0.0,0.0,0.3325390625,0.0,0.0,0.0,0.0,0.0,0.0,0.589,0.0,0.0,0.0,0.0,0.0,0.0,0.5646600046738082,0.0,0.0,0.0,0.0,0.0,0.0,-12.804,0.0,0.0,0.0
482,0.0,0.0,0.0,0.3384677734375,0.0,0.0,0.0,0.0,0.0,0.0,0.585,0.0,0.0,0.0,0.0,0.0,0.0,0.5668724074033464,0.0,0.0,0.0,0.0,0.0,0.0,-13.308,0.0,0.0,0.0
483,0.0,0.0,0.0,0.3442607421875,0.0,0.0,0.0,0.0,0.0,0.0,0.593,0.0,0.0,0.0,0.0,0.0,0.0,0.5696701734855605,0.0,0.0,0.0,0.0,0.0,0.0,-13.88,0.0,0.0,0.0
484,0.0,0.0,0.0,0.3501982421875,0.0,0.0,0.0,0.0,0.0,0.0,0.593,0.0,0.0,0.0,0.0,0.0,0.0,0.5732411263793616,0.0,0.0,0.0,0.0,0.0,0.0,-14.084,0.0,0.0,0.0
485,0.0,0.0,0.0,0.35614453125,0.0,0.0,0.0,0.0,0.0,0.0,0.591,0.0,0.0,0.0,0.0,0.0,0.0,0.5758150801309861,0.0,0.0,0.0,0.0,0.0,0.0,-13.676,0.0,0.0,0.0
486,0.0,0.0,0.0,0.3622255859375,0.0,0.0,0.0,0.0,0.0,0.0,0.609,0.0,0.0,0.0,0.0,0.0,0.0,0.5775481275811706,0.0,0.0,0.0,0.0,0.0,0.0,-12.828,0.0,0.0,0.0
487,0.0,0.0,0.0,0.3681630859375,0.0,0.0,0.0,0.0,0.0,0.0,0.607,0.0,0.0,0.0,0.0,0.0,0.0,0.5800846963800022,0.0,0.0,0.0,0.0,0.0,0.0,-12.76,0.0,0.0,0.0
488,0.0,0.0,0.0,0.3739658203125,0.0,0.0,0.0,0.0,0.0,0.0,0.593,0.0,0.0,0.0,0.0,0.0,0.0,0.5821769854591364,0.0,0.0,0.0,0.0,0.0,0.0,-12.828,0.0,0.0,0.0
489,0.0,0.0,0.0,0.3799033203125,0.0,0.0,0.0,0.0,0.0,0.0,0.593,0.0,0.0,0.0,0.0,0.0,0.0,0.5842731668465433,0.0,0.0,0.0,0.0,0.0,0.0,-12.784,0.0,0.0,0.0
490,0.0,0.0,0.0,0.3856865234375,0.0,0.0,0.0,0.0,0.0,0.0,0.584,0.0,0.0,0.0,0.0,0.0,0.0,0.586411829927832,0.0,0.0,0.0,0.0,0.0,0.0,-12.784,0.0,0.0,0.0
491,0.0,0.0,0.0,0.3914892578125,0.0,0.0,0.0,0.0,0.0,0.0,0.583,0.0,0.0,0.0,0.0,0.0,0.0,0.5881142065798453,0.0,0.0,0.0,0.0,0.0,0.0,-12.508,0.0,0.0,0.0
492,0.0,0.0,0.0,0.3972822265625,0.0,0.0,0.0,0.0,0.0,0.0,0.583,0.0,0.0,0.0,0.0,0.0,0.0,0.5898195968735369,0.0,0.0,0.0,0.0,0.0,0.0,-12.784,0.0,0.0,0.0
493,0.0,0.0,0.0,0.4030751953125,0.0,0.0,0.0,0.0,0.0,0.0,0.584,0.0,0.0,0.0,0.0,0.0,0.0,0.5914114731819812,0.0,0.0,0.0,0.0,0.0,0.0,-13.308,0.0,0.0,0.0
494,0.0,0.0,0.0,0.409021484375,0.0,0.0,0.0,0.0,0.0,0.0,0.592,0.0,0.0,0.0,0.0,0.0,0.0,0.5928954095666168,0.0,0.0,0.0,0.0,0.0,0.0,-13.604,0.0,0.0,0.0
495,0.0,0.0,0.0,0.414958984375,0.0,0.0,0.0,0.0,0.0,0.0,0.588,0.0,0.0,0.0,0.0,0.0,0.0,0.5941756938145931,0.0,0.0,0.0,0.0,0.0,0.0,-13.788,0.0,0.0,0.0
496,0.0,0.0,0.0,0.4208876953125,0.0,0.0,0.0,0.0,0.0,0.0,0.599,0.0,0.0,0.0,0.0,0.0,0.0,0.595364354055308,0.0,0.0,0.0,0.0,0.0,0.0,-12.964,0.0,0.0,0.0
497,0.0,0.0,0.0,0.42682421875,0.0,0.0,0.0,0.0,0.0,0.0,0.602,0.0,0.0,0.0,0.0,0.0,0.0,0.5964151258043195,0.0,0.0,0.0,0.0,0.0,0.0,-12.44,0.0,0.0,0.0
498,0.0,0.0,0.0,0.432771484375,0.0,0.0,0.0,0.0,0.0,0.0,0.591,0.0,0.0,0.0,0.0,0.0,0.0,0.5973217694721785,0.0,0.0,0.0,0.0,0.0,0.0,-12.44,0.0,0.0,0.0
499,0.0,0.0,0.0,0.438564453125,0.0,0.0,0.0,0.0,0.0,0.0,0.593,0.0,0.0,0.0,0.0,0.0,0.0,0.5981071080244632,0.0,0.0,0.0,0.0,0.0,0.0,-12.392,0.0,0.0,0.0
500,0.0,0.0,0.0,0.444501953125,0.0,0.0,0.0,0.0,0.0,0.0,0.584,0.0,0.0,0.0,0.0,0.0,0.0,0.5987570168783061,0.0,0.0,0.0,0.0,0.0,0.0,-12.552,0.0,0.0,0.0
501,0.0,0.0,0.0,0.450294921875,0.0,0.0,0.0,0.0,0.0,0.0,0.589,0.0,0.0,0.0,0.0,0.0,0.0,0.5992646944494925,0.0,0.0,0.0,0.0,0.0,0.0,-12.28,0.0,0.0,0.0
502,0.0,0.0,0.0,0.456078125,0.0,0.0,0.0,0.0,0.0,0.0,0.589,0.0,0.0,0.0,0.0,0.0,0.0,0.599642635524702,0.0,0.0,0.0,0.0,0.0,0.0,-12.12,0.0,0.0,0.0
503,0.0,0.0,0.0,0.4618720703125,0.0,0.0,0.0,0.0,0.0,0.0,0.582,0.0,0.0,0.0,0.0,0.0,0.0,0.5998875132963605,0.0,0.0,0.0,0.0,0.0,0.0,-12.532,0.0,0.0,0.0
504,0.0,0.0,0.0,0.467673828125,0.0,0.0,0.0,0.0,0.0,0.0,0.582,0.0,0.0,0.0,0.0,0.0,0.0,0.5999939028144473,0.0,0.0,0.0,0.0,0.0,0.0,-13.284,0.0,0.0,0.0
505,0.0,0.0,0.0,0.473611328125,0.0,0.0,0.0,0.0,0.0,0.0,0.583,0.0,0.0,0.0,0.0,0.0,0.0,0.5999668351349479,0.0,0.0,0.0,0.0,0.0,0.0,-13.356,0.0,0.0,0.0
506,0.0,0.0,0.0,0.479548828125,0.0,0.0,0.0,0.0,0.0,0.0,0.599,0.0,0.0,0.0,0.0,0.0,0.0,0.5998024165003428,0.0,0.0,0.0,0.0,0.0,0.0,-13.172,0.0,0.0,0.0
507,0.0,0.0,0.0,0.4856298828125,0.0,0.0,0.0,0.0,0.0,0.0,0.61,0.0,0.0,0.0,0.0,0.0,0.0,0.59950837519871,0.0,0.0,0.0,0.0,0.0,0.0,-12.392,0.0,0.0,0.0
508,0.0,0.0,0.0,0.4914228515625,0.0,0.0,0.0,0.0,0.0,0.0,0.597,0.0,0.0,0.0,0.0,0.0,0.0,0.5990761398652995,0.0,0.0,0.0,0.0,0.0,0.0,-11.868,0.0,0.0,0.0
509,0.0,0.0,0.0,0.4973603515625,0.0,0.0,0.0,0.0,0.0,0.0,0.589,0.0,0.0,0.0,0.0,0.0,0.0,0.598503099002004,0.0,0.0,0.0,0.0,0.0,0.0,-12.096,0.0,0.0,0.0
510,0.0,0.0,0.0,0.5031533203125,0.0,0.0,0.0,0.0,0.0,0.0,0.592,0.0,0.0,0.0,0.0,0.0,0.0,0.597803369219163,0.0,0.0,0.0,0.0,0.0,0.0,-11.868,0.0,0.0,0.0
511,0.0,0.0,0.0,0.5090908203125,0.0,0.0,0.0,0.0,0.0,0.0,0.583,0.0,0.0,0.0,0.0,0.0,0.0,0.596969637360902,0.0,0.0,0.0,0.0,0.0,0.0,-12.028,0.0,0.0,0.0
512,0.0,0.0,0.0,0.5148837890625,0.0,0.0,0.0,0.0,0.0,0.0,0.593,0.0,0.0,0.0,0.0,0.0,0.0,0.5959902777841525,0.0,0.0,0.0,0.0,0.0,0.0,-11.776,0.0,0.0,0.0
513,0.0,0.0,0.0,0.5206767578125,0.0,0.0,0.0,0.0,0.0,0.0,0.584,0.0,0.0,0.0,0.0,0.0,0.0,0.594894494241467,0.0,0.0,0.0,0.0,0.0,0.0,-11.82,0.0,0.0,0.0
514,0.0,0.0,0.0,0.5264794921875,0.0,0.0,0.0,0.0,0.0,0.0,0.583,0.0,0.0,0.0,0.0,0.0,0.0,0.5936562746347178,0.0,0.0,0.0,0.0,0.0,0.0,-12.416,0.0,0.0,0.0
515,0.0,0.0,0.0,0.5324072265625,0.0,0.0,0.0,0.0,0.0,0.0,0.59,0.0,0.0,0.0,0.0,0.0,0.0,0.5922630833720235,0.0,0.0,0.0,0.0,0.0,0.0,-12.92,0.0,0.0,0.0
516,0.0,0.0,0.0,0.5383447265625,0.0,0.0,0.0,0.0,0.0,0.0,0.591,0.0,0.0,0.0,0.0,0.0,0.0,0.590785881524247,0.0,0.0,0.0,0.0,0.0,0.0,-13.172,0.0,0.0,0.0
517,0.0,0.0,0.0,0.5442919921875,0.0,0.0,0.0,0.0,0.0,0.0,0.597,0.0,0.0,0.0,0.0,0.0,0.0,0.5891487952829748,0.0,0.0,0.0,0.0,0.0,0.0,-12.416,0.0,0.0,0.0
518,0.0,0.0,0.0,0.550373046875,0.0,0.0,0.0,0.0,0.0,0.0,0.604,0.0,0.0,0.0,0.0,0.0,0.0,0.58735957097395,0.0,0.0,0.0,0.0,0.0,0.0,-11.66,0.0,0.0,0.0
519,0.0,0.0,0.0,0.556166015625,0.0,0.0,0.0,0.0,0.0,0.0,0.601,0.0,0.0,0.0,0.0,0.0,0.0,0.5854759575469053,0.0,0.0,0.0,0.0,0.0,0.0,-11.8,0.0,0.0,0.0
520,0.0,0.0,0.0,0.561958984375,0.0,0.0,0.0,0.0,0.0,0.0,0.582,0.0,0.0,0.0,0.0,0.0,0.0,0.5834307977845095,0.0,0.0,0.0,0.0,0.0,0.0,-11.936,0.0,0.0,0.0
521,0.0,0.0,0.0,0.567896484375,0.0,0.0,0.0,0.0,0.0,0.0,0.59,0.0,0.0,0.0,0.0,0.0,0.0,0.5812444595280414,0.0,0.0,0.0,0.0,0.0,0.0,-11.616,0.0,0.0,0.0
522,0.0,0.0,0.0,0.573833984375,0.0,0.0,0.0,0.0,0.0,0.0,0.599,0.0,0.0,0.0,0.0,0.0,0.0,0.5789531274719362,0.0,0.0,0.0,0.0,0.0,0.0,-11.572,0.0,0.0,0.0
523,0.0,0.0,0.0,0.5793291015625,0.0,0.0,0.0,0.0,0.0,0.0,0.585,0.0,0.0,0.0,0.0,0.0,0.0,0.5765396930933823,0.0,0.0,0.0,0.0,0.0,0.0,-12.12,0.0,0.0,0.0
524,0.0,0.0,0.0,0.58354296875,0.0,0.0,0.0,0.0,0.0,0.0,0.507,0.0,0.0,0.0,0.0,0.0,0.0,0.5739123042410944,0.0,0.0,0.0,0.0,0.0,0.0,-14.224,0.0,0.0,0.0
525,0.0,0.0,0.0,0.5862861328125,0.0,0.0,0.0,0.0,0.0,0.0,0.358,0.0,0.0,0.0,0.0,0.0,0.0,0.5713021148899335,0.0,0.0,0.0,0.0,0.0,0.0,-15.868,0.0,0.0,0.0
526,0.0,0.0,0.0,0.587162109375,0.0,0.0,0.0,0.0,0.0,0.0,0.204,0.0,0.0,0.0,0.0,0.0,0.0,0.5684907188438713,0.0,0.0,0.0,0.0,0.0,0.0,-18.364,0.0,0.0,0.0
527,0.0,0.0,0.0,0.5864306640625,0.0,0.0,0.0,0.0,0.0,0.0,0.011,0.0,0.0,0.0,0.0,0.0,0.0,0.5654978334564983,0.0,0.0,0.0,0.0,0.0,0.0,-17.884,0.0,0.0,0.0
528,0.0,0.0,0.0,0.585564453125,0.0,0.0,0.0,0.0,0.0,0.0,-0.075,0.0,0.0,0.0,0.0,0.0,0.0,0.5624618038232785,0.0,0.0,0.0,0.0,0.0,0.0,-17.424,0.0,0.0,0.0
529,0.0,0.0,0.0,0.5836875,0.0,0.0,0.0,0.0,0.0,0.0,-0.133,0.0,0.0,0.0,0.0,0.0,0.0,0.5592896371042347,0.0,0.0,0.0,0.0,0.0,0.0,-17.312,0.0,0.0,0.0
530,0.0,0.0,0.0,0.5815126953125,0.0,0.0,0.0,0.0,0.0,0.0,-0.208,0.0,0.0,0.0,0.0,0.0,0.0,0.5559350114304547,0.0,0.0,0.0,0.0,0.0,0.0,-17.792,0.0,0.0,0.0
531,0.0,0.0,0.0,0.579041015625,0.0,0.0,0.0,0.0,0.0,0.0,-0.226,0.0,0.0,0.0,0.0,0.0,0.0,0.552440532700176,0.0,0.0,0.0,0.0,0.0,0.0,-18.544,0.0,0.0,0.0
532,0.0,0.0,0.0,0.576,0.0,0.0,0.0,0.0,0.0,0.0,-0.266,0.0,0.0,0.0,0.0,0.0,0.0,0.5489362144461156,0.0,0.0,0.0,0.0,0.0,0.0,-18.728,0.0,0.0,0.0
533,0.0,0.0,0.0,0.572669921875,0.0,0.0,0.0,0.0,0.0,0.0,-0.321,0.0,0.0,0.0,0.0,0.0,0.0,0.5452248665044138,0.0,0.0,0.0,0.0,0.0,0.0,-17.7,0.0,0.0,0.0
534,0.0,0.0,0.0,0.5687626953125,0.0,0.0,0.0,0.0,0.0,0.0,-0.358,0.0,0.0,0.0,0.0,0.0,0.0,0.541377278911776,0.0,0.0,0.0,0.0,0.0,0.0,-17.404,0.0,0.0,0.0
535,0.0,0.0,0.0,0.5642783203125,0.0,0.0,0.0,0.0,0.0,0.0,-0.412,0.0,0.0,0.0,0.0,0.0,0.0,0.5374820548168465,0.0,0.0,0.0,0.0,0.0,0.0,-17.332,0.0,0.0,0.0
536,0.0,0.0,0.0,0.5590537109375,0.0,0.0,0.0,0.0,0.0,0.0,-0.489,0.0,0.0,0.0,0.0,0.0,0.0,0.5333681373124352,0.0,0.0,0.0,0.0,0.0,0.0,-16.876,0.0,0.0,0.0
537,0.0,0.0,0.0,0.553703125,0.0,0.0,0.0,0.0,0.0,0.0,-0.526,0.0,0.0,0.0,0.0,0.0,0.0,0.5291632427326111,0.0,0.0,0.0,0.0,0.0,0.0,-16.672,0.0,0.0,0.0
538,0.0,0.0,0.0,0.54762109375,0.0,0.0,0.0,0.0,0.0,0.0,-0.57,0.0,0.0,0.0,0.0,0.0,0.0,0.5249466255740914,0.0,0.0,0.0,0.0,0.0,0.0,-15.732,0.0,0.0,0.0
539,0.0,0.0,0.0,0.542703125,0.0,0.0,0.0,0.0,0.0,0.0,-0.573,0.0,0.0,0.0,0.0,0.0,0.0,0.5205063452653707,0.0,0.0,0.0,0.0,0.0,0.0,-13.24,0.0,0.0,0.0
540,0.0,0.0,0.0,0.538056640625,0.0,0.0,0.0,0.0,0.0,0.0,-0.469,0.0,0.0,0.0,0.0,0.0,0.0,0.5159289154654011,0.0,0.0,0.0,0.0,0.0,0.0,-14.016,0.0,0.0,0.0
541,0.0,0.0,0.0,0.5324072265625,0.0,0.0,0.0,0.0,0.0,0.0,-0.522,0.0,0.0,0.0,0.0,0.0,0.0,0.5113472293225413,0.0,0.0,0.0,0.0,0.0,0.0,-14.248,0.0,0.0,0.0
542,0.0,0.0,0.0,0.527345703125,0.0,0.0,0.0,0.0,0.0,0.0,-0.541,0.0,0.0,0.0,0.0,0.0,0.0,0.5065767753847917,0.0,0.0,0.0,0.0,0.0,0.0,-14.316,0.0,0.0,0.0
543,0.0,0.0,0.0,0.5213994140625,0.0,0.0,0.0,0.0,0.0,0.0,-0.539,0.0,0.0,0.0,0.0,0.0,0.0,0.5015924055150431,0.0,0.0,0.0,0.0,0.0,0.0,-14.2,0.0,0.0,0.0
544,0.0,0.0,0.0,0.5148837890625,0.0,0.0,0.0,0.0,0.0,0.0,-0.637,0.0,0.0,0.0,0.0,0.0,0.0,0.496727692782872,0.0,0.0,0.0,0.0,0.0,0.0,-13.032,0.0,0.0,0.0
545,0.0,0.0,0.0,0.508947265625,0.0,0.0,0.0,0.0,0.0,0.0,-0.631,0.0,0.0,0.0,0.0,0.0,0.0,0.49161351916222656,0.0,0.0,0.0,0.0,0.0,0.0,-11.136,0.0,0.0,0.0
546,0.0,0.0,0.0,0.5032978515625,0.0,0.0,0.0,0.0,0.0,0.0,-0.577,0.0,0.0,0.0,0.0,0.0,0.0,0.4863803757247796,0.0,0.0,0.0,0.0,0.0,0.0,-10.884,0.0,0.0,0.0
547,0.0,0.0,0.0,0.497072265625,0.0,0.0,0.0,0.0,0.0,0.0,-0.593,0.0,0.0,0.0,0.0,0.0,0.0,0.4810602428103982,0.0,0.0,0.0,0.0,0.0,0.0,-11.684,0.0,0.0,0.0
548,0.0,0.0,0.0,0.490845703125,0.0,0.0,0.0,0.0,0.0,0.0,-0.628,0.0,0.0,0.0,0.0,0.0,0.0,0.4756368886474226,0.0,0.0,0.0,0.0,0.0,0.0,-12.6,0.0,0.0,0.0
549,0.0,0.0,0.0,0.4847548828125,0.0,0.0,0.0,0.0,0.0,0.0,-0.629,0.0,0.0,0.0,0.0,0.0,0.0,0.46994803801812374,0.0,0.0,0.0,0.0,0.0,0.0,-11.66,0.0,0.0,0.0
550,0.0,0.0,0.0,0.479548828125,0.0,0.0,0.0,0.0,0.0,0.0,-0.572,0.0,0.0,0.0,0.0,0.0,0.0,0.46444755006138966,0.0,0.0,0.0,0.0,0.0,0.0,-10.656,0.0,0.0,0.0
551,0.0,0.0,0.0,0.473755859375,0.0,0.0,0.0,0.0,0.0,0.0,-0.535,0.0,0.0,0.0,0.0,0.0,0.0,0.45870422257999316,0.0,0.0,0.0,0.0,0.0,0.0,-12.304,0.0,0.0,0.0
552,0.0,0.0,0.0,0.467818359375,0.0,0.0,0.0,0.0,0.0,0.0,-0.608,0.0,0.0,0.0,0.0,0.0,0.0,0.45277035492884526,0.0,0.0,0.0,0.0,0.0,0.0,-11.732,0.0,0.0,0.0
553,0.0,0.0,0.0,0.46273828125,0.0,0.0,0.0,0.0,0.0,0.0,-0.559,0.0,0.0,0.0,0.0,0.0,0.0,0.44688804854847536,0.0,0.0,0.0,0.0,0.0,0.0,-12.14,0.0,0.0,0.0
554,0.0,0.0,0.0,0.4566650390625,0.0,0.0,0.0,0.0,0.0,0.0,-0.55,0.0,0.0,0.0,0.0,0.0,0.0,0.4408361895287763,0.0,0.0,0.0,0.0,0.0,0.0,-12.164,0.0,0.0,0.0
555,0.0,0.0,0.0,0.4510166015625,0.0,0.0,0.0,0.0,0.0,0.0,-0.599,0.0,0.0,0.0,0.0,0.0,0.0,0.434638077179131,0.0,0.0,0.0,0.0,0.0,0.0,-10.976,0.0,0.0,0.0
556,0.0,0.0,0.0,0.4453681640625,0.0,0.0,0.0,0.0,0.0,0.0,-0.563,0.0,0.0,0.0,0.0,0.0,0.0,0.42839128067190607,0.0,0.0,0.0,0.0,0.0,0.0,-11.412,0.0,0.0,0.0
557,0.0,0.0,0.0,0.4394306640625,0.0,0.0,0.0,0.0,0.0,0.0,-0.586,0.0,0.0,0.0,0.0,0.0,0.0,0.4220783358453735,0.0,0.0,0.0,0.0,0.0,0.0,-12.028,0.0,0.0,0.0
558,0.0,0.0,0.0,0.43378125,0.0,0.0,0.0,0.0,0.0,0.0,-0.592,0.0,0.0,0.0,0.0,0.0,0.0,0.41558391283525337,0.0,0.0,0.0,0.0,0.0,0.0,-12.464,0.0,0.0,0.0
559,0.0,0.0,0.0,0.4285751953125,0.0,0.0,0.0,0.0,0.0,0.0,-0.554,0.0,0.0,0.0,0.0,0.0,0.0,0.4090872993983958,0.0,0.0,0.0,0.0,0.0,0.0,-11.66,0.0,0.0,0.0
560,0.0,0.0,0.0,0.4233505859375,0.0,0.0,0.0,0.0,0.0,0.0,-0.516,0.0,0.0,0.0,0.0,0.0,0.0,0.4024498282767131,0.0,0.0,0.0,0.0,0.0,0.0,-12.004,0.0,0.0,0.0
561,0.0,0.0,0.0,0.418,0.0,0.0,0.0,0.0,0.0,0.0,-0.528,0.0,0.0,0.0,0.0,0.0,0.0,0.3955773769562205,0.0,0.0,0.0,0.0,0.0,0.0,-12.92,0.0,0.0,0.0
562,0.0,0.0,0.0,0.4127841796875,0.0,0.0,0.0,0.0,0.0,0.0,-0.533,0.0,0.0,0.0,0.0,0.0,0.0,0.3889395637357577,0.0,0.0,0.0,0.0,0.0,0.0,-13.996,0.0,0.0,0.0
563,0.0,0.0,0.0,0.4072705078125,0.0,0.0,0.0,0.0,0.0,0.0,-0.548,0.0,0.0,0.0,0.0,0.0,0.0,0.3820430910955149,0.0,0.0,0.0,0.0,0.0,0.0,-13.948,0.0,0.0,0.0
564,0.0,0.0,0.0,0.402064453125,0.0,0.0,0.0,0.0,0.0,0.0,-0.536,0.0,0.0,0.0,0.0,0.0,0.0,0.37500940741216976,0.0,0.0,0.0,0.0,0.0,0.0,-13.696,0.0,0.0,0.0
565,0.0,0.0,0.0,0.396560546875,0.0,0.0,0.0,0.0,0.0,0.0,-0.531,0.0,0.0,0.0,0.0,0.0,0.0,0.3679896060655248,0.0,0.0,0.0,0.0,0.0,0.0,-13.24,0.0,0.0,0.0
566,0.0,0.0,0.0,0.3912001953125,0.0,0.0,0.0,0.0,0.0,0.0,-0.556,0.0,0.0,0.0,0.0,0.0,0.0,0.36084920028197087,0.0,0.0,0.0,0.0,0.0,0.0,-13.192,0.0,0.0,0.0
567,0.0,0.0,0.0,0.3859755859375,0.0,0.0,0.0,0.0,0.0,0.0,-0.527,0.0,0.0,0.0,0.0,0.0,0.0,0.3535740742410875,0.0,0.0,0.0,0.0,0.0,0.0,-14.132,0.0,0.0,0.0
568,0.0,0.0,0.0,0.38019140625,0.0,0.0,0.0,0.0,0.0,0.0,-0.555,0.0,0.0,0.0,0.0,0.0,0.0,0.3462897445609229,0.0,0.0,0.0,0.0,0.0,0.0,-14.292,0.0,0.0,0.0
569,0.0,0.0,0.0,0.3743984375,0.0,0.0,0.0,0.0,0.0,0.0,-0.583,0.0,0.0,0.0,0.0,0.0,0.0,0.33889760581194855,0.0,0.0,0.0,0.0,0.0,0.0,-13.652,0.0,0.0,0.0
570,0.0,0.0,0.0,0.3687412109375,0.0,0.0,0.0,0.0,0.0,0.0,-0.574,0.0,0.0,0.0,0.0,0.0,0.0,0.3313638502018707,0.0,0.0,0.0,0.0,0.0,0.0,-13.24,0.0,0.0,0.0
571,0.0,0.0,0.0,0.363091796875,0.0,0.0,0.0,0.0,0.0,0.0,-0.571,0.0,0.0,0.0,0.0,0.0,0.0,0.3238907264039625,0.0,0.0,0.0,0.0,0.0,0.0,-13.996,0.0,0.0,0.0
572,0.0,0.0,0.0,0.357443359375,0.0,0.0,0.0,0.0,0.0,0.0,-0.571,0.0,0.0,0.0,0.0,0.0,0.0,0.3162876613926577,0.0,0.0,0.0,0.0,0.0,0.0,-14.452,0.0,0.0,0.0
573,0.0,0.0,0.0,0.3519482421875,0.0,0.0,0.0,0.0,0.0,0.0,-0.564,0.0,0.0,0.0,0.0,0.0,0.0,0.30857587857858054,0.0,0.0,0.0,0.0,0.0,0.0,-15.0,0.0,0.0,0.0
574,0.0,0.0,0.0,0.346146484375,0.0,0.0,0.0,0.0,0.0,0.0,-0.565,0.0,0.0,0.0,0.0,0.0,0.0,0.30079396788075524,0.0,0.0,0.0,0.0,0.0,0.0,-14.888,0.0,0.0,0.0
575,0.0,0.0,0.0,0.340353515625,0.0,0.0,0.0,0.0,0.0,0.0,-0.584,0.0,0.0,0.0,0.0,0.0,0.0,0.2930288891902392,0.0,0.0,0.0,0.0,0.0,0.0,-13.812,0.0,0.0,0.0
576,0.0,0.0,0.0,0.334560546875,0.0,0.0,0.0,0.0,0.0,0.0,-0.583,0.0,0.0,0.0,0.0,0.0,0.0,0.2850855356607855,0.0,0.0,0.0,0.0,0.0,0.0,-13.424,0.0,0.0,0.0
577,0.0,0.0,0.0,0.32890234375,0.0,0.0,0.0,0.0,0.0,0.0,-0.584,0.0,0.0,0.0,0.0,0.0,0.0,0.27708187036897935,0.0,0.0,0.0,0.0,0.0,0.0,-14.016,0.0,0.0,0.0
578,0.0,0.0,0.0,0.32296484375,0.0,0.0,0.0,0.0,0.0,0.0,-0.578,0.0,0.0,0.0,0.0,0.0,0.0,0.2691985738654073,0.0,0.0,0.0,0.0,0.0,0.0,-14.2,0.0,0.0,0.0
579,0.0,0.0,0.0,0.317037109375,0.0,0.0,0.0,0.0,0.0,0.0,-0.595,0.0,0.0,0.0,0.0,0.0,0.0,0.261112158611998,0.0,0.0,0.0,0.0,0.0,0.0,-14.132,0.0,0.0,0.0
580,0.0,0.0,0.0,0.31108984375,0.0,0.0,0.0,0.0,0.0,0.0,-0.596,0.0,0.0,0.0,0.0,0.0,0.0,0.2529751703081368,0.0,0.0,0.0,0.0,0.0,0.0,-13.696,0.0,0.0,0.0
581,0.0,0.0,0.0,0.3050087890625,0.0,0.0,0.0,0.0,0.0,0.0,-0.603,0.0,0.0,0.0,0.0,0.0,0.0,0.24482057270586097,0.0,0.0,0.0,0.0,0.0,0.0,-13.56,0.0,0.0,0.0
582,0.0,0.0,0.0,0.2989267578125,0.0,0.0,0.0,0.0,0.0,0.0,-0.619,0.0,0.0,0.0,0.0,0.0,0.0,0.236554364524423,0.0,0.0,0.0,0.0,0.0,0.0,-14.04,0.0,0.0,0.0
583,0.0,0.0,0.0,0.29298046875,0.0,0.0,0.0,0.0,0.0,0.0,-0.61,0.0,0.0,0.0,0.0,0.0,0.0,0.22819971858563004,0.0,0.0,0.0,0.0,0.0,0.0,-14.292,0.0,0.0,0.0
584,0.0,0.0,0.0,0.28704296875,0.0,0.0,0.0,0.0,0.0,0.0,-0.591,0.0,0.0,0.0,0.0,0.0,0.0,0.21992099579936952,0.0,0.0,0.0,0.0,0.0,0.0,-14.384,0.0,0.0,0.0
585,0.0,0.0,0.0,0.28125,0.0,0.0,0.0,0.0,0.0,0.0,-0.594,0.0,0.0,0.0,0.0,0.0,0.0,0.21145888210879907,0.0,0.0,0.0,0.0,0.0,0.0,-13.924,0.0,0.0,0.0
586,0.0,0.0,0.0,0.27487890625,0.0,0.0,0.0,0.0,0.0,0.0,-0.583,0.0,0.0,0.0,0.0,0.0,0.0,0.20296542665275122,0.0,0.0,0.0,0.0,0.0,0.0,-13.744,0.0,0.0,0.0
587,0.0,0.0,0.0,0.26864453125,0.0,0.0,0.0,0.0,0.0,0.0,-0.6,0.0,0.0,0.0,0.0,0.0,0.0,0.19457986059735013,0.0,0.0,0.0,0.0,0.0,0.0,-14.04,0.0,0.0,0.0
588,0.0,0.0,0.0,0.2631396484375,0.0,0.0,0.0,0.0,0.0,0.0,-0.618,0.0,0.0,0.0,0.0,0.0,0.0,0.185995136027209,0.0,0.0,0.0,0.0,0.0,0.0,-13.696,0.0,0.0,0.0
589,0.0,0.0,0.0,0.2572021484375,0.0,0.0,0.0,0.0,0.0,0.0,-0.609,0.0,0.0,0.0,0.0,0.0,0.0,0.17741624838777834,0.0,0.0,0.0,0.0,0.0,0.0,-13.584,0.0,0.0,0.0
590,0.0,0.0,0.0,0.251255859375,0.0,0.0,0.0,0.0,0.0,0.0,-0.603,0.0,0.0,0.0,0.0,0.0,0.0,0.16886125883152653,0.0,0.0,0.0,0.0,0.0,0.0,-13.468,0.0,0.0,0.0
591,0.0,0.0,0.0,0.245318359375,0.0,0.0,0.0,0.0,0.0,0.0,-0.597,0.0,0.0,0.0,0.0,0.0,0.0,0.1601004956896621,0.0,0.0,0.0,0.0,0.0,0.0,-13.376,0.0,0.0,0.0
592,0.0,0.0,0.0,0.239236328125,0.0,0.0,0.0,0.0,0.0,0.0,-0.6,0.0,0.0,0.0,0.0,0.0,0.0,0.1514552300178057,0.0,0.0,0.0,0.0,0.0,0.0,-14.176,0.0,0.0,0.0
593,0.0,0.0,0.0,0.2332998046875,0.0,0.0,0.0,0.0,0.0,0.0,-0.609,0.0,0.0,0.0,0.0,0.0,0.0,0.14272747825531365,0.0,0.0,0.0,0.0,0.0,0.0,-14.496,0.0,0.0,0.0
594,0.0,0.0,0.0,0.227505859375,0.0,0.0,0.0,0.0,0.0,0.0,-0.596,0.0,0.0,0.0,0.0,0.0,0.0,0.13399729559012327,0.0,0.0,0.0,0.0,0.0,0.0,-14.36,0.0,0.0,0.0
595,0.0,0.0,0.0,0.221712890625,0.0,0.0,0.0,0.0,0.0,0.0,-0.583,0.0,0.0,0.0,0.0,0.0,0.0,0.12518867488917032,0.0,0.0,0.0,0.0,0.0,0.0,-14.156,0.0,0.0,0.0
596,0.0,0.0,0.0,0.216064453125,0.0,0.0,0.0,0.0,0.0,0.0,-0.582,0.0,0.0,0.0,0.0,0.0,0.0,0.11641721737381056,0.0,0.0,0.0,0.0,0.0,0.0,-13.88,0.0,0.0,0.0
597,0.0,0.0,0.0,0.2101181640625,0.0,0.0,0.0,0.0,0.0,0.0,-0.581,0.0,0.0,0.0,0.0,0.0,0.0,0.1075771863211149,0.0,0.0,0.0,0.0,0.0,0.0,-14.108,0.0,0.0,0.0
598,0.0,0.0,0.0,0.2041806640625,0.0,0.0,0.0,0.0,0.0,0.0,-0.601,0.0,0.0,0.0,0.0,0.0,0.0,0.09865094532518909,0.0,0.0,0.0,0.0,0.0,0.0,-14.176,0.0,0.0,0.0
599,0.0,0.0,0.0,0.1982431640625,0.0,0.0,0.0,0.0,0.0,0.0,-0.592,0.0,0.0,0.0,0.0,0.0,0.0,0.08975015469146633,0.0,0.0,0.0,0.0,0.0,0.0,-13.924,0.0,0.0,0.0
600,0.0,0.0,0.0,0.192296875,0.0,0.0,0.0,0.0,0.0,0.0,-0.599,0.0,0.0,0.0,0.0,0.0,0.0,0.08080870220384971,0.0,0.0,0.0,0.0,0.0,0.0,-13.924,0.0,0.0,0.0
601,0.0,0.0,0.0,0.18650390625,0.0,0.0,0.0,0.0,0.0,0.0,-0.594,0.0,0.0,0.0,0.0,0.0,0.0,0.07188727924358435,0.0,0.0,0.0,0.0,0.0,0.0,-13.652,0.0,0.0,0.0
602,0.0,0.0,0.0,0.1807109375,0.0,0.0,0.0,0.0,0.0,0.0,-0.583,0.0,0.0,0.0,0.0,0.0,0.0,0.06304551366956668,0.0,0.0,0.0,0.0,0.0,0.0,-14.064,0.0,0.0,0.0
603,0.0,0.0,0.0,0.1746201171875,0.0,0.0,0.0,0.0,0.0,0.0,-0.592,0.0,0.0,0.0,0.0,0.0,0.0,0.0540956396675755,0.0,0.0,0.0,0.0,0.0,0.0,-14.84,0.0,0.0,0.0
604,0.0,0.0,0.0,0.1688359375,0.0,0.0,0.0,0.0,0.0,0.0,-0.602,0.0,0.0,0.0,0.0,0.0,0.0,0.04496136681156377,0.0,0.0,0.0,0.0,0.0,0.0,-14.704,0.0,0.0,0.0
605,0.0,0.0,0.0,0.1631875,0.0,0.0,0.0,0.0,0.0,0.0,-0.575,0.0,0.0,0.0,0.0,0.0,0.0,0.03590570637998647,0.0,0.0,0.0,0.0,0.0,0.0,-14.476,0.0,0.0,0.0
606,0.0,0.0,0.0,0.15739453125,0.0,0.0,0.0,0.0,0.0,0.0,-0.58,0.0,0.0,0.0,0.0,0.0,0.0,0.0271599388677949,0.0,0.0,0.0,0.0,0.0,0.0,-14.176,0.0,0.0,0.0
607,0.0,0.0,0.0,0.1513037109375,0.0,0.0,0.0,0.0,0.0,0.0,-0.571,0.0,0.0,0.0,0.0,0.0,0.0,0.018006238698113138,0.0,0.0,0.0,0.0,0.0,0.0,-14.292,0.0,0.0,0.0
608,0.0,0.0,0.0,0.145943359375,0.0,0.0,0.0,0.0,0.0,0.0,-0.572,0.0,0.0,0.0,0.0,0.0,0.0,0.00913026378193921,0.0,0.0,0.0,0.0,0.0,0.0,-14.728,0.0,0.0,0.0
609,0.0,0.0,0.0,0.1392841796875,0.0,0.0,0.0,0.0,0.0,0.0,-0.607,0.0,0.0,0.0,0.0,0.0,0.0,0.00016924857710750834,0.0,0.0,0.0,0.0,0.0,0.0,-14.176,0.0,0.0,0.0
610,0.0,0.0,0.0,0.1340595703125,0.0,0.0,0.0,0.0,0.0,0.0,-0.599,0.0,0.0,0.0,0.0,0.0,0.0,-0.008914958010243472,0.0,0.0,0.0,0.0,0.0,0.0,-13.996,0.0,0.0,0.0
611,0.0,0.0,0.0,0.127544921875,0.0,0.0,0.0,0.0,0.0,0.0,-0.592,0.0,0.0,0.0,0.0,0.0,0.0,-0.01788022887877189,0.0,0.0,0.0,0.0,0.0,0.0,-13.812,0.0,0.0,0.0
612,0.0,0.0,0.0,0.121751953125,0.0,0.0,0.0,0.0,0.0,0.0,-0.592,0.0,0.0,0.0,0.0,0.0,0.0,-0.026802920495383145,0.0,0.0,0.0,0.0,0.0,0.0,-13.924,0.0,0.0,0.0
613,0.0,0.0,0.0,0.1163916015625,0.0,0.0,0.0,0.0,0.0,0.0,-0.583,0.0,0.0,0.0,0.0,0.0,0.0,-0.035818420317372694,0.0,0.0,0.0,0.0,0.0,0.0,-14.68,0.0,0.0,0.0
614,0.0,0.0,0.0,0.1104453125,0.0,0.0,0.0,0.0,0.0,0.0,-0.603,0.0,0.0,0.0,0.0,0.0,0.0,-0.0448412174607709,0.0,0.0,0.0,0.0,0.0,0.0,-14.84,0.0,0.0,0.0
615,0.0,0.0,0.0,0.1048056640625,0.0,0.0,0.0,0.0,0.0,0.0,-0.593,0.0,0.0,0.0,0.0,0.0,0.0,-0.053767488468661986,0.0,0.0,0.0,0.0,0.0,0.0,-14.908,0.0,0.0,0.0
616,0.0,0.0,0.0,0.098435546875,0.0,0.0,0.0,0.0,0.0,0.0,-0.572,0.0,0.0,0.0,0.0,0.0,0.0,-0.06274281109090807,0.0,0.0,0.0,0.0,0.0,0.0,-14.68,0.0,0.0,0.0
617,0.0,0.0,0.0,0.092787109375,0.0,0.0,0.0,0.0,0.0,0.0,-0.582,0.0,0.0,0.0,0.0,0.0,0.0,-0.07170481242829545,0.0,0.0,0.0,0.0,0.0,0.0,-14.36,0.0,0.0,0.0
618,0.0,0.0,0.0,0.0875712890625,0.0,0.0,0.0,0.0,0.0,0.0,-0.573,0.0,0.0,0.0,0.0,0.0,0.0,-0.08057215180289752,0.0,0.0,0.0,0.0,0.0,0.0,-14.612,0.0,0.0,0.0
619,0.0,0.0,0.0,0.0814892578125,0.0,0.0,0.0,0.0,0.0,0.0,-0.589,0.0,0.0,0.0,0.0,0.0,0.0,-0.0895363927605473,0.0,0.0,0.0,0.0,0.0,0.0,-14.636,0.0,0.0,0.0
620,0.0,0.0,0.0,0.075119140625,0.0,0.0,0.0,0.0,0.0,0.0,-0.609,0.0,0.0,0.0,0.0,0.0,0.0,-0.09843959769061736,0.0,0.0,0.0,0.0,0.0,0.0,-13.948,0.0,0.0,0.0
621,0.0,0.0,0.0,0.0690283203125,0.0,0.0,0.0,0.0,0.0,0.0,-0.589,0.0,0.0,0.0,0.0,0.0,0.0,-0.10724584627482704,0.0,0.0,0.0,0.0,0.0,0.0,-14.132,0.0,0.0,0.0
622,0.0,0.0,0.0,0.0630908203125,0.0,0.0,0.0,0.0,0.0,0.0,-0.607,0.0,0.0,0.0,0.0,0.0,0.0,-0.11615207990531265,0.0,0.0,0.0,0.0,0.0,0.0,-13.88,0.0,0.0,0.0
623,0.0,0.0,0.0,0.05801953125,0.0,0.0,0.0,0.0,0.0,0.0,-0.589,0.0,0.0,0.0,0.0,0.0,0.0,-0.1250477519442231,0.0,0.0,0.0,0.0,0.0,0.0,-14.268,0.0,0.0,0.0
624,0.0,0.0,0.0,0.0519287109375,0.0,0.0,0.0,0.0,0.0,0.0,-0.589,0.0,0.0,0.0,0.0,0.0,0.0,-0.13371899446633564,0.0,0.0,0.0,0.0,0.0,0.0,-15.16,0.0,0.0,0.0
625,0.0,0.0,0.0,0.0459912109375,0.0,0.0,0.0,0.0,0.0,0.0,-0.611,0.0,0.0,0.0,0.0,0.0,0.0,-0.14248684607345527,0.0,0.0,0.0,0.0,0.0,0.0,-14.728,0.0,0.0,0.0
626,0.0,0.0,0.0,0.0397646484375,0.0,0.0,0.0,0.0,0.0,0.0,-0.577,0.0,0.0,0.0,0.0,0.0,0.0,-0.151258283896695,0.0,0.0,0.0,0.0,0.0,0.0,-14.84,0.0,0.0,0.0
627,0.0,0.0,0.0,0.0344052734375,0.0,0.0,0.0,0.0,0.0,0.0,-0.584,0.0,0.0,0.0,0.0,0.0,0.0,-0.15991902141228873,0.0,0.0,0.0,0.0,0.0,0.0,-14.428,0.0,0.0,0.0
628,0.0,0.0,0.0,0.0287568359375,0.0,0.0,0.0,0.0,0.0,0.0,-0.585,0.0,0.0,0.0,0.0,0.0,0.0,-0.16853641681602252,0.0,0.0,0.0,0.0,0.0,0.0,-14.428,0.0,0.0,0.0
629,0.0,0.0,0.0,0.0228193359375,0.0,0.0,0.0,0.0,0.0,0.0,-0.567,0.0,0.0,0.0,0.0,0.0,0.0,-0.1772123808453674,0.0,0.0,0.0,0.0,0.0,0.0,-14.908,0.0,0.0,0.0
630,0.0,0.0,0.0,0.0167373046875,0.0,0.0,0.0,0.0,0.0,0.0,-0.617,0.0,0.0,0.0,0.0,0.0,0.0,-0.18575387945216768,0.0,0.0,0.0,0.0,0.0,0.0,-14.108,0.0,0.0,0.0
631,0.0,0.0,0.0,0.010935546875,0.0,0.0,0.0,0.0,0.0,0.0,-0.599,0.0,0.0,0.0,0.0,0.0,0.0,-0.19429799693372526,0.0,0.0,0.0,0.0,0.0,0.0,-14.04,0.0,0.0,0.0
632,0.0,0.0,0.0,0.0042763671875,0.0,0.0,0.0,0.0,0.0,0.0,-0.594,0.0,0.0,0.0,0.0,0.0,0.0,-0.20283749858282402,0.0,0.0,0.0,0.0,0.0,0.0,-13.924,0.0,0.0,0.0
633,0.0,0.0,0.0,-0.0013720703125,0.0,0.0,0.0,0.0,0.0,0.0,-0.599,0.0,0.0,0.0,0.0,0.0,0.0,-0.21119609820091836,0.0,0.0,0.0,0.0,0.0,0.0,-14.084,0.0,0.0,0.0
634,0.0,0.0,0.0,-0.0067314453125,0.0,0.0,0.0,0.0,0.0,0.0,-0.574,0.0,0.0,0.0,0.0,0.0,0.0,-0.21958165954112485,0.0,0.0,0.0,0.0,0.0,0.0,-14.796,0.0,0.0,0.0
635,0.0,0.0,0.0,-0.013400390625,0.0,0.0,0.0,0.0,0.0,0.0,-0.612,0.0,0.0,0.0,0.0,0.0,0.0,-0.2280604956797902,0.0,0.0,0.0,0.0,0.0,0.0,-14.636,0.0,0.0,0.0
636,0.0,0.0,0.0,-0.018470703125,0.0,0.0,0.0,0.0,0.0,0.0,-0.599,0.0,0.0,0.0,0.0,0.0,0.0,-0.23626652251914104,0.0,0.0,0.0,0.0,0.0,0.0,-14.816,0.0,0.0,0.0
637,0.0,0.0,0.0,-0.024986328125,0.0,0.0,0.0,0.0,0.0,0.0,-0.579,0.0,0.0,0.0,0.0,0.0,0.0,-0.24449934815398966,0.0,0.0,0.0,0.0,0.0,0.0,-14.68,0.0,0.0,0.0
638,0.0,0.0,0.0,-0.0306435546875,0.0,0.0,0.0,0.0,0.0,0.0,-0.595,0.0,0.0,0.0,0.0,0.0,0.0,-0.2528355545789635,0.0,0.0,0.0,0.0,0.0,0.0,-14.316,0.0,0.0,0.0
639,0.0,0.0,0.0,-0.0362919921875,0.0,0.0,0.0,0.0,0.0,0.0,-0.56,0.0,0.0,0.0,0.0,0.0,0.0,-0.26080909370261646,0.0,0.0,0.0,0.0,0.0,0.0,-14.748,0.0,0.0,0.0
640,0.0,0.0,0.0,-0.0425185546875,0.0,0.0,0.0,0.0,0.0,0.0,-0.593,0.0,0.0,0.0,0.0,0.0,0.0,-0.2689008115334022,0.0,0.0,0.0,0.0,0.0,0.0,-14.52,0.0,0.0,0.0
641,0.0,0.0,0.0,-0.048302734375,0.0,0.0,0.0,0.0,0.0,0.0,-0.61,0.0,0.0,0.0,0.0,0.0,0.0,-0.2770107791035986,0.0,0.0,0.0,0.0,0.0,0.0,-13.972,0.0,0.0,0.0
642,0.0,0.0,0.0,-0.0541044921875,0.0,0.0,0.0,0.0,0.0,0.0,-0.578,0.0,0.0,0.0,0.0,0.0,0.0,-0.28486696394165995,0.0,0.0,0.0,0.0,0.0,0.0,-14.268,0.0,0.0,0.0
643,0.0,0.0,0.0,-0.0596083984375,0.0,0.0,0.0,0.0,0.0,0.0,-0.606,0.0,0.0,0.0,0.0,0.0,0.0,-0.293240170506133,0.0,0.0,0.0,0.0,0.0,0.0,-13.788,0.0,0.0,0.0
644,0.0,0.0,0.0,-0.0658349609375,0.0,0.0,0.0,0.0,0.0,0.0,-0.592,0.0,0.0,0.0,0.0,0.0,0.0,-0.30062341659934727,0.0,0.0,0.0,0.0,0.0,0.0,-14.452,0.0,0.0,0.0
645,0.0,0.0,0.0,-0.0719169921875,0.0,0.0,0.0,0.0,0.0,0.0,-0.584,0.0,0.0,0.0,0.0,0.0,0.0,-0.3083363357518923,0.0,0.0,0.0,0.0,0.0,0.0,-14.956,0.0,0.0,0.0
646,0.0,0.0,0.0,-0.0780078125,0.0,0.0,0.0,0.0,0.0,0.0,-0.621,0.0,0.0,0.0,0.0,0.0,0.0,-0.3160658105683344,0.0,0.0,0.0,0.0,0.0,0.0,-14.52,0.0,0.0,0.0
647,0.0,0.0,0.0,-0.0830791015625,0.0,0.0,0.0,0.0,0.0,0.0,-0.589,0.0,0.0,0.0,0.0,0.0,0.0,-0.32362308036704257,0.0,0.0,0.0,0.0,0.0,0.0,-14.864,0.0,0.0,0.0
648,0.0,0.0,0.0,-0.08959375,0.0,0.0,0.0,0.0,0.0,0.0,-0.586,0.0,0.0,0.0,0.0,0.0,0.0,-0.3312378134082864,0.0,0.0,0.0,0.0,0.0,0.0,-14.36,0.0,0.0,0.0
649,0.0,0.0,0.0,-0.09509765625,0.0,0.0,0.0,0.0,0.0,0.0,-0.578,0.0,0.0,0.0,0.0,0.0,0.0,-0.3386442603434093,0.0,0.0,0.0,0.0,0.0,0.0,-14.496,0.0,0.0,0.0
650,0.0,0.0,0.0,-0.1003134765625,0.0,0.0,0.0,0.0,0.0,0.0,-0.559,0.0,0.0,0.0,0.0,0.0,0.0,-0.34613175333203494,0.0,0.0,0.0,0.0,0.0,0.0,-14.796,0.0,0.0,0.0
651,0.0,0.0,0.0,-0.10697265625,0.0,0.0,0.0,0.0,0.0,0.0,-0.608,0.0,0.0,0.0,0.0,0.0,0.0,-0.3533922783020273,0.0,0.0,0.0,0.0,0.0,0.0,-14.2,0.0,0.0,0.0
652,0.0,0.0,0.0,-0.1121884765625,0.0,0.0,0.0,0.0,0.0,0.0,-0.598,0.0,0.0,0.0,0.0,0.0,0.0,-0.36059671299364243,0.0,0.0,0.0,0.0,0.0,0.0,-14.04,0.0,0.0,0.0
653,0.0,0.0,0.0,-0.11884765625,0.0,0.0,0.0,0.0,0.0,0.0,-0.597,0.0,0.0,0.0,0.0,0.0,0.0,-0.36779407681299653,0.0,0.0,0.0,0.0,0.0,0.0,-13.996,0.0,0.0,0.0
654,0.0,0.0,0.0,-0.1246494140625,0.0,0.0,0.0,0.0,0.0,0.0,-0.61,0.0,0.0,0.0,0.0,0.0,0.0,-0.374813982770178,0.0,0.0,0.0,0.0,0.0,0.0,-13.836,0.0,0.0,0.0
655,0.0,0.0,0.0,-0.1304423828125,0.0,0.0,0.0,0.0,0.0,0.0,-0.575,0.0,0.0,0.0,0.0,0.0,0.0,-0.38178351177382946,0.0,0.0,0.0,0.0,0.0,0.0,-14.704,0.0,0.0,0.0
656,0.0,0.0,0.0,-0.1366689453125,0.0,0.0,0.0,0.0,0.0,0.0,-0.603,0.0,0.0,0.0,0.0,0.0,0.0,-0.3887826049896853,0.0,0.0,0.0,0.0,0.0,0.0,-14.864,0.0,0.0,0.0
657,0.0,0.0,0.0,-0.142326171875,0.0,0.0,0.0,0.0,0.0,0.0,-0.6,0.0,0.0,0.0,0.0,0.0,0.0,-0.39554954382132573,0.0,0.0,0.0,0.0,0.0,0.0,-14.568,0.0,0.0,0.0
658,0.0,0.0,0.0,-0.147533203125,0.0,0.0,0.0,0.0,0.0,0.0,-0.576,0.0,0.0,0.0,0.0,0.0,0.0,-0.4024250783630873,0.0,0.0,0.0,0.0,0.0,0.0,-14.704,0.0,0.0,0.0
659,0.0,0.0,0.0,-0.1539033203125,0.0,0.0,0.0,0.0,0.0,0.0,-0.593,0.0,0.0,0.0,0.0,0.0,0.0,-0.40887322216948474,0.0,0.0,0.0,0.0,0.0,0.0,-14.316,0.0,0.0,0.0
660,0.0,0.0,0.0,-0.159408203125,0.0,0.0,0.0,0.0,0.0,0.0,-0.57,0.0,0.0,0.0,0.0,0.0,0.0,-0.4180555027512394,0.0,0.0,0.0,0.0,0.0,0.0,-14.544,0.0,0.0,0.0
661,0.0,0.0,0.0,-0.1649208984375,0.0,0.0,0.0,0.0,0.0,0.0,-0.57,0.0,0.0,0.0,0.0,0.0,0.0,-0.42190497585340786,0.0,0.0,0.0,0.0,0.0,0.0,-14.588,0.0,0.0,0.0
662,0.0,0.0,0.0,-0.1714365234375,0.0,0.0,0.0,0.0,0.0,0.0,-0.611,0.0,0.0,0.0,0.0,0.0,0.0,-0.4292612133518625,0.0,0.0,0.0,0.0,0.0,0.0,-13.904,0.0,0.0,0.0
663,0.0,0.0,0.0,-0.1766513671875,0.0,0.0,0.0,0.0,0.0,0.0,-0.588,0.0,0.0,0.0,0.0,0.0,0.0,-0.43458089814115186,0.0,0.0,0.0,0.0,0.0,0.0,-13.996,0.0,0.0,0.0
664,0.0,0.0,0.0,-0.183455078125,0.0,0.0,0.0,0.0,0.0,0.0,-0.601,0.0,0.0,0.0,0.0,0.0,0.0,-0.440678585216123,0.0,0.0,0.0,0.0,0.0,0.0,-13.628,0.0,0.0,0.0
665,0.0,0.0,0.0,-0.18911328125,0.0,0.0,0.0,0.0,0.0,0.0,-0.6,0.0,0.0,0.0,0.0,0.0,0.0,-0.4467774224235747,0.0,0.0,0.0,0.0,0.0,0.0,-13.88,0.0,0.0,0.0
666,0.0,0.0,0.0,-0.195041015625,0.0,0.0,0.0,0.0,0.0,0.0,-0.576,0.0,0.0,0.0,0.0,0.0,0.0,-0.45304655747629935,0.0,0.0,0.0,0.0,0.0,0.0,-14.656,0.0,0.0,0.0
667,0.0,0.0,0.0,-0.201123046875,0.0,0.0,0.0,0.0,0.0,0.0,-0.608,0.0,0.0,0.0,0.0,0.0,0.0,-0.45859790522070876,0.0,0.0,0.0,0.0,0.0,0.0,-14.36,0.0,0.0,0.0
668,0.0,0.0,0.0,-0.2066279296875,0.0,0.0,0.0,0.0,0.0,0.0,-0.593,0.0,0.0,0.0,0.0,0.0,0.0,-0.464304537635517,0.0,0.0,0.0,0.0,0.0,0.0,-14.588,0.0,0.0,0.0
