EmanuelSamir/lab201_ws_projsamir/sawyer_dev/data/sawyer/vel_sin_motion_incrf/test_joint7/validation_data_0.5.csv
,j1,j2,j3,j4,j5,j6,j7,v1,v2,v3,v4,v5,v6,v7,jd1,jd2,jd3,jd4,jd5,jd6,jd7,e1,e2,e3,e4,e5,e6,e7
0,0.0,0.0,0.0,0.0,0.0,0.0,0.0,0.0,0.0,0.0,0.0,0.0,0.0,0.0,0.0,0.0,0.0,0.0,0.0,0.0,0.0,0.0,0.0,0.0,0.0,0.0,0.0,0.0
1,0.0,0.0,0.0,0.0,0.0,0.0,0.001,0.0,0.0,0.0,0.0,0.0,0.0,-0.001,0.0,0.0,0.0,0.0,0.0,0.0,5.817413329873048e-06,0.0,0.0,0.0,0.0,0.0,0.0,-0.012
2,0.0,0.0,0.0,0.0,0.0,0.0,0.001,0.0,0.0,0.0,0.0,0.0,0.0,-0.001,0.0,0.0,0.0,0.0,0.0,0.0,0.0011948090905606291,0.0,0.0,0.0,0.0,0.0,0.0,-0.016
3,0.0,0.0,0.0,0.0,0.0,0.0,0.001,0.0,0.0,0.0,0.0,0.0,0.0,-0.001,0.0,0.0,0.0,0.0,0.0,0.0,0.0031767511196718018,0.0,0.0,0.0,0.0,0.0,0.0,-0.012
4,0.0,0.0,0.0,0.0,0.0,0.0,0.001,0.0,0.0,0.0,0.0,0.0,0.0,-0.001,0.0,0.0,0.0,0.0,0.0,0.0,0.005172680678477943,0.0,0.0,0.0,0.0,0.0,0.0,-0.016
5,0.0,0.0,0.0,0.0,0.0,0.0,0.001,0.0,0.0,0.0,0.0,0.0,0.0,-0.001,0.0,0.0,0.0,0.0,0.0,0.0,0.0071816400201838064,0.0,0.0,0.0,0.0,0.0,0.0,-0.024
6,0.0,0.0,0.0,0.0,0.0,0.0,0.001,0.0,0.0,0.0,0.0,0.0,0.0,-0.001,0.0,0.0,0.0,0.0,0.0,0.0,0.009169395185333617,0.0,0.0,0.0,0.0,0.0,0.0,-0.012
7,0.0,0.0,0.0,0.0,0.0,0.0,0.00120703125,0.0,0.0,0.0,0.0,0.0,0.0,0.006,0.0,0.0,0.0,0.0,0.0,0.0,0.011156161176682208,0.0,0.0,0.0,0.0,0.0,0.0,0.036
8,0.0,0.0,0.0,0.0,0.0,0.0,0.00243359375,0.0,0.0,0.0,0.0,0.0,0.0,0.054,0.0,0.0,0.0,0.0,0.0,0.0,0.013172819222720173,0.0,0.0,0.0,0.0,0.0,0.0,0.192
9,0.0,0.0,0.0,0.0,0.0,0.0,0.0040732421875,0.0,0.0,0.0,0.0,0.0,0.0,0.138,0.0,0.0,0.0,0.0,0.0,0.0,0.015174561426107864,0.0,0.0,0.0,0.0,0.0,0.0,0.156
10,0.0,0.0,0.0,0.0,0.0,0.0,0.0065390625,0.0,0.0,0.0,0.0,0.0,0.0,0.199,0.0,0.0,0.0,0.0,0.0,0.0,0.017180734738503727,0.0,0.0,0.0,0.0,0.0,0.0,0.188
11,0.0,0.0,0.0,0.0,0.0,0.0,0.0092119140625,0.0,0.0,0.0,0.0,0.0,0.0,0.262,0.0,0.0,0.0,0.0,0.0,0.0,0.0191760444485093,0.0,0.0,0.0,0.0,0.0,0.0,0.18
12,0.0,0.0,0.0,0.0,0.0,0.0,0.01187109375,0.0,0.0,0.0,0.0,0.0,0.0,0.278,0.0,0.0,0.0,0.0,0.0,0.0,0.02115392438703985,0.0,0.0,0.0,0.0,0.0,0.0,0.22
13,0.0,0.0,0.0,0.0,0.0,0.0,0.0143369140625,0.0,0.0,0.0,0.0,0.0,0.0,0.253,0.0,0.0,0.0,0.0,0.0,0.0,0.02314866120180062,0.0,0.0,0.0,0.0,0.0,0.0,0.284
14,0.0,0.0,0.0,0.0,0.0,0.0,0.017216796875,0.0,0.0,0.0,0.0,0.0,0.0,0.259,0.0,0.0,0.0,0.0,0.0,0.0,0.025171945231082966,0.0,0.0,0.0,0.0,0.0,0.0,0.252
15,0.0,0.0,0.0,0.0,0.0,0.0,0.0200830078125,0.0,0.0,0.0,0.0,0.0,0.0,0.282,0.0,0.0,0.0,0.0,0.0,0.0,0.02719044397944688,0.0,0.0,0.0,0.0,0.0,0.0,0.232
16,0.0,0.0,0.0,0.0,0.0,0.0,0.0229619140625,0.0,0.0,0.0,0.0,0.0,0.0,0.289,0.0,0.0,0.0,0.0,0.0,0.0,0.029160928510646545,0.0,0.0,0.0,0.0,0.0,0.0,0.16
17,0.0,0.0,0.0,0.0,0.0,0.0,0.025634765625,0.0,0.0,0.0,0.0,0.0,0.0,0.289,0.0,0.0,0.0,0.0,0.0,0.0,0.031154233642069915,0.0,0.0,0.0,0.0,0.0,0.0,0.104
18,0.0,0.0,0.0,0.0,0.0,0.0,0.027880859375,0.0,0.0,0.0,0.0,0.0,0.0,0.255,0.0,0.0,0.0,0.0,0.0,0.0,0.033136401391723476,0.0,0.0,0.0,0.0,0.0,0.0,0.136
19,0.0,0.0,0.0,0.0,0.0,0.0,0.0297275390625,0.0,0.0,0.0,0.0,0.0,0.0,0.204,0.0,0.0,0.0,0.0,0.0,0.0,0.035123735093081414,0.0,0.0,0.0,0.0,0.0,0.0,0.128
20,0.0,0.0,0.0,0.0,0.0,0.0,0.0311728515625,0.0,0.0,0.0,0.0,0.0,0.0,0.169,0.0,0.0,0.0,0.0,0.0,0.0,0.03714162578870713,0.0,0.0,0.0,0.0,0.0,0.0,0.16
21,0.0,0.0,0.0,0.0,0.0,0.0,0.0326064453125,0.0,0.0,0.0,0.0,0.0,0.0,0.146,0.0,0.0,0.0,0.0,0.0,0.0,0.03916952549522976,0.0,0.0,0.0,0.0,0.0,0.0,0.168
22,0.0,0.0,0.0,0.0,0.0,0.0,0.033638671875,0.0,0.0,0.0,0.0,0.0,0.0,0.119,0.0,0.0,0.0,0.0,0.0,0.0,0.04109338954796136,0.0,0.0,0.0,0.0,0.0,0.0,0.136
23,0.0,0.0,0.0,0.0,0.0,0.0,0.0344521484375,0.0,0.0,0.0,0.0,0.0,0.0,0.096,0.0,0.0,0.0,0.0,0.0,0.0,0.0431009615809035,0.0,0.0,0.0,0.0,0.0,0.0,0.16
24,0.0,0.0,0.0,0.0,0.0,0.0,0.0358857421875,0.0,0.0,0.0,0.0,0.0,0.0,0.116,0.0,0.0,0.0,0.0,0.0,0.0,0.04509492753049903,0.0,0.0,0.0,0.0,0.0,0.0,0.14
25,0.0,0.0,0.0,0.0,0.0,0.0,0.0375380859375,0.0,0.0,0.0,0.0,0.0,0.0,0.147,0.0,0.0,0.0,0.0,0.0,0.0,0.04706294648525705,0.0,0.0,0.0,0.0,0.0,0.0,0.168
26,0.0,0.0,0.0,0.0,0.0,0.0,0.039384765625,0.0,0.0,0.0,0.0,0.0,0.0,0.173,0.0,0.0,0.0,0.0,0.0,0.0,0.049089154805120626,0.0,0.0,0.0,0.0,0.0,0.0,0.116
27,0.0,0.0,0.0,0.0,0.0,0.0,0.0416435546875,0.0,0.0,0.0,0.0,0.0,0.0,0.202,0.0,0.0,0.0,0.0,0.0,0.0,0.05104503679982361,0.0,0.0,0.0,0.0,0.0,0.0,0.116
28,0.0,0.0,0.0,0.0,0.0,0.0,0.043490234375,0.0,0.0,0.0,0.0,0.0,0.0,0.205,0.0,0.0,0.0,0.0,0.0,0.0,0.053020711013817015,0.0,0.0,0.0,0.0,0.0,0.0,0.18
29,0.0,0.0,0.0,0.0,0.0,0.0,0.045736328125,0.0,0.0,0.0,0.0,0.0,0.0,0.213,0.0,0.0,0.0,0.0,0.0,0.0,0.054997431037383575,0.0,0.0,0.0,0.0,0.0,0.0,0.156
30,0.0,0.0,0.0,0.0,0.0,0.0,0.04799609375,0.0,0.0,0.0,0.0,0.0,0.0,0.228,0.0,0.0,0.0,0.0,0.0,0.0,0.05699713683972823,0.0,0.0,0.0,0.0,0.0,0.0,0.18
31,0.0,0.0,0.0,0.0,0.0,0.0,0.0504619140625,0.0,0.0,0.0,0.0,0.0,0.0,0.228,0.0,0.0,0.0,0.0,0.0,0.0,0.058951858556090725,0.0,0.0,0.0,0.0,0.0,0.0,0.172
32,0.0,0.0,0.0,0.0,0.0,0.0,0.0527216796875,0.0,0.0,0.0,0.0,0.0,0.0,0.241,0.0,0.0,0.0,0.0,0.0,0.0,0.060946095909859624,0.0,0.0,0.0,0.0,0.0,0.0,0.192
33,0.0,0.0,0.0,0.0,0.0,0.0,0.05498046875,0.0,0.0,0.0,0.0,0.0,0.0,0.235,0.0,0.0,0.0,0.0,0.0,0.0,0.06294132641434706,0.0,0.0,0.0,0.0,0.0,0.0,0.168
34,0.0,0.0,0.0,0.0,0.0,0.0,0.0570341796875,0.0,0.0,0.0,0.0,0.0,0.0,0.213,0.0,0.0,0.0,0.0,0.0,0.0,0.06488898293416531,0.0,0.0,0.0,0.0,0.0,0.0,0.208
35,0.0,0.0,0.0,0.0,0.0,0.0,0.0590869140625,0.0,0.0,0.0,0.0,0.0,0.0,0.206,0.0,0.0,0.0,0.0,0.0,0.0,0.0668717308701042,0.0,0.0,0.0,0.0,0.0,0.0,0.24
36,0.0,0.0,0.0,0.0,0.0,0.0,0.061345703125,0.0,0.0,0.0,0.0,0.0,0.0,0.208,0.0,0.0,0.0,0.0,0.0,0.0,0.06884273788957189,0.0,0.0,0.0,0.0,0.0,0.0,0.22
37,0.0,0.0,0.0,0.0,0.0,0.0,0.063412109375,0.0,0.0,0.0,0.0,0.0,0.0,0.221,0.0,0.0,0.0,0.0,0.0,0.0,0.07081774936984682,0.0,0.0,0.0,0.0,0.0,0.0,0.16
38,0.0,0.0,0.0,0.0,0.0,0.0,0.0648447265625,0.0,0.0,0.0,0.0,0.0,0.0,0.183,0.0,0.0,0.0,0.0,0.0,0.0,0.07276008099444488,0.0,0.0,0.0,0.0,0.0,0.0,0.148
39,0.0,0.0,0.0,0.0,0.0,0.0,0.06669140625,0.0,0.0,0.0,0.0,0.0,0.0,0.159,0.0,0.0,0.0,0.0,0.0,0.0,0.07487648788740296,0.0,0.0,0.0,0.0,0.0,0.0,0.12
40,0.0,0.0,0.0,0.0,0.0,0.0,0.068744140625,0.0,0.0,0.0,0.0,0.0,0.0,0.194,0.0,0.0,0.0,0.0,0.0,0.0,0.07669670836612164,0.0,0.0,0.0,0.0,0.0,0.0,0.108
41,0.0,0.0,0.0,0.0,0.0,0.0,0.07058984375,0.0,0.0,0.0,0.0,0.0,0.0,0.199,0.0,0.0,0.0,0.0,0.0,0.0,0.07865021493322653,0.0,0.0,0.0,0.0,0.0,0.0,0.116
42,0.0,0.0,0.0,0.0,0.0,0.0,0.0724365234375,0.0,0.0,0.0,0.0,0.0,0.0,0.188,0.0,0.0,0.0,0.0,0.0,0.0,0.08064268576651185,0.0,0.0,0.0,0.0,0.0,0.0,0.084
43,0.0,0.0,0.0,0.0,0.0,0.0,0.074076171875,0.0,0.0,0.0,0.0,0.0,0.0,0.177,0.0,0.0,0.0,0.0,0.0,0.0,0.0825873038222268,0.0,0.0,0.0,0.0,0.0,0.0,0.104
44,0.0,0.0,0.0,0.0,0.0,0.0,0.0759228515625,0.0,0.0,0.0,0.0,0.0,0.0,0.172,0.0,0.0,0.0,0.0,0.0,0.0,0.08452163574044304,0.0,0.0,0.0,0.0,0.0,0.0,0.104
45,0.0,0.0,0.0,0.0,0.0,0.0,0.0773681640625,0.0,0.0,0.0,0.0,0.0,0.0,0.165,0.0,0.0,0.0,0.0,0.0,0.0,0.08650548492437445,0.0,0.0,0.0,0.0,0.0,0.0,0.104
46,0.0,0.0,0.0,0.0,0.0,0.0,0.0790078125,0.0,0.0,0.0,0.0,0.0,0.0,0.155,0.0,0.0,0.0,0.0,0.0,0.0,0.08843348633366233,0.0,0.0,0.0,0.0,0.0,0.0,0.116
47,0.0,0.0,0.0,0.0,0.0,0.0,0.081060546875,0.0,0.0,0.0,0.0,0.0,0.0,0.184,0.0,0.0,0.0,0.0,0.0,0.0,0.09037763168682718,0.0,0.0,0.0,0.0,0.0,0.0,0.12
48,0.0,0.0,0.0,0.0,0.0,0.0,0.0831142578125,0.0,0.0,0.0,0.0,0.0,0.0,0.206,0.0,0.0,0.0,0.0,0.0,0.0,0.09234286695251746,0.0,0.0,0.0,0.0,0.0,0.0,0.14
49,0.0,0.0,0.0,0.0,0.0,0.0,0.0849599609375,0.0,0.0,0.0,0.0,0.0,0.0,0.199,0.0,0.0,0.0,0.0,0.0,0.0,0.0943100137551852,0.0,0.0,0.0,0.0,0.0,0.0,0.156
50,0.0,0.0,0.0,0.0,0.0,0.0,0.086806640625,0.0,0.0,0.0,0.0,0.0,0.0,0.185,0.0,0.0,0.0,0.0,0.0,0.0,0.09681453399346596,0.0,0.0,0.0,0.0,0.0,0.0,0.156
51,0.0,0.0,0.0,0.0,0.0,0.0,0.0884462890625,0.0,0.0,0.0,0.0,0.0,0.0,0.178,0.0,0.0,0.0,0.0,0.0,0.0,0.09824714325468942,0.0,0.0,0.0,0.0,0.0,0.0,0.18
52,0.0,0.0,0.0,0.0,0.0,0.0,0.0902919921875,0.0,0.0,0.0,0.0,0.0,0.0,0.171,0.0,0.0,0.0,0.0,0.0,0.0,0.10010698907048232,0.0,0.0,0.0,0.0,0.0,0.0,0.212
53,0.0,0.0,0.0,0.0,0.0,0.0,0.0923447265625,0.0,0.0,0.0,0.0,0.0,0.0,0.18,0.0,0.0,0.0,0.0,0.0,0.0,0.10204576977223621,0.0,0.0,0.0,0.0,0.0,0.0,0.212
54,0.0,0.0,0.0,0.0,0.0,0.0,0.0943984375,0.0,0.0,0.0,0.0,0.0,0.0,0.214,0.0,0.0,0.0,0.0,0.0,0.0,0.10403332816933203,0.0,0.0,0.0,0.0,0.0,0.0,0.224
55,0.0,0.0,0.0,0.0,0.0,0.0,0.096244140625,0.0,0.0,0.0,0.0,0.0,0.0,0.191,0.0,0.0,0.0,0.0,0.0,0.0,0.10591169150931497,0.0,0.0,0.0,0.0,0.0,0.0,0.284
56,0.0,0.0,0.0,0.0,0.0,0.0,0.098296875,0.0,0.0,0.0,0.0,0.0,0.0,0.201,0.0,0.0,0.0,0.0,0.0,0.0,0.10783323608098105,0.0,0.0,0.0,0.0,0.0,0.0,0.272
57,0.0,0.0,0.0,0.0,0.0,0.0,0.1001435546875,0.0,0.0,0.0,0.0,0.0,0.0,0.196,0.0,0.0,0.0,0.0,0.0,0.0,0.10975320136464756,0.0,0.0,0.0,0.0,0.0,0.0,0.292
58,0.0,0.0,0.0,0.0,0.0,0.0,0.1020029296875,0.0,0.0,0.0,0.0,0.0,0.0,0.181,0.0,0.0,0.0,0.0,0.0,0.0,0.11167373274572519,0.0,0.0,0.0,0.0,0.0,0.0,0.316
59,0.0,0.0,0.0,0.0,0.0,0.0,0.1038486328125,0.0,0.0,0.0,0.0,0.0,0.0,0.195,0.0,0.0,0.0,0.0,0.0,0.0,0.11360084884410684,0.0,0.0,0.0,0.0,0.0,0.0,0.296
60,0.0,0.0,0.0,0.0,0.0,0.0,0.1059013671875,0.0,0.0,0.0,0.0,0.0,0.0,0.197,0.0,0.0,0.0,0.0,0.0,0.0,0.1155149663297793,0.0,0.0,0.0,0.0,0.0,0.0,0.272
61,0.0,0.0,0.0,0.0,0.0,0.0,0.1079541015625,0.0,0.0,0.0,0.0,0.0,0.0,0.198,0.0,0.0,0.0,0.0,0.0,0.0,0.11742255566064844,0.0,0.0,0.0,0.0,0.0,0.0,0.2
62,0.0,0.0,0.0,0.0,0.0,0.0,0.1104072265625,0.0,0.0,0.0,0.0,0.0,0.0,0.223,0.0,0.0,0.0,0.0,0.0,0.0,0.11932645333714492,0.0,0.0,0.0,0.0,0.0,0.0,0.156
63,0.0,0.0,0.0,0.0,0.0,0.0,0.1124599609375,0.0,0.0,0.0,0.0,0.0,0.0,0.228,0.0,0.0,0.0,0.0,0.0,0.0,0.12130004627528682,0.0,0.0,0.0,0.0,0.0,0.0,0.148
64,0.0,0.0,0.0,0.0,0.0,0.0,0.114306640625,0.0,0.0,0.0,0.0,0.0,0.0,0.2,0.0,0.0,0.0,0.0,0.0,0.0,0.1231531689025698,0.0,0.0,0.0,0.0,0.0,0.0,0.156
65,0.0,0.0,0.0,0.0,0.0,0.0,0.116166015625,0.0,0.0,0.0,0.0,0.0,0.0,0.191,0.0,0.0,0.0,0.0,0.0,0.0,0.12503526366191117,0.0,0.0,0.0,0.0,0.0,0.0,0.148
66,0.0,0.0,0.0,0.0,0.0,0.0,0.11821875,0.0,0.0,0.0,0.0,0.0,0.0,0.193,0.0,0.0,0.0,0.0,0.0,0.0,0.12693975394756354,0.0,0.0,0.0,0.0,0.0,0.0,0.168
67,0.0,0.0,0.0,0.0,0.0,0.0,0.1198583984375,0.0,0.0,0.0,0.0,0.0,0.0,0.176,0.0,0.0,0.0,0.0,0.0,0.0,0.12883685143207363,0.0,0.0,0.0,0.0,0.0,0.0,0.18
68,0.0,0.0,0.0,0.0,0.0,0.0,0.1212919921875,0.0,0.0,0.0,0.0,0.0,0.0,0.164,0.0,0.0,0.0,0.0,0.0,0.0,0.13071918420552198,0.0,0.0,0.0,0.0,0.0,0.0,0.14
69,0.0,0.0,0.0,0.0,0.0,0.0,0.122931640625,0.0,0.0,0.0,0.0,0.0,0.0,0.156,0.0,0.0,0.0,0.0,0.0,0.0,0.13260696421124563,0.0,0.0,0.0,0.0,0.0,0.0,0.136
70,0.0,0.0,0.0,0.0,0.0,0.0,0.12477734375,0.0,0.0,0.0,0.0,0.0,0.0,0.167,0.0,0.0,0.0,0.0,0.0,0.0,0.13451460380461022,0.0,0.0,0.0,0.0,0.0,0.0,0.156
71,0.0,0.0,0.0,0.0,0.0,0.0,0.1266240234375,0.0,0.0,0.0,0.0,0.0,0.0,0.181,0.0,0.0,0.0,0.0,0.0,0.0,0.13637706723399276,0.0,0.0,0.0,0.0,0.0,0.0,0.136
72,0.0,0.0,0.0,0.0,0.0,0.0,0.1282763671875,0.0,0.0,0.0,0.0,0.0,0.0,0.179,0.0,0.0,0.0,0.0,0.0,0.0,0.13825292587631335,0.0,0.0,0.0,0.0,0.0,0.0,0.16
73,0.0,0.0,0.0,0.0,0.0,0.0,0.130123046875,0.0,0.0,0.0,0.0,0.0,0.0,0.17,0.0,0.0,0.0,0.0,0.0,0.0,0.14018169977243164,0.0,0.0,0.0,0.0,0.0,0.0,0.18
74,0.0,0.0,0.0,0.0,0.0,0.0,0.1317626953125,0.0,0.0,0.0,0.0,0.0,0.0,0.175,0.0,0.0,0.0,0.0,0.0,0.0,0.1420020573561047,0.0,0.0,0.0,0.0,0.0,0.0,0.172
75,0.0,0.0,0.0,0.0,0.0,0.0,0.1331953125,0.0,0.0,0.0,0.0,0.0,0.0,0.151,0.0,0.0,0.0,0.0,0.0,0.0,0.14387129174359953,0.0,0.0,0.0,0.0,0.0,0.0,0.156
76,0.0,0.0,0.0,0.0,0.0,0.0,0.1350419921875,0.0,0.0,0.0,0.0,0.0,0.0,0.164,0.0,0.0,0.0,0.0,0.0,0.0,0.14575686255387996,0.0,0.0,0.0,0.0,0.0,0.0,0.2
77,0.0,0.0,0.0,0.0,0.0,0.0,0.13730078125,0.0,0.0,0.0,0.0,0.0,0.0,0.198,0.0,0.0,0.0,0.0,0.0,0.0,0.14760843705510882,0.0,0.0,0.0,0.0,0.0,0.0,0.172
78,0.0,0.0,0.0,0.0,0.0,0.0,0.1391474609375,0.0,0.0,0.0,0.0,0.0,0.0,0.208,0.0,0.0,0.0,0.0,0.0,0.0,0.14946949360455375,0.0,0.0,0.0,0.0,0.0,0.0,0.156
79,0.0,0.0,0.0,0.0,0.0,0.0,0.1409931640625,0.0,0.0,0.0,0.0,0.0,0.0,0.195,0.0,0.0,0.0,0.0,0.0,0.0,0.15131549719335846,0.0,0.0,0.0,0.0,0.0,0.0,0.18
80,0.0,0.0,0.0,0.0,0.0,0.0,0.1432529296875,0.0,0.0,0.0,0.0,0.0,0.0,0.206,0.0,0.0,0.0,0.0,0.0,0.0,0.15323205641946425,0.0,0.0,0.0,0.0,0.0,0.0,0.2
81,0.0,0.0,0.0,0.0,0.0,0.0,0.1453056640625,0.0,0.0,0.0,0.0,0.0,0.0,0.211,0.0,0.0,0.0,0.0,0.0,0.0,0.15503866138269382,0.0,0.0,0.0,0.0,0.0,0.0,0.22
82,0.0,0.0,0.0,0.0,0.0,0.0,0.1475654296875,0.0,0.0,0.0,0.0,0.0,0.0,0.211,0.0,0.0,0.0,0.0,0.0,0.0,0.1568516850475874,0.0,0.0,0.0,0.0,0.0,0.0,0.192
83,0.0,0.0,0.0,0.0,0.0,0.0,0.1496181640625,0.0,0.0,0.0,0.0,0.0,0.0,0.221,0.0,0.0,0.0,0.0,0.0,0.0,0.15867246454242157,0.0,0.0,0.0,0.0,0.0,0.0,0.156
84,0.0,0.0,0.0,0.0,0.0,0.0,0.1516708984375,0.0,0.0,0.0,0.0,0.0,0.0,0.213,0.0,0.0,0.0,0.0,0.0,0.0,0.1605159060696082,0.0,0.0,0.0,0.0,0.0,0.0,0.104
85,0.0,0.0,0.0,0.0,0.0,0.0,0.153517578125,0.0,0.0,0.0,0.0,0.0,0.0,0.192,0.0,0.0,0.0,0.0,0.0,0.0,0.16237010969800586,0.0,0.0,0.0,0.0,0.0,0.0,0.096
86,0.0,0.0,0.0,0.0,0.0,0.0,0.1555703125,0.0,0.0,0.0,0.0,0.0,0.0,0.192,0.0,0.0,0.0,0.0,0.0,0.0,0.16418018642498053,0.0,0.0,0.0,0.0,0.0,0.0,0.104
87,0.0,0.0,0.0,0.0,0.0,0.0,0.157416015625,0.0,0.0,0.0,0.0,0.0,0.0,0.204,0.0,0.0,0.0,0.0,0.0,0.0,0.16600388627474652,0.0,0.0,0.0,0.0,0.0,0.0,0.096
88,0.0,0.0,0.0,0.0,0.0,0.0,0.1590693359375,0.0,0.0,0.0,0.0,0.0,0.0,0.171,0.0,0.0,0.0,0.0,0.0,0.0,0.16782217170308847,0.0,0.0,0.0,0.0,0.0,0.0,0.076
89,0.0,0.0,0.0,0.0,0.0,0.0,0.160708984375,0.0,0.0,0.0,0.0,0.0,0.0,0.163,0.0,0.0,0.0,0.0,0.0,0.0,0.16962956474947297,0.0,0.0,0.0,0.0,0.0,0.0,0.12
90,0.0,0.0,0.0,0.0,0.0,0.0,0.1621416015625,0.0,0.0,0.0,0.0,0.0,0.0,0.163,0.0,0.0,0.0,0.0,0.0,0.0,0.17143795788308605,0.0,0.0,0.0,0.0,0.0,0.0,0.088
91,0.0,0.0,0.0,0.0,0.0,0.0,0.16378125,0.0,0.0,0.0,0.0,0.0,0.0,0.148,0.0,0.0,0.0,0.0,0.0,0.0,0.17324065023681154,0.0,0.0,0.0,0.0,0.0,0.0,0.088
92,0.0,0.0,0.0,0.0,0.0,0.0,0.1652275390625,0.0,0.0,0.0,0.0,0.0,0.0,0.147,0.0,0.0,0.0,0.0,0.0,0.0,0.1750445528703034,0.0,0.0,0.0,0.0,0.0,0.0,0.088
93,0.0,0.0,0.0,0.0,0.0,0.0,0.1664541015625,0.0,0.0,0.0,0.0,0.0,0.0,0.143,0.0,0.0,0.0,0.0,0.0,0.0,0.17683871658472303,0.0,0.0,0.0,0.0,0.0,0.0,0.096
94,0.0,0.0,0.0,0.0,0.0,0.0,0.16809375,0.0,0.0,0.0,0.0,0.0,0.0,0.141,0.0,0.0,0.0,0.0,0.0,0.0,0.1786288530248101,0.0,0.0,0.0,0.0,0.0,0.0,0.12
95,0.0,0.0,0.0,0.0,0.0,0.0,0.1697333984375,0.0,0.0,0.0,0.0,0.0,0.0,0.163,0.0,0.0,0.0,0.0,0.0,0.0,0.18042108553571257,0.0,0.0,0.0,0.0,0.0,0.0,0.148
96,0.0,0.0,0.0,0.0,0.0,0.0,0.1713857421875,0.0,0.0,0.0,0.0,0.0,0.0,0.177,0.0,0.0,0.0,0.0,0.0,0.0,0.18220258472539969,0.0,0.0,0.0,0.0,0.0,0.0,0.14
97,0.0,0.0,0.0,0.0,0.0,0.0,0.173025390625,0.0,0.0,0.0,0.0,0.0,0.0,0.167,0.0,0.0,0.0,0.0,0.0,0.0,0.1844352217421252,0.0,0.0,0.0,0.0,0.0,0.0,0.16
98,0.0,0.0,0.0,0.0,0.0,0.0,0.1748720703125,0.0,0.0,0.0,0.0,0.0,0.0,0.167,0.0,0.0,0.0,0.0,0.0,0.0,0.18578301559918706,0.0,0.0,0.0,0.0,0.0,0.0,0.192
99,0.0,0.0,0.0,0.0,0.0,0.0,0.1767177734375,0.0,0.0,0.0,0.0,0.0,0.0,0.178,0.0,0.0,0.0,0.0,0.0,0.0,0.18754854776292118,0.0,0.0,0.0,0.0,0.0,0.0,0.208
100,0.0,0.0,0.0,0.0,0.0,0.0,0.178357421875,0.0,0.0,0.0,0.0,0.0,0.0,0.168,0.0,0.0,0.0,0.0,0.0,0.0,0.18928294498825377,0.0,0.0,0.0,0.0,0.0,0.0,0.22
101,0.0,0.0,0.0,0.0,0.0,0.0,0.179998046875,0.0,0.0,0.0,0.0,0.0,0.0,0.176,0.0,0.0,0.0,0.0,0.0,0.0,0.1910449438064133,0.0,0.0,0.0,0.0,0.0,0.0,0.252
102,0.0,0.0,0.0,0.0,0.0,0.0,0.18184375,0.0,0.0,0.0,0.0,0.0,0.0,0.176,0.0,0.0,0.0,0.0,0.0,0.0,0.19283946059083817,0.0,0.0,0.0,0.0,0.0,0.0,0.244
103,0.0,0.0,0.0,0.0,0.0,0.0,0.183703125,0.0,0.0,0.0,0.0,0.0,0.0,0.177,0.0,0.0,0.0,0.0,0.0,0.0,0.19463068472831138,0.0,0.0,0.0,0.0,0.0,0.0,0.272
104,0.0,0.0,0.0,0.0,0.0,0.0,0.185548828125,0.0,0.0,0.0,0.0,0.0,0.0,0.184,0.0,0.0,0.0,0.0,0.0,0.0,0.1963737738631226,0.0,0.0,0.0,0.0,0.0,0.0,0.284
105,0.0,0.0,0.0,0.0,0.0,0.0,0.1873955078125,0.0,0.0,0.0,0.0,0.0,0.0,0.192,0.0,0.0,0.0,0.0,0.0,0.0,0.1980767102831906,0.0,0.0,0.0,0.0,0.0,0.0,0.296
106,0.0,0.0,0.0,0.0,0.0,0.0,0.1894482421875,0.0,0.0,0.0,0.0,0.0,0.0,0.193,0.0,0.0,0.0,0.0,0.0,0.0,0.19977523390612373,0.0,0.0,0.0,0.0,0.0,0.0,0.292
107,0.0,0.0,0.0,0.0,0.0,0.0,0.191294921875,0.0,0.0,0.0,0.0,0.0,0.0,0.192,0.0,0.0,0.0,0.0,0.0,0.0,0.20150126669572943,0.0,0.0,0.0,0.0,0.0,0.0,0.276
108,0.0,0.0,0.0,0.0,0.0,0.0,0.193140625,0.0,0.0,0.0,0.0,0.0,0.0,0.188,0.0,0.0,0.0,0.0,0.0,0.0,0.2032228201300269,0.0,0.0,0.0,0.0,0.0,0.0,0.244
109,0.0,0.0,0.0,0.0,0.0,0.0,0.195193359375,0.0,0.0,0.0,0.0,0.0,0.0,0.194,0.0,0.0,0.0,0.0,0.0,0.0,0.20495151719613852,0.0,0.0,0.0,0.0,0.0,0.0,0.172
110,0.0,0.0,0.0,0.0,0.0,0.0,0.19766015625,0.0,0.0,0.0,0.0,0.0,0.0,0.222,0.0,0.0,0.0,0.0,0.0,0.0,0.20665719800987636,0.0,0.0,0.0,0.0,0.0,0.0,0.16
111,0.0,0.0,0.0,0.0,0.0,0.0,0.199712890625,0.0,0.0,0.0,0.0,0.0,0.0,0.23,0.0,0.0,0.0,0.0,0.0,0.0,0.20835882648364576,0.0,0.0,0.0,0.0,0.0,0.0,0.148
112,0.0,0.0,0.0,0.0,0.0,0.0,0.20155859375,0.0,0.0,0.0,0.0,0.0,0.0,0.206,0.0,0.0,0.0,0.0,0.0,0.0,0.2100973347278645,0.0,0.0,0.0,0.0,0.0,0.0,0.156
113,0.0,0.0,0.0,0.0,0.0,0.0,0.2034052734375,0.0,0.0,0.0,0.0,0.0,0.0,0.191,0.0,0.0,0.0,0.0,0.0,0.0,0.211772009304622,0.0,0.0,0.0,0.0,0.0,0.0,0.156
114,0.0,0.0,0.0,0.0,0.0,0.0,0.2054580078125,0.0,0.0,0.0,0.0,0.0,0.0,0.188,0.0,0.0,0.0,0.0,0.0,0.0,0.21350360281899206,0.0,0.0,0.0,0.0,0.0,0.0,0.168
115,0.0,0.0,0.0,0.0,0.0,0.0,0.206890625,0.0,0.0,0.0,0.0,0.0,0.0,0.18,0.0,0.0,0.0,0.0,0.0,0.0,0.21516132772980315,0.0,0.0,0.0,0.0,0.0,0.0,0.16
116,0.0,0.0,0.0,0.0,0.0,0.0,0.2085439453125,0.0,0.0,0.0,0.0,0.0,0.0,0.16,0.0,0.0,0.0,0.0,0.0,0.0,0.2168463255548002,0.0,0.0,0.0,0.0,0.0,0.0,0.14
117,0.0,0.0,0.0,0.0,0.0,0.0,0.2099765625,0.0,0.0,0.0,0.0,0.0,0.0,0.157,0.0,0.0,0.0,0.0,0.0,0.0,0.2185181831103965,0.0,0.0,0.0,0.0,0.0,0.0,0.136
118,0.0,0.0,0.0,0.0,0.0,0.0,0.21141015625,0.0,0.0,0.0,0.0,0.0,0.0,0.141,0.0,0.0,0.0,0.0,0.0,0.0,0.22019433036110714,0.0,0.0,0.0,0.0,0.0,0.0,0.14
119,0.0,0.0,0.0,0.0,0.0,0.0,0.2130498046875,0.0,0.0,0.0,0.0,0.0,0.0,0.143,0.0,0.0,0.0,0.0,0.0,0.0,0.2218574097540036,0.0,0.0,0.0,0.0,0.0,0.0,0.18
120,0.0,0.0,0.0,0.0,0.0,0.0,0.2144951171875,0.0,0.0,0.0,0.0,0.0,0.0,0.156,0.0,0.0,0.0,0.0,0.0,0.0,0.22351583833905375,0.0,0.0,0.0,0.0,0.0,0.0,0.172
121,0.0,0.0,0.0,0.0,0.0,0.0,0.2159287109375,0.0,0.0,0.0,0.0,0.0,0.0,0.149,0.0,0.0,0.0,0.0,0.0,0.0,0.22516999958015982,0.0,0.0,0.0,0.0,0.0,0.0,0.16
122,0.0,0.0,0.0,0.0,0.0,0.0,0.2173623046875,0.0,0.0,0.0,0.0,0.0,0.0,0.146,0.0,0.0,0.0,0.0,0.0,0.0,0.227044525168164,0.0,0.0,0.0,0.0,0.0,0.0,0.188
123,0.0,0.0,0.0,0.0,0.0,0.0,0.2188076171875,0.0,0.0,0.0,0.0,0.0,0.0,0.141,0.0,0.0,0.0,0.0,0.0,0.0,0.22849837457371366,0.0,0.0,0.0,0.0,0.0,0.0,0.168
124,0.0,0.0,0.0,0.0,0.0,0.0,0.220447265625,0.0,0.0,0.0,0.0,0.0,0.0,0.155,0.0,0.0,0.0,0.0,0.0,0.0,0.2301247823338387,0.0,0.0,0.0,0.0,0.0,0.0,0.16
125,0.0,0.0,0.0,0.0,0.0,0.0,0.2220869140625,0.0,0.0,0.0,0.0,0.0,0.0,0.164,0.0,0.0,0.0,0.0,0.0,0.0,0.2319753550158816,0.0,0.0,0.0,0.0,0.0,0.0,0.168
126,0.0,0.0,0.0,0.0,0.0,0.0,0.2235205078125,0.0,0.0,0.0,0.0,0.0,0.0,0.147,0.0,0.0,0.0,0.0,0.0,0.0,0.23339374555473383,0.0,0.0,0.0,0.0,0.0,0.0,0.16
127,0.0,0.0,0.0,0.0,0.0,0.0,0.2251728515625,0.0,0.0,0.0,0.0,0.0,0.0,0.159,0.0,0.0,0.0,0.0,0.0,0.0,0.23499450202201222,0.0,0.0,0.0,0.0,0.0,0.0,0.18
128,0.0,0.0,0.0,0.0,0.0,0.0,0.22701953125,0.0,0.0,0.0,0.0,0.0,0.0,0.177,0.0,0.0,0.0,0.0,0.0,0.0,0.23681624296813492,0.0,0.0,0.0,0.0,0.0,0.0,0.156
129,0.0,0.0,0.0,0.0,0.0,0.0,0.2286591796875,0.0,0.0,0.0,0.0,0.0,0.0,0.177,0.0,0.0,0.0,0.0,0.0,0.0,0.23824855144321183,0.0,0.0,0.0,0.0,0.0,0.0,0.212
130,0.0,0.0,0.0,0.0,0.0,0.0,0.2307119140625,0.0,0.0,0.0,0.0,0.0,0.0,0.182,0.0,0.0,0.0,0.0,0.0,0.0,0.23996045695264684,0.0,0.0,0.0,0.0,0.0,0.0,0.212
131,0.0,0.0,0.0,0.0,0.0,0.0,0.2323515625,0.0,0.0,0.0,0.0,0.0,0.0,0.187,0.0,0.0,0.0,0.0,0.0,0.0,0.24144439745613303,0.0,0.0,0.0,0.0,0.0,0.0,0.212
132,0.0,0.0,0.0,0.0,0.0,0.0,0.234197265625,0.0,0.0,0.0,0.0,0.0,0.0,0.174,0.0,0.0,0.0,0.0,0.0,0.0,0.24301415175146795,0.0,0.0,0.0,0.0,0.0,0.0,0.208
133,0.0,0.0,0.0,0.0,0.0,0.0,0.2360439453125,0.0,0.0,0.0,0.0,0.0,0.0,0.18,0.0,0.0,0.0,0.0,0.0,0.0,0.24459923843407616,0.0,0.0,0.0,0.0,0.0,0.0,0.188
134,0.0,0.0,0.0,0.0,0.0,0.0,0.2379033203125,0.0,0.0,0.0,0.0,0.0,0.0,0.185,0.0,0.0,0.0,0.0,0.0,0.0,0.24620985757673122,0.0,0.0,0.0,0.0,0.0,0.0,0.12
135,0.0,0.0,0.0,0.0,0.0,0.0,0.23954296875,0.0,0.0,0.0,0.0,0.0,0.0,0.181,0.0,0.0,0.0,0.0,0.0,0.0,0.24774048083554825,0.0,0.0,0.0,0.0,0.0,0.0,0.108
136,0.0,0.0,0.0,0.0,0.0,0.0,0.2409755859375,0.0,0.0,0.0,0.0,0.0,0.0,0.157,0.0,0.0,0.0,0.0,0.0,0.0,0.24931696360677652,0.0,0.0,0.0,0.0,0.0,0.0,0.116
137,0.0,0.0,0.0,0.0,0.0,0.0,0.242615234375,0.0,0.0,0.0,0.0,0.0,0.0,0.147,0.0,0.0,0.0,0.0,0.0,0.0,0.2508776683073072,0.0,0.0,0.0,0.0,0.0,0.0,0.076
138,0.0,0.0,0.0,0.0,0.0,0.0,0.2444619140625,0.0,0.0,0.0,0.0,0.0,0.0,0.175,0.0,0.0,0.0,0.0,0.0,0.0,0.25284936957385096,0.0,0.0,0.0,0.0,0.0,0.0,0.056
139,0.0,0.0,0.0,0.0,0.0,0.0,0.2461142578125,0.0,0.0,0.0,0.0,0.0,0.0,0.187,0.0,0.0,0.0,0.0,0.0,0.0,0.2541700795771598,0.0,0.0,0.0,0.0,0.0,0.0,0.076
140,0.0,0.0,0.0,0.0,0.0,0.0,0.24898046875,0.0,0.0,0.0,0.0,0.0,0.0,0.145,0.0,0.0,0.0,0.0,0.0,0.0,0.2565137703641872,0.0,0.0,0.0,0.0,0.0,0.0,0.096
141,0.0,0.0,0.0,0.0,0.0,0.0,0.24898046875,0.0,0.0,0.0,0.0,0.0,0.0,0.145,0.0,0.0,0.0,0.0,0.0,0.0,0.25731898867177533,0.0,0.0,0.0,0.0,0.0,0.0,0.096
142,0.0,0.0,0.0,0.0,0.0,0.0,0.2504267578125,0.0,0.0,0.0,0.0,0.0,0.0,0.14,0.0,0.0,0.0,0.0,0.0,0.0,0.25857580596820556,0.0,0.0,0.0,0.0,0.0,0.0,0.096
143,0.0,0.0,0.0,0.0,0.0,0.0,0.2516533203125,0.0,0.0,0.0,0.0,0.0,0.0,0.13,0.0,0.0,0.0,0.0,0.0,0.0,0.2606464323206429,0.0,0.0,0.0,0.0,0.0,0.0,0.12
144,0.0,0.0,0.0,0.0,0.0,0.0,0.2530859375,0.0,0.0,0.0,0.0,0.0,0.0,0.124,0.0,0.0,0.0,0.0,0.0,0.0,0.2616181833510498,0.0,0.0,0.0,0.0,0.0,0.0,0.108
145,0.0,0.0,0.0,0.0,0.0,0.0,0.2545322265625,0.0,0.0,0.0,0.0,0.0,0.0,0.142,0.0,0.0,0.0,0.0,0.0,0.0,0.26312989889903265,0.0,0.0,0.0,0.0,0.0,0.0,0.116
146,0.0,0.0,0.0,0.0,0.0,0.0,0.2557587890625,0.0,0.0,0.0,0.0,0.0,0.0,0.135,0.0,0.0,0.0,0.0,0.0,0.0,0.2651626951940683,0.0,0.0,0.0,0.0,0.0,0.0,0.16
147,0.0,0.0,0.0,0.0,0.0,0.0,0.2588447265625,0.0,0.0,0.0,0.0,0.0,0.0,0.157,0.0,0.0,0.0,0.0,0.0,0.0,0.2675168911497267,0.0,0.0,0.0,0.0,0.0,0.0,0.172
148,0.0,0.0,0.0,0.0,0.0,0.0,0.2612978515625,0.0,0.0,0.0,0.0,0.0,0.0,0.119,0.0,0.0,0.0,0.0,0.0,0.0,0.2705853716764372,0.0,0.0,0.0,0.0,0.0,0.0,0.212
149,0.0,0.0,0.0,0.0,0.0,0.0,0.2631572265625,0.0,0.0,0.0,0.0,0.0,0.0,0.163,0.0,0.0,0.0,0.0,0.0,0.0,0.2726904963732995,0.0,0.0,0.0,0.0,0.0,0.0,0.188
150,0.0,0.0,0.0,0.0,0.0,0.0,0.2662421875,0.0,0.0,0.0,0.0,0.0,0.0,0.157,0.0,0.0,0.0,0.0,0.0,0.0,0.2751930262410055,0.0,0.0,0.0,0.0,0.0,0.0,0.24
151,0.0,0.0,0.0,0.0,0.0,0.0,0.2680888671875,0.0,0.0,0.0,0.0,0.0,0.0,0.168,0.0,0.0,0.0,0.0,0.0,0.0,0.27611186800117815,0.0,0.0,0.0,0.0,0.0,0.0,0.26
152,0.0,0.0,0.0,0.0,0.0,0.0,0.2680888671875,0.0,0.0,0.0,0.0,0.0,0.0,0.168,0.0,0.0,0.0,0.0,0.0,0.0,0.27703515833728626,0.0,0.0,0.0,0.0,0.0,0.0,0.26
153,0.0,0.0,0.0,0.0,0.0,0.0,0.26953515625,0.0,0.0,0.0,0.0,0.0,0.0,0.166,0.0,0.0,0.0,0.0,0.0,0.0,0.2781581722419068,0.0,0.0,0.0,0.0,0.0,0.0,0.244
154,0.0,0.0,0.0,0.0,0.0,0.0,0.2711748046875,0.0,0.0,0.0,0.0,0.0,0.0,0.155,0.0,0.0,0.0,0.0,0.0,0.0,0.2793267927141441,0.0,0.0,0.0,0.0,0.0,0.0,0.272
155,0.0,0.0,0.0,0.0,0.0,0.0,0.272814453125,0.0,0.0,0.0,0.0,0.0,0.0,0.166,0.0,0.0,0.0,0.0,0.0,0.0,0.2807372090122463,0.0,0.0,0.0,0.0,0.0,0.0,0.312
156,0.0,0.0,0.0,0.0,0.0,0.0,0.274041015625,0.0,0.0,0.0,0.0,0.0,0.0,0.139,0.0,0.0,0.0,0.0,0.0,0.0,0.28217140186797274,0.0,0.0,0.0,0.0,0.0,0.0,0.332
157,0.0,0.0,0.0,0.0,0.0,0.0,0.2752802734375,0.0,0.0,0.0,0.0,0.0,0.0,0.129,0.0,0.0,0.0,0.0,0.0,0.0,0.2835821676452834,0.0,0.0,0.0,0.0,0.0,0.0,0.336
158,0.0,0.0,0.0,0.0,0.0,0.0,0.2767138671875,0.0,0.0,0.0,0.0,0.0,0.0,0.137,0.0,0.0,0.0,0.0,0.0,0.0,0.28497945224716215,0.0,0.0,0.0,0.0,0.0,0.0,0.296
159,0.0,0.0,0.0,0.0,0.0,0.0,0.277953125,0.0,0.0,0.0,0.0,0.0,0.0,0.134,0.0,0.0,0.0,0.0,0.0,0.0,0.2863800304692165,0.0,0.0,0.0,0.0,0.0,0.0,0.272
160,0.0,0.0,0.0,0.0,0.0,0.0,0.2791796875,0.0,0.0,0.0,0.0,0.0,0.0,0.129,0.0,0.0,0.0,0.0,0.0,0.0,0.2877810924880054,0.0,0.0,0.0,0.0,0.0,0.0,0.24
161,0.0,0.0,0.0,0.0,0.0,0.0,0.2806123046875,0.0,0.0,0.0,0.0,0.0,0.0,0.134,0.0,0.0,0.0,0.0,0.0,0.0,0.2891580047469269,0.0,0.0,0.0,0.0,0.0,0.0,0.22
162,0.0,0.0,0.0,0.0,0.0,0.0,0.28205859375,0.0,0.0,0.0,0.0,0.0,0.0,0.134,0.0,0.0,0.0,0.0,0.0,0.0,0.29054124791389196,0.0,0.0,0.0,0.0,0.0,0.0,0.18
163,0.0,0.0,0.0,0.0,0.0,0.0,0.2834912109375,0.0,0.0,0.0,0.0,0.0,0.0,0.136,0.0,0.0,0.0,0.0,0.0,0.0,0.29191143754911003,0.0,0.0,0.0,0.0,0.0,0.0,0.172
164,0.0,0.0,0.0,0.0,0.0,0.0,0.2849248046875,0.0,0.0,0.0,0.0,0.0,0.0,0.151,0.0,0.0,0.0,0.0,0.0,0.0,0.29327404628785064,0.0,0.0,0.0,0.0,0.0,0.0,0.14
165,0.0,0.0,0.0,0.0,0.0,0.0,0.28637109375,0.0,0.0,0.0,0.0,0.0,0.0,0.15,0.0,0.0,0.0,0.0,0.0,0.0,0.2946293673377968,0.0,0.0,0.0,0.0,0.0,0.0,0.148
166,0.0,0.0,0.0,0.0,0.0,0.0,0.2880107421875,0.0,0.0,0.0,0.0,0.0,0.0,0.151,0.0,0.0,0.0,0.0,0.0,0.0,0.2959961297117859,0.0,0.0,0.0,0.0,0.0,0.0,0.128
167,0.0,0.0,0.0,0.0,0.0,0.0,0.289443359375,0.0,0.0,0.0,0.0,0.0,0.0,0.153,0.0,0.0,0.0,0.0,0.0,0.0,0.2973162546971521,0.0,0.0,0.0,0.0,0.0,0.0,0.16
168,0.0,0.0,0.0,0.0,0.0,0.0,0.2908896484375,0.0,0.0,0.0,0.0,0.0,0.0,0.139,0.0,0.0,0.0,0.0,0.0,0.0,0.29865592467070184,0.0,0.0,0.0,0.0,0.0,0.0,0.156
169,0.0,0.0,0.0,0.0,0.0,0.0,0.2921162109375,0.0,0.0,0.0,0.0,0.0,0.0,0.136,0.0,0.0,0.0,0.0,0.0,0.0,0.2999841242026846,0.0,0.0,0.0,0.0,0.0,0.0,0.148
170,0.0,0.0,0.0,0.0,0.0,0.0,0.2933427734375,0.0,0.0,0.0,0.0,0.0,0.0,0.126,0.0,0.0,0.0,0.0,0.0,0.0,0.301309637128029,0.0,0.0,0.0,0.0,0.0,0.0,0.168
171,0.0,0.0,0.0,0.0,0.0,0.0,0.2947890625,0.0,0.0,0.0,0.0,0.0,0.0,0.129,0.0,0.0,0.0,0.0,0.0,0.0,0.3026398611524015,0.0,0.0,0.0,0.0,0.0,0.0,0.172
172,0.0,0.0,0.0,0.0,0.0,0.0,0.296015625,0.0,0.0,0.0,0.0,0.0,0.0,0.131,0.0,0.0,0.0,0.0,0.0,0.0,0.3039132615829332,0.0,0.0,0.0,0.0,0.0,0.0,0.16
173,0.0,0.0,0.0,0.0,0.0,0.0,0.2970478515625,0.0,0.0,0.0,0.0,0.0,0.0,0.122,0.0,0.0,0.0,0.0,0.0,0.0,0.3052227228882742,0.0,0.0,0.0,0.0,0.0,0.0,0.136
174,0.0,0.0,0.0,0.0,0.0,0.0,0.2982744140625,0.0,0.0,0.0,0.0,0.0,0.0,0.116,0.0,0.0,0.0,0.0,0.0,0.0,0.3065241553576138,0.0,0.0,0.0,0.0,0.0,0.0,0.168
175,0.0,0.0,0.0,0.0,0.0,0.0,0.299720703125,0.0,0.0,0.0,0.0,0.0,0.0,0.126,0.0,0.0,0.0,0.0,0.0,0.0,0.3077861029515181,0.0,0.0,0.0,0.0,0.0,0.0,0.156
176,0.0,0.0,0.0,0.0,0.0,0.0,0.300740234375,0.0,0.0,0.0,0.0,0.0,0.0,0.123,0.0,0.0,0.0,0.0,0.0,0.0,0.3090586274883129,0.0,0.0,0.0,0.0,0.0,0.0,0.18
177,0.0,0.0,0.0,0.0,0.0,0.0,0.302380859375,0.0,0.0,0.0,0.0,0.0,0.0,0.134,0.0,0.0,0.0,0.0,0.0,0.0,0.3103265667587163,0.0,0.0,0.0,0.0,0.0,0.0,0.168
178,0.0,0.0,0.0,0.0,0.0,0.0,0.303826171875,0.0,0.0,0.0,0.0,0.0,0.0,0.149,0.0,0.0,0.0,0.0,0.0,0.0,0.3115883661453488,0.0,0.0,0.0,0.0,0.0,0.0,0.188
179,0.0,0.0,0.0,0.0,0.0,0.0,0.305259765625,0.0,0.0,0.0,0.0,0.0,0.0,0.138,0.0,0.0,0.0,0.0,0.0,0.0,0.31283323632078086,0.0,0.0,0.0,0.0,0.0,0.0,0.172
180,0.0,0.0,0.0,0.0,0.0,0.0,0.306486328125,0.0,0.0,0.0,0.0,0.0,0.0,0.137,0.0,0.0,0.0,0.0,0.0,0.0,0.3140673702039193,0.0,0.0,0.0,0.0,0.0,0.0,0.188
181,0.0,0.0,0.0,0.0,0.0,0.0,0.3077255859375,0.0,0.0,0.0,0.0,0.0,0.0,0.122,0.0,0.0,0.0,0.0,0.0,0.0,0.31531579289603806,0.0,0.0,0.0,0.0,0.0,0.0,0.192
182,0.0,0.0,0.0,0.0,0.0,0.0,0.3089521484375,0.0,0.0,0.0,0.0,0.0,0.0,0.131,0.0,0.0,0.0,0.0,0.0,0.0,0.3165508789211064,0.0,0.0,0.0,0.0,0.0,0.0,0.172
183,0.0,0.0,0.0,0.0,0.0,0.0,0.31019140625,0.0,0.0,0.0,0.0,0.0,0.0,0.127,0.0,0.0,0.0,0.0,0.0,0.0,0.3177508621523625,0.0,0.0,0.0,0.0,0.0,0.0,0.168
184,0.0,0.0,0.0,0.0,0.0,0.0,0.31141796875,0.0,0.0,0.0,0.0,0.0,0.0,0.119,0.0,0.0,0.0,0.0,0.0,0.0,0.31899660512656997,0.0,0.0,0.0,0.0,0.0,0.0,0.172
185,0.0,0.0,0.0,0.0,0.0,0.0,0.3126572265625,0.0,0.0,0.0,0.0,0.0,0.0,0.119,0.0,0.0,0.0,0.0,0.0,0.0,0.3201701479516823,0.0,0.0,0.0,0.0,0.0,0.0,0.208
186,0.0,0.0,0.0,0.0,0.0,0.0,0.313677734375,0.0,0.0,0.0,0.0,0.0,0.0,0.112,0.0,0.0,0.0,0.0,0.0,0.0,0.32136142711927196,0.0,0.0,0.0,0.0,0.0,0.0,0.192
187,0.0,0.0,0.0,0.0,0.0,0.0,0.3147099609375,0.0,0.0,0.0,0.0,0.0,0.0,0.103,0.0,0.0,0.0,0.0,0.0,0.0,0.3228134952148001,0.0,0.0,0.0,0.0,0.0,0.0,0.224
188,0.0,0.0,0.0,0.0,0.0,0.0,0.31573046875,0.0,0.0,0.0,0.0,0.0,0.0,0.105,0.0,0.0,0.0,0.0,0.0,0.0,0.32379412286920134,0.0,0.0,0.0,0.0,0.0,0.0,0.22
189,0.0,0.0,0.0,0.0,0.0,0.0,0.3169697265625,0.0,0.0,0.0,0.0,0.0,0.0,0.115,0.0,0.0,0.0,0.0,0.0,0.0,0.3251867146288235,0.0,0.0,0.0,0.0,0.0,0.0,0.24
190,0.0,0.0,0.0,0.0,0.0,0.0,0.3179892578125,0.0,0.0,0.0,0.0,0.0,0.0,0.116,0.0,0.0,0.0,0.0,0.0,0.0,0.32610770447221243,0.0,0.0,0.0,0.0,0.0,0.0,0.24
191,0.0,0.0,0.0,0.0,0.0,0.0,0.3192294921875,0.0,0.0,0.0,0.0,0.0,0.0,0.114,0.0,0.0,0.0,0.0,0.0,0.0,0.32727121787037955,0.0,0.0,0.0,0.0,0.0,0.0,0.24
192,0.0,0.0,0.0,0.0,0.0,0.0,0.3202490234375,0.0,0.0,0.0,0.0,0.0,0.0,0.112,0.0,0.0,0.0,0.0,0.0,0.0,0.32836338923383956,0.0,0.0,0.0,0.0,0.0,0.0,0.212
193,0.0,0.0,0.0,0.0,0.0,0.0,0.3214755859375,0.0,0.0,0.0,0.0,0.0,0.0,0.113,0.0,0.0,0.0,0.0,0.0,0.0,0.32978267853660354,0.0,0.0,0.0,0.0,0.0,0.0,0.208
194,0.0,0.0,0.0,0.0,0.0,0.0,0.32394140625,0.0,0.0,0.0,0.0,0.0,0.0,0.127,0.0,0.0,0.0,0.0,0.0,0.0,0.3313600773620944,0.0,0.0,0.0,0.0,0.0,0.0,0.136
195,0.0,0.0,0.0,0.0,0.0,0.0,0.32394140625,0.0,0.0,0.0,0.0,0.0,0.0,0.127,0.0,0.0,0.0,0.0,0.0,0.0,0.33190231870589804,0.0,0.0,0.0,0.0,0.0,0.0,0.136
196,0.0,0.0,0.0,0.0,0.0,0.0,0.326201171875,0.0,0.0,0.0,0.0,0.0,0.0,0.108,0.0,0.0,0.0,0.0,0.0,0.0,0.33357696476790033,0.0,0.0,0.0,0.0,0.0,0.0,0.128
197,0.0,0.0,0.0,0.0,0.0,0.0,0.3276474609375,0.0,0.0,0.0,0.0,0.0,0.0,0.128,0.0,0.0,0.0,0.0,0.0,0.0,0.3346296079782596,0.0,0.0,0.0,0.0,0.0,0.0,0.096
198,0.0,0.0,0.0,0.0,0.0,0.0,0.3276474609375,0.0,0.0,0.0,0.0,0.0,0.0,0.128,0.0,0.0,0.0,0.0,0.0,0.0,0.33517705266651143,0.0,0.0,0.0,0.0,0.0,0.0,0.096
199,0.0,0.0,0.0,0.0,0.0,0.0,0.3288740234375,0.0,0.0,0.0,0.0,0.0,0.0,0.133,0.0,0.0,0.0,0.0,0.0,0.0,0.336160911868756,0.0,0.0,0.0,0.0,0.0,0.0,0.088
200,0.0,0.0,0.0,0.0,0.0,0.0,0.33011328125,0.0,0.0,0.0,0.0,0.0,0.0,0.132,0.0,0.0,0.0,0.0,0.0,0.0,0.33726826996244685,0.0,0.0,0.0,0.0,0.0,0.0,0.104
201,0.0,0.0,0.0,0.0,0.0,0.0,0.3315458984375,0.0,0.0,0.0,0.0,0.0,0.0,0.133,0.0,0.0,0.0,0.0,0.0,0.0,0.33829782328348673,0.0,0.0,0.0,0.0,0.0,0.0,0.12
202,0.0,0.0,0.0,0.0,0.0,0.0,0.33401171875,0.0,0.0,0.0,0.0,0.0,0.0,0.123,0.0,0.0,0.0,0.0,0.0,0.0,0.34044316332636587,0.0,0.0,0.0,0.0,0.0,0.0,0.096
203,0.0,0.0,0.0,0.0,0.0,0.0,0.3350322265625,0.0,0.0,0.0,0.0,0.0,0.0,0.112,0.0,0.0,0.0,0.0,0.0,0.0,0.3409785947752132,0.0,0.0,0.0,0.0,0.0,0.0,0.136
204,0.0,0.0,0.0,0.0,0.0,0.0,0.3350322265625,0.0,0.0,0.0,0.0,0.0,0.0,0.112,0.0,0.0,0.0,0.0,0.0,0.0,0.34148751833258106,0.0,0.0,0.0,0.0,0.0,0.0,0.136
205,0.0,0.0,0.0,0.0,0.0,0.0,0.3358583984375,0.0,0.0,0.0,0.0,0.0,0.0,0.089,0.0,0.0,0.0,0.0,0.0,0.0,0.3425131625801155,0.0,0.0,0.0,0.0,0.0,0.0,0.14
206,0.0,0.0,0.0,0.0,0.0,0.0,0.33687890625,0.0,0.0,0.0,0.0,0.0,0.0,0.094,0.0,0.0,0.0,0.0,0.0,0.0,0.3435804991528568,0.0,0.0,0.0,0.0,0.0,0.0,0.136
207,0.0,0.0,0.0,0.0,0.0,0.0,0.3381181640625,0.0,0.0,0.0,0.0,0.0,0.0,0.116,0.0,0.0,0.0,0.0,0.0,0.0,0.3445522682582616,0.0,0.0,0.0,0.0,0.0,0.0,0.136
208,0.0,0.0,0.0,0.0,0.0,0.0,0.3391376953125,0.0,0.0,0.0,0.0,0.0,0.0,0.112,0.0,0.0,0.0,0.0,0.0,0.0,0.3455642843952156,0.0,0.0,0.0,0.0,0.0,0.0,0.156
209,0.0,0.0,0.0,0.0,0.0,0.0,0.3399638671875,0.0,0.0,0.0,0.0,0.0,0.0,0.097,0.0,0.0,0.0,0.0,0.0,0.0,0.346572249560138,0.0,0.0,0.0,0.0,0.0,0.0,0.12
210,0.0,0.0,0.0,0.0,0.0,0.0,0.3407900390625,0.0,0.0,0.0,0.0,0.0,0.0,0.087,0.0,0.0,0.0,0.0,0.0,0.0,0.34756055953987114,0.0,0.0,0.0,0.0,0.0,0.0,0.14
211,0.0,0.0,0.0,0.0,0.0,0.0,0.341810546875,0.0,0.0,0.0,0.0,0.0,0.0,0.091,0.0,0.0,0.0,0.0,0.0,0.0,0.3485492217474575,0.0,0.0,0.0,0.0,0.0,0.0,0.148
212,0.0,0.0,0.0,0.0,0.0,0.0,0.34263671875,0.0,0.0,0.0,0.0,0.0,0.0,0.092,0.0,0.0,0.0,0.0,0.0,0.0,0.3495334054753451,0.0,0.0,0.0,0.0,0.0,0.0,0.156
213,0.0,0.0,0.0,0.0,0.0,0.0,0.34365625,0.0,0.0,0.0,0.0,0.0,0.0,0.088,0.0,0.0,0.0,0.0,0.0,0.0,0.35049569162814426,0.0,0.0,0.0,0.0,0.0,0.0,0.18
214,0.0,0.0,0.0,0.0,0.0,0.0,0.3444833984375,0.0,0.0,0.0,0.0,0.0,0.0,0.09,0.0,0.0,0.0,0.0,0.0,0.0,0.3514549671341425,0.0,0.0,0.0,0.0,0.0,0.0,0.2
215,0.0,0.0,0.0,0.0,0.0,0.0,0.345515625,0.0,0.0,0.0,0.0,0.0,0.0,0.099,0.0,0.0,0.0,0.0,0.0,0.0,0.3524063152049258,0.0,0.0,0.0,0.0,0.0,0.0,0.208
216,0.0,0.0,0.0,0.0,0.0,0.0,0.3467421875,0.0,0.0,0.0,0.0,0.0,0.0,0.109,0.0,0.0,0.0,0.0,0.0,0.0,0.3533468498686163,0.0,0.0,0.0,0.0,0.0,0.0,0.192
217,0.0,0.0,0.0,0.0,0.0,0.0,0.3477626953125,0.0,0.0,0.0,0.0,0.0,0.0,0.105,0.0,0.0,0.0,0.0,0.0,0.0,0.3542763602358731,0.0,0.0,0.0,0.0,0.0,0.0,0.212
218,0.0,0.0,0.0,0.0,0.0,0.0,0.348794921875,0.0,0.0,0.0,0.0,0.0,0.0,0.102,0.0,0.0,0.0,0.0,0.0,0.0,0.3552046219053215,0.0,0.0,0.0,0.0,0.0,0.0,0.2
219,0.0,0.0,0.0,0.0,0.0,0.0,0.349828125,0.0,0.0,0.0,0.0,0.0,0.0,0.106,0.0,0.0,0.0,0.0,0.0,0.0,0.35611417362345427,0.0,0.0,0.0,0.0,0.0,0.0,0.232
220,0.0,0.0,0.0,0.0,0.0,0.0,0.35084765625,0.0,0.0,0.0,0.0,0.0,0.0,0.111,0.0,0.0,0.0,0.0,0.0,0.0,0.3570256624663546,0.0,0.0,0.0,0.0,0.0,0.0,0.224
221,0.0,0.0,0.0,0.0,0.0,0.0,0.351880859375,0.0,0.0,0.0,0.0,0.0,0.0,0.101,0.0,0.0,0.0,0.0,0.0,0.0,0.3579395542265425,0.0,0.0,0.0,0.0,0.0,0.0,0.252
222,0.0,0.0,0.0,0.0,0.0,0.0,0.3526943359375,0.0,0.0,0.0,0.0,0.0,0.0,0.092,0.0,0.0,0.0,0.0,0.0,0.0,0.35880482243141415,0.0,0.0,0.0,0.0,0.0,0.0,0.244
223,0.0,0.0,0.0,0.0,0.0,0.0,0.3537275390625,0.0,0.0,0.0,0.0,0.0,0.0,0.09,0.0,0.0,0.0,0.0,0.0,0.0,0.35969519275361633,0.0,0.0,0.0,0.0,0.0,0.0,0.244
224,0.0,0.0,0.0,0.0,0.0,0.0,0.354541015625,0.0,0.0,0.0,0.0,0.0,0.0,0.088,0.0,0.0,0.0,0.0,0.0,0.0,0.3606404987992016,0.0,0.0,0.0,0.0,0.0,0.0,0.272
225,0.0,0.0,0.0,0.0,0.0,0.0,0.3553671875,0.0,0.0,0.0,0.0,0.0,0.0,0.081,0.0,0.0,0.0,0.0,0.0,0.0,0.36142094853133017,0.0,0.0,0.0,0.0,0.0,0.0,0.26
226,0.0,0.0,0.0,0.0,0.0,0.0,0.356193359375,0.0,0.0,0.0,0.0,0.0,0.0,0.08,0.0,0.0,0.0,0.0,0.0,0.0,0.36227295720484276,0.0,0.0,0.0,0.0,0.0,0.0,0.276
227,0.0,0.0,0.0,0.0,0.0,0.0,0.3567998046875,0.0,0.0,0.0,0.0,0.0,0.0,0.078,0.0,0.0,0.0,0.0,0.0,0.0,0.36313873452766965,0.0,0.0,0.0,0.0,0.0,0.0,0.304
228,0.0,0.0,0.0,0.0,0.0,0.0,0.3576259765625,0.0,0.0,0.0,0.0,0.0,0.0,0.077,0.0,0.0,0.0,0.0,0.0,0.0,0.3639556263699936,0.0,0.0,0.0,0.0,0.0,0.0,0.312
229,0.0,0.0,0.0,0.0,0.0,0.0,0.3584521484375,0.0,0.0,0.0,0.0,0.0,0.0,0.077,0.0,0.0,0.0,0.0,0.0,0.0,0.3647805999047196,0.0,0.0,0.0,0.0,0.0,0.0,0.336
230,0.0,0.0,0.0,0.0,0.0,0.0,0.3590595703125,0.0,0.0,0.0,0.0,0.0,0.0,0.073,0.0,0.0,0.0,0.0,0.0,0.0,0.365600849489043,0.0,0.0,0.0,0.0,0.0,0.0,0.312
231,0.0,0.0,0.0,0.0,0.0,0.0,0.3596787109375,0.0,0.0,0.0,0.0,0.0,0.0,0.072,0.0,0.0,0.0,0.0,0.0,0.0,0.3664075411225953,0.0,0.0,0.0,0.0,0.0,0.0,0.336
232,0.0,0.0,0.0,0.0,0.0,0.0,0.360505859375,0.0,0.0,0.0,0.0,0.0,0.0,0.063,0.0,0.0,0.0,0.0,0.0,0.0,0.3671939566890819,0.0,0.0,0.0,0.0,0.0,0.0,0.344
233,0.0,0.0,0.0,0.0,0.0,0.0,0.3611123046875,0.0,0.0,0.0,0.0,0.0,0.0,0.074,0.0,0.0,0.0,0.0,0.0,0.0,0.36799248129024054,0.0,0.0,0.0,0.0,0.0,0.0,0.344
234,0.0,0.0,0.0,0.0,0.0,0.0,0.3619384765625,0.0,0.0,0.0,0.0,0.0,0.0,0.07,0.0,0.0,0.0,0.0,0.0,0.0,0.3687783036942711,0.0,0.0,0.0,0.0,0.0,0.0,0.344
235,0.0,0.0,0.0,0.0,0.0,0.0,0.36255859375,0.0,0.0,0.0,0.0,0.0,0.0,0.065,0.0,0.0,0.0,0.0,0.0,0.0,0.36953677551725805,0.0,0.0,0.0,0.0,0.0,0.0,0.348
236,0.0,0.0,0.0,0.0,0.0,0.0,0.3629716796875,0.0,0.0,0.0,0.0,0.0,0.0,0.057,0.0,0.0,0.0,0.0,0.0,0.0,0.37030314606955406,0.0,0.0,0.0,0.0,0.0,0.0,0.348
237,0.0,0.0,0.0,0.0,0.0,0.0,0.363578125,0.0,0.0,0.0,0.0,0.0,0.0,0.053,0.0,0.0,0.0,0.0,0.0,0.0,0.3710482465229845,0.0,0.0,0.0,0.0,0.0,0.0,0.344
238,0.0,0.0,0.0,0.0,0.0,0.0,0.364611328125,0.0,0.0,0.0,0.0,0.0,0.0,0.075,0.0,0.0,0.0,0.0,0.0,0.0,0.3717905817558141,0.0,0.0,0.0,0.0,0.0,0.0,0.312
239,0.0,0.0,0.0,0.0,0.0,0.0,0.3654375,0.0,0.0,0.0,0.0,0.0,0.0,0.093,0.0,0.0,0.0,0.0,0.0,0.0,0.3725295982562873,0.0,0.0,0.0,0.0,0.0,0.0,0.272
240,0.0,0.0,0.0,0.0,0.0,0.0,0.36645703125,0.0,0.0,0.0,0.0,0.0,0.0,0.098,0.0,0.0,0.0,0.0,0.0,0.0,0.3732433942597687,0.0,0.0,0.0,0.0,0.0,0.0,0.244
241,0.0,0.0,0.0,0.0,0.0,0.0,0.36768359375,0.0,0.0,0.0,0.0,0.0,0.0,0.11,0.0,0.0,0.0,0.0,0.0,0.0,0.3739639566054964,0.0,0.0,0.0,0.0,0.0,0.0,0.232
242,0.0,0.0,0.0,0.0,0.0,0.0,0.368923828125,0.0,0.0,0.0,0.0,0.0,0.0,0.123,0.0,0.0,0.0,0.0,0.0,0.0,0.3746676460650069,0.0,0.0,0.0,0.0,0.0,0.0,0.212
243,0.0,0.0,0.0,0.0,0.0,0.0,0.370150390625,0.0,0.0,0.0,0.0,0.0,0.0,0.13,0.0,0.0,0.0,0.0,0.0,0.0,0.3753602103801754,0.0,0.0,0.0,0.0,0.0,0.0,0.188
244,0.0,0.0,0.0,0.0,0.0,0.0,0.3711826171875,0.0,0.0,0.0,0.0,0.0,0.0,0.109,0.0,0.0,0.0,0.0,0.0,0.0,0.3760472314616119,0.0,0.0,0.0,0.0,0.0,0.0,0.192
245,0.0,0.0,0.0,0.0,0.0,0.0,0.3720087890625,0.0,0.0,0.0,0.0,0.0,0.0,0.087,0.0,0.0,0.0,0.0,0.0,0.0,0.37673558820643166,0.0,0.0,0.0,0.0,0.0,0.0,0.188
246,0.0,0.0,0.0,0.0,0.0,0.0,0.3724091796875,0.0,0.0,0.0,0.0,0.0,0.0,0.067,0.0,0.0,0.0,0.0,0.0,0.0,0.3773935236076599,0.0,0.0,0.0,0.0,0.0,0.0,0.16
247,0.0,0.0,0.0,0.0,0.0,0.0,0.372822265625,0.0,0.0,0.0,0.0,0.0,0.0,0.045,0.0,0.0,0.0,0.0,0.0,0.0,0.3780522943315726,0.0,0.0,0.0,0.0,0.0,0.0,0.168
248,0.0,0.0,0.0,0.0,0.0,0.0,0.373029296875,0.0,0.0,0.0,0.0,0.0,0.0,0.036,0.0,0.0,0.0,0.0,0.0,0.0,0.37870758177697117,0.0,0.0,0.0,0.0,0.0,0.0,0.168
249,0.0,0.0,0.0,0.0,0.0,0.0,0.3734423828125,0.0,0.0,0.0,0.0,0.0,0.0,0.028,0.0,0.0,0.0,0.0,0.0,0.0,0.37934692952633225,0.0,0.0,0.0,0.0,0.0,0.0,0.18
250,0.0,0.0,0.0,0.0,0.0,0.0,0.37385546875,0.0,0.0,0.0,0.0,0.0,0.0,0.039,0.0,0.0,0.0,0.0,0.0,0.0,0.3799690235414024,0.0,0.0,0.0,0.0,0.0,0.0,0.156
251,0.0,0.0,0.0,0.0,0.0,0.0,0.3744619140625,0.0,0.0,0.0,0.0,0.0,0.0,0.055,0.0,0.0,0.0,0.0,0.0,0.0,0.3805928218163151,0.0,0.0,0.0,0.0,0.0,0.0,0.2
252,0.0,0.0,0.0,0.0,0.0,0.0,0.3752880859375,0.0,0.0,0.0,0.0,0.0,0.0,0.062,0.0,0.0,0.0,0.0,0.0,0.0,0.38120940637752154,0.0,0.0,0.0,0.0,0.0,0.0,0.192
253,0.0,0.0,0.0,0.0,0.0,0.0,0.375908203125,0.0,0.0,0.0,0.0,0.0,0.0,0.064,0.0,0.0,0.0,0.0,0.0,0.0,0.3817973641750646,0.0,0.0,0.0,0.0,0.0,0.0,0.188
254,0.0,0.0,0.0,0.0,0.0,0.0,0.3765283203125,0.0,0.0,0.0,0.0,0.0,0.0,0.072,0.0,0.0,0.0,0.0,0.0,0.0,0.3823985107551481,0.0,0.0,0.0,0.0,0.0,0.0,0.168
255,0.0,0.0,0.0,0.0,0.0,0.0,0.377341796875,0.0,0.0,0.0,0.0,0.0,0.0,0.075,0.0,0.0,0.0,0.0,0.0,0.0,0.3831659584030756,0.0,0.0,0.0,0.0,0.0,0.0,0.188
256,0.0,0.0,0.0,0.0,0.0,0.0,0.37816796875,0.0,0.0,0.0,0.0,0.0,0.0,0.075,0.0,0.0,0.0,0.0,0.0,0.0,0.383546632779965,0.0,0.0,0.0,0.0,0.0,0.0,0.192
257,0.0,0.0,0.0,0.0,0.0,0.0,0.378787109375,0.0,0.0,0.0,0.0,0.0,0.0,0.067,0.0,0.0,0.0,0.0,0.0,0.0,0.3841094433938275,0.0,0.0,0.0,0.0,0.0,0.0,0.192
258,0.0,0.0,0.0,0.0,0.0,0.0,0.37939453125,0.0,0.0,0.0,0.0,0.0,0.0,0.064,0.0,0.0,0.0,0.0,0.0,0.0,0.3847403827249094,0.0,0.0,0.0,0.0,0.0,0.0,0.192
259,0.0,0.0,0.0,0.0,0.0,0.0,0.380013671875,0.0,0.0,0.0,0.0,0.0,0.0,0.066,0.0,0.0,0.0,0.0,0.0,0.0,0.38520343981255767,0.0,0.0,0.0,0.0,0.0,0.0,0.188
260,0.0,0.0,0.0,0.0,0.0,0.0,0.3804267578125,0.0,0.0,0.0,0.0,0.0,0.0,0.057,0.0,0.0,0.0,0.0,0.0,0.0,0.38573888837973686,0.0,0.0,0.0,0.0,0.0,0.0,0.188
261,0.0,0.0,0.0,0.0,0.0,0.0,0.381046875,0.0,0.0,0.0,0.0,0.0,0.0,0.05,0.0,0.0,0.0,0.0,0.0,0.0,0.38626869587598306,0.0,0.0,0.0,0.0,0.0,0.0,0.172
262,0.0,0.0,0.0,0.0,0.0,0.0,0.3816533203125,0.0,0.0,0.0,0.0,0.0,0.0,0.056,0.0,0.0,0.0,0.0,0.0,0.0,0.3867796271003069,0.0,0.0,0.0,0.0,0.0,0.0,0.16
263,0.0,0.0,0.0,0.0,0.0,0.0,0.3822734375,0.0,0.0,0.0,0.0,0.0,0.0,0.057,0.0,0.0,0.0,0.0,0.0,0.0,0.3872842280291198,0.0,0.0,0.0,0.0,0.0,0.0,0.18
264,0.0,0.0,0.0,0.0,0.0,0.0,0.3826865234375,0.0,0.0,0.0,0.0,0.0,0.0,0.054,0.0,0.0,0.0,0.0,0.0,0.0,0.387782300785026,0.0,0.0,0.0,0.0,0.0,0.0,0.192
265,0.0,0.0,0.0,0.0,0.0,0.0,0.383306640625,0.0,0.0,0.0,0.0,0.0,0.0,0.051,0.0,0.0,0.0,0.0,0.0,0.0,0.3882661148679699,0.0,0.0,0.0,0.0,0.0,0.0,0.156
266,0.0,0.0,0.0,0.0,0.0,0.0,0.3837060546875,0.0,0.0,0.0,0.0,0.0,0.0,0.048,0.0,0.0,0.0,0.0,0.0,0.0,0.38874123005040556,0.0,0.0,0.0,0.0,0.0,0.0,0.14
267,0.0,0.0,0.0,0.0,0.0,0.0,0.384119140625,0.0,0.0,0.0,0.0,0.0,0.0,0.046,0.0,0.0,0.0,0.0,0.0,0.0,0.38921086625209855,0.0,0.0,0.0,0.0,0.0,0.0,0.172
268,0.0,0.0,0.0,0.0,0.0,0.0,0.3847392578125,0.0,0.0,0.0,0.0,0.0,0.0,0.051,0.0,0.0,0.0,0.0,0.0,0.0,0.38966797213018706,0.0,0.0,0.0,0.0,0.0,0.0,0.172
269,0.0,0.0,0.0,0.0,0.0,0.0,0.385359375,0.0,0.0,0.0,0.0,0.0,0.0,0.063,0.0,0.0,0.0,0.0,0.0,0.0,0.3901091152113063,0.0,0.0,0.0,0.0,0.0,0.0,0.18
270,0.0,0.0,0.0,0.0,0.0,0.0,0.3857587890625,0.0,0.0,0.0,0.0,0.0,0.0,0.051,0.0,0.0,0.0,0.0,0.0,0.0,0.3905483684518227,0.0,0.0,0.0,0.0,0.0,0.0,0.172
271,0.0,0.0,0.0,0.0,0.0,0.0,0.38637890625,0.0,0.0,0.0,0.0,0.0,0.0,0.047,0.0,0.0,0.0,0.0,0.0,0.0,0.390979906761947,0.0,0.0,0.0,0.0,0.0,0.0,0.16
272,0.0,0.0,0.0,0.0,0.0,0.0,0.3865859375,0.0,0.0,0.0,0.0,0.0,0.0,0.046,0.0,0.0,0.0,0.0,0.0,0.0,0.3913974420320064,0.0,0.0,0.0,0.0,0.0,0.0,0.172
273,0.0,0.0,0.0,0.0,0.0,0.0,0.3869990234375,0.0,0.0,0.0,0.0,0.0,0.0,0.038,0.0,0.0,0.0,0.0,0.0,0.0,0.3918044103766649,0.0,0.0,0.0,0.0,0.0,0.0,0.16
274,0.0,0.0,0.0,0.0,0.0,0.0,0.387412109375,0.0,0.0,0.0,0.0,0.0,0.0,0.043,0.0,0.0,0.0,0.0,0.0,0.0,0.39220233870789517,0.0,0.0,0.0,0.0,0.0,0.0,0.188
275,0.0,0.0,0.0,0.0,0.0,0.0,0.3878251953125,0.0,0.0,0.0,0.0,0.0,0.0,0.038,0.0,0.0,0.0,0.0,0.0,0.0,0.3925861562641143,0.0,0.0,0.0,0.0,0.0,0.0,0.188
276,0.0,0.0,0.0,0.0,0.0,0.0,0.3882255859375,0.0,0.0,0.0,0.0,0.0,0.0,0.039,0.0,0.0,0.0,0.0,0.0,0.0,0.39297012542879983,0.0,0.0,0.0,0.0,0.0,0.0,0.16
277,0.0,0.0,0.0,0.0,0.0,0.0,0.388638671875,0.0,0.0,0.0,0.0,0.0,0.0,0.039,0.0,0.0,0.0,0.0,0.0,0.0,0.39334241415327575,0.0,0.0,0.0,0.0,0.0,0.0,0.172
278,0.0,0.0,0.0,0.0,0.0,0.0,0.3890517578125,0.0,0.0,0.0,0.0,0.0,0.0,0.04,0.0,0.0,0.0,0.0,0.0,0.0,0.3936953260875758,0.0,0.0,0.0,0.0,0.0,0.0,0.192
279,0.0,0.0,0.0,0.0,0.0,0.0,0.3892578125,0.0,0.0,0.0,0.0,0.0,0.0,0.034,0.0,0.0,0.0,0.0,0.0,0.0,0.39404048169429584,0.0,0.0,0.0,0.0,0.0,0.0,0.224
280,0.0,0.0,0.0,0.0,0.0,0.0,0.3896708984375,0.0,0.0,0.0,0.0,0.0,0.0,0.036,0.0,0.0,0.0,0.0,0.0,0.0,0.39438294626716064,0.0,0.0,0.0,0.0,0.0,0.0,0.2
281,0.0,0.0,0.0,0.0,0.0,0.0,0.390083984375,0.0,0.0,0.0,0.0,0.0,0.0,0.032,0.0,0.0,0.0,0.0,0.0,0.0,0.394711105039139,0.0,0.0,0.0,0.0,0.0,0.0,0.168
282,0.0,0.0,0.0,0.0,0.0,0.0,0.3902783203125,0.0,0.0,0.0,0.0,0.0,0.0,0.026,0.0,0.0,0.0,0.0,0.0,0.0,0.39502875409753974,0.0,0.0,0.0,0.0,0.0,0.0,0.188
283,0.0,0.0,0.0,0.0,0.0,0.0,0.39069140625,0.0,0.0,0.0,0.0,0.0,0.0,0.031,0.0,0.0,0.0,0.0,0.0,0.0,0.3953416559401313,0.0,0.0,0.0,0.0,0.0,0.0,0.188
284,0.0,0.0,0.0,0.0,0.0,0.0,0.3911044921875,0.0,0.0,0.0,0.0,0.0,0.0,0.038,0.0,0.0,0.0,0.0,0.0,0.0,0.39563813420689103,0.0,0.0,0.0,0.0,0.0,0.0,0.16
285,0.0,0.0,0.0,0.0,0.0,0.0,0.391517578125,0.0,0.0,0.0,0.0,0.0,0.0,0.036,0.0,0.0,0.0,0.0,0.0,0.0,0.395928622815538,0.0,0.0,0.0,0.0,0.0,0.0,0.172
286,0.0,0.0,0.0,0.0,0.0,0.0,0.3919306640625,0.0,0.0,0.0,0.0,0.0,0.0,0.043,0.0,0.0,0.0,0.0,0.0,0.0,0.39620970191299143,0.0,0.0,0.0,0.0,0.0,0.0,0.2
287,0.0,0.0,0.0,0.0,0.0,0.0,0.39234375,0.0,0.0,0.0,0.0,0.0,0.0,0.044,0.0,0.0,0.0,0.0,0.0,0.0,0.3964792154020251,0.0,0.0,0.0,0.0,0.0,0.0,0.156
288,0.0,0.0,0.0,0.0,0.0,0.0,0.392744140625,0.0,0.0,0.0,0.0,0.0,0.0,0.037,0.0,0.0,0.0,0.0,0.0,0.0,0.3967556307383079,0.0,0.0,0.0,0.0,0.0,0.0,0.188
289,0.0,0.0,0.0,0.0,0.0,0.0,0.3931572265625,0.0,0.0,0.0,0.0,0.0,0.0,0.03,0.0,0.0,0.0,0.0,0.0,0.0,0.39711018627118155,0.0,0.0,0.0,0.0,0.0,0.0,0.192
290,0.0,0.0,0.0,0.0,0.0,0.0,0.3931572265625,0.0,0.0,0.0,0.0,0.0,0.0,0.03,0.0,0.0,0.0,0.0,0.0,0.0,0.3973124504356735,0.0,0.0,0.0,0.0,0.0,0.0,0.192
291,0.0,0.0,0.0,0.0,0.0,0.0,0.3931572265625,0.0,0.0,0.0,0.0,0.0,0.0,0.03,0.0,0.0,0.0,0.0,0.0,0.0,0.39747548938458005,0.0,0.0,0.0,0.0,0.0,0.0,0.192
292,0.0,0.0,0.0,0.0,0.0,0.0,0.3931572265625,0.0,0.0,0.0,0.0,0.0,0.0,0.03,0.0,0.0,0.0,0.0,0.0,0.0,0.39768041204381616,0.0,0.0,0.0,0.0,0.0,0.0,0.192
293,0.0,0.0,0.0,0.0,0.0,0.0,0.3935703125,0.0,0.0,0.0,0.0,0.0,0.0,0.008,0.0,0.0,0.0,0.0,0.0,0.0,0.39788922359826945,0.0,0.0,0.0,0.0,0.0,0.0,0.18
294,0.0,0.0,0.0,0.0,0.0,0.0,0.3935703125,0.0,0.0,0.0,0.0,0.0,0.0,0.013,0.0,0.0,0.0,0.0,0.0,0.0,0.3980878216257284,0.0,0.0,0.0,0.0,0.0,0.0,0.192
295,0.0,0.0,0.0,0.0,0.0,0.0,0.3935703125,0.0,0.0,0.0,0.0,0.0,0.0,-0.001,0.0,0.0,0.0,0.0,0.0,0.0,0.39827796701143714,0.0,0.0,0.0,0.0,0.0,0.0,0.156
296,0.0,0.0,0.0,0.0,0.0,0.0,0.3935703125,0.0,0.0,0.0,0.0,0.0,0.0,-0.001,0.0,0.0,0.0,0.0,0.0,0.0,0.39845900119143146,0.0,0.0,0.0,0.0,0.0,0.0,0.18
297,0.0,0.0,0.0,0.0,0.0,0.0,0.39377734375,0.0,0.0,0.0,0.0,0.0,0.0,0.002,0.0,0.0,0.0,0.0,0.0,0.0,0.39862958802082304,0.0,0.0,0.0,0.0,0.0,0.0,0.192
298,0.0,0.0,0.0,0.0,0.0,0.0,0.3939833984375,0.0,0.0,0.0,0.0,0.0,0.0,0.017,0.0,0.0,0.0,0.0,0.0,0.0,0.3987913209978104,0.0,0.0,0.0,0.0,0.0,0.0,0.208
299,0.0,0.0,0.0,0.0,0.0,0.0,0.3941904296875,0.0,0.0,0.0,0.0,0.0,0.0,0.022,0.0,0.0,0.0,0.0,0.0,0.0,0.3989406076714077,0.0,0.0,0.0,0.0,0.0,0.0,0.22
300,0.0,0.0,0.0,0.0,0.0,0.0,0.394796875,0.0,0.0,0.0,0.0,0.0,0.0,0.041,0.0,0.0,0.0,0.0,0.0,0.0,0.39908090655991046,0.0,0.0,0.0,0.0,0.0,0.0,0.188
301,0.0,0.0,0.0,0.0,0.0,0.0,0.3952099609375,0.0,0.0,0.0,0.0,0.0,0.0,0.054,0.0,0.0,0.0,0.0,0.0,0.0,0.39921333936948766,0.0,0.0,0.0,0.0,0.0,0.0,0.2
302,0.0,0.0,0.0,0.0,0.0,0.0,0.395623046875,0.0,0.0,0.0,0.0,0.0,0.0,0.042,0.0,0.0,0.0,0.0,0.0,0.0,0.3993315245874163,0.0,0.0,0.0,0.0,0.0,0.0,0.18
303,0.0,0.0,0.0,0.0,0.0,0.0,0.3960361328125,0.0,0.0,0.0,0.0,0.0,0.0,0.034,0.0,0.0,0.0,0.0,0.0,0.0,0.3994422289611095,0.0,0.0,0.0,0.0,0.0,0.0,0.188
304,0.0,0.0,0.0,0.0,0.0,0.0,0.3962431640625,0.0,0.0,0.0,0.0,0.0,0.0,0.026,0.0,0.0,0.0,0.0,0.0,0.0,0.3995428451615254,0.0,0.0,0.0,0.0,0.0,0.0,0.188
305,0.0,0.0,0.0,0.0,0.0,0.0,0.3962431640625,0.0,0.0,0.0,0.0,0.0,0.0,0.017,0.0,0.0,0.0,0.0,0.0,0.0,0.39963296285006594,0.0,0.0,0.0,0.0,0.0,0.0,0.18
306,0.0,0.0,0.0,0.0,0.0,0.0,0.3962431640625,0.0,0.0,0.0,0.0,0.0,0.0,-0.001,0.0,0.0,0.0,0.0,0.0,0.0,0.3997138311216313,0.0,0.0,0.0,0.0,0.0,0.0,0.156
307,0.0,0.0,0.0,0.0,0.0,0.0,0.3962431640625,0.0,0.0,0.0,0.0,0.0,0.0,-0.001,0.0,0.0,0.0,0.0,0.0,0.0,0.39978461151510414,0.0,0.0,0.0,0.0,0.0,0.0,0.16
308,0.0,0.0,0.0,0.0,0.0,0.0,0.3962431640625,0.0,0.0,0.0,0.0,0.0,0.0,-0.001,0.0,0.0,0.0,0.0,0.0,0.0,0.3998453884937379,0.0,0.0,0.0,0.0,0.0,0.0,0.188
309,0.0,0.0,0.0,0.0,0.0,0.0,0.3962431640625,0.0,0.0,0.0,0.0,0.0,0.0,-0.001,0.0,0.0,0.0,0.0,0.0,0.0,0.39989583271415463,0.0,0.0,0.0,0.0,0.0,0.0,0.168
310,0.0,0.0,0.0,0.0,0.0,0.0,0.3962431640625,0.0,0.0,0.0,0.0,0.0,0.0,-0.001,0.0,0.0,0.0,0.0,0.0,0.0,0.3999368097367566,0.0,0.0,0.0,0.0,0.0,0.0,0.172
311,0.0,0.0,0.0,0.0,0.0,0.0,0.3962431640625,0.0,0.0,0.0,0.0,0.0,0.0,-0.001,0.0,0.0,0.0,0.0,0.0,0.0,0.3999671540024188,0.0,0.0,0.0,0.0,0.0,0.0,0.18
312,0.0,0.0,0.0,0.0,0.0,0.0,0.3962431640625,0.0,0.0,0.0,0.0,0.0,0.0,-0.001,0.0,0.0,0.0,0.0,0.0,0.0,0.39998790726417965,0.0,0.0,0.0,0.0,0.0,0.0,0.188
313,0.0,0.0,0.0,0.0,0.0,0.0,0.3962431640625,0.0,0.0,0.0,0.0,0.0,0.0,-0.001,0.0,0.0,0.0,0.0,0.0,0.0,0.3999991901072315,0.0,0.0,0.0,0.0,0.0,0.0,0.168
314,0.0,0.0,0.0,0.0,0.0,0.0,0.3962431640625,0.0,0.0,0.0,0.0,0.0,0.0,-0.001,0.0,0.0,0.0,0.0,0.0,0.0,0.39999901721275744,0.0,0.0,0.0,0.0,0.0,0.0,0.168
315,0.0,0.0,0.0,0.0,0.0,0.0,0.3962431640625,0.0,0.0,0.0,0.0,0.0,0.0,-0.001,0.0,0.0,0.0,0.0,0.0,0.0,0.39998915095846244,0.0,0.0,0.0,0.0,0.0,0.0,0.16
316,0.0,0.0,0.0,0.0,0.0,0.0,0.3962431640625,0.0,0.0,0.0,0.0,0.0,0.0,-0.001,0.0,0.0,0.0,0.0,0.0,0.0,0.39996103469698363,0.0,0.0,0.0,0.0,0.0,0.0,0.16
317,0.0,0.0,0.0,0.0,0.0,0.0,0.3962431640625,0.0,0.0,0.0,0.0,0.0,0.0,-0.001,0.0,0.0,0.0,0.0,0.0,0.0,0.3999391591434933,0.0,0.0,0.0,0.0,0.0,0.0,0.16
318,0.0,0.0,0.0,0.0,0.0,0.0,0.3962431640625,0.0,0.0,0.0,0.0,0.0,0.0,-0.001,0.0,0.0,0.0,0.0,0.0,0.0,0.3998983196609953,0.0,0.0,0.0,0.0,0.0,0.0,0.172
319,0.0,0.0,0.0,0.0,0.0,0.0,0.3962431640625,0.0,0.0,0.0,0.0,0.0,0.0,-0.001,0.0,0.0,0.0,0.0,0.0,0.0,0.39984842153299416,0.0,0.0,0.0,0.0,0.0,0.0,0.18
320,0.0,0.0,0.0,0.0,0.0,0.0,0.3962431640625,0.0,0.0,0.0,0.0,0.0,0.0,-0.001,0.0,0.0,0.0,0.0,0.0,0.0,0.3997814902514313,0.0,0.0,0.0,0.0,0.0,0.0,0.18
321,0.0,0.0,0.0,0.0,0.0,0.0,0.3962431640625,0.0,0.0,0.0,0.0,0.0,0.0,-0.001,0.0,0.0,0.0,0.0,0.0,0.0,0.39972378833627986,0.0,0.0,0.0,0.0,0.0,0.0,0.172
322,0.0,0.0,0.0,0.0,0.0,0.0,0.3962431640625,0.0,0.0,0.0,0.0,0.0,0.0,-0.001,0.0,0.0,0.0,0.0,0.0,0.0,0.39964344193214485,0.0,0.0,0.0,0.0,0.0,0.0,0.188
323,0.0,0.0,0.0,0.0,0.0,0.0,0.3962431640625,0.0,0.0,0.0,0.0,0.0,0.0,-0.001,0.0,0.0,0.0,0.0,0.0,0.0,0.3995546990271057,0.0,0.0,0.0,0.0,0.0,0.0,0.188
324,0.0,0.0,0.0,0.0,0.0,0.0,0.3962431640625,0.0,0.0,0.0,0.0,0.0,0.0,-0.001,0.0,0.0,0.0,0.0,0.0,0.0,0.39945426460889255,0.0,0.0,0.0,0.0,0.0,0.0,0.2
325,0.0,0.0,0.0,0.0,0.0,0.0,0.3962431640625,0.0,0.0,0.0,0.0,0.0,0.0,-0.001,0.0,0.0,0.0,0.0,0.0,0.0,0.39932926106269967,0.0,0.0,0.0,0.0,0.0,0.0,0.168
326,0.0,0.0,0.0,0.0,0.0,0.0,0.3962431640625,0.0,0.0,0.0,0.0,0.0,0.0,-0.001,0.0,0.0,0.0,0.0,0.0,0.0,0.3992266386689615,0.0,0.0,0.0,0.0,0.0,0.0,0.172
327,0.0,0.0,0.0,0.0,0.0,0.0,0.3962431640625,0.0,0.0,0.0,0.0,0.0,0.0,-0.001,0.0,0.0,0.0,0.0,0.0,0.0,0.3990975819212442,0.0,0.0,0.0,0.0,0.0,0.0,0.192
328,0.0,0.0,0.0,0.0,0.0,0.0,0.3962431640625,0.0,0.0,0.0,0.0,0.0,0.0,-0.001,0.0,0.0,0.0,0.0,0.0,0.0,0.39895665346454073,0.0,0.0,0.0,0.0,0.0,0.0,0.156
329,0.0,0.0,0.0,0.0,0.0,0.0,0.3962431640625,0.0,0.0,0.0,0.0,0.0,0.0,-0.001,0.0,0.0,0.0,0.0,0.0,0.0,0.3988084001662008,0.0,0.0,0.0,0.0,0.0,0.0,0.18
330,0.0,0.0,0.0,0.0,0.0,0.0,0.3962431640625,0.0,0.0,0.0,0.0,0.0,0.0,-0.001,0.0,0.0,0.0,0.0,0.0,0.0,0.3986503721891147,0.0,0.0,0.0,0.0,0.0,0.0,0.18
331,0.0,0.0,0.0,0.0,0.0,0.0,0.3962431640625,0.0,0.0,0.0,0.0,0.0,0.0,-0.001,0.0,0.0,0.0,0.0,0.0,0.0,0.3984786387576888,0.0,0.0,0.0,0.0,0.0,0.0,0.172
332,0.0,0.0,0.0,0.0,0.0,0.0,0.3962431640625,0.0,0.0,0.0,0.0,0.0,0.0,-0.001,0.0,0.0,0.0,0.0,0.0,0.0,0.3982989864950517,0.0,0.0,0.0,0.0,0.0,0.0,0.168
333,0.0,0.0,0.0,0.0,0.0,0.0,0.3962431640625,0.0,0.0,0.0,0.0,0.0,0.0,-0.001,0.0,0.0,0.0,0.0,0.0,0.0,0.39811371582523264,0.0,0.0,0.0,0.0,0.0,0.0,0.156
334,0.0,0.0,0.0,0.0,0.0,0.0,0.3962431640625,0.0,0.0,0.0,0.0,0.0,0.0,-0.001,0.0,0.0,0.0,0.0,0.0,0.0,0.3979134108302412,0.0,0.0,0.0,0.0,0.0,0.0,0.192
335,0.0,0.0,0.0,0.0,0.0,0.0,0.3962431640625,0.0,0.0,0.0,0.0,0.0,0.0,-0.001,0.0,0.0,0.0,0.0,0.0,0.0,0.39770356898648984,0.0,0.0,0.0,0.0,0.0,0.0,0.168
336,0.0,0.0,0.0,0.0,0.0,0.0,0.3962431640625,0.0,0.0,0.0,0.0,0.0,0.0,-0.001,0.0,0.0,0.0,0.0,0.0,0.0,0.39748381206279926,0.0,0.0,0.0,0.0,0.0,0.0,0.172
337,0.0,0.0,0.0,0.0,0.0,0.0,0.3962431640625,0.0,0.0,0.0,0.0,0.0,0.0,-0.001,0.0,0.0,0.0,0.0,0.0,0.0,0.39725584960925187,0.0,0.0,0.0,0.0,0.0,0.0,0.188
338,0.0,0.0,0.0,0.0,0.0,0.0,0.3962431640625,0.0,0.0,0.0,0.0,0.0,0.0,-0.001,0.0,0.0,0.0,0.0,0.0,0.0,0.39701594061886064,0.0,0.0,0.0,0.0,0.0,0.0,0.172
339,0.0,0.0,0.0,0.0,0.0,0.0,0.3962431640625,0.0,0.0,0.0,0.0,0.0,0.0,-0.001,0.0,0.0,0.0,0.0,0.0,0.0,0.39677059164512185,0.0,0.0,0.0,0.0,0.0,0.0,0.188
340,0.0,0.0,0.0,0.0,0.0,0.0,0.3962431640625,0.0,0.0,0.0,0.0,0.0,0.0,-0.001,0.0,0.0,0.0,0.0,0.0,0.0,0.3965101572226385,0.0,0.0,0.0,0.0,0.0,0.0,0.168
341,0.0,0.0,0.0,0.0,0.0,0.0,0.3962431640625,0.0,0.0,0.0,0.0,0.0,0.0,-0.001,0.0,0.0,0.0,0.0,0.0,0.0,0.3962413142404453,0.0,0.0,0.0,0.0,0.0,0.0,0.18
342,0.0,0.0,0.0,0.0,0.0,0.0,0.3962431640625,0.0,0.0,0.0,0.0,0.0,0.0,-0.001,0.0,0.0,0.0,0.0,0.0,0.0,0.3959639644460833,0.0,0.0,0.0,0.0,0.0,0.0,0.18
343,0.0,0.0,0.0,0.0,0.0,0.0,0.3962431640625,0.0,0.0,0.0,0.0,0.0,0.0,-0.001,0.0,0.0,0.0,0.0,0.0,0.0,0.3956745361281559,0.0,0.0,0.0,0.0,0.0,0.0,0.16
344,0.0,0.0,0.0,0.0,0.0,0.0,0.3962431640625,0.0,0.0,0.0,0.0,0.0,0.0,-0.001,0.0,0.0,0.0,0.0,0.0,0.0,0.3953761404435889,0.0,0.0,0.0,0.0,0.0,0.0,0.172
345,0.0,0.0,0.0,0.0,0.0,0.0,0.3962431640625,0.0,0.0,0.0,0.0,0.0,0.0,-0.001,0.0,0.0,0.0,0.0,0.0,0.0,0.3950672551623069,0.0,0.0,0.0,0.0,0.0,0.0,0.172
346,0.0,0.0,0.0,0.0,0.0,0.0,0.3962431640625,0.0,0.0,0.0,0.0,0.0,0.0,-0.001,0.0,0.0,0.0,0.0,0.0,0.0,0.39474383336803315,0.0,0.0,0.0,0.0,0.0,0.0,0.156
347,0.0,0.0,0.0,0.0,0.0,0.0,0.3962431640625,0.0,0.0,0.0,0.0,0.0,0.0,-0.001,0.0,0.0,0.0,0.0,0.0,0.0,0.3944208366164289,0.0,0.0,0.0,0.0,0.0,0.0,0.18
348,0.0,0.0,0.0,0.0,0.0,0.0,0.3962431640625,0.0,0.0,0.0,0.0,0.0,0.0,-0.001,0.0,0.0,0.0,0.0,0.0,0.0,0.39408197177346077,0.0,0.0,0.0,0.0,0.0,0.0,0.18
349,0.0,0.0,0.0,0.0,0.0,0.0,0.3962431640625,0.0,0.0,0.0,0.0,0.0,0.0,-0.001,0.0,0.0,0.0,0.0,0.0,0.0,0.39373463136719017,0.0,0.0,0.0,0.0,0.0,0.0,0.16
350,0.0,0.0,0.0,0.0,0.0,0.0,0.3962431640625,0.0,0.0,0.0,0.0,0.0,0.0,-0.001,0.0,0.0,0.0,0.0,0.0,0.0,0.3933756262172723,0.0,0.0,0.0,0.0,0.0,0.0,0.148
351,0.0,0.0,0.0,0.0,0.0,0.0,0.3962431640625,0.0,0.0,0.0,0.0,0.0,0.0,-0.001,0.0,0.0,0.0,0.0,0.0,0.0,0.3930092002430447,0.0,0.0,0.0,0.0,0.0,0.0,0.172
352,0.0,0.0,0.0,0.0,0.0,0.0,0.3962431640625,0.0,0.0,0.0,0.0,0.0,0.0,-0.001,0.0,0.0,0.0,0.0,0.0,0.0,0.39263116896885897,0.0,0.0,0.0,0.0,0.0,0.0,0.16
353,0.0,0.0,0.0,0.0,0.0,0.0,0.3962431640625,0.0,0.0,0.0,0.0,0.0,0.0,-0.001,0.0,0.0,0.0,0.0,0.0,0.0,0.3922470444218735,0.0,0.0,0.0,0.0,0.0,0.0,0.136
354,0.0,0.0,0.0,0.0,0.0,0.0,0.3960361328125,0.0,0.0,0.0,0.0,0.0,0.0,-0.014,0.0,0.0,0.0,0.0,0.0,0.0,0.3918531628729409,0.0,0.0,0.0,0.0,0.0,0.0,0.088
355,0.0,0.0,0.0,0.0,0.0,0.0,0.395830078125,0.0,0.0,0.0,0.0,0.0,0.0,-0.016,0.0,0.0,0.0,0.0,0.0,0.0,0.3914454862925084,0.0,0.0,0.0,0.0,0.0,0.0,0.068
356,0.0,0.0,0.0,0.0,0.0,0.0,0.395623046875,0.0,0.0,0.0,0.0,0.0,0.0,-0.022,0.0,0.0,0.0,0.0,0.0,0.0,0.3910245421781138,0.0,0.0,0.0,0.0,0.0,0.0,0.036
357,0.0,0.0,0.0,0.0,0.0,0.0,0.39500390625,0.0,0.0,0.0,0.0,0.0,0.0,-0.038,0.0,0.0,0.0,0.0,0.0,0.0,0.39060257838131585,0.0,0.0,0.0,0.0,0.0,0.0,0.012
358,0.0,0.0,0.0,0.0,0.0,0.0,0.394603515625,0.0,0.0,0.0,0.0,0.0,0.0,-0.049,0.0,0.0,0.0,0.0,0.0,0.0,0.39016659559476763,0.0,0.0,0.0,0.0,0.0,0.0,0.036
359,0.0,0.0,0.0,0.0,0.0,0.0,0.3939833984375,0.0,0.0,0.0,0.0,0.0,0.0,-0.05,0.0,0.0,0.0,0.0,0.0,0.0,0.3897193171486586,0.0,0.0,0.0,0.0,0.0,0.0,0.036
360,0.0,0.0,0.0,0.0,0.0,0.0,0.3933642578125,0.0,0.0,0.0,0.0,0.0,0.0,-0.064,0.0,0.0,0.0,0.0,0.0,0.0,0.3892660313744387,0.0,0.0,0.0,0.0,0.0,0.0,0.036
361,0.0,0.0,0.0,0.0,0.0,0.0,0.392744140625,0.0,0.0,0.0,0.0,0.0,0.0,-0.063,0.0,0.0,0.0,0.0,0.0,0.0,0.38879832980252615,0.0,0.0,0.0,0.0,0.0,0.0,0.016
362,0.0,0.0,0.0,0.0,0.0,0.0,0.39234375,0.0,0.0,0.0,0.0,0.0,0.0,-0.055,0.0,0.0,0.0,0.0,0.0,0.0,0.3883206394147906,0.0,0.0,0.0,0.0,0.0,0.0,0.012
363,0.0,0.0,0.0,0.0,0.0,0.0,0.3917236328125,0.0,0.0,0.0,0.0,0.0,0.0,-0.051,0.0,0.0,0.0,0.0,0.0,0.0,0.3878389608356421,0.0,0.0,0.0,0.0,0.0,0.0,0.0
364,0.0,0.0,0.0,0.0,0.0,0.0,0.391310546875,0.0,0.0,0.0,0.0,0.0,0.0,-0.055,0.0,0.0,0.0,0.0,0.0,0.0,0.3873422525673062,0.0,0.0,0.0,0.0,0.0,0.0,-0.012
365,0.0,0.0,0.0,0.0,0.0,0.0,0.39069140625,0.0,0.0,0.0,0.0,0.0,0.0,-0.056,0.0,0.0,0.0,0.0,0.0,0.0,0.386842134227927,0.0,0.0,0.0,0.0,0.0,0.0,0.0
366,0.0,0.0,0.0,0.0,0.0,0.0,0.3902783203125,0.0,0.0,0.0,0.0,0.0,0.0,-0.053,0.0,0.0,0.0,0.0,0.0,0.0,0.3863292657240201,0.0,0.0,0.0,0.0,0.0,0.0,-0.004
367,0.0,0.0,0.0,0.0,0.0,0.0,0.3898779296875,0.0,0.0,0.0,0.0,0.0,0.0,-0.044,0.0,0.0,0.0,0.0,0.0,0.0,0.3858051919887453,0.0,0.0,0.0,0.0,0.0,0.0,-0.024
368,0.0,0.0,0.0,0.0,0.0,0.0,0.38946484375,0.0,0.0,0.0,0.0,0.0,0.0,-0.045,0.0,0.0,0.0,0.0,0.0,0.0,0.3852549379899033,0.0,0.0,0.0,0.0,0.0,0.0,0.0
369,0.0,0.0,0.0,0.0,0.0,0.0,0.3890517578125,0.0,0.0,0.0,0.0,0.0,0.0,-0.035,0.0,0.0,0.0,0.0,0.0,0.0,0.3847300006322918,0.0,0.0,0.0,0.0,0.0,0.0,0.004
370,0.0,0.0,0.0,0.0,0.0,0.0,0.388638671875,0.0,0.0,0.0,0.0,0.0,0.0,-0.035,0.0,0.0,0.0,0.0,0.0,0.0,0.3841777576105341,0.0,0.0,0.0,0.0,0.0,0.0,0.0
371,0.0,0.0,0.0,0.0,0.0,0.0,0.388431640625,0.0,0.0,0.0,0.0,0.0,0.0,-0.033,0.0,0.0,0.0,0.0,0.0,0.0,0.3836128401905214,0.0,0.0,0.0,0.0,0.0,0.0,-0.012
372,0.0,0.0,0.0,0.0,0.0,0.0,0.3880185546875,0.0,0.0,0.0,0.0,0.0,0.0,-0.035,0.0,0.0,0.0,0.0,0.0,0.0,0.3830466865638998,0.0,0.0,0.0,0.0,0.0,0.0,-0.016
373,0.0,0.0,0.0,0.0,0.0,0.0,0.387412109375,0.0,0.0,0.0,0.0,0.0,0.0,-0.044,0.0,0.0,0.0,0.0,0.0,0.0,0.382462528892086,0.0,0.0,0.0,0.0,0.0,0.0,-0.012
374,0.0,0.0,0.0,0.0,0.0,0.0,0.3869990234375,0.0,0.0,0.0,0.0,0.0,0.0,-0.058,0.0,0.0,0.0,0.0,0.0,0.0,0.38186900031549853,0.0,0.0,0.0,0.0,0.0,0.0,-0.032
375,0.0,0.0,0.0,0.0,0.0,0.0,0.38637890625,0.0,0.0,0.0,0.0,0.0,0.0,-0.058,0.0,0.0,0.0,0.0,0.0,0.0,0.3812716390293648,0.0,0.0,0.0,0.0,0.0,0.0,-0.016
376,0.0,0.0,0.0,0.0,0.0,0.0,0.3857587890625,0.0,0.0,0.0,0.0,0.0,0.0,-0.06,0.0,0.0,0.0,0.0,0.0,0.0,0.3806606573946496,0.0,0.0,0.0,0.0,0.0,0.0,-0.036
377,0.0,0.0,0.0,0.0,0.0,0.0,0.38515234375,0.0,0.0,0.0,0.0,0.0,0.0,-0.061,0.0,0.0,0.0,0.0,0.0,0.0,0.38003705137039123,0.0,0.0,0.0,0.0,0.0,0.0,-0.032
378,0.0,0.0,0.0,0.0,0.0,0.0,0.3845322265625,0.0,0.0,0.0,0.0,0.0,0.0,-0.063,0.0,0.0,0.0,0.0,0.0,0.0,0.3794185005460975,0.0,0.0,0.0,0.0,0.0,0.0,-0.068
379,0.0,0.0,0.0,0.0,0.0,0.0,0.3839130859375,0.0,0.0,0.0,0.0,0.0,0.0,-0.066,0.0,0.0,0.0,0.0,0.0,0.0,0.37878028463884705,0.0,0.0,0.0,0.0,0.0,0.0,-0.064
380,0.0,0.0,0.0,0.0,0.0,0.0,0.383099609375,0.0,0.0,0.0,0.0,0.0,0.0,-0.069,0.0,0.0,0.0,0.0,0.0,0.0,0.3781139448577871,0.0,0.0,0.0,0.0,0.0,0.0,-0.044
381,0.0,0.0,0.0,0.0,0.0,0.0,0.3822734375,0.0,0.0,0.0,0.0,0.0,0.0,-0.081,0.0,0.0,0.0,0.0,0.0,0.0,0.3774781089791686,0.0,0.0,0.0,0.0,0.0,0.0,-0.052
382,0.0,0.0,0.0,0.0,0.0,0.0,0.3816533203125,0.0,0.0,0.0,0.0,0.0,0.0,-0.078,0.0,0.0,0.0,0.0,0.0,0.0,0.37680672183304714,0.0,0.0,0.0,0.0,0.0,0.0,-0.068
383,0.0,0.0,0.0,0.0,0.0,0.0,0.38083984375,0.0,0.0,0.0,0.0,0.0,0.0,-0.068,0.0,0.0,0.0,0.0,0.0,0.0,0.37613047816465817,0.0,0.0,0.0,0.0,0.0,0.0,-0.052
384,0.0,0.0,0.0,0.0,0.0,0.0,0.380220703125,0.0,0.0,0.0,0.0,0.0,0.0,-0.069,0.0,0.0,0.0,0.0,0.0,0.0,0.3754487513770187,0.0,0.0,0.0,0.0,0.0,0.0,-0.036
385,0.0,0.0,0.0,0.0,0.0,0.0,0.3796005859375,0.0,0.0,0.0,0.0,0.0,0.0,-0.07,0.0,0.0,0.0,0.0,0.0,0.0,0.37474983137134416,0.0,0.0,0.0,0.0,0.0,0.0,-0.052
386,0.0,0.0,0.0,0.0,0.0,0.0,0.3789814453125,0.0,0.0,0.0,0.0,0.0,0.0,-0.064,0.0,0.0,0.0,0.0,0.0,0.0,0.37404396077085333,0.0,0.0,0.0,0.0,0.0,0.0,-0.044
387,0.0,0.0,0.0,0.0,0.0,0.0,0.3783740234375,0.0,0.0,0.0,0.0,0.0,0.0,-0.064,0.0,0.0,0.0,0.0,0.0,0.0,0.37332088253446716,0.0,0.0,0.0,0.0,0.0,0.0,-0.044
388,0.0,0.0,0.0,0.0,0.0,0.0,0.3777548828125,0.0,0.0,0.0,0.0,0.0,0.0,-0.064,0.0,0.0,0.0,0.0,0.0,0.0,0.3726151356538065,0.0,0.0,0.0,0.0,0.0,0.0,-0.052
389,0.0,0.0,0.0,0.0,0.0,0.0,0.377134765625,0.0,0.0,0.0,0.0,0.0,0.0,-0.061,0.0,0.0,0.0,0.0,0.0,0.0,0.37187773092079146,0.0,0.0,0.0,0.0,0.0,0.0,-0.044
390,0.0,0.0,0.0,0.0,0.0,0.0,0.3763212890625,0.0,0.0,0.0,0.0,0.0,0.0,-0.076,0.0,0.0,0.0,0.0,0.0,0.0,0.3711349283037113,0.0,0.0,0.0,0.0,0.0,0.0,-0.044
391,0.0,0.0,0.0,0.0,0.0,0.0,0.3754951171875,0.0,0.0,0.0,0.0,0.0,0.0,-0.081,0.0,0.0,0.0,0.0,0.0,0.0,0.3703915788122331,0.0,0.0,0.0,0.0,0.0,0.0,-0.036
392,0.0,0.0,0.0,0.0,0.0,0.0,0.374875,0.0,0.0,0.0,0.0,0.0,0.0,-0.073,0.0,0.0,0.0,0.0,0.0,0.0,0.3696305814451024,0.0,0.0,0.0,0.0,0.0,0.0,-0.036
393,0.0,0.0,0.0,0.0,0.0,0.0,0.3740615234375,0.0,0.0,0.0,0.0,0.0,0.0,-0.068,0.0,0.0,0.0,0.0,0.0,0.0,0.36885798962709077,0.0,0.0,0.0,0.0,0.0,0.0,-0.052
394,0.0,0.0,0.0,0.0,0.0,0.0,0.3734423828125,0.0,0.0,0.0,0.0,0.0,0.0,-0.074,0.0,0.0,0.0,0.0,0.0,0.0,0.3680868985465582,0.0,0.0,0.0,0.0,0.0,0.0,-0.052
395,0.0,0.0,0.0,0.0,0.0,0.0,0.3724091796875,0.0,0.0,0.0,0.0,0.0,0.0,-0.083,0.0,0.0,0.0,0.0,0.0,0.0,0.36729703066693514,0.0,0.0,0.0,0.0,0.0,0.0,-0.056
396,0.0,0.0,0.0,0.0,0.0,0.0,0.371595703125,0.0,0.0,0.0,0.0,0.0,0.0,-0.086,0.0,0.0,0.0,0.0,0.0,0.0,0.36649263166015,0.0,0.0,0.0,0.0,0.0,0.0,-0.036
397,0.0,0.0,0.0,0.0,0.0,0.0,0.3709765625,0.0,0.0,0.0,0.0,0.0,0.0,-0.074,0.0,0.0,0.0,0.0,0.0,0.0,0.3656943691617167,0.0,0.0,0.0,0.0,0.0,0.0,-0.044
398,0.0,0.0,0.0,0.0,0.0,0.0,0.370150390625,0.0,0.0,0.0,0.0,0.0,0.0,-0.077,0.0,0.0,0.0,0.0,0.0,0.0,0.3648812351004039,0.0,0.0,0.0,0.0,0.0,0.0,-0.012
399,0.0,0.0,0.0,0.0,0.0,0.0,0.3693369140625,0.0,0.0,0.0,0.0,0.0,0.0,-0.085,0.0,0.0,0.0,0.0,0.0,0.0,0.3640490817933865,0.0,0.0,0.0,0.0,0.0,0.0,-0.012
400,0.0,0.0,0.0,0.0,0.0,0.0,0.368509765625,0.0,0.0,0.0,0.0,0.0,0.0,-0.088,0.0,0.0,0.0,0.0,0.0,0.0,0.36321443962504374,0.0,0.0,0.0,0.0,0.0,0.0,-0.016
401,0.0,0.0,0.0,0.0,0.0,0.0,0.367490234375,0.0,0.0,0.0,0.0,0.0,0.0,-0.086,0.0,0.0,0.0,0.0,0.0,0.0,0.3623774500370206,0.0,0.0,0.0,0.0,0.0,0.0,0.004
402,0.0,0.0,0.0,0.0,0.0,0.0,0.3666640625,0.0,0.0,0.0,0.0,0.0,0.0,-0.092,0.0,0.0,0.0,0.0,0.0,0.0,0.36152141432777357,0.0,0.0,0.0,0.0,0.0,0.0,0.004
403,0.0,0.0,0.0,0.0,0.0,0.0,0.3660439453125,0.0,0.0,0.0,0.0,0.0,0.0,-0.076,0.0,0.0,0.0,0.0,0.0,0.0,0.3606673143594453,0.0,0.0,0.0,0.0,0.0,0.0,0.032
404,0.0,0.0,0.0,0.0,0.0,0.0,0.365630859375,0.0,0.0,0.0,0.0,0.0,0.0,-0.04,0.0,0.0,0.0,0.0,0.0,0.0,0.35979989129519907,0.0,0.0,0.0,0.0,0.0,0.0,0.024
405,0.0,0.0,0.0,0.0,0.0,0.0,0.3648173828125,0.0,0.0,0.0,0.0,0.0,0.0,-0.065,0.0,0.0,0.0,0.0,0.0,0.0,0.3589156408976642,0.0,0.0,0.0,0.0,0.0,0.0,0.044
406,0.0,0.0,0.0,0.0,0.0,0.0,0.36378515625,0.0,0.0,0.0,0.0,0.0,0.0,-0.097,0.0,0.0,0.0,0.0,0.0,0.0,0.35803120650050224,0.0,0.0,0.0,0.0,0.0,0.0,0.064
407,0.0,0.0,0.0,0.0,0.0,0.0,0.3629716796875,0.0,0.0,0.0,0.0,0.0,0.0,-0.083,0.0,0.0,0.0,0.0,0.0,0.0,0.3571337353796581,0.0,0.0,0.0,0.0,0.0,0.0,0.068
408,0.0,0.0,0.0,0.0,0.0,0.0,0.3619384765625,0.0,0.0,0.0,0.0,0.0,0.0,-0.095,0.0,0.0,0.0,0.0,0.0,0.0,0.35622251914583575,0.0,0.0,0.0,0.0,0.0,0.0,0.044
409,0.0,0.0,0.0,0.0,0.0,0.0,0.3609189453125,0.0,0.0,0.0,0.0,0.0,0.0,-0.112,0.0,0.0,0.0,0.0,0.0,0.0,0.35531005521443776,0.0,0.0,0.0,0.0,0.0,0.0,0.068
410,0.0,0.0,0.0,0.0,0.0,0.0,0.3596787109375,0.0,0.0,0.0,0.0,0.0,0.0,-0.112,0.0,0.0,0.0,0.0,0.0,0.0,0.3543790118776762,0.0,0.0,0.0,0.0,0.0,0.0,0.056
411,0.0,0.0,0.0,0.0,0.0,0.0,0.3586591796875,0.0,0.0,0.0,0.0,0.0,0.0,-0.115,0.0,0.0,0.0,0.0,0.0,0.0,0.3534507666314088,0.0,0.0,0.0,0.0,0.0,0.0,0.088
412,0.0,0.0,0.0,0.0,0.0,0.0,0.3576259765625,0.0,0.0,0.0,0.0,0.0,0.0,-0.111,0.0,0.0,0.0,0.0,0.0,0.0,0.35250931636776733,0.0,0.0,0.0,0.0,0.0,0.0,0.064
413,0.0,0.0,0.0,0.0,0.0,0.0,0.35659375,0.0,0.0,0.0,0.0,0.0,0.0,-0.1,0.0,0.0,0.0,0.0,0.0,0.0,0.35157170975800733,0.0,0.0,0.0,0.0,0.0,0.0,0.052
414,0.0,0.0,0.0,0.0,0.0,0.0,0.3557802734375,0.0,0.0,0.0,0.0,0.0,0.0,-0.096,0.0,0.0,0.0,0.0,0.0,0.0,0.350601778397363,0.0,0.0,0.0,0.0,0.0,0.0,0.068
415,0.0,0.0,0.0,0.0,0.0,0.0,0.3549541015625,0.0,0.0,0.0,0.0,0.0,0.0,-0.089,0.0,0.0,0.0,0.0,0.0,0.0,0.34964626382075226,0.0,0.0,0.0,0.0,0.0,0.0,0.036
416,0.0,0.0,0.0,0.0,0.0,0.0,0.354140625,0.0,0.0,0.0,0.0,0.0,0.0,-0.078,0.0,0.0,0.0,0.0,0.0,0.0,0.3486696680200448,0.0,0.0,0.0,0.0,0.0,0.0,0.016
417,0.0,0.0,0.0,0.0,0.0,0.0,0.353314453125,0.0,0.0,0.0,0.0,0.0,0.0,-0.079,0.0,0.0,0.0,0.0,0.0,0.0,0.3476642757182167,0.0,0.0,0.0,0.0,0.0,0.0,0.016
418,0.0,0.0,0.0,0.0,0.0,0.0,0.3524873046875,0.0,0.0,0.0,0.0,0.0,0.0,-0.09,0.0,0.0,0.0,0.0,0.0,0.0,0.3466969202974531,0.0,0.0,0.0,0.0,0.0,0.0,0.016
419,0.0,0.0,0.0,0.0,0.0,0.0,0.3514677734375,0.0,0.0,0.0,0.0,0.0,0.0,-0.087,0.0,0.0,0.0,0.0,0.0,0.0,0.34568874599577687,0.0,0.0,0.0,0.0,0.0,0.0,0.032
420,0.0,0.0,0.0,0.0,0.0,0.0,0.3504345703125,0.0,0.0,0.0,0.0,0.0,0.0,-0.099,0.0,0.0,0.0,0.0,0.0,0.0,0.34466531114198895,0.0,0.0,0.0,0.0,0.0,0.0,0.0
421,0.0,0.0,0.0,0.0,0.0,0.0,0.34962109375,0.0,0.0,0.0,0.0,0.0,0.0,-0.1,0.0,0.0,0.0,0.0,0.0,0.0,0.3436371394917554,0.0,0.0,0.0,0.0,0.0,0.0,0.004
422,0.0,0.0,0.0,0.0,0.0,0.0,0.3483818359375,0.0,0.0,0.0,0.0,0.0,0.0,-0.104,0.0,0.0,0.0,0.0,0.0,0.0,0.34263489991748974,0.0,0.0,0.0,0.0,0.0,0.0,-0.004
423,0.0,0.0,0.0,0.0,0.0,0.0,0.347568359375,0.0,0.0,0.0,0.0,0.0,0.0,-0.104,0.0,0.0,0.0,0.0,0.0,0.0,0.34158531963202055,0.0,0.0,0.0,0.0,0.0,0.0,-0.024
424,0.0,0.0,0.0,0.0,0.0,0.0,0.3465361328125,0.0,0.0,0.0,0.0,0.0,0.0,-0.098,0.0,0.0,0.0,0.0,0.0,0.0,0.34054561664412997,0.0,0.0,0.0,0.0,0.0,0.0,-0.064
425,0.0,0.0,0.0,0.0,0.0,0.0,0.3453095703125,0.0,0.0,0.0,0.0,0.0,0.0,-0.111,0.0,0.0,0.0,0.0,0.0,0.0,0.3394925423808912,0.0,0.0,0.0,0.0,0.0,0.0,-0.016
426,0.0,0.0,0.0,0.0,0.0,0.0,0.3444833984375,0.0,0.0,0.0,0.0,0.0,0.0,-0.104,0.0,0.0,0.0,0.0,0.0,0.0,0.3384150733128677,0.0,0.0,0.0,0.0,0.0,0.0,-0.044
427,0.0,0.0,0.0,0.0,0.0,0.0,0.3434501953125,0.0,0.0,0.0,0.0,0.0,0.0,-0.098,0.0,0.0,0.0,0.0,0.0,0.0,0.3373686856069389,0.0,0.0,0.0,0.0,0.0,0.0,-0.064
428,0.0,0.0,0.0,0.0,0.0,0.0,0.3424296875,0.0,0.0,0.0,0.0,0.0,0.0,-0.104,0.0,0.0,0.0,0.0,0.0,0.0,0.33628563217959884,0.0,0.0,0.0,0.0,0.0,0.0,-0.088
429,0.0,0.0,0.0,0.0,0.0,0.0,0.3411904296875,0.0,0.0,0.0,0.0,0.0,0.0,-0.11,0.0,0.0,0.0,0.0,0.0,0.0,0.33519105971177265,0.0,0.0,0.0,0.0,0.0,0.0,-0.064
430,0.0,0.0,0.0,0.0,0.0,0.0,0.340376953125,0.0,0.0,0.0,0.0,0.0,0.0,-0.101,0.0,0.0,0.0,0.0,0.0,0.0,0.33410194268646753,0.0,0.0,0.0,0.0,0.0,0.0,-0.104
431,0.0,0.0,0.0,0.0,0.0,0.0,0.3393447265625,0.0,0.0,0.0,0.0,0.0,0.0,-0.105,0.0,0.0,0.0,0.0,0.0,0.0,0.3329941625051078,0.0,0.0,0.0,0.0,0.0,0.0,-0.088
432,0.0,0.0,0.0,0.0,0.0,0.0,0.33832421875,0.0,0.0,0.0,0.0,0.0,0.0,-0.097,0.0,0.0,0.0,0.0,0.0,0.0,0.33184954186031046,0.0,0.0,0.0,0.0,0.0,0.0,-0.104
433,0.0,0.0,0.0,0.0,0.0,0.0,0.3370849609375,0.0,0.0,0.0,0.0,0.0,0.0,-0.106,0.0,0.0,0.0,0.0,0.0,0.0,0.3307688988561357,0.0,0.0,0.0,0.0,0.0,0.0,-0.12
434,0.0,0.0,0.0,0.0,0.0,0.0,0.3358583984375,0.0,0.0,0.0,0.0,0.0,0.0,-0.123,0.0,0.0,0.0,0.0,0.0,0.0,0.32964208218112023,0.0,0.0,0.0,0.0,0.0,0.0,-0.128
435,0.0,0.0,0.0,0.0,0.0,0.0,0.334619140625,0.0,0.0,0.0,0.0,0.0,0.0,-0.123,0.0,0.0,0.0,0.0,0.0,0.0,0.3284947009246713,0.0,0.0,0.0,0.0,0.0,0.0,-0.104
436,0.0,0.0,0.0,0.0,0.0,0.0,0.3335986328125,0.0,0.0,0.0,0.0,0.0,0.0,-0.115,0.0,0.0,0.0,0.0,0.0,0.0,0.32734701392356713,0.0,0.0,0.0,0.0,0.0,0.0,-0.12
437,0.0,0.0,0.0,0.0,0.0,0.0,0.33256640625,0.0,0.0,0.0,0.0,0.0,0.0,-0.109,0.0,0.0,0.0,0.0,0.0,0.0,0.32619919514777646,0.0,0.0,0.0,0.0,0.0,0.0,-0.116
438,0.0,0.0,0.0,0.0,0.0,0.0,0.33133984375,0.0,0.0,0.0,0.0,0.0,0.0,-0.118,0.0,0.0,0.0,0.0,0.0,0.0,0.3250404107024622,0.0,0.0,0.0,0.0,0.0,0.0,-0.116
439,0.0,0.0,0.0,0.0,0.0,0.0,0.330306640625,0.0,0.0,0.0,0.0,0.0,0.0,-0.106,0.0,0.0,0.0,0.0,0.0,0.0,0.32386178569550306,0.0,0.0,0.0,0.0,0.0,0.0,-0.12
440,0.0,0.0,0.0,0.0,0.0,0.0,0.329080078125,0.0,0.0,0.0,0.0,0.0,0.0,-0.116,0.0,0.0,0.0,0.0,0.0,0.0,0.32269528535058445,0.0,0.0,0.0,0.0,0.0,0.0,-0.14
441,0.0,0.0,0.0,0.0,0.0,0.0,0.328046875,0.0,0.0,0.0,0.0,0.0,0.0,-0.117,0.0,0.0,0.0,0.0,0.0,0.0,0.3215066879241626,0.0,0.0,0.0,0.0,0.0,0.0,-0.108
442,0.0,0.0,0.0,0.0,0.0,0.0,0.32702734375,0.0,0.0,0.0,0.0,0.0,0.0,-0.111,0.0,0.0,0.0,0.0,0.0,0.0,0.3202939922689203,0.0,0.0,0.0,0.0,0.0,0.0,-0.108
443,0.0,0.0,0.0,0.0,0.0,0.0,0.3255947265625,0.0,0.0,0.0,0.0,0.0,0.0,-0.114,0.0,0.0,0.0,0.0,0.0,0.0,0.31910762745054977,0.0,0.0,0.0,0.0,0.0,0.0,-0.12
444,0.0,0.0,0.0,0.0,0.0,0.0,0.3243544921875,0.0,0.0,0.0,0.0,0.0,0.0,-0.132,0.0,0.0,0.0,0.0,0.0,0.0,0.31789297212950995,0.0,0.0,0.0,0.0,0.0,0.0,-0.088
445,0.0,0.0,0.0,0.0,0.0,0.0,0.3231279296875,0.0,0.0,0.0,0.0,0.0,0.0,-0.124,0.0,0.0,0.0,0.0,0.0,0.0,0.316673016498355,0.0,0.0,0.0,0.0,0.0,0.0,-0.104
446,0.0,0.0,0.0,0.0,0.0,0.0,0.321888671875,0.0,0.0,0.0,0.0,0.0,0.0,-0.118,0.0,0.0,0.0,0.0,0.0,0.0,0.3154651419303939,0.0,0.0,0.0,0.0,0.0,0.0,-0.056
447,0.0,0.0,0.0,0.0,0.0,0.0,0.320869140625,0.0,0.0,0.0,0.0,0.0,0.0,-0.125,0.0,0.0,0.0,0.0,0.0,0.0,0.31422488489532874,0.0,0.0,0.0,0.0,0.0,0.0,-0.068
448,0.0,0.0,0.0,0.0,0.0,0.0,0.3196298828125,0.0,0.0,0.0,0.0,0.0,0.0,-0.114,0.0,0.0,0.0,0.0,0.0,0.0,0.3129727974614931,0.0,0.0,0.0,0.0,0.0,0.0,-0.064
449,0.0,0.0,0.0,0.0,0.0,0.0,0.3184033203125,0.0,0.0,0.0,0.0,0.0,0.0,-0.122,0.0,0.0,0.0,0.0,0.0,0.0,0.31173295128236744,0.0,0.0,0.0,0.0,0.0,0.0,-0.068
450,0.0,0.0,0.0,0.0,0.0,0.0,0.3171630859375,0.0,0.0,0.0,0.0,0.0,0.0,-0.126,0.0,0.0,0.0,0.0,0.0,0.0,0.31047595979156806,0.0,0.0,0.0,0.0,0.0,0.0,-0.052
451,0.0,0.0,0.0,0.0,0.0,0.0,0.3159365234375,0.0,0.0,0.0,0.0,0.0,0.0,-0.118,0.0,0.0,0.0,0.0,0.0,0.0,0.3092032219689935,0.0,0.0,0.0,0.0,0.0,0.0,-0.064
452,0.0,0.0,0.0,0.0,0.0,0.0,0.3147099609375,0.0,0.0,0.0,0.0,0.0,0.0,-0.125,0.0,0.0,0.0,0.0,0.0,0.0,0.30793044929026014,0.0,0.0,0.0,0.0,0.0,0.0,-0.052
453,0.0,0.0,0.0,0.0,0.0,0.0,0.313470703125,0.0,0.0,0.0,0.0,0.0,0.0,-0.131,0.0,0.0,0.0,0.0,0.0,0.0,0.3066603559890512,0.0,0.0,0.0,0.0,0.0,0.0,-0.036
454,0.0,0.0,0.0,0.0,0.0,0.0,0.312244140625,0.0,0.0,0.0,0.0,0.0,0.0,-0.125,0.0,0.0,0.0,0.0,0.0,0.0,0.3053629764470098,0.0,0.0,0.0,0.0,0.0,0.0,-0.056
455,0.0,0.0,0.0,0.0,0.0,0.0,0.3110048828125,0.0,0.0,0.0,0.0,0.0,0.0,-0.123,0.0,0.0,0.0,0.0,0.0,0.0,0.30407343480667365,0.0,0.0,0.0,0.0,0.0,0.0,-0.056
456,0.0,0.0,0.0,0.0,0.0,0.0,0.309572265625,0.0,0.0,0.0,0.0,0.0,0.0,-0.132,0.0,0.0,0.0,0.0,0.0,0.0,0.30276551848282907,0.0,0.0,0.0,0.0,0.0,0.0,-0.032
457,0.0,0.0,0.0,0.0,0.0,0.0,0.308345703125,0.0,0.0,0.0,0.0,0.0,0.0,-0.127,0.0,0.0,0.0,0.0,0.0,0.0,0.3011775425726596,0.0,0.0,0.0,0.0,0.0,0.0,-0.016
458,0.0,0.0,0.0,0.0,0.0,0.0,0.30710546875,0.0,0.0,0.0,0.0,0.0,0.0,-0.126,0.0,0.0,0.0,0.0,0.0,0.0,0.3001441531421921,0.0,0.0,0.0,0.0,0.0,0.0,-0.016
459,0.0,0.0,0.0,0.0,0.0,0.0,0.30587890625,0.0,0.0,0.0,0.0,0.0,0.0,-0.125,0.0,0.0,0.0,0.0,0.0,0.0,0.29882142495545744,0.0,0.0,0.0,0.0,0.0,0.0,-0.012
460,0.0,0.0,0.0,0.0,0.0,0.0,0.30443359375,0.0,0.0,0.0,0.0,0.0,0.0,-0.131,0.0,0.0,0.0,0.0,0.0,0.0,0.29747439793180924,0.0,0.0,0.0,0.0,0.0,0.0,-0.024
461,0.0,0.0,0.0,0.0,0.0,0.0,0.3027939453125,0.0,0.0,0.0,0.0,0.0,0.0,-0.156,0.0,0.0,0.0,0.0,0.0,0.0,0.2961354873622688,0.0,0.0,0.0,0.0,0.0,0.0,0.004
462,0.0,0.0,0.0,0.0,0.0,0.0,0.301154296875,0.0,0.0,0.0,0.0,0.0,0.0,-0.162,0.0,0.0,0.0,0.0,0.0,0.0,0.2948026014141008,0.0,0.0,0.0,0.0,0.0,0.0,-0.036
463,0.0,0.0,0.0,0.0,0.0,0.0,0.299720703125,0.0,0.0,0.0,0.0,0.0,0.0,-0.156,0.0,0.0,0.0,0.0,0.0,0.0,0.2934365556671986,0.0,0.0,0.0,0.0,0.0,0.0,-0.056
464,0.0,0.0,0.0,0.0,0.0,0.0,0.2982744140625,0.0,0.0,0.0,0.0,0.0,0.0,-0.148,0.0,0.0,0.0,0.0,0.0,0.0,0.292070585366832,0.0,0.0,0.0,0.0,0.0,0.0,-0.064
465,0.0,0.0,0.0,0.0,0.0,0.0,0.2970478515625,0.0,0.0,0.0,0.0,0.0,0.0,-0.137,0.0,0.0,0.0,0.0,0.0,0.0,0.2907107088189436,0.0,0.0,0.0,0.0,0.0,0.0,-0.068
466,0.0,0.0,0.0,0.0,0.0,0.0,0.29580859375,0.0,0.0,0.0,0.0,0.0,0.0,-0.124,0.0,0.0,0.0,0.0,0.0,0.0,0.2893320833455648,0.0,0.0,0.0,0.0,0.0,0.0,-0.076
467,0.0,0.0,0.0,0.0,0.0,0.0,0.29458203125,0.0,0.0,0.0,0.0,0.0,0.0,-0.124,0.0,0.0,0.0,0.0,0.0,0.0,0.2879369439103706,0.0,0.0,0.0,0.0,0.0,0.0,-0.064
468,0.0,0.0,0.0,0.0,0.0,0.0,0.2933427734375,0.0,0.0,0.0,0.0,0.0,0.0,-0.126,0.0,0.0,0.0,0.0,0.0,0.0,0.28656028075285567,0.0,0.0,0.0,0.0,0.0,0.0,-0.052
469,0.0,0.0,0.0,0.0,0.0,0.0,0.2919091796875,0.0,0.0,0.0,0.0,0.0,0.0,-0.133,0.0,0.0,0.0,0.0,0.0,0.0,0.2851269505531383,0.0,0.0,0.0,0.0,0.0,0.0,-0.084
470,0.0,0.0,0.0,0.0,0.0,0.0,0.2906826171875,0.0,0.0,0.0,0.0,0.0,0.0,-0.139,0.0,0.0,0.0,0.0,0.0,0.0,0.28374042411895617,0.0,0.0,0.0,0.0,0.0,0.0,-0.052
471,0.0,0.0,0.0,0.0,0.0,0.0,0.2892373046875,0.0,0.0,0.0,0.0,0.0,0.0,-0.138,0.0,0.0,0.0,0.0,0.0,0.0,0.28234034731968255,0.0,0.0,0.0,0.0,0.0,0.0,-0.052
472,0.0,0.0,0.0,0.0,0.0,0.0,0.2878037109375,0.0,0.0,0.0,0.0,0.0,0.0,-0.138,0.0,0.0,0.0,0.0,0.0,0.0,0.2809058810413455,0.0,0.0,0.0,0.0,0.0,0.0,-0.052
473,0.0,0.0,0.0,0.0,0.0,0.0,0.28637109375,0.0,0.0,0.0,0.0,0.0,0.0,-0.149,0.0,0.0,0.0,0.0,0.0,0.0,0.27946967544440177,0.0,0.0,0.0,0.0,0.0,0.0,-0.052
474,0.0,0.0,0.0,0.0,0.0,0.0,0.2851318359375,0.0,0.0,0.0,0.0,0.0,0.0,-0.136,0.0,0.0,0.0,0.0,0.0,0.0,0.27805556880866605,0.0,0.0,0.0,0.0,0.0,0.0,-0.064
475,0.0,0.0,0.0,0.0,0.0,0.0,0.2836982421875,0.0,0.0,0.0,0.0,0.0,0.0,-0.141,0.0,0.0,0.0,0.0,0.0,0.0,0.27660019283828235,0.0,0.0,0.0,0.0,0.0,0.0,-0.044
476,0.0,0.0,0.0,0.0,0.0,0.0,0.282265625,0.0,0.0,0.0,0.0,0.0,0.0,-0.14,0.0,0.0,0.0,0.0,0.0,0.0,0.2751624427939903,0.0,0.0,0.0,0.0,0.0,0.0,-0.036
477,0.0,0.0,0.0,0.0,0.0,0.0,0.2808193359375,0.0,0.0,0.0,0.0,0.0,0.0,-0.14,0.0,0.0,0.0,0.0,0.0,0.0,0.27371307918253257,0.0,0.0,0.0,0.0,0.0,0.0,-0.012
478,0.0,0.0,0.0,0.0,0.0,0.0,0.2795927734375,0.0,0.0,0.0,0.0,0.0,0.0,-0.143,0.0,0.0,0.0,0.0,0.0,0.0,0.27223893440859576,0.0,0.0,0.0,0.0,0.0,0.0,0.004
479,0.0,0.0,0.0,0.0,0.0,0.0,0.278353515625,0.0,0.0,0.0,0.0,0.0,0.0,-0.127,0.0,0.0,0.0,0.0,0.0,0.0,0.2707658012549061,0.0,0.0,0.0,0.0,0.0,0.0,0.036
480,0.0,0.0,0.0,0.0,0.0,0.0,0.276919921875,0.0,0.0,0.0,0.0,0.0,0.0,-0.127,0.0,0.0,0.0,0.0,0.0,0.0,0.2693019714835953,0.0,0.0,0.0,0.0,0.0,0.0,0.016
481,0.0,0.0,0.0,0.0,0.0,0.0,0.275693359375,0.0,0.0,0.0,0.0,0.0,0.0,-0.124,0.0,0.0,0.0,0.0,0.0,0.0,0.26781950856804787,0.0,0.0,0.0,0.0,0.0,0.0,0.004
482,0.0,0.0,0.0,0.0,0.0,0.0,0.2744541015625,0.0,0.0,0.0,0.0,0.0,0.0,-0.131,0.0,0.0,0.0,0.0,0.0,0.0,0.2663186781243075,0.0,0.0,0.0,0.0,0.0,0.0,0.056
483,0.0,0.0,0.0,0.0,0.0,0.0,0.272814453125,0.0,0.0,0.0,0.0,0.0,0.0,-0.144,0.0,0.0,0.0,0.0,0.0,0.0,0.26483238179767116,0.0,0.0,0.0,0.0,0.0,0.0,0.056
484,0.0,0.0,0.0,0.0,0.0,0.0,0.271380859375,0.0,0.0,0.0,0.0,0.0,0.0,-0.152,0.0,0.0,0.0,0.0,0.0,0.0,0.2633130570906094,0.0,0.0,0.0,0.0,0.0,0.0,0.024
485,0.0,0.0,0.0,0.0,0.0,0.0,0.269935546875,0.0,0.0,0.0,0.0,0.0,0.0,-0.15,0.0,0.0,0.0,0.0,0.0,0.0,0.2618019604403939,0.0,0.0,0.0,0.0,0.0,0.0,0.032
486,0.0,0.0,0.0,0.0,0.0,0.0,0.2680888671875,0.0,0.0,0.0,0.0,0.0,0.0,-0.161,0.0,0.0,0.0,0.0,0.0,0.0,0.26030710906349247,0.0,0.0,0.0,0.0,0.0,0.0,0.036
487,0.0,0.0,0.0,0.0,0.0,0.0,0.26644921875,0.0,0.0,0.0,0.0,0.0,0.0,-0.171,0.0,0.0,0.0,0.0,0.0,0.0,0.25877065603601374,0.0,0.0,0.0,0.0,0.0,0.0,-0.004
488,0.0,0.0,0.0,0.0,0.0,0.0,0.264796875,0.0,0.0,0.0,0.0,0.0,0.0,-0.176,0.0,0.0,0.0,0.0,0.0,0.0,0.2572570035182212,0.0,0.0,0.0,0.0,0.0,0.0,-0.004
489,0.0,0.0,0.0,0.0,0.0,0.0,0.2631572265625,0.0,0.0,0.0,0.0,0.0,0.0,-0.171,0.0,0.0,0.0,0.0,0.0,0.0,0.25572846256959936,0.0,0.0,0.0,0.0,0.0,0.0,-0.004
490,0.0,0.0,0.0,0.0,0.0,0.0,0.26150390625,0.0,0.0,0.0,0.0,0.0,0.0,-0.158,0.0,0.0,0.0,0.0,0.0,0.0,0.2541704207709085,0.0,0.0,0.0,0.0,0.0,0.0,-0.036
491,0.0,0.0,0.0,0.0,0.0,0.0,0.2598642578125,0.0,0.0,0.0,0.0,0.0,0.0,-0.171,0.0,0.0,0.0,0.0,0.0,0.0,0.252631431244596,0.0,0.0,0.0,0.0,0.0,0.0,-0.024
492,0.0,0.0,0.0,0.0,0.0,0.0,0.2580185546875,0.0,0.0,0.0,0.0,0.0,0.0,-0.172,0.0,0.0,0.0,0.0,0.0,0.0,0.25107283194595037,0.0,0.0,0.0,0.0,0.0,0.0,-0.056
493,0.0,0.0,0.0,0.0,0.0,0.0,0.25637890625,0.0,0.0,0.0,0.0,0.0,0.0,-0.175,0.0,0.0,0.0,0.0,0.0,0.0,0.24951231471504604,0.0,0.0,0.0,0.0,0.0,0.0,-0.084
494,0.0,0.0,0.0,0.0,0.0,0.0,0.2549326171875,0.0,0.0,0.0,0.0,0.0,0.0,-0.168,0.0,0.0,0.0,0.0,0.0,0.0,0.24794645415893635,0.0,0.0,0.0,0.0,0.0,0.0,-0.104
495,0.0,0.0,0.0,0.0,0.0,0.0,0.2537060546875,0.0,0.0,0.0,0.0,0.0,0.0,-0.139,0.0,0.0,0.0,0.0,0.0,0.0,0.24637049172845238,0.0,0.0,0.0,0.0,0.0,0.0,-0.136
496,0.0,0.0,0.0,0.0,0.0,0.0,0.2524794921875,0.0,0.0,0.0,0.0,0.0,0.0,-0.121,0.0,0.0,0.0,0.0,0.0,0.0,0.24480429492287412,0.0,0.0,0.0,0.0,0.0,0.0,-0.128
497,0.0,0.0,0.0,0.0,0.0,0.0,0.2508271484375,0.0,0.0,0.0,0.0,0.0,0.0,-0.139,0.0,0.0,0.0,0.0,0.0,0.0,0.24320780852220963,0.0,0.0,0.0,0.0,0.0,0.0,-0.128
498,0.0,0.0,0.0,0.0,0.0,0.0,0.2493935546875,0.0,0.0,0.0,0.0,0.0,0.0,-0.15,0.0,0.0,0.0,0.0,0.0,0.0,0.24162871276093006,0.0,0.0,0.0,0.0,0.0,0.0,-0.136
499,0.0,0.0,0.0,0.0,0.0,0.0,0.2479609375,0.0,0.0,0.0,0.0,0.0,0.0,-0.148,0.0,0.0,0.0,0.0,0.0,0.0,0.2400270345671779,0.0,0.0,0.0,0.0,0.0,0.0,-0.148
500,0.0,0.0,0.0,0.0,0.0,0.0,0.2463212890625,0.0,0.0,0.0,0.0,0.0,0.0,-0.162,0.0,0.0,0.0,0.0,0.0,0.0,0.23842173172490289,0.0,0.0,0.0,0.0,0.0,0.0,-0.128
501,0.0,0.0,0.0,0.0,0.0,0.0,0.244875,0.0,0.0,0.0,0.0,0.0,0.0,-0.154,0.0,0.0,0.0,0.0,0.0,0.0,0.23668876672823203,0.0,0.0,0.0,0.0,0.0,0.0,-0.136
502,0.0,0.0,0.0,0.0,0.0,0.0,0.2430283203125,0.0,0.0,0.0,0.0,0.0,0.0,-0.167,0.0,0.0,0.0,0.0,0.0,0.0,0.23520796465413946,0.0,0.0,0.0,0.0,0.0,0.0,-0.136
503,0.0,0.0,0.0,0.0,0.0,0.0,0.241595703125,0.0,0.0,0.0,0.0,0.0,0.0,-0.162,0.0,0.0,0.0,0.0,0.0,0.0,0.2335771207806638,0.0,0.0,0.0,0.0,0.0,0.0,-0.148
504,0.0,0.0,0.0,0.0,0.0,0.0,0.2397490234375,0.0,0.0,0.0,0.0,0.0,0.0,-0.162,0.0,0.0,0.0,0.0,0.0,0.0,0.23195027014999314,0.0,0.0,0.0,0.0,0.0,0.0,-0.12
505,0.0,0.0,0.0,0.0,0.0,0.0,0.2380966796875,0.0,0.0,0.0,0.0,0.0,0.0,-0.17,0.0,0.0,0.0,0.0,0.0,0.0,0.23033024957514742,0.0,0.0,0.0,0.0,0.0,0.0,-0.104
506,0.0,0.0,0.0,0.0,0.0,0.0,0.2366640625,0.0,0.0,0.0,0.0,0.0,0.0,-0.169,0.0,0.0,0.0,0.0,0.0,0.0,0.2286909036204331,0.0,0.0,0.0,0.0,0.0,0.0,-0.064
507,0.0,0.0,0.0,0.0,0.0,0.0,0.2350244140625,0.0,0.0,0.0,0.0,0.0,0.0,-0.157,0.0,0.0,0.0,0.0,0.0,0.0,0.22703813656473232,0.0,0.0,0.0,0.0,0.0,0.0,-0.068
508,0.0,0.0,0.0,0.0,0.0,0.0,0.233384765625,0.0,0.0,0.0,0.0,0.0,0.0,-0.154,0.0,0.0,0.0,0.0,0.0,0.0,0.22540106098757695,0.0,0.0,0.0,0.0,0.0,0.0,-0.084
509,0.0,0.0,0.0,0.0,0.0,0.0,0.2319384765625,0.0,0.0,0.0,0.0,0.0,0.0,-0.166,0.0,0.0,0.0,0.0,0.0,0.0,0.22374471907600066,0.0,0.0,0.0,0.0,0.0,0.0,-0.064
510,0.0,0.0,0.0,0.0,0.0,0.0,0.230091796875,0.0,0.0,0.0,0.0,0.0,0.0,-0.161,0.0,0.0,0.0,0.0,0.0,0.0,0.22207642926220014,0.0,0.0,0.0,0.0,0.0,0.0,-0.044
511,0.0,0.0,0.0,0.0,0.0,0.0,0.2284521484375,0.0,0.0,0.0,0.0,0.0,0.0,-0.171,0.0,0.0,0.0,0.0,0.0,0.0,0.22041972624830475,0.0,0.0,0.0,0.0,0.0,0.0,-0.044
512,0.0,0.0,0.0,0.0,0.0,0.0,0.2268125,0.0,0.0,0.0,0.0,0.0,0.0,-0.165,0.0,0.0,0.0,0.0,0.0,0.0,0.218743004049186,0.0,0.0,0.0,0.0,0.0,0.0,-0.084
513,0.0,0.0,0.0,0.0,0.0,0.0,0.2251728515625,0.0,0.0,0.0,0.0,0.0,0.0,-0.165,0.0,0.0,0.0,0.0,0.0,0.0,0.21705489266986697,0.0,0.0,0.0,0.0,0.0,0.0,-0.056
514,0.0,0.0,0.0,0.0,0.0,0.0,0.2235205078125,0.0,0.0,0.0,0.0,0.0,0.0,-0.163,0.0,0.0,0.0,0.0,0.0,0.0,0.21538117401669524,0.0,0.0,0.0,0.0,0.0,0.0,-0.064
515,0.0,0.0,0.0,0.0,0.0,0.0,0.221880859375,0.0,0.0,0.0,0.0,0.0,0.0,-0.17,0.0,0.0,0.0,0.0,0.0,0.0,0.2134696201227303,0.0,0.0,0.0,0.0,0.0,0.0,-0.056
516,0.0,0.0,0.0,0.0,0.0,0.0,0.2202412109375,0.0,0.0,0.0,0.0,0.0,0.0,-0.173,0.0,0.0,0.0,0.0,0.0,0.0,0.21179087070003833,0.0,0.0,0.0,0.0,0.0,0.0,-0.012
517,0.0,0.0,0.0,0.0,0.0,0.0,0.21839453125,0.0,0.0,0.0,0.0,0.0,0.0,-0.168,0.0,0.0,0.0,0.0,0.0,0.0,0.21030939840655294,0.0,0.0,0.0,0.0,0.0,0.0,-0.016
518,0.0,0.0,0.0,0.0,0.0,0.0,0.216341796875,0.0,0.0,0.0,0.0,0.0,0.0,-0.195,0.0,0.0,0.0,0.0,0.0,0.0,0.2086068716655195,0.0,0.0,0.0,0.0,0.0,0.0,-0.012
519,0.0,0.0,0.0,0.0,0.0,0.0,0.2144951171875,0.0,0.0,0.0,0.0,0.0,0.0,-0.194,0.0,0.0,0.0,0.0,0.0,0.0,0.20688856823717364,0.0,0.0,0.0,0.0,0.0,0.0,-0.052
520,0.0,0.0,0.0,0.0,0.0,0.0,0.2126494140625,0.0,0.0,0.0,0.0,0.0,0.0,-0.194,0.0,0.0,0.0,0.0,0.0,0.0,0.20517580217576348,0.0,0.0,0.0,0.0,0.0,0.0,-0.068
521,0.0,0.0,0.0,0.0,0.0,0.0,0.2107900390625,0.0,0.0,0.0,0.0,0.0,0.0,-0.186,0.0,0.0,0.0,0.0,0.0,0.0,0.20340577416634195,0.0,0.0,0.0,0.0,0.0,0.0,-0.076
522,0.0,0.0,0.0,0.0,0.0,0.0,0.209150390625,0.0,0.0,0.0,0.0,0.0,0.0,-0.171,0.0,0.0,0.0,0.0,0.0,0.0,0.20170719919652746,0.0,0.0,0.0,0.0,0.0,0.0,-0.108
523,0.0,0.0,0.0,0.0,0.0,0.0,0.2075107421875,0.0,0.0,0.0,0.0,0.0,0.0,-0.17,0.0,0.0,0.0,0.0,0.0,0.0,0.19997949193937076,0.0,0.0,0.0,0.0,0.0,0.0,-0.068
524,0.0,0.0,0.0,0.0,0.0,0.0,0.2056640625,0.0,0.0,0.0,0.0,0.0,0.0,-0.178,0.0,0.0,0.0,0.0,0.0,0.0,0.198278436619934,0.0,0.0,0.0,0.0,0.0,0.0,-0.068
525,0.0,0.0,0.0,0.0,0.0,0.0,0.2040244140625,0.0,0.0,0.0,0.0,0.0,0.0,-0.172,0.0,0.0,0.0,0.0,0.0,0.0,0.19652381602592073,0.0,0.0,0.0,0.0,0.0,0.0,-0.052
526,0.0,0.0,0.0,0.0,0.0,0.0,0.202384765625,0.0,0.0,0.0,0.0,0.0,0.0,-0.162,0.0,0.0,0.0,0.0,0.0,0.0,0.19478881080450394,0.0,0.0,0.0,0.0,0.0,0.0,-0.088
527,0.0,0.0,0.0,0.0,0.0,0.0,0.2005263671875,0.0,0.0,0.0,0.0,0.0,0.0,-0.172,0.0,0.0,0.0,0.0,0.0,0.0,0.19303378639394292,0.0,0.0,0.0,0.0,0.0,0.0,-0.076
528,0.0,0.0,0.0,0.0,0.0,0.0,0.1986796875,0.0,0.0,0.0,0.0,0.0,0.0,-0.19,0.0,0.0,0.0,0.0,0.0,0.0,0.19127687772851695,0.0,0.0,0.0,0.0,0.0,0.0,-0.088
529,0.0,0.0,0.0,0.0,0.0,0.0,0.1970400390625,0.0,0.0,0.0,0.0,0.0,0.0,-0.177,0.0,0.0,0.0,0.0,0.0,0.0,0.18953436199680704,0.0,0.0,0.0,0.0,0.0,0.0,-0.056
530,0.0,0.0,0.0,0.0,0.0,0.0,0.1956064453125,0.0,0.0,0.0,0.0,0.0,0.0,-0.167,0.0,0.0,0.0,0.0,0.0,0.0,0.1877658073132582,0.0,0.0,0.0,0.0,0.0,0.0,-0.036
531,0.0,0.0,0.0,0.0,0.0,0.0,0.193966796875,0.0,0.0,0.0,0.0,0.0,0.0,-0.149,0.0,0.0,0.0,0.0,0.0,0.0,0.1859837089836445,0.0,0.0,0.0,0.0,0.0,0.0,-0.044
532,0.0,0.0,0.0,0.0,0.0,0.0,0.192314453125,0.0,0.0,0.0,0.0,0.0,0.0,-0.161,0.0,0.0,0.0,0.0,0.0,0.0,0.1841943909947197,0.0,0.0,0.0,0.0,0.0,0.0,0.004
533,0.0,0.0,0.0,0.0,0.0,0.0,0.1906748046875,0.0,0.0,0.0,0.0,0.0,0.0,-0.161,0.0,0.0,0.0,0.0,0.0,0.0,0.18244116427720522,0.0,0.0,0.0,0.0,0.0,0.0,0.0
534,0.0,0.0,0.0,0.0,0.0,0.0,0.18903515625,0.0,0.0,0.0,0.0,0.0,0.0,-0.166,0.0,0.0,0.0,0.0,0.0,0.0,0.1806295982699994,0.0,0.0,0.0,0.0,0.0,0.0,0.056
535,0.0,0.0,0.0,0.0,0.0,0.0,0.1873955078125,0.0,0.0,0.0,0.0,0.0,0.0,-0.167,0.0,0.0,0.0,0.0,0.0,0.0,0.17886774797142338,0.0,0.0,0.0,0.0,0.0,0.0,0.036
536,0.0,0.0,0.0,0.0,0.0,0.0,0.185755859375,0.0,0.0,0.0,0.0,0.0,0.0,-0.172,0.0,0.0,0.0,0.0,0.0,0.0,0.17708307892838024,0.0,0.0,0.0,0.0,0.0,0.0,0.024
537,0.0,0.0,0.0,0.0,0.0,0.0,0.183896484375,0.0,0.0,0.0,0.0,0.0,0.0,-0.169,0.0,0.0,0.0,0.0,0.0,0.0,0.17485181385395585,0.0,0.0,0.0,0.0,0.0,0.0,0.0
538,0.0,0.0,0.0,0.0,0.0,0.0,0.1806171875,0.0,0.0,0.0,0.0,0.0,0.0,-0.169,0.0,0.0,0.0,0.0,0.0,0.0,0.1712476951474764,0.0,0.0,0.0,0.0,0.0,0.0,0.016
539,0.0,0.0,0.0,0.0,0.0,0.0,0.1806171875,0.0,0.0,0.0,0.0,0.0,0.0,-0.169,0.0,0.0,0.0,0.0,0.0,0.0,0.17009076991870126,0.0,0.0,0.0,0.0,0.0,0.0,0.016
540,0.0,0.0,0.0,0.0,0.0,0.0,0.177130859375,0.0,0.0,0.0,0.0,0.0,0.0,-0.183,0.0,0.0,0.0,0.0,0.0,0.0,0.16724287440802657,0.0,0.0,0.0,0.0,0.0,0.0,-0.044
541,0.0,0.0,0.0,0.0,0.0,0.0,0.17528515625,0.0,0.0,0.0,0.0,0.0,0.0,-0.167,0.0,0.0,0.0,0.0,0.0,0.0,0.16627139871764274,0.0,0.0,0.0,0.0,0.0,0.0,-0.016
542,0.0,0.0,0.0,0.0,0.0,0.0,0.1734384765625,0.0,0.0,0.0,0.0,0.0,0.0,-0.188,0.0,0.0,0.0,0.0,0.0,0.0,0.16507938299972583,0.0,0.0,0.0,0.0,0.0,0.0,-0.044
543,0.0,0.0,0.0,0.0,0.0,0.0,0.1734384765625,0.0,0.0,0.0,0.0,0.0,0.0,-0.188,0.0,0.0,0.0,0.0,0.0,0.0,0.1640928815321971,0.0,0.0,0.0,0.0,0.0,0.0,-0.044
544,0.0,0.0,0.0,0.0,0.0,0.0,0.1711796875,0.0,0.0,0.0,0.0,0.0,0.0,-0.194,0.0,0.0,0.0,0.0,0.0,0.0,0.16258489143793614,0.0,0.0,0.0,0.0,0.0,0.0,-0.064
545,0.0,0.0,0.0,0.0,0.0,0.0,0.169126953125,0.0,0.0,0.0,0.0,0.0,0.0,-0.222,0.0,0.0,0.0,0.0,0.0,0.0,0.16075789114233707,0.0,0.0,0.0,0.0,0.0,0.0,-0.076
546,0.0,0.0,0.0,0.0,0.0,0.0,0.1652275390625,0.0,0.0,0.0,0.0,0.0,0.0,-0.197,0.0,0.0,0.0,0.0,0.0,0.0,0.15788194496343638,0.0,0.0,0.0,0.0,0.0,0.0,-0.148
547,0.0,0.0,0.0,0.0,0.0,0.0,0.1652275390625,0.0,0.0,0.0,0.0,0.0,0.0,-0.197,0.0,0.0,0.0,0.0,0.0,0.0,0.15652747554023722,0.0,0.0,0.0,0.0,0.0,0.0,-0.148
548,0.0,0.0,0.0,0.0,0.0,0.0,0.1631748046875,0.0,0.0,0.0,0.0,0.0,0.0,-0.213,0.0,0.0,0.0,0.0,0.0,0.0,0.1552643593074286,0.0,0.0,0.0,0.0,0.0,0.0,-0.168
549,0.0,0.0,0.0,0.0,0.0,0.0,0.1611220703125,0.0,0.0,0.0,0.0,0.0,0.0,-0.201,0.0,0.0,0.0,0.0,0.0,0.0,0.15318775661709694,0.0,0.0,0.0,0.0,0.0,0.0,-0.128
550,0.0,0.0,0.0,0.0,0.0,0.0,0.1592626953125,0.0,0.0,0.0,0.0,0.0,0.0,-0.193,0.0,0.0,0.0,0.0,0.0,0.0,0.15153287348647837,0.0,0.0,0.0,0.0,0.0,0.0,-0.136
551,0.0,0.0,0.0,0.0,0.0,0.0,0.157416015625,0.0,0.0,0.0,0.0,0.0,0.0,-0.196,0.0,0.0,0.0,0.0,0.0,0.0,0.14971048048453836,0.0,0.0,0.0,0.0,0.0,0.0,-0.136
552,0.0,0.0,0.0,0.0,0.0,0.0,0.156189453125,0.0,0.0,0.0,0.0,0.0,0.0,-0.158,0.0,0.0,0.0,0.0,0.0,0.0,0.14784397071234928,0.0,0.0,0.0,0.0,0.0,0.0,-0.14
553,0.0,0.0,0.0,0.0,0.0,0.0,0.15434375,0.0,0.0,0.0,0.0,0.0,0.0,-0.148,0.0,0.0,0.0,0.0,0.0,0.0,0.14590628632850397,0.0,0.0,0.0,0.0,0.0,0.0,-0.116
554,0.0,0.0,0.0,0.0,0.0,0.0,0.1524970703125,0.0,0.0,0.0,0.0,0.0,0.0,-0.182,0.0,0.0,0.0,0.0,0.0,0.0,0.14412078565595834,0.0,0.0,0.0,0.0,0.0,0.0,-0.108
555,0.0,0.0,0.0,0.0,0.0,0.0,0.150857421875,0.0,0.0,0.0,0.0,0.0,0.0,-0.192,0.0,0.0,0.0,0.0,0.0,0.0,0.14224997976383918,0.0,0.0,0.0,0.0,0.0,0.0,-0.088
556,0.0,0.0,0.0,0.0,0.0,0.0,0.148998046875,0.0,0.0,0.0,0.0,0.0,0.0,-0.167,0.0,0.0,0.0,0.0,0.0,0.0,0.14037109515071863,0.0,0.0,0.0,0.0,0.0,0.0,-0.084
557,0.0,0.0,0.0,0.0,0.0,0.0,0.1473583984375,0.0,0.0,0.0,0.0,0.0,0.0,-0.173,0.0,0.0,0.0,0.0,0.0,0.0,0.13850124210877965,0.0,0.0,0.0,0.0,0.0,0.0,-0.076
558,0.0,0.0,0.0,0.0,0.0,0.0,0.1455126953125,0.0,0.0,0.0,0.0,0.0,0.0,-0.175,0.0,0.0,0.0,0.0,0.0,0.0,0.13663731033317014,0.0,0.0,0.0,0.0,0.0,0.0,-0.056
559,0.0,0.0,0.0,0.0,0.0,0.0,0.143873046875,0.0,0.0,0.0,0.0,0.0,0.0,-0.179,0.0,0.0,0.0,0.0,0.0,0.0,0.13475160618651313,0.0,0.0,0.0,0.0,0.0,0.0,-0.056
560,0.0,0.0,0.0,0.0,0.0,0.0,0.1418203125,0.0,0.0,0.0,0.0,0.0,0.0,-0.187,0.0,0.0,0.0,0.0,0.0,0.0,0.13287322216429534,0.0,0.0,0.0,0.0,0.0,0.0,-0.068
561,0.0,0.0,0.0,0.0,0.0,0.0,0.1401806640625,0.0,0.0,0.0,0.0,0.0,0.0,-0.188,0.0,0.0,0.0,0.0,0.0,0.0,0.1309815366641622,0.0,0.0,0.0,0.0,0.0,0.0,-0.052
562,0.0,0.0,0.0,0.0,0.0,0.0,0.138333984375,0.0,0.0,0.0,0.0,0.0,0.0,-0.172,0.0,0.0,0.0,0.0,0.0,0.0,0.12905934894536092,0.0,0.0,0.0,0.0,0.0,0.0,-0.052
563,0.0,0.0,0.0,0.0,0.0,0.0,0.1364873046875,0.0,0.0,0.0,0.0,0.0,0.0,-0.19,0.0,0.0,0.0,0.0,0.0,0.0,0.12719273739321793,0.0,0.0,0.0,0.0,0.0,0.0,-0.064
564,0.0,0.0,0.0,0.0,0.0,0.0,0.1344345703125,0.0,0.0,0.0,0.0,0.0,0.0,-0.194,0.0,0.0,0.0,0.0,0.0,0.0,0.12528794454876344,0.0,0.0,0.0,0.0,0.0,0.0,-0.012
565,0.0,0.0,0.0,0.0,0.0,0.0,0.1327822265625,0.0,0.0,0.0,0.0,0.0,0.0,-0.185,0.0,0.0,0.0,0.0,0.0,0.0,0.12337999632553392,0.0,0.0,0.0,0.0,0.0,0.0,-0.036
566,0.0,0.0,0.0,0.0,0.0,0.0,0.1307294921875,0.0,0.0,0.0,0.0,0.0,0.0,-0.188,0.0,0.0,0.0,0.0,0.0,0.0,0.1214952455704226,0.0,0.0,0.0,0.0,0.0,0.0,-0.016
567,0.0,0.0,0.0,0.0,0.0,0.0,0.1288828125,0.0,0.0,0.0,0.0,0.0,0.0,-0.207,0.0,0.0,0.0,0.0,0.0,0.0,0.11958458529430427,0.0,0.0,0.0,0.0,0.0,0.0,-0.024
568,0.0,0.0,0.0,0.0,0.0,0.0,0.126830078125,0.0,0.0,0.0,0.0,0.0,0.0,-0.192,0.0,0.0,0.0,0.0,0.0,0.0,0.11766919219638941,0.0,0.0,0.0,0.0,0.0,0.0,-0.036
569,0.0,0.0,0.0,0.0,0.0,0.0,0.1245712890625,0.0,0.0,0.0,0.0,0.0,0.0,-0.218,0.0,0.0,0.0,0.0,0.0,0.0,0.11577174539051201,0.0,0.0,0.0,0.0,0.0,0.0,-0.096
570,0.0,0.0,0.0,0.0,0.0,0.0,0.122517578125,0.0,0.0,0.0,0.0,0.0,0.0,-0.216,0.0,0.0,0.0,0.0,0.0,0.0,0.11384996682461326,0.0,0.0,0.0,0.0,0.0,0.0,-0.104
571,0.0,0.0,0.0,0.0,0.0,0.0,0.120671875,0.0,0.0,0.0,0.0,0.0,0.0,-0.194,0.0,0.0,0.0,0.0,0.0,0.0,0.11191090389793434,0.0,0.0,0.0,0.0,0.0,0.0,-0.088
572,0.0,0.0,0.0,0.0,0.0,0.0,0.118619140625,0.0,0.0,0.0,0.0,0.0,0.0,-0.198,0.0,0.0,0.0,0.0,0.0,0.0,0.10999131048678146,0.0,0.0,0.0,0.0,0.0,0.0,-0.064
573,0.0,0.0,0.0,0.0,0.0,0.0,0.11656640625,0.0,0.0,0.0,0.0,0.0,0.0,-0.207,0.0,0.0,0.0,0.0,0.0,0.0,0.10807457387174946,0.0,0.0,0.0,0.0,0.0,0.0,-0.036
574,0.0,0.0,0.0,0.0,0.0,0.0,0.1147197265625,0.0,0.0,0.0,0.0,0.0,0.0,-0.192,0.0,0.0,0.0,0.0,0.0,0.0,0.10613488187169753,0.0,0.0,0.0,0.0,0.0,0.0,-0.044
575,0.0,0.0,0.0,0.0,0.0,0.0,0.1126669921875,0.0,0.0,0.0,0.0,0.0,0.0,-0.202,0.0,0.0,0.0,0.0,0.0,0.0,0.10419788773948013,0.0,0.0,0.0,0.0,0.0,0.0,-0.056
576,0.0,0.0,0.0,0.0,0.0,0.0,0.1106142578125,0.0,0.0,0.0,0.0,0.0,0.0,-0.207,0.0,0.0,0.0,0.0,0.0,0.0,0.10230644164147758,0.0,0.0,0.0,0.0,0.0,0.0,-0.036
577,0.0,0.0,0.0,0.0,0.0,0.0,0.1085615234375,0.0,0.0,0.0,0.0,0.0,0.0,-0.207,0.0,0.0,0.0,0.0,0.0,0.0,0.10034538498427348,0.0,0.0,0.0,0.0,0.0,0.0,-0.024
578,0.0,0.0,0.0,0.0,0.0,0.0,0.10671484375,0.0,0.0,0.0,0.0,0.0,0.0,-0.196,0.0,0.0,0.0,0.0,0.0,0.0,0.0983421871314941,0.0,0.0,0.0,0.0,0.0,0.0,-0.032
579,0.0,0.0,0.0,0.0,0.0,0.0,0.1050751953125,0.0,0.0,0.0,0.0,0.0,0.0,-0.177,0.0,0.0,0.0,0.0,0.0,0.0,0.09648620858924863,0.0,0.0,0.0,0.0,0.0,0.0,0.0
580,0.0,0.0,0.0,0.0,0.0,0.0,0.103435546875,0.0,0.0,0.0,0.0,0.0,0.0,-0.17,0.0,0.0,0.0,0.0,0.0,0.0,0.09453299577549568,0.0,0.0,0.0,0.0,0.0,0.0,0.0
581,0.0,0.0,0.0,0.0,0.0,0.0,0.1017958984375,0.0,0.0,0.0,0.0,0.0,0.0,-0.158,0.0,0.0,0.0,0.0,0.0,0.0,0.09258922179469488,0.0,0.0,0.0,0.0,0.0,0.0,0.016
582,0.0,0.0,0.0,0.0,0.0,0.0,0.1001435546875,0.0,0.0,0.0,0.0,0.0,0.0,-0.163,0.0,0.0,0.0,0.0,0.0,0.0,0.09064726830466241,0.0,0.0,0.0,0.0,0.0,0.0,0.056
583,0.0,0.0,0.0,0.0,0.0,0.0,0.098296875,0.0,0.0,0.0,0.0,0.0,0.0,-0.178,0.0,0.0,0.0,0.0,0.0,0.0,0.08868980842665997,0.0,0.0,0.0,0.0,0.0,0.0,0.016
584,0.0,0.0,0.0,0.0,0.0,0.0,0.096451171875,0.0,0.0,0.0,0.0,0.0,0.0,-0.186,0.0,0.0,0.0,0.0,0.0,0.0,0.08672131439340719,0.0,0.0,0.0,0.0,0.0,0.0,0.012
585,0.0,0.0,0.0,0.0,0.0,0.0,0.0943984375,0.0,0.0,0.0,0.0,0.0,0.0,-0.194,0.0,0.0,0.0,0.0,0.0,0.0,0.08478029869391052,0.0,0.0,0.0,0.0,0.0,0.0,0.024
586,0.0,0.0,0.0,0.0,0.0,0.0,0.0925517578125,0.0,0.0,0.0,0.0,0.0,0.0,-0.198,0.0,0.0,0.0,0.0,0.0,0.0,0.08282235573705761,0.0,0.0,0.0,0.0,0.0,0.0,-0.016
587,0.0,0.0,0.0,0.0,0.0,0.0,0.0904990234375,0.0,0.0,0.0,0.0,0.0,0.0,-0.194,0.0,0.0,0.0,0.0,0.0,0.0,0.08085211013604432,0.0,0.0,0.0,0.0,0.0,0.0,-0.004
588,0.0,0.0,0.0,0.0,0.0,0.0,0.0882392578125,0.0,0.0,0.0,0.0,0.0,0.0,-0.221,0.0,0.0,0.0,0.0,0.0,0.0,0.07893063095732646,0.0,0.0,0.0,0.0,0.0,0.0,-0.032
589,0.0,0.0,0.0,0.0,0.0,0.0,0.0861865234375,0.0,0.0,0.0,0.0,0.0,0.0,-0.214,0.0,0.0,0.0,0.0,0.0,0.0,0.07696013492445886,0.0,0.0,0.0,0.0,0.0,0.0,-0.064
590,0.0,0.0,0.0,0.0,0.0,0.0,0.0839267578125,0.0,0.0,0.0,0.0,0.0,0.0,-0.219,0.0,0.0,0.0,0.0,0.0,0.0,0.07498455934847156,0.0,0.0,0.0,0.0,0.0,0.0,-0.052
591,0.0,0.0,0.0,0.0,0.0,0.0,0.0818740234375,0.0,0.0,0.0,0.0,0.0,0.0,-0.225,0.0,0.0,0.0,0.0,0.0,0.0,0.07303029304776339,0.0,0.0,0.0,0.0,0.0,0.0,-0.104
592,0.0,0.0,0.0,0.0,0.0,0.0,0.0800283203125,0.0,0.0,0.0,0.0,0.0,0.0,-0.192,0.0,0.0,0.0,0.0,0.0,0.0,0.0710600503668045,0.0,0.0,0.0,0.0,0.0,0.0,-0.14
593,0.0,0.0,0.0,0.0,0.0,0.0,0.0779755859375,0.0,0.0,0.0,0.0,0.0,0.0,-0.207,0.0,0.0,0.0,0.0,0.0,0.0,0.06908924699457301,0.0,0.0,0.0,0.0,0.0,0.0,-0.16
594,0.0,0.0,0.0,0.0,0.0,0.0,0.075728515625,0.0,0.0,0.0,0.0,0.0,0.0,-0.215,0.0,0.0,0.0,0.0,0.0,0.0,0.06712531573846682,0.0,0.0,0.0,0.0,0.0,0.0,-0.16
595,0.0,0.0,0.0,0.0,0.0,0.0,0.07367578125,0.0,0.0,0.0,0.0,0.0,0.0,-0.21,0.0,0.0,0.0,0.0,0.0,0.0,0.06515524856938919,0.0,0.0,0.0,0.0,0.0,0.0,-0.14
596,0.0,0.0,0.0,0.0,0.0,0.0,0.071623046875,0.0,0.0,0.0,0.0,0.0,0.0,-0.207,0.0,0.0,0.0,0.0,0.0,0.0,0.06317442196205339,0.0,0.0,0.0,0.0,0.0,0.0,-0.156
597,0.0,0.0,0.0,0.0,0.0,0.0,0.069763671875,0.0,0.0,0.0,0.0,0.0,0.0,-0.2,0.0,0.0,0.0,0.0,0.0,0.0,0.061207037228350074,0.0,0.0,0.0,0.0,0.0,0.0,-0.108
598,0.0,0.0,0.0,0.0,0.0,0.0,0.06791796875,0.0,0.0,0.0,0.0,0.0,0.0,-0.188,0.0,0.0,0.0,0.0,0.0,0.0,0.0592367675597672,0.0,0.0,0.0,0.0,0.0,0.0,-0.116
599,0.0,0.0,0.0,0.0,0.0,0.0,0.065865234375,0.0,0.0,0.0,0.0,0.0,0.0,-0.192,0.0,0.0,0.0,0.0,0.0,0.0,0.05722500777818551,0.0,0.0,0.0,0.0,0.0,0.0,-0.12
600,0.0,0.0,0.0,0.0,0.0,0.0,0.0642255859375,0.0,0.0,0.0,0.0,0.0,0.0,-0.185,0.0,0.0,0.0,0.0,0.0,0.0,0.05526253804421784,0.0,0.0,0.0,0.0,0.0,0.0,-0.096
601,0.0,0.0,0.0,0.0,0.0,0.0,0.0623662109375,0.0,0.0,0.0,0.0,0.0,0.0,-0.184,0.0,0.0,0.0,0.0,0.0,0.0,0.05328240704802491,0.0,0.0,0.0,0.0,0.0,0.0,-0.088
602,0.0,0.0,0.0,0.0,0.0,0.0,0.0603134765625,0.0,0.0,0.0,0.0,0.0,0.0,-0.193,0.0,0.0,0.0,0.0,0.0,0.0,0.05129106222852058,0.0,0.0,0.0,0.0,0.0,0.0,-0.056
603,0.0,0.0,0.0,0.0,0.0,0.0,0.058673828125,0.0,0.0,0.0,0.0,0.0,0.0,-0.183,0.0,0.0,0.0,0.0,0.0,0.0,0.04929539561506914,0.0,0.0,0.0,0.0,0.0,0.0,-0.068
604,0.0,0.0,0.0,0.0,0.0,0.0,0.0570341796875,0.0,0.0,0.0,0.0,0.0,0.0,-0.175,0.0,0.0,0.0,0.0,0.0,0.0,0.0473259446536381,0.0,0.0,0.0,0.0,0.0,0.0,-0.044
605,0.0,0.0,0.0,0.0,0.0,0.0,0.0551875,0.0,0.0,0.0,0.0,0.0,0.0,-0.178,0.0,0.0,0.0,0.0,0.0,0.0,0.045325103287047884,0.0,0.0,0.0,0.0,0.0,0.0,-0.064
606,0.0,0.0,0.0,0.0,0.0,0.0,0.0533408203125,0.0,0.0,0.0,0.0,0.0,0.0,-0.179,0.0,0.0,0.0,0.0,0.0,0.0,0.04331334734640582,0.0,0.0,0.0,0.0,0.0,0.0,-0.068
607,0.0,0.0,0.0,0.0,0.0,0.0,0.0512880859375,0.0,0.0,0.0,0.0,0.0,0.0,-0.195,0.0,0.0,0.0,0.0,0.0,0.0,0.04137171967497394,0.0,0.0,0.0,0.0,0.0,0.0,-0.036
608,0.0,0.0,0.0,0.0,0.0,0.0,0.0492353515625,0.0,0.0,0.0,0.0,0.0,0.0,-0.207,0.0,0.0,0.0,0.0,0.0,0.0,0.039357453770110434,0.0,0.0,0.0,0.0,0.0,0.0,-0.056
609,0.0,0.0,0.0,0.0,0.0,0.0,0.0473896484375,0.0,0.0,0.0,0.0,0.0,0.0,-0.198,0.0,0.0,0.0,0.0,0.0,0.0,0.03737902038216509,0.0,0.0,0.0,0.0,0.0,0.0,-0.036
610,0.0,0.0,0.0,0.0,0.0,0.0,0.0453369140625,0.0,0.0,0.0,0.0,0.0,0.0,-0.194,0.0,0.0,0.0,0.0,0.0,0.0,0.03539211210343414,0.0,0.0,0.0,0.0,0.0,0.0,-0.024
611,0.0,0.0,0.0,0.0,0.0,0.0,0.0430771484375,0.0,0.0,0.0,0.0,0.0,0.0,-0.219,0.0,0.0,0.0,0.0,0.0,0.0,0.033397148186405545,0.0,0.0,0.0,0.0,0.0,0.0,-0.056
612,0.0,0.0,0.0,0.0,0.0,0.0,0.0410244140625,0.0,0.0,0.0,0.0,0.0,0.0,-0.218,0.0,0.0,0.0,0.0,0.0,0.0,0.031395310205910396,0.0,0.0,0.0,0.0,0.0,0.0,-0.056
613,0.0,0.0,0.0,0.0,0.0,0.0,0.03855859375,0.0,0.0,0.0,0.0,0.0,0.0,-0.229,0.0,0.0,0.0,0.0,0.0,0.0,0.02938673635340938,0.0,0.0,0.0,0.0,0.0,0.0,-0.108
614,0.0,0.0,0.0,0.0,0.0,0.0,0.036091796875,0.0,0.0,0.0,0.0,0.0,0.0,-0.245,0.0,0.0,0.0,0.0,0.0,0.0,0.027421135626862422,0.0,0.0,0.0,0.0,0.0,0.0,-0.108
615,0.0,0.0,0.0,0.0,0.0,0.0,0.0338330078125,0.0,0.0,0.0,0.0,0.0,0.0,-0.234,0.0,0.0,0.0,0.0,0.0,0.0,0.02540713938626439,0.0,0.0,0.0,0.0,0.0,0.0,-0.108
616,0.0,0.0,0.0,0.0,0.0,0.0,0.0315859375,0.0,0.0,0.0,0.0,0.0,0.0,-0.233,0.0,0.0,0.0,0.0,0.0,0.0,0.023428054904956988,0.0,0.0,0.0,0.0,0.0,0.0,-0.052
617,0.0,0.0,0.0,0.0,0.0,0.0,0.0293271484375,0.0,0.0,0.0,0.0,0.0,0.0,-0.233,0.0,0.0,0.0,0.0,0.0,0.0,0.021411207264738892,0.0,0.0,0.0,0.0,0.0,0.0,-0.056
618,0.0,0.0,0.0,0.0,0.0,0.0,0.0272744140625,0.0,0.0,0.0,0.0,0.0,0.0,-0.216,0.0,0.0,0.0,0.0,0.0,0.0,0.019441393444035907,0.0,0.0,0.0,0.0,0.0,0.0,-0.096
619,0.0,0.0,0.0,0.0,0.0,0.0,0.025220703125,0.0,0.0,0.0,0.0,0.0,0.0,-0.207,0.0,0.0,0.0,0.0,0.0,0.0,0.01743132892489722,0.0,0.0,0.0,0.0,0.0,0.0,-0.084
620,0.0,0.0,0.0,0.0,0.0,0.0,0.02316796875,0.0,0.0,0.0,0.0,0.0,0.0,-0.207,0.0,0.0,0.0,0.0,0.0,0.0,0.015425635762339457,0.0,0.0,0.0,0.0,0.0,0.0,-0.064
621,0.0,0.0,0.0,0.0,0.0,0.0,0.021322265625,0.0,0.0,0.0,0.0,0.0,0.0,-0.205,0.0,0.0,0.0,0.0,0.0,0.0,0.013431134719563365,0.0,0.0,0.0,0.0,0.0,0.0,-0.052
622,0.0,0.0,0.0,0.0,0.0,0.0,0.019669921875,0.0,0.0,0.0,0.0,0.0,0.0,-0.168,0.0,0.0,0.0,0.0,0.0,0.0,0.011446880760703854,0.0,0.0,0.0,0.0,0.0,0.0,-0.024
623,0.0,0.0,0.0,0.0,0.0,0.0,0.018236328125,0.0,0.0,0.0,0.0,0.0,0.0,-0.157,0.0,0.0,0.0,0.0,0.0,0.0,0.009431597427578728,0.0,0.0,0.0,0.0,0.0,0.0,-0.012
624,0.0,0.0,0.0,0.0,0.0,0.0,0.0163896484375,0.0,0.0,0.0,0.0,0.0,0.0,-0.169,0.0,0.0,0.0,0.0,0.0,0.0,0.007245633872499231,0.0,0.0,0.0,0.0,0.0,0.0,-0.004
625,0.0,0.0,0.0,0.0,0.0,0.0,0.01475,0.0,0.0,0.0,0.0,0.0,0.0,-0.176,0.0,0.0,0.0,0.0,0.0,0.0,0.005435693637654216,0.0,0.0,0.0,0.0,0.0,0.0,0.024
626,0.0,0.0,0.0,0.0,0.0,0.0,0.0133173828125,0.0,0.0,0.0,0.0,0.0,0.0,-0.159,0.0,0.0,0.0,0.0,0.0,0.0,0.0034496006907186977,0.0,0.0,0.0,0.0,0.0,0.0,0.036
627,0.0,0.0,0.0,0.0,0.0,0.0,0.0116650390625,0.0,0.0,0.0,0.0,0.0,0.0,-0.153,0.0,0.0,0.0,0.0,0.0,0.0,0.00143886573640792,0.0,0.0,0.0,0.0,0.0,0.0,0.0
628,0.0,0.0,0.0,0.0,0.0,0.0,0.009625,0.0,0.0,0.0,0.0,0.0,0.0,-0.183,0.0,0.0,0.0,0.0,0.0,0.0,-0.0005791534953964291,0.0,0.0,0.0,0.0,0.0,0.0,-0.012
629,0.0,0.0,0.0,0.0,0.0,0.0,0.007572265625,0.0,0.0,0.0,0.0,0.0,0.0,-0.207,0.0,0.0,0.0,0.0,0.0,0.0,-0.002556723034405161,0.0,0.0,0.0,0.0,0.0,0.0,0.0
630,0.0,0.0,0.0,0.0,0.0,0.0,0.005712890625,0.0,0.0,0.0,0.0,0.0,0.0,-0.202,0.0,0.0,0.0,0.0,0.0,0.0,-0.0045580703980594986,0.0,0.0,0.0,0.0,0.0,0.0,-0.052
631,0.0,0.0,0.0,0.0,0.0,0.0,0.0036728515625,0.0,0.0,0.0,0.0,0.0,0.0,-0.192,0.0,0.0,0.0,0.0,0.0,0.0,-0.006561830544335891,0.0,0.0,0.0,0.0,0.0,0.0,-0.044
632,0.0,0.0,0.0,0.0,0.0,0.0,0.0014130859375,0.0,0.0,0.0,0.0,0.0,0.0,-0.212,0.0,0.0,0.0,0.0,0.0,0.0,-0.008563709775377827,0.0,0.0,0.0,0.0,0.0,0.0,-0.052
633,0.0,0.0,0.0,0.0,0.0,0.0,-0.000845703125,0.0,0.0,0.0,0.0,0.0,0.0,-0.234,0.0,0.0,0.0,0.0,0.0,0.0,-0.010581533565662528,0.0,0.0,0.0,0.0,0.0,0.0,-0.044
634,0.0,0.0,0.0,0.0,0.0,0.0,-0.00310546875,0.0,0.0,0.0,0.0,0.0,0.0,-0.232,0.0,0.0,0.0,0.0,0.0,0.0,-0.012541895730947245,0.0,0.0,0.0,0.0,0.0,0.0,-0.104
635,0.0,0.0,0.0,0.0,0.0,0.0,-0.005365234375,0.0,0.0,0.0,0.0,0.0,0.0,-0.227,0.0,0.0,0.0,0.0,0.0,0.0,-0.014557518922214883,0.0,0.0,0.0,0.0,0.0,0.0,-0.104
636,0.0,0.0,0.0,0.0,0.0,0.0,-0.0076240234375,0.0,0.0,0.0,0.0,0.0,0.0,-0.223,0.0,0.0,0.0,0.0,0.0,0.0,-0.016546234982713983,0.0,0.0,0.0,0.0,0.0,0.0,-0.172
637,0.0,0.0,0.0,0.0,0.0,0.0,-0.0096767578125,0.0,0.0,0.0,0.0,0.0,0.0,-0.226,0.0,0.0,0.0,0.0,0.0,0.0,-0.01855588075551282,0.0,0.0,0.0,0.0,0.0,0.0,-0.14
638,0.0,0.0,0.0,0.0,0.0,0.0,-0.0117294921875,0.0,0.0,0.0,0.0,0.0,0.0,-0.207,0.0,0.0,0.0,0.0,0.0,0.0,-0.02054291360671473,0.0,0.0,0.0,0.0,0.0,0.0,-0.172
639,0.0,0.0,0.0,0.0,0.0,0.0,-0.0141962890625,0.0,0.0,0.0,0.0,0.0,0.0,-0.226,0.0,0.0,0.0,0.0,0.0,0.0,-0.022553765966240223,0.0,0.0,0.0,0.0,0.0,0.0,-0.148
640,0.0,0.0,0.0,0.0,0.0,0.0,-0.0166494140625,0.0,0.0,0.0,0.0,0.0,0.0,-0.24,0.0,0.0,0.0,0.0,0.0,0.0,-0.024531730471790705,0.0,0.0,0.0,0.0,0.0,0.0,-0.14
641,0.0,0.0,0.0,0.0,0.0,0.0,-0.018908203125,0.0,0.0,0.0,0.0,0.0,0.0,-0.229,0.0,0.0,0.0,0.0,0.0,0.0,-0.02654101838587839,0.0,0.0,0.0,0.0,0.0,0.0,-0.104
642,0.0,0.0,0.0,0.0,0.0,0.0,-0.0209609375,0.0,0.0,0.0,0.0,0.0,0.0,-0.225,0.0,0.0,0.0,0.0,0.0,0.0,-0.028546637443393794,0.0,0.0,0.0,0.0,0.0,0.0,-0.12
643,0.0,0.0,0.0,0.0,0.0,0.0,-0.0226005859375,0.0,0.0,0.0,0.0,0.0,0.0,-0.196,0.0,0.0,0.0,0.0,0.0,0.0,-0.030513261996853416,0.0,0.0,0.0,0.0,0.0,0.0,-0.088
644,0.0,0.0,0.0,0.0,0.0,0.0,-0.024447265625,0.0,0.0,0.0,0.0,0.0,0.0,-0.176,0.0,0.0,0.0,0.0,0.0,0.0,-0.032516833106600744,0.0,0.0,0.0,0.0,0.0,0.0,-0.096
645,0.0,0.0,0.0,0.0,0.0,0.0,-0.026099609375,0.0,0.0,0.0,0.0,0.0,0.0,-0.178,0.0,0.0,0.0,0.0,0.0,0.0,-0.03453312243320413,0.0,0.0,0.0,0.0,0.0,0.0,-0.064
646,0.0,0.0,0.0,0.0,0.0,0.0,-0.0277392578125,0.0,0.0,0.0,0.0,0.0,0.0,-0.171,0.0,0.0,0.0,0.0,0.0,0.0,-0.03650726409514014,0.0,0.0,0.0,0.0,0.0,0.0,-0.036
647,0.0,0.0,0.0,0.0,0.0,0.0,-0.0295859375,0.0,0.0,0.0,0.0,0.0,0.0,-0.173,0.0,0.0,0.0,0.0,0.0,0.0,-0.03849147329087752,0.0,0.0,0.0,0.0,0.0,0.0,-0.064
648,0.0,0.0,0.0,0.0,0.0,0.0,-0.0312255859375,0.0,0.0,0.0,0.0,0.0,0.0,-0.167,0.0,0.0,0.0,0.0,0.0,0.0,-0.04050499288677824,0.0,0.0,0.0,0.0,0.0,0.0,-0.084
649,0.0,0.0,0.0,0.0,0.0,0.0,-0.0330712890625,0.0,0.0,0.0,0.0,0.0,0.0,-0.172,0.0,0.0,0.0,0.0,0.0,0.0,-0.04247632080258951,0.0,0.0,0.0,0.0,0.0,0.0,-0.064
650,0.0,0.0,0.0,0.0,0.0,0.0,-0.0347109375,0.0,0.0,0.0,0.0,0.0,0.0,-0.181,0.0,0.0,0.0,0.0,0.0,0.0,-0.044495842055041326,0.0,0.0,0.0,0.0,0.0,0.0,-0.064
651,0.0,0.0,0.0,0.0,0.0,0.0,-0.0347109375,0.0,0.0,0.0,0.0,0.0,0.0,-0.181,0.0,0.0,0.0,0.0,0.0,0.0,-0.04647154369692783,0.0,0.0,0.0,0.0,0.0,0.0,-0.064
652,0.0,0.0,0.0,0.0,0.0,0.0,-0.038197265625,0.0,0.0,0.0,0.0,0.0,0.0,-0.176,0.0,0.0,0.0,0.0,0.0,0.0,-0.04845523195361284,0.0,0.0,0.0,0.0,0.0,0.0,-0.044
653,0.0,0.0,0.0,0.0,0.0,0.0,-0.04025,0.0,0.0,0.0,0.0,0.0,0.0,-0.198,0.0,0.0,0.0,0.0,0.0,0.0,-0.05041510051821111,0.0,0.0,0.0,0.0,0.0,0.0,-0.012
654,0.0,0.0,0.0,0.0,0.0,0.0,-0.0420966796875,0.0,0.0,0.0,0.0,0.0,0.0,-0.193,0.0,0.0,0.0,0.0,0.0,0.0,-0.052441339932652514,0.0,0.0,0.0,0.0,0.0,0.0,-0.016
655,0.0,0.0,0.0,0.0,0.0,0.0,-0.0439560546875,0.0,0.0,0.0,0.0,0.0,0.0,-0.188,0.0,0.0,0.0,0.0,0.0,0.0,-0.05439506736223583,0.0,0.0,0.0,0.0,0.0,0.0,-0.024
656,0.0,0.0,0.0,0.0,0.0,0.0,-0.0462021484375,0.0,0.0,0.0,0.0,0.0,0.0,-0.207,0.0,0.0,0.0,0.0,0.0,0.0,-0.05636829229897065,0.0,0.0,0.0,0.0,0.0,0.0,-0.052
657,0.0,0.0,0.0,0.0,0.0,0.0,-0.0484619140625,0.0,0.0,0.0,0.0,0.0,0.0,-0.228,0.0,0.0,0.0,0.0,0.0,0.0,-0.05838559387333965,0.0,0.0,0.0,0.0,0.0,0.0,-0.076
658,0.0,0.0,0.0,0.0,0.0,0.0,-0.050927734375,0.0,0.0,0.0,0.0,0.0,0.0,-0.24,0.0,0.0,0.0,0.0,0.0,0.0,-0.06032214084262212,0.0,0.0,0.0,0.0,0.0,0.0,-0.104
659,0.0,0.0,0.0,0.0,0.0,0.0,-0.0531865234375,0.0,0.0,0.0,0.0,0.0,0.0,-0.238,0.0,0.0,0.0,0.0,0.0,0.0,-0.062304014555785284,0.0,0.0,0.0,0.0,0.0,0.0,-0.064
660,0.0,0.0,0.0,0.0,0.0,0.0,-0.055240234375,0.0,0.0,0.0,0.0,0.0,0.0,-0.22,0.0,0.0,0.0,0.0,0.0,0.0,-0.06427448559764563,0.0,0.0,0.0,0.0,0.0,0.0,-0.052
661,0.0,0.0,0.0,0.0,0.0,0.0,-0.0577060546875,0.0,0.0,0.0,0.0,0.0,0.0,-0.227,0.0,0.0,0.0,0.0,0.0,0.0,-0.06626762174415615,0.0,0.0,0.0,0.0,0.0,0.0,-0.052
662,0.0,0.0,0.0,0.0,0.0,0.0,-0.0601591796875,0.0,0.0,0.0,0.0,0.0,0.0,-0.239,0.0,0.0,0.0,0.0,0.0,0.0,-0.06822279537693147,0.0,0.0,0.0,0.0,0.0,0.0,-0.056
663,0.0,0.0,0.0,0.0,0.0,0.0,-0.06241796875,0.0,0.0,0.0,0.0,0.0,0.0,-0.246,0.0,0.0,0.0,0.0,0.0,0.0,-0.07023910199911539,0.0,0.0,0.0,0.0,0.0,0.0,-0.036
664,0.0,0.0,0.0,0.0,0.0,0.0,-0.064470703125,0.0,0.0,0.0,0.0,0.0,0.0,-0.218,0.0,0.0,0.0,0.0,0.0,0.0,-0.07217093055237114,0.0,0.0,0.0,0.0,0.0,0.0,-0.024
665,0.0,0.0,0.0,0.0,0.0,0.0,-0.0661103515625,0.0,0.0,0.0,0.0,0.0,0.0,-0.197,0.0,0.0,0.0,0.0,0.0,0.0,-0.07412599600059029,0.0,0.0,0.0,0.0,0.0,0.0,-0.032
666,0.0,0.0,0.0,0.0,0.0,0.0,-0.067556640625,0.0,0.0,0.0,0.0,0.0,0.0,-0.153,0.0,0.0,0.0,0.0,0.0,0.0,-0.07610923645866179,0.0,0.0,0.0,0.0,0.0,0.0,0.024
667,0.0,0.0,0.0,0.0,0.0,0.0,-0.0691962890625,0.0,0.0,0.0,0.0,0.0,0.0,-0.15,0.0,0.0,0.0,0.0,0.0,0.0,-0.07807000707868894,0.0,0.0,0.0,0.0,0.0,0.0,0.024
668,0.0,0.0,0.0,0.0,0.0,0.0,-0.0708359375,0.0,0.0,0.0,0.0,0.0,0.0,-0.165,0.0,0.0,0.0,0.0,0.0,0.0,-0.08001252418599693,0.0,0.0,0.0,0.0,0.0,0.0,0.052
669,0.0,0.0,0.0,0.0,0.0,0.0,-0.0726826171875,0.0,0.0,0.0,0.0,0.0,0.0,-0.178,0.0,0.0,0.0,0.0,0.0,0.0,-0.08197520011817425,0.0,0.0,0.0,0.0,0.0,0.0,0.036
670,0.0,0.0,0.0,0.0,0.0,0.0,-0.074115234375,0.0,0.0,0.0,0.0,0.0,0.0,-0.167,0.0,0.0,0.0,0.0,0.0,0.0,-0.08393367345317032,0.0,0.0,0.0,0.0,0.0,0.0,0.056
671,0.0,0.0,0.0,0.0,0.0,0.0,-0.0759619140625,0.0,0.0,0.0,0.0,0.0,0.0,-0.17,0.0,0.0,0.0,0.0,0.0,0.0,-0.08588045050142312,0.0,0.0,0.0,0.0,0.0,0.0,0.044
672,0.0,0.0,0.0,0.0,0.0,0.0,-0.07780859375,0.0,0.0,0.0,0.0,0.0,0.0,-0.186,0.0,0.0,0.0,0.0,0.0,0.0,-0.08784872938215586,0.0,0.0,0.0,0.0,0.0,0.0,0.0
673,0.0,0.0,0.0,0.0,0.0,0.0,-0.079861328125,0.0,0.0,0.0,0.0,0.0,0.0,-0.192,0.0,0.0,0.0,0.0,0.0,0.0,-0.08978810410644196,0.0,0.0,0.0,0.0,0.0,0.0,-0.016
674,0.0,0.0,0.0,0.0,0.0,0.0,-0.0819140625,0.0,0.0,0.0,0.0,0.0,0.0,-0.207,0.0,0.0,0.0,0.0,0.0,0.0,-0.09172716162260619,0.0,0.0,0.0,0.0,0.0,0.0,-0.004
675,0.0,0.0,0.0,0.0,0.0,0.0,-0.083759765625,0.0,0.0,0.0,0.0,0.0,0.0,-0.197,0.0,0.0,0.0,0.0,0.0,0.0,-0.09369292009022961,0.0,0.0,0.0,0.0,0.0,0.0,-0.024
676,0.0,0.0,0.0,0.0,0.0,0.0,-0.085619140625,0.0,0.0,0.0,0.0,0.0,0.0,-0.182,0.0,0.0,0.0,0.0,0.0,0.0,-0.09566582510019504,0.0,0.0,0.0,0.0,0.0,0.0,-0.036
677,0.0,0.0,0.0,0.0,0.0,0.0,-0.0878662109375,0.0,0.0,0.0,0.0,0.0,0.0,-0.212,0.0,0.0,0.0,0.0,0.0,0.0,-0.09757883181176541,0.0,0.0,0.0,0.0,0.0,0.0,-0.064
