EmanuelSamir/lab201_ws_projsamir/sawyer_dev/data/sawyer/static/test_joint7/training_data_05.csv
,j1,j2,j3,j4,j5,j6,j7,v1,v2,v3,v4,v5,v6,v7,jd1,jd2,jd3,jd4,jd5,jd6,jd7,e1,e2,e3,e4,e5,e6,e7
0,0.0,0.0,0.0,0.0,0.0,0.0,0.0,0.0,0.0,0.0,0.0,0.0,0.0,0.0,0.0,0.0,0.0,0.0,0.0,0.0,0.0,0.0,0.0,0.0,0.0,0.0,0.0,0.0
1,0.0,0.0,0.0,0.0,0.0,0.0,-0.00187890625,0.0,0.0,0.0,0.0,0.0,0.0,-0.001,0.0,0.0,0.0,0.0,0.0,0.0,1.4209747311464387e-05,0.0,0.0,0.0,0.0,0.0,0.0,0.084
2,0.0,0.0,0.0,0.0,0.0,0.0,-0.00187890625,0.0,0.0,0.0,0.0,0.0,0.0,-0.001,0.0,0.0,0.0,0.0,0.0,0.0,0.0022615789081076414,0.0,0.0,0.0,0.0,0.0,0.0,0.084
3,0.0,0.0,0.0,0.0,0.0,0.0,-0.00187890625,0.0,0.0,0.0,0.0,0.0,0.0,-0.001,0.0,0.0,0.0,0.0,0.0,0.0,0.004291309049784847,0.0,0.0,0.0,0.0,0.0,0.0,0.064
4,0.0,0.0,0.0,0.0,0.0,0.0,-0.00187890625,0.0,0.0,0.0,0.0,0.0,0.0,-0.001,0.0,0.0,0.0,0.0,0.0,0.0,0.006289556701395015,0.0,0.0,0.0,0.0,0.0,0.0,0.068
5,0.0,0.0,0.0,0.0,0.0,0.0,-0.001671875,0.0,0.0,0.0,0.0,0.0,0.0,0.006,0.0,0.0,0.0,0.0,0.0,0.0,0.008272820904117977,0.0,0.0,0.0,0.0,0.0,0.0,0.136
6,0.0,0.0,0.0,0.0,0.0,0.0,-0.0004326171875,0.0,0.0,0.0,0.0,0.0,0.0,0.052,0.0,0.0,0.0,0.0,0.0,0.0,0.010268466023142582,0.0,0.0,0.0,0.0,0.0,0.0,0.2
7,0.0,0.0,0.0,0.0,0.0,0.0,0.0016201171875,0.0,0.0,0.0,0.0,0.0,0.0,0.164,0.0,0.0,0.0,0.0,0.0,0.0,0.012293881993562406,0.0,0.0,0.0,0.0,0.0,0.0,0.108
8,0.0,0.0,0.0,0.0,0.0,0.0,0.004279296875,0.0,0.0,0.0,0.0,0.0,0.0,0.233,0.0,0.0,0.0,0.0,0.0,0.0,0.014296585500157652,0.0,0.0,0.0,0.0,0.0,0.0,0.172
9,0.0,0.0,0.0,0.0,0.0,0.0,0.0071591796875,0.0,0.0,0.0,0.0,0.0,0.0,0.271,0.0,0.0,0.0,0.0,0.0,0.0,0.016269104968302472,0.0,0.0,0.0,0.0,0.0,0.0,0.24
10,0.0,0.0,0.0,0.0,0.0,0.0,0.0102314453125,0.0,0.0,0.0,0.0,0.0,0.0,0.299,0.0,0.0,0.0,0.0,0.0,0.0,0.018258852832785843,0.0,0.0,0.0,0.0,0.0,0.0,0.2
11,0.0,0.0,0.0,0.0,0.0,0.0,0.0131103515625,0.0,0.0,0.0,0.0,0.0,0.0,0.305,0.0,0.0,0.0,0.0,0.0,0.0,0.020298484960707457,0.0,0.0,0.0,0.0,0.0,0.0,0.232
12,0.0,0.0,0.0,0.0,0.0,0.0,0.0157705078125,0.0,0.0,0.0,0.0,0.0,0.0,0.285,0.0,0.0,0.0,0.0,0.0,0.0,0.0222806947397519,0.0,0.0,0.0,0.0,0.0,0.0,0.26
13,0.0,0.0,0.0,0.0,0.0,0.0,0.0178232421875,0.0,0.0,0.0,0.0,0.0,0.0,0.24,0.0,0.0,0.0,0.0,0.0,0.0,0.024263117347073114,0.0,0.0,0.0,0.0,0.0,0.0,0.264
14,0.0,0.0,0.0,0.0,0.0,0.0,0.0200830078125,0.0,0.0,0.0,0.0,0.0,0.0,0.221,0.0,0.0,0.0,0.0,0.0,0.0,0.026270873538800484,0.0,0.0,0.0,0.0,0.0,0.0,0.208
15,0.0,0.0,0.0,0.0,0.0,0.0,0.022341796875,0.0,0.0,0.0,0.0,0.0,0.0,0.226,0.0,0.0,0.0,0.0,0.0,0.0,0.028262268925876768,0.0,0.0,0.0,0.0,0.0,0.0,0.16
16,0.0,0.0,0.0,0.0,0.0,0.0,0.0246015625,0.0,0.0,0.0,0.0,0.0,0.0,0.224,0.0,0.0,0.0,0.0,0.0,0.0,0.030264086571301932,0.0,0.0,0.0,0.0,0.0,0.0,0.108
17,0.0,0.0,0.0,0.0,0.0,0.0,0.026447265625,0.0,0.0,0.0,0.0,0.0,0.0,0.206,0.0,0.0,0.0,0.0,0.0,0.0,0.03291234023561264,0.0,0.0,0.0,0.0,0.0,0.0,0.128
18,0.0,0.0,0.0,0.0,0.0,0.0,0.027880859375,0.0,0.0,0.0,0.0,0.0,0.0,0.161,0.0,0.0,0.0,0.0,0.0,0.0,0.034421780436099475,0.0,0.0,0.0,0.0,0.0,0.0,0.12
19,0.0,0.0,0.0,0.0,0.0,0.0,0.0293271484375,0.0,0.0,0.0,0.0,0.0,0.0,0.146,0.0,0.0,0.0,0.0,0.0,0.0,0.03622530348150589,0.0,0.0,0.0,0.0,0.0,0.0,0.14
20,0.0,0.0,0.0,0.0,0.0,0.0,0.0305537109375,0.0,0.0,0.0,0.0,0.0,0.0,0.138,0.0,0.0,0.0,0.0,0.0,0.0,0.03863686079292384,0.0,0.0,0.0,0.0,0.0,0.0,0.148
21,0.0,0.0,0.0,0.0,0.0,0.0,0.032193359375,0.0,0.0,0.0,0.0,0.0,0.0,0.141,0.0,0.0,0.0,0.0,0.0,0.0,0.04025513841397026,0.0,0.0,0.0,0.0,0.0,0.0,0.168
22,0.0,0.0,0.0,0.0,0.0,0.0,0.032193359375,0.0,0.0,0.0,0.0,0.0,0.0,0.141,0.0,0.0,0.0,0.0,0.0,0.0,0.04219833421879768,0.0,0.0,0.0,0.0,0.0,0.0,0.168
23,0.0,0.0,0.0,0.0,0.0,0.0,0.035279296875,0.0,0.0,0.0,0.0,0.0,0.0,0.151,0.0,0.0,0.0,0.0,0.0,0.0,0.044275494725176924,0.0,0.0,0.0,0.0,0.0,0.0,0.14
24,0.0,0.0,0.0,0.0,0.0,0.0,0.035279296875,0.0,0.0,0.0,0.0,0.0,0.0,0.151,0.0,0.0,0.0,0.0,0.0,0.0,0.04616729684509278,0.0,0.0,0.0,0.0,0.0,0.0,0.14
25,0.0,0.0,0.0,0.0,0.0,0.0,0.037125,0.0,0.0,0.0,0.0,0.0,0.0,0.172,0.0,0.0,0.0,0.0,0.0,0.0,0.048156515123759513,0.0,0.0,0.0,0.0,0.0,0.0,0.128
26,0.0,0.0,0.0,0.0,0.0,0.0,0.039384765625,0.0,0.0,0.0,0.0,0.0,0.0,0.201,0.0,0.0,0.0,0.0,0.0,0.0,0.05124399563307602,0.0,0.0,0.0,0.0,0.0,0.0,0.136
27,0.0,0.0,0.0,0.0,0.0,0.0,0.039384765625,0.0,0.0,0.0,0.0,0.0,0.0,0.201,0.0,0.0,0.0,0.0,0.0,0.0,0.05256969365811767,0.0,0.0,0.0,0.0,0.0,0.0,0.136
28,0.0,0.0,0.0,0.0,0.0,0.0,0.04368359375,0.0,0.0,0.0,0.0,0.0,0.0,0.221,0.0,0.0,0.0,0.0,0.0,0.0,0.05419741786457288,0.0,0.0,0.0,0.0,0.0,0.0,0.14
29,0.0,0.0,0.0,0.0,0.0,0.0,0.04368359375,0.0,0.0,0.0,0.0,0.0,0.0,0.221,0.0,0.0,0.0,0.0,0.0,0.0,0.056244192619196304,0.0,0.0,0.0,0.0,0.0,0.0,0.14
30,0.0,0.0,0.0,0.0,0.0,0.0,0.04368359375,0.0,0.0,0.0,0.0,0.0,0.0,0.221,0.0,0.0,0.0,0.0,0.0,0.0,0.058263189677202835,0.0,0.0,0.0,0.0,0.0,0.0,0.14
31,0.0,0.0,0.0,0.0,0.0,0.0,0.047595703125,0.0,0.0,0.0,0.0,0.0,0.0,0.184,0.0,0.0,0.0,0.0,0.0,0.0,0.06018318574658065,0.0,0.0,0.0,0.0,0.0,0.0,0.172
32,0.0,0.0,0.0,0.0,0.0,0.0,0.047595703125,0.0,0.0,0.0,0.0,0.0,0.0,0.184,0.0,0.0,0.0,0.0,0.0,0.0,0.06221698160296979,0.0,0.0,0.0,0.0,0.0,0.0,0.172
33,0.0,0.0,0.0,0.0,0.0,0.0,0.054154296875,0.0,0.0,0.0,0.0,0.0,0.0,0.22,0.0,0.0,0.0,0.0,0.0,0.0,0.0648935469842464,0.0,0.0,0.0,0.0,0.0,0.0,0.2
34,0.0,0.0,0.0,0.0,0.0,0.0,0.054154296875,0.0,0.0,0.0,0.0,0.0,0.0,0.22,0.0,0.0,0.0,0.0,0.0,0.0,0.0659943102989967,0.0,0.0,0.0,0.0,0.0,0.0,0.2
35,0.0,0.0,0.0,0.0,0.0,0.0,0.06051953125,0.0,0.0,0.0,0.0,0.0,0.0,0.206,0.0,0.0,0.0,0.0,0.0,0.0,0.06812648652704754,0.0,0.0,0.0,0.0,0.0,0.0,0.212
36,0.0,0.0,0.0,0.0,0.0,0.0,0.062572265625,0.0,0.0,0.0,0.0,0.0,0.0,0.206,0.0,0.0,0.0,0.0,0.0,0.0,0.06992509179026453,0.0,0.0,0.0,0.0,0.0,0.0,0.188
37,0.0,0.0,0.0,0.0,0.0,0.0,0.064431640625,0.0,0.0,0.0,0.0,0.0,0.0,0.204,0.0,0.0,0.0,0.0,0.0,0.0,0.07188374814376551,0.0,0.0,0.0,0.0,0.0,0.0,0.14
38,0.0,0.0,0.0,0.0,0.0,0.0,0.066484375,0.0,0.0,0.0,0.0,0.0,0.0,0.191,0.0,0.0,0.0,0.0,0.0,0.0,0.07393205507010467,0.0,0.0,0.0,0.0,0.0,0.0,0.136
39,0.0,0.0,0.0,0.0,0.0,0.0,0.068537109375,0.0,0.0,0.0,0.0,0.0,0.0,0.206,0.0,0.0,0.0,0.0,0.0,0.0,0.07580714479998216,0.0,0.0,0.0,0.0,0.0,0.0,0.116
40,0.0,0.0,0.0,0.0,0.0,0.0,0.0701767578125,0.0,0.0,0.0,0.0,0.0,0.0,0.188,0.0,0.0,0.0,0.0,0.0,0.0,0.07776227079018076,0.0,0.0,0.0,0.0,0.0,0.0,0.104
41,0.0,0.0,0.0,0.0,0.0,0.0,0.0720234375,0.0,0.0,0.0,0.0,0.0,0.0,0.172,0.0,0.0,0.0,0.0,0.0,0.0,0.07972981310748338,0.0,0.0,0.0,0.0,0.0,0.0,0.084
42,0.0,0.0,0.0,0.0,0.0,0.0,0.073869140625,0.0,0.0,0.0,0.0,0.0,0.0,0.18,0.0,0.0,0.0,0.0,0.0,0.0,0.08169376149977084,0.0,0.0,0.0,0.0,0.0,0.0,0.104
43,0.0,0.0,0.0,0.0,0.0,0.0,0.0755224609375,0.0,0.0,0.0,0.0,0.0,0.0,0.182,0.0,0.0,0.0,0.0,0.0,0.0,0.08364334676835711,0.0,0.0,0.0,0.0,0.0,0.0,0.108
44,0.0,0.0,0.0,0.0,0.0,0.0,0.0773681640625,0.0,0.0,0.0,0.0,0.0,0.0,0.186,0.0,0.0,0.0,0.0,0.0,0.0,0.08559942695827122,0.0,0.0,0.0,0.0,0.0,0.0,0.104
45,0.0,0.0,0.0,0.0,0.0,0.0,0.07921484375,0.0,0.0,0.0,0.0,0.0,0.0,0.186,0.0,0.0,0.0,0.0,0.0,0.0,0.08759747165938342,0.0,0.0,0.0,0.0,0.0,0.0,0.104
46,0.0,0.0,0.0,0.0,0.0,0.0,0.0808544921875,0.0,0.0,0.0,0.0,0.0,0.0,0.174,0.0,0.0,0.0,0.0,0.0,0.0,0.08949892847309712,0.0,0.0,0.0,0.0,0.0,0.0,0.104
47,0.0,0.0,0.0,0.0,0.0,0.0,0.082701171875,0.0,0.0,0.0,0.0,0.0,0.0,0.171,0.0,0.0,0.0,0.0,0.0,0.0,0.09145192189478843,0.0,0.0,0.0,0.0,0.0,0.0,0.12
48,0.0,0.0,0.0,0.0,0.0,0.0,0.08475390625,0.0,0.0,0.0,0.0,0.0,0.0,0.193,0.0,0.0,0.0,0.0,0.0,0.0,0.0934131889774498,0.0,0.0,0.0,0.0,0.0,0.0,0.156
49,0.0,0.0,0.0,0.0,0.0,0.0,0.0863935546875,0.0,0.0,0.0,0.0,0.0,0.0,0.187,0.0,0.0,0.0,0.0,0.0,0.0,0.09534096400498612,0.0,0.0,0.0,0.0,0.0,0.0,0.16
50,0.0,0.0,0.0,0.0,0.0,0.0,0.0882392578125,0.0,0.0,0.0,0.0,0.0,0.0,0.172,0.0,0.0,0.0,0.0,0.0,0.0,0.09728618993635652,0.0,0.0,0.0,0.0,0.0,0.0,0.188
51,0.0,0.0,0.0,0.0,0.0,0.0,0.0900859375,0.0,0.0,0.0,0.0,0.0,0.0,0.182,0.0,0.0,0.0,0.0,0.0,0.0,0.09924643443279008,0.0,0.0,0.0,0.0,0.0,0.0,0.208
52,0.0,0.0,0.0,0.0,0.0,0.0,0.091931640625,0.0,0.0,0.0,0.0,0.0,0.0,0.184,0.0,0.0,0.0,0.0,0.0,0.0,0.10115362665483559,0.0,0.0,0.0,0.0,0.0,0.0,0.208
53,0.0,0.0,0.0,0.0,0.0,0.0,0.093791015625,0.0,0.0,0.0,0.0,0.0,0.0,0.195,0.0,0.0,0.0,0.0,0.0,0.0,0.1030908009770033,0.0,0.0,0.0,0.0,0.0,0.0,0.212
54,0.0,0.0,0.0,0.0,0.0,0.0,0.0956376953125,0.0,0.0,0.0,0.0,0.0,0.0,0.184,0.0,0.0,0.0,0.0,0.0,0.0,0.10505014236525426,0.0,0.0,0.0,0.0,0.0,0.0,0.22
55,0.0,0.0,0.0,0.0,0.0,0.0,0.0976904296875,0.0,0.0,0.0,0.0,0.0,0.0,0.192,0.0,0.0,0.0,0.0,0.0,0.0,0.10697553669215998,0.0,0.0,0.0,0.0,0.0,0.0,0.244
56,0.0,0.0,0.0,0.0,0.0,0.0,0.0995361328125,0.0,0.0,0.0,0.0,0.0,0.0,0.206,0.0,0.0,0.0,0.0,0.0,0.0,0.10898754977938525,0.0,0.0,0.0,0.0,0.0,0.0,0.26
57,0.0,0.0,0.0,0.0,0.0,0.0,0.1013828125,0.0,0.0,0.0,0.0,0.0,0.0,0.18,0.0,0.0,0.0,0.0,0.0,0.0,0.11085401686242419,0.0,0.0,0.0,0.0,0.0,0.0,0.312
58,0.0,0.0,0.0,0.0,0.0,0.0,0.103435546875,0.0,0.0,0.0,0.0,0.0,0.0,0.191,0.0,0.0,0.0,0.0,0.0,0.0,0.11274701641522136,0.0,0.0,0.0,0.0,0.0,0.0,0.264
59,0.0,0.0,0.0,0.0,0.0,0.0,0.1050751953125,0.0,0.0,0.0,0.0,0.0,0.0,0.186,0.0,0.0,0.0,0.0,0.0,0.0,0.11464938290912526,0.0,0.0,0.0,0.0,0.0,0.0,0.24
60,0.0,0.0,0.0,0.0,0.0,0.0,0.106921875,0.0,0.0,0.0,0.0,0.0,0.0,0.186,0.0,0.0,0.0,0.0,0.0,0.0,0.11661739404799039,0.0,0.0,0.0,0.0,0.0,0.0,0.22
61,0.0,0.0,0.0,0.0,0.0,0.0,0.108974609375,0.0,0.0,0.0,0.0,0.0,0.0,0.191,0.0,0.0,0.0,0.0,0.0,0.0,0.11847785126297748,0.0,0.0,0.0,0.0,0.0,0.0,0.156
62,0.0,0.0,0.0,0.0,0.0,0.0,0.11102734375,0.0,0.0,0.0,0.0,0.0,0.0,0.193,0.0,0.0,0.0,0.0,0.0,0.0,0.1203883436919738,0.0,0.0,0.0,0.0,0.0,0.0,0.14
63,0.0,0.0,0.0,0.0,0.0,0.0,0.1134931640625,0.0,0.0,0.0,0.0,0.0,0.0,0.233,0.0,0.0,0.0,0.0,0.0,0.0,0.12230608141214915,0.0,0.0,0.0,0.0,0.0,0.0,0.12
64,0.0,0.0,0.0,0.0,0.0,0.0,0.1157529296875,0.0,0.0,0.0,0.0,0.0,0.0,0.245,0.0,0.0,0.0,0.0,0.0,0.0,0.12419470542883344,0.0,0.0,0.0,0.0,0.0,0.0,0.128
65,0.0,0.0,0.0,0.0,0.0,0.0,0.1178056640625,0.0,0.0,0.0,0.0,0.0,0.0,0.215,0.0,0.0,0.0,0.0,0.0,0.0,0.12609199079382855,0.0,0.0,0.0,0.0,0.0,0.0,0.156
66,0.0,0.0,0.0,0.0,0.0,0.0,0.1196513671875,0.0,0.0,0.0,0.0,0.0,0.0,0.194,0.0,0.0,0.0,0.0,0.0,0.0,0.12838610201968578,0.0,0.0,0.0,0.0,0.0,0.0,0.136
67,0.0,0.0,0.0,0.0,0.0,0.0,0.1212919921875,0.0,0.0,0.0,0.0,0.0,0.0,0.182,0.0,0.0,0.0,0.0,0.0,0.0,0.12987847851289697,0.0,0.0,0.0,0.0,0.0,0.0,0.136
68,0.0,0.0,0.0,0.0,0.0,0.0,0.1233447265625,0.0,0.0,0.0,0.0,0.0,0.0,0.182,0.0,0.0,0.0,0.0,0.0,0.0,0.13181116224667544,0.0,0.0,0.0,0.0,0.0,0.0,0.116
69,0.0,0.0,0.0,0.0,0.0,0.0,0.1251904296875,0.0,0.0,0.0,0.0,0.0,0.0,0.191,0.0,0.0,0.0,0.0,0.0,0.0,0.13399899512623656,0.0,0.0,0.0,0.0,0.0,0.0,0.128
70,0.0,0.0,0.0,0.0,0.0,0.0,0.1272431640625,0.0,0.0,0.0,0.0,0.0,0.0,0.195,0.0,0.0,0.0,0.0,0.0,0.0,0.13552877931708474,0.0,0.0,0.0,0.0,0.0,0.0,0.14
71,0.0,0.0,0.0,0.0,0.0,0.0,0.1288828125,0.0,0.0,0.0,0.0,0.0,0.0,0.185,0.0,0.0,0.0,0.0,0.0,0.0,0.13748239541996182,0.0,0.0,0.0,0.0,0.0,0.0,0.168
72,0.0,0.0,0.0,0.0,0.0,0.0,0.1307294921875,0.0,0.0,0.0,0.0,0.0,0.0,0.174,0.0,0.0,0.0,0.0,0.0,0.0,0.13929718397010757,0.0,0.0,0.0,0.0,0.0,0.0,0.156
73,0.0,0.0,0.0,0.0,0.0,0.0,0.1323818359375,0.0,0.0,0.0,0.0,0.0,0.0,0.173,0.0,0.0,0.0,0.0,0.0,0.0,0.1411840724405166,0.0,0.0,0.0,0.0,0.0,0.0,0.136
74,0.0,0.0,0.0,0.0,0.0,0.0,0.134021484375,0.0,0.0,0.0,0.0,0.0,0.0,0.168,0.0,0.0,0.0,0.0,0.0,0.0,0.14304889909132915,0.0,0.0,0.0,0.0,0.0,0.0,0.156
75,0.0,0.0,0.0,0.0,0.0,0.0,0.1356611328125,0.0,0.0,0.0,0.0,0.0,0.0,0.157,0.0,0.0,0.0,0.0,0.0,0.0,0.1449047896035691,0.0,0.0,0.0,0.0,0.0,0.0,0.168
76,0.0,0.0,0.0,0.0,0.0,0.0,0.1375078125,0.0,0.0,0.0,0.0,0.0,0.0,0.174,0.0,0.0,0.0,0.0,0.0,0.0,0.14676654473808523,0.0,0.0,0.0,0.0,0.0,0.0,0.18
77,0.0,0.0,0.0,0.0,0.0,0.0,0.139560546875,0.0,0.0,0.0,0.0,0.0,0.0,0.195,0.0,0.0,0.0,0.0,0.0,0.0,0.14863060942282,0.0,0.0,0.0,0.0,0.0,0.0,0.148
78,0.0,0.0,0.0,0.0,0.0,0.0,0.1414072265625,0.0,0.0,0.0,0.0,0.0,0.0,0.192,0.0,0.0,0.0,0.0,0.0,0.0,0.1505010981148261,0.0,0.0,0.0,0.0,0.0,0.0,0.172
79,0.0,0.0,0.0,0.0,0.0,0.0,0.1432529296875,0.0,0.0,0.0,0.0,0.0,0.0,0.186,0.0,0.0,0.0,0.0,0.0,0.0,0.15240532371183566,0.0,0.0,0.0,0.0,0.0,0.0,0.208
80,0.0,0.0,0.0,0.0,0.0,0.0,0.144892578125,0.0,0.0,0.0,0.0,0.0,0.0,0.185,0.0,0.0,0.0,0.0,0.0,0.0,0.15417172482127656,0.0,0.0,0.0,0.0,0.0,0.0,0.208
81,0.0,0.0,0.0,0.0,0.0,0.0,0.146751953125,0.0,0.0,0.0,0.0,0.0,0.0,0.172,0.0,0.0,0.0,0.0,0.0,0.0,0.15603791873379197,0.0,0.0,0.0,0.0,0.0,0.0,0.2
82,0.0,0.0,0.0,0.0,0.0,0.0,0.1485986328125,0.0,0.0,0.0,0.0,0.0,0.0,0.177,0.0,0.0,0.0,0.0,0.0,0.0,0.1578642767910889,0.0,0.0,0.0,0.0,0.0,0.0,0.172
83,0.0,0.0,0.0,0.0,0.0,0.0,0.1506513671875,0.0,0.0,0.0,0.0,0.0,0.0,0.197,0.0,0.0,0.0,0.0,0.0,0.0,0.1597002977054539,0.0,0.0,0.0,0.0,0.0,0.0,0.148
84,0.0,0.0,0.0,0.0,0.0,0.0,0.1527041015625,0.0,0.0,0.0,0.0,0.0,0.0,0.206,0.0,0.0,0.0,0.0,0.0,0.0,0.16153930420289994,0.0,0.0,0.0,0.0,0.0,0.0,0.128
85,0.0,0.0,0.0,0.0,0.0,0.0,0.1547568359375,0.0,0.0,0.0,0.0,0.0,0.0,0.206,0.0,0.0,0.0,0.0,0.0,0.0,0.16336126923981512,0.0,0.0,0.0,0.0,0.0,0.0,0.096
86,0.0,0.0,0.0,0.0,0.0,0.0,0.1566025390625,0.0,0.0,0.0,0.0,0.0,0.0,0.194,0.0,0.0,0.0,0.0,0.0,0.0,0.16518920738186862,0.0,0.0,0.0,0.0,0.0,0.0,0.084
87,0.0,0.0,0.0,0.0,0.0,0.0,0.15865625,0.0,0.0,0.0,0.0,0.0,0.0,0.195,0.0,0.0,0.0,0.0,0.0,0.0,0.16699406116855228,0.0,0.0,0.0,0.0,0.0,0.0,0.104
88,0.0,0.0,0.0,0.0,0.0,0.0,0.160501953125,0.0,0.0,0.0,0.0,0.0,0.0,0.199,0.0,0.0,0.0,0.0,0.0,0.0,0.16887261711693194,0.0,0.0,0.0,0.0,0.0,0.0,0.088
89,0.0,0.0,0.0,0.0,0.0,0.0,0.1621416015625,0.0,0.0,0.0,0.0,0.0,0.0,0.178,0.0,0.0,0.0,0.0,0.0,0.0,0.17061261937121455,0.0,0.0,0.0,0.0,0.0,0.0,0.096
90,0.0,0.0,0.0,0.0,0.0,0.0,0.16398828125,0.0,0.0,0.0,0.0,0.0,0.0,0.175,0.0,0.0,0.0,0.0,0.0,0.0,0.17242557557817928,0.0,0.0,0.0,0.0,0.0,0.0,0.104
91,0.0,0.0,0.0,0.0,0.0,0.0,0.1656279296875,0.0,0.0,0.0,0.0,0.0,0.0,0.166,0.0,0.0,0.0,0.0,0.0,0.0,0.174535317007693,0.0,0.0,0.0,0.0,0.0,0.0,0.104
92,0.0,0.0,0.0,0.0,0.0,0.0,0.1670732421875,0.0,0.0,0.0,0.0,0.0,0.0,0.16,0.0,0.0,0.0,0.0,0.0,0.0,0.1760322565077384,0.0,0.0,0.0,0.0,0.0,0.0,0.12
93,0.0,0.0,0.0,0.0,0.0,0.0,0.1685068359375,0.0,0.0,0.0,0.0,0.0,0.0,0.155,0.0,0.0,0.0,0.0,0.0,0.0,0.17783531741233694,0.0,0.0,0.0,0.0,0.0,0.0,0.136
94,0.0,0.0,0.0,0.0,0.0,0.0,0.170353515625,0.0,0.0,0.0,0.0,0.0,0.0,0.155,0.0,0.0,0.0,0.0,0.0,0.0,0.179627239510597,0.0,0.0,0.0,0.0,0.0,0.0,0.148
95,0.0,0.0,0.0,0.0,0.0,0.0,0.1719931640625,0.0,0.0,0.0,0.0,0.0,0.0,0.174,0.0,0.0,0.0,0.0,0.0,0.0,0.18140322551873264,0.0,0.0,0.0,0.0,0.0,0.0,0.16
96,0.0,0.0,0.0,0.0,0.0,0.0,0.1738388671875,0.0,0.0,0.0,0.0,0.0,0.0,0.171,0.0,0.0,0.0,0.0,0.0,0.0,0.1831898540005517,0.0,0.0,0.0,0.0,0.0,0.0,0.18
97,0.0,0.0,0.0,0.0,0.0,0.0,0.17528515625,0.0,0.0,0.0,0.0,0.0,0.0,0.164,0.0,0.0,0.0,0.0,0.0,0.0,0.184958593968248,0.0,0.0,0.0,0.0,0.0,0.0,0.168
98,0.0,0.0,0.0,0.0,0.0,0.0,0.1769248046875,0.0,0.0,0.0,0.0,0.0,0.0,0.154,0.0,0.0,0.0,0.0,0.0,0.0,0.18673172791023163,0.0,0.0,0.0,0.0,0.0,0.0,0.192
99,0.0,0.0,0.0,0.0,0.0,0.0,0.178357421875,0.0,0.0,0.0,0.0,0.0,0.0,0.157,0.0,0.0,0.0,0.0,0.0,0.0,0.18849013073897058,0.0,0.0,0.0,0.0,0.0,0.0,0.208
100,0.0,0.0,0.0,0.0,0.0,0.0,0.179998046875,0.0,0.0,0.0,0.0,0.0,0.0,0.163,0.0,0.0,0.0,0.0,0.0,0.0,0.19025657300328552,0.0,0.0,0.0,0.0,0.0,0.0,0.2
101,0.0,0.0,0.0,0.0,0.0,0.0,0.18184375,0.0,0.0,0.0,0.0,0.0,0.0,0.164,0.0,0.0,0.0,0.0,0.0,0.0,0.19204939574715077,0.0,0.0,0.0,0.0,0.0,0.0,0.244
102,0.0,0.0,0.0,0.0,0.0,0.0,0.183703125,0.0,0.0,0.0,0.0,0.0,0.0,0.181,0.0,0.0,0.0,0.0,0.0,0.0,0.19376797481275285,0.0,0.0,0.0,0.0,0.0,0.0,0.232
103,0.0,0.0,0.0,0.0,0.0,0.0,0.185548828125,0.0,0.0,0.0,0.0,0.0,0.0,0.185,0.0,0.0,0.0,0.0,0.0,0.0,0.19552029006677965,0.0,0.0,0.0,0.0,0.0,0.0,0.264
104,0.0,0.0,0.0,0.0,0.0,0.0,0.1873955078125,0.0,0.0,0.0,0.0,0.0,0.0,0.183,0.0,0.0,0.0,0.0,0.0,0.0,0.19725582498775107,0.0,0.0,0.0,0.0,0.0,0.0,0.292
105,0.0,0.0,0.0,0.0,0.0,0.0,0.18903515625,0.0,0.0,0.0,0.0,0.0,0.0,0.17,0.0,0.0,0.0,0.0,0.0,0.0,0.19899866952340944,0.0,0.0,0.0,0.0,0.0,0.0,0.312
106,0.0,0.0,0.0,0.0,0.0,0.0,0.1908818359375,0.0,0.0,0.0,0.0,0.0,0.0,0.176,0.0,0.0,0.0,0.0,0.0,0.0,0.20093139759924739,0.0,0.0,0.0,0.0,0.0,0.0,0.272
107,0.0,0.0,0.0,0.0,0.0,0.0,0.1929345703125,0.0,0.0,0.0,0.0,0.0,0.0,0.195,0.0,0.0,0.0,0.0,0.0,0.0,0.20247024251215626,0.0,0.0,0.0,0.0,0.0,0.0,0.26
108,0.0,0.0,0.0,0.0,0.0,0.0,0.1929345703125,0.0,0.0,0.0,0.0,0.0,0.0,0.195,0.0,0.0,0.0,0.0,0.0,0.0,0.20417603936205025,0.0,0.0,0.0,0.0,0.0,0.0,0.26
109,0.0,0.0,0.0,0.0,0.0,0.0,0.1929345703125,0.0,0.0,0.0,0.0,0.0,0.0,0.195,0.0,0.0,0.0,0.0,0.0,0.0,0.2058905659145175,0.0,0.0,0.0,0.0,0.0,0.0,0.26
110,0.0,0.0,0.0,0.0,0.0,0.0,0.1990927734375,0.0,0.0,0.0,0.0,0.0,0.0,0.206,0.0,0.0,0.0,0.0,0.0,0.0,0.20760391524583077,0.0,0.0,0.0,0.0,0.0,0.0,0.12
111,0.0,0.0,0.0,0.0,0.0,0.0,0.200939453125,0.0,0.0,0.0,0.0,0.0,0.0,0.204,0.0,0.0,0.0,0.0,0.0,0.0,0.209440700004194,0.0,0.0,0.0,0.0,0.0,0.0,0.136
112,0.0,0.0,0.0,0.0,0.0,0.0,0.20278515625,0.0,0.0,0.0,0.0,0.0,0.0,0.182,0.0,0.0,0.0,0.0,0.0,0.0,0.21101542422784902,0.0,0.0,0.0,0.0,0.0,0.0,0.14
113,0.0,0.0,0.0,0.0,0.0,0.0,0.2046318359375,0.0,0.0,0.0,0.0,0.0,0.0,0.193,0.0,0.0,0.0,0.0,0.0,0.0,0.212711153515792,0.0,0.0,0.0,0.0,0.0,0.0,0.148
114,0.0,0.0,0.0,0.0,0.0,0.0,0.2064912109375,0.0,0.0,0.0,0.0,0.0,0.0,0.184,0.0,0.0,0.0,0.0,0.0,0.0,0.21439786585254264,0.0,0.0,0.0,0.0,0.0,0.0,0.16
115,0.0,0.0,0.0,0.0,0.0,0.0,0.208130859375,0.0,0.0,0.0,0.0,0.0,0.0,0.174,0.0,0.0,0.0,0.0,0.0,0.0,0.21608514481795438,0.0,0.0,0.0,0.0,0.0,0.0,0.168
116,0.0,0.0,0.0,0.0,0.0,0.0,0.2097705078125,0.0,0.0,0.0,0.0,0.0,0.0,0.173,0.0,0.0,0.0,0.0,0.0,0.0,0.21777289152450155,0.0,0.0,0.0,0.0,0.0,0.0,0.12
117,0.0,0.0,0.0,0.0,0.0,0.0,0.21141015625,0.0,0.0,0.0,0.0,0.0,0.0,0.161,0.0,0.0,0.0,0.0,0.0,0.0,0.2194382421417005,0.0,0.0,0.0,0.0,0.0,0.0,0.108
118,0.0,0.0,0.0,0.0,0.0,0.0,0.2130498046875,0.0,0.0,0.0,0.0,0.0,0.0,0.153,0.0,0.0,0.0,0.0,0.0,0.0,0.22110714970077933,0.0,0.0,0.0,0.0,0.0,0.0,0.148
119,0.0,0.0,0.0,0.0,0.0,0.0,0.2144951171875,0.0,0.0,0.0,0.0,0.0,0.0,0.159,0.0,0.0,0.0,0.0,0.0,0.0,0.22277754293666718,0.0,0.0,0.0,0.0,0.0,0.0,0.16
120,0.0,0.0,0.0,0.0,0.0,0.0,0.2159287109375,0.0,0.0,0.0,0.0,0.0,0.0,0.147,0.0,0.0,0.0,0.0,0.0,0.0,0.22442771903113423,0.0,0.0,0.0,0.0,0.0,0.0,0.16
121,0.0,0.0,0.0,0.0,0.0,0.0,0.2171552734375,0.0,0.0,0.0,0.0,0.0,0.0,0.128,0.0,0.0,0.0,0.0,0.0,0.0,0.22616044735710786,0.0,0.0,0.0,0.0,0.0,0.0,0.14
122,0.0,0.0,0.0,0.0,0.0,0.0,0.2186015625,0.0,0.0,0.0,0.0,0.0,0.0,0.142,0.0,0.0,0.0,0.0,0.0,0.0,0.2277742015500729,0.0,0.0,0.0,0.0,0.0,0.0,0.104
123,0.0,0.0,0.0,0.0,0.0,0.0,0.2200341796875,0.0,0.0,0.0,0.0,0.0,0.0,0.152,0.0,0.0,0.0,0.0,0.0,0.0,0.2293806910495463,0.0,0.0,0.0,0.0,0.0,0.0,0.136
124,0.0,0.0,0.0,0.0,0.0,0.0,0.221673828125,0.0,0.0,0.0,0.0,0.0,0.0,0.143,0.0,0.0,0.0,0.0,0.0,0.0,0.2310032533318189,0.0,0.0,0.0,0.0,0.0,0.0,0.168
125,0.0,0.0,0.0,0.0,0.0,0.0,0.2231201171875,0.0,0.0,0.0,0.0,0.0,0.0,0.149,0.0,0.0,0.0,0.0,0.0,0.0,0.2326383251475372,0.0,0.0,0.0,0.0,0.0,0.0,0.148
126,0.0,0.0,0.0,0.0,0.0,0.0,0.224759765625,0.0,0.0,0.0,0.0,0.0,0.0,0.156,0.0,0.0,0.0,0.0,0.0,0.0,0.234258654206482,0.0,0.0,0.0,0.0,0.0,0.0,0.16
127,0.0,0.0,0.0,0.0,0.0,0.0,0.226193359375,0.0,0.0,0.0,0.0,0.0,0.0,0.153,0.0,0.0,0.0,0.0,0.0,0.0,0.23588054765676386,0.0,0.0,0.0,0.0,0.0,0.0,0.156
128,0.0,0.0,0.0,0.0,0.0,0.0,0.2276259765625,0.0,0.0,0.0,0.0,0.0,0.0,0.147,0.0,0.0,0.0,0.0,0.0,0.0,0.2375008911344486,0.0,0.0,0.0,0.0,0.0,0.0,0.172
129,0.0,0.0,0.0,0.0,0.0,0.0,0.2292783203125,0.0,0.0,0.0,0.0,0.0,0.0,0.154,0.0,0.0,0.0,0.0,0.0,0.0,0.23908522917057892,0.0,0.0,0.0,0.0,0.0,0.0,0.192
130,0.0,0.0,0.0,0.0,0.0,0.0,0.23091796875,0.0,0.0,0.0,0.0,0.0,0.0,0.164,0.0,0.0,0.0,0.0,0.0,0.0,0.24069205092598725,0.0,0.0,0.0,0.0,0.0,0.0,0.2
131,0.0,0.0,0.0,0.0,0.0,0.0,0.2323515625,0.0,0.0,0.0,0.0,0.0,0.0,0.157,0.0,0.0,0.0,0.0,0.0,0.0,0.24229246563994883,0.0,0.0,0.0,0.0,0.0,0.0,0.224
132,0.0,0.0,0.0,0.0,0.0,0.0,0.234197265625,0.0,0.0,0.0,0.0,0.0,0.0,0.16,0.0,0.0,0.0,0.0,0.0,0.0,0.2438746068754163,0.0,0.0,0.0,0.0,0.0,0.0,0.22
133,0.0,0.0,0.0,0.0,0.0,0.0,0.2358505859375,0.0,0.0,0.0,0.0,0.0,0.0,0.168,0.0,0.0,0.0,0.0,0.0,0.0,0.24545856752354314,0.0,0.0,0.0,0.0,0.0,0.0,0.172
134,0.0,0.0,0.0,0.0,0.0,0.0,0.237283203125,0.0,0.0,0.0,0.0,0.0,0.0,0.161,0.0,0.0,0.0,0.0,0.0,0.0,0.24703952852250569,0.0,0.0,0.0,0.0,0.0,0.0,0.136
135,0.0,0.0,0.0,0.0,0.0,0.0,0.2391298828125,0.0,0.0,0.0,0.0,0.0,0.0,0.165,0.0,0.0,0.0,0.0,0.0,0.0,0.24860004279905046,0.0,0.0,0.0,0.0,0.0,0.0,0.116
136,0.0,0.0,0.0,0.0,0.0,0.0,0.2409755859375,0.0,0.0,0.0,0.0,0.0,0.0,0.19,0.0,0.0,0.0,0.0,0.0,0.0,0.2501663971635268,0.0,0.0,0.0,0.0,0.0,0.0,0.084
137,0.0,0.0,0.0,0.0,0.0,0.0,0.242822265625,0.0,0.0,0.0,0.0,0.0,0.0,0.179,0.0,0.0,0.0,0.0,0.0,0.0,0.2517280326078458,0.0,0.0,0.0,0.0,0.0,0.0,0.088
138,0.0,0.0,0.0,0.0,0.0,0.0,0.244875,0.0,0.0,0.0,0.0,0.0,0.0,0.191,0.0,0.0,0.0,0.0,0.0,0.0,0.2532787276048935,0.0,0.0,0.0,0.0,0.0,0.0,0.088
139,0.0,0.0,0.0,0.0,0.0,0.0,0.2467216796875,0.0,0.0,0.0,0.0,0.0,0.0,0.192,0.0,0.0,0.0,0.0,0.0,0.0,0.2548196760161027,0.0,0.0,0.0,0.0,0.0,0.0,0.096
140,0.0,0.0,0.0,0.0,0.0,0.0,0.2483740234375,0.0,0.0,0.0,0.0,0.0,0.0,0.182,0.0,0.0,0.0,0.0,0.0,0.0,0.25636563280439467,0.0,0.0,0.0,0.0,0.0,0.0,0.084
141,0.0,0.0,0.0,0.0,0.0,0.0,0.249806640625,0.0,0.0,0.0,0.0,0.0,0.0,0.164,0.0,0.0,0.0,0.0,0.0,0.0,0.2578964428016994,0.0,0.0,0.0,0.0,0.0,0.0,0.076
142,0.0,0.0,0.0,0.0,0.0,0.0,0.2516533203125,0.0,0.0,0.0,0.0,0.0,0.0,0.159,0.0,0.0,0.0,0.0,0.0,0.0,0.2594188193008475,0.0,0.0,0.0,0.0,0.0,0.0,0.12
143,0.0,0.0,0.0,0.0,0.0,0.0,0.2530859375,0.0,0.0,0.0,0.0,0.0,0.0,0.16,0.0,0.0,0.0,0.0,0.0,0.0,0.26094048389381386,0.0,0.0,0.0,0.0,0.0,0.0,0.104
144,0.0,0.0,0.0,0.0,0.0,0.0,0.2545322265625,0.0,0.0,0.0,0.0,0.0,0.0,0.14,0.0,0.0,0.0,0.0,0.0,0.0,0.26245337187875073,0.0,0.0,0.0,0.0,0.0,0.0,0.116
145,0.0,0.0,0.0,0.0,0.0,0.0,0.2559658203125,0.0,0.0,0.0,0.0,0.0,0.0,0.143,0.0,0.0,0.0,0.0,0.0,0.0,0.2639571161601338,0.0,0.0,0.0,0.0,0.0,0.0,0.12
146,0.0,0.0,0.0,0.0,0.0,0.0,0.2573984375,0.0,0.0,0.0,0.0,0.0,0.0,0.143,0.0,0.0,0.0,0.0,0.0,0.0,0.2654532469145543,0.0,0.0,0.0,0.0,0.0,0.0,0.14
147,0.0,0.0,0.0,0.0,0.0,0.0,0.2588447265625,0.0,0.0,0.0,0.0,0.0,0.0,0.149,0.0,0.0,0.0,0.0,0.0,0.0,0.2669613781476562,0.0,0.0,0.0,0.0,0.0,0.0,0.168
148,0.0,0.0,0.0,0.0,0.0,0.0,0.26027734375,0.0,0.0,0.0,0.0,0.0,0.0,0.149,0.0,0.0,0.0,0.0,0.0,0.0,0.268433780691293,0.0,0.0,0.0,0.0,0.0,0.0,0.168
149,0.0,0.0,0.0,0.0,0.0,0.0,0.26150390625,0.0,0.0,0.0,0.0,0.0,0.0,0.135,0.0,0.0,0.0,0.0,0.0,0.0,0.269910645729237,0.0,0.0,0.0,0.0,0.0,0.0,0.172
150,0.0,0.0,0.0,0.0,0.0,0.0,0.2629501953125,0.0,0.0,0.0,0.0,0.0,0.0,0.142,0.0,0.0,0.0,0.0,0.0,0.0,0.27144429029955636,0.0,0.0,0.0,0.0,0.0,0.0,0.2
151,0.0,0.0,0.0,0.0,0.0,0.0,0.2643837890625,0.0,0.0,0.0,0.0,0.0,0.0,0.142,0.0,0.0,0.0,0.0,0.0,0.0,0.2728519758867988,0.0,0.0,0.0,0.0,0.0,0.0,0.224
152,0.0,0.0,0.0,0.0,0.0,0.0,0.2658291015625,0.0,0.0,0.0,0.0,0.0,0.0,0.145,0.0,0.0,0.0,0.0,0.0,0.0,0.27431948756256985,0.0,0.0,0.0,0.0,0.0,0.0,0.224
153,0.0,0.0,0.0,0.0,0.0,0.0,0.2670693359375,0.0,0.0,0.0,0.0,0.0,0.0,0.126,0.0,0.0,0.0,0.0,0.0,0.0,0.276090441997882,0.0,0.0,0.0,0.0,0.0,0.0,0.232
154,0.0,0.0,0.0,0.0,0.0,0.0,0.268501953125,0.0,0.0,0.0,0.0,0.0,0.0,0.137,0.0,0.0,0.0,0.0,0.0,0.0,0.2772073634312097,0.0,0.0,0.0,0.0,0.0,0.0,0.24
155,0.0,0.0,0.0,0.0,0.0,0.0,0.26953515625,0.0,0.0,0.0,0.0,0.0,0.0,0.131,0.0,0.0,0.0,0.0,0.0,0.0,0.27864887809450817,0.0,0.0,0.0,0.0,0.0,0.0,0.26
156,0.0,0.0,0.0,0.0,0.0,0.0,0.2711748046875,0.0,0.0,0.0,0.0,0.0,0.0,0.125,0.0,0.0,0.0,0.0,0.0,0.0,0.2800881279416319,0.0,0.0,0.0,0.0,0.0,0.0,0.264
157,0.0,0.0,0.0,0.0,0.0,0.0,0.272607421875,0.0,0.0,0.0,0.0,0.0,0.0,0.157,0.0,0.0,0.0,0.0,0.0,0.0,0.28205727928182805,0.0,0.0,0.0,0.0,0.0,0.0,0.296
158,0.0,0.0,0.0,0.0,0.0,0.0,0.2742470703125,0.0,0.0,0.0,0.0,0.0,0.0,0.154,0.0,0.0,0.0,0.0,0.0,0.0,0.2829314659884487,0.0,0.0,0.0,0.0,0.0,0.0,0.312
159,0.0,0.0,0.0,0.0,0.0,0.0,0.2754873046875,0.0,0.0,0.0,0.0,0.0,0.0,0.146,0.0,0.0,0.0,0.0,0.0,0.0,0.2843468900915933,0.0,0.0,0.0,0.0,0.0,0.0,0.312
160,0.0,0.0,0.0,0.0,0.0,0.0,0.277126953125,0.0,0.0,0.0,0.0,0.0,0.0,0.136,0.0,0.0,0.0,0.0,0.0,0.0,0.28573389751727013,0.0,0.0,0.0,0.0,0.0,0.0,0.304
161,0.0,0.0,0.0,0.0,0.0,0.0,0.2785595703125,0.0,0.0,0.0,0.0,0.0,0.0,0.153,0.0,0.0,0.0,0.0,0.0,0.0,0.28713786136133396,0.0,0.0,0.0,0.0,0.0,0.0,0.272
162,0.0,0.0,0.0,0.0,0.0,0.0,0.280005859375,0.0,0.0,0.0,0.0,0.0,0.0,0.149,0.0,0.0,0.0,0.0,0.0,0.0,0.28853416844581753,0.0,0.0,0.0,0.0,0.0,0.0,0.224
163,0.0,0.0,0.0,0.0,0.0,0.0,0.2816455078125,0.0,0.0,0.0,0.0,0.0,0.0,0.161,0.0,0.0,0.0,0.0,0.0,0.0,0.2899073160433858,0.0,0.0,0.0,0.0,0.0,0.0,0.188
164,0.0,0.0,0.0,0.0,0.0,0.0,0.2834912109375,0.0,0.0,0.0,0.0,0.0,0.0,0.166,0.0,0.0,0.0,0.0,0.0,0.0,0.29128660525076383,0.0,0.0,0.0,0.0,0.0,0.0,0.168
165,0.0,0.0,0.0,0.0,0.0,0.0,0.2851318359375,0.0,0.0,0.0,0.0,0.0,0.0,0.166,0.0,0.0,0.0,0.0,0.0,0.0,0.29266850620412854,0.0,0.0,0.0,0.0,0.0,0.0,0.156
166,0.0,0.0,0.0,0.0,0.0,0.0,0.2865771484375,0.0,0.0,0.0,0.0,0.0,0.0,0.159,0.0,0.0,0.0,0.0,0.0,0.0,0.29400009294207935,0.0,0.0,0.0,0.0,0.0,0.0,0.16
167,0.0,0.0,0.0,0.0,0.0,0.0,0.288216796875,0.0,0.0,0.0,0.0,0.0,0.0,0.151,0.0,0.0,0.0,0.0,0.0,0.0,0.2953522874626735,0.0,0.0,0.0,0.0,0.0,0.0,0.14
168,0.0,0.0,0.0,0.0,0.0,0.0,0.289650390625,0.0,0.0,0.0,0.0,0.0,0.0,0.152,0.0,0.0,0.0,0.0,0.0,0.0,0.29678640675031864,0.0,0.0,0.0,0.0,0.0,0.0,0.156
169,0.0,0.0,0.0,0.0,0.0,0.0,0.2908896484375,0.0,0.0,0.0,0.0,0.0,0.0,0.143,0.0,0.0,0.0,0.0,0.0,0.0,0.29803701247731634,0.0,0.0,0.0,0.0,0.0,0.0,0.18
170,0.0,0.0,0.0,0.0,0.0,0.0,0.2921162109375,0.0,0.0,0.0,0.0,0.0,0.0,0.134,0.0,0.0,0.0,0.0,0.0,0.0,0.29936508352181884,0.0,0.0,0.0,0.0,0.0,0.0,0.14
171,0.0,0.0,0.0,0.0,0.0,0.0,0.2931494140625,0.0,0.0,0.0,0.0,0.0,0.0,0.107,0.0,0.0,0.0,0.0,0.0,0.0,0.300699656355922,0.0,0.0,0.0,0.0,0.0,0.0,0.168
172,0.0,0.0,0.0,0.0,0.0,0.0,0.2943759765625,0.0,0.0,0.0,0.0,0.0,0.0,0.11,0.0,0.0,0.0,0.0,0.0,0.0,0.302013476095324,0.0,0.0,0.0,0.0,0.0,0.0,0.16
173,0.0,0.0,0.0,0.0,0.0,0.0,0.2956025390625,0.0,0.0,0.0,0.0,0.0,0.0,0.125,0.0,0.0,0.0,0.0,0.0,0.0,0.30331702511647646,0.0,0.0,0.0,0.0,0.0,0.0,0.16
174,0.0,0.0,0.0,0.0,0.0,0.0,0.296634765625,0.0,0.0,0.0,0.0,0.0,0.0,0.113,0.0,0.0,0.0,0.0,0.0,0.0,0.3048831375731281,0.0,0.0,0.0,0.0,0.0,0.0,0.128
175,0.0,0.0,0.0,0.0,0.0,0.0,0.298068359375,0.0,0.0,0.0,0.0,0.0,0.0,0.121,0.0,0.0,0.0,0.0,0.0,0.0,0.3059076891697692,0.0,0.0,0.0,0.0,0.0,0.0,0.128
176,0.0,0.0,0.0,0.0,0.0,0.0,0.2991005859375,0.0,0.0,0.0,0.0,0.0,0.0,0.126,0.0,0.0,0.0,0.0,0.0,0.0,0.30720104894522693,0.0,0.0,0.0,0.0,0.0,0.0,0.136
177,0.0,0.0,0.0,0.0,0.0,0.0,0.3003271484375,0.0,0.0,0.0,0.0,0.0,0.0,0.115,0.0,0.0,0.0,0.0,0.0,0.0,0.308477336897234,0.0,0.0,0.0,0.0,0.0,0.0,0.148
178,0.0,0.0,0.0,0.0,0.0,0.0,0.3015673828125,0.0,0.0,0.0,0.0,0.0,0.0,0.119,0.0,0.0,0.0,0.0,0.0,0.0,0.30973705156538917,0.0,0.0,0.0,0.0,0.0,0.0,0.172
179,0.0,0.0,0.0,0.0,0.0,0.0,0.3027939453125,0.0,0.0,0.0,0.0,0.0,0.0,0.13,0.0,0.0,0.0,0.0,0.0,0.0,0.3110004757306226,0.0,0.0,0.0,0.0,0.0,0.0,0.168
180,0.0,0.0,0.0,0.0,0.0,0.0,0.3042265625,0.0,0.0,0.0,0.0,0.0,0.0,0.129,0.0,0.0,0.0,0.0,0.0,0.0,0.31226721863902185,0.0,0.0,0.0,0.0,0.0,0.0,0.168
181,0.0,0.0,0.0,0.0,0.0,0.0,0.3054658203125,0.0,0.0,0.0,0.0,0.0,0.0,0.134,0.0,0.0,0.0,0.0,0.0,0.0,0.3135176723008638,0.0,0.0,0.0,0.0,0.0,0.0,0.156
182,0.0,0.0,0.0,0.0,0.0,0.0,0.3066923828125,0.0,0.0,0.0,0.0,0.0,0.0,0.127,0.0,0.0,0.0,0.0,0.0,0.0,0.3147380146243339,0.0,0.0,0.0,0.0,0.0,0.0,0.192
183,0.0,0.0,0.0,0.0,0.0,0.0,0.307931640625,0.0,0.0,0.0,0.0,0.0,0.0,0.121,0.0,0.0,0.0,0.0,0.0,0.0,0.3159760945577782,0.0,0.0,0.0,0.0,0.0,0.0,0.168
184,0.0,0.0,0.0,0.0,0.0,0.0,0.309158203125,0.0,0.0,0.0,0.0,0.0,0.0,0.125,0.0,0.0,0.0,0.0,0.0,0.0,0.3171971699618685,0.0,0.0,0.0,0.0,0.0,0.0,0.188
185,0.0,0.0,0.0,0.0,0.0,0.0,0.310591796875,0.0,0.0,0.0,0.0,0.0,0.0,0.135,0.0,0.0,0.0,0.0,0.0,0.0,0.3184012413589188,0.0,0.0,0.0,0.0,0.0,0.0,0.148
186,0.0,0.0,0.0,0.0,0.0,0.0,0.3118310546875,0.0,0.0,0.0,0.0,0.0,0.0,0.13,0.0,0.0,0.0,0.0,0.0,0.0,0.3196186781051464,0.0,0.0,0.0,0.0,0.0,0.0,0.172
187,0.0,0.0,0.0,0.0,0.0,0.0,0.3130576171875,0.0,0.0,0.0,0.0,0.0,0.0,0.123,0.0,0.0,0.0,0.0,0.0,0.0,0.32083524152448956,0.0,0.0,0.0,0.0,0.0,0.0,0.208
188,0.0,0.0,0.0,0.0,0.0,0.0,0.314296875,0.0,0.0,0.0,0.0,0.0,0.0,0.129,0.0,0.0,0.0,0.0,0.0,0.0,0.32200558092815657,0.0,0.0,0.0,0.0,0.0,0.0,0.18
189,0.0,0.0,0.0,0.0,0.0,0.0,0.3155234375,0.0,0.0,0.0,0.0,0.0,0.0,0.13,0.0,0.0,0.0,0.0,0.0,0.0,0.32318193643877485,0.0,0.0,0.0,0.0,0.0,0.0,0.224
190,0.0,0.0,0.0,0.0,0.0,0.0,0.3169697265625,0.0,0.0,0.0,0.0,0.0,0.0,0.131,0.0,0.0,0.0,0.0,0.0,0.0,0.32437663683256757,0.0,0.0,0.0,0.0,0.0,0.0,0.212
191,0.0,0.0,0.0,0.0,0.0,0.0,0.3181962890625,0.0,0.0,0.0,0.0,0.0,0.0,0.126,0.0,0.0,0.0,0.0,0.0,0.0,0.32552085698967936,0.0,0.0,0.0,0.0,0.0,0.0,0.208
192,0.0,0.0,0.0,0.0,0.0,0.0,0.3192294921875,0.0,0.0,0.0,0.0,0.0,0.0,0.117,0.0,0.0,0.0,0.0,0.0,0.0,0.3266826432519105,0.0,0.0,0.0,0.0,0.0,0.0,0.232
193,0.0,0.0,0.0,0.0,0.0,0.0,0.3204560546875,0.0,0.0,0.0,0.0,0.0,0.0,0.117,0.0,0.0,0.0,0.0,0.0,0.0,0.32783462718641976,0.0,0.0,0.0,0.0,0.0,0.0,0.212
194,0.0,0.0,0.0,0.0,0.0,0.0,0.3216826171875,0.0,0.0,0.0,0.0,0.0,0.0,0.13,0.0,0.0,0.0,0.0,0.0,0.0,0.32897266373958983,0.0,0.0,0.0,0.0,0.0,0.0,0.172
195,0.0,0.0,0.0,0.0,0.0,0.0,0.32271484375,0.0,0.0,0.0,0.0,0.0,0.0,0.111,0.0,0.0,0.0,0.0,0.0,0.0,0.3301106899364737,0.0,0.0,0.0,0.0,0.0,0.0,0.16
196,0.0,0.0,0.0,0.0,0.0,0.0,0.3241484375,0.0,0.0,0.0,0.0,0.0,0.0,0.113,0.0,0.0,0.0,0.0,0.0,0.0,0.33125026196453655,0.0,0.0,0.0,0.0,0.0,0.0,0.128
197,0.0,0.0,0.0,0.0,0.0,0.0,0.3253876953125,0.0,0.0,0.0,0.0,0.0,0.0,0.136,0.0,0.0,0.0,0.0,0.0,0.0,0.33234849511030784,0.0,0.0,0.0,0.0,0.0,0.0,0.12
198,0.0,0.0,0.0,0.0,0.0,0.0,0.3268203125,0.0,0.0,0.0,0.0,0.0,0.0,0.132,0.0,0.0,0.0,0.0,0.0,0.0,0.3334559477151564,0.0,0.0,0.0,0.0,0.0,0.0,0.136
199,0.0,0.0,0.0,0.0,0.0,0.0,0.328046875,0.0,0.0,0.0,0.0,0.0,0.0,0.132,0.0,0.0,0.0,0.0,0.0,0.0,0.334568674556322,0.0,0.0,0.0,0.0,0.0,0.0,0.088
200,0.0,0.0,0.0,0.0,0.0,0.0,0.329287109375,0.0,0.0,0.0,0.0,0.0,0.0,0.13,0.0,0.0,0.0,0.0,0.0,0.0,0.33566958113907774,0.0,0.0,0.0,0.0,0.0,0.0,0.104
201,0.0,0.0,0.0,0.0,0.0,0.0,0.3307197265625,0.0,0.0,0.0,0.0,0.0,0.0,0.132,0.0,0.0,0.0,0.0,0.0,0.0,0.33673851453705494,0.0,0.0,0.0,0.0,0.0,0.0,0.096
202,0.0,0.0,0.0,0.0,0.0,0.0,0.331958984375,0.0,0.0,0.0,0.0,0.0,0.0,0.138,0.0,0.0,0.0,0.0,0.0,0.0,0.33781319828842654,0.0,0.0,0.0,0.0,0.0,0.0,0.104
203,0.0,0.0,0.0,0.0,0.0,0.0,0.3327724609375,0.0,0.0,0.0,0.0,0.0,0.0,0.111,0.0,0.0,0.0,0.0,0.0,0.0,0.33887691185127794,0.0,0.0,0.0,0.0,0.0,0.0,0.14
204,0.0,0.0,0.0,0.0,0.0,0.0,0.33401171875,0.0,0.0,0.0,0.0,0.0,0.0,0.089,0.0,0.0,0.0,0.0,0.0,0.0,0.33994378767023403,0.0,0.0,0.0,0.0,0.0,0.0,0.116
205,0.0,0.0,0.0,0.0,0.0,0.0,0.33523828125,0.0,0.0,0.0,0.0,0.0,0.0,0.116,0.0,0.0,0.0,0.0,0.0,0.0,0.3410052418957241,0.0,0.0,0.0,0.0,0.0,0.0,0.116
206,0.0,0.0,0.0,0.0,0.0,0.0,0.336271484375,0.0,0.0,0.0,0.0,0.0,0.0,0.116,0.0,0.0,0.0,0.0,0.0,0.0,0.3420261870230661,0.0,0.0,0.0,0.0,0.0,0.0,0.104
207,0.0,0.0,0.0,0.0,0.0,0.0,0.3372919921875,0.0,0.0,0.0,0.0,0.0,0.0,0.103,0.0,0.0,0.0,0.0,0.0,0.0,0.34306078555604613,0.0,0.0,0.0,0.0,0.0,0.0,0.128
208,0.0,0.0,0.0,0.0,0.0,0.0,0.3381181640625,0.0,0.0,0.0,0.0,0.0,0.0,0.103,0.0,0.0,0.0,0.0,0.0,0.0,0.34408984058995584,0.0,0.0,0.0,0.0,0.0,0.0,0.148
209,0.0,0.0,0.0,0.0,0.0,0.0,0.3391376953125,0.0,0.0,0.0,0.0,0.0,0.0,0.096,0.0,0.0,0.0,0.0,0.0,0.0,0.3450961789207461,0.0,0.0,0.0,0.0,0.0,0.0,0.136
210,0.0,0.0,0.0,0.0,0.0,0.0,0.3401708984375,0.0,0.0,0.0,0.0,0.0,0.0,0.098,0.0,0.0,0.0,0.0,0.0,0.0,0.34612901659848905,0.0,0.0,0.0,0.0,0.0,0.0,0.108
211,0.0,0.0,0.0,0.0,0.0,0.0,0.3401708984375,0.0,0.0,0.0,0.0,0.0,0.0,0.098,0.0,0.0,0.0,0.0,0.0,0.0,0.34713168841122566,0.0,0.0,0.0,0.0,0.0,0.0,0.108
212,0.0,0.0,0.0,0.0,0.0,0.0,0.3420166015625,0.0,0.0,0.0,0.0,0.0,0.0,0.093,0.0,0.0,0.0,0.0,0.0,0.0,0.3481042293391145,0.0,0.0,0.0,0.0,0.0,0.0,0.136
213,0.0,0.0,0.0,0.0,0.0,0.0,0.3430498046875,0.0,0.0,0.0,0.0,0.0,0.0,0.111,0.0,0.0,0.0,0.0,0.0,0.0,0.3491842108523971,0.0,0.0,0.0,0.0,0.0,0.0,0.148
214,0.0,0.0,0.0,0.0,0.0,0.0,0.3440693359375,0.0,0.0,0.0,0.0,0.0,0.0,0.1,0.0,0.0,0.0,0.0,0.0,0.0,0.35043632373098643,0.0,0.0,0.0,0.0,0.0,0.0,0.16
215,0.0,0.0,0.0,0.0,0.0,0.0,0.344896484375,0.0,0.0,0.0,0.0,0.0,0.0,0.092,0.0,0.0,0.0,0.0,0.0,0.0,0.35103851958445703,0.0,0.0,0.0,0.0,0.0,0.0,0.172
216,0.0,0.0,0.0,0.0,0.0,0.0,0.345515625,0.0,0.0,0.0,0.0,0.0,0.0,0.08,0.0,0.0,0.0,0.0,0.0,0.0,0.35196757893315017,0.0,0.0,0.0,0.0,0.0,0.0,0.168
217,0.0,0.0,0.0,0.0,0.0,0.0,0.345515625,0.0,0.0,0.0,0.0,0.0,0.0,0.08,0.0,0.0,0.0,0.0,0.0,0.0,0.35292150222451824,0.0,0.0,0.0,0.0,0.0,0.0,0.168
218,0.0,0.0,0.0,0.0,0.0,0.0,0.347568359375,0.0,0.0,0.0,0.0,0.0,0.0,0.098,0.0,0.0,0.0,0.0,0.0,0.0,0.3538517321544069,0.0,0.0,0.0,0.0,0.0,0.0,0.18
219,0.0,0.0,0.0,0.0,0.0,0.0,0.3485888671875,0.0,0.0,0.0,0.0,0.0,0.0,0.107,0.0,0.0,0.0,0.0,0.0,0.0,0.3547714146648939,0.0,0.0,0.0,0.0,0.0,0.0,0.192
220,0.0,0.0,0.0,0.0,0.0,0.0,0.34962109375,0.0,0.0,0.0,0.0,0.0,0.0,0.111,0.0,0.0,0.0,0.0,0.0,0.0,0.3557008442224898,0.0,0.0,0.0,0.0,0.0,0.0,0.2
221,0.0,0.0,0.0,0.0,0.0,0.0,0.3506416015625,0.0,0.0,0.0,0.0,0.0,0.0,0.103,0.0,0.0,0.0,0.0,0.0,0.0,0.3566055257760294,0.0,0.0,0.0,0.0,0.0,0.0,0.208
222,0.0,0.0,0.0,0.0,0.0,0.0,0.3514677734375,0.0,0.0,0.0,0.0,0.0,0.0,0.092,0.0,0.0,0.0,0.0,0.0,0.0,0.3575095529160356,0.0,0.0,0.0,0.0,0.0,0.0,0.24
223,0.0,0.0,0.0,0.0,0.0,0.0,0.3524873046875,0.0,0.0,0.0,0.0,0.0,0.0,0.094,0.0,0.0,0.0,0.0,0.0,0.0,0.35840647680060655,0.0,0.0,0.0,0.0,0.0,0.0,0.224
224,0.0,0.0,0.0,0.0,0.0,0.0,0.353314453125,0.0,0.0,0.0,0.0,0.0,0.0,0.094,0.0,0.0,0.0,0.0,0.0,0.0,0.3592871216369996,0.0,0.0,0.0,0.0,0.0,0.0,0.264
225,0.0,0.0,0.0,0.0,0.0,0.0,0.3543466796875,0.0,0.0,0.0,0.0,0.0,0.0,0.094,0.0,0.0,0.0,0.0,0.0,0.0,0.3601641752441572,0.0,0.0,0.0,0.0,0.0,0.0,0.26
226,0.0,0.0,0.0,0.0,0.0,0.0,0.3549541015625,0.0,0.0,0.0,0.0,0.0,0.0,0.084,0.0,0.0,0.0,0.0,0.0,0.0,0.3610239005040473,0.0,0.0,0.0,0.0,0.0,0.0,0.276
227,0.0,0.0,0.0,0.0,0.0,0.0,0.3557802734375,0.0,0.0,0.0,0.0,0.0,0.0,0.073,0.0,0.0,0.0,0.0,0.0,0.0,0.3619045421745628,0.0,0.0,0.0,0.0,0.0,0.0,0.292
228,0.0,0.0,0.0,0.0,0.0,0.0,0.3563994140625,0.0,0.0,0.0,0.0,0.0,0.0,0.067,0.0,0.0,0.0,0.0,0.0,0.0,0.36273069053826656,0.0,0.0,0.0,0.0,0.0,0.0,0.276
229,0.0,0.0,0.0,0.0,0.0,0.0,0.3570068359375,0.0,0.0,0.0,0.0,0.0,0.0,0.064,0.0,0.0,0.0,0.0,0.0,0.0,0.3635703323675549,0.0,0.0,0.0,0.0,0.0,0.0,0.276
230,0.0,0.0,0.0,0.0,0.0,0.0,0.3578330078125,0.0,0.0,0.0,0.0,0.0,0.0,0.063,0.0,0.0,0.0,0.0,0.0,0.0,0.36457057029777395,0.0,0.0,0.0,0.0,0.0,0.0,0.312
231,0.0,0.0,0.0,0.0,0.0,0.0,0.3584521484375,0.0,0.0,0.0,0.0,0.0,0.0,0.074,0.0,0.0,0.0,0.0,0.0,0.0,0.36521449096925473,0.0,0.0,0.0,0.0,0.0,0.0,0.296
232,0.0,0.0,0.0,0.0,0.0,0.0,0.359265625,0.0,0.0,0.0,0.0,0.0,0.0,0.072,0.0,0.0,0.0,0.0,0.0,0.0,0.3660313131005313,0.0,0.0,0.0,0.0,0.0,0.0,0.296
233,0.0,0.0,0.0,0.0,0.0,0.0,0.3600927734375,0.0,0.0,0.0,0.0,0.0,0.0,0.078,0.0,0.0,0.0,0.0,0.0,0.0,0.366836251803335,0.0,0.0,0.0,0.0,0.0,0.0,0.344
234,0.0,0.0,0.0,0.0,0.0,0.0,0.3607119140625,0.0,0.0,0.0,0.0,0.0,0.0,0.08,0.0,0.0,0.0,0.0,0.0,0.0,0.3676209014070455,0.0,0.0,0.0,0.0,0.0,0.0,0.296
235,0.0,0.0,0.0,0.0,0.0,0.0,0.361525390625,0.0,0.0,0.0,0.0,0.0,0.0,0.072,0.0,0.0,0.0,0.0,0.0,0.0,0.36840893840476435,0.0,0.0,0.0,0.0,0.0,0.0,0.324
236,0.0,0.0,0.0,0.0,0.0,0.0,0.3621455078125,0.0,0.0,0.0,0.0,0.0,0.0,0.074,0.0,0.0,0.0,0.0,0.0,0.0,0.3691836424586582,0.0,0.0,0.0,0.0,0.0,0.0,0.304
237,0.0,0.0,0.0,0.0,0.0,0.0,0.363177734375,0.0,0.0,0.0,0.0,0.0,0.0,0.076,0.0,0.0,0.0,0.0,0.0,0.0,0.369948747254246,0.0,0.0,0.0,0.0,0.0,0.0,0.316
238,0.0,0.0,0.0,0.0,0.0,0.0,0.3639912109375,0.0,0.0,0.0,0.0,0.0,0.0,0.085,0.0,0.0,0.0,0.0,0.0,0.0,0.37070761434071176,0.0,0.0,0.0,0.0,0.0,0.0,0.332
239,0.0,0.0,0.0,0.0,0.0,0.0,0.3648173828125,0.0,0.0,0.0,0.0,0.0,0.0,0.082,0.0,0.0,0.0,0.0,0.0,0.0,0.37145363854009816,0.0,0.0,0.0,0.0,0.0,0.0,0.296
240,0.0,0.0,0.0,0.0,0.0,0.0,0.365837890625,0.0,0.0,0.0,0.0,0.0,0.0,0.096,0.0,0.0,0.0,0.0,0.0,0.0,0.37219054870624424,0.0,0.0,0.0,0.0,0.0,0.0,0.264
241,0.0,0.0,0.0,0.0,0.0,0.0,0.3668701171875,0.0,0.0,0.0,0.0,0.0,0.0,0.102,0.0,0.0,0.0,0.0,0.0,0.0,0.37292627078284474,0.0,0.0,0.0,0.0,0.0,0.0,0.22
242,0.0,0.0,0.0,0.0,0.0,0.0,0.367890625,0.0,0.0,0.0,0.0,0.0,0.0,0.106,0.0,0.0,0.0,0.0,0.0,0.0,0.37363490365841434,0.0,0.0,0.0,0.0,0.0,0.0,0.212
243,0.0,0.0,0.0,0.0,0.0,0.0,0.368923828125,0.0,0.0,0.0,0.0,0.0,0.0,0.097,0.0,0.0,0.0,0.0,0.0,0.0,0.37434564655874875,0.0,0.0,0.0,0.0,0.0,0.0,0.188
244,0.0,0.0,0.0,0.0,0.0,0.0,0.36975,0.0,0.0,0.0,0.0,0.0,0.0,0.094,0.0,0.0,0.0,0.0,0.0,0.0,0.3750447243142958,0.0,0.0,0.0,0.0,0.0,0.0,0.192
245,0.0,0.0,0.0,0.0,0.0,0.0,0.3703564453125,0.0,0.0,0.0,0.0,0.0,0.0,0.082,0.0,0.0,0.0,0.0,0.0,0.0,0.37604885672927935,0.0,0.0,0.0,0.0,0.0,0.0,0.148
246,0.0,0.0,0.0,0.0,0.0,0.0,0.3709765625,0.0,0.0,0.0,0.0,0.0,0.0,0.07,0.0,0.0,0.0,0.0,0.0,0.0,0.37641147277711395,0.0,0.0,0.0,0.0,0.0,0.0,0.168
247,0.0,0.0,0.0,0.0,0.0,0.0,0.371595703125,0.0,0.0,0.0,0.0,0.0,0.0,0.063,0.0,0.0,0.0,0.0,0.0,0.0,0.3770896851595986,0.0,0.0,0.0,0.0,0.0,0.0,0.18
248,0.0,0.0,0.0,0.0,0.0,0.0,0.3724091796875,0.0,0.0,0.0,0.0,0.0,0.0,0.063,0.0,0.0,0.0,0.0,0.0,0.0,0.3777543568122591,0.0,0.0,0.0,0.0,0.0,0.0,0.148
249,0.0,0.0,0.0,0.0,0.0,0.0,0.3732353515625,0.0,0.0,0.0,0.0,0.0,0.0,0.073,0.0,0.0,0.0,0.0,0.0,0.0,0.37840095771059934,0.0,0.0,0.0,0.0,0.0,0.0,0.148
250,0.0,0.0,0.0,0.0,0.0,0.0,0.37385546875,0.0,0.0,0.0,0.0,0.0,0.0,0.082,0.0,0.0,0.0,0.0,0.0,0.0,0.37904932606502945,0.0,0.0,0.0,0.0,0.0,0.0,0.172
251,0.0,0.0,0.0,0.0,0.0,0.0,0.3746689453125,0.0,0.0,0.0,0.0,0.0,0.0,0.072,0.0,0.0,0.0,0.0,0.0,0.0,0.3796848802833645,0.0,0.0,0.0,0.0,0.0,0.0,0.148
252,0.0,0.0,0.0,0.0,0.0,0.0,0.3752880859375,0.0,0.0,0.0,0.0,0.0,0.0,0.064,0.0,0.0,0.0,0.0,0.0,0.0,0.3803072911431133,0.0,0.0,0.0,0.0,0.0,0.0,0.168
253,0.0,0.0,0.0,0.0,0.0,0.0,0.375701171875,0.0,0.0,0.0,0.0,0.0,0.0,0.057,0.0,0.0,0.0,0.0,0.0,0.0,0.3809202154246782,0.0,0.0,0.0,0.0,0.0,0.0,0.14
254,0.0,0.0,0.0,0.0,0.0,0.0,0.376115234375,0.0,0.0,0.0,0.0,0.0,0.0,0.051,0.0,0.0,0.0,0.0,0.0,0.0,0.38152613238387345,0.0,0.0,0.0,0.0,0.0,0.0,0.156
255,0.0,0.0,0.0,0.0,0.0,0.0,0.3767216796875,0.0,0.0,0.0,0.0,0.0,0.0,0.044,0.0,0.0,0.0,0.0,0.0,0.0,0.3821212593708385,0.0,0.0,0.0,0.0,0.0,0.0,0.168
256,0.0,0.0,0.0,0.0,0.0,0.0,0.377134765625,0.0,0.0,0.0,0.0,0.0,0.0,0.043,0.0,0.0,0.0,0.0,0.0,0.0,0.3827076248300348,0.0,0.0,0.0,0.0,0.0,0.0,0.168
257,0.0,0.0,0.0,0.0,0.0,0.0,0.3775478515625,0.0,0.0,0.0,0.0,0.0,0.0,0.042,0.0,0.0,0.0,0.0,0.0,0.0,0.3832841261937536,0.0,0.0,0.0,0.0,0.0,0.0,0.168
258,0.0,0.0,0.0,0.0,0.0,0.0,0.37816796875,0.0,0.0,0.0,0.0,0.0,0.0,0.05,0.0,0.0,0.0,0.0,0.0,0.0,0.38385292343316646,0.0,0.0,0.0,0.0,0.0,0.0,0.172
259,0.0,0.0,0.0,0.0,0.0,0.0,0.3785810546875,0.0,0.0,0.0,0.0,0.0,0.0,0.055,0.0,0.0,0.0,0.0,0.0,0.0,0.38441130988956373,0.0,0.0,0.0,0.0,0.0,0.0,0.2
260,0.0,0.0,0.0,0.0,0.0,0.0,0.3791875,0.0,0.0,0.0,0.0,0.0,0.0,0.057,0.0,0.0,0.0,0.0,0.0,0.0,0.3849592985037084,0.0,0.0,0.0,0.0,0.0,0.0,0.168
261,0.0,0.0,0.0,0.0,0.0,0.0,0.3798076171875,0.0,0.0,0.0,0.0,0.0,0.0,0.063,0.0,0.0,0.0,0.0,0.0,0.0,0.3854993590018385,0.0,0.0,0.0,0.0,0.0,0.0,0.16
262,0.0,0.0,0.0,0.0,0.0,0.0,0.3804267578125,0.0,0.0,0.0,0.0,0.0,0.0,0.062,0.0,0.0,0.0,0.0,0.0,0.0,0.386024502388891,0.0,0.0,0.0,0.0,0.0,0.0,0.172
263,0.0,0.0,0.0,0.0,0.0,0.0,0.381046875,0.0,0.0,0.0,0.0,0.0,0.0,0.06,0.0,0.0,0.0,0.0,0.0,0.0,0.3865608506859049,0.0,0.0,0.0,0.0,0.0,0.0,0.156
264,0.0,0.0,0.0,0.0,0.0,0.0,0.3824794921875,0.0,0.0,0.0,0.0,0.0,0.0,0.065,0.0,0.0,0.0,0.0,0.0,0.0,0.38752171132782887,0.0,0.0,0.0,0.0,0.0,0.0,0.156
265,0.0,0.0,0.0,0.0,0.0,0.0,0.3824794921875,0.0,0.0,0.0,0.0,0.0,0.0,0.065,0.0,0.0,0.0,0.0,0.0,0.0,0.3878370323503515,0.0,0.0,0.0,0.0,0.0,0.0,0.156
266,0.0,0.0,0.0,0.0,0.0,0.0,0.382892578125,0.0,0.0,0.0,0.0,0.0,0.0,0.062,0.0,0.0,0.0,0.0,0.0,0.0,0.3881540936246876,0.0,0.0,0.0,0.0,0.0,0.0,0.14
267,0.0,0.0,0.0,0.0,0.0,0.0,0.3835,0.0,0.0,0.0,0.0,0.0,0.0,0.053,0.0,0.0,0.0,0.0,0.0,0.0,0.3887896184071431,0.0,0.0,0.0,0.0,0.0,0.0,0.136
268,0.0,0.0,0.0,0.0,0.0,0.0,0.384326171875,0.0,0.0,0.0,0.0,0.0,0.0,0.07,0.0,0.0,0.0,0.0,0.0,0.0,0.389096983513587,0.0,0.0,0.0,0.0,0.0,0.0,0.136
269,0.0,0.0,0.0,0.0,0.0,0.0,0.38515234375,0.0,0.0,0.0,0.0,0.0,0.0,0.083,0.0,0.0,0.0,0.0,0.0,0.0,0.38945704616767407,0.0,0.0,0.0,0.0,0.0,0.0,0.148
270,0.0,0.0,0.0,0.0,0.0,0.0,0.3857587890625,0.0,0.0,0.0,0.0,0.0,0.0,0.072,0.0,0.0,0.0,0.0,0.0,0.0,0.38990957899604806,0.0,0.0,0.0,0.0,0.0,0.0,0.148
271,0.0,0.0,0.0,0.0,0.0,0.0,0.3861728515625,0.0,0.0,0.0,0.0,0.0,0.0,0.052,0.0,0.0,0.0,0.0,0.0,0.0,0.39035174754166163,0.0,0.0,0.0,0.0,0.0,0.0,0.168
272,0.0,0.0,0.0,0.0,0.0,0.0,0.3865859375,0.0,0.0,0.0,0.0,0.0,0.0,0.036,0.0,0.0,0.0,0.0,0.0,0.0,0.3907835377361535,0.0,0.0,0.0,0.0,0.0,0.0,0.156
273,0.0,0.0,0.0,0.0,0.0,0.0,0.3867919921875,0.0,0.0,0.0,0.0,0.0,0.0,0.034,0.0,0.0,0.0,0.0,0.0,0.0,0.3912075049593368,0.0,0.0,0.0,0.0,0.0,0.0,0.168
274,0.0,0.0,0.0,0.0,0.0,0.0,0.387205078125,0.0,0.0,0.0,0.0,0.0,0.0,0.031,0.0,0.0,0.0,0.0,0.0,0.0,0.39161752974685426,0.0,0.0,0.0,0.0,0.0,0.0,0.172
275,0.0,0.0,0.0,0.0,0.0,0.0,0.387412109375,0.0,0.0,0.0,0.0,0.0,0.0,0.031,0.0,0.0,0.0,0.0,0.0,0.0,0.3920184627732898,0.0,0.0,0.0,0.0,0.0,0.0,0.148
276,0.0,0.0,0.0,0.0,0.0,0.0,0.3876181640625,0.0,0.0,0.0,0.0,0.0,0.0,0.016,0.0,0.0,0.0,0.0,0.0,0.0,0.39241133172011816,0.0,0.0,0.0,0.0,0.0,0.0,0.188
277,0.0,0.0,0.0,0.0,0.0,0.0,0.3878251953125,0.0,0.0,0.0,0.0,0.0,0.0,0.024,0.0,0.0,0.0,0.0,0.0,0.0,0.39279309924448474,0.0,0.0,0.0,0.0,0.0,0.0,0.168
278,0.0,0.0,0.0,0.0,0.0,0.0,0.3882255859375,0.0,0.0,0.0,0.0,0.0,0.0,0.034,0.0,0.0,0.0,0.0,0.0,0.0,0.39316844541119256,0.0,0.0,0.0,0.0,0.0,0.0,0.172
279,0.0,0.0,0.0,0.0,0.0,0.0,0.388638671875,0.0,0.0,0.0,0.0,0.0,0.0,0.036,0.0,0.0,0.0,0.0,0.0,0.0,0.3935324804820679,0.0,0.0,0.0,0.0,0.0,0.0,0.18
280,0.0,0.0,0.0,0.0,0.0,0.0,0.3890517578125,0.0,0.0,0.0,0.0,0.0,0.0,0.042,0.0,0.0,0.0,0.0,0.0,0.0,0.39388334712338624,0.0,0.0,0.0,0.0,0.0,0.0,0.172
281,0.0,0.0,0.0,0.0,0.0,0.0,0.38946484375,0.0,0.0,0.0,0.0,0.0,0.0,0.042,0.0,0.0,0.0,0.0,0.0,0.0,0.394226883935861,0.0,0.0,0.0,0.0,0.0,0.0,0.16
282,0.0,0.0,0.0,0.0,0.0,0.0,0.3898779296875,0.0,0.0,0.0,0.0,0.0,0.0,0.044,0.0,0.0,0.0,0.0,0.0,0.0,0.3945632505314165,0.0,0.0,0.0,0.0,0.0,0.0,0.16
283,0.0,0.0,0.0,0.0,0.0,0.0,0.3902783203125,0.0,0.0,0.0,0.0,0.0,0.0,0.044,0.0,0.0,0.0,0.0,0.0,0.0,0.39488442087904285,0.0,0.0,0.0,0.0,0.0,0.0,0.168
284,0.0,0.0,0.0,0.0,0.0,0.0,0.39069140625,0.0,0.0,0.0,0.0,0.0,0.0,0.039,0.0,0.0,0.0,0.0,0.0,0.0,0.39520187794133177,0.0,0.0,0.0,0.0,0.0,0.0,0.16
285,0.0,0.0,0.0,0.0,0.0,0.0,0.391310546875,0.0,0.0,0.0,0.0,0.0,0.0,0.045,0.0,0.0,0.0,0.0,0.0,0.0,0.3955103589633697,0.0,0.0,0.0,0.0,0.0,0.0,0.192
286,0.0,0.0,0.0,0.0,0.0,0.0,0.3917236328125,0.0,0.0,0.0,0.0,0.0,0.0,0.048,0.0,0.0,0.0,0.0,0.0,0.0,0.3957959283269637,0.0,0.0,0.0,0.0,0.0,0.0,0.168
287,0.0,0.0,0.0,0.0,0.0,0.0,0.3921376953125,0.0,0.0,0.0,0.0,0.0,0.0,0.041,0.0,0.0,0.0,0.0,0.0,0.0,0.39607884588563147,0.0,0.0,0.0,0.0,0.0,0.0,0.188
288,0.0,0.0,0.0,0.0,0.0,0.0,0.392537109375,0.0,0.0,0.0,0.0,0.0,0.0,0.047,0.0,0.0,0.0,0.0,0.0,0.0,0.3963591425611677,0.0,0.0,0.0,0.0,0.0,0.0,0.16
289,0.0,0.0,0.0,0.0,0.0,0.0,0.392744140625,0.0,0.0,0.0,0.0,0.0,0.0,0.034,0.0,0.0,0.0,0.0,0.0,0.0,0.3966180250745688,0.0,0.0,0.0,0.0,0.0,0.0,0.18
290,0.0,0.0,0.0,0.0,0.0,0.0,0.3929501953125,0.0,0.0,0.0,0.0,0.0,0.0,0.024,0.0,0.0,0.0,0.0,0.0,0.0,0.39687236552842114,0.0,0.0,0.0,0.0,0.0,0.0,0.192
291,0.0,0.0,0.0,0.0,0.0,0.0,0.3931572265625,0.0,0.0,0.0,0.0,0.0,0.0,0.009,0.0,0.0,0.0,0.0,0.0,0.0,0.39711903056273423,0.0,0.0,0.0,0.0,0.0,0.0,0.192
292,0.0,0.0,0.0,0.0,0.0,0.0,0.3931572265625,0.0,0.0,0.0,0.0,0.0,0.0,0.015,0.0,0.0,0.0,0.0,0.0,0.0,0.39735216157979236,0.0,0.0,0.0,0.0,0.0,0.0,0.192
293,0.0,0.0,0.0,0.0,0.0,0.0,0.3931572265625,0.0,0.0,0.0,0.0,0.0,0.0,-0.001,0.0,0.0,0.0,0.0,0.0,0.0,0.3975771558502581,0.0,0.0,0.0,0.0,0.0,0.0,0.168
294,0.0,0.0,0.0,0.0,0.0,0.0,0.3931572265625,0.0,0.0,0.0,0.0,0.0,0.0,-0.001,0.0,0.0,0.0,0.0,0.0,0.0,0.3977928161541777,0.0,0.0,0.0,0.0,0.0,0.0,0.18
295,0.0,0.0,0.0,0.0,0.0,0.0,0.3931572265625,0.0,0.0,0.0,0.0,0.0,0.0,-0.001,0.0,0.0,0.0,0.0,0.0,0.0,0.39799783769305697,0.0,0.0,0.0,0.0,0.0,0.0,0.208
296,0.0,0.0,0.0,0.0,0.0,0.0,0.3933642578125,0.0,0.0,0.0,0.0,0.0,0.0,0.013,0.0,0.0,0.0,0.0,0.0,0.0,0.3981929682547874,0.0,0.0,0.0,0.0,0.0,0.0,0.192
297,0.0,0.0,0.0,0.0,0.0,0.0,0.3939833984375,0.0,0.0,0.0,0.0,0.0,0.0,0.032,0.0,0.0,0.0,0.0,0.0,0.0,0.3983797861614277,0.0,0.0,0.0,0.0,0.0,0.0,0.2
298,0.0,0.0,0.0,0.0,0.0,0.0,0.394396484375,0.0,0.0,0.0,0.0,0.0,0.0,0.048,0.0,0.0,0.0,0.0,0.0,0.0,0.39855168108537137,0.0,0.0,0.0,0.0,0.0,0.0,0.188
299,0.0,0.0,0.0,0.0,0.0,0.0,0.394796875,0.0,0.0,0.0,0.0,0.0,0.0,0.048,0.0,0.0,0.0,0.0,0.0,0.0,0.3987175368488801,0.0,0.0,0.0,0.0,0.0,0.0,0.18
300,0.0,0.0,0.0,0.0,0.0,0.0,0.3952099609375,0.0,0.0,0.0,0.0,0.0,0.0,0.043,0.0,0.0,0.0,0.0,0.0,0.0,0.3988732535978039,0.0,0.0,0.0,0.0,0.0,0.0,0.208
301,0.0,0.0,0.0,0.0,0.0,0.0,0.395623046875,0.0,0.0,0.0,0.0,0.0,0.0,0.04,0.0,0.0,0.0,0.0,0.0,0.0,0.3990174226602403,0.0,0.0,0.0,0.0,0.0,0.0,0.188
302,0.0,0.0,0.0,0.0,0.0,0.0,0.395623046875,0.0,0.0,0.0,0.0,0.0,0.0,0.021,0.0,0.0,0.0,0.0,0.0,0.0,0.39915257243456087,0.0,0.0,0.0,0.0,0.0,0.0,0.18
303,0.0,0.0,0.0,0.0,0.0,0.0,0.395830078125,0.0,0.0,0.0,0.0,0.0,0.0,0.008,0.0,0.0,0.0,0.0,0.0,0.0,0.39927849320440334,0.0,0.0,0.0,0.0,0.0,0.0,0.192
304,0.0,0.0,0.0,0.0,0.0,0.0,0.395830078125,0.0,0.0,0.0,0.0,0.0,0.0,0.013,0.0,0.0,0.0,0.0,0.0,0.0,0.3993939141102723,0.0,0.0,0.0,0.0,0.0,0.0,0.188
305,0.0,0.0,0.0,0.0,0.0,0.0,0.3960361328125,0.0,0.0,0.0,0.0,0.0,0.0,0.006,0.0,0.0,0.0,0.0,0.0,0.0,0.3994988086907222,0.0,0.0,0.0,0.0,0.0,0.0,0.192
306,0.0,0.0,0.0,0.0,0.0,0.0,0.3960361328125,0.0,0.0,0.0,0.0,0.0,0.0,0.014,0.0,0.0,0.0,0.0,0.0,0.0,0.3995940718408473,0.0,0.0,0.0,0.0,0.0,0.0,0.156
307,0.0,0.0,0.0,0.0,0.0,0.0,0.3960361328125,0.0,0.0,0.0,0.0,0.0,0.0,-0.001,0.0,0.0,0.0,0.0,0.0,0.0,0.39967932660189004,0.0,0.0,0.0,0.0,0.0,0.0,0.172
308,0.0,0.0,0.0,0.0,0.0,0.0,0.3960361328125,0.0,0.0,0.0,0.0,0.0,0.0,-0.001,0.0,0.0,0.0,0.0,0.0,0.0,0.3997535705954588,0.0,0.0,0.0,0.0,0.0,0.0,0.172
309,0.0,0.0,0.0,0.0,0.0,0.0,0.3960361328125,0.0,0.0,0.0,0.0,0.0,0.0,-0.001,0.0,0.0,0.0,0.0,0.0,0.0,0.39981888696681095,0.0,0.0,0.0,0.0,0.0,0.0,0.18
310,0.0,0.0,0.0,0.0,0.0,0.0,0.3960361328125,0.0,0.0,0.0,0.0,0.0,0.0,-0.001,0.0,0.0,0.0,0.0,0.0,0.0,0.3998739811908485,0.0,0.0,0.0,0.0,0.0,0.0,0.16
311,0.0,0.0,0.0,0.0,0.0,0.0,0.3960361328125,0.0,0.0,0.0,0.0,0.0,0.0,-0.001,0.0,0.0,0.0,0.0,0.0,0.0,0.3999191100203538,0.0,0.0,0.0,0.0,0.0,0.0,0.16
312,0.0,0.0,0.0,0.0,0.0,0.0,0.3960361328125,0.0,0.0,0.0,0.0,0.0,0.0,-0.001,0.0,0.0,0.0,0.0,0.0,0.0,0.3999542824029174,0.0,0.0,0.0,0.0,0.0,0.0,0.172
313,0.0,0.0,0.0,0.0,0.0,0.0,0.3960361328125,0.0,0.0,0.0,0.0,0.0,0.0,-0.001,0.0,0.0,0.0,0.0,0.0,0.0,0.39998038332790986,0.0,0.0,0.0,0.0,0.0,0.0,0.16
314,0.0,0.0,0.0,0.0,0.0,0.0,0.3960361328125,0.0,0.0,0.0,0.0,0.0,0.0,-0.001,0.0,0.0,0.0,0.0,0.0,0.0,0.3999947615347175,0.0,0.0,0.0,0.0,0.0,0.0,0.18
315,0.0,0.0,0.0,0.0,0.0,0.0,0.3960361328125,0.0,0.0,0.0,0.0,0.0,0.0,-0.001,0.0,0.0,0.0,0.0,0.0,0.0,0.39999999670552794,0.0,0.0,0.0,0.0,0.0,0.0,0.16
316,0.0,0.0,0.0,0.0,0.0,0.0,0.3960361328125,0.0,0.0,0.0,0.0,0.0,0.0,-0.001,0.0,0.0,0.0,0.0,0.0,0.0,0.39999514454578117,0.0,0.0,0.0,0.0,0.0,0.0,0.192
317,0.0,0.0,0.0,0.0,0.0,0.0,0.3962431640625,0.0,0.0,0.0,0.0,0.0,0.0,0.012,0.0,0.0,0.0,0.0,0.0,0.0,0.3999805733042204,0.0,0.0,0.0,0.0,0.0,0.0,0.18
318,0.0,0.0,0.0,0.0,0.0,0.0,0.3962431640625,0.0,0.0,0.0,0.0,0.0,0.0,0.01,0.0,0.0,0.0,0.0,0.0,0.0,0.3999555944822368,0.0,0.0,0.0,0.0,0.0,0.0,0.172
319,0.0,0.0,0.0,0.0,0.0,0.0,0.39644921875,0.0,0.0,0.0,0.0,0.0,0.0,-0.001,0.0,0.0,0.0,0.0,0.0,0.0,0.3999208185766762,0.0,0.0,0.0,0.0,0.0,0.0,0.16
320,0.0,0.0,0.0,0.0,0.0,0.0,0.39644921875,0.0,0.0,0.0,0.0,0.0,0.0,0.015,0.0,0.0,0.0,0.0,0.0,0.0,0.3998762464450825,0.0,0.0,0.0,0.0,0.0,0.0,0.192
321,0.0,0.0,0.0,0.0,0.0,0.0,0.39665625,0.0,0.0,0.0,0.0,0.0,0.0,0.004,0.0,0.0,0.0,0.0,0.0,0.0,0.39982160314442466,0.0,0.0,0.0,0.0,0.0,0.0,0.188
322,0.0,0.0,0.0,0.0,0.0,0.0,0.3968623046875,0.0,0.0,0.0,0.0,0.0,0.0,0.022,0.0,0.0,0.0,0.0,0.0,0.0,0.3997563645748853,0.0,0.0,0.0,0.0,0.0,0.0,0.192
323,0.0,0.0,0.0,0.0,0.0,0.0,0.397056640625,0.0,0.0,0.0,0.0,0.0,0.0,0.02,0.0,0.0,0.0,0.0,0.0,0.0,0.3996819712904012,0.0,0.0,0.0,0.0,0.0,0.0,0.188
324,0.0,0.0,0.0,0.0,0.0,0.0,0.397056640625,0.0,0.0,0.0,0.0,0.0,0.0,0.013,0.0,0.0,0.0,0.0,0.0,0.0,0.3995974009095934,0.0,0.0,0.0,0.0,0.0,0.0,0.18
325,0.0,0.0,0.0,0.0,0.0,0.0,0.397056640625,0.0,0.0,0.0,0.0,0.0,0.0,-0.001,0.0,0.0,0.0,0.0,0.0,0.0,0.399501878140168,0.0,0.0,0.0,0.0,0.0,0.0,0.2
326,0.0,0.0,0.0,0.0,0.0,0.0,0.397056640625,0.0,0.0,0.0,0.0,0.0,0.0,-0.001,0.0,0.0,0.0,0.0,0.0,0.0,0.39939824446302513,0.0,0.0,0.0,0.0,0.0,0.0,0.148
327,0.0,0.0,0.0,0.0,0.0,0.0,0.397056640625,0.0,0.0,0.0,0.0,0.0,0.0,-0.001,0.0,0.0,0.0,0.0,0.0,0.0,0.3992829900093327,0.0,0.0,0.0,0.0,0.0,0.0,0.168
328,0.0,0.0,0.0,0.0,0.0,0.0,0.397056640625,0.0,0.0,0.0,0.0,0.0,0.0,-0.001,0.0,0.0,0.0,0.0,0.0,0.0,0.39915743370152823,0.0,0.0,0.0,0.0,0.0,0.0,0.2
329,0.0,0.0,0.0,0.0,0.0,0.0,0.397056640625,0.0,0.0,0.0,0.0,0.0,0.0,-0.001,0.0,0.0,0.0,0.0,0.0,0.0,0.3990229371409255,0.0,0.0,0.0,0.0,0.0,0.0,0.168
330,0.0,0.0,0.0,0.0,0.0,0.0,0.397056640625,0.0,0.0,0.0,0.0,0.0,0.0,-0.001,0.0,0.0,0.0,0.0,0.0,0.0,0.3988792800926256,0.0,0.0,0.0,0.0,0.0,0.0,0.188
331,0.0,0.0,0.0,0.0,0.0,0.0,0.397056640625,0.0,0.0,0.0,0.0,0.0,0.0,-0.001,0.0,0.0,0.0,0.0,0.0,0.0,0.3987243163232575,0.0,0.0,0.0,0.0,0.0,0.0,0.16
332,0.0,0.0,0.0,0.0,0.0,0.0,0.397056640625,0.0,0.0,0.0,0.0,0.0,0.0,-0.001,0.0,0.0,0.0,0.0,0.0,0.0,0.39856066425138337,0.0,0.0,0.0,0.0,0.0,0.0,0.188
333,0.0,0.0,0.0,0.0,0.0,0.0,0.397056640625,0.0,0.0,0.0,0.0,0.0,0.0,-0.001,0.0,0.0,0.0,0.0,0.0,0.0,0.39838541615005507,0.0,0.0,0.0,0.0,0.0,0.0,0.192
334,0.0,0.0,0.0,0.0,0.0,0.0,0.397056640625,0.0,0.0,0.0,0.0,0.0,0.0,-0.001,0.0,0.0,0.0,0.0,0.0,0.0,0.39820112764474414,0.0,0.0,0.0,0.0,0.0,0.0,0.188
335,0.0,0.0,0.0,0.0,0.0,0.0,0.397056640625,0.0,0.0,0.0,0.0,0.0,0.0,-0.001,0.0,0.0,0.0,0.0,0.0,0.0,0.39800632592043034,0.0,0.0,0.0,0.0,0.0,0.0,0.188
336,0.0,0.0,0.0,0.0,0.0,0.0,0.397056640625,0.0,0.0,0.0,0.0,0.0,0.0,-0.001,0.0,0.0,0.0,0.0,0.0,0.0,0.39780254635340606,0.0,0.0,0.0,0.0,0.0,0.0,0.18
337,0.0,0.0,0.0,0.0,0.0,0.0,0.397056640625,0.0,0.0,0.0,0.0,0.0,0.0,-0.001,0.0,0.0,0.0,0.0,0.0,0.0,0.3975877625710465,0.0,0.0,0.0,0.0,0.0,0.0,0.16
338,0.0,0.0,0.0,0.0,0.0,0.0,0.397056640625,0.0,0.0,0.0,0.0,0.0,0.0,-0.001,0.0,0.0,0.0,0.0,0.0,0.0,0.3973620078894338,0.0,0.0,0.0,0.0,0.0,0.0,0.172
339,0.0,0.0,0.0,0.0,0.0,0.0,0.397056640625,0.0,0.0,0.0,0.0,0.0,0.0,-0.001,0.0,0.0,0.0,0.0,0.0,0.0,0.39712944835294606,0.0,0.0,0.0,0.0,0.0,0.0,0.172
340,0.0,0.0,0.0,0.0,0.0,0.0,0.397056640625,0.0,0.0,0.0,0.0,0.0,0.0,-0.001,0.0,0.0,0.0,0.0,0.0,0.0,0.39688217315281116,0.0,0.0,0.0,0.0,0.0,0.0,0.18
341,0.0,0.0,0.0,0.0,0.0,0.0,0.397056640625,0.0,0.0,0.0,0.0,0.0,0.0,-0.001,0.0,0.0,0.0,0.0,0.0,0.0,0.3966308105706445,0.0,0.0,0.0,0.0,0.0,0.0,0.192
342,0.0,0.0,0.0,0.0,0.0,0.0,0.397056640625,0.0,0.0,0.0,0.0,0.0,0.0,-0.001,0.0,0.0,0.0,0.0,0.0,0.0,0.3963662787009083,0.0,0.0,0.0,0.0,0.0,0.0,0.18
343,0.0,0.0,0.0,0.0,0.0,0.0,0.397056640625,0.0,0.0,0.0,0.0,0.0,0.0,-0.001,0.0,0.0,0.0,0.0,0.0,0.0,0.3960916583458451,0.0,0.0,0.0,0.0,0.0,0.0,0.188
344,0.0,0.0,0.0,0.0,0.0,0.0,0.397056640625,0.0,0.0,0.0,0.0,0.0,0.0,-0.001,0.0,0.0,0.0,0.0,0.0,0.0,0.3958075474529803,0.0,0.0,0.0,0.0,0.0,0.0,0.168
345,0.0,0.0,0.0,0.0,0.0,0.0,0.397056640625,0.0,0.0,0.0,0.0,0.0,0.0,-0.001,0.0,0.0,0.0,0.0,0.0,0.0,0.3955132884522576,0.0,0.0,0.0,0.0,0.0,0.0,0.16
346,0.0,0.0,0.0,0.0,0.0,0.0,0.397056640625,0.0,0.0,0.0,0.0,0.0,0.0,-0.001,0.0,0.0,0.0,0.0,0.0,0.0,0.39521064585133936,0.0,0.0,0.0,0.0,0.0,0.0,0.192
347,0.0,0.0,0.0,0.0,0.0,0.0,0.397056640625,0.0,0.0,0.0,0.0,0.0,0.0,-0.001,0.0,0.0,0.0,0.0,0.0,0.0,0.39487894063832596,0.0,0.0,0.0,0.0,0.0,0.0,0.188
348,0.0,0.0,0.0,0.0,0.0,0.0,0.397056640625,0.0,0.0,0.0,0.0,0.0,0.0,-0.001,0.0,0.0,0.0,0.0,0.0,0.0,0.39440011164410954,0.0,0.0,0.0,0.0,0.0,0.0,0.192
349,0.0,0.0,0.0,0.0,0.0,0.0,0.397056640625,0.0,0.0,0.0,0.0,0.0,0.0,-0.001,0.0,0.0,0.0,0.0,0.0,0.0,0.39419671384112687,0.0,0.0,0.0,0.0,0.0,0.0,0.168
350,0.0,0.0,0.0,0.0,0.0,0.0,0.397056640625,0.0,0.0,0.0,0.0,0.0,0.0,-0.001,0.0,0.0,0.0,0.0,0.0,0.0,0.3938971810665876,0.0,0.0,0.0,0.0,0.0,0.0,0.168
351,0.0,0.0,0.0,0.0,0.0,0.0,0.397056640625,0.0,0.0,0.0,0.0,0.0,0.0,-0.001,0.0,0.0,0.0,0.0,0.0,0.0,0.39354651507100974,0.0,0.0,0.0,0.0,0.0,0.0,0.156
352,0.0,0.0,0.0,0.0,0.0,0.0,0.397056640625,0.0,0.0,0.0,0.0,0.0,0.0,-0.001,0.0,0.0,0.0,0.0,0.0,0.0,0.3931809992110259,0.0,0.0,0.0,0.0,0.0,0.0,0.18
353,0.0,0.0,0.0,0.0,0.0,0.0,0.3968623046875,0.0,0.0,0.0,0.0,0.0,0.0,-0.007,0.0,0.0,0.0,0.0,0.0,0.0,0.3928063595241349,0.0,0.0,0.0,0.0,0.0,0.0,0.136
354,0.0,0.0,0.0,0.0,0.0,0.0,0.39665625,0.0,0.0,0.0,0.0,0.0,0.0,-0.019,0.0,0.0,0.0,0.0,0.0,0.0,0.39242788155830777,0.0,0.0,0.0,0.0,0.0,0.0,0.068
355,0.0,0.0,0.0,0.0,0.0,0.0,0.39644921875,0.0,0.0,0.0,0.0,0.0,0.0,-0.02,0.0,0.0,0.0,0.0,0.0,0.0,0.3920332064688987,0.0,0.0,0.0,0.0,0.0,0.0,0.044
356,0.0,0.0,0.0,0.0,0.0,0.0,0.395830078125,0.0,0.0,0.0,0.0,0.0,0.0,-0.036,0.0,0.0,0.0,0.0,0.0,0.0,0.39163341171097943,0.0,0.0,0.0,0.0,0.0,0.0,0.024
357,0.0,0.0,0.0,0.0,0.0,0.0,0.3954169921875,0.0,0.0,0.0,0.0,0.0,0.0,-0.056,0.0,0.0,0.0,0.0,0.0,0.0,0.39122188910793465,0.0,0.0,0.0,0.0,0.0,0.0,0.076
358,0.0,0.0,0.0,0.0,0.0,0.0,0.394796875,0.0,0.0,0.0,0.0,0.0,0.0,-0.057,0.0,0.0,0.0,0.0,0.0,0.0,0.3907995827175088,0.0,0.0,0.0,0.0,0.0,0.0,0.036
359,0.0,0.0,0.0,0.0,0.0,0.0,0.3941904296875,0.0,0.0,0.0,0.0,0.0,0.0,-0.057,0.0,0.0,0.0,0.0,0.0,0.0,0.39032091285328663,0.0,0.0,0.0,0.0,0.0,0.0,0.024
360,0.0,0.0,0.0,0.0,0.0,0.0,0.3935703125,0.0,0.0,0.0,0.0,0.0,0.0,-0.062,0.0,0.0,0.0,0.0,0.0,0.0,0.38993020768656345,0.0,0.0,0.0,0.0,0.0,0.0,0.052
361,0.0,0.0,0.0,0.0,0.0,0.0,0.3929501953125,0.0,0.0,0.0,0.0,0.0,0.0,-0.064,0.0,0.0,0.0,0.0,0.0,0.0,0.38947788752982077,0.0,0.0,0.0,0.0,0.0,0.0,0.032
362,0.0,0.0,0.0,0.0,0.0,0.0,0.392537109375,0.0,0.0,0.0,0.0,0.0,0.0,-0.057,0.0,0.0,0.0,0.0,0.0,0.0,0.38901539959009784,0.0,0.0,0.0,0.0,0.0,0.0,0.032
363,0.0,0.0,0.0,0.0,0.0,0.0,0.3921376953125,0.0,0.0,0.0,0.0,0.0,0.0,-0.042,0.0,0.0,0.0,0.0,0.0,0.0,0.3885453384156339,0.0,0.0,0.0,0.0,0.0,0.0,0.036
364,0.0,0.0,0.0,0.0,0.0,0.0,0.3917236328125,0.0,0.0,0.0,0.0,0.0,0.0,-0.034,0.0,0.0,0.0,0.0,0.0,0.0,0.38806218763914185,0.0,0.0,0.0,0.0,0.0,0.0,0.036
365,0.0,0.0,0.0,0.0,0.0,0.0,0.391517578125,0.0,0.0,0.0,0.0,0.0,0.0,-0.035,0.0,0.0,0.0,0.0,0.0,0.0,0.3875746479559783,0.0,0.0,0.0,0.0,0.0,0.0,0.044
366,0.0,0.0,0.0,0.0,0.0,0.0,0.3911044921875,0.0,0.0,0.0,0.0,0.0,0.0,-0.033,0.0,0.0,0.0,0.0,0.0,0.0,0.38707372057448447,0.0,0.0,0.0,0.0,0.0,0.0,0.032
367,0.0,0.0,0.0,0.0,0.0,0.0,0.3908974609375,0.0,0.0,0.0,0.0,0.0,0.0,-0.032,0.0,0.0,0.0,0.0,0.0,0.0,0.3865665648290844,0.0,0.0,0.0,0.0,0.0,0.0,0.016
368,0.0,0.0,0.0,0.0,0.0,0.0,0.390484375,0.0,0.0,0.0,0.0,0.0,0.0,-0.035,0.0,0.0,0.0,0.0,0.0,0.0,0.3860000813970062,0.0,0.0,0.0,0.0,0.0,0.0,0.024
369,0.0,0.0,0.0,0.0,0.0,0.0,0.390083984375,0.0,0.0,0.0,0.0,0.0,0.0,-0.043,0.0,0.0,0.0,0.0,0.0,0.0,0.38552353819662766,0.0,0.0,0.0,0.0,0.0,0.0,0.0
370,0.0,0.0,0.0,0.0,0.0,0.0,0.38946484375,0.0,0.0,0.0,0.0,0.0,0.0,-0.053,0.0,0.0,0.0,0.0,0.0,0.0,0.38498439444191934,0.0,0.0,0.0,0.0,0.0,0.0,0.0
371,0.0,0.0,0.0,0.0,0.0,0.0,0.3888447265625,0.0,0.0,0.0,0.0,0.0,0.0,-0.057,0.0,0.0,0.0,0.0,0.0,0.0,0.3844223713193509,0.0,0.0,0.0,0.0,0.0,0.0,0.004
372,0.0,0.0,0.0,0.0,0.0,0.0,0.388431640625,0.0,0.0,0.0,0.0,0.0,0.0,-0.056,0.0,0.0,0.0,0.0,0.0,0.0,0.38387969870886884,0.0,0.0,0.0,0.0,0.0,0.0,0.004
373,0.0,0.0,0.0,0.0,0.0,0.0,0.3878251953125,0.0,0.0,0.0,0.0,0.0,0.0,-0.057,0.0,0.0,0.0,0.0,0.0,0.0,0.3833121634427483,0.0,0.0,0.0,0.0,0.0,0.0,-0.032
374,0.0,0.0,0.0,0.0,0.0,0.0,0.3869990234375,0.0,0.0,0.0,0.0,0.0,0.0,-0.064,0.0,0.0,0.0,0.0,0.0,0.0,0.38271920703410456,0.0,0.0,0.0,0.0,0.0,0.0,-0.036
375,0.0,0.0,0.0,0.0,0.0,0.0,0.38637890625,0.0,0.0,0.0,0.0,0.0,0.0,-0.068,0.0,0.0,0.0,0.0,0.0,0.0,0.382146219760364,0.0,0.0,0.0,0.0,0.0,0.0,-0.036
376,0.0,0.0,0.0,0.0,0.0,0.0,0.3857587890625,0.0,0.0,0.0,0.0,0.0,0.0,-0.063,0.0,0.0,0.0,0.0,0.0,0.0,0.3815561042115487,0.0,0.0,0.0,0.0,0.0,0.0,-0.052
377,0.0,0.0,0.0,0.0,0.0,0.0,0.38515234375,0.0,0.0,0.0,0.0,0.0,0.0,-0.06,0.0,0.0,0.0,0.0,0.0,0.0,0.38093626603388575,0.0,0.0,0.0,0.0,0.0,0.0,-0.044
378,0.0,0.0,0.0,0.0,0.0,0.0,0.3847392578125,0.0,0.0,0.0,0.0,0.0,0.0,-0.054,0.0,0.0,0.0,0.0,0.0,0.0,0.38033537699935227,0.0,0.0,0.0,0.0,0.0,0.0,-0.016
379,0.0,0.0,0.0,0.0,0.0,0.0,0.384119140625,0.0,0.0,0.0,0.0,0.0,0.0,-0.054,0.0,0.0,0.0,0.0,0.0,0.0,0.37970162431796134,0.0,0.0,0.0,0.0,0.0,0.0,-0.032
380,0.0,0.0,0.0,0.0,0.0,0.0,0.3837060546875,0.0,0.0,0.0,0.0,0.0,0.0,-0.053,0.0,0.0,0.0,0.0,0.0,0.0,0.37906371979343145,0.0,0.0,0.0,0.0,0.0,0.0,-0.044
381,0.0,0.0,0.0,0.0,0.0,0.0,0.383099609375,0.0,0.0,0.0,0.0,0.0,0.0,-0.056,0.0,0.0,0.0,0.0,0.0,0.0,0.37843602022764816,0.0,0.0,0.0,0.0,0.0,0.0,-0.044
382,0.0,0.0,0.0,0.0,0.0,0.0,0.3824794921875,0.0,0.0,0.0,0.0,0.0,0.0,-0.055,0.0,0.0,0.0,0.0,0.0,0.0,0.3777763237949243,0.0,0.0,0.0,0.0,0.0,0.0,-0.044
383,0.0,0.0,0.0,0.0,0.0,0.0,0.38206640625,0.0,0.0,0.0,0.0,0.0,0.0,-0.055,0.0,0.0,0.0,0.0,0.0,0.0,0.3771035096972979,0.0,0.0,0.0,0.0,0.0,0.0,-0.036
384,0.0,0.0,0.0,0.0,0.0,0.0,0.381447265625,0.0,0.0,0.0,0.0,0.0,0.0,-0.056,0.0,0.0,0.0,0.0,0.0,0.0,0.3764460532442693,0.0,0.0,0.0,0.0,0.0,0.0,-0.068
385,0.0,0.0,0.0,0.0,0.0,0.0,0.38083984375,0.0,0.0,0.0,0.0,0.0,0.0,-0.055,0.0,0.0,0.0,0.0,0.0,0.0,0.37576777751666857,0.0,0.0,0.0,0.0,0.0,0.0,-0.076
386,0.0,0.0,0.0,0.0,0.0,0.0,0.380220703125,0.0,0.0,0.0,0.0,0.0,0.0,-0.062,0.0,0.0,0.0,0.0,0.0,0.0,0.3750748934305359,0.0,0.0,0.0,0.0,0.0,0.0,-0.044
387,0.0,0.0,0.0,0.0,0.0,0.0,0.37939453125,0.0,0.0,0.0,0.0,0.0,0.0,-0.074,0.0,0.0,0.0,0.0,0.0,0.0,0.3743758858151916,0.0,0.0,0.0,0.0,0.0,0.0,-0.024
388,0.0,0.0,0.0,0.0,0.0,0.0,0.3785810546875,0.0,0.0,0.0,0.0,0.0,0.0,-0.076,0.0,0.0,0.0,0.0,0.0,0.0,0.37365904462402555,0.0,0.0,0.0,0.0,0.0,0.0,-0.052
389,0.0,0.0,0.0,0.0,0.0,0.0,0.3779609375,0.0,0.0,0.0,0.0,0.0,0.0,-0.082,0.0,0.0,0.0,0.0,0.0,0.0,0.3729476890873426,0.0,0.0,0.0,0.0,0.0,0.0,-0.036
390,0.0,0.0,0.0,0.0,0.0,0.0,0.377134765625,0.0,0.0,0.0,0.0,0.0,0.0,-0.076,0.0,0.0,0.0,0.0,0.0,0.0,0.37222191919164876,0.0,0.0,0.0,0.0,0.0,0.0,-0.016
391,0.0,0.0,0.0,0.0,0.0,0.0,0.3763212890625,0.0,0.0,0.0,0.0,0.0,0.0,-0.081,0.0,0.0,0.0,0.0,0.0,0.0,0.3714858489240757,0.0,0.0,0.0,0.0,0.0,0.0,-0.036
392,0.0,0.0,0.0,0.0,0.0,0.0,0.3754951171875,0.0,0.0,0.0,0.0,0.0,0.0,-0.085,0.0,0.0,0.0,0.0,0.0,0.0,0.37063989389675456,0.0,0.0,0.0,0.0,0.0,0.0,-0.044
393,0.0,0.0,0.0,0.0,0.0,0.0,0.3746689453125,0.0,0.0,0.0,0.0,0.0,0.0,-0.081,0.0,0.0,0.0,0.0,0.0,0.0,0.3699831230136609,0.0,0.0,0.0,0.0,0.0,0.0,-0.052
394,0.0,0.0,0.0,0.0,0.0,0.0,0.3740615234375,0.0,0.0,0.0,0.0,0.0,0.0,-0.068,0.0,0.0,0.0,0.0,0.0,0.0,0.36921429015858376,0.0,0.0,0.0,0.0,0.0,0.0,-0.068
395,0.0,0.0,0.0,0.0,0.0,0.0,0.373029296875,0.0,0.0,0.0,0.0,0.0,0.0,-0.081,0.0,0.0,0.0,0.0,0.0,0.0,0.36842989067544146,0.0,0.0,0.0,0.0,0.0,0.0,-0.044
396,0.0,0.0,0.0,0.0,0.0,0.0,0.372203125,0.0,0.0,0.0,0.0,0.0,0.0,-0.091,0.0,0.0,0.0,0.0,0.0,0.0,0.3676545578311437,0.0,0.0,0.0,0.0,0.0,0.0,-0.044
397,0.0,0.0,0.0,0.0,0.0,0.0,0.371595703125,0.0,0.0,0.0,0.0,0.0,0.0,-0.081,0.0,0.0,0.0,0.0,0.0,0.0,0.366862239334079,0.0,0.0,0.0,0.0,0.0,0.0,-0.036
398,0.0,0.0,0.0,0.0,0.0,0.0,0.3709765625,0.0,0.0,0.0,0.0,0.0,0.0,-0.067,0.0,0.0,0.0,0.0,0.0,0.0,0.3660586768371664,0.0,0.0,0.0,0.0,0.0,0.0,-0.036
399,0.0,0.0,0.0,0.0,0.0,0.0,0.3703564453125,0.0,0.0,0.0,0.0,0.0,0.0,-0.065,0.0,0.0,0.0,0.0,0.0,0.0,0.36525462816558396,0.0,0.0,0.0,0.0,0.0,0.0,-0.044
400,0.0,0.0,0.0,0.0,0.0,0.0,0.36975,0.0,0.0,0.0,0.0,0.0,0.0,-0.065,0.0,0.0,0.0,0.0,0.0,0.0,0.3644311226847339,0.0,0.0,0.0,0.0,0.0,0.0,-0.016
401,0.0,0.0,0.0,0.0,0.0,0.0,0.368923828125,0.0,0.0,0.0,0.0,0.0,0.0,-0.066,0.0,0.0,0.0,0.0,0.0,0.0,0.36360444774092127,0.0,0.0,0.0,0.0,0.0,0.0,-0.004
402,0.0,0.0,0.0,0.0,0.0,0.0,0.3680966796875,0.0,0.0,0.0,0.0,0.0,0.0,-0.08,0.0,0.0,0.0,0.0,0.0,0.0,0.36276029592112996,0.0,0.0,0.0,0.0,0.0,0.0,-0.036
403,0.0,0.0,0.0,0.0,0.0,0.0,0.3672841796875,0.0,0.0,0.0,0.0,0.0,0.0,-0.09,0.0,0.0,0.0,0.0,0.0,0.0,0.3619133207679607,0.0,0.0,0.0,0.0,0.0,0.0,0.004
404,0.0,0.0,0.0,0.0,0.0,0.0,0.36645703125,0.0,0.0,0.0,0.0,0.0,0.0,-0.082,0.0,0.0,0.0,0.0,0.0,0.0,0.3610596425342092,0.0,0.0,0.0,0.0,0.0,0.0,-0.012
405,0.0,0.0,0.0,0.0,0.0,0.0,0.365837890625,0.0,0.0,0.0,0.0,0.0,0.0,-0.074,0.0,0.0,0.0,0.0,0.0,0.0,0.36018942290827455,0.0,0.0,0.0,0.0,0.0,0.0,0.024
406,0.0,0.0,0.0,0.0,0.0,0.0,0.3650244140625,0.0,0.0,0.0,0.0,0.0,0.0,-0.07,0.0,0.0,0.0,0.0,0.0,0.0,0.3593219547083118,0.0,0.0,0.0,0.0,0.0,0.0,0.052
407,0.0,0.0,0.0,0.0,0.0,0.0,0.3641982421875,0.0,0.0,0.0,0.0,0.0,0.0,-0.075,0.0,0.0,0.0,0.0,0.0,0.0,0.3584343623271087,0.0,0.0,0.0,0.0,0.0,0.0,0.036
408,0.0,0.0,0.0,0.0,0.0,0.0,0.363578125,0.0,0.0,0.0,0.0,0.0,0.0,-0.075,0.0,0.0,0.0,0.0,0.0,0.0,0.3575203370192605,0.0,0.0,0.0,0.0,0.0,0.0,0.076
409,0.0,0.0,0.0,0.0,0.0,0.0,0.3627646484375,0.0,0.0,0.0,0.0,0.0,0.0,-0.074,0.0,0.0,0.0,0.0,0.0,0.0,0.3566392436049325,0.0,0.0,0.0,0.0,0.0,0.0,0.052
410,0.0,0.0,0.0,0.0,0.0,0.0,0.361732421875,0.0,0.0,0.0,0.0,0.0,0.0,-0.091,0.0,0.0,0.0,0.0,0.0,0.0,0.35574027671570396,0.0,0.0,0.0,0.0,0.0,0.0,0.044
411,0.0,0.0,0.0,0.0,0.0,0.0,0.3609189453125,0.0,0.0,0.0,0.0,0.0,0.0,-0.087,0.0,0.0,0.0,0.0,0.0,0.0,0.3548153952581707,0.0,0.0,0.0,0.0,0.0,0.0,0.068
412,0.0,0.0,0.0,0.0,0.0,0.0,0.3598857421875,0.0,0.0,0.0,0.0,0.0,0.0,-0.094,0.0,0.0,0.0,0.0,0.0,0.0,0.3538917523478071,0.0,0.0,0.0,0.0,0.0,0.0,0.056
413,0.0,0.0,0.0,0.0,0.0,0.0,0.3588525390625,0.0,0.0,0.0,0.0,0.0,0.0,-0.102,0.0,0.0,0.0,0.0,0.0,0.0,0.35295164569772064,0.0,0.0,0.0,0.0,0.0,0.0,0.076
414,0.0,0.0,0.0,0.0,0.0,0.0,0.3578330078125,0.0,0.0,0.0,0.0,0.0,0.0,-0.107,0.0,0.0,0.0,0.0,0.0,0.0,0.35200967057145444,0.0,0.0,0.0,0.0,0.0,0.0,0.036
415,0.0,0.0,0.0,0.0,0.0,0.0,0.3567998046875,0.0,0.0,0.0,0.0,0.0,0.0,-0.112,0.0,0.0,0.0,0.0,0.0,0.0,0.3510571545895012,0.0,0.0,0.0,0.0,0.0,0.0,0.068
416,0.0,0.0,0.0,0.0,0.0,0.0,0.3555732421875,0.0,0.0,0.0,0.0,0.0,0.0,-0.108,0.0,0.0,0.0,0.0,0.0,0.0,0.35009451013483517,0.0,0.0,0.0,0.0,0.0,0.0,0.056
417,0.0,0.0,0.0,0.0,0.0,0.0,0.354541015625,0.0,0.0,0.0,0.0,0.0,0.0,-0.11,0.0,0.0,0.0,0.0,0.0,0.0,0.3491191403228182,0.0,0.0,0.0,0.0,0.0,0.0,0.056
418,0.0,0.0,0.0,0.0,0.0,0.0,0.3535205078125,0.0,0.0,0.0,0.0,0.0,0.0,-0.108,0.0,0.0,0.0,0.0,0.0,0.0,0.3481387115350417,0.0,0.0,0.0,0.0,0.0,0.0,0.044
419,0.0,0.0,0.0,0.0,0.0,0.0,0.35228125,0.0,0.0,0.0,0.0,0.0,0.0,-0.112,0.0,0.0,0.0,0.0,0.0,0.0,0.3471568531201476,0.0,0.0,0.0,0.0,0.0,0.0,0.044
420,0.0,0.0,0.0,0.0,0.0,0.0,0.3512607421875,0.0,0.0,0.0,0.0,0.0,0.0,-0.111,0.0,0.0,0.0,0.0,0.0,0.0,0.34615289642932967,0.0,0.0,0.0,0.0,0.0,0.0,0.032
421,0.0,0.0,0.0,0.0,0.0,0.0,0.350228515625,0.0,0.0,0.0,0.0,0.0,0.0,-0.104,0.0,0.0,0.0,0.0,0.0,0.0,0.34514825394555615,0.0,0.0,0.0,0.0,0.0,0.0,0.012
422,0.0,0.0,0.0,0.0,0.0,0.0,0.3492080078125,0.0,0.0,0.0,0.0,0.0,0.0,-0.104,0.0,0.0,0.0,0.0,0.0,0.0,0.34413350830879863,0.0,0.0,0.0,0.0,0.0,0.0,-0.016
423,0.0,0.0,0.0,0.0,0.0,0.0,0.3483818359375,0.0,0.0,0.0,0.0,0.0,0.0,-0.098,0.0,0.0,0.0,0.0,0.0,0.0,0.34310472486679683,0.0,0.0,0.0,0.0,0.0,0.0,-0.012
424,0.0,0.0,0.0,0.0,0.0,0.0,0.3473623046875,0.0,0.0,0.0,0.0,0.0,0.0,-0.1,0.0,0.0,0.0,0.0,0.0,0.0,0.342061767803052,0.0,0.0,0.0,0.0,0.0,0.0,-0.012
425,0.0,0.0,0.0,0.0,0.0,0.0,0.3463291015625,0.0,0.0,0.0,0.0,0.0,0.0,-0.104,0.0,0.0,0.0,0.0,0.0,0.0,0.34103944047133233,0.0,0.0,0.0,0.0,0.0,0.0,-0.032
426,0.0,0.0,0.0,0.0,0.0,0.0,0.3451025390625,0.0,0.0,0.0,0.0,0.0,0.0,-0.108,0.0,0.0,0.0,0.0,0.0,0.0,0.3399812072340776,0.0,0.0,0.0,0.0,0.0,0.0,-0.024
427,0.0,0.0,0.0,0.0,0.0,0.0,0.3442763671875,0.0,0.0,0.0,0.0,0.0,0.0,-0.109,0.0,0.0,0.0,0.0,0.0,0.0,0.3389272725022604,0.0,0.0,0.0,0.0,0.0,0.0,-0.052
428,0.0,0.0,0.0,0.0,0.0,0.0,0.3432568359375,0.0,0.0,0.0,0.0,0.0,0.0,-0.093,0.0,0.0,0.0,0.0,0.0,0.0,0.3378573475841466,0.0,0.0,0.0,0.0,0.0,0.0,-0.052
429,0.0,0.0,0.0,0.0,0.0,0.0,0.3422236328125,0.0,0.0,0.0,0.0,0.0,0.0,-0.096,0.0,0.0,0.0,0.0,0.0,0.0,0.3367835515954778,0.0,0.0,0.0,0.0,0.0,0.0,-0.064
430,0.0,0.0,0.0,0.0,0.0,0.0,0.3413974609375,0.0,0.0,0.0,0.0,0.0,0.0,-0.104,0.0,0.0,0.0,0.0,0.0,0.0,0.33569645250943647,0.0,0.0,0.0,0.0,0.0,0.0,-0.084
431,0.0,0.0,0.0,0.0,0.0,0.0,0.340583984375,0.0,0.0,0.0,0.0,0.0,0.0,-0.09,0.0,0.0,0.0,0.0,0.0,0.0,0.33461273803576475,0.0,0.0,0.0,0.0,0.0,0.0,-0.104
432,0.0,0.0,0.0,0.0,0.0,0.0,0.33955078125,0.0,0.0,0.0,0.0,0.0,0.0,-0.086,0.0,0.0,0.0,0.0,0.0,0.0,0.33330599917848286,0.0,0.0,0.0,0.0,0.0,0.0,-0.108
433,0.0,0.0,0.0,0.0,0.0,0.0,0.33853125,0.0,0.0,0.0,0.0,0.0,0.0,-0.097,0.0,0.0,0.0,0.0,0.0,0.0,0.3323858047490691,0.0,0.0,0.0,0.0,0.0,0.0,-0.096
434,0.0,0.0,0.0,0.0,0.0,0.0,0.337498046875,0.0,0.0,0.0,0.0,0.0,0.0,-0.104,0.0,0.0,0.0,0.0,0.0,0.0,0.33128490559593476,0.0,0.0,0.0,0.0,0.0,0.0,-0.128
435,0.0,0.0,0.0,0.0,0.0,0.0,0.336478515625,0.0,0.0,0.0,0.0,0.0,0.0,-0.112,0.0,0.0,0.0,0.0,0.0,0.0,0.33015474562589836,0.0,0.0,0.0,0.0,0.0,0.0,-0.116
436,0.0,0.0,0.0,0.0,0.0,0.0,0.33523828125,0.0,0.0,0.0,0.0,0.0,0.0,-0.108,0.0,0.0,0.0,0.0,0.0,0.0,0.3290217334327219,0.0,0.0,0.0,0.0,0.0,0.0,-0.116
437,0.0,0.0,0.0,0.0,0.0,0.0,0.33421875,0.0,0.0,0.0,0.0,0.0,0.0,-0.111,0.0,0.0,0.0,0.0,0.0,0.0,0.3278774948205796,0.0,0.0,0.0,0.0,0.0,0.0,-0.136
438,0.0,0.0,0.0,0.0,0.0,0.0,0.3329794921875,0.0,0.0,0.0,0.0,0.0,0.0,-0.118,0.0,0.0,0.0,0.0,0.0,0.0,0.32672364432941947,0.0,0.0,0.0,0.0,0.0,0.0,-0.128
439,0.0,0.0,0.0,0.0,0.0,0.0,0.3317529296875,0.0,0.0,0.0,0.0,0.0,0.0,-0.133,0.0,0.0,0.0,0.0,0.0,0.0,0.3255510943382299,0.0,0.0,0.0,0.0,0.0,0.0,-0.12
440,0.0,0.0,0.0,0.0,0.0,0.0,0.330513671875,0.0,0.0,0.0,0.0,0.0,0.0,-0.122,0.0,0.0,0.0,0.0,0.0,0.0,0.3244108195795451,0.0,0.0,0.0,0.0,0.0,0.0,-0.116
441,0.0,0.0,0.0,0.0,0.0,0.0,0.329287109375,0.0,0.0,0.0,0.0,0.0,0.0,-0.114,0.0,0.0,0.0,0.0,0.0,0.0,0.32323616328486654,0.0,0.0,0.0,0.0,0.0,0.0,-0.116
442,0.0,0.0,0.0,0.0,0.0,0.0,0.328046875,0.0,0.0,0.0,0.0,0.0,0.0,-0.127,0.0,0.0,0.0,0.0,0.0,0.0,0.3220299432970188,0.0,0.0,0.0,0.0,0.0,0.0,-0.116
443,0.0,0.0,0.0,0.0,0.0,0.0,0.3268203125,0.0,0.0,0.0,0.0,0.0,0.0,-0.137,0.0,0.0,0.0,0.0,0.0,0.0,0.32086728284244653,0.0,0.0,0.0,0.0,0.0,0.0,-0.12
444,0.0,0.0,0.0,0.0,0.0,0.0,0.3255947265625,0.0,0.0,0.0,0.0,0.0,0.0,-0.119,0.0,0.0,0.0,0.0,0.0,0.0,0.3196618587299621,0.0,0.0,0.0,0.0,0.0,0.0,-0.104
445,0.0,0.0,0.0,0.0,0.0,0.0,0.3245615234375,0.0,0.0,0.0,0.0,0.0,0.0,-0.108,0.0,0.0,0.0,0.0,0.0,0.0,0.3184516362508132,0.0,0.0,0.0,0.0,0.0,0.0,-0.088
446,0.0,0.0,0.0,0.0,0.0,0.0,0.3233349609375,0.0,0.0,0.0,0.0,0.0,0.0,-0.117,0.0,0.0,0.0,0.0,0.0,0.0,0.31722253698004055,0.0,0.0,0.0,0.0,0.0,0.0,-0.104
447,0.0,0.0,0.0,0.0,0.0,0.0,0.3223017578125,0.0,0.0,0.0,0.0,0.0,0.0,-0.118,0.0,0.0,0.0,0.0,0.0,0.0,0.3158228874966343,0.0,0.0,0.0,0.0,0.0,0.0,-0.076
448,0.0,0.0,0.0,0.0,0.0,0.0,0.3210751953125,0.0,0.0,0.0,0.0,0.0,0.0,-0.112,0.0,0.0,0.0,0.0,0.0,0.0,0.3147788936950314,0.0,0.0,0.0,0.0,0.0,0.0,-0.068
449,0.0,0.0,0.0,0.0,0.0,0.0,0.32004296875,0.0,0.0,0.0,0.0,0.0,0.0,-0.115,0.0,0.0,0.0,0.0,0.0,0.0,0.31354847486258364,0.0,0.0,0.0,0.0,0.0,0.0,-0.064
450,0.0,0.0,0.0,0.0,0.0,0.0,0.31881640625,0.0,0.0,0.0,0.0,0.0,0.0,-0.111,0.0,0.0,0.0,0.0,0.0,0.0,0.3123072138431223,0.0,0.0,0.0,0.0,0.0,0.0,-0.076
451,0.0,0.0,0.0,0.0,0.0,0.0,0.317783203125,0.0,0.0,0.0,0.0,0.0,0.0,-0.117,0.0,0.0,0.0,0.0,0.0,0.0,0.31105493356430036,0.0,0.0,0.0,0.0,0.0,0.0,-0.044
452,0.0,0.0,0.0,0.0,0.0,0.0,0.316349609375,0.0,0.0,0.0,0.0,0.0,0.0,-0.122,0.0,0.0,0.0,0.0,0.0,0.0,0.3097906091455448,0.0,0.0,0.0,0.0,0.0,0.0,-0.052
453,0.0,0.0,0.0,0.0,0.0,0.0,0.3151103515625,0.0,0.0,0.0,0.0,0.0,0.0,-0.129,0.0,0.0,0.0,0.0,0.0,0.0,0.3085221449337612,0.0,0.0,0.0,0.0,0.0,0.0,-0.064
454,0.0,0.0,0.0,0.0,0.0,0.0,0.3138837890625,0.0,0.0,0.0,0.0,0.0,0.0,-0.127,0.0,0.0,0.0,0.0,0.0,0.0,0.30723052507196114,0.0,0.0,0.0,0.0,0.0,0.0,-0.036
455,0.0,0.0,0.0,0.0,0.0,0.0,0.3126572265625,0.0,0.0,0.0,0.0,0.0,0.0,-0.128,0.0,0.0,0.0,0.0,0.0,0.0,0.3059575547763363,0.0,0.0,0.0,0.0,0.0,0.0,-0.056
456,0.0,0.0,0.0,0.0,0.0,0.0,0.31141796875,0.0,0.0,0.0,0.0,0.0,0.0,-0.127,0.0,0.0,0.0,0.0,0.0,0.0,0.30467762858619707,0.0,0.0,0.0,0.0,0.0,0.0,-0.076
457,0.0,0.0,0.0,0.0,0.0,0.0,0.3099853515625,0.0,0.0,0.0,0.0,0.0,0.0,-0.133,0.0,0.0,0.0,0.0,0.0,0.0,0.30335759657328654,0.0,0.0,0.0,0.0,0.0,0.0,-0.056
458,0.0,0.0,0.0,0.0,0.0,0.0,0.3085390625,0.0,0.0,0.0,0.0,0.0,0.0,-0.134,0.0,0.0,0.0,0.0,0.0,0.0,0.30204234070061364,0.0,0.0,0.0,0.0,0.0,0.0,-0.044
459,0.0,0.0,0.0,0.0,0.0,0.0,0.30710546875,0.0,0.0,0.0,0.0,0.0,0.0,-0.15,0.0,0.0,0.0,0.0,0.0,0.0,0.30074478389615755,0.0,0.0,0.0,0.0,0.0,0.0,0.0
460,0.0,0.0,0.0,0.0,0.0,0.0,0.3056728515625,0.0,0.0,0.0,0.0,0.0,0.0,-0.151,0.0,0.0,0.0,0.0,0.0,0.0,0.299420809353154,0.0,0.0,0.0,0.0,0.0,0.0,-0.004
461,0.0,0.0,0.0,0.0,0.0,0.0,0.3042265625,0.0,0.0,0.0,0.0,0.0,0.0,-0.14,0.0,0.0,0.0,0.0,0.0,0.0,0.29810211319852786,0.0,0.0,0.0,0.0,0.0,0.0,-0.052
462,0.0,0.0,0.0,0.0,0.0,0.0,0.3027939453125,0.0,0.0,0.0,0.0,0.0,0.0,-0.141,0.0,0.0,0.0,0.0,0.0,0.0,0.2967482093685066,0.0,0.0,0.0,0.0,0.0,0.0,-0.016
463,0.0,0.0,0.0,0.0,0.0,0.0,0.3015673828125,0.0,0.0,0.0,0.0,0.0,0.0,-0.145,0.0,0.0,0.0,0.0,0.0,0.0,0.2954166340682316,0.0,0.0,0.0,0.0,0.0,0.0,-0.024
464,0.0,0.0,0.0,0.0,0.0,0.0,0.3003271484375,0.0,0.0,0.0,0.0,0.0,0.0,-0.129,0.0,0.0,0.0,0.0,0.0,0.0,0.2940563865419951,0.0,0.0,0.0,0.0,0.0,0.0,-0.036
465,0.0,0.0,0.0,0.0,0.0,0.0,0.29889453125,0.0,0.0,0.0,0.0,0.0,0.0,-0.132,0.0,0.0,0.0,0.0,0.0,0.0,0.2926847663356521,0.0,0.0,0.0,0.0,0.0,0.0,-0.052
466,0.0,0.0,0.0,0.0,0.0,0.0,0.297861328125,0.0,0.0,0.0,0.0,0.0,0.0,-0.127,0.0,0.0,0.0,0.0,0.0,0.0,0.2913298131716905,0.0,0.0,0.0,0.0,0.0,0.0,-0.096
467,0.0,0.0,0.0,0.0,0.0,0.0,0.296634765625,0.0,0.0,0.0,0.0,0.0,0.0,-0.114,0.0,0.0,0.0,0.0,0.0,0.0,0.2899507538351035,0.0,0.0,0.0,0.0,0.0,0.0,-0.084
468,0.0,0.0,0.0,0.0,0.0,0.0,0.295408203125,0.0,0.0,0.0,0.0,0.0,0.0,-0.119,0.0,0.0,0.0,0.0,0.0,0.0,0.288583347031575,0.0,0.0,0.0,0.0,0.0,0.0,-0.064
469,0.0,0.0,0.0,0.0,0.0,0.0,0.2941689453125,0.0,0.0,0.0,0.0,0.0,0.0,-0.123,0.0,0.0,0.0,0.0,0.0,0.0,0.28716754720111154,0.0,0.0,0.0,0.0,0.0,0.0,-0.052
470,0.0,0.0,0.0,0.0,0.0,0.0,0.2929423828125,0.0,0.0,0.0,0.0,0.0,0.0,-0.125,0.0,0.0,0.0,0.0,0.0,0.0,0.2857875255756666,0.0,0.0,0.0,0.0,0.0,0.0,-0.064
471,0.0,0.0,0.0,0.0,0.0,0.0,0.29149609375,0.0,0.0,0.0,0.0,0.0,0.0,-0.138,0.0,0.0,0.0,0.0,0.0,0.0,0.28439025926487677,0.0,0.0,0.0,0.0,0.0,0.0,-0.052
472,0.0,0.0,0.0,0.0,0.0,0.0,0.2898564453125,0.0,0.0,0.0,0.0,0.0,0.0,-0.153,0.0,0.0,0.0,0.0,0.0,0.0,0.2829787280900685,0.0,0.0,0.0,0.0,0.0,0.0,-0.052
473,0.0,0.0,0.0,0.0,0.0,0.0,0.2886298828125,0.0,0.0,0.0,0.0,0.0,0.0,-0.148,0.0,0.0,0.0,0.0,0.0,0.0,0.2815032679817541,0.0,0.0,0.0,0.0,0.0,0.0,-0.064
474,0.0,0.0,0.0,0.0,0.0,0.0,0.2869775390625,0.0,0.0,0.0,0.0,0.0,0.0,-0.142,0.0,0.0,0.0,0.0,0.0,0.0,0.28014596979137435,0.0,0.0,0.0,0.0,0.0,0.0,-0.052
475,0.0,0.0,0.0,0.0,0.0,0.0,0.285544921875,0.0,0.0,0.0,0.0,0.0,0.0,-0.15,0.0,0.0,0.0,0.0,0.0,0.0,0.2787130242235239,0.0,0.0,0.0,0.0,0.0,0.0,-0.052
476,0.0,0.0,0.0,0.0,0.0,0.0,0.284111328125,0.0,0.0,0.0,0.0,0.0,0.0,-0.15,0.0,0.0,0.0,0.0,0.0,0.0,0.2772617507179092,0.0,0.0,0.0,0.0,0.0,0.0,-0.076
477,0.0,0.0,0.0,0.0,0.0,0.0,0.2826650390625,0.0,0.0,0.0,0.0,0.0,0.0,-0.148,0.0,0.0,0.0,0.0,0.0,0.0,0.27582610732883983,0.0,0.0,0.0,0.0,0.0,0.0,-0.032
478,0.0,0.0,0.0,0.0,0.0,0.0,0.2816455078125,0.0,0.0,0.0,0.0,0.0,0.0,-0.121,0.0,0.0,0.0,0.0,0.0,0.0,0.2743781406547862,0.0,0.0,0.0,0.0,0.0,0.0,-0.004
479,0.0,0.0,0.0,0.0,0.0,0.0,0.2802119140625,0.0,0.0,0.0,0.0,0.0,0.0,-0.127,0.0,0.0,0.0,0.0,0.0,0.0,0.2729154730352398,0.0,0.0,0.0,0.0,0.0,0.0,-0.012
480,0.0,0.0,0.0,0.0,0.0,0.0,0.2787666015625,0.0,0.0,0.0,0.0,0.0,0.0,-0.158,0.0,0.0,0.0,0.0,0.0,0.0,0.27144359916566885,0.0,0.0,0.0,0.0,0.0,0.0,0.004
481,0.0,0.0,0.0,0.0,0.0,0.0,0.2775400390625,0.0,0.0,0.0,0.0,0.0,0.0,-0.134,0.0,0.0,0.0,0.0,0.0,0.0,0.2699768086018461,0.0,0.0,0.0,0.0,0.0,0.0,0.016
482,0.0,0.0,0.0,0.0,0.0,0.0,0.275900390625,0.0,0.0,0.0,0.0,0.0,0.0,-0.137,0.0,0.0,0.0,0.0,0.0,0.0,0.2684806632450269,0.0,0.0,0.0,0.0,0.0,0.0,0.052
483,0.0,0.0,0.0,0.0,0.0,0.0,0.27466015625,0.0,0.0,0.0,0.0,0.0,0.0,-0.146,0.0,0.0,0.0,0.0,0.0,0.0,0.2670103876485869,0.0,0.0,0.0,0.0,0.0,0.0,0.064
484,0.0,0.0,0.0,0.0,0.0,0.0,0.2732275390625,0.0,0.0,0.0,0.0,0.0,0.0,-0.14,0.0,0.0,0.0,0.0,0.0,0.0,0.2655359654615704,0.0,0.0,0.0,0.0,0.0,0.0,0.044
485,0.0,0.0,0.0,0.0,0.0,0.0,0.271587890625,0.0,0.0,0.0,0.0,0.0,0.0,-0.157,0.0,0.0,0.0,0.0,0.0,0.0,0.2640232571169357,0.0,0.0,0.0,0.0,0.0,0.0,0.036
486,0.0,0.0,0.0,0.0,0.0,0.0,0.269935546875,0.0,0.0,0.0,0.0,0.0,0.0,-0.167,0.0,0.0,0.0,0.0,0.0,0.0,0.262529587795244,0.0,0.0,0.0,0.0,0.0,0.0,0.056
487,0.0,0.0,0.0,0.0,0.0,0.0,0.268501953125,0.0,0.0,0.0,0.0,0.0,0.0,-0.157,0.0,0.0,0.0,0.0,0.0,0.0,0.2610155489115976,0.0,0.0,0.0,0.0,0.0,0.0,0.036
488,0.0,0.0,0.0,0.0,0.0,0.0,0.2668623046875,0.0,0.0,0.0,0.0,0.0,0.0,-0.146,0.0,0.0,0.0,0.0,0.0,0.0,0.25946190929549834,0.0,0.0,0.0,0.0,0.0,0.0,0.056
489,0.0,0.0,0.0,0.0,0.0,0.0,0.2650029296875,0.0,0.0,0.0,0.0,0.0,0.0,-0.168,0.0,0.0,0.0,0.0,0.0,0.0,0.257968469536748,0.0,0.0,0.0,0.0,0.0,0.0,-0.004
490,0.0,0.0,0.0,0.0,0.0,0.0,0.26336328125,0.0,0.0,0.0,0.0,0.0,0.0,-0.18,0.0,0.0,0.0,0.0,0.0,0.0,0.2564439638307022,0.0,0.0,0.0,0.0,0.0,0.0,0.004
491,0.0,0.0,0.0,0.0,0.0,0.0,0.2617109375,0.0,0.0,0.0,0.0,0.0,0.0,-0.164,0.0,0.0,0.0,0.0,0.0,0.0,0.25488753068892617,0.0,0.0,0.0,0.0,0.0,0.0,-0.024
492,0.0,0.0,0.0,0.0,0.0,0.0,0.26027734375,0.0,0.0,0.0,0.0,0.0,0.0,-0.161,0.0,0.0,0.0,0.0,0.0,0.0,0.2533497762842487,0.0,0.0,0.0,0.0,0.0,0.0,-0.032
493,0.0,0.0,0.0,0.0,0.0,0.0,0.2586376953125,0.0,0.0,0.0,0.0,0.0,0.0,-0.16,0.0,0.0,0.0,0.0,0.0,0.0,0.25179196086754563,0.0,0.0,0.0,0.0,0.0,0.0,-0.044
494,0.0,0.0,0.0,0.0,0.0,0.0,0.256998046875,0.0,0.0,0.0,0.0,0.0,0.0,-0.164,0.0,0.0,0.0,0.0,0.0,0.0,0.25023649913487706,0.0,0.0,0.0,0.0,0.0,0.0,-0.064
495,0.0,0.0,0.0,0.0,0.0,0.0,0.255345703125,0.0,0.0,0.0,0.0,0.0,0.0,-0.161,0.0,0.0,0.0,0.0,0.0,0.0,0.2486728904243652,0.0,0.0,0.0,0.0,0.0,0.0,-0.096
496,0.0,0.0,0.0,0.0,0.0,0.0,0.2539130859375,0.0,0.0,0.0,0.0,0.0,0.0,-0.156,0.0,0.0,0.0,0.0,0.0,0.0,0.24710452581342404,0.0,0.0,0.0,0.0,0.0,0.0,-0.136
497,0.0,0.0,0.0,0.0,0.0,0.0,0.2526865234375,0.0,0.0,0.0,0.0,0.0,0.0,-0.146,0.0,0.0,0.0,0.0,0.0,0.0,0.24553059592141868,0.0,0.0,0.0,0.0,0.0,0.0,-0.14
498,0.0,0.0,0.0,0.0,0.0,0.0,0.251240234375,0.0,0.0,0.0,0.0,0.0,0.0,-0.131,0.0,0.0,0.0,0.0,0.0,0.0,0.2439358043704578,0.0,0.0,0.0,0.0,0.0,0.0,-0.148
499,0.0,0.0,0.0,0.0,0.0,0.0,0.249806640625,0.0,0.0,0.0,0.0,0.0,0.0,-0.15,0.0,0.0,0.0,0.0,0.0,0.0,0.24236778080837973,0.0,0.0,0.0,0.0,0.0,0.0,-0.14
500,0.0,0.0,0.0,0.0,0.0,0.0,0.2481669921875,0.0,0.0,0.0,0.0,0.0,0.0,-0.15,0.0,0.0,0.0,0.0,0.0,0.0,0.24075820949260668,0.0,0.0,0.0,0.0,0.0,0.0,-0.136
501,0.0,0.0,0.0,0.0,0.0,0.0,0.2467216796875,0.0,0.0,0.0,0.0,0.0,0.0,-0.154,0.0,0.0,0.0,0.0,0.0,0.0,0.23916608507454404,0.0,0.0,0.0,0.0,0.0,0.0,-0.136
502,0.0,0.0,0.0,0.0,0.0,0.0,0.2452880859375,0.0,0.0,0.0,0.0,0.0,0.0,-0.144,0.0,0.0,0.0,0.0,0.0,0.0,0.23755883410669135,0.0,0.0,0.0,0.0,0.0,0.0,-0.12
503,0.0,0.0,0.0,0.0,0.0,0.0,0.24385546875,0.0,0.0,0.0,0.0,0.0,0.0,-0.144,0.0,0.0,0.0,0.0,0.0,0.0,0.23594016798863074,0.0,0.0,0.0,0.0,0.0,0.0,-0.16
504,0.0,0.0,0.0,0.0,0.0,0.0,0.2422158203125,0.0,0.0,0.0,0.0,0.0,0.0,-0.162,0.0,0.0,0.0,0.0,0.0,0.0,0.23432838517568455,0.0,0.0,0.0,0.0,0.0,0.0,-0.128
505,0.0,0.0,0.0,0.0,0.0,0.0,0.2405625,0.0,0.0,0.0,0.0,0.0,0.0,-0.163,0.0,0.0,0.0,0.0,0.0,0.0,0.23270764731351773,0.0,0.0,0.0,0.0,0.0,0.0,-0.104
506,0.0,0.0,0.0,0.0,0.0,0.0,0.2389228515625,0.0,0.0,0.0,0.0,0.0,0.0,-0.163,0.0,0.0,0.0,0.0,0.0,0.0,0.2310563198891078,0.0,0.0,0.0,0.0,0.0,0.0,-0.088
507,0.0,0.0,0.0,0.0,0.0,0.0,0.237283203125,0.0,0.0,0.0,0.0,0.0,0.0,-0.163,0.0,0.0,0.0,0.0,0.0,0.0,0.2293725369401598,0.0,0.0,0.0,0.0,0.0,0.0,-0.076
508,0.0,0.0,0.0,0.0,0.0,0.0,0.2360439453125,0.0,0.0,0.0,0.0,0.0,0.0,-0.15,0.0,0.0,0.0,0.0,0.0,0.0,0.22780039536388627,0.0,0.0,0.0,0.0,0.0,0.0,-0.088
509,0.0,0.0,0.0,0.0,0.0,0.0,0.234611328125,0.0,0.0,0.0,0.0,0.0,0.0,-0.129,0.0,0.0,0.0,0.0,0.0,0.0,0.22615471558699657,0.0,0.0,0.0,0.0,0.0,0.0,-0.108
510,0.0,0.0,0.0,0.0,0.0,0.0,0.232970703125,0.0,0.0,0.0,0.0,0.0,0.0,-0.152,0.0,0.0,0.0,0.0,0.0,0.0,0.22450374496503606,0.0,0.0,0.0,0.0,0.0,0.0,-0.088
511,0.0,0.0,0.0,0.0,0.0,0.0,0.2315380859375,0.0,0.0,0.0,0.0,0.0,0.0,-0.164,0.0,0.0,0.0,0.0,0.0,0.0,0.2228519632900341,0.0,0.0,0.0,0.0,0.0,0.0,-0.056
512,0.0,0.0,0.0,0.0,0.0,0.0,0.2296787109375,0.0,0.0,0.0,0.0,0.0,0.0,-0.161,0.0,0.0,0.0,0.0,0.0,0.0,0.2211845213473853,0.0,0.0,0.0,0.0,0.0,0.0,-0.064
513,0.0,0.0,0.0,0.0,0.0,0.0,0.2280390625,0.0,0.0,0.0,0.0,0.0,0.0,-0.18,0.0,0.0,0.0,0.0,0.0,0.0,0.21950598361851906,0.0,0.0,0.0,0.0,0.0,0.0,-0.064
514,0.0,0.0,0.0,0.0,0.0,0.0,0.226193359375,0.0,0.0,0.0,0.0,0.0,0.0,-0.172,0.0,0.0,0.0,0.0,0.0,0.0,0.21728230251121217,0.0,0.0,0.0,0.0,0.0,0.0,-0.068
515,0.0,0.0,0.0,0.0,0.0,0.0,0.2243466796875,0.0,0.0,0.0,0.0,0.0,0.0,-0.183,0.0,0.0,0.0,0.0,0.0,0.0,0.2154654267372349,0.0,0.0,0.0,0.0,0.0,0.0,-0.068
516,0.0,0.0,0.0,0.0,0.0,0.0,0.2225,0.0,0.0,0.0,0.0,0.0,0.0,-0.186,0.0,0.0,0.0,0.0,0.0,0.0,0.21374811732570245,0.0,0.0,0.0,0.0,0.0,0.0,-0.052
517,0.0,0.0,0.0,0.0,0.0,0.0,0.220654296875,0.0,0.0,0.0,0.0,0.0,0.0,-0.194,0.0,0.0,0.0,0.0,0.0,0.0,0.21278909701083049,0.0,0.0,0.0,0.0,0.0,0.0,-0.016
518,0.0,0.0,0.0,0.0,0.0,0.0,0.2190146484375,0.0,0.0,0.0,0.0,0.0,0.0,-0.181,0.0,0.0,0.0,0.0,0.0,0.0,0.21108526774041178,0.0,0.0,0.0,0.0,0.0,0.0,-0.032
519,0.0,0.0,0.0,0.0,0.0,0.0,0.2169619140625,0.0,0.0,0.0,0.0,0.0,0.0,-0.178,0.0,0.0,0.0,0.0,0.0,0.0,0.20937290395401964,0.0,0.0,0.0,0.0,0.0,0.0,-0.024
520,0.0,0.0,0.0,0.0,0.0,0.0,0.2151025390625,0.0,0.0,0.0,0.0,0.0,0.0,-0.198,0.0,0.0,0.0,0.0,0.0,0.0,0.20767622709923048,0.0,0.0,0.0,0.0,0.0,0.0,-0.024
521,0.0,0.0,0.0,0.0,0.0,0.0,0.213462890625,0.0,0.0,0.0,0.0,0.0,0.0,-0.171,0.0,0.0,0.0,0.0,0.0,0.0,0.20596019435753218,0.0,0.0,0.0,0.0,0.0,0.0,-0.064
522,0.0,0.0,0.0,0.0,0.0,0.0,0.2116162109375,0.0,0.0,0.0,0.0,0.0,0.0,-0.179,0.0,0.0,0.0,0.0,0.0,0.0,0.20424177575685054,0.0,0.0,0.0,0.0,0.0,0.0,-0.068
523,0.0,0.0,0.0,0.0,0.0,0.0,0.2099765625,0.0,0.0,0.0,0.0,0.0,0.0,-0.174,0.0,0.0,0.0,0.0,0.0,0.0,0.20252667274229014,0.0,0.0,0.0,0.0,0.0,0.0,-0.088
524,0.0,0.0,0.0,0.0,0.0,0.0,0.208130859375,0.0,0.0,0.0,0.0,0.0,0.0,-0.174,0.0,0.0,0.0,0.0,0.0,0.0,0.20078266978690637,0.0,0.0,0.0,0.0,0.0,0.0,-0.096
525,0.0,0.0,0.0,0.0,0.0,0.0,0.2064912109375,0.0,0.0,0.0,0.0,0.0,0.0,-0.18,0.0,0.0,0.0,0.0,0.0,0.0,0.1990588621732634,0.0,0.0,0.0,0.0,0.0,0.0,-0.064
526,0.0,0.0,0.0,0.0,0.0,0.0,0.204837890625,0.0,0.0,0.0,0.0,0.0,0.0,-0.163,0.0,0.0,0.0,0.0,0.0,0.0,0.19732684990837612,0.0,0.0,0.0,0.0,0.0,0.0,-0.084
527,0.0,0.0,0.0,0.0,0.0,0.0,0.2029921875,0.0,0.0,0.0,0.0,0.0,0.0,-0.173,0.0,0.0,0.0,0.0,0.0,0.0,0.195561857230106,0.0,0.0,0.0,0.0,0.0,0.0,-0.044
528,0.0,0.0,0.0,0.0,0.0,0.0,0.2013525390625,0.0,0.0,0.0,0.0,0.0,0.0,-0.182,0.0,0.0,0.0,0.0,0.0,0.0,0.19358165745712175,0.0,0.0,0.0,0.0,0.0,0.0,-0.056
529,0.0,0.0,0.0,0.0,0.0,0.0,0.199505859375,0.0,0.0,0.0,0.0,0.0,0.0,-0.174,0.0,0.0,0.0,0.0,0.0,0.0,0.19176202465368483,0.0,0.0,0.0,0.0,0.0,0.0,-0.076
530,0.0,0.0,0.0,0.0,0.0,0.0,0.19766015625,0.0,0.0,0.0,0.0,0.0,0.0,-0.179,0.0,0.0,0.0,0.0,0.0,0.0,0.19033417682558507,0.0,0.0,0.0,0.0,0.0,0.0,-0.064
531,0.0,0.0,0.0,0.0,0.0,0.0,0.1956064453125,0.0,0.0,0.0,0.0,0.0,0.0,-0.197,0.0,0.0,0.0,0.0,0.0,0.0,0.18852244143862998,0.0,0.0,0.0,0.0,0.0,0.0,-0.044
532,0.0,0.0,0.0,0.0,0.0,0.0,0.193966796875,0.0,0.0,0.0,0.0,0.0,0.0,-0.191,0.0,0.0,0.0,0.0,0.0,0.0,0.18680481399593096,0.0,0.0,0.0,0.0,0.0,0.0,-0.016
533,0.0,0.0,0.0,0.0,0.0,0.0,0.192521484375,0.0,0.0,0.0,0.0,0.0,0.0,-0.166,0.0,0.0,0.0,0.0,0.0,0.0,0.1850224448572465,0.0,0.0,0.0,0.0,0.0,0.0,0.004
534,0.0,0.0,0.0,0.0,0.0,0.0,0.1908818359375,0.0,0.0,0.0,0.0,0.0,0.0,-0.147,0.0,0.0,0.0,0.0,0.0,0.0,0.1828834932613747,0.0,0.0,0.0,0.0,0.0,0.0,0.004
535,0.0,0.0,0.0,0.0,0.0,0.0,0.1892421875,0.0,0.0,0.0,0.0,0.0,0.0,-0.158,0.0,0.0,0.0,0.0,0.0,0.0,0.1814816841619118,0.0,0.0,0.0,0.0,0.0,0.0,0.0
536,0.0,0.0,0.0,0.0,0.0,0.0,0.18780859375,0.0,0.0,0.0,0.0,0.0,0.0,-0.16,0.0,0.0,0.0,0.0,0.0,0.0,0.17968800340723612,0.0,0.0,0.0,0.0,0.0,0.0,0.032
537,0.0,0.0,0.0,0.0,0.0,0.0,0.18615625,0.0,0.0,0.0,0.0,0.0,0.0,-0.158,0.0,0.0,0.0,0.0,0.0,0.0,0.17790016266582953,0.0,0.0,0.0,0.0,0.0,0.0,0.036
538,0.0,0.0,0.0,0.0,0.0,0.0,0.1845166015625,0.0,0.0,0.0,0.0,0.0,0.0,-0.169,0.0,0.0,0.0,0.0,0.0,0.0,0.17611511604314628,0.0,0.0,0.0,0.0,0.0,0.0,0.012
539,0.0,0.0,0.0,0.0,0.0,0.0,0.182876953125,0.0,0.0,0.0,0.0,0.0,0.0,-0.171,0.0,0.0,0.0,0.0,0.0,0.0,0.17430566547961832,0.0,0.0,0.0,0.0,0.0,0.0,0.012
540,0.0,0.0,0.0,0.0,0.0,0.0,0.1810302734375,0.0,0.0,0.0,0.0,0.0,0.0,-0.167,0.0,0.0,0.0,0.0,0.0,0.0,0.17250500893732013,0.0,0.0,0.0,0.0,0.0,0.0,0.044
541,0.0,0.0,0.0,0.0,0.0,0.0,0.17959765625,0.0,0.0,0.0,0.0,0.0,0.0,-0.169,0.0,0.0,0.0,0.0,0.0,0.0,0.1702788290867177,0.0,0.0,0.0,0.0,0.0,0.0,0.024
542,0.0,0.0,0.0,0.0,0.0,0.0,0.177544921875,0.0,0.0,0.0,0.0,0.0,0.0,-0.174,0.0,0.0,0.0,0.0,0.0,0.0,0.1689000333347076,0.0,0.0,0.0,0.0,0.0,0.0,-0.004
543,0.0,0.0,0.0,0.0,0.0,0.0,0.175685546875,0.0,0.0,0.0,0.0,0.0,0.0,-0.192,0.0,0.0,0.0,0.0,0.0,0.0,0.16707678425388828,0.0,0.0,0.0,0.0,0.0,0.0,-0.016
544,0.0,0.0,0.0,0.0,0.0,0.0,0.1740458984375,0.0,0.0,0.0,0.0,0.0,0.0,-0.176,0.0,0.0,0.0,0.0,0.0,0.0,0.1652326019846693,0.0,0.0,0.0,0.0,0.0,0.0,-0.032
545,0.0,0.0,0.0,0.0,0.0,0.0,0.1719931640625,0.0,0.0,0.0,0.0,0.0,0.0,-0.188,0.0,0.0,0.0,0.0,0.0,0.0,0.16342956992685548,0.0,0.0,0.0,0.0,0.0,0.0,-0.044
546,0.0,0.0,0.0,0.0,0.0,0.0,0.1697333984375,0.0,0.0,0.0,0.0,0.0,0.0,-0.219,0.0,0.0,0.0,0.0,0.0,0.0,0.16160317642378663,0.0,0.0,0.0,0.0,0.0,0.0,-0.064
547,0.0,0.0,0.0,0.0,0.0,0.0,0.16788671875,0.0,0.0,0.0,0.0,0.0,0.0,-0.218,0.0,0.0,0.0,0.0,0.0,0.0,0.15976251837934563,0.0,0.0,0.0,0.0,0.0,0.0,-0.116
548,0.0,0.0,0.0,0.0,0.0,0.0,0.166041015625,0.0,0.0,0.0,0.0,0.0,0.0,-0.187,0.0,0.0,0.0,0.0,0.0,0.0,0.15788544993047812,0.0,0.0,0.0,0.0,0.0,0.0,-0.148
549,0.0,0.0,0.0,0.0,0.0,0.0,0.1644013671875,0.0,0.0,0.0,0.0,0.0,0.0,-0.179,0.0,0.0,0.0,0.0,0.0,0.0,0.1558243017232539,0.0,0.0,0.0,0.0,0.0,0.0,-0.136
550,0.0,0.0,0.0,0.0,0.0,0.0,0.1625546875,0.0,0.0,0.0,0.0,0.0,0.0,-0.175,0.0,0.0,0.0,0.0,0.0,0.0,0.15421604298510588,0.0,0.0,0.0,0.0,0.0,0.0,-0.108
551,0.0,0.0,0.0,0.0,0.0,0.0,0.1609150390625,0.0,0.0,0.0,0.0,0.0,0.0,-0.174,0.0,0.0,0.0,0.0,0.0,0.0,0.15240555590190027,0.0,0.0,0.0,0.0,0.0,0.0,-0.108
552,0.0,0.0,0.0,0.0,0.0,0.0,0.1590693359375,0.0,0.0,0.0,0.0,0.0,0.0,-0.173,0.0,0.0,0.0,0.0,0.0,0.0,0.15056136911956083,0.0,0.0,0.0,0.0,0.0,0.0,-0.148
553,0.0,0.0,0.0,0.0,0.0,0.0,0.157015625,0.0,0.0,0.0,0.0,0.0,0.0,-0.197,0.0,0.0,0.0,0.0,0.0,0.0,0.14870844404657485,0.0,0.0,0.0,0.0,0.0,0.0,-0.136
554,0.0,0.0,0.0,0.0,0.0,0.0,0.1551572265625,0.0,0.0,0.0,0.0,0.0,0.0,-0.19,0.0,0.0,0.0,0.0,0.0,0.0,0.14684936924845798,0.0,0.0,0.0,0.0,0.0,0.0,-0.148
555,0.0,0.0,0.0,0.0,0.0,0.0,0.153310546875,0.0,0.0,0.0,0.0,0.0,0.0,-0.185,0.0,0.0,0.0,0.0,0.0,0.0,0.1449933315326865,0.0,0.0,0.0,0.0,0.0,0.0,-0.104
556,0.0,0.0,0.0,0.0,0.0,0.0,0.15146484375,0.0,0.0,0.0,0.0,0.0,0.0,-0.184,0.0,0.0,0.0,0.0,0.0,0.0,0.14305211713537358,0.0,0.0,0.0,0.0,0.0,0.0,-0.108
557,0.0,0.0,0.0,0.0,0.0,0.0,0.14982421875,0.0,0.0,0.0,0.0,0.0,0.0,-0.182,0.0,0.0,0.0,0.0,0.0,0.0,0.14125220866306532,0.0,0.0,0.0,0.0,0.0,0.0,-0.104
558,0.0,0.0,0.0,0.0,0.0,0.0,0.1481845703125,0.0,0.0,0.0,0.0,0.0,0.0,-0.17,0.0,0.0,0.0,0.0,0.0,0.0,0.13938042184601787,0.0,0.0,0.0,0.0,0.0,0.0,-0.076
559,0.0,0.0,0.0,0.0,0.0,0.0,0.1461318359375,0.0,0.0,0.0,0.0,0.0,0.0,-0.183,0.0,0.0,0.0,0.0,0.0,0.0,0.13740560902529395,0.0,0.0,0.0,0.0,0.0,0.0,-0.096
560,0.0,0.0,0.0,0.0,0.0,0.0,0.1444921875,0.0,0.0,0.0,0.0,0.0,0.0,-0.189,0.0,0.0,0.0,0.0,0.0,0.0,0.1356264988644785,0.0,0.0,0.0,0.0,0.0,0.0,-0.056
561,0.0,0.0,0.0,0.0,0.0,0.0,0.142646484375,0.0,0.0,0.0,0.0,0.0,0.0,-0.174,0.0,0.0,0.0,0.0,0.0,0.0,0.13374948978495355,0.0,0.0,0.0,0.0,0.0,0.0,-0.064
562,0.0,0.0,0.0,0.0,0.0,0.0,0.140787109375,0.0,0.0,0.0,0.0,0.0,0.0,-0.182,0.0,0.0,0.0,0.0,0.0,0.0,0.1318423729254847,0.0,0.0,0.0,0.0,0.0,0.0,-0.064
563,0.0,0.0,0.0,0.0,0.0,0.0,0.1389404296875,0.0,0.0,0.0,0.0,0.0,0.0,-0.183,0.0,0.0,0.0,0.0,0.0,0.0,0.12997292617098594,0.0,0.0,0.0,0.0,0.0,0.0,-0.068
564,0.0,0.0,0.0,0.0,0.0,0.0,0.1370947265625,0.0,0.0,0.0,0.0,0.0,0.0,-0.188,0.0,0.0,0.0,0.0,0.0,0.0,0.1280593730197578,0.0,0.0,0.0,0.0,0.0,0.0,-0.004
565,0.0,0.0,0.0,0.0,0.0,0.0,0.1350419921875,0.0,0.0,0.0,0.0,0.0,0.0,-0.195,0.0,0.0,0.0,0.0,0.0,0.0,0.12550560560481813,0.0,0.0,0.0,0.0,0.0,0.0,-0.036
566,0.0,0.0,0.0,0.0,0.0,0.0,0.13340234375,0.0,0.0,0.0,0.0,0.0,0.0,-0.195,0.0,0.0,0.0,0.0,0.0,0.0,0.12350781013444947,0.0,0.0,0.0,0.0,0.0,0.0,0.0
567,0.0,0.0,0.0,0.0,0.0,0.0,0.1315556640625,0.0,0.0,0.0,0.0,0.0,0.0,-0.171,0.0,0.0,0.0,0.0,0.0,0.0,0.12238417894058207,0.0,0.0,0.0,0.0,0.0,0.0,-0.012
568,0.0,0.0,0.0,0.0,0.0,0.0,0.129708984375,0.0,0.0,0.0,0.0,0.0,0.0,-0.178,0.0,0.0,0.0,0.0,0.0,0.0,0.12042764366084646,0.0,0.0,0.0,0.0,0.0,0.0,-0.012
569,0.0,0.0,0.0,0.0,0.0,0.0,0.1274501953125,0.0,0.0,0.0,0.0,0.0,0.0,-0.2,0.0,0.0,0.0,0.0,0.0,0.0,0.11855792721446395,0.0,0.0,0.0,0.0,0.0,0.0,-0.056
570,0.0,0.0,0.0,0.0,0.0,0.0,0.1253974609375,0.0,0.0,0.0,0.0,0.0,0.0,-0.222,0.0,0.0,0.0,0.0,0.0,0.0,0.11665129563161036,0.0,0.0,0.0,0.0,0.0,0.0,-0.068
571,0.0,0.0,0.0,0.0,0.0,0.0,0.1233447265625,0.0,0.0,0.0,0.0,0.0,0.0,-0.209,0.0,0.0,0.0,0.0,0.0,0.0,0.11469827503674271,0.0,0.0,0.0,0.0,0.0,0.0,-0.116
572,0.0,0.0,0.0,0.0,0.0,0.0,0.121498046875,0.0,0.0,0.0,0.0,0.0,0.0,-0.202,0.0,0.0,0.0,0.0,0.0,0.0,0.11280654839763458,0.0,0.0,0.0,0.0,0.0,0.0,-0.108
573,0.0,0.0,0.0,0.0,0.0,0.0,0.1196513671875,0.0,0.0,0.0,0.0,0.0,0.0,-0.187,0.0,0.0,0.0,0.0,0.0,0.0,0.11090341780171896,0.0,0.0,0.0,0.0,0.0,0.0,-0.064
574,0.0,0.0,0.0,0.0,0.0,0.0,0.1175986328125,0.0,0.0,0.0,0.0,0.0,0.0,-0.192,0.0,0.0,0.0,0.0,0.0,0.0,0.10897659674839943,0.0,0.0,0.0,0.0,0.0,0.0,-0.064
575,0.0,0.0,0.0,0.0,0.0,0.0,0.1155458984375,0.0,0.0,0.0,0.0,0.0,0.0,-0.207,0.0,0.0,0.0,0.0,0.0,0.0,0.10704281347075806,0.0,0.0,0.0,0.0,0.0,0.0,-0.056
576,0.0,0.0,0.0,0.0,0.0,0.0,0.1134931640625,0.0,0.0,0.0,0.0,0.0,0.0,-0.207,0.0,0.0,0.0,0.0,0.0,0.0,0.10509395539699405,0.0,0.0,0.0,0.0,0.0,0.0,-0.052
577,0.0,0.0,0.0,0.0,0.0,0.0,0.1116474609375,0.0,0.0,0.0,0.0,0.0,0.0,-0.194,0.0,0.0,0.0,0.0,0.0,0.0,0.10319230820217473,0.0,0.0,0.0,0.0,0.0,0.0,-0.076
578,0.0,0.0,0.0,0.0,0.0,0.0,0.1093876953125,0.0,0.0,0.0,0.0,0.0,0.0,-0.213,0.0,0.0,0.0,0.0,0.0,0.0,0.10124170582141288,0.0,0.0,0.0,0.0,0.0,0.0,-0.024
579,0.0,0.0,0.0,0.0,0.0,0.0,0.1073349609375,0.0,0.0,0.0,0.0,0.0,0.0,-0.212,0.0,0.0,0.0,0.0,0.0,0.0,0.0993189212973832,0.0,0.0,0.0,0.0,0.0,0.0,-0.032
580,0.0,0.0,0.0,0.0,0.0,0.0,0.1056953125,0.0,0.0,0.0,0.0,0.0,0.0,-0.193,0.0,0.0,0.0,0.0,0.0,0.0,0.09736732594363828,0.0,0.0,0.0,0.0,0.0,0.0,0.016
581,0.0,0.0,0.0,0.0,0.0,0.0,0.10404296875,0.0,0.0,0.0,0.0,0.0,0.0,-0.171,0.0,0.0,0.0,0.0,0.0,0.0,0.09541520859662272,0.0,0.0,0.0,0.0,0.0,0.0,0.012
582,0.0,0.0,0.0,0.0,0.0,0.0,0.1020029296875,0.0,0.0,0.0,0.0,0.0,0.0,-0.18,0.0,0.0,0.0,0.0,0.0,0.0,0.0934894239471635,0.0,0.0,0.0,0.0,0.0,0.0,0.016
583,0.0,0.0,0.0,0.0,0.0,0.0,0.1001435546875,0.0,0.0,0.0,0.0,0.0,0.0,-0.2,0.0,0.0,0.0,0.0,0.0,0.0,0.09154816166855462,0.0,0.0,0.0,0.0,0.0,0.0,0.076
584,0.0,0.0,0.0,0.0,0.0,0.0,0.098296875,0.0,0.0,0.0,0.0,0.0,0.0,-0.178,0.0,0.0,0.0,0.0,0.0,0.0,0.08956990640034208,0.0,0.0,0.0,0.0,0.0,0.0,0.032
585,0.0,0.0,0.0,0.0,0.0,0.0,0.096451171875,0.0,0.0,0.0,0.0,0.0,0.0,-0.188,0.0,0.0,0.0,0.0,0.0,0.0,0.08764940658969687,0.0,0.0,0.0,0.0,0.0,0.0,0.012
586,0.0,0.0,0.0,0.0,0.0,0.0,0.0943984375,0.0,0.0,0.0,0.0,0.0,0.0,-0.196,0.0,0.0,0.0,0.0,0.0,0.0,0.08567997277726278,0.0,0.0,0.0,0.0,0.0,0.0,0.032
587,0.0,0.0,0.0,0.0,0.0,0.0,0.0925517578125,0.0,0.0,0.0,0.0,0.0,0.0,-0.205,0.0,0.0,0.0,0.0,0.0,0.0,0.08371964354879634,0.0,0.0,0.0,0.0,0.0,0.0,0.024
588,0.0,0.0,0.0,0.0,0.0,0.0,0.090705078125,0.0,0.0,0.0,0.0,0.0,0.0,-0.192,0.0,0.0,0.0,0.0,0.0,0.0,0.0814067250745189,0.0,0.0,0.0,0.0,0.0,0.0,-0.032
589,0.0,0.0,0.0,0.0,0.0,0.0,0.08865234375,0.0,0.0,0.0,0.0,0.0,0.0,-0.198,0.0,0.0,0.0,0.0,0.0,0.0,0.07983019227273426,0.0,0.0,0.0,0.0,0.0,0.0,-0.036
590,0.0,0.0,0.0,0.0,0.0,0.0,0.086599609375,0.0,0.0,0.0,0.0,0.0,0.0,-0.199,0.0,0.0,0.0,0.0,0.0,0.0,0.0778335187338086,0.0,0.0,0.0,0.0,0.0,0.0,-0.032
591,0.0,0.0,0.0,0.0,0.0,0.0,0.084546875,0.0,0.0,0.0,0.0,0.0,0.0,-0.207,0.0,0.0,0.0,0.0,0.0,0.0,0.07590379055331568,0.0,0.0,0.0,0.0,0.0,0.0,-0.068
592,0.0,0.0,0.0,0.0,0.0,0.0,0.082494140625,0.0,0.0,0.0,0.0,0.0,0.0,-0.207,0.0,0.0,0.0,0.0,0.0,0.0,0.07394429855050834,0.0,0.0,0.0,0.0,0.0,0.0,-0.088
593,0.0,0.0,0.0,0.0,0.0,0.0,0.0806474609375,0.0,0.0,0.0,0.0,0.0,0.0,-0.198,0.0,0.0,0.0,0.0,0.0,0.0,0.07195304178521818,0.0,0.0,0.0,0.0,0.0,0.0,-0.116
594,0.0,0.0,0.0,0.0,0.0,0.0,0.0785947265625,0.0,0.0,0.0,0.0,0.0,0.0,-0.194,0.0,0.0,0.0,0.0,0.0,0.0,0.06999599687167667,0.0,0.0,0.0,0.0,0.0,0.0,-0.16
595,0.0,0.0,0.0,0.0,0.0,0.0,0.0765419921875,0.0,0.0,0.0,0.0,0.0,0.0,-0.207,0.0,0.0,0.0,0.0,0.0,0.0,0.06804610282981122,0.0,0.0,0.0,0.0,0.0,0.0,-0.104
596,0.0,0.0,0.0,0.0,0.0,0.0,0.0744892578125,0.0,0.0,0.0,0.0,0.0,0.0,-0.207,0.0,0.0,0.0,0.0,0.0,0.0,0.06604915947942451,0.0,0.0,0.0,0.0,0.0,0.0,-0.108
597,0.0,0.0,0.0,0.0,0.0,0.0,0.0720234375,0.0,0.0,0.0,0.0,0.0,0.0,-0.223,0.0,0.0,0.0,0.0,0.0,0.0,0.0640856822182129,0.0,0.0,0.0,0.0,0.0,0.0,-0.12
598,0.0,0.0,0.0,0.0,0.0,0.0,0.069763671875,0.0,0.0,0.0,0.0,0.0,0.0,-0.236,0.0,0.0,0.0,0.0,0.0,0.0,0.06210003377868979,0.0,0.0,0.0,0.0,0.0,0.0,-0.108
599,0.0,0.0,0.0,0.0,0.0,0.0,0.0677236328125,0.0,0.0,0.0,0.0,0.0,0.0,-0.222,0.0,0.0,0.0,0.0,0.0,0.0,0.06014487247923364,0.0,0.0,0.0,0.0,0.0,0.0,-0.104
600,0.0,0.0,0.0,0.0,0.0,0.0,0.0656708984375,0.0,0.0,0.0,0.0,0.0,0.0,-0.207,0.0,0.0,0.0,0.0,0.0,0.0,0.05815144195882004,0.0,0.0,0.0,0.0,0.0,0.0,-0.084
601,0.0,0.0,0.0,0.0,0.0,0.0,0.0640185546875,0.0,0.0,0.0,0.0,0.0,0.0,-0.187,0.0,0.0,0.0,0.0,0.0,0.0,0.05618481442341814,0.0,0.0,0.0,0.0,0.0,0.0,-0.088
602,0.0,0.0,0.0,0.0,0.0,0.0,0.0623662109375,0.0,0.0,0.0,0.0,0.0,0.0,-0.166,0.0,0.0,0.0,0.0,0.0,0.0,0.05419209188644186,0.0,0.0,0.0,0.0,0.0,0.0,-0.084
603,0.0,0.0,0.0,0.0,0.0,0.0,0.06051953125,0.0,0.0,0.0,0.0,0.0,0.0,-0.179,0.0,0.0,0.0,0.0,0.0,0.0,0.05220447509008008,0.0,0.0,0.0,0.0,0.0,0.0,-0.056
604,0.0,0.0,0.0,0.0,0.0,0.0,0.058673828125,0.0,0.0,0.0,0.0,0.0,0.0,-0.183,0.0,0.0,0.0,0.0,0.0,0.0,0.0502360297200244,0.0,0.0,0.0,0.0,0.0,0.0,-0.052
605,0.0,0.0,0.0,0.0,0.0,0.0,0.057240234375,0.0,0.0,0.0,0.0,0.0,0.0,-0.163,0.0,0.0,0.0,0.0,0.0,0.0,0.04823340195061679,0.0,0.0,0.0,0.0,0.0,0.0,-0.036
606,0.0,0.0,0.0,0.0,0.0,0.0,0.0556005859375,0.0,0.0,0.0,0.0,0.0,0.0,-0.15,0.0,0.0,0.0,0.0,0.0,0.0,0.04623309888845143,0.0,0.0,0.0,0.0,0.0,0.0,-0.068
607,0.0,0.0,0.0,0.0,0.0,0.0,0.0537412109375,0.0,0.0,0.0,0.0,0.0,0.0,-0.182,0.0,0.0,0.0,0.0,0.0,0.0,0.0442661713805505,0.0,0.0,0.0,0.0,0.0,0.0,-0.052
608,0.0,0.0,0.0,0.0,0.0,0.0,0.0518955078125,0.0,0.0,0.0,0.0,0.0,0.0,-0.183,0.0,0.0,0.0,0.0,0.0,0.0,0.04222859918726399,0.0,0.0,0.0,0.0,0.0,0.0,-0.056
609,0.0,0.0,0.0,0.0,0.0,0.0,0.050255859375,0.0,0.0,0.0,0.0,0.0,0.0,-0.178,0.0,0.0,0.0,0.0,0.0,0.0,0.040296187861084846,0.0,0.0,0.0,0.0,0.0,0.0,-0.012
610,0.0,0.0,0.0,0.0,0.0,0.0,0.048203125,0.0,0.0,0.0,0.0,0.0,0.0,-0.187,0.0,0.0,0.0,0.0,0.0,0.0,0.038313605588053495,0.0,0.0,0.0,0.0,0.0,0.0,-0.024
611,0.0,0.0,0.0,0.0,0.0,0.0,0.045943359375,0.0,0.0,0.0,0.0,0.0,0.0,-0.207,0.0,0.0,0.0,0.0,0.0,0.0,0.03631435480550781,0.0,0.0,0.0,0.0,0.0,0.0,-0.068
612,0.0,0.0,0.0,0.0,0.0,0.0,0.043890625,0.0,0.0,0.0,0.0,0.0,0.0,-0.221,0.0,0.0,0.0,0.0,0.0,0.0,0.03432179014398411,0.0,0.0,0.0,0.0,0.0,0.0,-0.032
613,0.0,0.0,0.0,0.0,0.0,0.0,0.0416435546875,0.0,0.0,0.0,0.0,0.0,0.0,-0.222,0.0,0.0,0.0,0.0,0.0,0.0,0.03232936519591036,0.0,0.0,0.0,0.0,0.0,0.0,-0.076
614,0.0,0.0,0.0,0.0,0.0,0.0,0.039384765625,0.0,0.0,0.0,0.0,0.0,0.0,-0.224,0.0,0.0,0.0,0.0,0.0,0.0,0.03033351746601133,0.0,0.0,0.0,0.0,0.0,0.0,-0.108
615,0.0,0.0,0.0,0.0,0.0,0.0,0.0369189453125,0.0,0.0,0.0,0.0,0.0,0.0,-0.241,0.0,0.0,0.0,0.0,0.0,0.0,0.02834047717397403,0.0,0.0,0.0,0.0,0.0,0.0,-0.104
616,0.0,0.0,0.0,0.0,0.0,0.0,0.034865234375,0.0,0.0,0.0,0.0,0.0,0.0,-0.235,0.0,0.0,0.0,0.0,0.0,0.0,0.02635053589943663,0.0,0.0,0.0,0.0,0.0,0.0,-0.104
617,0.0,0.0,0.0,0.0,0.0,0.0,0.0326064453125,0.0,0.0,0.0,0.0,0.0,0.0,-0.206,0.0,0.0,0.0,0.0,0.0,0.0,0.02435617938631243,0.0,0.0,0.0,0.0,0.0,0.0,-0.088
618,0.0,0.0,0.0,0.0,0.0,0.0,0.0305537109375,0.0,0.0,0.0,0.0,0.0,0.0,-0.221,0.0,0.0,0.0,0.0,0.0,0.0,0.022346027623490007,0.0,0.0,0.0,0.0,0.0,0.0,-0.088
619,0.0,0.0,0.0,0.0,0.0,0.0,0.0285009765625,0.0,0.0,0.0,0.0,0.0,0.0,-0.209,0.0,0.0,0.0,0.0,0.0,0.0,0.0203496438202162,0.0,0.0,0.0,0.0,0.0,0.0,-0.068
620,0.0,0.0,0.0,0.0,0.0,0.0,0.0262412109375,0.0,0.0,0.0,0.0,0.0,0.0,-0.218,0.0,0.0,0.0,0.0,0.0,0.0,0.01836018248857331,0.0,0.0,0.0,0.0,0.0,0.0,-0.068
621,0.0,0.0,0.0,0.0,0.0,0.0,0.0239814453125,0.0,0.0,0.0,0.0,0.0,0.0,-0.231,0.0,0.0,0.0,0.0,0.0,0.0,0.016359498413950856,0.0,0.0,0.0,0.0,0.0,0.0,-0.076
622,0.0,0.0,0.0,0.0,0.0,0.0,0.0221357421875,0.0,0.0,0.0,0.0,0.0,0.0,-0.218,0.0,0.0,0.0,0.0,0.0,0.0,0.014366362345386874,0.0,0.0,0.0,0.0,0.0,0.0,-0.056
623,0.0,0.0,0.0,0.0,0.0,0.0,0.02049609375,0.0,0.0,0.0,0.0,0.0,0.0,-0.183,0.0,0.0,0.0,0.0,0.0,0.0,0.012369866414869465,0.0,0.0,0.0,0.0,0.0,0.0,-0.024
624,0.0,0.0,0.0,0.0,0.0,0.0,0.0186494140625,0.0,0.0,0.0,0.0,0.0,0.0,-0.165,0.0,0.0,0.0,0.0,0.0,0.0,0.010357903646281159,0.0,0.0,0.0,0.0,0.0,0.0,-0.032
625,0.0,0.0,0.0,0.0,0.0,0.0,0.017009765625,0.0,0.0,0.0,0.0,0.0,0.0,-0.17,0.0,0.0,0.0,0.0,0.0,0.0,0.008367656006700735,0.0,0.0,0.0,0.0,0.0,0.0,0.004
626,0.0,0.0,0.0,0.0,0.0,0.0,0.0155771484375,0.0,0.0,0.0,0.0,0.0,0.0,-0.162,0.0,0.0,0.0,0.0,0.0,0.0,0.006354172779213864,0.0,0.0,0.0,0.0,0.0,0.0,0.032
627,0.0,0.0,0.0,0.0,0.0,0.0,0.0137177734375,0.0,0.0,0.0,0.0,0.0,0.0,-0.167,0.0,0.0,0.0,0.0,0.0,0.0,0.004365560962133852,0.0,0.0,0.0,0.0,0.0,0.0,0.032
628,0.0,0.0,0.0,0.0,0.0,0.0,0.0116650390625,0.0,0.0,0.0,0.0,0.0,0.0,-0.185,0.0,0.0,0.0,0.0,0.0,0.0,0.0023478500324053595,0.0,0.0,0.0,0.0,0.0,0.0,-0.012
629,0.0,0.0,0.0,0.0,0.0,0.0,0.009818359375,0.0,0.0,0.0,0.0,0.0,0.0,-0.195,0.0,0.0,0.0,0.0,0.0,0.0,0.00035907104650601066,0.0,0.0,0.0,0.0,0.0,0.0,0.012
630,0.0,0.0,0.0,0.0,0.0,0.0,0.007765625,0.0,0.0,0.0,0.0,0.0,0.0,-0.198,0.0,0.0,0.0,0.0,0.0,0.0,-0.001636154063820227,0.0,0.0,0.0,0.0,0.0,0.0,-0.016
631,0.0,0.0,0.0,0.0,0.0,0.0,0.005712890625,0.0,0.0,0.0,0.0,0.0,0.0,-0.208,0.0,0.0,0.0,0.0,0.0,0.0,-0.0036557038331860477,0.0,0.0,0.0,0.0,0.0,0.0,-0.024
632,0.0,0.0,0.0,0.0,0.0,0.0,0.0038662109375,0.0,0.0,0.0,0.0,0.0,0.0,-0.193,0.0,0.0,0.0,0.0,0.0,0.0,-0.0056283873548559115,0.0,0.0,0.0,0.0,0.0,0.0,-0.044
633,0.0,0.0,0.0,0.0,0.0,0.0,0.0018134765625,0.0,0.0,0.0,0.0,0.0,0.0,-0.2,0.0,0.0,0.0,0.0,0.0,0.0,-0.007658096340124519,0.0,0.0,0.0,0.0,0.0,0.0,-0.052
634,0.0,0.0,0.0,0.0,0.0,0.0,-3.22265625e-05,0.0,0.0,0.0,0.0,0.0,0.0,-0.201,0.0,0.0,0.0,0.0,0.0,0.0,-0.009653428857392595,0.0,0.0,0.0,0.0,0.0,0.0,-0.076
635,0.0,0.0,0.0,0.0,0.0,0.0,-0.0020859375,0.0,0.0,0.0,0.0,0.0,0.0,-0.196,0.0,0.0,0.0,0.0,0.0,0.0,-0.011631314519968676,0.0,0.0,0.0,0.0,0.0,0.0,-0.068
636,0.0,0.0,0.0,0.0,0.0,0.0,-0.00433203125,0.0,0.0,0.0,0.0,0.0,0.0,-0.209,0.0,0.0,0.0,0.0,0.0,0.0,-0.013648899001716328,0.0,0.0,0.0,0.0,0.0,0.0,-0.116
637,0.0,0.0,0.0,0.0,0.0,0.0,-0.006591796875,0.0,0.0,0.0,0.0,0.0,0.0,-0.229,0.0,0.0,0.0,0.0,0.0,0.0,-0.015623968089962048,0.0,0.0,0.0,0.0,0.0,0.0,-0.14
638,0.0,0.0,0.0,0.0,0.0,0.0,-0.0088505859375,0.0,0.0,0.0,0.0,0.0,0.0,-0.224,0.0,0.0,0.0,0.0,0.0,0.0,-0.017636051139491262,0.0,0.0,0.0,0.0,0.0,0.0,-0.2
639,0.0,0.0,0.0,0.0,0.0,0.0,-0.0111103515625,0.0,0.0,0.0,0.0,0.0,0.0,-0.227,0.0,0.0,0.0,0.0,0.0,0.0,-0.019640447992326067,0.0,0.0,0.0,0.0,0.0,0.0,-0.148
640,0.0,0.0,0.0,0.0,0.0,0.0,-0.013369140625,0.0,0.0,0.0,0.0,0.0,0.0,-0.231,0.0,0.0,0.0,0.0,0.0,0.0,-0.021637208517735446,0.0,0.0,0.0,0.0,0.0,0.0,-0.14
641,0.0,0.0,0.0,0.0,0.0,0.0,-0.01562890625,0.0,0.0,0.0,0.0,0.0,0.0,-0.232,0.0,0.0,0.0,0.0,0.0,0.0,-0.023636189248030206,0.0,0.0,0.0,0.0,0.0,0.0,-0.136
642,0.0,0.0,0.0,0.0,0.0,0.0,-0.017888671875,0.0,0.0,0.0,0.0,0.0,0.0,-0.23,0.0,0.0,0.0,0.0,0.0,0.0,-0.02565213687571516,0.0,0.0,0.0,0.0,0.0,0.0,-0.168
643,0.0,0.0,0.0,0.0,0.0,0.0,-0.01994140625,0.0,0.0,0.0,0.0,0.0,0.0,-0.218,0.0,0.0,0.0,0.0,0.0,0.0,-0.027686220376050737,0.0,0.0,0.0,0.0,0.0,0.0,-0.128
644,0.0,0.0,0.0,0.0,0.0,0.0,-0.0215810546875,0.0,0.0,0.0,0.0,0.0,0.0,-0.198,0.0,0.0,0.0,0.0,0.0,0.0,-0.029614826831593652,0.0,0.0,0.0,0.0,0.0,0.0,-0.096
645,0.0,0.0,0.0,0.0,0.0,0.0,-0.023220703125,0.0,0.0,0.0,0.0,0.0,0.0,-0.166,0.0,0.0,0.0,0.0,0.0,0.0,-0.03161295032047896,0.0,0.0,0.0,0.0,0.0,0.0,-0.116
646,0.0,0.0,0.0,0.0,0.0,0.0,-0.0252734375,0.0,0.0,0.0,0.0,0.0,0.0,-0.179,0.0,0.0,0.0,0.0,0.0,0.0,-0.03360510117274817,0.0,0.0,0.0,0.0,0.0,0.0,-0.076
647,0.0,0.0,0.0,0.0,0.0,0.0,-0.0271201171875,0.0,0.0,0.0,0.0,0.0,0.0,-0.198,0.0,0.0,0.0,0.0,0.0,0.0,-0.03558843381433784,0.0,0.0,0.0,0.0,0.0,0.0,-0.088
648,0.0,0.0,0.0,0.0,0.0,0.0,-0.0291728515625,0.0,0.0,0.0,0.0,0.0,0.0,-0.194,0.0,0.0,0.0,0.0,0.0,0.0,-0.037602739119641966,0.0,0.0,0.0,0.0,0.0,0.0,-0.052
649,0.0,0.0,0.0,0.0,0.0,0.0,-0.0312255859375,0.0,0.0,0.0,0.0,0.0,0.0,-0.203,0.0,0.0,0.0,0.0,0.0,0.0,-0.03960891796439403,0.0,0.0,0.0,0.0,0.0,0.0,-0.064
650,0.0,0.0,0.0,0.0,0.0,0.0,-0.0330712890625,0.0,0.0,0.0,0.0,0.0,0.0,-0.194,0.0,0.0,0.0,0.0,0.0,0.0,-0.04156040565021265,0.0,0.0,0.0,0.0,0.0,0.0,-0.096
651,0.0,0.0,0.0,0.0,0.0,0.0,-0.035125,0.0,0.0,0.0,0.0,0.0,0.0,-0.198,0.0,0.0,0.0,0.0,0.0,0.0,-0.04354725003694419,0.0,0.0,0.0,0.0,0.0,0.0,-0.064
652,0.0,0.0,0.0,0.0,0.0,0.0,-0.037177734375,0.0,0.0,0.0,0.0,0.0,0.0,-0.207,0.0,0.0,0.0,0.0,0.0,0.0,-0.04553442893132793,0.0,0.0,0.0,0.0,0.0,0.0,-0.064
653,0.0,0.0,0.0,0.0,0.0,0.0,-0.0390234375,0.0,0.0,0.0,0.0,0.0,0.0,-0.195,0.0,0.0,0.0,0.0,0.0,0.0,-0.04752960767355507,0.0,0.0,0.0,0.0,0.0,0.0,-0.036
654,0.0,0.0,0.0,0.0,0.0,0.0,-0.0408701171875,0.0,0.0,0.0,0.0,0.0,0.0,-0.189,0.0,0.0,0.0,0.0,0.0,0.0,-0.04951440819488279,0.0,0.0,0.0,0.0,0.0,0.0,-0.012
655,0.0,0.0,0.0,0.0,0.0,0.0,-0.0429228515625,0.0,0.0,0.0,0.0,0.0,0.0,-0.193,0.0,0.0,0.0,0.0,0.0,0.0,-0.05149565433413783,0.0,0.0,0.0,0.0,0.0,0.0,-0.016
656,0.0,0.0,0.0,0.0,0.0,0.0,-0.0449755859375,0.0,0.0,0.0,0.0,0.0,0.0,-0.207,0.0,0.0,0.0,0.0,0.0,0.0,-0.05347774314977094,0.0,0.0,0.0,0.0,0.0,0.0,-0.044
657,0.0,0.0,0.0,0.0,0.0,0.0,-0.0470283203125,0.0,0.0,0.0,0.0,0.0,0.0,-0.207,0.0,0.0,0.0,0.0,0.0,0.0,-0.05545434021244094,0.0,0.0,0.0,0.0,0.0,0.0,-0.068
658,0.0,0.0,0.0,0.0,0.0,0.0,-0.0492880859375,0.0,0.0,0.0,0.0,0.0,0.0,-0.22,0.0,0.0,0.0,0.0,0.0,0.0,-0.05745315233552935,0.0,0.0,0.0,0.0,0.0,0.0,-0.096
659,0.0,0.0,0.0,0.0,0.0,0.0,-0.050927734375,0.0,0.0,0.0,0.0,0.0,0.0,-0.199,0.0,0.0,0.0,0.0,0.0,0.0,-0.05982699928662685,0.0,0.0,0.0,0.0,0.0,0.0,-0.076
660,0.0,0.0,0.0,0.0,0.0,0.0,-0.0527734375,0.0,0.0,0.0,0.0,0.0,0.0,-0.184,0.0,0.0,0.0,0.0,0.0,0.0,-0.06138343139095331,0.0,0.0,0.0,0.0,0.0,0.0,-0.056
661,0.0,0.0,0.0,0.0,0.0,0.0,-0.054826171875,0.0,0.0,0.0,0.0,0.0,0.0,-0.192,0.0,0.0,0.0,0.0,0.0,0.0,-0.06338740134497114,0.0,0.0,0.0,0.0,0.0,0.0,-0.044
662,0.0,0.0,0.0,0.0,0.0,0.0,-0.0568798828125,0.0,0.0,0.0,0.0,0.0,0.0,-0.207,0.0,0.0,0.0,0.0,0.0,0.0,-0.06534142776597268,0.0,0.0,0.0,0.0,0.0,0.0,-0.056
663,0.0,0.0,0.0,0.0,0.0,0.0,-0.059138671875,0.0,0.0,0.0,0.0,0.0,0.0,-0.221,0.0,0.0,0.0,0.0,0.0,0.0,-0.06733502864632522,0.0,0.0,0.0,0.0,0.0,0.0,-0.044
664,0.0,0.0,0.0,0.0,0.0,0.0,-0.06119140625,0.0,0.0,0.0,0.0,0.0,0.0,-0.214,0.0,0.0,0.0,0.0,0.0,0.0,-0.06931624918353087,0.0,0.0,0.0,0.0,0.0,0.0,-0.032
665,0.0,0.0,0.0,0.0,0.0,0.0,-0.063451171875,0.0,0.0,0.0,0.0,0.0,0.0,-0.215,0.0,0.0,0.0,0.0,0.0,0.0,-0.07124654520769118,0.0,0.0,0.0,0.0,0.0,0.0,-0.044
666,0.0,0.0,0.0,0.0,0.0,0.0,-0.0652978515625,0.0,0.0,0.0,0.0,0.0,0.0,-0.199,0.0,0.0,0.0,0.0,0.0,0.0,-0.07323353966753339,0.0,0.0,0.0,0.0,0.0,0.0,0.0
667,0.0,0.0,0.0,0.0,0.0,0.0,-0.0671435546875,0.0,0.0,0.0,0.0,0.0,0.0,-0.195,0.0,0.0,0.0,0.0,0.0,0.0,-0.07518583586795342,0.0,0.0,0.0,0.0,0.0,0.0,0.024
668,0.0,0.0,0.0,0.0,0.0,0.0,-0.068990234375,0.0,0.0,0.0,0.0,0.0,0.0,-0.192,0.0,0.0,0.0,0.0,0.0,0.0,-0.07716318049406067,0.0,0.0,0.0,0.0,0.0,0.0,0.036
669,0.0,0.0,0.0,0.0,0.0,0.0,-0.0706298828125,0.0,0.0,0.0,0.0,0.0,0.0,-0.177,0.0,0.0,0.0,0.0,0.0,0.0,-0.07923775073349427,0.0,0.0,0.0,0.0,0.0,0.0,0.044
670,0.0,0.0,0.0,0.0,0.0,0.0,-0.0726826171875,0.0,0.0,0.0,0.0,0.0,0.0,-0.179,0.0,0.0,0.0,0.0,0.0,0.0,-0.08108057192166034,0.0,0.0,0.0,0.0,0.0,0.0,0.076
671,0.0,0.0,0.0,0.0,0.0,0.0,-0.074322265625,0.0,0.0,0.0,0.0,0.0,0.0,-0.187,0.0,0.0,0.0,0.0,0.0,0.0,-0.08302828075390395,0.0,0.0,0.0,0.0,0.0,0.0,0.016
672,0.0,0.0,0.0,0.0,0.0,0.0,-0.0759619140625,0.0,0.0,0.0,0.0,0.0,0.0,-0.177,0.0,0.0,0.0,0.0,0.0,0.0,-0.08499070876843479,0.0,0.0,0.0,0.0,0.0,0.0,0.044
673,0.0,0.0,0.0,0.0,0.0,0.0,-0.07780859375,0.0,0.0,0.0,0.0,0.0,0.0,-0.173,0.0,0.0,0.0,0.0,0.0,0.0,-0.0869607242586564,0.0,0.0,0.0,0.0,0.0,0.0,0.0
674,0.0,0.0,0.0,0.0,0.0,0.0,-0.0796669921875,0.0,0.0,0.0,0.0,0.0,0.0,-0.182,0.0,0.0,0.0,0.0,0.0,0.0,-0.08888663993547713,0.0,0.0,0.0,0.0,0.0,0.0,0.016
675,0.0,0.0,0.0,0.0,0.0,0.0,-0.081513671875,0.0,0.0,0.0,0.0,0.0,0.0,-0.191,0.0,0.0,0.0,0.0,0.0,0.0,-0.09083672090712645,0.0,0.0,0.0,0.0,0.0,0.0,0.012
676,0.0,0.0,0.0,0.0,0.0,0.0,-0.08356640625,0.0,0.0,0.0,0.0,0.0,0.0,-0.187,0.0,0.0,0.0,0.0,0.0,0.0,-0.0928058642597781,0.0,0.0,0.0,0.0,0.0,0.0,-0.016
677,0.0,0.0,0.0,0.0,0.0,0.0,-0.0854130859375,0.0,0.0,0.0,0.0,0.0,0.0,-0.193,0.0,0.0,0.0,0.0,0.0,0.0,-0.0947460420584179,0.0,0.0,0.0,0.0,0.0,0.0,-0.036
