EmanuelSamir/lab201_ws_projsamir/sawyer_dev/data/sawyer/vel_acel_ns/test_joint2/training_data_5.csv
,j1,j2,j3,j4,j5,j6,j7,v1,v2,v3,v4,v5,v6,v7,jd1,jd2,jd3,jd4,jd5,jd6,jd7,e1,e2,e3,e4,e5,e6,e7
0,0.0,0.0,0.0,0.0,0.0,0.0,0.0,0.0,0.0,0.0,0.0,0.0,0.0,0.0,0.0,0.0,0.0,0.0,0.0,0.0,0.0,0.0,0.0,0.0,0.0,0.0,0.0,0.0
1,0.0,0.0022978515625,0.0,0.0,0.0,0.0,0.0,0.0,-0.001,0.0,0.0,0.0,0.0,0.0,0.0,0.00020098685842381684,0.0,0.0,0.0,0.0,0.0,0.0,-44.592,0.0,0.0,0.0,0.0,0.0
2,0.0,0.0022978515625,0.0,0.0,0.0,0.0,0.0,0.0,-0.001,0.0,0.0,0.0,0.0,0.0,0.0,0.03374725869725999,0.0,0.0,0.0,0.0,0.0,0.0,-44.592,0.0,0.0,0.0,0.0,0.0
3,0.0,0.0022978515625,0.0,0.0,0.0,0.0,0.0,0.0,-0.001,0.0,0.0,0.0,0.0,0.0,0.0,0.06370767253323105,0.0,0.0,0.0,0.0,0.0,0.0,-44.648,0.0,0.0,0.0,0.0,0.0
4,0.0,0.0022978515625,0.0,0.0,0.0,0.0,0.0,0.0,-0.001,0.0,0.0,0.0,0.0,0.0,0.0,0.09388756193102187,0.0,0.0,0.0,0.0,0.0,0.0,-44.648,0.0,0.0,0.0,0.0,0.0
5,0.0,0.0027099609375,0.0,0.0,0.0,0.0,0.0,0.0,0.01,0.0,0.0,0.0,0.0,0.0,0.0,0.12299208180156215,0.0,0.0,0.0,0.0,0.0,0.0,-40.816,0.0,0.0,0.0,0.0,0.0
6,0.0,0.003951171875,0.0,0.0,0.0,0.0,0.0,0.0,0.077,0.0,0.0,0.0,0.0,0.0,0.0,0.1522409443526661,0.0,0.0,0.0,0.0,0.0,0.0,-33.632,0.0,0.0,0.0,0.0,0.0
7,0.0,0.0057001953125,0.0,0.0,0.0,0.0,0.0,0.0,0.15,0.0,0.0,0.0,0.0,0.0,0.0,0.18085355851182494,0.0,0.0,0.0,0.0,0.0,0.0,-29.584,0.0,0.0,0.0,0.0,0.0
8,0.0,0.007861328125,0.0,0.0,0.0,0.0,0.0,0.0,0.189,0.0,0.0,0.0,0.0,0.0,0.0,0.20954138350694457,0.0,0.0,0.0,0.0,0.0,0.0,-27.048,0.0,0.0,0.0,0.0,0.0
9,0.0,0.010537109375,0.0,0.0,0.0,0.0,0.0,0.0,0.243,0.0,0.0,0.0,0.0,0.0,0.0,0.23698199398238978,0.0,0.0,0.0,0.0,0.0,0.0,-26.4,0.0,0.0,0.0,0.0,0.0
10,0.0,0.0131162109375,0.0,0.0,0.0,0.0,0.0,0.0,0.263,0.0,0.0,0.0,0.0,0.0,0.0,0.2645067412923239,0.0,0.0,0.0,0.0,0.0,0.0,-25.644,0.0,0.0,0.0,0.0,0.0
11,0.0,0.0167177734375,0.0,0.0,0.0,0.0,0.0,0.0,0.293,0.0,0.0,0.0,0.0,0.0,0.0,0.29122126899802353,0.0,0.0,0.0,0.0,0.0,0.0,-24.672,0.0,0.0,0.0,0.0,0.0
12,0.0,0.021046875,0.0,0.0,0.0,0.0,0.0,0.0,0.395,0.0,0.0,0.0,0.0,0.0,0.0,0.3167774516707193,0.0,0.0,0.0,0.0,0.0,0.0,-25.696,0.0,0.0,0.0,0.0,0.0
13,0.0,0.02557421875,0.0,0.0,0.0,0.0,0.0,0.0,0.443,0.0,0.0,0.0,0.0,0.0,0.0,0.3418589490406758,0.0,0.0,0.0,0.0,0.0,0.0,-28.236,0.0,0.0,0.0,0.0,0.0
14,0.0,0.0305205078125,0.0,0.0,0.0,0.0,0.0,0.0,0.477,0.0,0.0,0.0,0.0,0.0,0.0,0.36613005305155716,0.0,0.0,0.0,0.0,0.0,0.0,-32.392,0.0,0.0,0.0,0.0,0.0
15,0.0,0.0351513671875,0.0,0.0,0.0,0.0,0.0,0.0,0.485,0.0,0.0,0.0,0.0,0.0,0.0,0.38944809757002924,0.0,0.0,0.0,0.0,0.0,0.0,-35.308,0.0,0.0,0.0,0.0,0.0
16,0.0,0.0397890625,0.0,0.0,0.0,0.0,0.0,0.0,0.454,0.0,0.0,0.0,0.0,0.0,0.0,0.41175629293163707,0.0,0.0,0.0,0.0,0.0,0.0,-37.088,0.0,0.0,0.0,0.0,0.0
17,0.0,0.0448310546875,0.0,0.0,0.0,0.0,0.0,0.0,0.486,0.0,0.0,0.0,0.0,0.0,0.0,0.43328340759442147,0.0,0.0,0.0,0.0,0.0,0.0,-39.304,0.0,0.0,0.0,0.0,0.0
18,0.0,0.0501884765625,0.0,0.0,0.0,0.0,0.0,0.0,0.523,0.0,0.0,0.0,0.0,0.0,0.0,0.45321863016264496,0.0,0.0,0.0,0.0,0.0,0.0,-40.384,0.0,0.0,0.0,0.0,0.0
19,0.0,0.0559521484375,0.0,0.0,0.0,0.0,0.0,0.0,0.557,0.0,0.0,0.0,0.0,0.0,0.0,0.4722899331013488,0.0,0.0,0.0,0.0,0.0,0.0,-42.272,0.0,0.0,0.0,0.0,0.0
20,0.0,0.0613095703125,0.0,0.0,0.0,0.0,0.0,0.0,0.566,0.0,0.0,0.0,0.0,0.0,0.0,0.49048707448371254,0.0,0.0,0.0,0.0,0.0,0.0,-44.484,0.0,0.0,0.0,0.0,0.0
21,0.0,0.0663583984375,0.0,0.0,0.0,0.0,0.0,0.0,0.522,0.0,0.0,0.0,0.0,0.0,0.0,0.5069437420469467,0.0,0.0,0.0,0.0,0.0,0.0,-45.672,0.0,0.0,0.0,0.0,0.0
22,0.0,0.0712978515625,0.0,0.0,0.0,0.0,0.0,0.0,0.505,0.0,0.0,0.0,0.0,0.0,0.0,0.5222252453665367,0.0,0.0,0.0,0.0,0.0,0.0,-46.104,0.0,0.0,0.0,0.0,0.0
23,0.0,0.0764501953125,0.0,0.0,0.0,0.0,0.0,0.0,0.501,0.0,0.0,0.0,0.0,0.0,0.0,0.5364983139053835,0.0,0.0,0.0,0.0,0.0,0.0,-45.404,0.0,0.0,0.0,0.0,0.0
24,0.0,0.08180078125,0.0,0.0,0.0,0.0,0.0,0.0,0.525,0.0,0.0,0.0,0.0,0.0,0.0,0.5496543973959898,0.0,0.0,0.0,0.0,0.0,0.0,-45.672,0.0,0.0,0.0,0.0,0.0
25,0.0,0.0871591796875,0.0,0.0,0.0,0.0,0.0,0.0,0.544,0.0,0.0,0.0,0.0,0.0,0.0,0.5605714028166234,0.0,0.0,0.0,0.0,0.0,0.0,-47.348,0.0,0.0,0.0,0.0,0.0
26,0.0,0.091892578125,0.0,0.0,0.0,0.0,0.0,0.0,0.511,0.0,0.0,0.0,0.0,0.0,0.0,0.5705908892170469,0.0,0.0,0.0,0.0,0.0,0.0,-48.804,0.0,0.0,0.0,0.0,0.0
27,0.0,0.0967353515625,0.0,0.0,0.0,0.0,0.0,0.0,0.48,0.0,0.0,0.0,0.0,0.0,0.0,0.579170675333637,0.0,0.0,0.0,0.0,0.0,0.0,-48.86,0.0,0.0,0.0,0.0,0.0
28,0.0,0.101373046875,0.0,0.0,0.0,0.0,0.0,0.0,0.477,0.0,0.0,0.0,0.0,0.0,0.0,0.5861946261076932,0.0,0.0,0.0,0.0,0.0,0.0,-47.888,0.0,0.0,0.0,0.0,0.0
29,0.0,0.106203125,0.0,0.0,0.0,0.0,0.0,0.0,0.477,0.0,0.0,0.0,0.0,0.0,0.0,0.5918985912232054,0.0,0.0,0.0,0.0,0.0,0.0,-47.94,0.0,0.0,0.0,0.0,0.0
30,0.0,0.1111494140625,0.0,0.0,0.0,0.0,0.0,0.0,0.495,0.0,0.0,0.0,0.0,0.0,0.0,0.5961152322624176,0.0,0.0,0.0,0.0,0.0,0.0,-49.344,0.0,0.0,0.0,0.0,0.0
31,0.0,0.115677734375,0.0,0.0,0.0,0.0,0.0,0.0,0.479,0.0,0.0,0.0,0.0,0.0,0.0,0.5987361725150466,0.0,0.0,0.0,0.0,0.0,0.0,-49.508,0.0,0.0,0.0,0.0,0.0
32,0.0,0.120005859375,0.0,0.0,0.0,0.0,0.0,0.0,0.439,0.0,0.0,0.0,0.0,0.0,0.0,0.5999362191070637,0.0,0.0,0.0,0.0,0.0,0.0,-48.644,0.0,0.0,0.0,0.0,0.0
33,0.0,0.1241220703125,0.0,0.0,0.0,0.0,0.0,0.0,0.428,0.0,0.0,0.0,0.0,0.0,0.0,0.5996184793460074,0.0,0.0,0.0,0.0,0.0,0.0,-47.724,0.0,0.0,0.0,0.0,0.0
34,0.0,0.128341796875,0.0,0.0,0.0,0.0,0.0,0.0,0.418,0.0,0.0,0.0,0.0,0.0,0.0,0.5978239338998617,0.0,0.0,0.0,0.0,0.0,0.0,-47.564,0.0,0.0,0.0,0.0,0.0
35,0.0,0.132669921875,0.0,0.0,0.0,0.0,0.0,0.0,0.433,0.0,0.0,0.0,0.0,0.0,0.0,0.594510208066444,0.0,0.0,0.0,0.0,0.0,0.0,-48.428,0.0,0.0,0.0,0.0,0.0
36,0.0,0.13668359375,0.0,0.0,0.0,0.0,0.0,0.0,0.422,0.0,0.0,0.0,0.0,0.0,0.0,0.589673505158868,0.0,0.0,0.0,0.0,0.0,0.0,-48.968,0.0,0.0,0.0,0.0,0.0
37,0.0,0.14039453125,0.0,0.0,0.0,0.0,0.0,0.0,0.387,0.0,0.0,0.0,0.0,0.0,0.0,0.5834899054264802,0.0,0.0,0.0,0.0,0.0,0.0,-48.048,0.0,0.0,0.0,0.0,0.0
38,0.0,0.143900390625,0.0,0.0,0.0,0.0,0.0,0.0,0.368,0.0,0.0,0.0,0.0,0.0,0.0,0.5757077821992228,0.0,0.0,0.0,0.0,0.0,0.0,-46.968,0.0,0.0,0.0,0.0,0.0
39,0.0,0.1475087890625,0.0,0.0,0.0,0.0,0.0,0.0,0.359,0.0,0.0,0.0,0.0,0.0,0.0,0.5665546102216825,0.0,0.0,0.0,0.0,0.0,0.0,-45.888,0.0,0.0,0.0,0.0,0.0
40,0.0,0.15131640625,0.0,0.0,0.0,0.0,0.0,0.0,0.368,0.0,0.0,0.0,0.0,0.0,0.0,0.556000554042063,0.0,0.0,0.0,0.0,0.0,0.0,-45.728,0.0,0.0,0.0,0.0,0.0
41,0.0,0.15491796875,0.0,0.0,0.0,0.0,0.0,0.0,0.374,0.0,0.0,0.0,0.0,0.0,0.0,0.544058081027549,0.0,0.0,0.0,0.0,0.0,0.0,-45.888,0.0,0.0,0.0,0.0,0.0
42,0.0,0.1584228515625,0.0,0.0,0.0,0.0,0.0,0.0,0.356,0.0,0.0,0.0,0.0,0.0,0.0,0.5306374621639395,0.0,0.0,0.0,0.0,0.0,0.0,-44.916,0.0,0.0,0.0,0.0,0.0
43,0.0,0.1617158203125,0.0,0.0,0.0,0.0,0.0,0.0,0.34,0.0,0.0,0.0,0.0,0.0,0.0,0.5160057598244542,0.0,0.0,0.0,0.0,0.0,0.0,-43.676,0.0,0.0,0.0,0.0,0.0
44,0.0,0.1650087890625,0.0,0.0,0.0,0.0,0.0,0.0,0.333,0.0,0.0,0.0,0.0,0.0,0.0,0.500146676510587,0.0,0.0,0.0,0.0,0.0,0.0,-42.76,0.0,0.0,0.0,0.0,0.0
45,0.0,0.1685146484375,0.0,0.0,0.0,0.0,0.0,0.0,0.341,0.0,0.0,0.0,0.0,0.0,0.0,0.48273909235302853,0.0,0.0,0.0,0.0,0.0,0.0,-42.112,0.0,0.0,0.0,0.0,0.0
46,0.0,0.1721162109375,0.0,0.0,0.0,0.0,0.0,0.0,0.361,0.0,0.0,0.0,0.0,0.0,0.0,0.46455145494457667,0.0,0.0,0.0,0.0,0.0,0.0,-42.704,0.0,0.0,0.0,0.0,0.0
47,0.0,0.175724609375,0.0,0.0,0.0,0.0,0.0,0.0,0.361,0.0,0.0,0.0,0.0,0.0,0.0,0.4449181348240968,0.0,0.0,0.0,0.0,0.0,0.0,-42.544,0.0,0.0,0.0,0.0,0.0
48,0.0,0.1792236328125,0.0,0.0,0.0,0.0,0.0,0.0,0.357,0.0,0.0,0.0,0.0,0.0,0.0,0.42403499526873595,0.0,0.0,0.0,0.0,0.0,0.0,-41.948,0.0,0.0,0.0,0.0,0.0
49,0.0,0.1828251953125,0.0,0.0,0.0,0.0,0.0,0.0,0.353,0.0,0.0,0.0,0.0,0.0,0.0,0.4025205910305432,0.0,0.0,0.0,0.0,0.0,0.0,-41.408,0.0,0.0,0.0,0.0,0.0
50,0.0,0.18643359375,0.0,0.0,0.0,0.0,0.0,0.0,0.361,0.0,0.0,0.0,0.0,0.0,0.0,0.3797280230126275,0.0,0.0,0.0,0.0,0.0,0.0,-41.464,0.0,0.0,0.0,0.0,0.0
51,0.0,0.1902412109375,0.0,0.0,0.0,0.0,0.0,0.0,0.372,0.0,0.0,0.0,0.0,0.0,0.0,0.35584046808778197,0.0,0.0,0.0,0.0,0.0,0.0,-42.004,0.0,0.0,0.0,0.0,0.0
52,0.0,0.194048828125,0.0,0.0,0.0,0.0,0.0,0.0,0.382,0.0,0.0,0.0,0.0,0.0,0.0,0.33164357407170997,0.0,0.0,0.0,0.0,0.0,0.0,-42.328,0.0,0.0,0.0,0.0,0.0
53,0.0,0.19786328125,0.0,0.0,0.0,0.0,0.0,0.0,0.386,0.0,0.0,0.0,0.0,0.0,0.0,0.30567902022456184,0.0,0.0,0.0,0.0,0.0,0.0,-42.38,0.0,0.0,0.0,0.0,0.0
54,0.0,0.2016708984375,0.0,0.0,0.0,0.0,0.0,0.0,0.38,0.0,0.0,0.0,0.0,0.0,0.0,0.2798727175476191,0.0,0.0,0.0,0.0,0.0,0.0,-41.896,0.0,0.0,0.0,0.0,0.0
55,0.0,0.205484375,0.0,0.0,0.0,0.0,0.0,0.0,0.381,0.0,0.0,0.0,0.0,0.0,0.0,0.2529782185951895,0.0,0.0,0.0,0.0,0.0,0.0,-41.032,0.0,0.0,0.0,0.0,0.0
56,0.0,0.209498046875,0.0,0.0,0.0,0.0,0.0,0.0,0.393,0.0,0.0,0.0,0.0,0.0,0.0,0.2253901824072408,0.0,0.0,0.0,0.0,0.0,0.0,-41.192,0.0,0.0,0.0,0.0,0.0
57,0.0,0.213517578125,0.0,0.0,0.0,0.0,0.0,0.0,0.402,0.0,0.0,0.0,0.0,0.0,0.0,0.19730308395658172,0.0,0.0,0.0,0.0,0.0,0.0,-41.84,0.0,0.0,0.0,0.0,0.0
58,0.0,0.21753125,0.0,0.0,0.0,0.0,0.0,0.0,0.404,0.0,0.0,0.0,0.0,0.0,0.0,0.168840393825952,0.0,0.0,0.0,0.0,0.0,0.0,-42.056,0.0,0.0,0.0,0.0,0.0
59,0.0,0.2216474609375,0.0,0.0,0.0,0.0,0.0,0.0,0.411,0.0,0.0,0.0,0.0,0.0,0.0,0.13990029920709757,0.0,0.0,0.0,0.0,0.0,0.0,-42.272,0.0,0.0,0.0,0.0,0.0
60,0.0,0.2251533203125,0.0,0.0,0.0,0.0,0.0,0.0,0.399,0.0,0.0,0.0,0.0,0.0,0.0,0.11020176983709926,0.0,0.0,0.0,0.0,0.0,0.0,-47.78,0.0,0.0,0.0,0.0,0.0
61,0.0,0.2272109375,0.0,0.0,0.0,0.0,0.0,0.0,0.293,0.0,0.0,0.0,0.0,0.0,0.0,0.08112464663840262,0.0,0.0,0.0,0.0,0.0,0.0,-60.52,0.0,0.0,0.0,0.0,0.0
62,0.0,0.2281376953125,0.0,0.0,0.0,0.0,0.0,0.0,0.152,0.0,0.0,0.0,0.0,0.0,0.0,0.05103037196024079,0.0,0.0,0.0,0.0,0.0,0.0,-70.508,0.0,0.0,0.0,0.0,0.0
63,0.0,0.2281376953125,0.0,0.0,0.0,0.0,0.0,0.0,0.061,0.0,0.0,0.0,0.0,0.0,0.0,0.02062600413256293,0.0,0.0,0.0,0.0,0.0,0.0,-75.692,0.0,0.0,0.0,0.0,0.0
64,0.0,0.2274169921875,0.0,0.0,0.0,0.0,0.0,0.0,-0.035,0.0,0.0,0.0,0.0,0.0,0.0,-0.008680093278488215,0.0,0.0,0.0,0.0,0.0,0.0,-76.772,0.0,0.0,0.0,0.0,0.0
65,0.0,0.226490234375,0.0,0.0,0.0,0.0,0.0,0.0,-0.08,0.0,0.0,0.0,0.0,0.0,0.0,-0.03926740197088814,0.0,0.0,0.0,0.0,0.0,0.0,-78.66,0.0,0.0,0.0,0.0,0.0
66,0.0,0.2241240234375,0.0,0.0,0.0,0.0,0.0,0.0,-0.145,0.0,0.0,0.0,0.0,0.0,0.0,-0.06860506340422201,0.0,0.0,0.0,0.0,0.0,0.0,-79.524,0.0,0.0,0.0,0.0,0.0
67,0.0,0.2204130859375,0.0,0.0,0.0,0.0,0.0,0.0,-0.297,0.0,0.0,0.0,0.0,0.0,0.0,-0.09838985511151425,0.0,0.0,0.0,0.0,0.0,0.0,-76.664,0.0,0.0,0.0,0.0,0.0
68,0.0,0.2157822265625,0.0,0.0,0.0,0.0,0.0,0.0,-0.413,0.0,0.0,0.0,0.0,0.0,0.0,-0.1281356343106321,0.0,0.0,0.0,0.0,0.0,0.0,-72.344,0.0,0.0,0.0,0.0,0.0
69,0.0,0.2106298828125,0.0,0.0,0.0,0.0,0.0,0.0,-0.491,0.0,0.0,0.0,0.0,0.0,0.0,-0.15698745240444517,0.0,0.0,0.0,0.0,0.0,0.0,-65.38,0.0,0.0,0.0,0.0,0.0
70,0.0,0.2056904296875,0.0,0.0,0.0,0.0,0.0,0.0,-0.513,0.0,0.0,0.0,0.0,0.0,0.0,-0.185810940202802,0.0,0.0,0.0,0.0,0.0,0.0,-60.844,0.0,0.0,0.0,0.0,0.0
71,0.0,0.2009501953125,0.0,0.0,0.0,0.0,0.0,0.0,-0.481,0.0,0.0,0.0,0.0,0.0,0.0,-0.21389887679839983,0.0,0.0,0.0,0.0,0.0,0.0,-57.496,0.0,0.0,0.0,0.0,0.0
72,0.0,0.1957021484375,0.0,0.0,0.0,0.0,0.0,0.0,-0.498,0.0,0.0,0.0,0.0,0.0,0.0,-0.24189029063491596,0.0,0.0,0.0,0.0,0.0,0.0,-53.396,0.0,0.0,0.0,0.0,0.0
73,0.0,0.19003515625,0.0,0.0,0.0,0.0,0.0,0.0,-0.549,0.0,0.0,0.0,0.0,0.0,0.0,-0.2694485750560582,0.0,0.0,0.0,0.0,0.0,0.0,-48.912,0.0,0.0,0.0,0.0,0.0
74,0.0,0.184265625,0.0,0.0,0.0,0.0,0.0,0.0,-0.572,0.0,0.0,0.0,0.0,0.0,0.0,-0.29526862123015135,0.0,0.0,0.0,0.0,0.0,0.0,-45.512,0.0,0.0,0.0,0.0,0.0
75,0.0,0.1786064453125,0.0,0.0,0.0,0.0,0.0,0.0,-0.58,0.0,0.0,0.0,0.0,0.0,0.0,-0.32128858660493687,0.0,0.0,0.0,0.0,0.0,0.0,-43.512,0.0,0.0,0.0,0.0,0.0
76,0.0,0.173556640625,0.0,0.0,0.0,0.0,0.0,0.0,-0.546,0.0,0.0,0.0,0.0,0.0,0.0,-0.3462497010390317,0.0,0.0,0.0,0.0,0.0,0.0,-43.136,0.0,0.0,0.0,0.0,0.0
77,0.0,0.1682060546875,0.0,0.0,0.0,0.0,0.0,0.0,-0.521,0.0,0.0,0.0,0.0,0.0,0.0,-0.3702836806542887,0.0,0.0,0.0,0.0,0.0,0.0,-43.728,0.0,0.0,0.0,0.0,0.0
78,0.0,0.162642578125,0.0,0.0,0.0,0.0,0.0,0.0,-0.549,0.0,0.0,0.0,0.0,0.0,0.0,-0.39340101864225985,0.0,0.0,0.0,0.0,0.0,0.0,-44.0,0.0,0.0,0.0,0.0,0.0
79,0.0,0.1567763671875,0.0,0.0,0.0,0.0,0.0,0.0,-0.569,0.0,0.0,0.0,0.0,0.0,0.0,-0.4154863692474993,0.0,0.0,0.0,0.0,0.0,0.0,-45.512,0.0,0.0,0.0,0.0,0.0
80,0.0,0.1504931640625,0.0,0.0,0.0,0.0,0.0,0.0,-0.611,0.0,0.0,0.0,0.0,0.0,0.0,-0.4366405205906777,0.0,0.0,0.0,0.0,0.0,0.0,-46.752,0.0,0.0,0.0,0.0,0.0
81,0.0,0.1443115234375,0.0,0.0,0.0,0.0,0.0,0.0,-0.629,0.0,0.0,0.0,0.0,0.0,0.0,-0.4565975274124405,0.0,0.0,0.0,0.0,0.0,0.0,-46.536,0.0,0.0,0.0,0.0,0.0
82,0.0,0.138439453125,0.0,0.0,0.0,0.0,0.0,0.0,-0.606,0.0,0.0,0.0,0.0,0.0,0.0,-0.47543042981616795,0.0,0.0,0.0,0.0,0.0,0.0,-44.0,0.0,0.0,0.0,0.0,0.0
83,0.0,0.132361328125,0.0,0.0,0.0,0.0,0.0,0.0,-0.601,0.0,0.0,0.0,0.0,0.0,0.0,-0.49306083998026484,0.0,0.0,0.0,0.0,0.0,0.0,-44.648,0.0,0.0,0.0,0.0,0.0
84,0.0,0.1257685546875,0.0,0.0,0.0,0.0,0.0,0.0,-0.634,0.0,0.0,0.0,0.0,0.0,0.0,-0.5096367591656863,0.0,0.0,0.0,0.0,0.0,0.0,-45.888,0.0,0.0,0.0,0.0,0.0
85,0.0,0.1195947265625,0.0,0.0,0.0,0.0,0.0,0.0,-0.647,0.0,0.0,0.0,0.0,0.0,0.0,-0.5249524609305182,0.0,0.0,0.0,0.0,0.0,0.0,-40.976,0.0,0.0,0.0,0.0,0.0
86,0.0,0.1138251953125,0.0,0.0,0.0,0.0,0.0,0.0,-0.609,0.0,0.0,0.0,0.0,0.0,0.0,-0.5386980669257655,0.0,0.0,0.0,0.0,0.0,0.0,-35.036,0.0,0.0,0.0,0.0,0.0
87,0.0,0.108158203125,0.0,0.0,0.0,0.0,0.0,0.0,-0.58,0.0,0.0,0.0,0.0,0.0,0.0,-0.551320776513942,0.0,0.0,0.0,0.0,0.0,0.0,-35.2,0.0,0.0,0.0,0.0,0.0
88,0.0,0.1028134765625,0.0,0.0,0.0,0.0,0.0,0.0,-0.558,0.0,0.0,0.0,0.0,0.0,0.0,-0.5625160581583959,0.0,0.0,0.0,0.0,0.0,0.0,-37.792,0.0,0.0,0.0,0.0,0.0
89,0.0,0.097353515625,0.0,0.0,0.0,0.0,0.0,0.0,-0.54,0.0,0.0,0.0,0.0,0.0,0.0,-0.5721106881492822,0.0,0.0,0.0,0.0,0.0,0.0,-36.656,0.0,0.0,0.0,0.0,0.0
90,0.0,0.0924140625,0.0,0.0,0.0,0.0,0.0,0.0,-0.53,0.0,0.0,0.0,0.0,0.0,0.0,-0.5804289447747074,0.0,0.0,0.0,0.0,0.0,0.0,-32.232,0.0,0.0,0.0,0.0,0.0
91,0.0,0.0877763671875,0.0,0.0,0.0,0.0,0.0,0.0,-0.481,0.0,0.0,0.0,0.0,0.0,0.0,-0.587308148061468,0.0,0.0,0.0,0.0,0.0,0.0,-32.068,0.0,0.0,0.0,0.0,0.0
92,0.0,0.083248046875,0.0,0.0,0.0,0.0,0.0,0.0,-0.465,0.0,0.0,0.0,0.0,0.0,0.0,-0.5927480589186297,0.0,0.0,0.0,0.0,0.0,0.0,-35.036,0.0,0.0,0.0,0.0,0.0
93,0.0,0.078919921875,0.0,0.0,0.0,0.0,0.0,0.0,-0.448,0.0,0.0,0.0,0.0,0.0,0.0,-0.5966184054093099,0.0,0.0,0.0,0.0,0.0,0.0,-38.656,0.0,0.0,0.0,0.0,0.0
94,0.0,0.0747001953125,0.0,0.0,0.0,0.0,0.0,0.0,-0.432,0.0,0.0,0.0,0.0,0.0,0.0,-0.5990920977166411,0.0,0.0,0.0,0.0,0.0,0.0,-36.28,0.0,0.0,0.0,0.0,0.0
95,0.0,0.07088671875,0.0,0.0,0.0,0.0,0.0,0.0,-0.412,0.0,0.0,0.0,0.0,0.0,0.0,-0.5999888965579391,0.0,0.0,0.0,0.0,0.0,0.0,-34.388,0.0,0.0,0.0,0.0,0.0
96,0.0,0.0670791015625,0.0,0.0,0.0,0.0,0.0,0.0,-0.38,0.0,0.0,0.0,0.0,0.0,0.0,-0.5994271718857104,0.0,0.0,0.0,0.0,0.0,0.0,-36.548,0.0,0.0,0.0,0.0,0.0
97,0.0,0.0633681640625,0.0,0.0,0.0,0.0,0.0,0.0,-0.378,0.0,0.0,0.0,0.0,0.0,0.0,-0.5973547958290549,0.0,0.0,0.0,0.0,0.0,0.0,-40.652,0.0,0.0,0.0,0.0,0.0
98,0.0,0.0596630859375,0.0,0.0,0.0,0.0,0.0,0.0,-0.373,0.0,0.0,0.0,0.0,0.0,0.0,-0.5938190935449187,0.0,0.0,0.0,0.0,0.0,0.0,-42.596,0.0,0.0,0.0,0.0,0.0
99,0.0,0.0561572265625,0.0,0.0,0.0,0.0,0.0,0.0,-0.37,0.0,0.0,0.0,0.0,0.0,0.0,-0.5887710799932319,0.0,0.0,0.0,0.0,0.0,0.0,-40.492,0.0,0.0,0.0,0.0,0.0
100,0.0,0.0529677734375,0.0,0.0,0.0,0.0,0.0,0.0,-0.343,0.0,0.0,0.0,0.0,0.0,0.0,-0.5822130205814229,0.0,0.0,0.0,0.0,0.0,0.0,-40.004,0.0,0.0,0.0,0.0,0.0
101,0.0,0.0500859375,0.0,0.0,0.0,0.0,0.0,0.0,-0.309,0.0,0.0,0.0,0.0,0.0,0.0,-0.5742893125786314,0.0,0.0,0.0,0.0,0.0,0.0,-41.68,0.0,0.0,0.0,0.0,0.0
102,0.0,0.047095703125,0.0,0.0,0.0,0.0,0.0,0.0,-0.292,0.0,0.0,0.0,0.0,0.0,0.0,-0.5649174681499969,0.0,0.0,0.0,0.0,0.0,0.0,-43.836,0.0,0.0,0.0,0.0,0.0
103,0.0,0.0435966796875,0.0,0.0,0.0,0.0,0.0,0.0,-0.316,0.0,0.0,0.0,0.0,0.0,0.0,-0.5538657345915122,0.0,0.0,0.0,0.0,0.0,0.0,-45.728,0.0,0.0,0.0,0.0,0.0
104,0.0,0.039994140625,0.0,0.0,0.0,0.0,0.0,0.0,-0.362,0.0,0.0,0.0,0.0,0.0,0.0,-0.5418642106529734,0.0,0.0,0.0,0.0,0.0,0.0,-45.728,0.0,0.0,0.0,0.0,0.0
105,0.0,0.0366953125,0.0,0.0,0.0,0.0,0.0,0.0,-0.355,0.0,0.0,0.0,0.0,0.0,0.0,-0.52842347259205,0.0,0.0,0.0,0.0,0.0,0.0,-45.024,0.0,0.0,0.0,0.0,0.0
106,0.0,0.033607421875,0.0,0.0,0.0,0.0,0.0,0.0,-0.321,0.0,0.0,0.0,0.0,0.0,0.0,-0.5132192739013131,0.0,0.0,0.0,0.0,0.0,0.0,-45.24,0.0,0.0,0.0,0.0,0.0
107,0.0,0.030623046875,0.0,0.0,0.0,0.0,0.0,0.0,-0.307,0.0,0.0,0.0,0.0,0.0,0.0,-0.49719981680889525,0.0,0.0,0.0,0.0,0.0,0.0,-46.212,0.0,0.0,0.0,0.0,0.0
108,0.0,0.02732421875,0.0,0.0,0.0,0.0,0.0,0.0,-0.307,0.0,0.0,0.0,0.0,0.0,0.0,-0.47974807463724695,0.0,0.0,0.0,0.0,0.0,0.0,-47.132,0.0,0.0,0.0,0.0,0.0
109,0.0,0.023619140625,0.0,0.0,0.0,0.0,0.0,0.0,-0.353,0.0,0.0,0.0,0.0,0.0,0.0,-0.46064558258105315,0.0,0.0,0.0,0.0,0.0,0.0,-46.808,0.0,0.0,0.0,0.0,0.0
110,0.0,0.0198056640625,0.0,0.0,0.0,0.0,0.0,0.0,-0.383,0.0,0.0,0.0,0.0,0.0,0.0,-0.4414490467646606,0.0,0.0,0.0,0.0,0.0,0.0,-46.808,0.0,0.0,0.0,0.0,0.0
111,0.0,0.016203125,0.0,0.0,0.0,0.0,0.0,0.0,-0.375,0.0,0.0,0.0,0.0,0.0,0.0,-0.4207315030990664,0.0,0.0,0.0,0.0,0.0,0.0,-47.024,0.0,0.0,0.0,0.0,0.0
112,0.0,0.0127041015625,0.0,0.0,0.0,0.0,0.0,0.0,-0.36,0.0,0.0,0.0,0.0,0.0,0.0,-0.3986424009756869,0.0,0.0,0.0,0.0,0.0,0.0,-47.132,0.0,0.0,0.0,0.0,0.0
113,0.0,0.00919921875,0.0,0.0,0.0,0.0,0.0,0.0,-0.349,0.0,0.0,0.0,0.0,0.0,0.0,-0.37584666284710694,0.0,0.0,0.0,0.0,0.0,0.0,-47.24,0.0,0.0,0.0,0.0,0.0
114,0.0,0.00559765625,0.0,0.0,0.0,0.0,0.0,0.0,-0.356,0.0,0.0,0.0,0.0,0.0,0.0,-0.351875647384802,0.0,0.0,0.0,0.0,0.0,0.0,-47.24,0.0,0.0,0.0,0.0,0.0
115,0.0,0.0015771484375,0.0,0.0,0.0,0.0,0.0,0.0,-0.381,0.0,0.0,0.0,0.0,0.0,0.0,-0.32707892764539104,0.0,0.0,0.0,0.0,0.0,0.0,-46.592,0.0,0.0,0.0,0.0,0.0
116,0.0,-0.0025390625,0.0,0.0,0.0,0.0,0.0,0.0,-0.409,0.0,0.0,0.0,0.0,0.0,0.0,-0.3016909137794272,0.0,0.0,0.0,0.0,0.0,0.0,-46.376,0.0,0.0,0.0,0.0,0.0
117,0.0,-0.00655859375,0.0,0.0,0.0,0.0,0.0,0.0,-0.413,0.0,0.0,0.0,0.0,0.0,0.0,-0.275096773331163,0.0,0.0,0.0,0.0,0.0,0.0,-46.592,0.0,0.0,0.0,0.0,0.0
118,0.0,-0.01046875,0.0,0.0,0.0,0.0,0.0,0.0,-0.399,0.0,0.0,0.0,0.0,0.0,0.0,-0.24827771198770704,0.0,0.0,0.0,0.0,0.0,0.0,-46.808,0.0,0.0,0.0,0.0,0.0
119,0.0,-0.0143857421875,0.0,0.0,0.0,0.0,0.0,0.0,-0.397,0.0,0.0,0.0,0.0,0.0,0.0,-0.22076285758209194,0.0,0.0,0.0,0.0,0.0,0.0,-46.536,0.0,0.0,0.0,0.0,0.0
120,0.0,-0.0183994140625,0.0,0.0,0.0,0.0,0.0,0.0,-0.395,0.0,0.0,0.0,0.0,0.0,0.0,-0.19262003661539367,0.0,0.0,0.0,0.0,0.0,0.0,-46.104,0.0,0.0,0.0,0.0,0.0
121,0.0,-0.022515625,0.0,0.0,0.0,0.0,0.0,0.0,-0.408,0.0,0.0,0.0,0.0,0.0,0.0,-0.16385529151947323,0.0,0.0,0.0,0.0,0.0,0.0,-45.456,0.0,0.0,0.0,0.0,0.0
122,0.0,-0.026947265625,0.0,0.0,0.0,0.0,0.0,0.0,-0.427,0.0,0.0,0.0,0.0,0.0,0.0,-0.1348726260073701,0.0,0.0,0.0,0.0,0.0,0.0,-45.348,0.0,0.0,0.0,0.0,0.0
123,0.0,-0.0313720703125,0.0,0.0,0.0,0.0,0.0,0.0,-0.446,0.0,0.0,0.0,0.0,0.0,0.0,-0.10565232354353325,0.0,0.0,0.0,0.0,0.0,0.0,-45.24,0.0,0.0,0.0,0.0,0.0
124,0.0,-0.0355986328125,0.0,0.0,0.0,0.0,0.0,0.0,-0.44,0.0,0.0,0.0,0.0,0.0,0.0,-0.07573389299678877,0.0,0.0,0.0,0.0,0.0,0.0,-44.592,0.0,0.0,0.0,0.0,0.0
125,0.0,-0.039611328125,0.0,0.0,0.0,0.0,0.0,0.0,-0.417,0.0,0.0,0.0,0.0,0.0,0.0,-0.045343889750187015,0.0,0.0,0.0,0.0,0.0,0.0,-44.108,0.0,0.0,0.0,0.0,0.0
126,0.0,-0.0436318359375,0.0,0.0,0.0,0.0,0.0,0.0,-0.403,0.0,0.0,0.0,0.0,0.0,0.0,-0.016330027849367504,0.0,0.0,0.0,0.0,0.0,0.0,-44.16,0.0,0.0,0.0,0.0,0.0
127,0.0,-0.0478505859375,0.0,0.0,0.0,0.0,0.0,0.0,-0.41,0.0,0.0,0.0,0.0,0.0,0.0,0.014083627293752387,0.0,0.0,0.0,0.0,0.0,0.0,-43.892,0.0,0.0,0.0,0.0,0.0
128,0.0,-0.052076171875,0.0,0.0,0.0,0.0,0.0,0.0,-0.429,0.0,0.0,0.0,0.0,0.0,0.0,3.8623809787777686e-05,0.0,0.0,0.0,0.0,0.0,0.0,-42.004,0.0,0.0,0.0,0.0,0.0
129,0.0,-0.054751953125,0.0,0.0,0.0,0.0,0.0,0.0,-0.372,0.0,0.0,0.0,0.0,0.0,0.0,0.029855315316475443,0.0,0.0,0.0,0.0,0.0,0.0,-29.856,0.0,0.0,0.0,0.0,0.0
130,0.0,-0.05578125,0.0,0.0,0.0,0.0,0.0,0.0,-0.203,0.0,0.0,0.0,0.0,0.0,0.0,0.059872949059154676,0.0,0.0,0.0,0.0,0.0,0.0,-18.14,0.0,0.0,0.0,0.0,0.0
131,0.0,-0.0559873046875,0.0,0.0,0.0,0.0,0.0,0.0,-0.066,0.0,0.0,0.0,0.0,0.0,0.0,0.09001851225036402,0.0,0.0,0.0,0.0,0.0,0.0,-13.008,0.0,0.0,0.0,0.0,0.0
132,0.0,-0.05485546875,0.0,0.0,0.0,0.0,0.0,0.0,0.037,0.0,0.0,0.0,0.0,0.0,0.0,0.11916293115629117,0.0,0.0,0.0,0.0,0.0,0.0,-11.928,0.0,0.0,0.0,0.0,0.0
133,0.0,-0.0539287109375,0.0,0.0,0.0,0.0,0.0,0.0,0.108,0.0,0.0,0.0,0.0,0.0,0.0,0.14842213927386355,0.0,0.0,0.0,0.0,0.0,0.0,-11.444,0.0,0.0,0.0,0.0,0.0
134,0.0,-0.0521796875,0.0,0.0,0.0,0.0,0.0,0.0,0.115,0.0,0.0,0.0,0.0,0.0,0.0,0.1776815937938507,0.0,0.0,0.0,0.0,0.0,0.0,-8.96,0.0,0.0,0.0,0.0,0.0
135,0.0,-0.0489892578125,0.0,0.0,0.0,0.0,0.0,0.0,0.235,0.0,0.0,0.0,0.0,0.0,0.0,0.20569079128861256,0.0,0.0,0.0,0.0,0.0,0.0,-9.392,0.0,0.0,0.0,0.0,0.0
136,0.0,-0.044763671875,0.0,0.0,0.0,0.0,0.0,0.0,0.361,0.0,0.0,0.0,0.0,0.0,0.0,0.2337311650002614,0.0,0.0,0.0,0.0,0.0,0.0,-11.928,0.0,0.0,0.0,0.0,0.0
137,0.0,-0.0392001953125,0.0,0.0,0.0,0.0,0.0,0.0,0.48,0.0,0.0,0.0,0.0,0.0,0.0,0.2612952724793859,0.0,0.0,0.0,0.0,0.0,0.0,-15.656,0.0,0.0,0.0,0.0,0.0
138,0.0,-0.0334375,0.0,0.0,0.0,0.0,0.0,0.0,0.581,0.0,0.0,0.0,0.0,0.0,0.0,0.2874893460643611,0.0,0.0,0.0,0.0,0.0,0.0,-19.976,0.0,0.0,0.0,0.0,0.0
139,0.0,-0.0277705078125,0.0,0.0,0.0,0.0,0.0,0.0,0.565,0.0,0.0,0.0,0.0,0.0,0.0,0.31347119954816105,0.0,0.0,0.0,0.0,0.0,0.0,-21.972,0.0,0.0,0.0,0.0,0.0
140,0.0,-0.0218984375,0.0,0.0,0.0,0.0,0.0,0.0,0.582,0.0,0.0,0.0,0.0,0.0,0.0,0.3387556837654407,0.0,0.0,0.0,0.0,0.0,0.0,-28.452,0.0,0.0,0.0,0.0,0.0
141,0.0,-0.01623828125,0.0,0.0,0.0,0.0,0.0,0.0,0.579,0.0,0.0,0.0,0.0,0.0,0.0,0.3629065285622704,0.0,0.0,0.0,0.0,0.0,0.0,-33.364,0.0,0.0,0.0,0.0,0.0
142,0.0,-0.0094404296875,0.0,0.0,0.0,0.0,0.0,0.0,0.606,0.0,0.0,0.0,0.0,0.0,0.0,0.3862939256587145,0.0,0.0,0.0,0.0,0.0,0.0,-35.308,0.0,0.0,0.0,0.0,0.0
143,0.0,-0.0023330078125,0.0,0.0,0.0,0.0,0.0,0.0,0.708,0.0,0.0,0.0,0.0,0.0,0.0,0.40905777440070495,0.0,0.0,0.0,0.0,0.0,0.0,-35.468,0.0,0.0,0.0,0.0,0.0
144,0.0,0.0047744140625,0.0,0.0,0.0,0.0,0.0,0.0,0.716,0.0,0.0,0.0,0.0,0.0,0.0,0.43029023096209507,0.0,0.0,0.0,0.0,0.0,0.0,-37.736,0.0,0.0,0.0,0.0,0.0
145,0.0,0.011462890625,0.0,0.0,0.0,0.0,0.0,0.0,0.694,0.0,0.0,0.0,0.0,0.0,0.0,0.450631470815894,0.0,0.0,0.0,0.0,0.0,0.0,-44.972,0.0,0.0,0.0,0.0,0.0
146,0.0,0.01764453125,0.0,0.0,0.0,0.0,0.0,0.0,0.655,0.0,0.0,0.0,0.0,0.0,0.0,0.47004828505501867,0.0,0.0,0.0,0.0,0.0,0.0,-46.808,0.0,0.0,0.0,0.0,0.0
147,0.0,0.0244423828125,0.0,0.0,0.0,0.0,0.0,0.0,0.642,0.0,0.0,0.0,0.0,0.0,0.0,0.48800196829145215,0.0,0.0,0.0,0.0,0.0,0.0,-43.084,0.0,0.0,0.0,0.0,0.0
148,0.0,0.0312412109375,0.0,0.0,0.0,0.0,0.0,0.0,0.689,0.0,0.0,0.0,0.0,0.0,0.0,0.5046974743232886,0.0,0.0,0.0,0.0,0.0,0.0,-45.24,0.0,0.0,0.0,0.0,0.0
149,0.0,0.0375185546875,0.0,0.0,0.0,0.0,0.0,0.0,0.659,0.0,0.0,0.0,0.0,0.0,0.0,0.5204956264166161,0.0,0.0,0.0,0.0,0.0,0.0,-52.1,0.0,0.0,0.0,0.0,0.0
150,0.0,0.044111328125,0.0,0.0,0.0,0.0,0.0,0.0,0.643,0.0,0.0,0.0,0.0,0.0,0.0,0.5345978667008501,0.0,0.0,0.0,0.0,0.0,0.0,-54.256,0.0,0.0,0.0,0.0,0.0
151,0.0,0.0501884765625,0.0,0.0,0.0,0.0,0.0,0.0,0.646,0.0,0.0,0.0,0.0,0.0,0.0,0.5475221504518947,0.0,0.0,0.0,0.0,0.0,0.0,-51.072,0.0,0.0,0.0,0.0,0.0
152,0.0,0.05574609375,0.0,0.0,0.0,0.0,0.0,0.0,0.586,0.0,0.0,0.0,0.0,0.0,0.0,0.5592667336634198,0.0,0.0,0.0,0.0,0.0,0.0,-52.692,0.0,0.0,0.0,0.0,0.0
153,0.0,0.061412109375,0.0,0.0,0.0,0.0,0.0,0.0,0.562,0.0,0.0,0.0,0.0,0.0,0.0,0.5693576090600941,0.0,0.0,0.0,0.0,0.0,0.0,-58.252,0.0,0.0,0.0,0.0,0.0
154,0.0,0.0667705078125,0.0,0.0,0.0,0.0,0.0,0.0,0.555,0.0,0.0,0.0,0.0,0.0,0.0,0.5780521723323213,0.0,0.0,0.0,0.0,0.0,0.0,-59.388,0.0,0.0,0.0,0.0,0.0
155,0.0,0.07212109375,0.0,0.0,0.0,0.0,0.0,0.0,0.54,0.0,0.0,0.0,0.0,0.0,0.0,0.5856030059406571,0.0,0.0,0.0,0.0,0.0,0.0,-54.42,0.0,0.0,0.0,0.0,0.0
156,0.0,0.077169921875,0.0,0.0,0.0,0.0,0.0,0.0,0.53,0.0,0.0,0.0,0.0,0.0,0.0,0.5912769945766425,0.0,0.0,0.0,0.0,0.0,0.0,-54.528,0.0,0.0,0.0,0.0,0.0
157,0.0,0.08118359375,0.0,0.0,0.0,0.0,0.0,0.0,0.462,0.0,0.0,0.0,0.0,0.0,0.0,0.5955944482683565,0.0,0.0,0.0,0.0,0.0,0.0,-58.468,0.0,0.0,0.0,0.0,0.0
158,0.0,0.085306640625,0.0,0.0,0.0,0.0,0.0,0.0,0.408,0.0,0.0,0.0,0.0,0.0,0.0,0.5984997127527341,0.0,0.0,0.0,0.0,0.0,0.0,-59.008,0.0,0.0,0.0,0.0,0.0
159,0.0,0.0894228515625,0.0,0.0,0.0,0.0,0.0,0.0,0.419,0.0,0.0,0.0,0.0,0.0,0.0,0.5998697487411626,0.0,0.0,0.0,0.0,0.0,0.0,-55.552,0.0,0.0,0.0,0.0,0.0
160,0.0,0.09333984375,0.0,0.0,0.0,0.0,0.0,0.0,0.395,0.0,0.0,0.0,0.0,0.0,0.0,0.5997488865832773,0.0,0.0,0.0,0.0,0.0,0.0,-50.964,0.0,0.0,0.0,0.0,0.0
161,0.0,0.09725,0.0,0.0,0.0,0.0,0.0,0.0,0.405,0.0,0.0,0.0,0.0,0.0,0.0,0.5981204497009653,0.0,0.0,0.0,0.0,0.0,0.0,-53.016,0.0,0.0,0.0,0.0,0.0
162,0.0,0.100337890625,0.0,0.0,0.0,0.0,0.0,0.0,0.362,0.0,0.0,0.0,0.0,0.0,0.0,0.5949213025931647,0.0,0.0,0.0,0.0,0.0,0.0,-54.796,0.0,0.0,0.0,0.0,0.0
163,0.0,0.103328125,0.0,0.0,0.0,0.0,0.0,0.0,0.299,0.0,0.0,0.0,0.0,0.0,0.0,0.5904225747058426,0.0,0.0,0.0,0.0,0.0,0.0,-52.8,0.0,0.0,0.0,0.0,0.0
164,0.0,0.105998046875,0.0,0.0,0.0,0.0,0.0,0.0,0.293,0.0,0.0,0.0,0.0,0.0,0.0,0.5842997108762776,0.0,0.0,0.0,0.0,0.0,0.0,-49.344,0.0,0.0,0.0,0.0,0.0
165,0.0,0.1087763671875,0.0,0.0,0.0,0.0,0.0,0.0,0.264,0.0,0.0,0.0,0.0,0.0,0.0,0.5767486556724635,0.0,0.0,0.0,0.0,0.0,0.0,-44.972,0.0,0.0,0.0,0.0,0.0
166,0.0,0.11228125,0.0,0.0,0.0,0.0,0.0,0.0,0.31,0.0,0.0,0.0,0.0,0.0,0.0,0.5678266346487747,0.0,0.0,0.0,0.0,0.0,0.0,-43.784,0.0,0.0,0.0,0.0,0.0
167,0.0,0.115265625,0.0,0.0,0.0,0.0,0.0,0.0,0.332,0.0,0.0,0.0,0.0,0.0,0.0,0.5574524637437436,0.0,0.0,0.0,0.0,0.0,0.0,-45.188,0.0,0.0,0.0,0.0,0.0
168,0.0,0.1180439453125,0.0,0.0,0.0,0.0,0.0,0.0,0.289,0.0,0.0,0.0,0.0,0.0,0.0,0.5455622627113696,0.0,0.0,0.0,0.0,0.0,0.0,-45.132,0.0,0.0,0.0,0.0,0.0
169,0.0,0.1207265625,0.0,0.0,0.0,0.0,0.0,0.0,0.281,0.0,0.0,0.0,0.0,0.0,0.0,0.5325155448380708,0.0,0.0,0.0,0.0,0.0,0.0,-44.052,0.0,0.0,0.0,0.0,0.0
170,0.0,0.123298828125,0.0,0.0,0.0,0.0,0.0,0.0,0.258,0.0,0.0,0.0,0.0,0.0,0.0,0.518040656071871,0.0,0.0,0.0,0.0,0.0,0.0,-42.22,0.0,0.0,0.0,0.0,0.0
171,0.0,0.1264892578125,0.0,0.0,0.0,0.0,0.0,0.0,0.277,0.0,0.0,0.0,0.0,0.0,0.0,0.5021559987383041,0.0,0.0,0.0,0.0,0.0,0.0,-41.084,0.0,0.0,0.0,0.0,0.0
172,0.0,0.1298916015625,0.0,0.0,0.0,0.0,0.0,0.0,0.335,0.0,0.0,0.0,0.0,0.0,0.0,0.48519495746612123,0.0,0.0,0.0,0.0,0.0,0.0,-41.14,0.0,0.0,0.0,0.0,0.0
173,0.0,0.132978515625,0.0,0.0,0.0,0.0,0.0,0.0,0.329,0.0,0.0,0.0,0.0,0.0,0.0,0.46697769167783754,0.0,0.0,0.0,0.0,0.0,0.0,-40.544,0.0,0.0,0.0,0.0,0.0
174,0.0,0.1361689453125,0.0,0.0,0.0,0.0,0.0,0.0,0.319,0.0,0.0,0.0,0.0,0.0,0.0,0.4474473546801549,0.0,0.0,0.0,0.0,0.0,0.0,-40.328,0.0,0.0,0.0,0.0,0.0
175,0.0,0.13916015625,0.0,0.0,0.0,0.0,0.0,0.0,0.313,0.0,0.0,0.0,0.0,0.0,0.0,0.426983458155164,0.0,0.0,0.0,0.0,0.0,0.0,-39.952,0.0,0.0,0.0,0.0,0.0
176,0.0,0.1425556640625,0.0,0.0,0.0,0.0,0.0,0.0,0.311,0.0,0.0,0.0,0.0,0.0,0.0,0.40546612020190265,0.0,0.0,0.0,0.0,0.0,0.0,-39.412,0.0,0.0,0.0,0.0,0.0
177,0.0,0.1461640625,0.0,0.0,0.0,0.0,0.0,0.0,0.352,0.0,0.0,0.0,0.0,0.0,0.0,0.3825111352095735,0.0,0.0,0.0,0.0,0.0,0.0,-40.06,0.0,0.0,0.0,0.0,0.0
178,0.0,0.1496689453125,0.0,0.0,0.0,0.0,0.0,0.0,0.358,0.0,0.0,0.0,0.0,0.0,0.0,0.35916063985864255,0.0,0.0,0.0,0.0,0.0,0.0,-39.896,0.0,0.0,0.0,0.0,0.0
179,0.0,0.1533740234375,0.0,0.0,0.0,0.0,0.0,0.0,0.362,0.0,0.0,0.0,0.0,0.0,0.0,0.3348043688297881,0.0,0.0,0.0,0.0,0.0,0.0,-39.304,0.0,0.0,0.0,0.0,0.0
180,0.0,0.1570849609375,0.0,0.0,0.0,0.0,0.0,0.0,0.376,0.0,0.0,0.0,0.0,0.0,0.0,0.30939586550099124,0.0,0.0,0.0,0.0,0.0,0.0,-38.6,0.0,0.0,0.0,0.0,0.0
181,0.0,0.1607900390625,0.0,0.0,0.0,0.0,0.0,0.0,0.366,0.0,0.0,0.0,0.0,0.0,0.0,0.28339304919574254,0.0,0.0,0.0,0.0,0.0,0.0,-38.276,0.0,0.0,0.0,0.0,0.0
182,0.0,0.1647001953125,0.0,0.0,0.0,0.0,0.0,0.0,0.384,0.0,0.0,0.0,0.0,0.0,0.0,0.25641703862410364,0.0,0.0,0.0,0.0,0.0,0.0,-39.464,0.0,0.0,0.0,0.0,0.0
183,0.0,0.168720703125,0.0,0.0,0.0,0.0,0.0,0.0,0.4,0.0,0.0,0.0,0.0,0.0,0.0,0.2289716049434199,0.0,0.0,0.0,0.0,0.0,0.0,-40.168,0.0,0.0,0.0,0.0,0.0
184,0.0,0.1728369140625,0.0,0.0,0.0,0.0,0.0,0.0,0.407,0.0,0.0,0.0,0.0,0.0,0.0,0.20106650849517824,0.0,0.0,0.0,0.0,0.0,0.0,-40.76,0.0,0.0,0.0,0.0,0.0
185,0.0,0.1770625,0.0,0.0,0.0,0.0,0.0,0.0,0.414,0.0,0.0,0.0,0.0,0.0,0.0,0.17268497211712067,0.0,0.0,0.0,0.0,0.0,0.0,-40.76,0.0,0.0,0.0,0.0,0.0
186,0.0,0.18128125,0.0,0.0,0.0,0.0,0.0,0.0,0.422,0.0,0.0,0.0,0.0,0.0,0.0,0.14368940679083658,0.0,0.0,0.0,0.0,0.0,0.0,-40.544,0.0,0.0,0.0,0.0,0.0
187,0.0,0.185712890625,0.0,0.0,0.0,0.0,0.0,0.0,0.432,0.0,0.0,0.0,0.0,0.0,0.0,0.11439216515595073,0.0,0.0,0.0,0.0,0.0,0.0,-41.464,0.0,0.0,0.0,0.0,0.0
188,0.0,0.18941796875,0.0,0.0,0.0,0.0,0.0,0.0,0.428,0.0,0.0,0.0,0.0,0.0,0.0,0.08474947001639853,0.0,0.0,0.0,0.0,0.0,0.0,-48.428,0.0,0.0,0.0,0.0,0.0
189,0.0,0.1915791015625,0.0,0.0,0.0,0.0,0.0,0.0,0.31,0.0,0.0,0.0,0.0,0.0,0.0,0.054383348622578015,0.0,0.0,0.0,0.0,0.0,0.0,-61.44,0.0,0.0,0.0,0.0,0.0
190,0.0,0.1926083984375,0.0,0.0,0.0,0.0,0.0,0.0,0.17,0.0,0.0,0.0,0.0,0.0,0.0,0.025263177377293312,0.0,0.0,0.0,0.0,0.0,0.0,-71.752,0.0,0.0,0.0,0.0,0.0
191,0.0,0.1927109375,0.0,0.0,0.0,0.0,0.0,0.0,0.07,0.0,0.0,0.0,0.0,0.0,0.0,-0.004930254766938999,0.0,0.0,0.0,0.0,0.0,0.0,-76.068,0.0,0.0,0.0,0.0,0.0
192,0.0,0.19209375,0.0,0.0,0.0,0.0,0.0,0.0,-0.028,0.0,0.0,0.0,0.0,0.0,0.0,-0.034871281334247196,0.0,0.0,0.0,0.0,0.0,0.0,-76.284,0.0,0.0,0.0,0.0,0.0
193,0.0,0.191373046875,0.0,0.0,0.0,0.0,0.0,0.0,-0.054,0.0,0.0,0.0,0.0,0.0,0.0,-0.06477088545987157,0.0,0.0,0.0,0.0,0.0,0.0,-78.552,0.0,0.0,0.0,0.0,0.0
194,0.0,0.1892119140625,0.0,0.0,0.0,0.0,0.0,0.0,-0.128,0.0,0.0,0.0,0.0,0.0,0.0,-0.09449934468019595,0.0,0.0,0.0,0.0,0.0,0.0,-79.04,0.0,0.0,0.0,0.0,0.0
195,0.0,0.186021484375,0.0,0.0,0.0,0.0,0.0,0.0,-0.267,0.0,0.0,0.0,0.0,0.0,0.0,-0.12412041349144609,0.0,0.0,0.0,0.0,0.0,0.0,-75.692,0.0,0.0,0.0,0.0,0.0
196,0.0,0.181693359375,0.0,0.0,0.0,0.0,0.0,0.0,-0.368,0.0,0.0,0.0,0.0,0.0,0.0,-0.15322320082439142,0.0,0.0,0.0,0.0,0.0,0.0,-70.672,0.0,0.0,0.0,0.0,0.0
197,0.0,0.1769599609375,0.0,0.0,0.0,0.0,0.0,0.0,-0.457,0.0,0.0,0.0,0.0,0.0,0.0,-0.18191038313247668,0.0,0.0,0.0,0.0,0.0,0.0,-63.76,0.0,0.0,0.0,0.0,0.0
198,0.0,0.1728369140625,0.0,0.0,0.0,0.0,0.0,0.0,-0.451,0.0,0.0,0.0,0.0,0.0,0.0,-0.210289881953779,0.0,0.0,0.0,0.0,0.0,0.0,-59.712,0.0,0.0,0.0,0.0,0.0
199,0.0,0.1686171875,0.0,0.0,0.0,0.0,0.0,0.0,-0.418,0.0,0.0,0.0,0.0,0.0,0.0,-0.23822795602765015,0.0,0.0,0.0,0.0,0.0,0.0,-57.012,0.0,0.0,0.0,0.0,0.0
200,0.0,0.163876953125,0.0,0.0,0.0,0.0,0.0,0.0,-0.449,0.0,0.0,0.0,0.0,0.0,0.0,-0.2653320914055463,0.0,0.0,0.0,0.0,0.0,0.0,-53.72,0.0,0.0,0.0,0.0,0.0
201,0.0,0.1587314453125,0.0,0.0,0.0,0.0,0.0,0.0,-0.49,0.0,0.0,0.0,0.0,0.0,0.0,-0.29200643385478725,0.0,0.0,0.0,0.0,0.0,0.0,-50.64,0.0,0.0,0.0,0.0,0.0
202,0.0,0.1533740234375,0.0,0.0,0.0,0.0,0.0,0.0,-0.525,0.0,0.0,0.0,0.0,0.0,0.0,-0.31785803183403943,0.0,0.0,0.0,0.0,0.0,0.0,-47.4,0.0,0.0,0.0,0.0,0.0
203,0.0,0.14833203125,0.0,0.0,0.0,0.0,0.0,0.0,-0.531,0.0,0.0,0.0,0.0,0.0,0.0,-0.34293150903757574,0.0,0.0,0.0,0.0,0.0,0.0,-45.132,0.0,0.0,0.0,0.0,0.0
204,0.0,0.1435849609375,0.0,0.0,0.0,0.0,0.0,0.0,-0.491,0.0,0.0,0.0,0.0,0.0,0.0,-0.3672521723751737,0.0,0.0,0.0,0.0,0.0,0.0,-44.16,0.0,0.0,0.0,0.0,0.0
205,0.0,0.1386455078125,0.0,0.0,0.0,0.0,0.0,0.0,-0.486,0.0,0.0,0.0,0.0,0.0,0.0,-0.3904092570534248,0.0,0.0,0.0,0.0,0.0,0.0,-44.0,0.0,0.0,0.0,0.0,0.0
206,0.0,0.133390625,0.0,0.0,0.0,0.0,0.0,0.0,-0.515,0.0,0.0,0.0,0.0,0.0,0.0,-0.41277488721520755,0.0,0.0,0.0,0.0,0.0,0.0,-44.972,0.0,0.0,0.0,0.0,0.0
207,0.0,0.1279296875,0.0,0.0,0.0,0.0,0.0,0.0,-0.531,0.0,0.0,0.0,0.0,0.0,0.0,-0.43381101992544346,0.0,0.0,0.0,0.0,0.0,0.0,-46.104,0.0,0.0,0.0,0.0,0.0
208,0.0,0.122064453125,0.0,0.0,0.0,0.0,0.0,0.0,-0.575,0.0,0.0,0.0,0.0,0.0,0.0,-0.45411272623798593,0.0,0.0,0.0,0.0,0.0,0.0,-46.592,0.0,0.0,0.0,0.0,0.0
209,0.0,0.1161923828125,0.0,0.0,0.0,0.0,0.0,0.0,-0.586,0.0,0.0,0.0,0.0,0.0,0.0,-0.47300065448408335,0.0,0.0,0.0,0.0,0.0,0.0,-47.508,0.0,0.0,0.0,0.0,0.0
210,0.0,0.1101142578125,0.0,0.0,0.0,0.0,0.0,0.0,-0.597,0.0,0.0,0.0,0.0,0.0,0.0,-0.49093325757941364,0.0,0.0,0.0,0.0,0.0,0.0,-49.616,0.0,0.0,0.0,0.0,0.0
211,0.0,0.1039462890625,0.0,0.0,0.0,0.0,0.0,0.0,-0.62,0.0,0.0,0.0,0.0,0.0,0.0,-0.5076812280244944,0.0,0.0,0.0,0.0,0.0,0.0,-48.048,0.0,0.0,0.0,0.0,0.0
212,0.0,0.097662109375,0.0,0.0,0.0,0.0,0.0,0.0,-0.619,0.0,0.0,0.0,0.0,0.0,0.0,-0.5229025508992632,0.0,0.0,0.0,0.0,0.0,0.0,-47.184,0.0,0.0,0.0,0.0,0.0
213,0.0,0.090658203125,0.0,0.0,0.0,0.0,0.0,0.0,-0.669,0.0,0.0,0.0,0.0,0.0,0.0,-0.5369545554645869,0.0,0.0,0.0,0.0,0.0,0.0,-46.808,0.0,0.0,0.0,0.0,0.0
214,0.0,0.08427734375,0.0,0.0,0.0,0.0,0.0,0.0,-0.685,0.0,0.0,0.0,0.0,0.0,0.0,-0.5497727989228338,0.0,0.0,0.0,0.0,0.0,0.0,-43.46,0.0,0.0,0.0,0.0,0.0
215,0.0,0.0784052734375,0.0,0.0,0.0,0.0,0.0,0.0,-0.614,0.0,0.0,0.0,0.0,0.0,0.0,-0.5610560168805838,0.0,0.0,0.0,0.0,0.0,0.0,-39.032,0.0,0.0,0.0,0.0,0.0
216,0.0,0.072224609375,0.0,0.0,0.0,0.0,0.0,0.0,-0.612,0.0,0.0,0.0,0.0,0.0,0.0,-0.5709749772034503,0.0,0.0,0.0,0.0,0.0,0.0,-38.548,0.0,0.0,0.0,0.0,0.0
217,0.0,0.0664609375,0.0,0.0,0.0,0.0,0.0,0.0,-0.604,0.0,0.0,0.0,0.0,0.0,0.0,-0.5794902547856393,0.0,0.0,0.0,0.0,0.0,0.0,-38.924,0.0,0.0,0.0,0.0,0.0
218,0.0,0.0605888671875,0.0,0.0,0.0,0.0,0.0,0.0,-0.581,0.0,0.0,0.0,0.0,0.0,0.0,-0.5865332039978104,0.0,0.0,0.0,0.0,0.0,0.0,-36.604,0.0,0.0,0.0,0.0,0.0
219,0.0,0.0552314453125,0.0,0.0,0.0,0.0,0.0,0.0,-0.575,0.0,0.0,0.0,0.0,0.0,0.0,-0.5921062410922712,0.0,0.0,0.0,0.0,0.0,0.0,-32.608,0.0,0.0,0.0,0.0,0.0
220,0.0,0.05039453125,0.0,0.0,0.0,0.0,0.0,0.0,-0.516,0.0,0.0,0.0,0.0,0.0,0.0,-0.5962041120915319,0.0,0.0,0.0,0.0,0.0,0.0,-33.848,0.0,0.0,0.0,0.0,0.0
221,0.0,0.0455517578125,0.0,0.0,0.0,0.0,0.0,0.0,-0.49,0.0,0.0,0.0,0.0,0.0,0.0,-0.5988304002955973,0.0,0.0,0.0,0.0,0.0,0.0,-35.684,0.0,0.0,0.0,0.0,0.0
222,0.0,0.0410234375,0.0,0.0,0.0,0.0,0.0,0.0,-0.479,0.0,0.0,0.0,0.0,0.0,0.0,-0.599952644907208,0.0,0.0,0.0,0.0,0.0,0.0,-36.928,0.0,0.0,0.0,0.0,0.0
223,0.0,0.0366953125,0.0,0.0,0.0,0.0,0.0,0.0,-0.445,0.0,0.0,0.0,0.0,0.0,0.0,-0.5995703530934351,0.0,0.0,0.0,0.0,0.0,0.0,-34.336,0.0,0.0,0.0,0.0,0.0
224,0.0,0.0324755859375,0.0,0.0,0.0,0.0,0.0,0.0,-0.432,0.0,0.0,0.0,0.0,0.0,0.0,-0.5977090076883619,0.0,0.0,0.0,0.0,0.0,0.0,-34.064,0.0,0.0,0.0,0.0,0.0
225,0.0,0.0284560546875,0.0,0.0,0.0,0.0,0.0,0.0,-0.411,0.0,0.0,0.0,0.0,0.0,0.0,-0.5943439896059773,0.0,0.0,0.0,0.0,0.0,0.0,-37.576,0.0,0.0,0.0,0.0,0.0
226,0.0,0.0245458984375,0.0,0.0,0.0,0.0,0.0,0.0,-0.404,0.0,0.0,0.0,0.0,0.0,0.0,-0.5894638180549452,0.0,0.0,0.0,0.0,0.0,0.0,-40.924,0.0,0.0,0.0,0.0,0.0
227,0.0,0.02062890625,0.0,0.0,0.0,0.0,0.0,0.0,-0.398,0.0,0.0,0.0,0.0,0.0,0.0,-0.5831468852726814,0.0,0.0,0.0,0.0,0.0,0.0,-39.952,0.0,0.0,0.0,0.0,0.0
228,0.0,0.0171298828125,0.0,0.0,0.0,0.0,0.0,0.0,-0.376,0.0,0.0,0.0,0.0,0.0,0.0,-0.5753894499562497,0.0,0.0,0.0,0.0,0.0,0.0,-36.928,0.0,0.0,0.0,0.0,0.0
229,0.0,0.0138369140625,0.0,0.0,0.0,0.0,0.0,0.0,-0.346,0.0,0.0,0.0,0.0,0.0,0.0,-0.5661431873567965,0.0,0.0,0.0,0.0,0.0,0.0,-37.304,0.0,0.0,0.0,0.0,0.0
230,0.0,0.0106396484375,0.0,0.0,0.0,0.0,0.0,0.0,-0.33,0.0,0.0,0.0,0.0,0.0,0.0,-0.5555026178830581,0.0,0.0,0.0,0.0,0.0,0.0,-40.492,0.0,0.0,0.0,0.0,0.0
231,0.0,0.0074501953125,0.0,0.0,0.0,0.0,0.0,0.0,-0.316,0.0,0.0,0.0,0.0,0.0,0.0,-0.5434803278042201,0.0,0.0,0.0,0.0,0.0,0.0,-44.16,0.0,0.0,0.0,0.0,0.0
232,0.0,0.00384765625,0.0,0.0,0.0,0.0,0.0,0.0,-0.339,0.0,0.0,0.0,0.0,0.0,0.0,-0.5299535004738436,0.0,0.0,0.0,0.0,0.0,0.0,-45.188,0.0,0.0,0.0,0.0,0.0
233,0.0,0.000548828125,0.0,0.0,0.0,0.0,0.0,0.0,-0.354,0.0,0.0,0.0,0.0,0.0,0.0,-0.5153376927254516,0.0,0.0,0.0,0.0,0.0,0.0,-43.676,0.0,0.0,0.0,0.0,0.0
234,0.0,-0.0026416015625,0.0,0.0,0.0,0.0,0.0,0.0,-0.329,0.0,0.0,0.0,0.0,0.0,0.0,-0.49950207264740437,0.0,0.0,0.0,0.0,0.0,0.0,-42.812,0.0,0.0,0.0,0.0,0.0
235,0.0,-0.0056328125,0.0,0.0,0.0,0.0,0.0,0.0,-0.315,0.0,0.0,0.0,0.0,0.0,0.0,-0.4820730384840486,0.0,0.0,0.0,0.0,0.0,0.0,-43.62,0.0,0.0,0.0,0.0,0.0
236,0.0,-0.0086171875,0.0,0.0,0.0,0.0,0.0,0.0,-0.301,0.0,0.0,0.0,0.0,0.0,0.0,-0.4635712098028923,0.0,0.0,0.0,0.0,0.0,0.0,-45.672,0.0,0.0,0.0,0.0,0.0
237,0.0,-0.01221875,0.0,0.0,0.0,0.0,0.0,0.0,-0.324,0.0,0.0,0.0,0.0,0.0,0.0,-0.44397776645710973,0.0,0.0,0.0,0.0,0.0,0.0,-47.4,0.0,0.0,0.0,0.0,0.0
238,0.0,-0.0159296875,0.0,0.0,0.0,0.0,0.0,0.0,-0.368,0.0,0.0,0.0,0.0,0.0,0.0,-0.4124652868983474,0.0,0.0,0.0,0.0,0.0,0.0,-47.4,0.0,0.0,0.0,0.0,0.0
239,0.0,-0.019326171875,0.0,0.0,0.0,0.0,0.0,0.0,-0.358,0.0,0.0,0.0,0.0,0.0,0.0,-0.39779387164726265,0.0,0.0,0.0,0.0,0.0,0.0,-46.916,0.0,0.0,0.0,0.0,0.0
240,0.0,-0.0227216796875,0.0,0.0,0.0,0.0,0.0,0.0,-0.346,0.0,0.0,0.0,0.0,0.0,0.0,-0.37894161616413646,0.0,0.0,0.0,0.0,0.0,0.0,-46.104,0.0,0.0,0.0,0.0,0.0
241,0.0,-0.026021484375,0.0,0.0,0.0,0.0,0.0,0.0,-0.337,0.0,0.0,0.0,0.0,0.0,0.0,-0.35508038713363993,0.0,0.0,0.0,0.0,0.0,0.0,-46.32,0.0,0.0,0.0,0.0,0.0
242,0.0,-0.029623046875,0.0,0.0,0.0,0.0,0.0,0.0,-0.34,0.0,0.0,0.0,0.0,0.0,0.0,-0.3304391229111483,0.0,0.0,0.0,0.0,0.0,0.0,-46.968,0.0,0.0,0.0,0.0,0.0
243,0.0,-0.0334375,0.0,0.0,0.0,0.0,0.0,0.0,-0.375,0.0,0.0,0.0,0.0,0.0,0.0,-0.3051667526069194,0.0,0.0,0.0,0.0,0.0,0.0,-47.024,0.0,0.0,0.0,0.0,0.0
244,0.0,-0.0372451171875,0.0,0.0,0.0,0.0,0.0,0.0,-0.386,0.0,0.0,0.0,0.0,0.0,0.0,-0.278960572488774,0.0,0.0,0.0,0.0,0.0,0.0,-47.184,0.0,0.0,0.0,0.0,0.0
245,0.0,-0.04105859375,0.0,0.0,0.0,0.0,0.0,0.0,-0.385,0.0,0.0,0.0,0.0,0.0,0.0,-0.25192117271159176,0.0,0.0,0.0,0.0,0.0,0.0,-47.24,0.0,0.0,0.0,0.0,0.0
246,0.0,-0.044763671875,0.0,0.0,0.0,0.0,0.0,0.0,-0.382,0.0,0.0,0.0,0.0,0.0,0.0,-0.2245321102645119,0.0,0.0,0.0,0.0,0.0,0.0,-46.752,0.0,0.0,0.0,0.0,0.0
247,0.0,-0.0485712890625,0.0,0.0,0.0,0.0,0.0,0.0,-0.372,0.0,0.0,0.0,0.0,0.0,0.0,-0.19646522687382248,0.0,0.0,0.0,0.0,0.0,0.0,-46.32,0.0,0.0,0.0,0.0,0.0
248,0.0,-0.0525908203125,0.0,0.0,0.0,0.0,0.0,0.0,-0.391,0.0,0.0,0.0,0.0,0.0,0.0,-0.16764092034048864,0.0,0.0,0.0,0.0,0.0,0.0,-46.104,0.0,0.0,0.0,0.0,0.0
249,0.0,-0.05670703125,0.0,0.0,0.0,0.0,0.0,0.0,-0.413,0.0,0.0,0.0,0.0,0.0,0.0,-0.1388629762473569,0.0,0.0,0.0,0.0,0.0,0.0,-46.104,0.0,0.0,0.0,0.0,0.0
250,0.0,-0.0609326171875,0.0,0.0,0.0,0.0,0.0,0.0,-0.421,0.0,0.0,0.0,0.0,0.0,0.0,-0.10963708833483665,0.0,0.0,0.0,0.0,0.0,0.0,-46.268,0.0,0.0,0.0,0.0,0.0
251,0.0,-0.0650498046875,0.0,0.0,0.0,0.0,0.0,0.0,-0.42,0.0,0.0,0.0,0.0,0.0,0.0,-0.07972896629700392,0.0,0.0,0.0,0.0,0.0,0.0,-46.16,0.0,0.0,0.0,0.0,0.0
252,0.0,-0.068966796875,0.0,0.0,0.0,0.0,0.0,0.0,-0.406,0.0,0.0,0.0,0.0,0.0,0.0,-0.05006601920066545,0.0,0.0,0.0,0.0,0.0,0.0,-45.672,0.0,0.0,0.0,0.0,0.0
253,0.0,-0.073185546875,0.0,0.0,0.0,0.0,0.0,0.0,-0.405,0.0,0.0,0.0,0.0,0.0,0.0,-0.0201505813430805,0.0,0.0,0.0,0.0,0.0,0.0,-45.024,0.0,0.0,0.0,0.0,0.0
254,0.0,-0.0774111328125,0.0,0.0,0.0,0.0,0.0,0.0,-0.427,0.0,0.0,0.0,0.0,0.0,0.0,0.010181281664386801,0.0,0.0,0.0,0.0,0.0,0.0,-44.108,0.0,0.0,0.0,0.0,0.0
255,0.0,-0.0807041015625,0.0,0.0,0.0,0.0,0.0,0.0,-0.399,0.0,0.0,0.0,0.0,0.0,0.0,3.576278684405855e-05,0.0,0.0,0.0,0.0,0.0,0.0,-34.82,0.0,0.0,0.0,0.0,0.0
256,0.0,-0.082248046875,0.0,0.0,0.0,0.0,0.0,0.0,-0.258,0.0,0.0,0.0,0.0,0.0,0.0,0.03001747614826869,0.0,0.0,0.0,0.0,0.0,0.0,-21.808,0.0,0.0,0.0,0.0,0.0
257,0.0,-0.0827626953125,0.0,0.0,0.0,0.0,0.0,0.0,-0.111,0.0,0.0,0.0,0.0,0.0,0.0,0.060049444488358264,0.0,0.0,0.0,0.0,0.0,0.0,-14.196,0.0,0.0,0.0,0.0,0.0
258,0.0,-0.082248046875,0.0,0.0,0.0,0.0,0.0,0.0,-0.014,0.0,0.0,0.0,0.0,0.0,0.0,0.08964511397239897,0.0,0.0,0.0,0.0,0.0,0.0,-11.768,0.0,0.0,0.0,0.0,0.0
259,0.0,-0.081322265625,0.0,0.0,0.0,0.0,0.0,0.0,0.075,0.0,0.0,0.0,0.0,0.0,0.0,0.1191636321637916,0.0,0.0,0.0,0.0,0.0,0.0,-11.496,0.0,0.0,0.0,0.0,0.0
260,0.0,-0.0800869140625,0.0,0.0,0.0,0.0,0.0,0.0,0.096,0.0,0.0,0.0,0.0,0.0,0.0,0.14863142360196185,0.0,0.0,0.0,0.0,0.0,0.0,-9.392,0.0,0.0,0.0,0.0,0.0
261,0.0,-0.0774111328125,0.0,0.0,0.0,0.0,0.0,0.0,0.182,0.0,0.0,0.0,0.0,0.0,0.0,0.17731810978190257,0.0,0.0,0.0,0.0,0.0,0.0,-9.392,0.0,0.0,0.0,0.0,0.0
262,0.0,-0.0737001953125,0.0,0.0,0.0,0.0,0.0,0.0,0.314,0.0,0.0,0.0,0.0,0.0,0.0,0.20568205640063061,0.0,0.0,0.0,0.0,0.0,0.0,-11.496,0.0,0.0,0.0,0.0,0.0
263,0.0,-0.0686572265625,0.0,0.0,0.0,0.0,0.0,0.0,0.423,0.0,0.0,0.0,0.0,0.0,0.0,0.2339439251300512,0.0,0.0,0.0,0.0,0.0,0.0,-14.468,0.0,0.0,0.0,0.0,0.0
264,0.0,-0.06309375,0.0,0.0,0.0,0.0,0.0,0.0,0.536,0.0,0.0,0.0,0.0,0.0,0.0,0.26087925639028914,0.0,0.0,0.0,0.0,0.0,0.0,-18.192,0.0,0.0,0.0,0.0,0.0
265,0.0,-0.0576396484375,0.0,0.0,0.0,0.0,0.0,0.0,0.554,0.0,0.0,0.0,0.0,0.0,0.0,0.28771030776027323,0.0,0.0,0.0,0.0,0.0,0.0,-20.732,0.0,0.0,0.0,0.0,0.0
266,0.0,-0.0516650390625,0.0,0.0,0.0,0.0,0.0,0.0,0.574,0.0,0.0,0.0,0.0,0.0,0.0,0.3137145046745184,0.0,0.0,0.0,0.0,0.0,0.0,-24.724,0.0,0.0,0.0,0.0,0.0
267,0.0,-0.0461015625,0.0,0.0,0.0,0.0,0.0,0.0,0.584,0.0,0.0,0.0,0.0,0.0,0.0,0.33879287488123044,0.0,0.0,0.0,0.0,0.0,0.0,-31.692,0.0,0.0,0.0,0.0,0.0
268,0.0,-0.039919921875,0.0,0.0,0.0,0.0,0.0,0.0,0.577,0.0,0.0,0.0,0.0,0.0,0.0,0.363073396140817,0.0,0.0,0.0,0.0,0.0,0.0,-35.684,0.0,0.0,0.0,0.0,0.0
269,0.0,-0.0328193359375,0.0,0.0,0.0,0.0,0.0,0.0,0.662,0.0,0.0,0.0,0.0,0.0,0.0,0.3866315023325769,0.0,0.0,0.0,0.0,0.0,0.0,-36.064,0.0,0.0,0.0,0.0,0.0
270,0.0,-0.025712890625,0.0,0.0,0.0,0.0,0.0,0.0,0.705,0.0,0.0,0.0,0.0,0.0,0.0,0.4089415959377282,0.0,0.0,0.0,0.0,0.0,0.0,-34.604,0.0,0.0,0.0,0.0,0.0
271,0.0,-0.0187080078125,0.0,0.0,0.0,0.0,0.0,0.0,0.717,0.0,0.0,0.0,0.0,0.0,0.0,0.4302942187418837,0.0,0.0,0.0,0.0,0.0,0.0,-40.924,0.0,0.0,0.0,0.0,0.0
272,0.0,-0.0124248046875,0.0,0.0,0.0,0.0,0.0,0.0,0.675,0.0,0.0,0.0,0.0,0.0,0.0,0.4507957723433636,0.0,0.0,0.0,0.0,0.0,0.0,-47.132,0.0,0.0,0.0,0.0,0.0
273,0.0,-0.00594140625,0.0,0.0,0.0,0.0,0.0,0.0,0.631,0.0,0.0,0.0,0.0,0.0,0.0,0.4701060685391619,0.0,0.0,0.0,0.0,0.0,0.0,-45.296,0.0,0.0,0.0,0.0,0.0
274,0.0,0.000857421875,0.0,0.0,0.0,0.0,0.0,0.0,0.673,0.0,0.0,0.0,0.0,0.0,0.0,0.4881924835737592,0.0,0.0,0.0,0.0,0.0,0.0,-42.868,0.0,0.0,0.0,0.0,0.0
275,0.0,0.007140625,0.0,0.0,0.0,0.0,0.0,0.0,0.665,0.0,0.0,0.0,0.0,0.0,0.0,0.5050480048421752,0.0,0.0,0.0,0.0,0.0,0.0,-48.264,0.0,0.0,0.0,0.0,0.0
276,0.0,0.0137333984375,0.0,0.0,0.0,0.0,0.0,0.0,0.639,0.0,0.0,0.0,0.0,0.0,0.0,0.5204764119280999,0.0,0.0,0.0,0.0,0.0,0.0,-54.472,0.0,0.0,0.0,0.0,0.0
277,0.0,0.0201142578125,0.0,0.0,0.0,0.0,0.0,0.0,0.666,0.0,0.0,0.0,0.0,0.0,0.0,0.5347448930009401,0.0,0.0,0.0,0.0,0.0,0.0,-53.664,0.0,0.0,0.0,0.0,0.0
278,0.0,0.0258828125,0.0,0.0,0.0,0.0,0.0,0.0,0.609,0.0,0.0,0.0,0.0,0.0,0.0,0.5478320926416211,0.0,0.0,0.0,0.0,0.0,0.0,-50.264,0.0,0.0,0.0,0.0,0.0
279,0.0,0.0315498046875,0.0,0.0,0.0,0.0,0.0,0.0,0.575,0.0,0.0,0.0,0.0,0.0,0.0,0.5592680288820369,0.0,0.0,0.0,0.0,0.0,0.0,-55.228,0.0,0.0,0.0,0.0,0.0
280,0.0,0.0367978515625,0.0,0.0,0.0,0.0,0.0,0.0,0.556,0.0,0.0,0.0,0.0,0.0,0.0,0.5694313550079471,0.0,0.0,0.0,0.0,0.0,0.0,-59.116,0.0,0.0,0.0,0.0,0.0
281,0.0,0.0422587890625,0.0,0.0,0.0,0.0,0.0,0.0,0.536,0.0,0.0,0.0,0.0,0.0,0.0,0.5782174815355263,0.0,0.0,0.0,0.0,0.0,0.0,-57.172,0.0,0.0,0.0,0.0,0.0
282,0.0,0.0476162109375,0.0,0.0,0.0,0.0,0.0,0.0,0.549,0.0,0.0,0.0,0.0,0.0,0.0,0.5854911224815827,0.0,0.0,0.0,0.0,0.0,0.0,-53.988,0.0,0.0,0.0,0.0,0.0
283,0.0,0.0518359375,0.0,0.0,0.0,0.0,0.0,0.0,0.495,0.0,0.0,0.0,0.0,0.0,0.0,0.591347214096683,0.0,0.0,0.0,0.0,0.0,0.0,-56.956,0.0,0.0,0.0,0.0,0.0
284,0.0,0.0560546875,0.0,0.0,0.0,0.0,0.0,0.0,0.421,0.0,0.0,0.0,0.0,0.0,0.0,0.5956660517648553,0.0,0.0,0.0,0.0,0.0,0.0,-58.956,0.0,0.0,0.0,0.0,0.0
285,0.0,0.060177734375,0.0,0.0,0.0,0.0,0.0,0.0,0.424,0.0,0.0,0.0,0.0,0.0,0.0,0.59849252615856,0.0,0.0,0.0,0.0,0.0,0.0,-57.712,0.0,0.0,0.0,0.0,0.0
286,0.0,0.064087890625,0.0,0.0,0.0,0.0,0.0,0.0,0.398,0.0,0.0,0.0,0.0,0.0,0.0,0.5998714421219837,0.0,0.0,0.0,0.0,0.0,0.0,-53.396,0.0,0.0,0.0,0.0,0.0
287,0.0,0.0683134765625,0.0,0.0,0.0,0.0,0.0,0.0,0.408,0.0,0.0,0.0,0.0,0.0,0.0,0.5997352358704668,0.0,0.0,0.0,0.0,0.0,0.0,-51.504,0.0,0.0,0.0,0.0,0.0
288,0.0,0.0716064453125,0.0,0.0,0.0,0.0,0.0,0.0,0.39,0.0,0.0,0.0,0.0,0.0,0.0,0.598068618941913,0.0,0.0,0.0,0.0,0.0,0.0,-54.364,0.0,0.0,0.0,0.0,0.0
289,0.0,0.07459765625,0.0,0.0,0.0,0.0,0.0,0.0,0.313,0.0,0.0,0.0,0.0,0.0,0.0,0.5949977213424411,0.0,0.0,0.0,0.0,0.0,0.0,-53.232,0.0,0.0,0.0,0.0,0.0
290,0.0,0.0776845703125,0.0,0.0,0.0,0.0,0.0,0.0,0.307,0.0,0.0,0.0,0.0,0.0,0.0,0.59031126120644,0.0,0.0,0.0,0.0,0.0,0.0,-50.48,0.0,0.0,0.0,0.0,0.0
291,0.0,0.080154296875,0.0,0.0,0.0,0.0,0.0,0.0,0.283,0.0,0.0,0.0,0.0,0.0,0.0,0.5842779213322501,0.0,0.0,0.0,0.0,0.0,0.0,-46.644,0.0,0.0,0.0,0.0,0.0
292,0.0,0.0834541015625,0.0,0.0,0.0,0.0,0.0,0.0,0.281,0.0,0.0,0.0,0.0,0.0,0.0,0.5767750712325295,0.0,0.0,0.0,0.0,0.0,0.0,-44.324,0.0,0.0,0.0,0.0,0.0
293,0.0,0.0867470703125,0.0,0.0,0.0,0.0,0.0,0.0,0.337,0.0,0.0,0.0,0.0,0.0,0.0,0.5675944634865899,0.0,0.0,0.0,0.0,0.0,0.0,-45.188,0.0,0.0,0.0,0.0,0.0
294,0.0,0.0894228515625,0.0,0.0,0.0,0.0,0.0,0.0,0.302,0.0,0.0,0.0,0.0,0.0,0.0,0.5572991596494578,0.0,0.0,0.0,0.0,0.0,0.0,-45.456,0.0,0.0,0.0,0.0,0.0
295,0.0,0.092310546875,0.0,0.0,0.0,0.0,0.0,0.0,0.279,0.0,0.0,0.0,0.0,0.0,0.0,0.5454747072915345,0.0,0.0,0.0,0.0,0.0,0.0,-45.024,0.0,0.0,0.0,0.0,0.0
296,0.0,0.0947802734375,0.0,0.0,0.0,0.0,0.0,0.0,0.267,0.0,0.0,0.0,0.0,0.0,0.0,0.5322694827852951,0.0,0.0,0.0,0.0,0.0,0.0,-43.244,0.0,0.0,0.0,0.0,0.0
297,0.0,0.0977646484375,0.0,0.0,0.0,0.0,0.0,0.0,0.263,0.0,0.0,0.0,0.0,0.0,0.0,0.5178482134047424,0.0,0.0,0.0,0.0,0.0,0.0,-41.464,0.0,0.0,0.0,0.0,0.0
298,0.0,0.1011611328125,0.0,0.0,0.0,0.0,0.0,0.0,0.323,0.0,0.0,0.0,0.0,0.0,0.0,0.5020784736461938,0.0,0.0,0.0,0.0,0.0,0.0,-41.68,0.0,0.0,0.0,0.0,0.0
299,0.0,0.104357421875,0.0,0.0,0.0,0.0,0.0,0.0,0.337,0.0,0.0,0.0,0.0,0.0,0.0,0.484940686814332,0.0,0.0,0.0,0.0,0.0,0.0,-41.3,0.0,0.0,0.0,0.0,0.0
300,0.0,0.107541015625,0.0,0.0,0.0,0.0,0.0,0.0,0.321,0.0,0.0,0.0,0.0,0.0,0.0,0.46652510437561634,0.0,0.0,0.0,0.0,0.0,0.0,-40.652,0.0,0.0,0.0,0.0,0.0
301,0.0,0.110634765625,0.0,0.0,0.0,0.0,0.0,0.0,0.322,0.0,0.0,0.0,0.0,0.0,0.0,0.4474711801563423,0.0,0.0,0.0,0.0,0.0,0.0,-40.06,0.0,0.0,0.0,0.0,0.0
302,0.0,0.1137216796875,0.0,0.0,0.0,0.0,0.0,0.0,0.301,0.0,0.0,0.0,0.0,0.0,0.0,0.42675526085786414,0.0,0.0,0.0,0.0,0.0,0.0,-39.412,0.0,0.0,0.0,0.0,0.0
303,0.0,0.11732421875,0.0,0.0,0.0,0.0,0.0,0.0,0.331,0.0,0.0,0.0,0.0,0.0,0.0,0.4049639462619943,0.0,0.0,0.0,0.0,0.0,0.0,-39.68,0.0,0.0,0.0,0.0,0.0
304,0.0,0.1209326171875,0.0,0.0,0.0,0.0,0.0,0.0,0.362,0.0,0.0,0.0,0.0,0.0,0.0,0.38254089155187887,0.0,0.0,0.0,0.0,0.0,0.0,-39.952,0.0,0.0,0.0,0.0,0.0
305,0.0,0.1245341796875,0.0,0.0,0.0,0.0,0.0,0.0,0.359,0.0,0.0,0.0,0.0,0.0,0.0,0.35910276893471454,0.0,0.0,0.0,0.0,0.0,0.0,-39.788,0.0,0.0,0.0,0.0,0.0
306,0.0,0.12823828125,0.0,0.0,0.0,0.0,0.0,0.0,0.37,0.0,0.0,0.0,0.0,0.0,0.0,0.33357887427026345,0.0,0.0,0.0,0.0,0.0,0.0,-39.412,0.0,0.0,0.0,0.0,0.0
307,0.0,0.131744140625,0.0,0.0,0.0,0.0,0.0,0.0,0.366,0.0,0.0,0.0,0.0,0.0,0.0,0.3093137428133246,0.0,0.0,0.0,0.0,0.0,0.0,-38.708,0.0,0.0,0.0,0.0,0.0
308,0.0,0.1355517578125,0.0,0.0,0.0,0.0,0.0,0.0,0.367,0.0,0.0,0.0,0.0,0.0,0.0,0.2832764099514515,0.0,0.0,0.0,0.0,0.0,0.0,-38.924,0.0,0.0,0.0,0.0,0.0
309,0.0,0.1395712890625,0.0,0.0,0.0,0.0,0.0,0.0,0.39,0.0,0.0,0.0,0.0,0.0,0.0,0.2559397125489531,0.0,0.0,0.0,0.0,0.0,0.0,-40.06,0.0,0.0,0.0,0.0,0.0
310,0.0,0.1435849609375,0.0,0.0,0.0,0.0,0.0,0.0,0.399,0.0,0.0,0.0,0.0,0.0,0.0,0.22905225975691584,0.0,0.0,0.0,0.0,0.0,0.0,-40.436,0.0,0.0,0.0,0.0,0.0
311,0.0,0.1478173828125,0.0,0.0,0.0,0.0,0.0,0.0,0.416,0.0,0.0,0.0,0.0,0.0,0.0,0.20095059368834464,0.0,0.0,0.0,0.0,0.0,0.0,-41.192,0.0,0.0,0.0,0.0,0.0
312,0.0,0.15193359375,0.0,0.0,0.0,0.0,0.0,0.0,0.421,0.0,0.0,0.0,0.0,0.0,0.0,0.17200396912744473,0.0,0.0,0.0,0.0,0.0,0.0,-41.032,0.0,0.0,0.0,0.0,0.0
313,0.0,0.1563583984375,0.0,0.0,0.0,0.0,0.0,0.0,0.426,0.0,0.0,0.0,0.0,0.0,0.0,0.14363732304337407,0.0,0.0,0.0,0.0,0.0,0.0,-41.032,0.0,0.0,0.0,0.0,0.0
314,0.0,0.1607900390625,0.0,0.0,0.0,0.0,0.0,0.0,0.442,0.0,0.0,0.0,0.0,0.0,0.0,0.1143388023452727,0.0,0.0,0.0,0.0,0.0,0.0,-42.004,0.0,0.0,0.0,0.0,0.0
315,0.0,0.1651123046875,0.0,0.0,0.0,0.0,0.0,0.0,0.437,0.0,0.0,0.0,0.0,0.0,0.0,0.08414330554287562,0.0,0.0,0.0,0.0,0.0,0.0,-42.976,0.0,0.0,0.0,0.0,0.0
316,0.0,0.169029296875,0.0,0.0,0.0,0.0,0.0,0.0,0.427,0.0,0.0,0.0,0.0,0.0,0.0,0.05472026335452309,0.0,0.0,0.0,0.0,0.0,0.0,-48.696,0.0,0.0,0.0,0.0,0.0
317,0.0,0.1711904296875,0.0,0.0,0.0,0.0,0.0,0.0,0.328,0.0,0.0,0.0,0.0,0.0,0.0,0.02491229394600628,0.0,0.0,0.0,0.0,0.0,0.0,-61.656,0.0,0.0,0.0,0.0,0.0
318,0.0,0.172322265625,0.0,0.0,0.0,0.0,0.0,0.0,0.172,0.0,0.0,0.0,0.0,0.0,0.0,-0.005710568041526443,0.0,0.0,0.0,0.0,0.0,0.0,-71.428,0.0,0.0,0.0,0.0,0.0
319,0.0,0.1725283203125,0.0,0.0,0.0,0.0,0.0,0.0,0.077,0.0,0.0,0.0,0.0,0.0,0.0,-0.03531183868933995,0.0,0.0,0.0,0.0,0.0,0.0,-76.716,0.0,0.0,0.0,0.0,0.0
320,0.0,0.1718076171875,0.0,0.0,0.0,0.0,0.0,0.0,-0.029,0.0,0.0,0.0,0.0,0.0,0.0,-0.06495576207985501,0.0,0.0,0.0,0.0,0.0,0.0,-77.688,0.0,0.0,0.0,0.0,0.0
321,0.0,0.170984375,0.0,0.0,0.0,0.0,0.0,0.0,-0.07,0.0,0.0,0.0,0.0,0.0,0.0,-0.09497608593888525,0.0,0.0,0.0,0.0,0.0,0.0,-78.876,0.0,0.0,0.0,0.0,0.0
322,0.0,0.16892578125,0.0,0.0,0.0,0.0,0.0,0.0,-0.127,0.0,0.0,0.0,0.0,0.0,0.0,-0.12420578583128099,0.0,0.0,0.0,0.0,0.0,0.0,-79.956,0.0,0.0,0.0,0.0,0.0
323,0.0,0.1655234375,0.0,0.0,0.0,0.0,0.0,0.0,-0.273,0.0,0.0,0.0,0.0,0.0,0.0,-0.15328405549342752,0.0,0.0,0.0,0.0,0.0,0.0,-76.988,0.0,0.0,0.0,0.0,0.0
324,0.0,0.1613046875,0.0,0.0,0.0,0.0,0.0,0.0,-0.375,0.0,0.0,0.0,0.0,0.0,0.0,-0.18237925589431958,0.0,0.0,0.0,0.0,0.0,0.0,-71.968,0.0,0.0,0.0,0.0,0.0
325,0.0,0.1564677734375,0.0,0.0,0.0,0.0,0.0,0.0,-0.45,0.0,0.0,0.0,0.0,0.0,0.0,-0.21069175995685496,0.0,0.0,0.0,0.0,0.0,0.0,-64.892,0.0,0.0,0.0,0.0,0.0
326,0.0,0.1522421875,0.0,0.0,0.0,0.0,0.0,0.0,-0.469,0.0,0.0,0.0,0.0,0.0,0.0,-0.23825027549271055,0.0,0.0,0.0,0.0,0.0,0.0,-60.412,0.0,0.0,0.0,0.0,0.0
327,0.0,0.1480224609375,0.0,0.0,0.0,0.0,0.0,0.0,-0.419,0.0,0.0,0.0,0.0,0.0,0.0,-0.26583236031836277,0.0,0.0,0.0,0.0,0.0,0.0,-57.172,0.0,0.0,0.0,0.0,0.0
328,0.0,0.1432763671875,0.0,0.0,0.0,0.0,0.0,0.0,-0.445,0.0,0.0,0.0,0.0,0.0,0.0,-0.2923287931293067,0.0,0.0,0.0,0.0,0.0,0.0,-53.772,0.0,0.0,0.0,0.0,0.0
329,0.0,0.1380283203125,0.0,0.0,0.0,0.0,0.0,0.0,-0.5,0.0,0.0,0.0,0.0,0.0,0.0,-0.31795266232073344,0.0,0.0,0.0,0.0,0.0,0.0,-49.94,0.0,0.0,0.0,0.0,0.0
330,0.0,0.1327734375,0.0,0.0,0.0,0.0,0.0,0.0,-0.528,0.0,0.0,0.0,0.0,0.0,0.0,-0.3432049581148222,0.0,0.0,0.0,0.0,0.0,0.0,-46.808,0.0,0.0,0.0,0.0,0.0
331,0.0,0.12762109375,0.0,0.0,0.0,0.0,0.0,0.0,-0.532,0.0,0.0,0.0,0.0,0.0,0.0,-0.3675490495761731,0.0,0.0,0.0,0.0,0.0,0.0,-44.432,0.0,0.0,0.0,0.0,0.0
332,0.0,0.122990234375,0.0,0.0,0.0,0.0,0.0,0.0,-0.496,0.0,0.0,0.0,0.0,0.0,0.0,-0.39042718002902493,0.0,0.0,0.0,0.0,0.0,0.0,-43.944,0.0,0.0,0.0,0.0,0.0
333,0.0,0.1181474609375,0.0,0.0,0.0,0.0,0.0,0.0,-0.468,0.0,0.0,0.0,0.0,0.0,0.0,-0.41305563289137176,0.0,0.0,0.0,0.0,0.0,0.0,-44.0,0.0,0.0,0.0,0.0,0.0
334,0.0,0.113001953125,0.0,0.0,0.0,0.0,0.0,0.0,-0.505,0.0,0.0,0.0,0.0,0.0,0.0,-0.43442621375788226,0.0,0.0,0.0,0.0,0.0,0.0,-44.432,0.0,0.0,0.0,0.0,0.0
335,0.0,0.107541015625,0.0,0.0,0.0,0.0,0.0,0.0,-0.526,0.0,0.0,0.0,0.0,0.0,0.0,-0.4541814387138862,0.0,0.0,0.0,0.0,0.0,0.0,-46.052,0.0,0.0,0.0,0.0,0.0
336,0.0,0.101681640625,0.0,0.0,0.0,0.0,0.0,0.0,-0.571,0.0,0.0,0.0,0.0,0.0,0.0,-0.4746001989666103,0.0,0.0,0.0,0.0,0.0,0.0,-46.644,0.0,0.0,0.0,0.0,0.0
337,0.0,0.095912109375,0.0,0.0,0.0,0.0,0.0,0.0,-0.588,0.0,0.0,0.0,0.0,0.0,0.0,-0.49104220164700796,0.0,0.0,0.0,0.0,0.0,0.0,-47.024,0.0,0.0,0.0,0.0,0.0
338,0.0,0.0898349609375,0.0,0.0,0.0,0.0,0.0,0.0,-0.585,0.0,0.0,0.0,0.0,0.0,0.0,-0.5076175561551124,0.0,0.0,0.0,0.0,0.0,0.0,-49.076,0.0,0.0,0.0,0.0,0.0
339,0.0,0.08366015625,0.0,0.0,0.0,0.0,0.0,0.0,-0.62,0.0,0.0,0.0,0.0,0.0,0.0,-0.522946739852419,0.0,0.0,0.0,0.0,0.0,0.0,-49.076,0.0,0.0,0.0,0.0,0.0
340,0.0,0.0772734375,0.0,0.0,0.0,0.0,0.0,0.0,-0.625,0.0,0.0,0.0,0.0,0.0,0.0,-0.5370336836873472,0.0,0.0,0.0,0.0,0.0,0.0,-48.752,0.0,0.0,0.0,0.0,0.0
341,0.0,0.0702685546875,0.0,0.0,0.0,0.0,0.0,0.0,-0.672,0.0,0.0,0.0,0.0,0.0,0.0,-0.549641798609146,0.0,0.0,0.0,0.0,0.0,0.0,-48.104,0.0,0.0,0.0,0.0,0.0
342,0.0,0.063779296875,0.0,0.0,0.0,0.0,0.0,0.0,-0.698,0.0,0.0,0.0,0.0,0.0,0.0,-0.5610856694828238,0.0,0.0,0.0,0.0,0.0,0.0,-43.944,0.0,0.0,0.0,0.0,0.0
343,0.0,0.0579130859375,0.0,0.0,0.0,0.0,0.0,0.0,-0.621,0.0,0.0,0.0,0.0,0.0,0.0,-0.5710395547802198,0.0,0.0,0.0,0.0,0.0,0.0,-39.572,0.0,0.0,0.0,0.0,0.0
344,0.0,0.051732421875,0.0,0.0,0.0,0.0,0.0,0.0,-0.602,0.0,0.0,0.0,0.0,0.0,0.0,-0.5794637324759498,0.0,0.0,0.0,0.0,0.0,0.0,-39.088,0.0,0.0,0.0,0.0,0.0
345,0.0,0.0458603515625,0.0,0.0,0.0,0.0,0.0,0.0,-0.613,0.0,0.0,0.0,0.0,0.0,0.0,-0.5865458589517363,0.0,0.0,0.0,0.0,0.0,0.0,-39.088,0.0,0.0,0.0,0.0,0.0
346,0.0,0.039994140625,0.0,0.0,0.0,0.0,0.0,0.0,-0.589,0.0,0.0,0.0,0.0,0.0,0.0,-0.59214504876162,0.0,0.0,0.0,0.0,0.0,0.0,-36.604,0.0,0.0,0.0,0.0,0.0
347,0.0,0.0344306640625,0.0,0.0,0.0,0.0,0.0,0.0,-0.584,0.0,0.0,0.0,0.0,0.0,0.0,-0.5962142267517846,0.0,0.0,0.0,0.0,0.0,0.0,-32.068,0.0,0.0,0.0,0.0,0.0
348,0.0,0.0294853515625,0.0,0.0,0.0,0.0,0.0,0.0,-0.529,0.0,0.0,0.0,0.0,0.0,0.0,-0.5988417998137363,0.0,0.0,0.0,0.0,0.0,0.0,-33.148,0.0,0.0,0.0,0.0,0.0
349,0.0,0.0246484375,0.0,0.0,0.0,0.0,0.0,0.0,-0.494,0.0,0.0,0.0,0.0,0.0,0.0,-0.5999566281712145,0.0,0.0,0.0,0.0,0.0,0.0,-36.332,0.0,0.0,0.0,0.0,0.0
350,0.0,0.0200107421875,0.0,0.0,0.0,0.0,0.0,0.0,-0.483,0.0,0.0,0.0,0.0,0.0,0.0,-0.5995729742133439,0.0,0.0,0.0,0.0,0.0,0.0,-37.196,0.0,0.0,0.0,0.0,0.0
351,0.0,0.0157919921875,0.0,0.0,0.0,0.0,0.0,0.0,-0.444,0.0,0.0,0.0,0.0,0.0,0.0,-0.5976934952114137,0.0,0.0,0.0,0.0,0.0,0.0,-34.388,0.0,0.0,0.0,0.0,0.0
352,0.0,0.01156640625,0.0,0.0,0.0,0.0,0.0,0.0,-0.429,0.0,0.0,0.0,0.0,0.0,0.0,-0.5943057138363008,0.0,0.0,0.0,0.0,0.0,0.0,-33.848,0.0,0.0,0.0,0.0,0.0
353,0.0,0.0074501953125,0.0,0.0,0.0,0.0,0.0,0.0,-0.426,0.0,0.0,0.0,0.0,0.0,0.0,-0.5894664869413091,0.0,0.0,0.0,0.0,0.0,0.0,-37.844,0.0,0.0,0.0,0.0,0.0
354,0.0,0.0034365234375,0.0,0.0,0.0,0.0,0.0,0.0,-0.407,0.0,0.0,0.0,0.0,0.0,0.0,-0.5831771718054362,0.0,0.0,0.0,0.0,0.0,0.0,-41.464,0.0,0.0,0.0,0.0,0.0
355,0.0,-0.00048046875,0.0,0.0,0.0,0.0,0.0,0.0,-0.401,0.0,0.0,0.0,0.0,0.0,0.0,-0.5752855345989663,0.0,0.0,0.0,0.0,0.0,0.0,-39.68,0.0,0.0,0.0,0.0,0.0
356,0.0,-0.003876953125,0.0,0.0,0.0,0.0,0.0,0.0,-0.373,0.0,0.0,0.0,0.0,0.0,0.0,-0.5661360809108806,0.0,0.0,0.0,0.0,0.0,0.0,-36.224,0.0,0.0,0.0,0.0,0.0
357,0.0,-0.007279296875,0.0,0.0,0.0,0.0,0.0,0.0,-0.346,0.0,0.0,0.0,0.0,0.0,0.0,-0.5555364005188832,0.0,0.0,0.0,0.0,0.0,0.0,-37.088,0.0,0.0,0.0,0.0,0.0
358,0.0,-0.010572265625,0.0,0.0,0.0,0.0,0.0,0.0,-0.334,0.0,0.0,0.0,0.0,0.0,0.0,-0.5432704274891591,0.0,0.0,0.0,0.0,0.0,0.0,-40.492,0.0,0.0,0.0,0.0,0.0
359,0.0,-0.0139677734375,0.0,0.0,0.0,0.0,0.0,0.0,-0.329,0.0,0.0,0.0,0.0,0.0,0.0,-0.5300292764993646,0.0,0.0,0.0,0.0,0.0,0.0,-44.484,0.0,0.0,0.0,0.0,0.0
360,0.0,-0.017576171875,0.0,0.0,0.0,0.0,0.0,0.0,-0.355,0.0,0.0,0.0,0.0,0.0,0.0,-0.515277606714271,0.0,0.0,0.0,0.0,0.0,0.0,-45.024,0.0,0.0,0.0,0.0,0.0
361,0.0,-0.020869140625,0.0,0.0,0.0,0.0,0.0,0.0,-0.356,0.0,0.0,0.0,0.0,0.0,0.0,-0.49906773607814314,0.0,0.0,0.0,0.0,0.0,0.0,-43.404,0.0,0.0,0.0,0.0,0.0
362,0.0,-0.0238603515625,0.0,0.0,0.0,0.0,0.0,0.0,-0.313,0.0,0.0,0.0,0.0,0.0,0.0,-0.4820764451702735,0.0,0.0,0.0,0.0,0.0,0.0,-42.544,0.0,0.0,0.0,0.0,0.0
363,0.0,-0.0268447265625,0.0,0.0,0.0,0.0,0.0,0.0,-0.302,0.0,0.0,0.0,0.0,0.0,0.0,-0.4637083163475021,0.0,0.0,0.0,0.0,0.0,0.0,-43.728,0.0,0.0,0.0,0.0,0.0
364,0.0,-0.029931640625,0.0,0.0,0.0,0.0,0.0,0.0,-0.298,0.0,0.0,0.0,0.0,0.0,0.0,-0.4439493795692564,0.0,0.0,0.0,0.0,0.0,0.0,-46.104,0.0,0.0,0.0,0.0,0.0
365,0.0,-0.0335400390625,0.0,0.0,0.0,0.0,0.0,0.0,-0.334,0.0,0.0,0.0,0.0,0.0,0.0,-0.42313934687064764,0.0,0.0,0.0,0.0,0.0,0.0,-47.184,0.0,0.0,0.0,0.0,0.0
366,0.0,-0.0372451171875,0.0,0.0,0.0,0.0,0.0,0.0,-0.373,0.0,0.0,0.0,0.0,0.0,0.0,-0.40163076991122504,0.0,0.0,0.0,0.0,0.0,0.0,-47.024,0.0,0.0,0.0,0.0,0.0
367,0.0,-0.0405439453125,0.0,0.0,0.0,0.0,0.0,0.0,-0.355,0.0,0.0,0.0,0.0,0.0,0.0,-0.37867647897629825,0.0,0.0,0.0,0.0,0.0,0.0,-46.916,0.0,0.0,0.0,0.0,0.0
368,0.0,-0.0438369140625,0.0,0.0,0.0,0.0,0.0,0.0,-0.334,0.0,0.0,0.0,0.0,0.0,0.0,-0.35486991041841603,0.0,0.0,0.0,0.0,0.0,0.0,-46.376,0.0,0.0,0.0,0.0,0.0
369,0.0,-0.04702734375,0.0,0.0,0.0,0.0,0.0,0.0,-0.325,0.0,0.0,0.0,0.0,0.0,0.0,-0.3304486750309696,0.0,0.0,0.0,0.0,0.0,0.0,-46.16,0.0,0.0,0.0,0.0,0.0
370,0.0,-0.0506357421875,0.0,0.0,0.0,0.0,0.0,0.0,-0.337,0.0,0.0,0.0,0.0,0.0,0.0,-0.30481257724021976,0.0,0.0,0.0,0.0,0.0,0.0,-46.592,0.0,0.0,0.0,0.0,0.0
371,0.0,-0.0545458984375,0.0,0.0,0.0,0.0,0.0,0.0,-0.379,0.0,0.0,0.0,0.0,0.0,0.0,-0.2785754843276223,0.0,0.0,0.0,0.0,0.0,0.0,-46.808,0.0,0.0,0.0,0.0,0.0
372,0.0,-0.0583603515625,0.0,0.0,0.0,0.0,0.0,0.0,-0.393,0.0,0.0,0.0,0.0,0.0,0.0,-0.2517439399762622,0.0,0.0,0.0,0.0,0.0,0.0,-47.348,0.0,0.0,0.0,0.0,0.0
373,0.0,-0.0622705078125,0.0,0.0,0.0,0.0,0.0,0.0,-0.387,0.0,0.0,0.0,0.0,0.0,0.0,-0.22388326491809857,0.0,0.0,0.0,0.0,0.0,0.0,-47.456,0.0,0.0,0.0,0.0,0.0
374,0.0,-0.06587890625,0.0,0.0,0.0,0.0,0.0,0.0,-0.38,0.0,0.0,0.0,0.0,0.0,0.0,-0.1960143898124765,0.0,0.0,0.0,0.0,0.0,0.0,-47.184,0.0,0.0,0.0,0.0,0.0
375,0.0,-0.069583984375,0.0,0.0,0.0,0.0,0.0,0.0,-0.369,0.0,0.0,0.0,0.0,0.0,0.0,-0.16751386377540042,0.0,0.0,0.0,0.0,0.0,0.0,-46.592,0.0,0.0,0.0,0.0,0.0
376,0.0,-0.0737001953125,0.0,0.0,0.0,0.0,0.0,0.0,-0.391,0.0,0.0,0.0,0.0,0.0,0.0,-0.13829928423824045,0.0,0.0,0.0,0.0,0.0,0.0,-45.944,0.0,0.0,0.0,0.0,0.0
377,0.0,-0.0778232421875,0.0,0.0,0.0,0.0,0.0,0.0,-0.414,0.0,0.0,0.0,0.0,0.0,0.0,-0.10922708855115636,0.0,0.0,0.0,0.0,0.0,0.0,-45.944,0.0,0.0,0.0,0.0,0.0
378,0.0,-0.0821455078125,0.0,0.0,0.0,0.0,0.0,0.0,-0.422,0.0,0.0,0.0,0.0,0.0,0.0,-0.07960348695923582,0.0,0.0,0.0,0.0,0.0,0.0,-46.104,0.0,0.0,0.0,0.0,0.0
379,0.0,-0.0861650390625,0.0,0.0,0.0,0.0,0.0,0.0,-0.424,0.0,0.0,0.0,0.0,0.0,0.0,-0.0495699201615111,0.0,0.0,0.0,0.0,0.0,0.0,-45.944,0.0,0.0,0.0,0.0,0.0
380,0.0,-0.0901787109375,0.0,0.0,0.0,0.0,0.0,0.0,-0.403,0.0,0.0,0.0,0.0,0.0,0.0,-0.019332056996370084,0.0,0.0,0.0,0.0,0.0,0.0,-45.62,0.0,0.0,0.0,0.0,0.0
381,0.0,-0.09368359375,0.0,0.0,0.0,0.0,0.0,0.0,-0.39,0.0,0.0,0.0,0.0,0.0,0.0,0.01007615405369952,0.0,0.0,0.0,0.0,0.0,0.0,-40.168,0.0,0.0,0.0,0.0,0.0
382,0.0,-0.0957421875,0.0,0.0,0.0,0.0,0.0,0.0,-0.297,0.0,0.0,0.0,0.0,0.0,0.0,5.435943596079082e-05,0.0,0.0,0.0,0.0,0.0,0.0,-27.372,0.0,0.0,0.0,0.0,0.0
383,0.0,-0.0965654296875,0.0,0.0,0.0,0.0,0.0,0.0,-0.149,0.0,0.0,0.0,0.0,0.0,0.0,0.030437512457746563,0.0,0.0,0.0,0.0,0.0,0.0,-17.112,0.0,0.0,0.0,0.0,0.0
384,0.0,-0.0965654296875,0.0,0.0,0.0,0.0,0.0,0.0,-0.053,0.0,0.0,0.0,0.0,0.0,0.0,0.05967011518915513,0.0,0.0,0.0,0.0,0.0,0.0,-12.036,0.0,0.0,0.0,0.0,0.0
385,0.0,-0.095638671875,0.0,0.0,0.0,0.0,0.0,0.0,0.04,0.0,0.0,0.0,0.0,0.0,0.0,0.08950578770647279,0.0,0.0,0.0,0.0,0.0,0.0,-11.172,0.0,0.0,0.0,0.0,0.0
386,0.0,-0.094712890625,0.0,0.0,0.0,0.0,0.0,0.0,0.09,0.0,0.0,0.0,0.0,0.0,0.0,0.11931364387154843,0.0,0.0,0.0,0.0,0.0,0.0,-10.04,0.0,0.0,0.0,0.0,0.0
387,0.0,-0.0925517578125,0.0,0.0,0.0,0.0,0.0,0.0,0.139,0.0,0.0,0.0,0.0,0.0,0.0,0.14814629810038918,0.0,0.0,0.0,0.0,0.0,0.0,-9.176,0.0,0.0,0.0,0.0,0.0
388,0.0,-0.089251953125,0.0,0.0,0.0,0.0,0.0,0.0,0.264,0.0,0.0,0.0,0.0,0.0,0.0,0.1772921439074716,0.0,0.0,0.0,0.0,0.0,0.0,-11.172,0.0,0.0,0.0,0.0,0.0
389,0.0,-0.085033203125,0.0,0.0,0.0,0.0,0.0,0.0,0.366,0.0,0.0,0.0,0.0,0.0,0.0,0.2058097152320865,0.0,0.0,0.0,0.0,0.0,0.0,-13.98,0.0,0.0,0.0,0.0,0.0
390,0.0,-0.079572265625,0.0,0.0,0.0,0.0,0.0,0.0,0.484,0.0,0.0,0.0,0.0,0.0,0.0,0.23361785444268326,0.0,0.0,0.0,0.0,0.0,0.0,-17.436,0.0,0.0,0.0,0.0,0.0
391,0.0,-0.0740087890625,0.0,0.0,0.0,0.0,0.0,0.0,0.555,0.0,0.0,0.0,0.0,0.0,0.0,0.2607794152650188,0.0,0.0,0.0,0.0,0.0,0.0,-20.568,0.0,0.0,0.0,0.0,0.0
392,0.0,-0.06824609375,0.0,0.0,0.0,0.0,0.0,0.0,0.558,0.0,0.0,0.0,0.0,0.0,0.0,0.2876105046288849,0.0,0.0,0.0,0.0,0.0,0.0,-22.456,0.0,0.0,0.0,0.0,0.0
393,0.0,-0.0624765625,0.0,0.0,0.0,0.0,0.0,0.0,0.588,0.0,0.0,0.0,0.0,0.0,0.0,0.3137071882620162,0.0,0.0,0.0,0.0,0.0,0.0,-28.236,0.0,0.0,0.0,0.0,0.0
394,0.0,-0.05670703125,0.0,0.0,0.0,0.0,0.0,0.0,0.574,0.0,0.0,0.0,0.0,0.0,0.0,0.33862992822489935,0.0,0.0,0.0,0.0,0.0,0.0,-32.824,0.0,0.0,0.0,0.0,0.0
395,0.0,-0.0499150390625,0.0,0.0,0.0,0.0,0.0,0.0,0.618,0.0,0.0,0.0,0.0,0.0,0.0,0.3631143943641446,0.0,0.0,0.0,0.0,0.0,0.0,-35.308,0.0,0.0,0.0,0.0,0.0
396,0.0,-0.043013671875,0.0,0.0,0.0,0.0,0.0,0.0,0.694,0.0,0.0,0.0,0.0,0.0,0.0,0.3865746158918437,0.0,0.0,0.0,0.0,0.0,0.0,-36.388,0.0,0.0,0.0,0.0,0.0
397,0.0,-0.0359072265625,0.0,0.0,0.0,0.0,0.0,0.0,0.699,0.0,0.0,0.0,0.0,0.0,0.0,0.40907765793285095,0.0,0.0,0.0,0.0,0.0,0.0,-38.06,0.0,0.0,0.0,0.0,0.0
398,0.0,-0.0291083984375,0.0,0.0,0.0,0.0,0.0,0.0,0.706,0.0,0.0,0.0,0.0,0.0,0.0,0.4304412407897746,0.0,0.0,0.0,0.0,0.0,0.0,-44.108,0.0,0.0,0.0,0.0,0.0
399,0.0,-0.0228310546875,0.0,0.0,0.0,0.0,0.0,0.0,0.66,0.0,0.0,0.0,0.0,0.0,0.0,0.45064752668281577,0.0,0.0,0.0,0.0,0.0,0.0,-46.104,0.0,0.0,0.0,0.0,0.0
400,0.0,-0.016033203125,0.0,0.0,0.0,0.0,0.0,0.0,0.647,0.0,0.0,0.0,0.0,0.0,0.0,0.4699927133666446,0.0,0.0,0.0,0.0,0.0,0.0,-44.648,0.0,0.0,0.0,0.0,0.0
401,0.0,-0.0094404296875,0.0,0.0,0.0,0.0,0.0,0.0,0.682,0.0,0.0,0.0,0.0,0.0,0.0,0.4882361401542794,0.0,0.0,0.0,0.0,0.0,0.0,-46.808,0.0,0.0,0.0,0.0,0.0
402,0.0,-0.00315625,0.0,0.0,0.0,0.0,0.0,0.0,0.644,0.0,0.0,0.0,0.0,0.0,0.0,0.5048049763925366,0.0,0.0,0.0,0.0,0.0,0.0,-51.288,0.0,0.0,0.0,0.0,0.0
403,0.0,0.0035390625,0.0,0.0,0.0,0.0,0.0,0.0,0.65,0.0,0.0,0.0,0.0,0.0,0.0,0.5204315697341657,0.0,0.0,0.0,0.0,0.0,0.0,-53.396,0.0,0.0,0.0,0.0,0.0
404,0.0,0.0094052734375,0.0,0.0,0.0,0.0,0.0,0.0,0.646,0.0,0.0,0.0,0.0,0.0,0.0,0.5348279117500182,0.0,0.0,0.0,0.0,0.0,0.0,-52.208,0.0,0.0,0.0,0.0,0.0
405,0.0,0.015173828125,0.0,0.0,0.0,0.0,0.0,0.0,0.584,0.0,0.0,0.0,0.0,0.0,0.0,0.5476940268348033,0.0,0.0,0.0,0.0,0.0,0.0,-54.528,0.0,0.0,0.0,0.0,0.0
406,0.0,0.0207314453125,0.0,0.0,0.0,0.0,0.0,0.0,0.57,0.0,0.0,0.0,0.0,0.0,0.0,0.5592452301319293,0.0,0.0,0.0,0.0,0.0,0.0,-58.144,0.0,0.0,0.0,0.0,0.0
407,0.0,0.0258828125,0.0,0.0,0.0,0.0,0.0,0.0,0.542,0.0,0.0,0.0,0.0,0.0,0.0,0.5694277486567509,0.0,0.0,0.0,0.0,0.0,0.0,-57.496,0.0,0.0,0.0,0.0,0.0
408,0.0,0.0314462890625,0.0,0.0,0.0,0.0,0.0,0.0,0.538,0.0,0.0,0.0,0.0,0.0,0.0,0.5781790789306116,0.0,0.0,0.0,0.0,0.0,0.0,-54.636,0.0,0.0,0.0,0.0,0.0
409,0.0,0.036283203125,0.0,0.0,0.0,0.0,0.0,0.0,0.534,0.0,0.0,0.0,0.0,0.0,0.0,0.5853814791210696,0.0,0.0,0.0,0.0,0.0,0.0,-56.092,0.0,0.0,0.0,0.0,0.0
410,0.0,0.0403037109375,0.0,0.0,0.0,0.0,0.0,0.0,0.446,0.0,0.0,0.0,0.0,0.0,0.0,0.5912723761909726,0.0,0.0,0.0,0.0,0.0,0.0,-59.332,0.0,0.0,0.0,0.0,0.0
411,0.0,0.0445224609375,0.0,0.0,0.0,0.0,0.0,0.0,0.416,0.0,0.0,0.0,0.0,0.0,0.0,0.5956176907580706,0.0,0.0,0.0,0.0,0.0,0.0,-59.224,0.0,0.0,0.0,0.0,0.0
412,0.0,0.0483369140625,0.0,0.0,0.0,0.0,0.0,0.0,0.404,0.0,0.0,0.0,0.0,0.0,0.0,0.5984819175103844,0.0,0.0,0.0,0.0,0.0,0.0,-54.904,0.0,0.0,0.0,0.0,0.0
413,0.0,0.052453125,0.0,0.0,0.0,0.0,0.0,0.0,0.391,0.0,0.0,0.0,0.0,0.0,0.0,0.5998705819617625,0.0,0.0,0.0,0.0,0.0,0.0,-51.072,0.0,0.0,0.0,0.0,0.0
414,0.0,0.0563701171875,0.0,0.0,0.0,0.0,0.0,0.0,0.415,0.0,0.0,0.0,0.0,0.0,0.0,0.5997330856517363,0.0,0.0,0.0,0.0,0.0,0.0,-53.124,0.0,0.0,0.0,0.0,0.0
415,0.0,0.05945703125,0.0,0.0,0.0,0.0,0.0,0.0,0.359,0.0,0.0,0.0,0.0,0.0,0.0,0.5981286998834687,0.0,0.0,0.0,0.0,0.0,0.0,-54.744,0.0,0.0,0.0,0.0,0.0
416,0.0,0.0623388671875,0.0,0.0,0.0,0.0,0.0,0.0,0.294,0.0,0.0,0.0,0.0,0.0,0.0,0.5950289175223259,0.0,0.0,0.0,0.0,0.0,0.0,-53.288,0.0,0.0,0.0,0.0,0.0
417,0.0,0.06480859375,0.0,0.0,0.0,0.0,0.0,0.0,0.279,0.0,0.0,0.0,0.0,0.0,0.0,0.590393148954633,0.0,0.0,0.0,0.0,0.0,0.0,-48.912,0.0,0.0,0.0,0.0,0.0
418,0.0,0.0676962890625,0.0,0.0,0.0,0.0,0.0,0.0,0.259,0.0,0.0,0.0,0.0,0.0,0.0,0.58430848752253,0.0,0.0,0.0,0.0,0.0,0.0,-44.648,0.0,0.0,0.0,0.0,0.0
419,0.0,0.0712978515625,0.0,0.0,0.0,0.0,0.0,0.0,0.32,0.0,0.0,0.0,0.0,0.0,0.0,0.5767989114439266,0.0,0.0,0.0,0.0,0.0,0.0,-44.108,0.0,0.0,0.0,0.0,0.0
420,0.0,0.0742890625,0.0,0.0,0.0,0.0,0.0,0.0,0.338,0.0,0.0,0.0,0.0,0.0,0.0,0.5677507995917105,0.0,0.0,0.0,0.0,0.0,0.0,-44.864,0.0,0.0,0.0,0.0,0.0
421,0.0,0.0770673828125,0.0,0.0,0.0,0.0,0.0,0.0,0.294,0.0,0.0,0.0,0.0,0.0,0.0,0.5573823316119749,0.0,0.0,0.0,0.0,0.0,0.0,-45.564,0.0,0.0,0.0,0.0,0.0
422,0.0,0.0796396484375,0.0,0.0,0.0,0.0,0.0,0.0,0.274,0.0,0.0,0.0,0.0,0.0,0.0,0.5456955516308677,0.0,0.0,0.0,0.0,0.0,0.0,-44.7,0.0,0.0,0.0,0.0,0.0
423,0.0,0.0820068359375,0.0,0.0,0.0,0.0,0.0,0.0,0.241,0.0,0.0,0.0,0.0,0.0,0.0,0.532323282960724,0.0,0.0,0.0,0.0,0.0,0.0,-42.164,0.0,0.0,0.0,0.0,0.0
424,0.0,0.085306640625,0.0,0.0,0.0,0.0,0.0,0.0,0.275,0.0,0.0,0.0,0.0,0.0,0.0,0.5181041559402091,0.0,0.0,0.0,0.0,0.0,0.0,-40.76,0.0,0.0,0.0,0.0,0.0
425,0.0,0.088599609375,0.0,0.0,0.0,0.0,0.0,0.0,0.336,0.0,0.0,0.0,0.0,0.0,0.0,0.5022260604758609,0.0,0.0,0.0,0.0,0.0,0.0,-41.084,0.0,0.0,0.0,0.0,0.0
426,0.0,0.091892578125,0.0,0.0,0.0,0.0,0.0,0.0,0.331,0.0,0.0,0.0,0.0,0.0,0.0,0.4849457409974051,0.0,0.0,0.0,0.0,0.0,0.0,-41.032,0.0,0.0,0.0,0.0,0.0
427,0.0,0.0950888671875,0.0,0.0,0.0,0.0,0.0,0.0,0.328,0.0,0.0,0.0,0.0,0.0,0.0,0.46688875544658665,0.0,0.0,0.0,0.0,0.0,0.0,-40.816,0.0,0.0,0.0,0.0,0.0
428,0.0,0.0980732421875,0.0,0.0,0.0,0.0,0.0,0.0,0.31,0.0,0.0,0.0,0.0,0.0,0.0,0.44753073689152645,0.0,0.0,0.0,0.0,0.0,0.0,-39.896,0.0,0.0,0.0,0.0,0.0
429,0.0,0.101373046875,0.0,0.0,0.0,0.0,0.0,0.0,0.309,0.0,0.0,0.0,0.0,0.0,0.0,0.42676129411310365,0.0,0.0,0.0,0.0,0.0,0.0,-39.464,0.0,0.0,0.0,0.0,0.0
430,0.0,0.10496875,0.0,0.0,0.0,0.0,0.0,0.0,0.349,0.0,0.0,0.0,0.0,0.0,0.0,0.4051407161380322,0.0,0.0,0.0,0.0,0.0,0.0,-40.168,0.0,0.0,0.0,0.0,0.0
431,0.0,0.1084677734375,0.0,0.0,0.0,0.0,0.0,0.0,0.353,0.0,0.0,0.0,0.0,0.0,0.0,0.38290114802605435,0.0,0.0,0.0,0.0,0.0,0.0,-39.896,0.0,0.0,0.0,0.0,0.0
432,0.0,0.11228125,0.0,0.0,0.0,0.0,0.0,0.0,0.364,0.0,0.0,0.0,0.0,0.0,0.0,0.35909531982377,0.0,0.0,0.0,0.0,0.0,0.0,-39.412,0.0,0.0,0.0,0.0,0.0
433,0.0,0.1158828125,0.0,0.0,0.0,0.0,0.0,0.0,0.377,0.0,0.0,0.0,0.0,0.0,0.0,0.33441549483395344,0.0,0.0,0.0,0.0,0.0,0.0,-39.032,0.0,0.0,0.0,0.0,0.0
434,0.0,0.119697265625,0.0,0.0,0.0,0.0,0.0,0.0,0.367,0.0,0.0,0.0,0.0,0.0,0.0,0.3094032193864017,0.0,0.0,0.0,0.0,0.0,0.0,-38.384,0.0,0.0,0.0,0.0,0.0
435,0.0,0.1237109375,0.0,0.0,0.0,0.0,0.0,0.0,0.391,0.0,0.0,0.0,0.0,0.0,0.0,0.28274978579865134,0.0,0.0,0.0,0.0,0.0,0.0,-39.736,0.0,0.0,0.0,0.0,0.0
436,0.0,0.1275185546875,0.0,0.0,0.0,0.0,0.0,0.0,0.394,0.0,0.0,0.0,0.0,0.0,0.0,0.2563355579675823,0.0,0.0,0.0,0.0,0.0,0.0,-40.328,0.0,0.0,0.0,0.0,0.0
437,0.0,0.131640625,0.0,0.0,0.0,0.0,0.0,0.0,0.399,0.0,0.0,0.0,0.0,0.0,0.0,0.22922346989707354,0.0,0.0,0.0,0.0,0.0,0.0,-40.6,0.0,0.0,0.0,0.0,0.0
438,0.0,0.1357578125,0.0,0.0,0.0,0.0,0.0,0.0,0.417,0.0,0.0,0.0,0.0,0.0,0.0,0.1986420035811152,0.0,0.0,0.0,0.0,0.0,0.0,-40.708,0.0,0.0,0.0,0.0,0.0
439,0.0,0.1400859375,0.0,0.0,0.0,0.0,0.0,0.0,0.422,0.0,0.0,0.0,0.0,0.0,0.0,0.17256714988666333,0.0,0.0,0.0,0.0,0.0,0.0,-40.816,0.0,0.0,0.0,0.0,0.0
440,0.0,0.1446201171875,0.0,0.0,0.0,0.0,0.0,0.0,0.445,0.0,0.0,0.0,0.0,0.0,0.0,0.1436456565201366,0.0,0.0,0.0,0.0,0.0,0.0,-41.732,0.0,0.0,0.0,0.0,0.0
441,0.0,0.1490517578125,0.0,0.0,0.0,0.0,0.0,0.0,0.451,0.0,0.0,0.0,0.0,0.0,0.0,0.11421241299817296,0.0,0.0,0.0,0.0,0.0,0.0,-43.404,0.0,0.0,0.0,0.0,0.0
442,0.0,0.1533740234375,0.0,0.0,0.0,0.0,0.0,0.0,0.439,0.0,0.0,0.0,0.0,0.0,0.0,0.08472822742290538,0.0,0.0,0.0,0.0,0.0,0.0,-44.052,0.0,0.0,0.0,0.0,0.0
443,0.0,0.157599609375,0.0,0.0,0.0,0.0,0.0,0.0,0.439,0.0,0.0,0.0,0.0,0.0,0.0,0.05493821584347519,0.0,0.0,0.0,0.0,0.0,0.0,-47.132,0.0,0.0,0.0,0.0,0.0
444,0.0,0.1600693359375,0.0,0.0,0.0,0.0,0.0,0.0,0.352,0.0,0.0,0.0,0.0,0.0,0.0,0.024939450200095813,0.0,0.0,0.0,0.0,0.0,0.0,-59.064,0.0,0.0,0.0,0.0,0.0
445,0.0,0.1614072265625,0.0,0.0,0.0,0.0,0.0,0.0,0.2,0.0,0.0,0.0,0.0,0.0,0.0,-0.004861592502197121,0.0,0.0,0.0,0.0,0.0,0.0,-70.024,0.0,0.0,0.0,0.0,0.0
446,0.0,0.1618193359375,0.0,0.0,0.0,0.0,0.0,0.0,0.1,0.0,0.0,0.0,0.0,0.0,0.0,-0.03489627293915051,0.0,0.0,0.0,0.0,0.0,0.0,-76.34,0.0,0.0,0.0,0.0,0.0
447,0.0,0.161201171875,0.0,0.0,0.0,0.0,0.0,0.0,-0.01,0.0,0.0,0.0,0.0,0.0,0.0,-0.06484270365614729,0.0,0.0,0.0,0.0,0.0,0.0,-77.528,0.0,0.0,0.0,0.0,0.0
448,0.0,0.1604814453125,0.0,0.0,0.0,0.0,0.0,0.0,-0.065,0.0,0.0,0.0,0.0,0.0,0.0,-0.09480729123537202,0.0,0.0,0.0,0.0,0.0,0.0,-78.66,0.0,0.0,0.0,0.0,0.0
449,0.0,0.15862890625,0.0,0.0,0.0,0.0,0.0,0.0,-0.11,0.0,0.0,0.0,0.0,0.0,0.0,-0.12397415477638685,0.0,0.0,0.0,0.0,0.0,0.0,-79.364,0.0,0.0,0.0,0.0,0.0
450,0.0,0.1554326171875,0.0,0.0,0.0,0.0,0.0,0.0,-0.25,0.0,0.0,0.0,0.0,0.0,0.0,-0.15353644604783048,0.0,0.0,0.0,0.0,0.0,0.0,-76.716,0.0,0.0,0.0,0.0,0.0
451,0.0,0.15131640625,0.0,0.0,0.0,0.0,0.0,0.0,-0.355,0.0,0.0,0.0,0.0,0.0,0.0,-0.18206237129776784,0.0,0.0,0.0,0.0,0.0,0.0,-72.236,0.0,0.0,0.0,0.0,0.0
452,0.0,0.14647265625,0.0,0.0,0.0,0.0,0.0,0.0,-0.444,0.0,0.0,0.0,0.0,0.0,0.0,-0.21017800676173876,0.0,0.0,0.0,0.0,0.0,0.0,-65.704,0.0,0.0,0.0,0.0,0.0
453,0.0,0.1419384765625,0.0,0.0,0.0,0.0,0.0,0.0,-0.482,0.0,0.0,0.0,0.0,0.0,0.0,-0.2400332504115762,0.0,0.0,0.0,0.0,0.0,0.0,-61.008,0.0,0.0,0.0,0.0,0.0
454,0.0,0.137609375,0.0,0.0,0.0,0.0,0.0,0.0,-0.44,0.0,0.0,0.0,0.0,0.0,0.0,-0.2654481999041761,0.0,0.0,0.0,0.0,0.0,0.0,-58.576,0.0,0.0,0.0,0.0,0.0
455,0.0,0.132978515625,0.0,0.0,0.0,0.0,0.0,0.0,-0.448,0.0,0.0,0.0,0.0,0.0,0.0,-0.2920251786993541,0.0,0.0,0.0,0.0,0.0,0.0,-55.444,0.0,0.0,0.0,0.0,0.0
456,0.0,0.1279296875,0.0,0.0,0.0,0.0,0.0,0.0,-0.487,0.0,0.0,0.0,0.0,0.0,0.0,-0.3179908753620019,0.0,0.0,0.0,0.0,0.0,0.0,-51.936,0.0,0.0,0.0,0.0,0.0
457,0.0,0.1225791015625,0.0,0.0,0.0,0.0,0.0,0.0,-0.52,0.0,0.0,0.0,0.0,0.0,0.0,-0.3428481623119282,0.0,0.0,0.0,0.0,0.0,0.0,-48.104,0.0,0.0,0.0,0.0,0.0
458,0.0,0.117220703125,0.0,0.0,0.0,0.0,0.0,0.0,-0.544,0.0,0.0,0.0,0.0,0.0,0.0,-0.36708868715003373,0.0,0.0,0.0,0.0,0.0,0.0,-44.592,0.0,0.0,0.0,0.0,0.0
459,0.0,0.112384765625,0.0,0.0,0.0,0.0,0.0,0.0,-0.517,0.0,0.0,0.0,0.0,0.0,0.0,-0.39032506529710087,0.0,0.0,0.0,0.0,0.0,0.0,-43.62,0.0,0.0,0.0,0.0,0.0
460,0.0,0.1073349609375,0.0,0.0,0.0,0.0,0.0,0.0,-0.493,0.0,0.0,0.0,0.0,0.0,0.0,-0.4126206895051549,0.0,0.0,0.0,0.0,0.0,0.0,-44.324,0.0,0.0,0.0,0.0,0.0
461,0.0,0.1021962890625,0.0,0.0,0.0,0.0,0.0,0.0,-0.514,0.0,0.0,0.0,0.0,0.0,0.0,-0.433821890400155,0.0,0.0,0.0,0.0,0.0,0.0,-44.916,0.0,0.0,0.0,0.0,0.0
462,0.0,0.0968388671875,0.0,0.0,0.0,0.0,0.0,0.0,-0.521,0.0,0.0,0.0,0.0,0.0,0.0,-0.4539677766676381,0.0,0.0,0.0,0.0,0.0,0.0,-45.456,0.0,0.0,0.0,0.0,0.0
463,0.0,0.090966796875,0.0,0.0,0.0,0.0,0.0,0.0,-0.563,0.0,0.0,0.0,0.0,0.0,0.0,-0.47659213067183254,0.0,0.0,0.0,0.0,0.0,0.0,-45.456,0.0,0.0,0.0,0.0,0.0
464,0.0,0.0851005859375,0.0,0.0,0.0,0.0,0.0,0.0,-0.594,0.0,0.0,0.0,0.0,0.0,0.0,-0.4909924634533262,0.0,0.0,0.0,0.0,0.0,0.0,-47.292,0.0,0.0,0.0,0.0,0.0
465,0.0,0.0790224609375,0.0,0.0,0.0,0.0,0.0,0.0,-0.596,0.0,0.0,0.0,0.0,0.0,0.0,-0.5075695029856994,0.0,0.0,0.0,0.0,0.0,0.0,-49.292,0.0,0.0,0.0,0.0,0.0
466,0.0,0.072841796875,0.0,0.0,0.0,0.0,0.0,0.0,-0.622,0.0,0.0,0.0,0.0,0.0,0.0,-0.5230308766469338,0.0,0.0,0.0,0.0,0.0,0.0,-47.564,0.0,0.0,0.0,0.0,0.0
467,0.0,0.0666669921875,0.0,0.0,0.0,0.0,0.0,0.0,-0.617,0.0,0.0,0.0,0.0,0.0,0.0,-0.53692933944048,0.0,0.0,0.0,0.0,0.0,0.0,-47.24,0.0,0.0,0.0,0.0,0.0
468,0.0,0.0596630859375,0.0,0.0,0.0,0.0,0.0,0.0,-0.662,0.0,0.0,0.0,0.0,0.0,0.0,-0.5497633448469114,0.0,0.0,0.0,0.0,0.0,0.0,-48.372,0.0,0.0,0.0,0.0,0.0
469,0.0,0.0531728515625,0.0,0.0,0.0,0.0,0.0,0.0,-0.692,0.0,0.0,0.0,0.0,0.0,0.0,-0.5610283819862408,0.0,0.0,0.0,0.0,0.0,0.0,-44.592,0.0,0.0,0.0,0.0,0.0
470,0.0,0.04730078125,0.0,0.0,0.0,0.0,0.0,0.0,-0.617,0.0,0.0,0.0,0.0,0.0,0.0,-0.5709437615548545,0.0,0.0,0.0,0.0,0.0,0.0,-39.032,0.0,0.0,0.0,0.0,0.0
471,0.0,0.041126953125,0.0,0.0,0.0,0.0,0.0,0.0,-0.606,0.0,0.0,0.0,0.0,0.0,0.0,-0.579426610091761,0.0,0.0,0.0,0.0,0.0,0.0,-37.304,0.0,0.0,0.0,0.0,0.0
472,0.0,0.0354599609375,0.0,0.0,0.0,0.0,0.0,0.0,-0.604,0.0,0.0,0.0,0.0,0.0,0.0,-0.5865149645003663,0.0,0.0,0.0,0.0,0.0,0.0,-38.708,0.0,0.0,0.0,0.0,0.0
473,0.0,0.029697265625,0.0,0.0,0.0,0.0,0.0,0.0,-0.575,0.0,0.0,0.0,0.0,0.0,0.0,-0.5920572499352349,0.0,0.0,0.0,0.0,0.0,0.0,-37.792,0.0,0.0,0.0,0.0,0.0
474,0.0,0.0241337890625,0.0,0.0,0.0,0.0,0.0,0.0,-0.579,0.0,0.0,0.0,0.0,0.0,0.0,-0.5961815869109939,0.0,0.0,0.0,0.0,0.0,0.0,-33.04,0.0,0.0,0.0,0.0,0.0
475,0.0,0.0193935546875,0.0,0.0,0.0,0.0,0.0,0.0,-0.517,0.0,0.0,0.0,0.0,0.0,0.0,-0.5988373535147468,0.0,0.0,0.0,0.0,0.0,0.0,-32.824,0.0,0.0,0.0,0.0,0.0
476,0.0,0.014556640625,0.0,0.0,0.0,0.0,0.0,0.0,-0.482,0.0,0.0,0.0,0.0,0.0,0.0,-0.5999500122945992,0.0,0.0,0.0,0.0,0.0,0.0,-35.308,0.0,0.0,0.0,0.0,0.0
477,0.0,0.009919921875,0.0,0.0,0.0,0.0,0.0,0.0,-0.485,0.0,0.0,0.0,0.0,0.0,0.0,-0.5995899879431033,0.0,0.0,0.0,0.0,0.0,0.0,-38.008,0.0,0.0,0.0,0.0,0.0
478,0.0,0.0057001953125,0.0,0.0,0.0,0.0,0.0,0.0,-0.447,0.0,0.0,0.0,0.0,0.0,0.0,-0.5976924299429096,0.0,0.0,0.0,0.0,0.0,0.0,-35.416,0.0,0.0,0.0,0.0,0.0
479,0.0,0.0015771484375,0.0,0.0,0.0,0.0,0.0,0.0,-0.426,0.0,0.0,0.0,0.0,0.0,0.0,-0.5943623946007848,0.0,0.0,0.0,0.0,0.0,0.0,-34.28,0.0,0.0,0.0,0.0,0.0
480,0.0,-0.002435546875,0.0,0.0,0.0,0.0,0.0,0.0,-0.411,0.0,0.0,0.0,0.0,0.0,0.0,-0.5895179308072144,0.0,0.0,0.0,0.0,0.0,0.0,-36.548,0.0,0.0,0.0,0.0,0.0
481,0.0,-0.00625,0.0,0.0,0.0,0.0,0.0,0.0,-0.389,0.0,0.0,0.0,0.0,0.0,0.0,-0.5831438551426368,0.0,0.0,0.0,0.0,0.0,0.0,-40.168,0.0,0.0,0.0,0.0,0.0
482,0.0,-0.010263671875,0.0,0.0,0.0,0.0,0.0,0.0,-0.4,0.0,0.0,0.0,0.0,0.0,0.0,-0.5754285655483484,0.0,0.0,0.0,0.0,0.0,0.0,-40.544,0.0,0.0,0.0,0.0,0.0
483,0.0,-0.013865234375,0.0,0.0,0.0,0.0,0.0,0.0,-0.392,0.0,0.0,0.0,0.0,0.0,0.0,-0.5662144486175155,0.0,0.0,0.0,0.0,0.0,0.0,-37.576,0.0,0.0,0.0,0.0,0.0
484,0.0,-0.017267578125,0.0,0.0,0.0,0.0,0.0,0.0,-0.348,0.0,0.0,0.0,0.0,0.0,0.0,-0.5555396430029943,0.0,0.0,0.0,0.0,0.0,0.0,-38.116,0.0,0.0,0.0,0.0,0.0
485,0.0,-0.0203544921875,0.0,0.0,0.0,0.0,0.0,0.0,-0.335,0.0,0.0,0.0,0.0,0.0,0.0,-0.5435463758690894,0.0,0.0,0.0,0.0,0.0,0.0,-40.76,0.0,0.0,0.0,0.0,0.0
486,0.0,-0.023345703125,0.0,0.0,0.0,0.0,0.0,0.0,-0.303,0.0,0.0,0.0,0.0,0.0,0.0,-0.5301274598282973,0.0,0.0,0.0,0.0,0.0,0.0,-44.108,0.0,0.0,0.0,0.0,0.0
487,0.0,-0.0271533203125,0.0,0.0,0.0,0.0,0.0,0.0,-0.332,0.0,0.0,0.0,0.0,0.0,0.0,-0.5154065475796715,0.0,0.0,0.0,0.0,0.0,0.0,-45.62,0.0,0.0,0.0,0.0,0.0
488,0.0,-0.03065234375,0.0,0.0,0.0,0.0,0.0,0.0,-0.377,0.0,0.0,0.0,0.0,0.0,0.0,-0.4994616498352833,0.0,0.0,0.0,0.0,0.0,0.0,-44.376,0.0,0.0,0.0,0.0,0.0
489,0.0,-0.0338486328125,0.0,0.0,0.0,0.0,0.0,0.0,-0.337,0.0,0.0,0.0,0.0,0.0,0.0,-0.48213350064652405,0.0,0.0,0.0,0.0,0.0,0.0,-43.512,0.0,0.0,0.0,0.0,0.0
490,0.0,-0.0369365234375,0.0,0.0,0.0,0.0,0.0,0.0,-0.319,0.0,0.0,0.0,0.0,0.0,0.0,-0.4637060468608336,0.0,0.0,0.0,0.0,0.0,0.0,-44.0,0.0,0.0,0.0,0.0,0.0
491,0.0,-0.03971484375,0.0,0.0,0.0,0.0,0.0,0.0,-0.3,0.0,0.0,0.0,0.0,0.0,0.0,-0.4439455303306353,0.0,0.0,0.0,0.0,0.0,0.0,-46.052,0.0,0.0,0.0,0.0,0.0
492,0.0,-0.0431171875,0.0,0.0,0.0,0.0,0.0,0.0,-0.304,0.0,0.0,0.0,0.0,0.0,0.0,-0.42346832771724635,0.0,0.0,0.0,0.0,0.0,0.0,-47.292,0.0,0.0,0.0,0.0,0.0
493,0.0,-0.0469248046875,0.0,0.0,0.0,0.0,0.0,0.0,-0.363,0.0,0.0,0.0,0.0,0.0,0.0,-0.4015925094350214,0.0,0.0,0.0,0.0,0.0,0.0,-46.592,0.0,0.0,0.0,0.0,0.0
494,0.0,-0.0506357421875,0.0,0.0,0.0,0.0,0.0,0.0,-0.379,0.0,0.0,0.0,0.0,0.0,0.0,-0.37889725031011395,0.0,0.0,0.0,0.0,0.0,0.0,-46.32,0.0,0.0,0.0,0.0,0.0
495,0.0,-0.0542373046875,0.0,0.0,0.0,0.0,0.0,0.0,-0.369,0.0,0.0,0.0,0.0,0.0,0.0,-0.3548208856467436,0.0,0.0,0.0,0.0,0.0,0.0,-45.888,0.0,0.0,0.0,0.0,0.0
496,0.0,-0.057537109375,0.0,0.0,0.0,0.0,0.0,0.0,-0.349,0.0,0.0,0.0,0.0,0.0,0.0,-0.3302408893031914,0.0,0.0,0.0,0.0,0.0,0.0,-46.32,0.0,0.0,0.0,0.0,0.0
497,0.0,-0.0609326171875,0.0,0.0,0.0,0.0,0.0,0.0,-0.333,0.0,0.0,0.0,0.0,0.0,0.0,-0.30503926598376613,0.0,0.0,0.0,0.0,0.0,0.0,-47.132,0.0,0.0,0.0,0.0,0.0
498,0.0,-0.064740234375,0.0,0.0,0.0,0.0,0.0,0.0,-0.361,0.0,0.0,0.0,0.0,0.0,0.0,-0.27903212700731206,0.0,0.0,0.0,0.0,0.0,0.0,-47.184,0.0,0.0,0.0,0.0,0.0
499,0.0,-0.0685546875,0.0,0.0,0.0,0.0,0.0,0.0,-0.383,0.0,0.0,0.0,0.0,0.0,0.0,-0.251673169273922,0.0,0.0,0.0,0.0,0.0,0.0,-46.752,0.0,0.0,0.0,0.0,0.0
500,0.0,-0.072568359375,0.0,0.0,0.0,0.0,0.0,0.0,-0.397,0.0,0.0,0.0,0.0,0.0,0.0,-0.22442863389603207,0.0,0.0,0.0,0.0,0.0,0.0,-46.484,0.0,0.0,0.0,0.0,0.0
501,0.0,-0.0764853515625,0.0,0.0,0.0,0.0,0.0,0.0,-0.401,0.0,0.0,0.0,0.0,0.0,0.0,-0.19628071635909886,0.0,0.0,0.0,0.0,0.0,0.0,-46.592,0.0,0.0,0.0,0.0,0.0
502,0.0,-0.080189453125,0.0,0.0,0.0,0.0,0.0,0.0,-0.384,0.0,0.0,0.0,0.0,0.0,0.0,-0.16649643130495603,0.0,0.0,0.0,0.0,0.0,0.0,-46.7,0.0,0.0,0.0,0.0,0.0
503,0.0,-0.0841064453125,0.0,0.0,0.0,0.0,0.0,0.0,-0.382,0.0,0.0,0.0,0.0,0.0,0.0,-0.1387982626230797,0.0,0.0,0.0,0.0,0.0,0.0,-46.536,0.0,0.0,0.0,0.0,0.0
504,0.0,-0.0881201171875,0.0,0.0,0.0,0.0,0.0,0.0,-0.396,0.0,0.0,0.0,0.0,0.0,0.0,-0.10932062660161891,0.0,0.0,0.0,0.0,0.0,0.0,-46.376,0.0,0.0,0.0,0.0,0.0
505,0.0,-0.0922431640625,0.0,0.0,0.0,0.0,0.0,0.0,-0.404,0.0,0.0,0.0,0.0,0.0,0.0,-0.07965382090490211,0.0,0.0,0.0,0.0,0.0,0.0,-45.888,0.0,0.0,0.0,0.0,0.0
506,0.0,-0.0964619140625,0.0,0.0,0.0,0.0,0.0,0.0,-0.424,0.0,0.0,0.0,0.0,0.0,0.0,-0.049919188865124996,0.0,0.0,0.0,0.0,0.0,0.0,-45.08,0.0,0.0,0.0,0.0,0.0
507,0.0,-0.1006875,0.0,0.0,0.0,0.0,0.0,0.0,-0.428,0.0,0.0,0.0,0.0,0.0,0.0,-0.019835328729430227,0.0,0.0,0.0,0.0,0.0,0.0,-44.7,0.0,0.0,0.0,0.0,0.0
508,0.0,-0.103974609375,0.0,0.0,0.0,0.0,0.0,0.0,-0.397,0.0,0.0,0.0,0.0,0.0,0.0,0.01006185095343083,0.0,0.0,0.0,0.0,0.0,0.0,-35.252,0.0,0.0,0.0,0.0,0.0
509,0.0,-0.1054150390625,0.0,0.0,0.0,0.0,0.0,0.0,-0.251,0.0,0.0,0.0,0.0,0.0,0.0,4.2200088466184007e-05,0.0,0.0,0.0,0.0,0.0,0.0,-22.512,0.0,0.0,0.0,0.0,0.0
510,0.0,-0.1059296875,0.0,0.0,0.0,0.0,0.0,0.0,-0.104,0.0,0.0,0.0,0.0,0.0,0.0,0.03011962920089994,0.0,0.0,0.0,0.0,0.0,0.0,-15.44,0.0,0.0,0.0,0.0,0.0
511,0.0,-0.10562109375,0.0,0.0,0.0,0.0,0.0,0.0,-0.028,0.0,0.0,0.0,0.0,0.0,0.0,0.061240650581936965,0.0,0.0,0.0,0.0,0.0,0.0,-12.632,0.0,0.0,0.0,0.0,0.0
512,0.0,-0.104900390625,0.0,0.0,0.0,0.0,0.0,0.0,0.058,0.0,0.0,0.0,0.0,0.0,0.0,0.09014084901224154,0.0,0.0,0.0,0.0,0.0,0.0,-11.28,0.0,0.0,0.0,0.0,0.0
513,0.0,-0.1037685546875,0.0,0.0,0.0,0.0,0.0,0.0,0.081,0.0,0.0,0.0,0.0,0.0,0.0,0.11905497398075149,0.0,0.0,0.0,0.0,0.0,0.0,-8.852,0.0,0.0,0.0,0.0,0.0
514,0.0,-0.1011962890625,0.0,0.0,0.0,0.0,0.0,0.0,0.168,0.0,0.0,0.0,0.0,0.0,0.0,0.14931458188078825,0.0,0.0,0.0,0.0,0.0,0.0,-9.124,0.0,0.0,0.0,0.0,0.0
515,0.0,-0.097388671875,0.0,0.0,0.0,0.0,0.0,0.0,0.313,0.0,0.0,0.0,0.0,0.0,0.0,0.1774868790941093,0.0,0.0,0.0,0.0,0.0,0.0,-11.388,0.0,0.0,0.0,0.0,0.0
516,0.0,-0.092654296875,0.0,0.0,0.0,0.0,0.0,0.0,0.419,0.0,0.0,0.0,0.0,0.0,0.0,0.20590780379229248,0.0,0.0,0.0,0.0,0.0,0.0,-14.468,0.0,0.0,0.0,0.0,0.0
517,0.0,-0.08698828125,0.0,0.0,0.0,0.0,0.0,0.0,0.52,0.0,0.0,0.0,0.0,0.0,0.0,0.23379769743481538,0.0,0.0,0.0,0.0,0.0,0.0,-18.032,0.0,0.0,0.0,0.0,0.0
518,0.0,-0.081630859375,0.0,0.0,0.0,0.0,0.0,0.0,0.555,0.0,0.0,0.0,0.0,0.0,0.0,0.2612308838348874,0.0,0.0,0.0,0.0,0.0,0.0,-20.192,0.0,0.0,0.0,0.0,0.0
519,0.0,-0.075662109375,0.0,0.0,0.0,0.0,0.0,0.0,0.568,0.0,0.0,0.0,0.0,0.0,0.0,0.28794251402154764,0.0,0.0,0.0,0.0,0.0,0.0,-23.808,0.0,0.0,0.0,0.0,0.0
520,0.0,-0.069892578125,0.0,0.0,0.0,0.0,0.0,0.0,0.594,0.0,0.0,0.0,0.0,0.0,0.0,0.3136480449043401,0.0,0.0,0.0,0.0,0.0,0.0,-31.204,0.0,0.0,0.0,0.0,0.0
521,0.0,-0.0637119140625,0.0,0.0,0.0,0.0,0.0,0.0,0.587,0.0,0.0,0.0,0.0,0.0,0.0,0.33879051359735474,0.0,0.0,0.0,0.0,0.0,0.0,-35.416,0.0,0.0,0.0,0.0,0.0
522,0.0,-0.05670703125,0.0,0.0,0.0,0.0,0.0,0.0,0.654,0.0,0.0,0.0,0.0,0.0,0.0,0.3633700034726591,0.0,0.0,0.0,0.0,0.0,0.0,-36.172,0.0,0.0,0.0,0.0,0.0
523,0.0,-0.0498125,0.0,0.0,0.0,0.0,0.0,0.0,0.703,0.0,0.0,0.0,0.0,0.0,0.0,0.38671900832930156,0.0,0.0,0.0,0.0,0.0,0.0,-35.036,0.0,0.0,0.0,0.0,0.0
524,0.0,-0.04280859375,0.0,0.0,0.0,0.0,0.0,0.0,0.706,0.0,0.0,0.0,0.0,0.0,0.0,0.40925343368605077,0.0,0.0,0.0,0.0,0.0,0.0,-40.168,0.0,0.0,0.0,0.0,0.0
525,0.0,-0.036421875,0.0,0.0,0.0,0.0,0.0,0.0,0.68,0.0,0.0,0.0,0.0,0.0,0.0,0.4304178205025576,0.0,0.0,0.0,0.0,0.0,0.0,-46.808,0.0,0.0,0.0,0.0,0.0
526,0.0,-0.03003515625,0.0,0.0,0.0,0.0,0.0,0.0,0.631,0.0,0.0,0.0,0.0,0.0,0.0,0.4508179565462644,0.0,0.0,0.0,0.0,0.0,0.0,-46.104,0.0,0.0,0.0,0.0,0.0
527,0.0,-0.0231396484375,0.0,0.0,0.0,0.0,0.0,0.0,0.67,0.0,0.0,0.0,0.0,0.0,0.0,0.4702518105320175,0.0,0.0,0.0,0.0,0.0,0.0,-42.868,0.0,0.0,0.0,0.0,0.0
528,0.0,-0.0167529296875,0.0,0.0,0.0,0.0,0.0,0.0,0.675,0.0,0.0,0.0,0.0,0.0,0.0,0.48805813966520556,0.0,0.0,0.0,0.0,0.0,0.0,-47.348,0.0,0.0,0.0,0.0,0.0
529,0.0,-0.0103662109375,0.0,0.0,0.0,0.0,0.0,0.0,0.634,0.0,0.0,0.0,0.0,0.0,0.0,0.5050252209171578,0.0,0.0,0.0,0.0,0.0,0.0,-53.988,0.0,0.0,0.0,0.0,0.0
530,0.0,-0.003876953125,0.0,0.0,0.0,0.0,0.0,0.0,0.654,0.0,0.0,0.0,0.0,0.0,0.0,0.5205315588367991,0.0,0.0,0.0,0.0,0.0,0.0,-54.204,0.0,0.0,0.0,0.0,0.0
531,0.0,0.001783203125,0.0,0.0,0.0,0.0,0.0,0.0,0.614,0.0,0.0,0.0,0.0,0.0,0.0,0.5347406758763061,0.0,0.0,0.0,0.0,0.0,0.0,-50.208,0.0,0.0,0.0,0.0,0.0
532,0.0,0.0073466796875,0.0,0.0,0.0,0.0,0.0,0.0,0.566,0.0,0.0,0.0,0.0,0.0,0.0,0.5477734432500434,0.0,0.0,0.0,0.0,0.0,0.0,-54.312,0.0,0.0,0.0,0.0,0.0
533,0.0,0.0128076171875,0.0,0.0,0.0,0.0,0.0,0.0,0.56,0.0,0.0,0.0,0.0,0.0,0.0,0.5592985902736664,0.0,0.0,0.0,0.0,0.0,0.0,-59.28,0.0,0.0,0.0,0.0,0.0
534,0.0,0.018158203125,0.0,0.0,0.0,0.0,0.0,0.0,0.542,0.0,0.0,0.0,0.0,0.0,0.0,0.5694493836565322,0.0,0.0,0.0,0.0,0.0,0.0,-58.416,0.0,0.0,0.0,0.0,0.0
535,0.0,0.0234130859375,0.0,0.0,0.0,0.0,0.0,0.0,0.534,0.0,0.0,0.0,0.0,0.0,0.0,0.5781278238208676,0.0,0.0,0.0,0.0,0.0,0.0,-54.04,0.0,0.0,0.0,0.0,0.0
536,0.0,0.02794140625,0.0,0.0,0.0,0.0,0.0,0.0,0.504,0.0,0.0,0.0,0.0,0.0,0.0,0.5855331484235917,0.0,0.0,0.0,0.0,0.0,0.0,-55.824,0.0,0.0,0.0,0.0,0.0
537,0.0,0.032064453125,0.0,0.0,0.0,0.0,0.0,0.0,0.432,0.0,0.0,0.0,0.0,0.0,0.0,0.591257662195983,0.0,0.0,0.0,0.0,0.0,0.0,-58.468,0.0,0.0,0.0,0.0,0.0
538,0.0,0.036283203125,0.0,0.0,0.0,0.0,0.0,0.0,0.42,0.0,0.0,0.0,0.0,0.0,0.0,0.5956318308475331,0.0,0.0,0.0,0.0,0.0,0.0,-57.984,0.0,0.0,0.0,0.0,0.0
539,0.0,0.04009765625,0.0,0.0,0.0,0.0,0.0,0.0,0.41,0.0,0.0,0.0,0.0,0.0,0.0,0.5985101582629994,0.0,0.0,0.0,0.0,0.0,0.0,-53.988,0.0,0.0,0.0,0.0,0.0
540,0.0,0.04431640625,0.0,0.0,0.0,0.0,0.0,0.0,0.398,0.0,0.0,0.0,0.0,0.0,0.0,0.5998678191859486,0.0,0.0,0.0,0.0,0.0,0.0,-51.236,0.0,0.0,0.0,0.0,0.0
541,0.0,0.047822265625,0.0,0.0,0.0,0.0,0.0,0.0,0.397,0.0,0.0,0.0,0.0,0.0,0.0,0.5997407310896586,0.0,0.0,0.0,0.0,0.0,0.0,-53.828,0.0,0.0,0.0,0.0,0.0
542,0.0,0.050703125,0.0,0.0,0.0,0.0,0.0,0.0,0.322,0.0,0.0,0.0,0.0,0.0,0.0,0.5981168840948472,0.0,0.0,0.0,0.0,0.0,0.0,-54.04,0.0,0.0,0.0,0.0,0.0
543,0.0,0.0536875,0.0,0.0,0.0,0.0,0.0,0.0,0.299,0.0,0.0,0.0,0.0,0.0,0.0,0.594992281991144,0.0,0.0,0.0,0.0,0.0,0.0,-51.504,0.0,0.0,0.0,0.0,0.0
544,0.0,0.0563701171875,0.0,0.0,0.0,0.0,0.0,0.0,0.286,0.0,0.0,0.0,0.0,0.0,0.0,0.5904294469965407,0.0,0.0,0.0,0.0,0.0,0.0,-47.724,0.0,0.0,0.0,0.0,0.0
545,0.0,0.05945703125,0.0,0.0,0.0,0.0,0.0,0.0,0.28,0.0,0.0,0.0,0.0,0.0,0.0,0.5842969473569012,0.0,0.0,0.0,0.0,0.0,0.0,-44.592,0.0,0.0,0.0,0.0,0.0
546,0.0,0.062853515625,0.0,0.0,0.0,0.0,0.0,0.0,0.335,0.0,0.0,0.0,0.0,0.0,0.0,0.5767872883772037,0.0,0.0,0.0,0.0,0.0,0.0,-44.864,0.0,0.0,0.0,0.0,0.0
547,0.0,0.0656376953125,0.0,0.0,0.0,0.0,0.0,0.0,0.311,0.0,0.0,0.0,0.0,0.0,0.0,0.5677887279711151,0.0,0.0,0.0,0.0,0.0,0.0,-45.564,0.0,0.0,0.0,0.0,0.0
548,0.0,0.0684169921875,0.0,0.0,0.0,0.0,0.0,0.0,0.281,0.0,0.0,0.0,0.0,0.0,0.0,0.5573590301481821,0.0,0.0,0.0,0.0,0.0,0.0,-45.08,0.0,0.0,0.0,0.0,0.0
549,0.0,0.0709892578125,0.0,0.0,0.0,0.0,0.0,0.0,0.273,0.0,0.0,0.0,0.0,0.0,0.0,0.5455509497952379,0.0,0.0,0.0,0.0,0.0,0.0,-43.352,0.0,0.0,0.0,0.0,0.0
550,0.0,0.073767578125,0.0,0.0,0.0,0.0,0.0,0.0,0.258,0.0,0.0,0.0,0.0,0.0,0.0,0.5325194994996183,0.0,0.0,0.0,0.0,0.0,0.0,-41.3,0.0,0.0,0.0,0.0,0.0
551,0.0,0.0772734375,0.0,0.0,0.0,0.0,0.0,0.0,0.311,0.0,0.0,0.0,0.0,0.0,0.0,0.5178543545790725,0.0,0.0,0.0,0.0,0.0,0.0,-41.192,0.0,0.0,0.0,0.0,0.0
552,0.0,0.08056640625,0.0,0.0,0.0,0.0,0.0,0.0,0.347,0.0,0.0,0.0,0.0,0.0,0.0,0.5021587390124015,0.0,0.0,0.0,0.0,0.0,0.0,-41.084,0.0,0.0,0.0,0.0,0.0
553,0.0,0.0837626953125,0.0,0.0,0.0,0.0,0.0,0.0,0.324,0.0,0.0,0.0,0.0,0.0,0.0,0.48517013085337024,0.0,0.0,0.0,0.0,0.0,0.0,-40.76,0.0,0.0,0.0,0.0,0.0
554,0.0,0.0868505859375,0.0,0.0,0.0,0.0,0.0,0.0,0.318,0.0,0.0,0.0,0.0,0.0,0.0,0.4668892046848296,0.0,0.0,0.0,0.0,0.0,0.0,-40.384,0.0,0.0,0.0,0.0,0.0
555,0.0,0.0898349609375,0.0,0.0,0.0,0.0,0.0,0.0,0.303,0.0,0.0,0.0,0.0,0.0,0.0,0.4474749920850069,0.0,0.0,0.0,0.0,0.0,0.0,-39.628,0.0,0.0,0.0,0.0,0.0
556,0.0,0.09333984375,0.0,0.0,0.0,0.0,0.0,0.0,0.324,0.0,0.0,0.0,0.0,0.0,0.0,0.4269005374777131,0.0,0.0,0.0,0.0,0.0,0.0,-39.896,0.0,0.0,0.0,0.0,0.0
557,0.0,0.09694140625,0.0,0.0,0.0,0.0,0.0,0.0,0.359,0.0,0.0,0.0,0.0,0.0,0.0,0.40527997583260145,0.0,0.0,0.0,0.0,0.0,0.0,-40.276,0.0,0.0,0.0,0.0,0.0
558,0.0,0.10054296875,0.0,0.0,0.0,0.0,0.0,0.0,0.36,0.0,0.0,0.0,0.0,0.0,0.0,0.38267973352070456,0.0,0.0,0.0,0.0,0.0,0.0,-40.112,0.0,0.0,0.0,0.0,0.0
559,0.0,0.104357421875,0.0,0.0,0.0,0.0,0.0,0.0,0.372,0.0,0.0,0.0,0.0,0.0,0.0,0.3591766823613549,0.0,0.0,0.0,0.0,0.0,0.0,-39.68,0.0,0.0,0.0,0.0,0.0
560,0.0,0.107953125,0.0,0.0,0.0,0.0,0.0,0.0,0.369,0.0,0.0,0.0,0.0,0.0,0.0,0.33454256923230447,0.0,0.0,0.0,0.0,0.0,0.0,-38.924,0.0,0.0,0.0,0.0,0.0
561,0.0,0.1117666015625,0.0,0.0,0.0,0.0,0.0,0.0,0.369,0.0,0.0,0.0,0.0,0.0,0.0,0.3093394836095362,0.0,0.0,0.0,0.0,0.0,0.0,-38.872,0.0,0.0,0.0,0.0,0.0
562,0.0,0.115677734375,0.0,0.0,0.0,0.0,0.0,0.0,0.391,0.0,0.0,0.0,0.0,0.0,0.0,0.2834138536665532,0.0,0.0,0.0,0.0,0.0,0.0,-39.896,0.0,0.0,0.0,0.0,0.0
563,0.0,0.1197998046875,0.0,0.0,0.0,0.0,0.0,0.0,0.404,0.0,0.0,0.0,0.0,0.0,0.0,0.25665821331578326,0.0,0.0,0.0,0.0,0.0,0.0,-40.276,0.0,0.0,0.0,0.0,0.0
564,0.0,0.1239169921875,0.0,0.0,0.0,0.0,0.0,0.0,0.414,0.0,0.0,0.0,0.0,0.0,0.0,0.22888301128858582,0.0,0.0,0.0,0.0,0.0,0.0,-41.084,0.0,0.0,0.0,0.0,0.0
565,0.0,0.1281357421875,0.0,0.0,0.0,0.0,0.0,0.0,0.421,0.0,0.0,0.0,0.0,0.0,0.0,0.2011399617588472,0.0,0.0,0.0,0.0,0.0,0.0,-41.032,0.0,0.0,0.0,0.0,0.0
566,0.0,0.13246484375,0.0,0.0,0.0,0.0,0.0,0.0,0.425,0.0,0.0,0.0,0.0,0.0,0.0,0.17252947264233373,0.0,0.0,0.0,0.0,0.0,0.0,-40.976,0.0,0.0,0.0,0.0,0.0
567,0.0,0.1367861328125,0.0,0.0,0.0,0.0,0.0,0.0,0.439,0.0,0.0,0.0,0.0,0.0,0.0,0.14352620721183992,0.0,0.0,0.0,0.0,0.0,0.0,-42.22,0.0,0.0,0.0,0.0,0.0
568,0.0,0.1412177734375,0.0,0.0,0.0,0.0,0.0,0.0,0.441,0.0,0.0,0.0,0.0,0.0,0.0,0.1141506207364335,0.0,0.0,0.0,0.0,0.0,0.0,-43.352,0.0,0.0,0.0,0.0,0.0
569,0.0,0.1457529296875,0.0,0.0,0.0,0.0,0.0,0.0,0.446,0.0,0.0,0.0,0.0,0.0,0.0,0.08470415235261283,0.0,0.0,0.0,0.0,0.0,0.0,-44.108,0.0,0.0,0.0,0.0,0.0
570,0.0,0.1496689453125,0.0,0.0,0.0,0.0,0.0,0.0,0.432,0.0,0.0,0.0,0.0,0.0,0.0,0.05482211787668601,0.0,0.0,0.0,0.0,0.0,0.0,-48.804,0.0,0.0,0.0,0.0,0.0
571,0.0,0.1523447265625,0.0,0.0,0.0,0.0,0.0,0.0,0.348,0.0,0.0,0.0,0.0,0.0,0.0,0.025014486951730527,0.0,0.0,0.0,0.0,0.0,0.0,-59.064,0.0,0.0,0.0,0.0,0.0
572,0.0,0.1537861328125,0.0,0.0,0.0,0.0,0.0,0.0,0.22,0.0,0.0,0.0,0.0,0.0,0.0,-0.004897354106418782,0.0,0.0,0.0,0.0,0.0,0.0,-69.376,0.0,0.0,0.0,0.0,0.0
573,0.0,0.1539912109375,0.0,0.0,0.0,0.0,0.0,0.0,0.091,0.0,0.0,0.0,0.0,0.0,0.0,-0.035413942457072876,0.0,0.0,0.0,0.0,0.0,0.0,-75.744,0.0,0.0,0.0,0.0,0.0
574,0.0,0.1534765625,0.0,0.0,0.0,0.0,0.0,0.0,-0.017,0.0,0.0,0.0,0.0,0.0,0.0,-0.0647111547596163,0.0,0.0,0.0,0.0,0.0,0.0,-77.04,0.0,0.0,0.0,0.0,0.0
575,0.0,0.1526533203125,0.0,0.0,0.0,0.0,0.0,0.0,-0.058,0.0,0.0,0.0,0.0,0.0,0.0,-0.09455867582096784,0.0,0.0,0.0,0.0,0.0,0.0,-78.284,0.0,0.0,0.0,0.0,0.0
576,0.0,0.150595703125,0.0,0.0,0.0,0.0,0.0,0.0,-0.133,0.0,0.0,0.0,0.0,0.0,0.0,-0.12438212037742123,0.0,0.0,0.0,0.0,0.0,0.0,-78.768,0.0,0.0,0.0,0.0,0.0
577,0.0,0.147611328125,0.0,0.0,0.0,0.0,0.0,0.0,-0.242,0.0,0.0,0.0,0.0,0.0,0.0,-0.15354266900955435,0.0,0.0,0.0,0.0,0.0,0.0,-76.824,0.0,0.0,0.0,0.0,0.0
578,0.0,0.143482421875,0.0,0.0,0.0,0.0,0.0,0.0,-0.351,0.0,0.0,0.0,0.0,0.0,0.0,-0.1819621832342832,0.0,0.0,0.0,0.0,0.0,0.0,-72.724,0.0,0.0,0.0,0.0,0.0
579,0.0,0.138748046875,0.0,0.0,0.0,0.0,0.0,0.0,-0.446,0.0,0.0,0.0,0.0,0.0,0.0,-0.21070917223519683,0.0,0.0,0.0,0.0,0.0,0.0,-65.216,0.0,0.0,0.0,0.0,0.0
580,0.0,0.13431640625,0.0,0.0,0.0,0.0,0.0,0.0,-0.465,0.0,0.0,0.0,0.0,0.0,0.0,-0.2384183153650887,0.0,0.0,0.0,0.0,0.0,0.0,-61.384,0.0,0.0,0.0,0.0,0.0
581,0.0,0.129994140625,0.0,0.0,0.0,0.0,0.0,0.0,-0.441,0.0,0.0,0.0,0.0,0.0,0.0,-0.26538341160261497,0.0,0.0,0.0,0.0,0.0,0.0,-58.036,0.0,0.0,0.0,0.0,0.0
582,0.0,0.125357421875,0.0,0.0,0.0,0.0,0.0,0.0,-0.445,0.0,0.0,0.0,0.0,0.0,0.0,-0.29244184256821654,0.0,0.0,0.0,0.0,0.0,0.0,-54.796,0.0,0.0,0.0,0.0,0.0
583,0.0,0.12041796875,0.0,0.0,0.0,0.0,0.0,0.0,-0.476,0.0,0.0,0.0,0.0,0.0,0.0,-0.3180418232936734,0.0,0.0,0.0,0.0,0.0,0.0,-51.02,0.0,0.0,0.0,0.0,0.0
584,0.0,0.1150595703125,0.0,0.0,0.0,0.0,0.0,0.0,-0.52,0.0,0.0,0.0,0.0,0.0,0.0,-0.3429367912454062,0.0,0.0,0.0,0.0,0.0,0.0,-47.348,0.0,0.0,0.0,0.0,0.0
585,0.0,0.1098056640625,0.0,0.0,0.0,0.0,0.0,0.0,-0.538,0.0,0.0,0.0,0.0,0.0,0.0,-0.3671503527860481,0.0,0.0,0.0,0.0,0.0,0.0,-45.132,0.0,0.0,0.0,0.0,0.0
586,0.0,0.104865234375,0.0,0.0,0.0,0.0,0.0,0.0,-0.516,0.0,0.0,0.0,0.0,0.0,0.0,-0.3903342998823631,0.0,0.0,0.0,0.0,0.0,0.0,-44.432,0.0,0.0,0.0,0.0,0.0
587,0.0,0.09992578125,0.0,0.0,0.0,0.0,0.0,0.0,-0.493,0.0,0.0,0.0,0.0,0.0,0.0,-0.412633671104303,0.0,0.0,0.0,0.0,0.0,0.0,-44.648,0.0,0.0,0.0,0.0,0.0
588,0.0,0.0948837890625,0.0,0.0,0.0,0.0,0.0,0.0,-0.501,0.0,0.0,0.0,0.0,0.0,0.0,-0.44185777217131383,0.0,0.0,0.0,0.0,0.0,0.0,-44.432,0.0,0.0,0.0,0.0,0.0
589,0.0,0.0894228515625,0.0,0.0,0.0,0.0,0.0,0.0,-0.529,0.0,0.0,0.0,0.0,0.0,0.0,-0.45819178364851515,0.0,0.0,0.0,0.0,0.0,0.0,-45.24,0.0,0.0,0.0,0.0,0.0
590,0.0,0.083556640625,0.0,0.0,0.0,0.0,0.0,0.0,-0.566,0.0,0.0,0.0,0.0,0.0,0.0,-0.4730376170623824,0.0,0.0,0.0,0.0,0.0,0.0,-46.376,0.0,0.0,0.0,0.0,0.0
591,0.0,0.0776845703125,0.0,0.0,0.0,0.0,0.0,0.0,-0.588,0.0,0.0,0.0,0.0,0.0,0.0,-0.4909525833092121,0.0,0.0,0.0,0.0,0.0,0.0,-47.94,0.0,0.0,0.0,0.0,0.0
592,0.0,0.07150390625,0.0,0.0,0.0,0.0,0.0,0.0,-0.607,0.0,0.0,0.0,0.0,0.0,0.0,-0.5075469979618756,0.0,0.0,0.0,0.0,0.0,0.0,-48.644,0.0,0.0,0.0,0.0,0.0
593,0.0,0.0653291015625,0.0,0.0,0.0,0.0,0.0,0.0,-0.622,0.0,0.0,0.0,0.0,0.0,0.0,-0.523071877811831,0.0,0.0,0.0,0.0,0.0,0.0,-48.048,0.0,0.0,0.0,0.0,0.0
594,0.0,0.0590458984375,0.0,0.0,0.0,0.0,0.0,0.0,-0.623,0.0,0.0,0.0,0.0,0.0,0.0,-0.5371047951958897,0.0,0.0,0.0,0.0,0.0,0.0,-48.212,0.0,0.0,0.0,0.0,0.0
595,0.0,0.05214453125,0.0,0.0,0.0,0.0,0.0,0.0,-0.662,0.0,0.0,0.0,0.0,0.0,0.0,-0.5498186248035615,0.0,0.0,0.0,0.0,0.0,0.0,-48.48,0.0,0.0,0.0,0.0,0.0
596,0.0,0.0455517578125,0.0,0.0,0.0,0.0,0.0,0.0,-0.688,0.0,0.0,0.0,0.0,0.0,0.0,-0.560978412321336,0.0,0.0,0.0,0.0,0.0,0.0,-43.676,0.0,0.0,0.0,0.0,0.0
597,0.0,0.0395830078125,0.0,0.0,0.0,0.0,0.0,0.0,-0.628,0.0,0.0,0.0,0.0,0.0,0.0,-0.5709971699259906,0.0,0.0,0.0,0.0,0.0,0.0,-38.548,0.0,0.0,0.0,0.0,0.0
598,0.0,0.0335048828125,0.0,0.0,0.0,0.0,0.0,0.0,-0.607,0.0,0.0,0.0,0.0,0.0,0.0,-0.5795447302685942,0.0,0.0,0.0,0.0,0.0,0.0,-38.384,0.0,0.0,0.0,0.0,0.0
599,0.0,0.0276328125,0.0,0.0,0.0,0.0,0.0,0.0,-0.608,0.0,0.0,0.0,0.0,0.0,0.0,-0.5865788245688173,0.0,0.0,0.0,0.0,0.0,0.0,-39.68,0.0,0.0,0.0,0.0,0.0
600,0.0,0.0218701171875,0.0,0.0,0.0,0.0,0.0,0.0,-0.587,0.0,0.0,0.0,0.0,0.0,0.0,-0.592147009720056,0.0,0.0,0.0,0.0,0.0,0.0,-37.088,0.0,0.0,0.0,0.0,0.0
601,0.0,0.0164091796875,0.0,0.0,0.0,0.0,0.0,0.0,-0.568,0.0,0.0,0.0,0.0,0.0,0.0,-0.5962314548353047,0.0,0.0,0.0,0.0,0.0,0.0,-32.232,0.0,0.0,0.0,0.0,0.0
602,0.0,0.011462890625,0.0,0.0,0.0,0.0,0.0,0.0,-0.524,0.0,0.0,0.0,0.0,0.0,0.0,-0.5988356616898077,0.0,0.0,0.0,0.0,0.0,0.0,-32.768,0.0,0.0,0.0,0.0,0.0
603,0.0,0.0066259765625,0.0,0.0,0.0,0.0,0.0,0.0,-0.498,0.0,0.0,0.0,0.0,0.0,0.0,-0.5999552150505146,0.0,0.0,0.0,0.0,0.0,0.0,-35.684,0.0,0.0,0.0,0.0,0.0
604,0.0,0.0019892578125,0.0,0.0,0.0,0.0,0.0,0.0,-0.478,0.0,0.0,0.0,0.0,0.0,0.0,-0.5995746453686122,0.0,0.0,0.0,0.0,0.0,0.0,-38.332,0.0,0.0,0.0,0.0,0.0
605,0.0,-0.0023330078125,0.0,0.0,0.0,0.0,0.0,0.0,-0.453,0.0,0.0,0.0,0.0,0.0,0.0,-0.5976803187998284,0.0,0.0,0.0,0.0,0.0,0.0,-34.604,0.0,0.0,0.0,0.0,0.0
606,0.0,-0.00625,0.0,0.0,0.0,0.0,0.0,0.0,-0.42,0.0,0.0,0.0,0.0,0.0,0.0,-0.594174615407373,0.0,0.0,0.0,0.0,0.0,0.0,-32.716,0.0,0.0,0.0,0.0,0.0
607,0.0,-0.0103662109375,0.0,0.0,0.0,0.0,0.0,0.0,-0.402,0.0,0.0,0.0,0.0,0.0,0.0,-0.5894715569022735,0.0,0.0,0.0,0.0,0.0,0.0,-36.496,0.0,0.0,0.0,0.0,0.0
608,0.0,-0.0143857421875,0.0,0.0,0.0,0.0,0.0,0.0,-0.412,0.0,0.0,0.0,0.0,0.0,0.0,-0.5830668335666864,0.0,0.0,0.0,0.0,0.0,0.0,-41.516,0.0,0.0,0.0,0.0,0.0
609,0.0,-0.0183994140625,0.0,0.0,0.0,0.0,0.0,0.0,-0.406,0.0,0.0,0.0,0.0,0.0,0.0,-0.5753527387457187,0.0,0.0,0.0,0.0,0.0,0.0,-41.68,0.0,0.0,0.0,0.0,0.0
610,0.0,-0.0220009765625,0.0,0.0,0.0,0.0,0.0,0.0,-0.39,0.0,0.0,0.0,0.0,0.0,0.0,-0.5660545419129845,0.0,0.0,0.0,0.0,0.0,0.0,-37.196,0.0,0.0,0.0,0.0,0.0
611,0.0,-0.0250947265625,0.0,0.0,0.0,0.0,0.0,0.0,-0.339,0.0,0.0,0.0,0.0,0.0,0.0,-0.5554966708626448,0.0,0.0,0.0,0.0,0.0,0.0,-37.036,0.0,0.0,0.0,0.0,0.0
612,0.0,-0.0281826171875,0.0,0.0,0.0,0.0,0.0,0.0,-0.311,0.0,0.0,0.0,0.0,0.0,0.0,-0.5435436498405537,0.0,0.0,0.0,0.0,0.0,0.0,-39.952,0.0,0.0,0.0,0.0,0.0
613,0.0,-0.0314814453125,0.0,0.0,0.0,0.0,0.0,0.0,-0.316,0.0,0.0,0.0,0.0,0.0,0.0,-0.5295686637255135,0.0,0.0,0.0,0.0,0.0,0.0,-44.216,0.0,0.0,0.0,0.0,0.0
614,0.0,-0.0351865234375,0.0,0.0,0.0,0.0,0.0,0.0,-0.349,0.0,0.0,0.0,0.0,0.0,0.0,-0.51537432087042,0.0,0.0,0.0,0.0,0.0,0.0,-45.728,0.0,0.0,0.0,0.0,0.0
615,0.0,-0.038685546875,0.0,0.0,0.0,0.0,0.0,0.0,-0.375,0.0,0.0,0.0,0.0,0.0,0.0,-0.49922728997569343,0.0,0.0,0.0,0.0,0.0,0.0,-44.052,0.0,0.0,0.0,0.0,0.0
616,0.0,-0.041779296875,0.0,0.0,0.0,0.0,0.0,0.0,-0.334,0.0,0.0,0.0,0.0,0.0,0.0,-0.48191372697123736,0.0,0.0,0.0,0.0,0.0,0.0,-43.028,0.0,0.0,0.0,0.0,0.0
617,0.0,-0.0445576171875,0.0,0.0,0.0,0.0,0.0,0.0,-0.296,0.0,0.0,0.0,0.0,0.0,0.0,-0.46373464118889995,0.0,0.0,0.0,0.0,0.0,0.0,-43.676,0.0,0.0,0.0,0.0,0.0
618,0.0,-0.047439453125,0.0,0.0,0.0,0.0,0.0,0.0,-0.282,0.0,0.0,0.0,0.0,0.0,0.0,-0.44401384831359864,0.0,0.0,0.0,0.0,0.0,0.0,-45.296,0.0,0.0,0.0,0.0,0.0
619,0.0,-0.0509443359375,0.0,0.0,0.0,0.0,0.0,0.0,-0.312,0.0,0.0,0.0,0.0,0.0,0.0,-0.42309421264172115,0.0,0.0,0.0,0.0,0.0,0.0,-46.86,0.0,0.0,0.0,0.0,0.0
620,0.0,-0.05485546875,0.0,0.0,0.0,0.0,0.0,0.0,-0.376,0.0,0.0,0.0,0.0,0.0,0.0,-0.40127196182999314,0.0,0.0,0.0,0.0,0.0,0.0,-46.968,0.0,0.0,0.0,0.0,0.0
621,0.0,-0.058462890625,0.0,0.0,0.0,0.0,0.0,0.0,-0.382,0.0,0.0,0.0,0.0,0.0,0.0,-0.378792422293163,0.0,0.0,0.0,0.0,0.0,0.0,-46.752,0.0,0.0,0.0,0.0,0.0
622,0.0,-0.061755859375,0.0,0.0,0.0,0.0,0.0,0.0,-0.349,0.0,0.0,0.0,0.0,0.0,0.0,-0.3549010536748707,0.0,0.0,0.0,0.0,0.0,0.0,-46.536,0.0,0.0,0.0,0.0,0.0
623,0.0,-0.0649462890625,0.0,0.0,0.0,0.0,0.0,0.0,-0.331,0.0,0.0,0.0,0.0,0.0,0.0,-0.33020326684459544,0.0,0.0,0.0,0.0,0.0,0.0,-46.808,0.0,0.0,0.0,0.0,0.0
624,0.0,-0.06824609375,0.0,0.0,0.0,0.0,0.0,0.0,-0.316,0.0,0.0,0.0,0.0,0.0,0.0,-0.3048741832485078,0.0,0.0,0.0,0.0,0.0,0.0,-47.132,0.0,0.0,0.0,0.0,0.0
625,0.0,-0.07215625,0.0,0.0,0.0,0.0,0.0,0.0,-0.358,0.0,0.0,0.0,0.0,0.0,0.0,-0.27870787489963617,0.0,0.0,0.0,0.0,0.0,0.0,-46.752,0.0,0.0,0.0,0.0,0.0
626,0.0,-0.0761767578125,0.0,0.0,0.0,0.0,0.0,0.0,-0.401,0.0,0.0,0.0,0.0,0.0,0.0,-0.2518231461799766,0.0,0.0,0.0,0.0,0.0,0.0,-46.644,0.0,0.0,0.0,0.0,0.0
627,0.0,-0.080189453125,0.0,0.0,0.0,0.0,0.0,0.0,-0.404,0.0,0.0,0.0,0.0,0.0,0.0,-0.2243311202151974,0.0,0.0,0.0,0.0,0.0,0.0,-47.024,0.0,0.0,0.0,0.0,0.0
628,0.0,-0.0839013671875,0.0,0.0,0.0,0.0,0.0,0.0,-0.391,0.0,0.0,0.0,0.0,0.0,0.0,-0.1959859971215237,0.0,0.0,0.0,0.0,0.0,0.0,-47.132,0.0,0.0,0.0,0.0,0.0
629,0.0,-0.0875029296875,0.0,0.0,0.0,0.0,0.0,0.0,-0.371,0.0,0.0,0.0,0.0,0.0,0.0,-0.1676319923075917,0.0,0.0,0.0,0.0,0.0,0.0,-47.184,0.0,0.0,0.0,0.0,0.0
630,0.0,-0.091310546875,0.0,0.0,0.0,0.0,0.0,0.0,-0.372,0.0,0.0,0.0,0.0,0.0,0.0,-0.13836331501680182,0.0,0.0,0.0,0.0,0.0,0.0,-46.536,0.0,0.0,0.0,0.0,0.0
631,0.0,-0.09543359375,0.0,0.0,0.0,0.0,0.0,0.0,-0.397,0.0,0.0,0.0,0.0,0.0,0.0,-0.10905266440380407,0.0,0.0,0.0,0.0,0.0,0.0,-45.512,0.0,0.0,0.0,0.0,0.0
632,0.0,-0.0998583984375,0.0,0.0,0.0,0.0,0.0,0.0,-0.425,0.0,0.0,0.0,0.0,0.0,0.0,-0.07951132473595184,0.0,0.0,0.0,0.0,0.0,0.0,-45.404,0.0,0.0,0.0,0.0,0.0
633,0.0,-0.1041806640625,0.0,0.0,0.0,0.0,0.0,0.0,-0.44,0.0,0.0,0.0,0.0,0.0,0.0,-0.04954568456136129,0.0,0.0,0.0,0.0,0.0,0.0,-45.62,0.0,0.0,0.0,0.0,0.0
634,0.0,-0.1080908203125,0.0,0.0,0.0,0.0,0.0,0.0,-0.423,0.0,0.0,0.0,0.0,0.0,0.0,-0.019763127242783667,0.0,0.0,0.0,0.0,0.0,0.0,-44.108,0.0,0.0,0.0,0.0,0.0
635,0.0,-0.1108759765625,0.0,0.0,0.0,0.0,0.0,0.0,-0.357,0.0,0.0,0.0,0.0,0.0,0.0,0.010409414651387432,0.0,0.0,0.0,0.0,0.0,0.0,-34.82,0.0,0.0,0.0,0.0,0.0
636,0.0,-0.1122138671875,0.0,0.0,0.0,0.0,0.0,0.0,-0.224,0.0,0.0,0.0,0.0,0.0,0.0,4.792213434846283e-05,0.0,0.0,0.0,0.0,0.0,0.0,-22.564,0.0,0.0,0.0,0.0,0.0
637,0.0,-0.112625,0.0,0.0,0.0,0.0,0.0,0.0,-0.095,0.0,0.0,0.0,0.0,0.0,0.0,0.029924608979752125,0.0,0.0,0.0,0.0,0.0,0.0,-14.844,0.0,0.0,0.0,0.0,0.0
638,0.0,-0.11231640625,0.0,0.0,0.0,0.0,0.0,0.0,-0.014,0.0,0.0,0.0,0.0,0.0,0.0,0.05951496042068324,0.0,0.0,0.0,0.0,0.0,0.0,-12.144,0.0,0.0,0.0,0.0,0.0
639,0.0,-0.11169921875,0.0,0.0,0.0,0.0,0.0,0.0,0.046,0.0,0.0,0.0,0.0,0.0,0.0,0.08951427472688007,0.0,0.0,0.0,0.0,0.0,0.0,-10.796,0.0,0.0,0.0,0.0,0.0
640,0.0,-0.1102587890625,0.0,0.0,0.0,0.0,0.0,0.0,0.094,0.0,0.0,0.0,0.0,0.0,0.0,0.11901010748058763,0.0,0.0,0.0,0.0,0.0,0.0,-9.232,0.0,0.0,0.0,0.0,0.0
641,0.0,-0.107576171875,0.0,0.0,0.0,0.0,0.0,0.0,0.193,0.0,0.0,0.0,0.0,0.0,0.0,0.14824471762523722,0.0,0.0,0.0,0.0,0.0,0.0,-9.824,0.0,0.0,0.0,0.0,0.0
642,0.0,-0.1037685546875,0.0,0.0,0.0,0.0,0.0,0.0,0.314,0.0,0.0,0.0,0.0,0.0,0.0,0.17691081367401404,0.0,0.0,0.0,0.0,0.0,0.0,-12.524,0.0,0.0,0.0,0.0,0.0
643,0.0,-0.098931640625,0.0,0.0,0.0,0.0,0.0,0.0,0.426,0.0,0.0,0.0,0.0,0.0,0.0,0.20545963607932752,0.0,0.0,0.0,0.0,0.0,0.0,-16.14,0.0,0.0,0.0,0.0,0.0
644,0.0,-0.0935810546875,0.0,0.0,0.0,0.0,0.0,0.0,0.514,0.0,0.0,0.0,0.0,0.0,0.0,0.2334821323611921,0.0,0.0,0.0,0.0,0.0,0.0,-18.624,0.0,0.0,0.0,0.0,0.0
645,0.0,-0.088017578125,0.0,0.0,0.0,0.0,0.0,0.0,0.543,0.0,0.0,0.0,0.0,0.0,0.0,0.26069309382602673,0.0,0.0,0.0,0.0,0.0,0.0,-19.92,0.0,0.0,0.0,0.0,0.0
646,0.0,-0.0821455078125,0.0,0.0,0.0,0.0,0.0,0.0,0.574,0.0,0.0,0.0,0.0,0.0,0.0,0.2873392892388976,0.0,0.0,0.0,0.0,0.0,0.0,-23.752,0.0,0.0,0.0,0.0,0.0
647,0.0,-0.0763818359375,0.0,0.0,0.0,0.0,0.0,0.0,0.581,0.0,0.0,0.0,0.0,0.0,0.0,0.3133974012697918,0.0,0.0,0.0,0.0,0.0,0.0,-30.612,0.0,0.0,0.0,0.0,0.0
648,0.0,-0.070201171875,0.0,0.0,0.0,0.0,0.0,0.0,0.594,0.0,0.0,0.0,0.0,0.0,0.0,0.3385029697401588,0.0,0.0,0.0,0.0,0.0,0.0,-35.092,0.0,0.0,0.0,0.0,0.0
649,0.0,-0.0636083984375,0.0,0.0,0.0,0.0,0.0,0.0,0.643,0.0,0.0,0.0,0.0,0.0,0.0,0.3627869034000825,0.0,0.0,0.0,0.0,0.0,0.0,-37.196,0.0,0.0,0.0,0.0,0.0
650,0.0,-0.0566044921875,0.0,0.0,0.0,0.0,0.0,0.0,0.679,0.0,0.0,0.0,0.0,0.0,0.0,0.386422524892596,0.0,0.0,0.0,0.0,0.0,0.0,-34.876,0.0,0.0,0.0,0.0,0.0
651,0.0,-0.04950390625,0.0,0.0,0.0,0.0,0.0,0.0,0.716,0.0,0.0,0.0,0.0,0.0,0.0,0.4087725103589912,0.0,0.0,0.0,0.0,0.0,0.0,-39.412,0.0,0.0,0.0,0.0,0.0
652,0.0,-0.0431171875,0.0,0.0,0.0,0.0,0.0,0.0,0.686,0.0,0.0,0.0,0.0,0.0,0.0,0.4301875321553434,0.0,0.0,0.0,0.0,0.0,0.0,-45.672,0.0,0.0,0.0,0.0,0.0
653,0.0,-0.036626953125,0.0,0.0,0.0,0.0,0.0,0.0,0.637,0.0,0.0,0.0,0.0,0.0,0.0,0.4507938842607513,0.0,0.0,0.0,0.0,0.0,0.0,-46.808,0.0,0.0,0.0,0.0,0.0
654,0.0,-0.0298291015625,0.0,0.0,0.0,0.0,0.0,0.0,0.673,0.0,0.0,0.0,0.0,0.0,0.0,0.469848622971731,0.0,0.0,0.0,0.0,0.0,0.0,-44.108,0.0,0.0,0.0,0.0,0.0
655,0.0,-0.0235517578125,0.0,0.0,0.0,0.0,0.0,0.0,0.655,0.0,0.0,0.0,0.0,0.0,0.0,0.48794078953272824,0.0,0.0,0.0,0.0,0.0,0.0,-46.916,0.0,0.0,0.0,0.0,0.0
656,0.0,-0.016958984375,0.0,0.0,0.0,0.0,0.0,0.0,0.647,0.0,0.0,0.0,0.0,0.0,0.0,0.5048548416149036,0.0,0.0,0.0,0.0,0.0,0.0,-52.908,0.0,0.0,0.0,0.0,0.0
657,0.0,-0.010572265625,0.0,0.0,0.0,0.0,0.0,0.0,0.66,0.0,0.0,0.0,0.0,0.0,0.0,0.5203521773897888,0.0,0.0,0.0,0.0,0.0,0.0,-53.936,0.0,0.0,0.0,0.0,0.0
658,0.0,-0.0047001953125,0.0,0.0,0.0,0.0,0.0,0.0,0.614,0.0,0.0,0.0,0.0,0.0,0.0,0.5345894233741415,0.0,0.0,0.0,0.0,0.0,0.0,-51.396,0.0,0.0,0.0,0.0,0.0
659,0.0,0.000857421875,0.0,0.0,0.0,0.0,0.0,0.0,0.582,0.0,0.0,0.0,0.0,0.0,0.0,0.5475505227399061,0.0,0.0,0.0,0.0,0.0,0.0,-55.068,0.0,0.0,0.0,0.0,0.0
660,0.0,0.0061123046875,0.0,0.0,0.0,0.0,0.0,0.0,0.548,0.0,0.0,0.0,0.0,0.0,0.0,0.5591168724954463,0.0,0.0,0.0,0.0,0.0,0.0,-57.984,0.0,0.0,0.0,0.0,0.0
661,0.0,0.0116689453125,0.0,0.0,0.0,0.0,0.0,0.0,0.534,0.0,0.0,0.0,0.0,0.0,0.0,0.5692790321047245,0.0,0.0,0.0,0.0,0.0,0.0,-57.228,0.0,0.0,0.0,0.0,0.0
662,0.0,0.016923828125,0.0,0.0,0.0,0.0,0.0,0.0,0.551,0.0,0.0,0.0,0.0,0.0,0.0,0.5780690374317276,0.0,0.0,0.0,0.0,0.0,0.0,-55.608,0.0,0.0,0.0,0.0,0.0
663,0.0,0.02135546875,0.0,0.0,0.0,0.0,0.0,0.0,0.497,0.0,0.0,0.0,0.0,0.0,0.0,0.5853767710103056,0.0,0.0,0.0,0.0,0.0,0.0,-56.904,0.0,0.0,0.0,0.0,0.0
664,0.0,0.02557421875,0.0,0.0,0.0,0.0,0.0,0.0,0.435,0.0,0.0,0.0,0.0,0.0,0.0,0.5912151537465209,0.0,0.0,0.0,0.0,0.0,0.0,-58.792,0.0,0.0,0.0,0.0,0.0
665,0.0,0.029587890625,0.0,0.0,0.0,0.0,0.0,0.0,0.414,0.0,0.0,0.0,0.0,0.0,0.0,0.5955977353089046,0.0,0.0,0.0,0.0,0.0,0.0,-56.848,0.0,0.0,0.0,0.0,0.0
666,0.0,0.033607421875,0.0,0.0,0.0,0.0,0.0,0.0,0.404,0.0,0.0,0.0,0.0,0.0,0.0,0.5984850684492102,0.0,0.0,0.0,0.0,0.0,0.0,-53.288,0.0,0.0,0.0,0.0,0.0
667,0.0,0.037724609375,0.0,0.0,0.0,0.0,0.0,0.0,0.408,0.0,0.0,0.0,0.0,0.0,0.0,0.5998665551052498,0.0,0.0,0.0,0.0,0.0,0.0,-51.668,0.0,0.0,0.0,0.0,0.0
668,0.0,0.0412294921875,0.0,0.0,0.0,0.0,0.0,0.0,0.39,0.0,0.0,0.0,0.0,0.0,0.0,0.5997467924030238,0.0,0.0,0.0,0.0,0.0,0.0,-54.204,0.0,0.0,0.0,0.0,0.0
