EmanuelSamir/lab201_ws_projsamir/sawyer_dev/data/sawyer/vel_acel_ns/test_joint2/training_data_15.csv
,j1,j2,j3,j4,j5,j6,j7,v1,v2,v3,v4,v5,v6,v7,jd1,jd2,jd3,jd4,jd5,jd6,jd7,e1,e2,e3,e4,e5,e6,e7
0,0.0,0.0,0.0,0.0,0.0,0.0,0.0,0.0,0.0,0.0,0.0,0.0,0.0,0.0,0.0,0.0,0.0,0.0,0.0,0.0,0.0,0.0,0.0,0.0,0.0,0.0,0.0,0.0
1,0.0,-0.001509765625,0.0,0.0,0.0,0.0,0.0,0.0,-0.001,0.0,0.0,0.0,0.0,0.0,0.0,5.3858756946713505e-05,0.0,0.0,0.0,0.0,0.0,0.0,-44.268,0.0,0.0,0.0,0.0,0.0
2,0.0,-0.001509765625,0.0,0.0,0.0,0.0,0.0,0.0,-0.001,0.0,0.0,0.0,0.0,0.0,0.0,0.007782050320911605,0.0,0.0,0.0,0.0,0.0,0.0,-44.324,0.0,0.0,0.0,0.0,0.0
3,0.0,-0.001509765625,0.0,0.0,0.0,0.0,0.0,0.0,-0.001,0.0,0.0,0.0,0.0,0.0,0.0,0.016875306360340837,0.0,0.0,0.0,0.0,0.0,0.0,-44.324,0.0,0.0,0.0,0.0,0.0
4,0.0,-0.001509765625,0.0,0.0,0.0,0.0,0.0,0.0,-0.001,0.0,0.0,0.0,0.0,0.0,0.0,0.025852565774686136,0.0,0.0,0.0,0.0,0.0,0.0,-44.324,0.0,0.0,0.0,0.0,0.0
5,0.0,-0.001201171875,0.0,0.0,0.0,0.0,0.0,0.0,0.007,0.0,0.0,0.0,0.0,0.0,0.0,0.03483109946504518,0.0,0.0,0.0,0.0,0.0,0.0,-41.788,0.0,0.0,0.0,0.0,0.0
6,0.0,-6.93359375e-05,0.0,0.0,0.0,0.0,0.0,0.0,0.06,0.0,0.0,0.0,0.0,0.0,0.0,0.04380438154953767,0.0,0.0,0.0,0.0,0.0,0.0,-35.308,0.0,0.0,0.0,0.0,0.0
7,0.0,0.0015771484375,0.0,0.0,0.0,0.0,0.0,0.0,0.138,0.0,0.0,0.0,0.0,0.0,0.0,0.05276162520766407,0.0,0.0,0.0,0.0,0.0,0.0,-30.772,0.0,0.0,0.0,0.0,0.0
8,0.0,0.00384765625,0.0,0.0,0.0,0.0,0.0,0.0,0.189,0.0,0.0,0.0,0.0,0.0,0.0,0.061743744754413216,0.0,0.0,0.0,0.0,0.0,0.0,-27.912,0.0,0.0,0.0,0.0,0.0
9,0.0,0.0065234375,0.0,0.0,0.0,0.0,0.0,0.0,0.247,0.0,0.0,0.0,0.0,0.0,0.0,0.07074514052817227,0.0,0.0,0.0,0.0,0.0,0.0,-26.832,0.0,0.0,0.0,0.0,0.0
10,0.0,0.00919921875,0.0,0.0,0.0,0.0,0.0,0.0,0.27,0.0,0.0,0.0,0.0,0.0,0.0,0.07960897882528943,0.0,0.0,0.0,0.0,0.0,0.0,-26.292,0.0,0.0,0.0,0.0,0.0
11,0.0,0.0127041015625,0.0,0.0,0.0,0.0,0.0,0.0,0.296,0.0,0.0,0.0,0.0,0.0,0.0,0.088541331160218,0.0,0.0,0.0,0.0,0.0,0.0,-24.4,0.0,0.0,0.0,0.0,0.0
12,0.0,0.0170263671875,0.0,0.0,0.0,0.0,0.0,0.0,0.387,0.0,0.0,0.0,0.0,0.0,0.0,0.09749389498636894,0.0,0.0,0.0,0.0,0.0,0.0,-24.4,0.0,0.0,0.0,0.0,0.0
13,0.0,0.0215615234375,0.0,0.0,0.0,0.0,0.0,0.0,0.442,0.0,0.0,0.0,0.0,0.0,0.0,0.10626372236582543,0.0,0.0,0.0,0.0,0.0,0.0,-27.748,0.0,0.0,0.0,0.0,0.0
14,0.0,0.0263974609375,0.0,0.0,0.0,0.0,0.0,0.0,0.468,0.0,0.0,0.0,0.0,0.0,0.0,0.11517275081682377,0.0,0.0,0.0,0.0,0.0,0.0,-32.768,0.0,0.0,0.0,0.0,0.0
15,0.0,0.03103515625,0.0,0.0,0.0,0.0,0.0,0.0,0.483,0.0,0.0,0.0,0.0,0.0,0.0,0.12397529314990902,0.0,0.0,0.0,0.0,0.0,0.0,-36.008,0.0,0.0,0.0,0.0,0.0
16,0.0,0.0354599609375,0.0,0.0,0.0,0.0,0.0,0.0,0.458,0.0,0.0,0.0,0.0,0.0,0.0,0.13278876052541225,0.0,0.0,0.0,0.0,0.0,0.0,-37.844,0.0,0.0,0.0,0.0,0.0
17,0.0,0.0405087890625,0.0,0.0,0.0,0.0,0.0,0.0,0.467,0.0,0.0,0.0,0.0,0.0,0.0,0.14156865646669206,0.0,0.0,0.0,0.0,0.0,0.0,-39.248,0.0,0.0,0.0,0.0,0.0
18,0.0,0.051423828125,0.0,0.0,0.0,0.0,0.0,0.0,0.552,0.0,0.0,0.0,0.0,0.0,0.0,0.16222946118181625,0.0,0.0,0.0,0.0,0.0,0.0,-41.732,0.0,0.0,0.0,0.0,0.0
19,0.0,0.05678125,0.0,0.0,0.0,0.0,0.0,0.0,0.552,0.0,0.0,0.0,0.0,0.0,0.0,0.16844657562866752,0.0,0.0,0.0,0.0,0.0,0.0,-44.376,0.0,0.0,0.0,0.0,0.0
20,0.0,0.061720703125,0.0,0.0,0.0,0.0,0.0,0.0,0.522,0.0,0.0,0.0,0.0,0.0,0.0,0.17428565519081327,0.0,0.0,0.0,0.0,0.0,0.0,-46.212,0.0,0.0,0.0,0.0,0.0
21,0.0,0.061720703125,0.0,0.0,0.0,0.0,0.0,0.0,0.522,0.0,0.0,0.0,0.0,0.0,0.0,0.18197392438156093,0.0,0.0,0.0,0.0,0.0,0.0,-46.212,0.0,0.0,0.0,0.0,0.0
22,0.0,0.0664609375,0.0,0.0,0.0,0.0,0.0,0.0,0.487,0.0,0.0,0.0,0.0,0.0,0.0,0.18756023314182946,0.0,0.0,0.0,0.0,0.0,0.0,-46.104,0.0,0.0,0.0,0.0,0.0
23,0.0,0.0716064453125,0.0,0.0,0.0,0.0,0.0,0.0,0.492,0.0,0.0,0.0,0.0,0.0,0.0,0.19339611602714724,0.0,0.0,0.0,0.0,0.0,0.0,-44.7,0.0,0.0,0.0,0.0,0.0
24,0.0,0.07696484375,0.0,0.0,0.0,0.0,0.0,0.0,0.525,0.0,0.0,0.0,0.0,0.0,0.0,0.20210382048157424,0.0,0.0,0.0,0.0,0.0,0.0,-45.08,0.0,0.0,0.0,0.0,0.0
25,0.0,0.082212890625,0.0,0.0,0.0,0.0,0.0,0.0,0.537,0.0,0.0,0.0,0.0,0.0,0.0,0.2102547973597465,0.0,0.0,0.0,0.0,0.0,0.0,-46.644,0.0,0.0,0.0,0.0,0.0
26,0.0,0.0871591796875,0.0,0.0,0.0,0.0,0.0,0.0,0.517,0.0,0.0,0.0,0.0,0.0,0.0,0.2187128898969611,0.0,0.0,0.0,0.0,0.0,0.0,-48.264,0.0,0.0,0.0,0.0,0.0
27,0.0,0.0917900390625,0.0,0.0,0.0,0.0,0.0,0.0,0.484,0.0,0.0,0.0,0.0,0.0,0.0,0.22711539195504765,0.0,0.0,0.0,0.0,0.0,0.0,-48.264,0.0,0.0,0.0,0.0,0.0
28,0.0,0.0965302734375,0.0,0.0,0.0,0.0,0.0,0.0,0.468,0.0,0.0,0.0,0.0,0.0,0.0,0.23530812286191477,0.0,0.0,0.0,0.0,0.0,0.0,-47.24,0.0,0.0,0.0,0.0,0.0
29,0.0,0.1014755859375,0.0,0.0,0.0,0.0,0.0,0.0,0.485,0.0,0.0,0.0,0.0,0.0,0.0,0.2437766103437903,0.0,0.0,0.0,0.0,0.0,0.0,-47.616,0.0,0.0,0.0,0.0,0.0
30,0.0,0.106306640625,0.0,0.0,0.0,0.0,0.0,0.0,0.49,0.0,0.0,0.0,0.0,0.0,0.0,0.25185005343901684,0.0,0.0,0.0,0.0,0.0,0.0,-48.752,0.0,0.0,0.0,0.0,0.0
31,0.0,0.110943359375,0.0,0.0,0.0,0.0,0.0,0.0,0.484,0.0,0.0,0.0,0.0,0.0,0.0,0.25994394418925476,0.0,0.0,0.0,0.0,0.0,0.0,-49.724,0.0,0.0,0.0,0.0,0.0
32,0.0,0.115265625,0.0,0.0,0.0,0.0,0.0,0.0,0.45,0.0,0.0,0.0,0.0,0.0,0.0,0.26803069634795246,0.0,0.0,0.0,0.0,0.0,0.0,-48.968,0.0,0.0,0.0,0.0,0.0
33,0.0,0.1194912109375,0.0,0.0,0.0,0.0,0.0,0.0,0.426,0.0,0.0,0.0,0.0,0.0,0.0,0.2761010792252364,0.0,0.0,0.0,0.0,0.0,0.0,-47.616,0.0,0.0,0.0,0.0,0.0
34,0.0,0.1238134765625,0.0,0.0,0.0,0.0,0.0,0.0,0.433,0.0,0.0,0.0,0.0,0.0,0.0,0.2840562266825338,0.0,0.0,0.0,0.0,0.0,0.0,-47.616,0.0,0.0,0.0,0.0,0.0
35,0.0,0.128033203125,0.0,0.0,0.0,0.0,0.0,0.0,0.429,0.0,0.0,0.0,0.0,0.0,0.0,0.29188453743435255,0.0,0.0,0.0,0.0,0.0,0.0,-48.264,0.0,0.0,0.0,0.0,0.0
36,0.0,0.1321552734375,0.0,0.0,0.0,0.0,0.0,0.0,0.42,0.0,0.0,0.0,0.0,0.0,0.0,0.299776365700652,0.0,0.0,0.0,0.0,0.0,0.0,-48.48,0.0,0.0,0.0,0.0,0.0
37,0.0,0.1358603515625,0.0,0.0,0.0,0.0,0.0,0.0,0.4,0.0,0.0,0.0,0.0,0.0,0.0,0.3074519061741478,0.0,0.0,0.0,0.0,0.0,0.0,-47.94,0.0,0.0,0.0,0.0,0.0
38,0.0,0.13946875,0.0,0.0,0.0,0.0,0.0,0.0,0.364,0.0,0.0,0.0,0.0,0.0,0.0,0.3151494713801457,0.0,0.0,0.0,0.0,0.0,0.0,-46.7,0.0,0.0,0.0,0.0,0.0
39,0.0,0.1431728515625,0.0,0.0,0.0,0.0,0.0,0.0,0.368,0.0,0.0,0.0,0.0,0.0,0.0,0.3229216548740458,0.0,0.0,0.0,0.0,0.0,0.0,-46.052,0.0,0.0,0.0,0.0,0.0
40,0.0,0.1469873046875,0.0,0.0,0.0,0.0,0.0,0.0,0.377,0.0,0.0,0.0,0.0,0.0,0.0,0.33039228394648423,0.0,0.0,0.0,0.0,0.0,0.0,-46.104,0.0,0.0,0.0,0.0,0.0
41,0.0,0.150595703125,0.0,0.0,0.0,0.0,0.0,0.0,0.373,0.0,0.0,0.0,0.0,0.0,0.0,0.3378138769811972,0.0,0.0,0.0,0.0,0.0,0.0,-46.268,0.0,0.0,0.0,0.0,0.0
42,0.0,0.154197265625,0.0,0.0,0.0,0.0,0.0,0.0,0.367,0.0,0.0,0.0,0.0,0.0,0.0,0.3452128559346564,0.0,0.0,0.0,0.0,0.0,0.0,-45.62,0.0,0.0,0.0,0.0,0.0
43,0.0,0.1574970703125,0.0,0.0,0.0,0.0,0.0,0.0,0.346,0.0,0.0,0.0,0.0,0.0,0.0,0.35260414836481585,0.0,0.0,0.0,0.0,0.0,0.0,-44.268,0.0,0.0,0.0,0.0,0.0
44,0.0,0.160892578125,0.0,0.0,0.0,0.0,0.0,0.0,0.333,0.0,0.0,0.0,0.0,0.0,0.0,0.35990154181163336,0.0,0.0,0.0,0.0,0.0,0.0,-43.028,0.0,0.0,0.0,0.0,0.0
45,0.0,0.1643916015625,0.0,0.0,0.0,0.0,0.0,0.0,0.343,0.0,0.0,0.0,0.0,0.0,0.0,0.36707817885720984,0.0,0.0,0.0,0.0,0.0,0.0,-42.544,0.0,0.0,0.0,0.0,0.0
46,0.0,0.168,0.0,0.0,0.0,0.0,0.0,0.0,0.358,0.0,0.0,0.0,0.0,0.0,0.0,0.37406146285025577,0.0,0.0,0.0,0.0,0.0,0.0,-42.38,0.0,0.0,0.0,0.0,0.0
47,0.0,0.1716015625,0.0,0.0,0.0,0.0,0.0,0.0,0.362,0.0,0.0,0.0,0.0,0.0,0.0,0.38102747317365154,0.0,0.0,0.0,0.0,0.0,0.0,-42.976,0.0,0.0,0.0,0.0,0.0
48,0.0,0.1751005859375,0.0,0.0,0.0,0.0,0.0,0.0,0.358,0.0,0.0,0.0,0.0,0.0,0.0,0.3879675485856749,0.0,0.0,0.0,0.0,0.0,0.0,-42.38,0.0,0.0,0.0,0.0,0.0
49,0.0,0.1786064453125,0.0,0.0,0.0,0.0,0.0,0.0,0.354,0.0,0.0,0.0,0.0,0.0,0.0,0.3947951464080663,0.0,0.0,0.0,0.0,0.0,0.0,-41.68,0.0,0.0,0.0,0.0,0.0
50,0.0,0.182310546875,0.0,0.0,0.0,0.0,0.0,0.0,0.36,0.0,0.0,0.0,0.0,0.0,0.0,0.4014948503329587,0.0,0.0,0.0,0.0,0.0,0.0,-41.68,0.0,0.0,0.0,0.0,0.0
51,0.0,0.186021484375,0.0,0.0,0.0,0.0,0.0,0.0,0.373,0.0,0.0,0.0,0.0,0.0,0.0,0.408232497064312,0.0,0.0,0.0,0.0,0.0,0.0,-41.732,0.0,0.0,0.0,0.0,0.0
52,0.0,0.1898291015625,0.0,0.0,0.0,0.0,0.0,0.0,0.381,0.0,0.0,0.0,0.0,0.0,0.0,0.4147398168061584,0.0,0.0,0.0,0.0,0.0,0.0,-42.056,0.0,0.0,0.0,0.0,0.0
53,0.0,0.19363671875,0.0,0.0,0.0,0.0,0.0,0.0,0.383,0.0,0.0,0.0,0.0,0.0,0.0,0.42116587932592736,0.0,0.0,0.0,0.0,0.0,0.0,-42.38,0.0,0.0,0.0,0.0,0.0
54,0.0,0.197451171875,0.0,0.0,0.0,0.0,0.0,0.0,0.381,0.0,0.0,0.0,0.0,0.0,0.0,0.42757125476738,0.0,0.0,0.0,0.0,0.0,0.0,-42.22,0.0,0.0,0.0,0.0,0.0
55,0.0,0.2012587890625,0.0,0.0,0.0,0.0,0.0,0.0,0.381,0.0,0.0,0.0,0.0,0.0,0.0,0.43384369303660536,0.0,0.0,0.0,0.0,0.0,0.0,-41.464,0.0,0.0,0.0,0.0,0.0
56,0.0,0.20517578125,0.0,0.0,0.0,0.0,0.0,0.0,0.391,0.0,0.0,0.0,0.0,0.0,0.0,0.4399535293085406,0.0,0.0,0.0,0.0,0.0,0.0,-41.356,0.0,0.0,0.0,0.0,0.0
57,0.0,0.2092919921875,0.0,0.0,0.0,0.0,0.0,0.0,0.4,0.0,0.0,0.0,0.0,0.0,0.0,0.4459968222319479,0.0,0.0,0.0,0.0,0.0,0.0,-41.732,0.0,0.0,0.0,0.0,0.0
58,0.0,0.2134150390625,0.0,0.0,0.0,0.0,0.0,0.0,0.414,0.0,0.0,0.0,0.0,0.0,0.0,0.45202885133626264,0.0,0.0,0.0,0.0,0.0,0.0,-42.164,0.0,0.0,0.0,0.0,0.0
59,0.0,0.2174287109375,0.0,0.0,0.0,0.0,0.0,0.0,0.408,0.0,0.0,0.0,0.0,0.0,0.0,0.4578925590972288,0.0,0.0,0.0,0.0,0.0,0.0,-42.544,0.0,0.0,0.0,0.0,0.0
60,0.0,0.22144140625,0.0,0.0,0.0,0.0,0.0,0.0,0.405,0.0,0.0,0.0,0.0,0.0,0.0,0.4636345707872903,0.0,0.0,0.0,0.0,0.0,0.0,-42.544,0.0,0.0,0.0,0.0,0.0
61,0.0,0.225564453125,0.0,0.0,0.0,0.0,0.0,0.0,0.407,0.0,0.0,0.0,0.0,0.0,0.0,0.4693004849808459,0.0,0.0,0.0,0.0,0.0,0.0,-42.38,0.0,0.0,0.0,0.0,0.0
62,0.0,0.2296806640625,0.0,0.0,0.0,0.0,0.0,0.0,0.414,0.0,0.0,0.0,0.0,0.0,0.0,0.47481494949808195,0.0,0.0,0.0,0.0,0.0,0.0,-42.596,0.0,0.0,0.0,0.0,0.0
63,0.0,0.2338037109375,0.0,0.0,0.0,0.0,0.0,0.0,0.414,0.0,0.0,0.0,0.0,0.0,0.0,0.480280731194373,0.0,0.0,0.0,0.0,0.0,0.0,-43.028,0.0,0.0,0.0,0.0,0.0
64,0.0,0.2380224609375,0.0,0.0,0.0,0.0,0.0,0.0,0.42,0.0,0.0,0.0,0.0,0.0,0.0,0.4857085698637799,0.0,0.0,0.0,0.0,0.0,0.0,-43.296,0.0,0.0,0.0,0.0,0.0
65,0.0,0.2421396484375,0.0,0.0,0.0,0.0,0.0,0.0,0.42,0.0,0.0,0.0,0.0,0.0,0.0,0.4908579246091796,0.0,0.0,0.0,0.0,0.0,0.0,-43.676,0.0,0.0,0.0,0.0,0.0
66,0.0,0.246365234375,0.0,0.0,0.0,0.0,0.0,0.0,0.418,0.0,0.0,0.0,0.0,0.0,0.0,0.49598028614852013,0.0,0.0,0.0,0.0,0.0,0.0,-43.836,0.0,0.0,0.0,0.0,0.0
67,0.0,0.2504814453125,0.0,0.0,0.0,0.0,0.0,0.0,0.42,0.0,0.0,0.0,0.0,0.0,0.0,0.5009954507834862,0.0,0.0,0.0,0.0,0.0,0.0,-43.46,0.0,0.0,0.0,0.0,0.0
68,0.0,0.2546044921875,0.0,0.0,0.0,0.0,0.0,0.0,0.414,0.0,0.0,0.0,0.0,0.0,0.0,0.505864599774671,0.0,0.0,0.0,0.0,0.0,0.0,-43.244,0.0,0.0,0.0,0.0,0.0
69,0.0,0.258720703125,0.0,0.0,0.0,0.0,0.0,0.0,0.414,0.0,0.0,0.0,0.0,0.0,0.0,0.5106949706033882,0.0,0.0,0.0,0.0,0.0,0.0,-43.244,0.0,0.0,0.0,0.0,0.0
70,0.0,0.2628427734375,0.0,0.0,0.0,0.0,0.0,0.0,0.415,0.0,0.0,0.0,0.0,0.0,0.0,0.5154066745237771,0.0,0.0,0.0,0.0,0.0,0.0,-43.244,0.0,0.0,0.0,0.0,0.0
71,0.0,0.2669599609375,0.0,0.0,0.0,0.0,0.0,0.0,0.414,0.0,0.0,0.0,0.0,0.0,0.0,0.5198707661463811,0.0,0.0,0.0,0.0,0.0,0.0,-43.512,0.0,0.0,0.0,0.0,0.0
72,0.0,0.27097265625,0.0,0.0,0.0,0.0,0.0,0.0,0.406,0.0,0.0,0.0,0.0,0.0,0.0,0.5242892920378451,0.0,0.0,0.0,0.0,0.0,0.0,-43.46,0.0,0.0,0.0,0.0,0.0
73,0.0,0.2749931640625,0.0,0.0,0.0,0.0,0.0,0.0,0.408,0.0,0.0,0.0,0.0,0.0,0.0,0.5286345783940152,0.0,0.0,0.0,0.0,0.0,0.0,-43.192,0.0,0.0,0.0,0.0,0.0
74,0.0,0.279005859375,0.0,0.0,0.0,0.0,0.0,0.0,0.402,0.0,0.0,0.0,0.0,0.0,0.0,0.5328386343075016,0.0,0.0,0.0,0.0,0.0,0.0,-43.192,0.0,0.0,0.0,0.0,0.0
75,0.0,0.2830263671875,0.0,0.0,0.0,0.0,0.0,0.0,0.401,0.0,0.0,0.0,0.0,0.0,0.0,0.5368947399891296,0.0,0.0,0.0,0.0,0.0,0.0,-43.028,0.0,0.0,0.0,0.0,0.0
76,0.0,0.2870390625,0.0,0.0,0.0,0.0,0.0,0.0,0.405,0.0,0.0,0.0,0.0,0.0,0.0,0.5408643957156549,0.0,0.0,0.0,0.0,0.0,0.0,-43.028,0.0,0.0,0.0,0.0,0.0
77,0.0,0.291052734375,0.0,0.0,0.0,0.0,0.0,0.0,0.402,0.0,0.0,0.0,0.0,0.0,0.0,0.5446904358603907,0.0,0.0,0.0,0.0,0.0,0.0,-43.676,0.0,0.0,0.0,0.0,0.0
78,0.0,0.2950732421875,0.0,0.0,0.0,0.0,0.0,0.0,0.4,0.0,0.0,0.0,0.0,0.0,0.0,0.5484033055163068,0.0,0.0,0.0,0.0,0.0,0.0,-43.244,0.0,0.0,0.0,0.0,0.0
79,0.0,0.2989833984375,0.0,0.0,0.0,0.0,0.0,0.0,0.401,0.0,0.0,0.0,0.0,0.0,0.0,0.5522161662117733,0.0,0.0,0.0,0.0,0.0,0.0,-42.596,0.0,0.0,0.0,0.0,0.0
80,0.0,0.302900390625,0.0,0.0,0.0,0.0,0.0,0.0,0.394,0.0,0.0,0.0,0.0,0.0,0.0,0.5554591273388367,0.0,0.0,0.0,0.0,0.0,0.0,-42.272,0.0,0.0,0.0,0.0,0.0
81,0.0,0.306810546875,0.0,0.0,0.0,0.0,0.0,0.0,0.396,0.0,0.0,0.0,0.0,0.0,0.0,0.5588069000003467,0.0,0.0,0.0,0.0,0.0,0.0,-42.112,0.0,0.0,0.0,0.0,0.0
82,0.0,0.31082421875,0.0,0.0,0.0,0.0,0.0,0.0,0.395,0.0,0.0,0.0,0.0,0.0,0.0,0.5620117637148303,0.0,0.0,0.0,0.0,0.0,0.0,-42.164,0.0,0.0,0.0,0.0,0.0
83,0.0,0.3147412109375,0.0,0.0,0.0,0.0,0.0,0.0,0.397,0.0,0.0,0.0,0.0,0.0,0.0,0.5650969160104806,0.0,0.0,0.0,0.0,0.0,0.0,-42.488,0.0,0.0,0.0,0.0,0.0
84,0.0,0.3186513671875,0.0,0.0,0.0,0.0,0.0,0.0,0.397,0.0,0.0,0.0,0.0,0.0,0.0,0.5680658854251057,0.0,0.0,0.0,0.0,0.0,0.0,-42.164,0.0,0.0,0.0,0.0,0.0
85,0.0,0.3225625,0.0,0.0,0.0,0.0,0.0,0.0,0.395,0.0,0.0,0.0,0.0,0.0,0.0,0.5708972433619551,0.0,0.0,0.0,0.0,0.0,0.0,-42.056,0.0,0.0,0.0,0.0,0.0
86,0.0,0.3264794921875,0.0,0.0,0.0,0.0,0.0,0.0,0.39,0.0,0.0,0.0,0.0,0.0,0.0,0.5736098096556941,0.0,0.0,0.0,0.0,0.0,0.0,-41.896,0.0,0.0,0.0,0.0,0.0
87,0.0,0.3303896484375,0.0,0.0,0.0,0.0,0.0,0.0,0.394,0.0,0.0,0.0,0.0,0.0,0.0,0.5761626081904268,0.0,0.0,0.0,0.0,0.0,0.0,-41.896,0.0,0.0,0.0,0.0,0.0
88,0.0,0.3344091796875,0.0,0.0,0.0,0.0,0.0,0.0,0.398,0.0,0.0,0.0,0.0,0.0,0.0,0.5786207857704684,0.0,0.0,0.0,0.0,0.0,0.0,-41.948,0.0,0.0,0.0,0.0,0.0
89,0.0,0.3383203125,0.0,0.0,0.0,0.0,0.0,0.0,0.401,0.0,0.0,0.0,0.0,0.0,0.0,0.5809488068289311,0.0,0.0,0.0,0.0,0.0,0.0,-42.544,0.0,0.0,0.0,0.0,0.0
90,0.0,0.342333984375,0.0,0.0,0.0,0.0,0.0,0.0,0.397,0.0,0.0,0.0,0.0,0.0,0.0,0.5831190900463896,0.0,0.0,0.0,0.0,0.0,0.0,-42.112,0.0,0.0,0.0,0.0,0.0
91,0.0,0.3462509765625,0.0,0.0,0.0,0.0,0.0,0.0,0.398,0.0,0.0,0.0,0.0,0.0,0.0,0.585170690515595,0.0,0.0,0.0,0.0,0.0,0.0,-41.624,0.0,0.0,0.0,0.0,0.0
92,0.0,0.35016796875,0.0,0.0,0.0,0.0,0.0,0.0,0.394,0.0,0.0,0.0,0.0,0.0,0.0,0.5871045125276221,0.0,0.0,0.0,0.0,0.0,0.0,-41.464,0.0,0.0,0.0,0.0,0.0
93,0.0,0.3541806640625,0.0,0.0,0.0,0.0,0.0,0.0,0.395,0.0,0.0,0.0,0.0,0.0,0.0,0.5888803172327848,0.0,0.0,0.0,0.0,0.0,0.0,-41.248,0.0,0.0,0.0,0.0,0.0
94,0.0,0.35809765625,0.0,0.0,0.0,0.0,0.0,0.0,0.4,0.0,0.0,0.0,0.0,0.0,0.0,0.590541711529581,0.0,0.0,0.0,0.0,0.0,0.0,-41.248,0.0,0.0,0.0,0.0,0.0
95,0.0,0.362111328125,0.0,0.0,0.0,0.0,0.0,0.0,0.4,0.0,0.0,0.0,0.0,0.0,0.0,0.5920822422688438,0.0,0.0,0.0,0.0,0.0,0.0,-41.732,0.0,0.0,0.0,0.0,0.0
96,0.0,0.366130859375,0.0,0.0,0.0,0.0,0.0,0.0,0.401,0.0,0.0,0.0,0.0,0.0,0.0,0.5934651942237508,0.0,0.0,0.0,0.0,0.0,0.0,-41.464,0.0,0.0,0.0,0.0,0.0
97,0.0,0.3700419921875,0.0,0.0,0.0,0.0,0.0,0.0,0.398,0.0,0.0,0.0,0.0,0.0,0.0,0.5947191166408111,0.0,0.0,0.0,0.0,0.0,0.0,-41.248,0.0,0.0,0.0,0.0,0.0
98,0.0,0.3740556640625,0.0,0.0,0.0,0.0,0.0,0.0,0.397,0.0,0.0,0.0,0.0,0.0,0.0,0.5958507278450959,0.0,0.0,0.0,0.0,0.0,0.0,-41.14,0.0,0.0,0.0,0.0,0.0
99,0.0,0.3779716796875,0.0,0.0,0.0,0.0,0.0,0.0,0.4,0.0,0.0,0.0,0.0,0.0,0.0,0.5968363739316436,0.0,0.0,0.0,0.0,0.0,0.0,-41.192,0.0,0.0,0.0,0.0,0.0
100,0.0,0.3819853515625,0.0,0.0,0.0,0.0,0.0,0.0,0.399,0.0,0.0,0.0,0.0,0.0,0.0,0.5976907843521652,0.0,0.0,0.0,0.0,0.0,0.0,-41.464,0.0,0.0,0.0,0.0,0.0
101,0.0,0.3859990234375,0.0,0.0,0.0,0.0,0.0,0.0,0.402,0.0,0.0,0.0,0.0,0.0,0.0,0.5984155017342142,0.0,0.0,0.0,0.0,0.0,0.0,-41.896,0.0,0.0,0.0,0.0,0.0
102,0.0,0.389916015625,0.0,0.0,0.0,0.0,0.0,0.0,0.401,0.0,0.0,0.0,0.0,0.0,0.0,0.599001539768894,0.0,0.0,0.0,0.0,0.0,0.0,-41.248,0.0,0.0,0.0,0.0,0.0
103,0.0,0.3939296875,0.0,0.0,0.0,0.0,0.0,0.0,0.402,0.0,0.0,0.0,0.0,0.0,0.0,0.5994523720345224,0.0,0.0,0.0,0.0,0.0,0.0,-40.708,0.0,0.0,0.0,0.0,0.0
104,0.0,0.39794921875,0.0,0.0,0.0,0.0,0.0,0.0,0.401,0.0,0.0,0.0,0.0,0.0,0.0,0.599772115629205,0.0,0.0,0.0,0.0,0.0,0.0,-40.6,0.0,0.0,0.0,0.0,0.0
105,0.0,0.401859375,0.0,0.0,0.0,0.0,0.0,0.0,0.401,0.0,0.0,0.0,0.0,0.0,0.0,0.599951784893651,0.0,0.0,0.0,0.0,0.0,0.0,-40.652,0.0,0.0,0.0,0.0,0.0
106,0.0,0.405873046875,0.0,0.0,0.0,0.0,0.0,0.0,0.402,0.0,0.0,0.0,0.0,0.0,0.0,0.5999983224884958,0.0,0.0,0.0,0.0,0.0,0.0,-40.652,0.0,0.0,0.0,0.0,0.0
107,0.0,0.4098935546875,0.0,0.0,0.0,0.0,0.0,0.0,0.402,0.0,0.0,0.0,0.0,0.0,0.0,0.5999100896704016,0.0,0.0,0.0,0.0,0.0,0.0,-41.032,0.0,0.0,0.0,0.0,0.0
108,0.0,0.41390625,0.0,0.0,0.0,0.0,0.0,0.0,0.4,0.0,0.0,0.0,0.0,0.0,0.0,0.5996863414806056,0.0,0.0,0.0,0.0,0.0,0.0,-40.76,0.0,0.0,0.0,0.0,0.0
109,0.0,0.417919921875,0.0,0.0,0.0,0.0,0.0,0.0,0.403,0.0,0.0,0.0,0.0,0.0,0.0,0.599328037536235,0.0,0.0,0.0,0.0,0.0,0.0,-40.492,0.0,0.0,0.0,0.0,0.0
110,0.0,0.4218369140625,0.0,0.0,0.0,0.0,0.0,0.0,0.4,0.0,0.0,0.0,0.0,0.0,0.0,0.5988305499776981,0.0,0.0,0.0,0.0,0.0,0.0,-40.6,0.0,0.0,0.0,0.0,0.0
111,0.0,0.4258505859375,0.0,0.0,0.0,0.0,0.0,0.0,0.4,0.0,0.0,0.0,0.0,0.0,0.0,0.5982110110559743,0.0,0.0,0.0,0.0,0.0,0.0,-40.652,0.0,0.0,0.0,0.0,0.0
112,0.0,0.4298642578125,0.0,0.0,0.0,0.0,0.0,0.0,0.402,0.0,0.0,0.0,0.0,0.0,0.0,0.5974488421401911,0.0,0.0,0.0,0.0,0.0,0.0,-40.76,0.0,0.0,0.0,0.0,0.0
113,0.0,0.4338837890625,0.0,0.0,0.0,0.0,0.0,0.0,0.402,0.0,0.0,0.0,0.0,0.0,0.0,0.5965335071411089,0.0,0.0,0.0,0.0,0.0,0.0,-41.192,0.0,0.0,0.0,0.0,0.0
114,0.0,0.4378974609375,0.0,0.0,0.0,0.0,0.0,0.0,0.401,0.0,0.0,0.0,0.0,0.0,0.0,0.5955171849506964,0.0,0.0,0.0,0.0,0.0,0.0,-40.6,0.0,0.0,0.0,0.0,0.0
115,0.0,0.44191015625,0.0,0.0,0.0,0.0,0.0,0.0,0.404,0.0,0.0,0.0,0.0,0.0,0.0,0.5943626071934149,0.0,0.0,0.0,0.0,0.0,0.0,-40.06,0.0,0.0,0.0,0.0,0.0
116,0.0,0.445833984375,0.0,0.0,0.0,0.0,0.0,0.0,0.404,0.0,0.0,0.0,0.0,0.0,0.0,0.5930410612175727,0.0,0.0,0.0,0.0,0.0,0.0,-40.004,0.0,0.0,0.0,0.0,0.0
117,0.0,0.44984765625,0.0,0.0,0.0,0.0,0.0,0.0,0.398,0.0,0.0,0.0,0.0,0.0,0.0,0.5916251587179098,0.0,0.0,0.0,0.0,0.0,0.0,-39.952,0.0,0.0,0.0,0.0,0.0
118,0.0,0.4538603515625,0.0,0.0,0.0,0.0,0.0,0.0,0.401,0.0,0.0,0.0,0.0,0.0,0.0,0.5900499141168856,0.0,0.0,0.0,0.0,0.0,0.0,-39.952,0.0,0.0,0.0,0.0,0.0
119,0.0,0.45777734375,0.0,0.0,0.0,0.0,0.0,0.0,0.401,0.0,0.0,0.0,0.0,0.0,0.0,0.5883608949110152,0.0,0.0,0.0,0.0,0.0,0.0,-40.168,0.0,0.0,0.0,0.0,0.0
120,0.0,0.461791015625,0.0,0.0,0.0,0.0,0.0,0.0,0.4,0.0,0.0,0.0,0.0,0.0,0.0,0.5865353668039069,0.0,0.0,0.0,0.0,0.0,0.0,-39.896,0.0,0.0,0.0,0.0,0.0
121,0.0,0.4658046875,0.0,0.0,0.0,0.0,0.0,0.0,0.401,0.0,0.0,0.0,0.0,0.0,0.0,0.5845708864658965,0.0,0.0,0.0,0.0,0.0,0.0,-39.52,0.0,0.0,0.0,0.0,0.0
122,0.0,0.4697216796875,0.0,0.0,0.0,0.0,0.0,0.0,0.4,0.0,0.0,0.0,0.0,0.0,0.0,0.5824680026019343,0.0,0.0,0.0,0.0,0.0,0.0,-39.464,0.0,0.0,0.0,0.0,0.0
123,0.0,0.4737353515625,0.0,0.0,0.0,0.0,0.0,0.0,0.4,0.0,0.0,0.0,0.0,0.0,0.0,0.5802554315786624,0.0,0.0,0.0,0.0,0.0,0.0,-39.68,0.0,0.0,0.0,0.0,0.0
124,0.0,0.477748046875,0.0,0.0,0.0,0.0,0.0,0.0,0.401,0.0,0.0,0.0,0.0,0.0,0.0,0.5778858702506284,0.0,0.0,0.0,0.0,0.0,0.0,-39.896,0.0,0.0,0.0,0.0,0.0
125,0.0,0.4816650390625,0.0,0.0,0.0,0.0,0.0,0.0,0.399,0.0,0.0,0.0,0.0,0.0,0.0,0.5754105059021049,0.0,0.0,0.0,0.0,0.0,0.0,-40.112,0.0,0.0,0.0,0.0,0.0
126,0.0,0.4857822265625,0.0,0.0,0.0,0.0,0.0,0.0,0.403,0.0,0.0,0.0,0.0,0.0,0.0,0.5727802254498034,0.0,0.0,0.0,0.0,0.0,0.0,-39.464,0.0,0.0,0.0,0.0,0.0
127,0.0,0.4896923828125,0.0,0.0,0.0,0.0,0.0,0.0,0.404,0.0,0.0,0.0,0.0,0.0,0.0,0.5700257364168658,0.0,0.0,0.0,0.0,0.0,0.0,-39.14,0.0,0.0,0.0,0.0,0.0
128,0.0,0.4937119140625,0.0,0.0,0.0,0.0,0.0,0.0,0.399,0.0,0.0,0.0,0.0,0.0,0.0,0.5671629362655806,0.0,0.0,0.0,0.0,0.0,0.0,-39.032,0.0,0.0,0.0,0.0,0.0
129,0.0,0.4977255859375,0.0,0.0,0.0,0.0,0.0,0.0,0.401,0.0,0.0,0.0,0.0,0.0,0.0,0.5641834984003734,0.0,0.0,0.0,0.0,0.0,0.0,-38.98,0.0,0.0,0.0,0.0,0.0
130,0.0,0.5016357421875,0.0,0.0,0.0,0.0,0.0,0.0,0.401,0.0,0.0,0.0,0.0,0.0,0.0,0.5610619617914258,0.0,0.0,0.0,0.0,0.0,0.0,-39.14,0.0,0.0,0.0,0.0,0.0
131,0.0,0.50565625,0.0,0.0,0.0,0.0,0.0,0.0,0.399,0.0,0.0,0.0,0.0,0.0,0.0,0.5577455410300696,0.0,0.0,0.0,0.0,0.0,0.0,-39.412,0.0,0.0,0.0,0.0,0.0
132,0.0,0.5096689453125,0.0,0.0,0.0,0.0,0.0,0.0,0.4,0.0,0.0,0.0,0.0,0.0,0.0,0.5544392562320898,0.0,0.0,0.0,0.0,0.0,0.0,-38.924,0.0,0.0,0.0,0.0,0.0
133,0.0,0.513580078125,0.0,0.0,0.0,0.0,0.0,0.0,0.403,0.0,0.0,0.0,0.0,0.0,0.0,0.5509301074712027,0.0,0.0,0.0,0.0,0.0,0.0,-38.656,0.0,0.0,0.0,0.0,0.0
134,0.0,0.5176064453125,0.0,0.0,0.0,0.0,0.0,0.0,0.397,0.0,0.0,0.0,0.0,0.0,0.0,0.5472884378770618,0.0,0.0,0.0,0.0,0.0,0.0,-38.872,0.0,0.0,0.0,0.0,0.0
135,0.0,0.5215166015625,0.0,0.0,0.0,0.0,0.0,0.0,0.397,0.0,0.0,0.0,0.0,0.0,0.0,0.5435458831699741,0.0,0.0,0.0,0.0,0.0,0.0,-38.764,0.0,0.0,0.0,0.0,0.0
136,0.0,0.5255302734375,0.0,0.0,0.0,0.0,0.0,0.0,0.399,0.0,0.0,0.0,0.0,0.0,0.0,0.5396567657169998,0.0,0.0,0.0,0.0,0.0,0.0,-39.032,0.0,0.0,0.0,0.0,0.0
137,0.0,0.529447265625,0.0,0.0,0.0,0.0,0.0,0.0,0.401,0.0,0.0,0.0,0.0,0.0,0.0,0.535645086942526,0.0,0.0,0.0,0.0,0.0,0.0,-39.14,0.0,0.0,0.0,0.0,0.0
138,0.0,0.5334609375,0.0,0.0,0.0,0.0,0.0,0.0,0.4,0.0,0.0,0.0,0.0,0.0,0.0,0.5315561439400247,0.0,0.0,0.0,0.0,0.0,0.0,-38.492,0.0,0.0,0.0,0.0,0.0
139,0.0,0.5374736328125,0.0,0.0,0.0,0.0,0.0,0.0,0.402,0.0,0.0,0.0,0.0,0.0,0.0,0.5273101044312564,0.0,0.0,0.0,0.0,0.0,0.0,-37.952,0.0,0.0,0.0,0.0,0.0
140,0.0,0.54108203125,0.0,0.0,0.0,0.0,0.0,0.0,0.392,0.0,0.0,0.0,0.0,0.0,0.0,0.5229632737729508,0.0,0.0,0.0,0.0,0.0,0.0,-42.544,0.0,0.0,0.0,0.0,0.0
141,0.0,0.54344921875,0.0,0.0,0.0,0.0,0.0,0.0,0.308,0.0,0.0,0.0,0.0,0.0,0.0,0.5184219972794967,0.0,0.0,0.0,0.0,0.0,0.0,-51.02,0.0,0.0,0.0,0.0,0.0
142,0.0,0.5449931640625,0.0,0.0,0.0,0.0,0.0,0.0,0.209,0.0,0.0,0.0,0.0,0.0,0.0,0.5139250364343283,0.0,0.0,0.0,0.0,0.0,0.0,-57.82,0.0,0.0,0.0,0.0,0.0
143,0.0,0.545712890625,0.0,0.0,0.0,0.0,0.0,0.0,0.125,0.0,0.0,0.0,0.0,0.0,0.0,0.5092012503169981,0.0,0.0,0.0,0.0,0.0,0.0,-61.708,0.0,0.0,0.0,0.0,0.0
144,0.0,0.545712890625,0.0,0.0,0.0,0.0,0.0,0.0,0.037,0.0,0.0,0.0,0.0,0.0,0.0,0.5043784810982412,0.0,0.0,0.0,0.0,0.0,0.0,-63.112,0.0,0.0,0.0,0.0,0.0
145,0.0,0.545404296875,0.0,0.0,0.0,0.0,0.0,0.0,-0.004,0.0,0.0,0.0,0.0,0.0,0.0,0.4994329425141432,0.0,0.0,0.0,0.0,0.0,0.0,-65.216,0.0,0.0,0.0,0.0,0.0
146,0.0,0.544169921875,0.0,0.0,0.0,0.0,0.0,0.0,-0.071,0.0,0.0,0.0,0.0,0.0,0.0,0.49439893914873057,0.0,0.0,0.0,0.0,0.0,0.0,-66.404,0.0,0.0,0.0,0.0,0.0
147,0.0,0.5417001953125,0.0,0.0,0.0,0.0,0.0,0.0,-0.175,0.0,0.0,0.0,0.0,0.0,0.0,0.48925399803401604,0.0,0.0,0.0,0.0,0.0,0.0,-64.948,0.0,0.0,0.0,0.0,0.0
148,0.0,0.538400390625,0.0,0.0,0.0,0.0,0.0,0.0,-0.284,0.0,0.0,0.0,0.0,0.0,0.0,0.4839936845098542,0.0,0.0,0.0,0.0,0.0,0.0,-62.304,0.0,0.0,0.0,0.0,0.0
149,0.0,0.5346953125,0.0,0.0,0.0,0.0,0.0,0.0,-0.354,0.0,0.0,0.0,0.0,0.0,0.0,0.4786044641008981,0.0,0.0,0.0,0.0,0.0,0.0,-58.9,0.0,0.0,0.0,0.0,0.0
150,0.0,0.5308876953125,0.0,0.0,0.0,0.0,0.0,0.0,-0.377,0.0,0.0,0.0,0.0,0.0,0.0,0.47312751899298566,0.0,0.0,0.0,0.0,0.0,0.0,-55.66,0.0,0.0,0.0,0.0,0.0
151,0.0,0.52718359375,0.0,0.0,0.0,0.0,0.0,0.0,-0.376,0.0,0.0,0.0,0.0,0.0,0.0,0.46754590866631046,0.0,0.0,0.0,0.0,0.0,0.0,-52.64,0.0,0.0,0.0,0.0,0.0
152,0.0,0.52295703125,0.0,0.0,0.0,0.0,0.0,0.0,-0.396,0.0,0.0,0.0,0.0,0.0,0.0,0.461881110785829,0.0,0.0,0.0,0.0,0.0,0.0,-50.048,0.0,0.0,0.0,0.0,0.0
153,0.0,0.518326171875,0.0,0.0,0.0,0.0,0.0,0.0,-0.443,0.0,0.0,0.0,0.0,0.0,0.0,0.45601412978550054,0.0,0.0,0.0,0.0,0.0,0.0,-47.832,0.0,0.0,0.0,0.0,0.0
154,0.0,0.5134765625,0.0,0.0,0.0,0.0,0.0,0.0,-0.475,0.0,0.0,0.0,0.0,0.0,0.0,0.4501335736670819,0.0,0.0,0.0,0.0,0.0,0.0,-45.944,0.0,0.0,0.0,0.0,0.0
155,0.0,0.508537109375,0.0,0.0,0.0,0.0,0.0,0.0,-0.492,0.0,0.0,0.0,0.0,0.0,0.0,0.44413191860867934,0.0,0.0,0.0,0.0,0.0,0.0,-44.7,0.0,0.0,0.0,0.0,0.0
156,0.0,0.5038037109375,0.0,0.0,0.0,0.0,0.0,0.0,-0.49,0.0,0.0,0.0,0.0,0.0,0.0,0.438063456141953,0.0,0.0,0.0,0.0,0.0,0.0,-44.16,0.0,0.0,0.0,0.0,0.0
157,0.0,0.498857421875,0.0,0.0,0.0,0.0,0.0,0.0,-0.488,0.0,0.0,0.0,0.0,0.0,0.0,0.4318506993943262,0.0,0.0,0.0,0.0,0.0,0.0,-43.46,0.0,0.0,0.0,0.0,0.0
158,0.0,0.493609375,0.0,0.0,0.0,0.0,0.0,0.0,-0.507,0.0,0.0,0.0,0.0,0.0,0.0,0.4255860328485941,0.0,0.0,0.0,0.0,0.0,0.0,-44.0,0.0,0.0,0.0,0.0,0.0
159,0.0,0.4879423828125,0.0,0.0,0.0,0.0,0.0,0.0,-0.544,0.0,0.0,0.0,0.0,0.0,0.0,0.4191723758153311,0.0,0.0,0.0,0.0,0.0,0.0,-45.512,0.0,0.0,0.0,0.0,0.0
160,0.0,0.481974609375,0.0,0.0,0.0,0.0,0.0,0.0,-0.581,0.0,0.0,0.0,0.0,0.0,0.0,0.41273572139674536,0.0,0.0,0.0,0.0,0.0,0.0,-46.268,0.0,0.0,0.0,0.0,0.0
161,0.0,0.475896484375,0.0,0.0,0.0,0.0,0.0,0.0,-0.607,0.0,0.0,0.0,0.0,0.0,0.0,0.406151228942844,0.0,0.0,0.0,0.0,0.0,0.0,-46.16,0.0,0.0,0.0,0.0,0.0
162,0.0,0.4693095703125,0.0,0.0,0.0,0.0,0.0,0.0,-0.635,0.0,0.0,0.0,0.0,0.0,0.0,0.39944364727126935,0.0,0.0,0.0,0.0,0.0,0.0,-47.292,0.0,0.0,0.0,0.0,0.0
163,0.0,0.4626142578125,0.0,0.0,0.0,0.0,0.0,0.0,-0.671,0.0,0.0,0.0,0.0,0.0,0.0,0.39271932587629393,0.0,0.0,0.0,0.0,0.0,0.0,-47.348,0.0,0.0,0.0,0.0,0.0
164,0.0,0.45592578125,0.0,0.0,0.0,0.0,0.0,0.0,-0.676,0.0,0.0,0.0,0.0,0.0,0.0,0.3858600911943942,0.0,0.0,0.0,0.0,0.0,0.0,-45.024,0.0,0.0,0.0,0.0,0.0
165,0.0,0.4487158203125,0.0,0.0,0.0,0.0,0.0,0.0,-0.696,0.0,0.0,0.0,0.0,0.0,0.0,0.3788956271951707,0.0,0.0,0.0,0.0,0.0,0.0,-44.216,0.0,0.0,0.0,0.0,0.0
166,0.0,0.4414990234375,0.0,0.0,0.0,0.0,0.0,0.0,-0.729,0.0,0.0,0.0,0.0,0.0,0.0,0.3718797177173371,0.0,0.0,0.0,0.0,0.0,0.0,-42.544,0.0,0.0,0.0,0.0,0.0
167,0.0,0.4351181640625,0.0,0.0,0.0,0.0,0.0,0.0,-0.687,0.0,0.0,0.0,0.0,0.0,0.0,0.3647388524226263,0.0,0.0,0.0,0.0,0.0,0.0,-37.088,0.0,0.0,0.0,0.0,0.0
168,0.0,0.4285263671875,0.0,0.0,0.0,0.0,0.0,0.0,-0.648,0.0,0.0,0.0,0.0,0.0,0.0,0.3575635043715473,0.0,0.0,0.0,0.0,0.0,0.0,-35.144,0.0,0.0,0.0,0.0,0.0
169,0.0,0.42204296875,0.0,0.0,0.0,0.0,0.0,0.0,-0.665,0.0,0.0,0.0,0.0,0.0,0.0,0.35034384872153923,0.0,0.0,0.0,0.0,0.0,0.0,-34.12,0.0,0.0,0.0,0.0,0.0
170,0.0,0.41596484375,0.0,0.0,0.0,0.0,0.0,0.0,-0.635,0.0,0.0,0.0,0.0,0.0,0.0,0.34298723629514327,0.0,0.0,0.0,0.0,0.0,0.0,-33.04,0.0,0.0,0.0,0.0,0.0
171,0.0,0.4102021484375,0.0,0.0,0.0,0.0,0.0,0.0,-0.6,0.0,0.0,0.0,0.0,0.0,0.0,0.3355196006621391,0.0,0.0,0.0,0.0,0.0,0.0,-29.584,0.0,0.0,0.0,0.0,0.0
172,0.0,0.40484375,0.0,0.0,0.0,0.0,0.0,0.0,-0.566,0.0,0.0,0.0,0.0,0.0,0.0,0.3280359355018025,0.0,0.0,0.0,0.0,0.0,0.0,-30.504,0.0,0.0,0.0,0.0,0.0
173,0.0,0.399595703125,0.0,0.0,0.0,0.0,0.0,0.0,-0.536,0.0,0.0,0.0,0.0,0.0,0.0,0.3205114110714441,0.0,0.0,0.0,0.0,0.0,0.0,-32.444,0.0,0.0,0.0,0.0,0.0
174,0.0,0.3946494140625,0.0,0.0,0.0,0.0,0.0,0.0,-0.52,0.0,0.0,0.0,0.0,0.0,0.0,0.31282669423068304,0.0,0.0,0.0,0.0,0.0,0.0,-31.96,0.0,0.0,0.0,0.0,0.0
175,0.0,0.3900185546875,0.0,0.0,0.0,0.0,0.0,0.0,-0.483,0.0,0.0,0.0,0.0,0.0,0.0,0.3051072447394754,0.0,0.0,0.0,0.0,0.0,0.0,-29.692,0.0,0.0,0.0,0.0,0.0
176,0.0,0.3855869140625,0.0,0.0,0.0,0.0,0.0,0.0,-0.452,0.0,0.0,0.0,0.0,0.0,0.0,0.2973315529968551,0.0,0.0,0.0,0.0,0.0,0.0,-30.772,0.0,0.0,0.0,0.0,0.0
177,0.0,0.381265625,0.0,0.0,0.0,0.0,0.0,0.0,-0.446,0.0,0.0,0.0,0.0,0.0,0.0,0.2894637234885771,0.0,0.0,0.0,0.0,0.0,0.0,-34.388,0.0,0.0,0.0,0.0,0.0
178,0.0,0.3770458984375,0.0,0.0,0.0,0.0,0.0,0.0,-0.432,0.0,0.0,0.0,0.0,0.0,0.0,0.2816316588383432,0.0,0.0,0.0,0.0,0.0,0.0,-35.092,0.0,0.0,0.0,0.0,0.0
179,0.0,0.3732314453125,0.0,0.0,0.0,0.0,0.0,0.0,-0.407,0.0,0.0,0.0,0.0,0.0,0.0,0.273594718133147,0.0,0.0,0.0,0.0,0.0,0.0,-31.8,0.0,0.0,0.0,0.0,0.0
180,0.0,0.36952734375,0.0,0.0,0.0,0.0,0.0,0.0,-0.382,0.0,0.0,0.0,0.0,0.0,0.0,0.26549223664382016,0.0,0.0,0.0,0.0,0.0,0.0,-30.72,0.0,0.0,0.0,0.0,0.0
181,0.0,0.3660283203125,0.0,0.0,0.0,0.0,0.0,0.0,-0.363,0.0,0.0,0.0,0.0,0.0,0.0,0.257371353459812,0.0,0.0,0.0,0.0,0.0,0.0,-33.472,0.0,0.0,0.0,0.0,0.0
182,0.0,0.3625234375,0.0,0.0,0.0,0.0,0.0,0.0,-0.353,0.0,0.0,0.0,0.0,0.0,0.0,0.24931445852659667,0.0,0.0,0.0,0.0,0.0,0.0,-38.008,0.0,0.0,0.0,0.0,0.0
183,0.0,0.3589208984375,0.0,0.0,0.0,0.0,0.0,0.0,-0.357,0.0,0.0,0.0,0.0,0.0,0.0,0.24100636395998676,0.0,0.0,0.0,0.0,0.0,0.0,-40.112,0.0,0.0,0.0,0.0,0.0
184,0.0,0.355525390625,0.0,0.0,0.0,0.0,0.0,0.0,-0.359,0.0,0.0,0.0,0.0,0.0,0.0,0.23276423613612032,0.0,0.0,0.0,0.0,0.0,0.0,-37.9,0.0,0.0,0.0,0.0,0.0
185,0.0,0.3525341796875,0.0,0.0,0.0,0.0,0.0,0.0,-0.321,0.0,0.0,0.0,0.0,0.0,0.0,0.22451325515062884,0.0,0.0,0.0,0.0,0.0,0.0,-36.656,0.0,0.0,0.0,0.0,0.0
186,0.0,0.349755859375,0.0,0.0,0.0,0.0,0.0,0.0,-0.293,0.0,0.0,0.0,0.0,0.0,0.0,0.21610010945975897,0.0,0.0,0.0,0.0,0.0,0.0,-38.872,0.0,0.0,0.0,0.0,0.0
187,0.0,0.346970703125,0.0,0.0,0.0,0.0,0.0,0.0,-0.281,0.0,0.0,0.0,0.0,0.0,0.0,0.20753235973260906,0.0,0.0,0.0,0.0,0.0,0.0,-42.164,0.0,0.0,0.0,0.0,0.0
188,0.0,0.343671875,0.0,0.0,0.0,0.0,0.0,0.0,-0.301,0.0,0.0,0.0,0.0,0.0,0.0,0.19931199209265785,0.0,0.0,0.0,0.0,0.0,0.0,-44.648,0.0,0.0,0.0,0.0,0.0
189,0.0,0.3401728515625,0.0,0.0,0.0,0.0,0.0,0.0,-0.343,0.0,0.0,0.0,0.0,0.0,0.0,0.19076496443030258,0.0,0.0,0.0,0.0,0.0,0.0,-44.916,0.0,0.0,0.0,0.0,0.0
190,0.0,0.3368798828125,0.0,0.0,0.0,0.0,0.0,0.0,-0.345,0.0,0.0,0.0,0.0,0.0,0.0,0.18212333560796803,0.0,0.0,0.0,0.0,0.0,0.0,-44.268,0.0,0.0,0.0,0.0,0.0
191,0.0,0.3338955078125,0.0,0.0,0.0,0.0,0.0,0.0,-0.318,0.0,0.0,0.0,0.0,0.0,0.0,0.17360976098303596,0.0,0.0,0.0,0.0,0.0,0.0,-43.244,0.0,0.0,0.0,0.0,0.0
192,0.0,0.3310068359375,0.0,0.0,0.0,0.0,0.0,0.0,-0.294,0.0,0.0,0.0,0.0,0.0,0.0,0.16493820842027823,0.0,0.0,0.0,0.0,0.0,0.0,-43.676,0.0,0.0,0.0,0.0,0.0
193,0.0,0.3277138671875,0.0,0.0,0.0,0.0,0.0,0.0,-0.303,0.0,0.0,0.0,0.0,0.0,0.0,0.15614780321821817,0.0,0.0,0.0,0.0,0.0,0.0,-44.916,0.0,0.0,0.0,0.0,0.0
194,0.0,0.324009765625,0.0,0.0,0.0,0.0,0.0,0.0,-0.347,0.0,0.0,0.0,0.0,0.0,0.0,0.14755571038914417,0.0,0.0,0.0,0.0,0.0,0.0,-45.728,0.0,0.0,0.0,0.0,0.0
195,0.0,0.3202978515625,0.0,0.0,0.0,0.0,0.0,0.0,-0.379,0.0,0.0,0.0,0.0,0.0,0.0,0.13884924968078846,0.0,0.0,0.0,0.0,0.0,0.0,-45.728,0.0,0.0,0.0,0.0,0.0
196,0.0,0.3166962890625,0.0,0.0,0.0,0.0,0.0,0.0,-0.376,0.0,0.0,0.0,0.0,0.0,0.0,0.13004664022718554,0.0,0.0,0.0,0.0,0.0,0.0,-45.672,0.0,0.0,0.0,0.0,0.0
197,0.0,0.313197265625,0.0,0.0,0.0,0.0,0.0,0.0,-0.356,0.0,0.0,0.0,0.0,0.0,0.0,0.1212647857775633,0.0,0.0,0.0,0.0,0.0,0.0,-45.996,0.0,0.0,0.0,0.0,0.0
198,0.0,0.309794921875,0.0,0.0,0.0,0.0,0.0,0.0,-0.346,0.0,0.0,0.0,0.0,0.0,0.0,0.11243974280494735,0.0,0.0,0.0,0.0,0.0,0.0,-45.404,0.0,0.0,0.0,0.0,0.0
199,0.0,0.3060908203125,0.0,0.0,0.0,0.0,0.0,0.0,-0.354,0.0,0.0,0.0,0.0,0.0,0.0,0.10355052643224523,0.0,0.0,0.0,0.0,0.0,0.0,-45.456,0.0,0.0,0.0,0.0,0.0
200,0.0,0.3019677734375,0.0,0.0,0.0,0.0,0.0,0.0,-0.391,0.0,0.0,0.0,0.0,0.0,0.0,0.09470626027083066,0.0,0.0,0.0,0.0,0.0,0.0,-45.512,0.0,0.0,0.0,0.0,0.0
201,0.0,0.2978515625,0.0,0.0,0.0,0.0,0.0,0.0,-0.415,0.0,0.0,0.0,0.0,0.0,0.0,0.08580792140890786,0.0,0.0,0.0,0.0,0.0,0.0,-45.564,0.0,0.0,0.0,0.0,0.0
202,0.0,0.2937353515625,0.0,0.0,0.0,0.0,0.0,0.0,-0.415,0.0,0.0,0.0,0.0,0.0,0.0,0.07689197494050563,0.0,0.0,0.0,0.0,0.0,0.0,-45.564,0.0,0.0,0.0,0.0,0.0
203,0.0,0.289818359375,0.0,0.0,0.0,0.0,0.0,0.0,-0.405,0.0,0.0,0.0,0.0,0.0,0.0,0.06793016310726212,0.0,0.0,0.0,0.0,0.0,0.0,-45.564,0.0,0.0,0.0,0.0,0.0
204,0.0,0.2860107421875,0.0,0.0,0.0,0.0,0.0,0.0,-0.391,0.0,0.0,0.0,0.0,0.0,0.0,0.05895574841350267,0.0,0.0,0.0,0.0,0.0,0.0,-44.432,0.0,0.0,0.0,0.0,0.0
205,0.0,0.28178515625,0.0,0.0,0.0,0.0,0.0,0.0,-0.4,0.0,0.0,0.0,0.0,0.0,0.0,0.049991088589894164,0.0,0.0,0.0,0.0,0.0,0.0,-43.784,0.0,0.0,0.0,0.0,0.0
206,0.0,0.277359375,0.0,0.0,0.0,0.0,0.0,0.0,-0.433,0.0,0.0,0.0,0.0,0.0,0.0,0.04103786807411214,0.0,0.0,0.0,0.0,0.0,0.0,-43.836,0.0,0.0,0.0,0.0,0.0
207,0.0,0.2729345703125,0.0,0.0,0.0,0.0,0.0,0.0,-0.448,0.0,0.0,0.0,0.0,0.0,0.0,0.03206367203583557,0.0,0.0,0.0,0.0,0.0,0.0,-43.676,0.0,0.0,0.0,0.0,0.0
208,0.0,0.2686064453125,0.0,0.0,0.0,0.0,0.0,0.0,-0.442,0.0,0.0,0.0,0.0,0.0,0.0,0.023086564617809377,0.0,0.0,0.0,0.0,0.0,0.0,-43.46,0.0,0.0,0.0,0.0,0.0
209,0.0,0.2644892578125,0.0,0.0,0.0,0.0,0.0,0.0,-0.431,0.0,0.0,0.0,0.0,0.0,0.0,0.014074031199877896,0.0,0.0,0.0,0.0,0.0,0.0,-43.296,0.0,0.0,0.0,0.0,0.0
210,0.0,0.2604697265625,0.0,0.0,0.0,0.0,0.0,0.0,-0.412,0.0,0.0,0.0,0.0,0.0,0.0,0.0051076701255601984,0.0,0.0,0.0,0.0,0.0,0.0,-42.38,0.0,0.0,0.0,0.0,0.0
211,0.0,0.2561474609375,0.0,0.0,0.0,0.0,0.0,0.0,-0.416,0.0,0.0,0.0,0.0,0.0,0.0,-0.003851892716566268,0.0,0.0,0.0,0.0,0.0,0.0,-42.652,0.0,0.0,0.0,0.0,0.0
212,0.0,0.2517158203125,0.0,0.0,0.0,0.0,0.0,0.0,-0.439,0.0,0.0,0.0,0.0,0.0,0.0,-0.012852644070964961,0.0,0.0,0.0,0.0,0.0,0.0,-42.812,0.0,0.0,0.0,0.0,0.0
213,0.0,0.2473935546875,0.0,0.0,0.0,0.0,0.0,0.0,-0.445,0.0,0.0,0.0,0.0,0.0,0.0,-0.021802898034808785,0.0,0.0,0.0,0.0,0.0,0.0,-42.812,0.0,0.0,0.0,0.0,0.0
214,0.0,0.243072265625,0.0,0.0,0.0,0.0,0.0,0.0,-0.432,0.0,0.0,0.0,0.0,0.0,0.0,-0.030877729698408553,0.0,0.0,0.0,0.0,0.0,0.0,-42.596,0.0,0.0,0.0,0.0,0.0
215,0.0,0.2391552734375,0.0,0.0,0.0,0.0,0.0,0.0,-0.421,0.0,0.0,0.0,0.0,0.0,0.0,-0.03983243836348086,0.0,0.0,0.0,0.0,0.0,0.0,-42.056,0.0,0.0,0.0,0.0,0.0
216,0.0,0.2351416015625,0.0,0.0,0.0,0.0,0.0,0.0,-0.397,0.0,0.0,0.0,0.0,0.0,0.0,-0.04880690183967215,0.0,0.0,0.0,0.0,0.0,0.0,-41.624,0.0,0.0,0.0,0.0,0.0
217,0.0,0.2310185546875,0.0,0.0,0.0,0.0,0.0,0.0,-0.405,0.0,0.0,0.0,0.0,0.0,0.0,-0.057885931661723816,0.0,0.0,0.0,0.0,0.0,0.0,-42.544,0.0,0.0,0.0,0.0,0.0
218,0.0,0.2267998046875,0.0,0.0,0.0,0.0,0.0,0.0,-0.425,0.0,0.0,0.0,0.0,0.0,0.0,-0.06671447735876372,0.0,0.0,0.0,0.0,0.0,0.0,-42.92,0.0,0.0,0.0,0.0,0.0
219,0.0,0.222470703125,0.0,0.0,0.0,0.0,0.0,0.0,-0.428,0.0,0.0,0.0,0.0,0.0,0.0,-0.07576065658627994,0.0,0.0,0.0,0.0,0.0,0.0,-42.812,0.0,0.0,0.0,0.0,0.0
220,0.0,0.21845703125,0.0,0.0,0.0,0.0,0.0,0.0,-0.423,0.0,0.0,0.0,0.0,0.0,0.0,-0.08463259664911206,0.0,0.0,0.0,0.0,0.0,0.0,-42.596,0.0,0.0,0.0,0.0,0.0
221,0.0,0.2146494140625,0.0,0.0,0.0,0.0,0.0,0.0,-0.396,0.0,0.0,0.0,0.0,0.0,0.0,-0.09350689136039361,0.0,0.0,0.0,0.0,0.0,0.0,-42.328,0.0,0.0,0.0,0.0,0.0
222,0.0,0.2108359375,0.0,0.0,0.0,0.0,0.0,0.0,-0.379,0.0,0.0,0.0,0.0,0.0,0.0,-0.10236301826893593,0.0,0.0,0.0,0.0,0.0,0.0,-42.596,0.0,0.0,0.0,0.0,0.0
223,0.0,0.206822265625,0.0,0.0,0.0,0.0,0.0,0.0,-0.393,0.0,0.0,0.0,0.0,0.0,0.0,-0.11131557776879979,0.0,0.0,0.0,0.0,0.0,0.0,-43.296,0.0,0.0,0.0,0.0,0.0
224,0.0,0.20269921875,0.0,0.0,0.0,0.0,0.0,0.0,-0.413,0.0,0.0,0.0,0.0,0.0,0.0,-0.12014752037213823,0.0,0.0,0.0,0.0,0.0,0.0,-43.62,0.0,0.0,0.0,0.0,0.0
225,0.0,0.1985830078125,0.0,0.0,0.0,0.0,0.0,0.0,-0.415,0.0,0.0,0.0,0.0,0.0,0.0,-0.12886084355961253,0.0,0.0,0.0,0.0,0.0,0.0,-43.296,0.0,0.0,0.0,0.0,0.0
226,0.0,0.1946728515625,0.0,0.0,0.0,0.0,0.0,0.0,-0.406,0.0,0.0,0.0,0.0,0.0,0.0,-0.13776026019096724,0.0,0.0,0.0,0.0,0.0,0.0,-43.244,0.0,0.0,0.0,0.0,0.0
227,0.0,0.191064453125,0.0,0.0,0.0,0.0,0.0,0.0,-0.381,0.0,0.0,0.0,0.0,0.0,0.0,-0.14641409731806185,0.0,0.0,0.0,0.0,0.0,0.0,-43.028,0.0,0.0,0.0,0.0,0.0
228,0.0,0.1872568359375,0.0,0.0,0.0,0.0,0.0,0.0,-0.371,0.0,0.0,0.0,0.0,0.0,0.0,-0.1551409676419111,0.0,0.0,0.0,0.0,0.0,0.0,-43.296,0.0,0.0,0.0,0.0,0.0
229,0.0,0.18333984375,0.0,0.0,0.0,0.0,0.0,0.0,-0.384,0.0,0.0,0.0,0.0,0.0,0.0,-0.16380927305904838,0.0,0.0,0.0,0.0,0.0,0.0,-44.052,0.0,0.0,0.0,0.0,0.0
230,0.0,0.1791201171875,0.0,0.0,0.0,0.0,0.0,0.0,-0.41,0.0,0.0,0.0,0.0,0.0,0.0,-0.1724874422333261,0.0,0.0,0.0,0.0,0.0,0.0,-44.268,0.0,0.0,0.0,0.0,0.0
231,0.0,0.1751005859375,0.0,0.0,0.0,0.0,0.0,0.0,-0.415,0.0,0.0,0.0,0.0,0.0,0.0,-0.18100534485688813,0.0,0.0,0.0,0.0,0.0,0.0,-43.892,0.0,0.0,0.0,0.0,0.0
232,0.0,0.17129296875,0.0,0.0,0.0,0.0,0.0,0.0,-0.397,0.0,0.0,0.0,0.0,0.0,0.0,-0.1896754843265803,0.0,0.0,0.0,0.0,0.0,0.0,-43.944,0.0,0.0,0.0,0.0,0.0
233,0.0,0.16769140625,0.0,0.0,0.0,0.0,0.0,0.0,-0.374,0.0,0.0,0.0,0.0,0.0,0.0,-0.19820604558556995,0.0,0.0,0.0,0.0,0.0,0.0,-44.108,0.0,0.0,0.0,0.0,0.0
234,0.0,0.16398046875,0.0,0.0,0.0,0.0,0.0,0.0,-0.371,0.0,0.0,0.0,0.0,0.0,0.0,-0.2065504473626568,0.0,0.0,0.0,0.0,0.0,0.0,-44.268,0.0,0.0,0.0,0.0,0.0
235,0.0,0.1598642578125,0.0,0.0,0.0,0.0,0.0,0.0,-0.392,0.0,0.0,0.0,0.0,0.0,0.0,-0.21509697916530646,0.0,0.0,0.0,0.0,0.0,0.0,-44.756,0.0,0.0,0.0,0.0,0.0
236,0.0,0.1557412109375,0.0,0.0,0.0,0.0,0.0,0.0,-0.414,0.0,0.0,0.0,0.0,0.0,0.0,-0.22337327657971315,0.0,0.0,0.0,0.0,0.0,0.0,-44.54,0.0,0.0,0.0,0.0,0.0
237,0.0,0.1517275390625,0.0,0.0,0.0,0.0,0.0,0.0,-0.414,0.0,0.0,0.0,0.0,0.0,0.0,-0.2316834607596076,0.0,0.0,0.0,0.0,0.0,0.0,-44.324,0.0,0.0,0.0,0.0,0.0
238,0.0,0.1478173828125,0.0,0.0,0.0,0.0,0.0,0.0,-0.399,0.0,0.0,0.0,0.0,0.0,0.0,-0.24000014594339547,0.0,0.0,0.0,0.0,0.0,0.0,-44.324,0.0,0.0,0.0,0.0,0.0
239,0.0,0.144208984375,0.0,0.0,0.0,0.0,0.0,0.0,-0.38,0.0,0.0,0.0,0.0,0.0,0.0,-0.24829686858533562,0.0,0.0,0.0,0.0,0.0,0.0,-44.108,0.0,0.0,0.0,0.0,0.0
240,0.0,0.14039453125,0.0,0.0,0.0,0.0,0.0,0.0,-0.375,0.0,0.0,0.0,0.0,0.0,0.0,-0.2563104961166427,0.0,0.0,0.0,0.0,0.0,0.0,-44.268,0.0,0.0,0.0,0.0,0.0
241,0.0,0.1361689453125,0.0,0.0,0.0,0.0,0.0,0.0,-0.402,0.0,0.0,0.0,0.0,0.0,0.0,-0.2644228755426132,0.0,0.0,0.0,0.0,0.0,0.0,-44.7,0.0,0.0,0.0,0.0,0.0
242,0.0,0.132052734375,0.0,0.0,0.0,0.0,0.0,0.0,-0.42,0.0,0.0,0.0,0.0,0.0,0.0,-0.27255274192419954,0.0,0.0,0.0,0.0,0.0,0.0,-44.484,0.0,0.0,0.0,0.0,0.0
243,0.0,0.1279296875,0.0,0.0,0.0,0.0,0.0,0.0,-0.415,0.0,0.0,0.0,0.0,0.0,0.0,-0.2804798693977568,0.0,0.0,0.0,0.0,0.0,0.0,-44.324,0.0,0.0,0.0,0.0,0.0
244,0.0,0.12401953125,0.0,0.0,0.0,0.0,0.0,0.0,-0.408,0.0,0.0,0.0,0.0,0.0,0.0,-0.2884838849299148,0.0,0.0,0.0,0.0,0.0,0.0,-44.54,0.0,0.0,0.0,0.0,0.0
245,0.0,0.120314453125,0.0,0.0,0.0,0.0,0.0,0.0,-0.38,0.0,0.0,0.0,0.0,0.0,0.0,-0.2963675694867844,0.0,0.0,0.0,0.0,0.0,0.0,-44.592,0.0,0.0,0.0,0.0,0.0
246,0.0,0.1163974609375,0.0,0.0,0.0,0.0,0.0,0.0,-0.381,0.0,0.0,0.0,0.0,0.0,0.0,-0.30410054148739535,0.0,0.0,0.0,0.0,0.0,0.0,-44.484,0.0,0.0,0.0,0.0,0.0
247,0.0,0.1121787109375,0.0,0.0,0.0,0.0,0.0,0.0,-0.408,0.0,0.0,0.0,0.0,0.0,0.0,-0.31181287497898874,0.0,0.0,0.0,0.0,0.0,0.0,-44.648,0.0,0.0,0.0,0.0,0.0
248,0.0,0.107953125,0.0,0.0,0.0,0.0,0.0,0.0,-0.424,0.0,0.0,0.0,0.0,0.0,0.0,-0.3195375387339337,0.0,0.0,0.0,0.0,0.0,0.0,-44.54,0.0,0.0,0.0,0.0,0.0
249,0.0,0.1039462890625,0.0,0.0,0.0,0.0,0.0,0.0,-0.421,0.0,0.0,0.0,0.0,0.0,0.0,-0.32706664702666816,0.0,0.0,0.0,0.0,0.0,0.0,-44.216,0.0,0.0,0.0,0.0,0.0
250,0.0,0.100029296875,0.0,0.0,0.0,0.0,0.0,0.0,-0.398,0.0,0.0,0.0,0.0,0.0,0.0,-0.33456379368383843,0.0,0.0,0.0,0.0,0.0,0.0,-44.268,0.0,0.0,0.0,0.0,0.0
251,0.0,0.09632421875,0.0,0.0,0.0,0.0,0.0,0.0,-0.385,0.0,0.0,0.0,0.0,0.0,0.0,-0.34197601402638284,0.0,0.0,0.0,0.0,0.0,0.0,-44.216,0.0,0.0,0.0,0.0,0.0
252,0.0,0.092310546875,0.0,0.0,0.0,0.0,0.0,0.0,-0.386,0.0,0.0,0.0,0.0,0.0,0.0,-0.34934469633965287,0.0,0.0,0.0,0.0,0.0,0.0,-44.108,0.0,0.0,0.0,0.0,0.0
253,0.0,0.0880849609375,0.0,0.0,0.0,0.0,0.0,0.0,-0.41,0.0,0.0,0.0,0.0,0.0,0.0,-0.35664124110088496,0.0,0.0,0.0,0.0,0.0,0.0,-44.484,0.0,0.0,0.0,0.0,0.0
254,0.0,0.0838662109375,0.0,0.0,0.0,0.0,0.0,0.0,-0.425,0.0,0.0,0.0,0.0,0.0,0.0,-0.3638231678827496,0.0,0.0,0.0,0.0,0.0,0.0,-44.16,0.0,0.0,0.0,0.0,0.0
255,0.0,0.079845703125,0.0,0.0,0.0,0.0,0.0,0.0,-0.421,0.0,0.0,0.0,0.0,0.0,0.0,-0.3712731149674993,0.0,0.0,0.0,0.0,0.0,0.0,-44.108,0.0,0.0,0.0,0.0,0.0
256,0.0,0.0760380859375,0.0,0.0,0.0,0.0,0.0,0.0,-0.397,0.0,0.0,0.0,0.0,0.0,0.0,-0.3817062028204416,0.0,0.0,0.0,0.0,0.0,0.0,-44.376,0.0,0.0,0.0,0.0,0.0
257,0.0,0.072224609375,0.0,0.0,0.0,0.0,0.0,0.0,-0.384,0.0,0.0,0.0,0.0,0.0,0.0,-0.38645090749305494,0.0,0.0,0.0,0.0,0.0,0.0,-44.376,0.0,0.0,0.0,0.0,0.0
258,0.0,0.0683134765625,0.0,0.0,0.0,0.0,0.0,0.0,-0.382,0.0,0.0,0.0,0.0,0.0,0.0,-0.3930802365587185,0.0,0.0,0.0,0.0,0.0,0.0,-44.432,0.0,0.0,0.0,0.0,0.0
259,0.0,0.064087890625,0.0,0.0,0.0,0.0,0.0,0.0,-0.41,0.0,0.0,0.0,0.0,0.0,0.0,-0.39858237664487334,0.0,0.0,0.0,0.0,0.0,0.0,-44.7,0.0,0.0,0.0,0.0,0.0
260,0.0,0.059869140625,0.0,0.0,0.0,0.0,0.0,0.0,-0.428,0.0,0.0,0.0,0.0,0.0,0.0,-0.40612571906310685,0.0,0.0,0.0,0.0,0.0,0.0,-44.376,0.0,0.0,0.0,0.0,0.0
261,0.0,0.0558486328125,0.0,0.0,0.0,0.0,0.0,0.0,-0.417,0.0,0.0,0.0,0.0,0.0,0.0,-0.4119540860893051,0.0,0.0,0.0,0.0,0.0,0.0,-44.16,0.0,0.0,0.0,0.0,0.0
262,0.0,0.052041015625,0.0,0.0,0.0,0.0,0.0,0.0,-0.396,0.0,0.0,0.0,0.0,0.0,0.0,-0.41844258859674055,0.0,0.0,0.0,0.0,0.0,0.0,-44.324,0.0,0.0,0.0,0.0,0.0
263,0.0,0.044419921875,0.0,0.0,0.0,0.0,0.0,0.0,-0.382,0.0,0.0,0.0,0.0,0.0,0.0,-0.4291824976629948,0.0,0.0,0.0,0.0,0.0,0.0,-44.324,0.0,0.0,0.0,0.0,0.0
264,0.0,0.044419921875,0.0,0.0,0.0,0.0,0.0,0.0,-0.382,0.0,0.0,0.0,0.0,0.0,0.0,-0.43246597686251226,0.0,0.0,0.0,0.0,0.0,0.0,-44.324,0.0,0.0,0.0,0.0,0.0
265,0.0,0.0402001953125,0.0,0.0,0.0,0.0,0.0,0.0,-0.409,0.0,0.0,0.0,0.0,0.0,0.0,-0.4372400660259998,0.0,0.0,0.0,0.0,0.0,0.0,-44.7,0.0,0.0,0.0,0.0,0.0
266,0.0,0.035974609375,0.0,0.0,0.0,0.0,0.0,0.0,-0.429,0.0,0.0,0.0,0.0,0.0,0.0,-0.4433726125999028,0.0,0.0,0.0,0.0,0.0,0.0,-44.376,0.0,0.0,0.0,0.0,0.0
267,0.0,0.0319609375,0.0,0.0,0.0,0.0,0.0,0.0,-0.416,0.0,0.0,0.0,0.0,0.0,0.0,-0.4493989540438638,0.0,0.0,0.0,0.0,0.0,0.0,-44.324,0.0,0.0,0.0,0.0,0.0
268,0.0,0.0281474609375,0.0,0.0,0.0,0.0,0.0,0.0,-0.393,0.0,0.0,0.0,0.0,0.0,0.0,-0.45531299305282436,0.0,0.0,0.0,0.0,0.0,0.0,-44.592,0.0,0.0,0.0,0.0,0.0
269,0.0,0.0281474609375,0.0,0.0,0.0,0.0,0.0,0.0,-0.393,0.0,0.0,0.0,0.0,0.0,0.0,-0.4612144400241957,0.0,0.0,0.0,0.0,0.0,0.0,-44.592,0.0,0.0,0.0,0.0,0.0
270,0.0,0.020525390625,0.0,0.0,0.0,0.0,0.0,0.0,-0.381,0.0,0.0,0.0,0.0,0.0,0.0,-0.46682228184238495,0.0,0.0,0.0,0.0,0.0,0.0,-44.7,0.0,0.0,0.0,0.0,0.0
271,0.0,0.016306640625,0.0,0.0,0.0,0.0,0.0,0.0,-0.411,0.0,0.0,0.0,0.0,0.0,0.0,-0.47282167096861183,0.0,0.0,0.0,0.0,0.0,0.0,-44.972,0.0,0.0,0.0,0.0,0.0
272,0.0,0.0120869140625,0.0,0.0,0.0,0.0,0.0,0.0,-0.426,0.0,0.0,0.0,0.0,0.0,0.0,-0.47786071313393835,0.0,0.0,0.0,0.0,0.0,0.0,-44.54,0.0,0.0,0.0,0.0,0.0
273,0.0,0.0080673828125,0.0,0.0,0.0,0.0,0.0,0.0,-0.418,0.0,0.0,0.0,0.0,0.0,0.0,-0.4833197178945213,0.0,0.0,0.0,0.0,0.0,0.0,-44.324,0.0,0.0,0.0,0.0,0.0
274,0.0,0.0043623046875,0.0,0.0,0.0,0.0,0.0,0.0,-0.39,0.0,0.0,0.0,0.0,0.0,0.0,-0.48923194822214805,0.0,0.0,0.0,0.0,0.0,0.0,-44.484,0.0,0.0,0.0,0.0,0.0
275,0.0,0.0043623046875,0.0,0.0,0.0,0.0,0.0,0.0,-0.39,0.0,0.0,0.0,0.0,0.0,0.0,-0.49483080692511394,0.0,0.0,0.0,0.0,0.0,0.0,-44.484,0.0,0.0,0.0,0.0,0.0
276,0.0,-0.0033623046875,0.0,0.0,0.0,0.0,0.0,0.0,-0.387,0.0,0.0,0.0,0.0,0.0,0.0,-0.49893644291904915,0.0,0.0,0.0,0.0,0.0,0.0,-44.484,0.0,0.0,0.0,0.0,0.0
277,0.0,-0.007587890625,0.0,0.0,0.0,0.0,0.0,0.0,-0.415,0.0,0.0,0.0,0.0,0.0,0.0,-0.5037397703913585,0.0,0.0,0.0,0.0,0.0,0.0,-44.54,0.0,0.0,0.0,0.0,0.0
278,0.0,-0.011806640625,0.0,0.0,0.0,0.0,0.0,0.0,-0.425,0.0,0.0,0.0,0.0,0.0,0.0,-0.5085755299735302,0.0,0.0,0.0,0.0,0.0,0.0,-44.324,0.0,0.0,0.0,0.0,0.0
279,0.0,-0.0157236328125,0.0,0.0,0.0,0.0,0.0,0.0,-0.418,0.0,0.0,0.0,0.0,0.0,0.0,-0.5133429203763128,0.0,0.0,0.0,0.0,0.0,0.0,-44.376,0.0,0.0,0.0,0.0,0.0
280,0.0,-0.01953125,0.0,0.0,0.0,0.0,0.0,0.0,-0.387,0.0,0.0,0.0,0.0,0.0,0.0,-0.5178955118164091,0.0,0.0,0.0,0.0,0.0,0.0,-44.7,0.0,0.0,0.0,0.0,0.0
281,0.0,-0.0232431640625,0.0,0.0,0.0,0.0,0.0,0.0,-0.374,0.0,0.0,0.0,0.0,0.0,0.0,-0.5238664017808369,0.0,0.0,0.0,0.0,0.0,0.0,-44.648,0.0,0.0,0.0,0.0,0.0
282,0.0,-0.027255859375,0.0,0.0,0.0,0.0,0.0,0.0,-0.387,0.0,0.0,0.0,0.0,0.0,0.0,-0.5271561076228612,0.0,0.0,0.0,0.0,0.0,0.0,-44.7,0.0,0.0,0.0,0.0,0.0
283,0.0,-0.0314814453125,0.0,0.0,0.0,0.0,0.0,0.0,-0.416,0.0,0.0,0.0,0.0,0.0,0.0,-0.5310068726475045,0.0,0.0,0.0,0.0,0.0,0.0,-44.916,0.0,0.0,0.0,0.0,0.0
284,0.0,-0.035701171875,0.0,0.0,0.0,0.0,0.0,0.0,-0.429,0.0,0.0,0.0,0.0,0.0,0.0,-0.5353039063941164,0.0,0.0,0.0,0.0,0.0,0.0,-44.216,0.0,0.0,0.0,0.0,0.0
285,0.0,-0.039611328125,0.0,0.0,0.0,0.0,0.0,0.0,-0.413,0.0,0.0,0.0,0.0,0.0,0.0,-0.5391517214702851,0.0,0.0,0.0,0.0,0.0,0.0,-44.216,0.0,0.0,0.0,0.0,0.0
286,0.0,-0.04342578125,0.0,0.0,0.0,0.0,0.0,0.0,-0.389,0.0,0.0,0.0,0.0,0.0,0.0,-0.5430320590743277,0.0,0.0,0.0,0.0,0.0,0.0,-44.54,0.0,0.0,0.0,0.0,0.0
287,0.0,-0.047130859375,0.0,0.0,0.0,0.0,0.0,0.0,-0.373,0.0,0.0,0.0,0.0,0.0,0.0,-0.546799562976133,0.0,0.0,0.0,0.0,0.0,0.0,-44.324,0.0,0.0,0.0,0.0,0.0
288,0.0,-0.051150390625,0.0,0.0,0.0,0.0,0.0,0.0,-0.388,0.0,0.0,0.0,0.0,0.0,0.0,-0.5504687295558479,0.0,0.0,0.0,0.0,0.0,0.0,-44.376,0.0,0.0,0.0,0.0,0.0
289,0.0,-0.05547265625,0.0,0.0,0.0,0.0,0.0,0.0,-0.419,0.0,0.0,0.0,0.0,0.0,0.0,-0.5546009809083455,0.0,0.0,0.0,0.0,0.0,0.0,-44.484,0.0,0.0,0.0,0.0,0.0
290,0.0,-0.059595703125,0.0,0.0,0.0,0.0,0.0,0.0,-0.428,0.0,0.0,0.0,0.0,0.0,0.0,-0.5573630942249894,0.0,0.0,0.0,0.0,0.0,0.0,-44.324,0.0,0.0,0.0,0.0,0.0
291,0.0,-0.0636083984375,0.0,0.0,0.0,0.0,0.0,0.0,-0.413,0.0,0.0,0.0,0.0,0.0,0.0,-0.5606300774702978,0.0,0.0,0.0,0.0,0.0,0.0,-44.268,0.0,0.0,0.0,0.0,0.0
292,0.0,-0.0673193359375,0.0,0.0,0.0,0.0,0.0,0.0,-0.389,0.0,0.0,0.0,0.0,0.0,0.0,-0.5637644192061279,0.0,0.0,0.0,0.0,0.0,0.0,-44.54,0.0,0.0,0.0,0.0,0.0
293,0.0,-0.0710244140625,0.0,0.0,0.0,0.0,0.0,0.0,-0.372,0.0,0.0,0.0,0.0,0.0,0.0,-0.5667920794565497,0.0,0.0,0.0,0.0,0.0,0.0,-44.54,0.0,0.0,0.0,0.0,0.0
294,0.0,-0.0750439453125,0.0,0.0,0.0,0.0,0.0,0.0,-0.388,0.0,0.0,0.0,0.0,0.0,0.0,-0.5696839297437272,0.0,0.0,0.0,0.0,0.0,0.0,-44.592,0.0,0.0,0.0,0.0,0.0
295,0.0,-0.0793662109375,0.0,0.0,0.0,0.0,0.0,0.0,-0.42,0.0,0.0,0.0,0.0,0.0,0.0,-0.5724349155488268,0.0,0.0,0.0,0.0,0.0,0.0,-44.54,0.0,0.0,0.0,0.0,0.0
296,0.0,-0.083591796875,0.0,0.0,0.0,0.0,0.0,0.0,-0.431,0.0,0.0,0.0,0.0,0.0,0.0,-0.5750654762158878,0.0,0.0,0.0,0.0,0.0,0.0,-44.052,0.0,0.0,0.0,0.0,0.0
297,0.0,-0.0875029296875,0.0,0.0,0.0,0.0,0.0,0.0,-0.412,0.0,0.0,0.0,0.0,0.0,0.0,-0.5775594795662571,0.0,0.0,0.0,0.0,0.0,0.0,-43.944,0.0,0.0,0.0,0.0,0.0
298,0.0,-0.09120703125,0.0,0.0,0.0,0.0,0.0,0.0,-0.383,0.0,0.0,0.0,0.0,0.0,0.0,-0.5799378966470505,0.0,0.0,0.0,0.0,0.0,0.0,-44.376,0.0,0.0,0.0,0.0,0.0
299,0.0,-0.0949189453125,0.0,0.0,0.0,0.0,0.0,0.0,-0.374,0.0,0.0,0.0,0.0,0.0,0.0,-0.582170197112125,0.0,0.0,0.0,0.0,0.0,0.0,-44.16,0.0,0.0,0.0,0.0,0.0
300,0.0,-0.09903515625,0.0,0.0,0.0,0.0,0.0,0.0,-0.387,0.0,0.0,0.0,0.0,0.0,0.0,-0.5847027188740345,0.0,0.0,0.0,0.0,0.0,0.0,-44.216,0.0,0.0,0.0,0.0,0.0
301,0.0,-0.1150947265625,0.0,0.0,0.0,0.0,0.0,0.0,-0.387,0.0,0.0,0.0,0.0,0.0,0.0,-0.5916698463080409,0.0,0.0,0.0,0.0,0.0,0.0,-44.484,0.0,0.0,0.0,0.0,0.0
302,0.0,-0.118806640625,0.0,0.0,0.0,0.0,0.0,0.0,-0.375,0.0,0.0,0.0,0.0,0.0,0.0,-0.5931552127231889,0.0,0.0,0.0,0.0,0.0,0.0,-44.376,0.0,0.0,0.0,0.0,0.0
303,0.0,-0.1313671875,0.0,0.0,0.0,0.0,0.0,0.0,-0.428,0.0,0.0,0.0,0.0,0.0,0.0,-0.5968163222526842,0.0,0.0,0.0,0.0,0.0,0.0,-43.944,0.0,0.0,0.0,0.0,0.0
304,0.0,-0.1389892578125,0.0,0.0,0.0,0.0,0.0,0.0,-0.385,0.0,0.0,0.0,0.0,0.0,0.0,-0.5979584886060787,0.0,0.0,0.0,0.0,0.0,0.0,-44.16,0.0,0.0,0.0,0.0,0.0
305,0.0,-0.1427001953125,0.0,0.0,0.0,0.0,0.0,0.0,-0.373,0.0,0.0,0.0,0.0,0.0,0.0,-0.5987777644505942,0.0,0.0,0.0,0.0,0.0,0.0,-44.0,0.0,0.0,0.0,0.0,0.0
306,0.0,-0.1427001953125,0.0,0.0,0.0,0.0,0.0,0.0,-0.373,0.0,0.0,0.0,0.0,0.0,0.0,-0.5992237770036807,0.0,0.0,0.0,0.0,0.0,0.0,-44.0,0.0,0.0,0.0,0.0,0.0
307,0.0,-0.1511455078125,0.0,0.0,0.0,0.0,0.0,0.0,-0.419,0.0,0.0,0.0,0.0,0.0,0.0,-0.599648286892688,0.0,0.0,0.0,0.0,0.0,0.0,-43.944,0.0,0.0,0.0,0.0,0.0
308,0.0,-0.1511455078125,0.0,0.0,0.0,0.0,0.0,0.0,-0.419,0.0,0.0,0.0,0.0,0.0,0.0,-0.5997817581755301,0.0,0.0,0.0,0.0,0.0,0.0,-43.944,0.0,0.0,0.0,0.0,0.0
309,0.0,-0.15526171875,0.0,0.0,0.0,0.0,0.0,0.0,-0.429,0.0,0.0,0.0,0.0,0.0,0.0,-0.5999521032975398,0.0,0.0,0.0,0.0,0.0,0.0,-43.892,0.0,0.0,0.0,0.0,0.0
310,0.0,-0.1591787109375,0.0,0.0,0.0,0.0,0.0,0.0,-0.409,0.0,0.0,0.0,0.0,0.0,0.0,-0.5999985763170687,0.0,0.0,0.0,0.0,0.0,0.0,-43.784,0.0,0.0,0.0,0.0,0.0
311,0.0,-0.1628837890625,0.0,0.0,0.0,0.0,0.0,0.0,-0.382,0.0,0.0,0.0,0.0,0.0,0.0,-0.5999118886765736,0.0,0.0,0.0,0.0,0.0,0.0,-44.16,0.0,0.0,0.0,0.0,0.0
312,0.0,-0.166587890625,0.0,0.0,0.0,0.0,0.0,0.0,-0.372,0.0,0.0,0.0,0.0,0.0,0.0,-0.5996911840370152,0.0,0.0,0.0,0.0,0.0,0.0,-44.16,0.0,0.0,0.0,0.0,0.0
313,0.0,-0.1707109375,0.0,0.0,0.0,0.0,0.0,0.0,-0.394,0.0,0.0,0.0,0.0,0.0,0.0,-0.5993251893453493,0.0,0.0,0.0,0.0,0.0,0.0,-44.216,0.0,0.0,0.0,0.0,0.0
314,0.0,-0.175033203125,0.0,0.0,0.0,0.0,0.0,0.0,-0.421,0.0,0.0,0.0,0.0,0.0,0.0,-0.5988416478905612,0.0,0.0,0.0,0.0,0.0,0.0,-43.944,0.0,0.0,0.0,0.0,0.0
315,0.0,-0.1791552734375,0.0,0.0,0.0,0.0,0.0,0.0,-0.428,0.0,0.0,0.0,0.0,0.0,0.0,-0.5982119837847414,0.0,0.0,0.0,0.0,0.0,0.0,-43.62,0.0,0.0,0.0,0.0,0.0
316,0.0,-0.18306640625,0.0,0.0,0.0,0.0,0.0,0.0,-0.41,0.0,0.0,0.0,0.0,0.0,0.0,-0.5974449616142061,0.0,0.0,0.0,0.0,0.0,0.0,-43.512,0.0,0.0,0.0,0.0,0.0
317,0.0,-0.18677734375,0.0,0.0,0.0,0.0,0.0,0.0,-0.384,0.0,0.0,0.0,0.0,0.0,0.0,-0.5965631039629485,0.0,0.0,0.0,0.0,0.0,0.0,-43.836,0.0,0.0,0.0,0.0,0.0
318,0.0,-0.190482421875,0.0,0.0,0.0,0.0,0.0,0.0,-0.373,0.0,0.0,0.0,0.0,0.0,0.0,-0.5955087443443525,0.0,0.0,0.0,0.0,0.0,0.0,-43.512,0.0,0.0,0.0,0.0,0.0
319,0.0,-0.1945986328125,0.0,0.0,0.0,0.0,0.0,0.0,-0.394,0.0,0.0,0.0,0.0,0.0,0.0,-0.5943720745934151,0.0,0.0,0.0,0.0,0.0,0.0,-43.62,0.0,0.0,0.0,0.0,0.0
320,0.0,-0.1989208984375,0.0,0.0,0.0,0.0,0.0,0.0,-0.425,0.0,0.0,0.0,0.0,0.0,0.0,-0.59306563404973,0.0,0.0,0.0,0.0,0.0,0.0,-43.676,0.0,0.0,0.0,0.0,0.0
321,0.0,-0.203146484375,0.0,0.0,0.0,0.0,0.0,0.0,-0.433,0.0,0.0,0.0,0.0,0.0,0.0,-0.5916343291798856,0.0,0.0,0.0,0.0,0.0,0.0,-43.46,0.0,0.0,0.0,0.0,0.0
322,0.0,-0.2106650390625,0.0,0.0,0.0,0.0,0.0,0.0,-0.385,0.0,0.0,0.0,0.0,0.0,0.0,-0.5892897832319498,0.0,0.0,0.0,0.0,0.0,0.0,-43.892,0.0,0.0,0.0,0.0,0.0
323,0.0,-0.2106650390625,0.0,0.0,0.0,0.0,0.0,0.0,-0.385,0.0,0.0,0.0,0.0,0.0,0.0,-0.5881412846181782,0.0,0.0,0.0,0.0,0.0,0.0,-43.892,0.0,0.0,0.0,0.0,0.0
324,0.0,-0.21447265625,0.0,0.0,0.0,0.0,0.0,0.0,-0.375,0.0,0.0,0.0,0.0,0.0,0.0,-0.586480559679106,0.0,0.0,0.0,0.0,0.0,0.0,-43.62,0.0,0.0,0.0,0.0,0.0
325,0.0,-0.22291796875,0.0,0.0,0.0,0.0,0.0,0.0,-0.426,0.0,0.0,0.0,0.0,0.0,0.0,-0.5822581621675577,0.0,0.0,0.0,0.0,0.0,0.0,-43.512,0.0,0.0,0.0,0.0,0.0
326,0.0,-0.2270400390625,0.0,0.0,0.0,0.0,0.0,0.0,-0.429,0.0,0.0,0.0,0.0,0.0,0.0,-0.5805985897531928,0.0,0.0,0.0,0.0,0.0,0.0,-43.192,0.0,0.0,0.0,0.0,0.0
327,0.0,-0.2345595703125,0.0,0.0,0.0,0.0,0.0,0.0,-0.381,0.0,0.0,0.0,0.0,0.0,0.0,-0.5763104411914788,0.0,0.0,0.0,0.0,0.0,0.0,-43.296,0.0,0.0,0.0,0.0,0.0
328,0.0,-0.2383671875,0.0,0.0,0.0,0.0,0.0,0.0,-0.373,0.0,0.0,0.0,0.0,0.0,0.0,-0.5746934835184407,0.0,0.0,0.0,0.0,0.0,0.0,-43.192,0.0,0.0,0.0,0.0,0.0
329,0.0,-0.2383671875,0.0,0.0,0.0,0.0,0.0,0.0,-0.373,0.0,0.0,0.0,0.0,0.0,0.0,-0.5728482826561139,0.0,0.0,0.0,0.0,0.0,0.0,-43.192,0.0,0.0,0.0,0.0,0.0
330,0.0,-0.2468115234375,0.0,0.0,0.0,0.0,0.0,0.0,-0.423,0.0,0.0,0.0,0.0,0.0,0.0,-0.5672533155417582,0.0,0.0,0.0,0.0,0.0,0.0,-43.136,0.0,0.0,0.0,0.0,0.0
331,0.0,-0.2509345703125,0.0,0.0,0.0,0.0,0.0,0.0,-0.427,0.0,0.0,0.0,0.0,0.0,0.0,-0.5650725006932076,0.0,0.0,0.0,0.0,0.0,0.0,-42.976,0.0,0.0,0.0,0.0,0.0
332,0.0,-0.2622607421875,0.0,0.0,0.0,0.0,0.0,0.0,-0.37,0.0,0.0,0.0,0.0,0.0,0.0,-0.5552705094027902,0.0,0.0,0.0,0.0,0.0,0.0,-43.192,0.0,0.0,0.0,0.0,0.0
333,0.0,-0.274712890625,0.0,0.0,0.0,0.0,0.0,0.0,-0.421,0.0,0.0,0.0,0.0,0.0,0.0,-0.5443871039145122,0.0,0.0,0.0,0.0,0.0,0.0,-42.812,0.0,0.0,0.0,0.0,0.0
334,0.0,-0.2822314453125,0.0,0.0,0.0,0.0,0.0,0.0,-0.38,0.0,0.0,0.0,0.0,0.0,0.0,-0.5356264991885519,0.0,0.0,0.0,0.0,0.0,0.0,-43.028,0.0,0.0,0.0,0.0,0.0
335,0.0,-0.2860458984375,0.0,0.0,0.0,0.0,0.0,0.0,-0.375,0.0,0.0,0.0,0.0,0.0,0.0,-0.5314886253319343,0.0,0.0,0.0,0.0,0.0,0.0,-42.76,0.0,0.0,0.0,0.0,0.0
336,0.0,-0.2986064453125,0.0,0.0,0.0,0.0,0.0,0.0,-0.429,0.0,0.0,0.0,0.0,0.0,0.0,-0.5207292488589178,0.0,0.0,0.0,0.0,0.0,0.0,-42.488,0.0,0.0,0.0,0.0,0.0
337,0.0,-0.3024208984375,0.0,0.0,0.0,0.0,0.0,0.0,-0.404,0.0,0.0,0.0,0.0,0.0,0.0,-0.5160112441610782,0.0,0.0,0.0,0.0,0.0,0.0,-42.76,0.0,0.0,0.0,0.0,0.0
338,0.0,-0.313953125,0.0,0.0,0.0,0.0,0.0,0.0,-0.393,0.0,0.0,0.0,0.0,0.0,0.0,-0.5030102130258033,0.0,0.0,0.0,0.0,0.0,0.0,-42.76,0.0,0.0,0.0,0.0,0.0
339,0.0,-0.313953125,0.0,0.0,0.0,0.0,0.0,0.0,-0.393,0.0,0.0,0.0,0.0,0.0,0.0,-0.5004700426805643,0.0,0.0,0.0,0.0,0.0,0.0,-42.76,0.0,0.0,0.0,0.0,0.0
340,0.0,-0.3223984375,0.0,0.0,0.0,0.0,0.0,0.0,-0.427,0.0,0.0,0.0,0.0,0.0,0.0,-0.49175503618652083,0.0,0.0,0.0,0.0,0.0,0.0,-42.272,0.0,0.0,0.0,0.0,0.0
341,0.0,-0.32630859375,0.0,0.0,0.0,0.0,0.0,0.0,-0.408,0.0,0.0,0.0,0.0,0.0,0.0,-0.4864885032492205,0.0,0.0,0.0,0.0,0.0,0.0,-42.056,0.0,0.0,0.0,0.0,0.0
342,0.0,-0.3338212890625,0.0,0.0,0.0,0.0,0.0,0.0,-0.373,0.0,0.0,0.0,0.0,0.0,0.0,-0.47657026489818777,0.0,0.0,0.0,0.0,0.0,0.0,-42.22,0.0,0.0,0.0,0.0,0.0
343,0.0,-0.3379375,0.0,0.0,0.0,0.0,0.0,0.0,-0.404,0.0,0.0,0.0,0.0,0.0,0.0,-0.47139947187613707,0.0,0.0,0.0,0.0,0.0,0.0,-42.004,0.0,0.0,0.0,0.0,0.0
344,0.0,-0.342265625,0.0,0.0,0.0,0.0,0.0,0.0,-0.42,0.0,0.0,0.0,0.0,0.0,0.0,-0.4615881203979511,0.0,0.0,0.0,0.0,0.0,0.0,-42.056,0.0,0.0,0.0,0.0,0.0
345,0.0,-0.342265625,0.0,0.0,0.0,0.0,0.0,0.0,-0.42,0.0,0.0,0.0,0.0,0.0,0.0,-0.458494152229457,0.0,0.0,0.0,0.0,0.0,0.0,-42.056,0.0,0.0,0.0,0.0,0.0
346,0.0,-0.3501962890625,0.0,0.0,0.0,0.0,0.0,0.0,-0.407,0.0,0.0,0.0,0.0,0.0,0.0,-0.4550846090278346,0.0,0.0,0.0,0.0,0.0,0.0,-41.732,0.0,0.0,0.0,0.0,0.0
347,0.0,-0.3501962890625,0.0,0.0,0.0,0.0,0.0,0.0,-0.407,0.0,0.0,0.0,0.0,0.0,0.0,-0.45206052888275,0.0,0.0,0.0,0.0,0.0,0.0,-41.732,0.0,0.0,0.0,0.0,0.0
348,0.0,-0.3501962890625,0.0,0.0,0.0,0.0,0.0,0.0,-0.407,0.0,0.0,0.0,0.0,0.0,0.0,-0.4465648512979316,0.0,0.0,0.0,0.0,0.0,0.0,-41.732,0.0,0.0,0.0,0.0,0.0
349,0.0,-0.3578115234375,0.0,0.0,0.0,0.0,0.0,0.0,-0.378,0.0,0.0,0.0,0.0,0.0,0.0,-0.4410640331795334,0.0,0.0,0.0,0.0,0.0,0.0,-41.788,0.0,0.0,0.0,0.0,0.0
350,0.0,-0.3619345703125,0.0,0.0,0.0,0.0,0.0,0.0,-0.395,0.0,0.0,0.0,0.0,0.0,0.0,-0.43239402105841046,0.0,0.0,0.0,0.0,0.0,0.0,-41.948,0.0,0.0,0.0,0.0,0.0
351,0.0,-0.37037890625,0.0,0.0,0.0,0.0,0.0,0.0,-0.428,0.0,0.0,0.0,0.0,0.0,0.0,-0.4202259626254583,0.0,0.0,0.0,0.0,0.0,0.0,-41.464,0.0,0.0,0.0,0.0,0.0
352,0.0,-0.3741865234375,0.0,0.0,0.0,0.0,0.0,0.0,-0.405,0.0,0.0,0.0,0.0,0.0,0.0,-0.4126344396000398,0.0,0.0,0.0,0.0,0.0,0.0,-41.248,0.0,0.0,0.0,0.0,0.0
353,0.0,-0.3818017578125,0.0,0.0,0.0,0.0,0.0,0.0,-0.377,0.0,0.0,0.0,0.0,0.0,0.0,-0.4006308836868351,0.0,0.0,0.0,0.0,0.0,0.0,-41.3,0.0,0.0,0.0,0.0,0.0
354,0.0,-0.3859248046875,0.0,0.0,0.0,0.0,0.0,0.0,-0.399,0.0,0.0,0.0,0.0,0.0,0.0,-0.3937723780778523,0.0,0.0,0.0,0.0,0.0,0.0,-41.14,0.0,0.0,0.0,0.0,0.0
355,0.0,-0.3943701171875,0.0,0.0,0.0,0.0,0.0,0.0,-0.427,0.0,0.0,0.0,0.0,0.0,0.0,-0.3820688611587261,0.0,0.0,0.0,0.0,0.0,0.0,-41.084,0.0,0.0,0.0,0.0,0.0
356,0.0,-0.3979716796875,0.0,0.0,0.0,0.0,0.0,0.0,-0.403,0.0,0.0,0.0,0.0,0.0,0.0,-0.3752202124791943,0.0,0.0,0.0,0.0,0.0,0.0,-38.656,0.0,0.0,0.0,0.0,0.0
357,0.0,-0.40055078125,0.0,0.0,0.0,0.0,0.0,0.0,-0.32,0.0,0.0,0.0,0.0,0.0,0.0,-0.36427146130936633,0.0,0.0,0.0,0.0,0.0,0.0,-32.392,0.0,0.0,0.0,0.0,0.0
358,0.0,-0.40291796875,0.0,0.0,0.0,0.0,0.0,0.0,-0.136,0.0,0.0,0.0,0.0,0.0,0.0,-0.35654879069334955,0.0,0.0,0.0,0.0,0.0,0.0,-13.98,0.0,0.0,0.0,0.0,0.0
359,0.0,-0.402609375,0.0,0.0,0.0,0.0,0.0,0.0,-0.014,0.0,0.0,0.0,0.0,0.0,0.0,-0.3495118495930241,0.0,0.0,0.0,0.0,0.0,0.0,-9.068,0.0,0.0,0.0,0.0,0.0
360,0.0,-0.402609375,0.0,0.0,0.0,0.0,0.0,0.0,-0.014,0.0,0.0,0.0,0.0,0.0,0.0,-0.34224541433992045,0.0,0.0,0.0,0.0,0.0,0.0,-9.068,0.0,0.0,0.0,0.0,0.0
361,0.0,-0.4019912109375,0.0,0.0,0.0,0.0,0.0,0.0,0.039,0.0,0.0,0.0,0.0,0.0,0.0,-0.33704694496240156,0.0,0.0,0.0,0.0,0.0,0.0,-7.556,0.0,0.0,0.0,0.0,0.0
362,0.0,-0.4002421875,0.0,0.0,0.0,0.0,0.0,0.0,0.098,0.0,0.0,0.0,0.0,0.0,0.0,-0.3263665935895924,0.0,0.0,0.0,0.0,0.0,0.0,-7.016,0.0,0.0,0.0,0.0,0.0
363,0.0,-0.3941640625,0.0,0.0,0.0,0.0,0.0,0.0,0.291,0.0,0.0,0.0,0.0,0.0,0.0,-0.3153029292054574,0.0,0.0,0.0,0.0,0.0,0.0,-8.528,0.0,0.0,0.0,0.0,0.0
364,0.0,-0.3892177734375,0.0,0.0,0.0,0.0,0.0,0.0,0.421,0.0,0.0,0.0,0.0,0.0,0.0,-0.3072736138631847,0.0,0.0,0.0,0.0,0.0,0.0,-11.712,0.0,0.0,0.0,0.0,0.0
365,0.0,-0.384072265625,0.0,0.0,0.0,0.0,0.0,0.0,0.51,0.0,0.0,0.0,0.0,0.0,0.0,-0.29668399227730075,0.0,0.0,0.0,0.0,0.0,0.0,-14.684,0.0,0.0,0.0,0.0,0.0
366,0.0,-0.3724375,0.0,0.0,0.0,0.0,0.0,0.0,0.592,0.0,0.0,0.0,0.0,0.0,0.0,-0.2878598382738969,0.0,0.0,0.0,0.0,0.0,0.0,-22.08,0.0,0.0,0.0,0.0,0.0
367,0.0,-0.3669833984375,0.0,0.0,0.0,0.0,0.0,0.0,0.562,0.0,0.0,0.0,0.0,0.0,0.0,-0.2801572085866965,0.0,0.0,0.0,0.0,0.0,0.0,-28.18,0.0,0.0,0.0,0.0,0.0
368,0.0,-0.3605966796875,0.0,0.0,0.0,0.0,0.0,0.0,0.584,0.0,0.0,0.0,0.0,0.0,0.0,-0.2696458263568637,0.0,0.0,0.0,0.0,0.0,0.0,-31.26,0.0,0.0,0.0,0.0,0.0
369,0.0,-0.3539013671875,0.0,0.0,0.0,0.0,0.0,0.0,0.659,0.0,0.0,0.0,0.0,0.0,0.0,-0.26126723382451705,0.0,0.0,0.0,0.0,0.0,0.0,-33.092,0.0,0.0,0.0,0.0,0.0
370,0.0,-0.3467939453125,0.0,0.0,0.0,0.0,0.0,0.0,0.686,0.0,0.0,0.0,0.0,0.0,0.0,-0.2553022102292102,0.0,0.0,0.0,0.0,0.0,0.0,-32.768,0.0,0.0,0.0,0.0,0.0
371,0.0,-0.3467939453125,0.0,0.0,0.0,0.0,0.0,0.0,0.686,0.0,0.0,0.0,0.0,0.0,0.0,-0.2484234949651732,0.0,0.0,0.0,0.0,0.0,0.0,-32.768,0.0,0.0,0.0,0.0,0.0
372,0.0,-0.3396865234375,0.0,0.0,0.0,0.0,0.0,0.0,0.726,0.0,0.0,0.0,0.0,0.0,0.0,-0.24068262981809538,0.0,0.0,0.0,0.0,0.0,0.0,-39.032,0.0,0.0,0.0,0.0,0.0
373,0.0,-0.333615234375,0.0,0.0,0.0,0.0,0.0,0.0,0.669,0.0,0.0,0.0,0.0,0.0,0.0,-0.23242496498717077,0.0,0.0,0.0,0.0,0.0,0.0,-43.512,0.0,0.0,0.0,0.0,0.0
374,0.0,-0.327029296875,0.0,0.0,0.0,0.0,0.0,0.0,0.623,0.0,0.0,0.0,0.0,0.0,0.0,-0.22399414749722976,0.0,0.0,0.0,0.0,0.0,0.0,-43.192,0.0,0.0,0.0,0.0,0.0
375,0.0,-0.3204423828125,0.0,0.0,0.0,0.0,0.0,0.0,0.667,0.0,0.0,0.0,0.0,0.0,0.0,-0.2157306887283523,0.0,0.0,0.0,0.0,0.0,0.0,-42.004,0.0,0.0,0.0,0.0,0.0
376,0.0,-0.3141591796875,0.0,0.0,0.0,0.0,0.0,0.0,0.65,0.0,0.0,0.0,0.0,0.0,0.0,-0.2072884777539005,0.0,0.0,0.0,0.0,0.0,0.0,-45.296,0.0,0.0,0.0,0.0,0.0
377,0.0,-0.3073603515625,0.0,0.0,0.0,0.0,0.0,0.0,0.653,0.0,0.0,0.0,0.0,0.0,0.0,-0.1979387371862046,0.0,0.0,0.0,0.0,0.0,0.0,-50.804,0.0,0.0,0.0,0.0,0.0
378,0.0,-0.2954169921875,0.0,0.0,0.0,0.0,0.0,0.0,0.602,0.0,0.0,0.0,0.0,0.0,0.0,-0.18485350232181125,0.0,0.0,0.0,0.0,0.0,0.0,-49.344,0.0,0.0,0.0,0.0,0.0
379,0.0,-0.289853515625,0.0,0.0,0.0,0.0,0.0,0.0,0.578,0.0,0.0,0.0,0.0,0.0,0.0,-0.1801690890323254,0.0,0.0,0.0,0.0,0.0,0.0,-53.936,0.0,0.0,0.0,0.0,0.0
380,0.0,-0.2789384765625,0.0,0.0,0.0,0.0,0.0,0.0,0.544,0.0,0.0,0.0,0.0,0.0,0.0,-0.1620461116669436,0.0,0.0,0.0,0.0,0.0,0.0,-54.256,0.0,0.0,0.0,0.0,0.0
381,0.0,-0.2789384765625,0.0,0.0,0.0,0.0,0.0,0.0,0.544,0.0,0.0,0.0,0.0,0.0,0.0,-0.156744770633423,0.0,0.0,0.0,0.0,0.0,0.0,-54.256,0.0,0.0,0.0,0.0,0.0
382,0.0,-0.2737861328125,0.0,0.0,0.0,0.0,0.0,0.0,0.557,0.0,0.0,0.0,0.0,0.0,0.0,-0.15192997367625366,0.0,0.0,0.0,0.0,0.0,0.0,-53.556,0.0,0.0,0.0,0.0,0.0
383,0.0,-0.2692587890625,0.0,0.0,0.0,0.0,0.0,0.0,0.492,0.0,0.0,0.0,0.0,0.0,0.0,-0.13840806597511332,0.0,0.0,0.0,0.0,0.0,0.0,-56.524,0.0,0.0,0.0,0.0,0.0
384,0.0,-0.252787109375,0.0,0.0,0.0,0.0,0.0,0.0,0.426,0.0,0.0,0.0,0.0,0.0,0.0,-0.10435374661660164,0.0,0.0,0.0,0.0,0.0,0.0,-51.02,0.0,0.0,0.0,0.0,0.0
385,0.0,-0.24928125,0.0,0.0,0.0,0.0,0.0,0.0,0.383,0.0,0.0,0.0,0.0,0.0,0.0,-0.09547231178177461,0.0,0.0,0.0,0.0,0.0,0.0,-52.748,0.0,0.0,0.0,0.0,0.0
386,0.0,-0.24362109375,0.0,0.0,0.0,0.0,0.0,0.0,0.288,0.0,0.0,0.0,0.0,0.0,0.0,-0.08037445518264581,0.0,0.0,0.0,0.0,0.0,0.0,-50.048,0.0,0.0,0.0,0.0,0.0
387,0.0,-0.2408369140625,0.0,0.0,0.0,0.0,0.0,0.0,0.271,0.0,0.0,0.0,0.0,0.0,0.0,-0.07410373816580551,0.0,0.0,0.0,0.0,0.0,0.0,-45.944,0.0,0.0,0.0,0.0,0.0
388,0.0,-0.2408369140625,0.0,0.0,0.0,0.0,0.0,0.0,0.271,0.0,0.0,0.0,0.0,0.0,0.0,-0.06867518145052623,0.0,0.0,0.0,0.0,0.0,0.0,-45.944,0.0,0.0,0.0,0.0,0.0
389,0.0,-0.237234375,0.0,0.0,0.0,0.0,0.0,0.0,0.306,0.0,0.0,0.0,0.0,0.0,0.0,-0.05753144264590868,0.0,0.0,0.0,0.0,0.0,0.0,-43.836,0.0,0.0,0.0,0.0,0.0
390,0.0,-0.23425,0.0,0.0,0.0,0.0,0.0,0.0,0.328,0.0,0.0,0.0,0.0,0.0,0.0,-0.05093375304474269,0.0,0.0,0.0,0.0,0.0,0.0,-44.052,0.0,0.0,0.0,0.0,0.0
391,0.0,-0.2313623046875,0.0,0.0,0.0,0.0,0.0,0.0,0.316,0.0,0.0,0.0,0.0,0.0,0.0,-0.041754292625394034,0.0,0.0,0.0,0.0,0.0,0.0,-44.916,0.0,0.0,0.0,0.0,0.0
392,0.0,-0.2263203125,0.0,0.0,0.0,0.0,0.0,0.0,0.247,0.0,0.0,0.0,0.0,0.0,0.0,-0.031071505538406374,0.0,0.0,0.0,0.0,0.0,0.0,-42.328,0.0,0.0,0.0,0.0,0.0
393,0.0,-0.2263203125,0.0,0.0,0.0,0.0,0.0,0.0,0.247,0.0,0.0,0.0,0.0,0.0,0.0,-0.022621861901104184,0.0,0.0,0.0,0.0,0.0,0.0,-42.328,0.0,0.0,0.0,0.0,0.0
394,0.0,-0.2233291015625,0.0,0.0,0.0,0.0,0.0,0.0,0.268,0.0,0.0,0.0,0.0,0.0,0.0,-0.012320453595131326,0.0,0.0,0.0,0.0,0.0,0.0,-40.76,0.0,0.0,0.0,0.0,0.0
395,0.0,-0.2233291015625,0.0,0.0,0.0,0.0,0.0,0.0,0.268,0.0,0.0,0.0,0.0,0.0,0.0,-0.005396641440637047,0.0,0.0,0.0,0.0,0.0,0.0,-40.76,0.0,0.0,0.0,0.0,0.0
396,0.0,-0.2166337890625,0.0,0.0,0.0,0.0,0.0,0.0,0.338,0.0,0.0,0.0,0.0,0.0,0.0,0.003273027402586297,0.0,0.0,0.0,0.0,0.0,0.0,-40.168,0.0,0.0,0.0,0.0,0.0
397,0.0,-0.2068505859375,0.0,0.0,0.0,0.0,0.0,0.0,0.306,0.0,0.0,0.0,0.0,0.0,0.0,1.630783080853901e-05,0.0,0.0,0.0,0.0,0.0,0.0,-38.492,0.0,0.0,0.0,0.0,0.0
398,0.0,-0.2036611328125,0.0,0.0,0.0,0.0,0.0,0.0,0.335,0.0,0.0,0.0,0.0,0.0,0.0,0.00849759778755667,0.0,0.0,0.0,0.0,0.0,0.0,-39.464,0.0,0.0,0.0,0.0,0.0
399,0.0,-0.19665625,0.0,0.0,0.0,0.0,0.0,0.0,0.352,0.0,0.0,0.0,0.0,0.0,0.0,0.024537084592977928,0.0,0.0,0.0,0.0,0.0,0.0,-39.572,0.0,0.0,0.0,0.0,0.0
400,0.0,-0.1929580078125,0.0,0.0,0.0,0.0,0.0,0.0,0.374,0.0,0.0,0.0,0.0,0.0,0.0,0.03023521110974938,0.0,0.0,0.0,0.0,0.0,0.0,-39.032,0.0,0.0,0.0,0.0,0.0
401,0.0,-0.1892470703125,0.0,0.0,0.0,0.0,0.0,0.0,0.362,0.0,0.0,0.0,0.0,0.0,0.0,0.03745167639207881,0.0,0.0,0.0,0.0,0.0,0.0,-38.224,0.0,0.0,0.0,0.0,0.0
402,0.0,-0.185439453125,0.0,0.0,0.0,0.0,0.0,0.0,0.382,0.0,0.0,0.0,0.0,0.0,0.0,0.0519987248284587,0.0,0.0,0.0,0.0,0.0,0.0,-39.196,0.0,0.0,0.0,0.0,0.0
403,0.0,-0.1816259765625,0.0,0.0,0.0,0.0,0.0,0.0,0.386,0.0,0.0,0.0,0.0,0.0,0.0,0.05725537161561443,0.0,0.0,0.0,0.0,0.0,0.0,-39.736,0.0,0.0,0.0,0.0,0.0
404,0.0,-0.1816259765625,0.0,0.0,0.0,0.0,0.0,0.0,0.386,0.0,0.0,0.0,0.0,0.0,0.0,0.062179781142562535,0.0,0.0,0.0,0.0,0.0,0.0,-39.736,0.0,0.0,0.0,0.0,0.0
405,0.0,-0.1731806640625,0.0,0.0,0.0,0.0,0.0,0.0,0.404,0.0,0.0,0.0,0.0,0.0,0.0,0.07593323025052302,0.0,0.0,0.0,0.0,0.0,0.0,-39.952,0.0,0.0,0.0,0.0,0.0
406,0.0,-0.169373046875,0.0,0.0,0.0,0.0,0.0,0.0,0.408,0.0,0.0,0.0,0.0,0.0,0.0,0.08359638879775233,0.0,0.0,0.0,0.0,0.0,0.0,-39.68,0.0,0.0,0.0,0.0,0.0
407,0.0,-0.169373046875,0.0,0.0,0.0,0.0,0.0,0.0,0.408,0.0,0.0,0.0,0.0,0.0,0.0,0.08902220952204172,0.0,0.0,0.0,0.0,0.0,0.0,-39.68,0.0,0.0,0.0,0.0,0.0
408,0.0,-0.160619140625,0.0,0.0,0.0,0.0,0.0,0.0,0.444,0.0,0.0,0.0,0.0,0.0,0.0,0.10016507457949937,0.0,0.0,0.0,0.0,0.0,0.0,-41.948,0.0,0.0,0.0,0.0,0.0
409,0.0,-0.160619140625,0.0,0.0,0.0,0.0,0.0,0.0,0.444,0.0,0.0,0.0,0.0,0.0,0.0,0.10661194733526497,0.0,0.0,0.0,0.0,0.0,0.0,-41.948,0.0,0.0,0.0,0.0,0.0
410,0.0,-0.156291015625,0.0,0.0,0.0,0.0,0.0,0.0,0.434,0.0,0.0,0.0,0.0,0.0,0.0,0.11538311928711487,0.0,0.0,0.0,0.0,0.0,0.0,-42.76,0.0,0.0,0.0,0.0,0.0
411,0.0,-0.1520712890625,0.0,0.0,0.0,0.0,0.0,0.0,0.434,0.0,0.0,0.0,0.0,0.0,0.0,0.12424925940144388,0.0,0.0,0.0,0.0,0.0,0.0,-43.46,0.0,0.0,0.0,0.0,0.0
412,0.0,-0.147228515625,0.0,0.0,0.0,0.0,0.0,0.0,0.431,0.0,0.0,0.0,0.0,0.0,0.0,0.1330653817723877,0.0,0.0,0.0,0.0,0.0,0.0,-43.404,0.0,0.0,0.0,0.0,0.0
413,0.0,-0.14259765625,0.0,0.0,0.0,0.0,0.0,0.0,0.455,0.0,0.0,0.0,0.0,0.0,0.0,0.14178133571554014,0.0,0.0,0.0,0.0,0.0,0.0,-43.728,0.0,0.0,0.0,0.0,0.0
414,0.0,-0.1340498046875,0.0,0.0,0.0,0.0,0.0,0.0,0.452,0.0,0.0,0.0,0.0,0.0,0.0,0.1573630512481302,0.0,0.0,0.0,0.0,0.0,0.0,-45.78,0.0,0.0,0.0,0.0,0.0
415,0.0,-0.129720703125,0.0,0.0,0.0,0.0,0.0,0.0,0.44,0.0,0.0,0.0,0.0,0.0,0.0,0.16374708775997873,0.0,0.0,0.0,0.0,0.0,0.0,-45.836,0.0,0.0,0.0,0.0,0.0
416,0.0,-0.129720703125,0.0,0.0,0.0,0.0,0.0,0.0,0.44,0.0,0.0,0.0,0.0,0.0,0.0,0.16808201570900755,0.0,0.0,0.0,0.0,0.0,0.0,-45.836,0.0,0.0,0.0,0.0,0.0
417,0.0,-0.1212763671875,0.0,0.0,0.0,0.0,0.0,0.0,0.424,0.0,0.0,0.0,0.0,0.0,0.0,0.18016877974997905,0.0,0.0,0.0,0.0,0.0,0.0,-44.916,0.0,0.0,0.0,0.0,0.0
418,0.0,-0.1168505859375,0.0,0.0,0.0,0.0,0.0,0.0,0.438,0.0,0.0,0.0,0.0,0.0,0.0,0.18854401124238282,0.0,0.0,0.0,0.0,0.0,0.0,-44.972,0.0,0.0,0.0,0.0,0.0
419,0.0,-0.1168505859375,0.0,0.0,0.0,0.0,0.0,0.0,0.438,0.0,0.0,0.0,0.0,0.0,0.0,0.19361161711557037,0.0,0.0,0.0,0.0,0.0,0.0,-44.972,0.0,0.0,0.0,0.0,0.0
420,0.0,-0.10840625,0.0,0.0,0.0,0.0,0.0,0.0,0.428,0.0,0.0,0.0,0.0,0.0,0.0,0.20940244058439264,0.0,0.0,0.0,0.0,0.0,0.0,-45.836,0.0,0.0,0.0,0.0,0.0
421,0.0,-0.1044892578125,0.0,0.0,0.0,0.0,0.0,0.0,0.407,0.0,0.0,0.0,0.0,0.0,0.0,0.21561545130864765,0.0,0.0,0.0,0.0,0.0,0.0,-45.672,0.0,0.0,0.0,0.0,0.0
422,0.0,-0.1044892578125,0.0,0.0,0.0,0.0,0.0,0.0,0.407,0.0,0.0,0.0,0.0,0.0,0.0,0.2194703785561535,0.0,0.0,0.0,0.0,0.0,0.0,-45.672,0.0,0.0,0.0,0.0,0.0
423,0.0,-0.095947265625,0.0,0.0,0.0,0.0,0.0,0.0,0.411,0.0,0.0,0.0,0.0,0.0,0.0,0.2349628476221221,0.0,0.0,0.0,0.0,0.0,0.0,-45.024,0.0,0.0,0.0,0.0,0.0
424,0.0,-0.0919345703125,0.0,0.0,0.0,0.0,0.0,0.0,0.414,0.0,0.0,0.0,0.0,0.0,0.0,0.24184088823484,0.0,0.0,0.0,0.0,0.0,0.0,-45.456,0.0,0.0,0.0,0.0,0.0
425,0.0,-0.088326171875,0.0,0.0,0.0,0.0,0.0,0.0,0.403,0.0,0.0,0.0,0.0,0.0,0.0,0.24639152304815676,0.0,0.0,0.0,0.0,0.0,0.0,-45.888,0.0,0.0,0.0,0.0,0.0
426,0.0,-0.088326171875,0.0,0.0,0.0,0.0,0.0,0.0,0.403,0.0,0.0,0.0,0.0,0.0,0.0,0.2520738095204435,0.0,0.0,0.0,0.0,0.0,0.0,-45.888,0.0,0.0,0.0,0.0,0.0
427,0.0,-0.0844150390625,0.0,0.0,0.0,0.0,0.0,0.0,0.398,0.0,0.0,0.0,0.0,0.0,0.0,0.26032119143703436,0.0,0.0,0.0,0.0,0.0,0.0,-45.512,0.0,0.0,0.0,0.0,0.0
428,0.0,-0.0807041015625,0.0,0.0,0.0,0.0,0.0,0.0,0.383,0.0,0.0,0.0,0.0,0.0,0.0,0.2683053794756781,0.0,0.0,0.0,0.0,0.0,0.0,-44.864,0.0,0.0,0.0,0.0,0.0
429,0.0,-0.0763818359375,0.0,0.0,0.0,0.0,0.0,0.0,0.382,0.0,0.0,0.0,0.0,0.0,0.0,0.27629290287042285,0.0,0.0,0.0,0.0,0.0,0.0,-44.216,0.0,0.0,0.0,0.0,0.0
430,0.0,-0.068966796875,0.0,0.0,0.0,0.0,0.0,0.0,0.393,0.0,0.0,0.0,0.0,0.0,0.0,0.28727348290581173,0.0,0.0,0.0,0.0,0.0,0.0,-44.376,0.0,0.0,0.0,0.0,0.0
431,0.0,-0.068966796875,0.0,0.0,0.0,0.0,0.0,0.0,0.393,0.0,0.0,0.0,0.0,0.0,0.0,0.29217639010974633,0.0,0.0,0.0,0.0,0.0,0.0,-44.376,0.0,0.0,0.0,0.0,0.0
432,0.0,-0.064740234375,0.0,0.0,0.0,0.0,0.0,0.0,0.393,0.0,0.0,0.0,0.0,0.0,0.0,0.30000477716657425,0.0,0.0,0.0,0.0,0.0,0.0,-44.54,0.0,0.0,0.0,0.0,0.0
433,0.0,-0.0613447265625,0.0,0.0,0.0,0.0,0.0,0.0,0.382,0.0,0.0,0.0,0.0,0.0,0.0,0.30809088314466654,0.0,0.0,0.0,0.0,0.0,0.0,-44.108,0.0,0.0,0.0,0.0,0.0
434,0.0,-0.0572216796875,0.0,0.0,0.0,0.0,0.0,0.0,0.375,0.0,0.0,0.0,0.0,0.0,0.0,0.31544522033286243,0.0,0.0,0.0,0.0,0.0,0.0,-43.892,0.0,0.0,0.0,0.0,0.0
435,0.0,-0.0534140625,0.0,0.0,0.0,0.0,0.0,0.0,0.379,0.0,0.0,0.0,0.0,0.0,0.0,0.32307951992968037,0.0,0.0,0.0,0.0,0.0,0.0,-43.62,0.0,0.0,0.0,0.0,0.0
436,0.0,-0.0496064453125,0.0,0.0,0.0,0.0,0.0,0.0,0.385,0.0,0.0,0.0,0.0,0.0,0.0,0.33062670851741827,0.0,0.0,0.0,0.0,0.0,0.0,-43.62,0.0,0.0,0.0,0.0,0.0
437,0.0,-0.045998046875,0.0,0.0,0.0,0.0,0.0,0.0,0.392,0.0,0.0,0.0,0.0,0.0,0.0,0.3380810717973815,0.0,0.0,0.0,0.0,0.0,0.0,-43.836,0.0,0.0,0.0,0.0,0.0
438,0.0,-0.041779296875,0.0,0.0,0.0,0.0,0.0,0.0,0.392,0.0,0.0,0.0,0.0,0.0,0.0,0.3454536046935827,0.0,0.0,0.0,0.0,0.0,0.0,-44.324,0.0,0.0,0.0,0.0,0.0
439,0.0,-0.0382734375,0.0,0.0,0.0,0.0,0.0,0.0,0.388,0.0,0.0,0.0,0.0,0.0,0.0,0.3529150180100171,0.0,0.0,0.0,0.0,0.0,0.0,-43.892,0.0,0.0,0.0,0.0,0.0
440,0.0,-0.0340546875,0.0,0.0,0.0,0.0,0.0,0.0,0.388,0.0,0.0,0.0,0.0,0.0,0.0,0.36001021095338076,0.0,0.0,0.0,0.0,0.0,0.0,-43.568,0.0,0.0,0.0,0.0,0.0
441,0.0,-0.03065234375,0.0,0.0,0.0,0.0,0.0,0.0,0.386,0.0,0.0,0.0,0.0,0.0,0.0,0.3671672824060354,0.0,0.0,0.0,0.0,0.0,0.0,-43.404,0.0,0.0,0.0,0.0,0.0
442,0.0,-0.0262275390625,0.0,0.0,0.0,0.0,0.0,0.0,0.393,0.0,0.0,0.0,0.0,0.0,0.0,0.37427969383142545,0.0,0.0,0.0,0.0,0.0,0.0,-43.512,0.0,0.0,0.0,0.0,0.0
443,0.0,-0.02220703125,0.0,0.0,0.0,0.0,0.0,0.0,0.402,0.0,0.0,0.0,0.0,0.0,0.0,0.38121673365156566,0.0,0.0,0.0,0.0,0.0,0.0,-43.62,0.0,0.0,0.0,0.0,0.0
444,0.0,-0.0187080078125,0.0,0.0,0.0,0.0,0.0,0.0,0.401,0.0,0.0,0.0,0.0,0.0,0.0,0.38815640584642425,0.0,0.0,0.0,0.0,0.0,0.0,-43.836,0.0,0.0,0.0,0.0,0.0
445,0.0,-0.0146953125,0.0,0.0,0.0,0.0,0.0,0.0,0.399,0.0,0.0,0.0,0.0,0.0,0.0,0.3952625521285241,0.0,0.0,0.0,0.0,0.0,0.0,-43.892,0.0,0.0,0.0,0.0,0.0
446,0.0,-0.0103662109375,0.0,0.0,0.0,0.0,0.0,0.0,0.399,0.0,0.0,0.0,0.0,0.0,0.0,0.4018801061007253,0.0,0.0,0.0,0.0,0.0,0.0,-43.836,0.0,0.0,0.0,0.0,0.0
447,0.0,-0.0063525390625,0.0,0.0,0.0,0.0,0.0,0.0,0.398,0.0,0.0,0.0,0.0,0.0,0.0,0.4083637851964161,0.0,0.0,0.0,0.0,0.0,0.0,-43.784,0.0,0.0,0.0,0.0,0.0
448,0.0,-0.002435546875,0.0,0.0,0.0,0.0,0.0,0.0,0.4,0.0,0.0,0.0,0.0,0.0,0.0,0.41492910550689915,0.0,0.0,0.0,0.0,0.0,0.0,-44.052,0.0,0.0,0.0,0.0,0.0
449,0.0,0.0016806640625,0.0,0.0,0.0,0.0,0.0,0.0,0.404,0.0,0.0,0.0,0.0,0.0,0.0,0.4213273890833056,0.0,0.0,0.0,0.0,0.0,0.0,-44.108,0.0,0.0,0.0,0.0,0.0
450,0.0,0.005802734375,0.0,0.0,0.0,0.0,0.0,0.0,0.413,0.0,0.0,0.0,0.0,0.0,0.0,0.42768113192811513,0.0,0.0,0.0,0.0,0.0,0.0,-44.7,0.0,0.0,0.0,0.0,0.0
451,0.0,0.0094052734375,0.0,0.0,0.0,0.0,0.0,0.0,0.407,0.0,0.0,0.0,0.0,0.0,0.0,0.4340357441518962,0.0,0.0,0.0,0.0,0.0,0.0,-44.592,0.0,0.0,0.0,0.0,0.0
452,0.0,0.0138369140625,0.0,0.0,0.0,0.0,0.0,0.0,0.404,0.0,0.0,0.0,0.0,0.0,0.0,0.44015350811806425,0.0,0.0,0.0,0.0,0.0,0.0,-44.16,0.0,0.0,0.0,0.0,0.0
453,0.0,0.0177470703125,0.0,0.0,0.0,0.0,0.0,0.0,0.404,0.0,0.0,0.0,0.0,0.0,0.0,0.44623157106962086,0.0,0.0,0.0,0.0,0.0,0.0,-44.052,0.0,0.0,0.0,0.0,0.0
454,0.0,0.0217666015625,0.0,0.0,0.0,0.0,0.0,0.0,0.401,0.0,0.0,0.0,0.0,0.0,0.0,0.45217218130178227,0.0,0.0,0.0,0.0,0.0,0.0,-44.052,0.0,0.0,0.0,0.0,0.0
455,0.0,0.0258828125,0.0,0.0,0.0,0.0,0.0,0.0,0.405,0.0,0.0,0.0,0.0,0.0,0.0,0.45806182294216385,0.0,0.0,0.0,0.0,0.0,0.0,-44.0,0.0,0.0,0.0,0.0,0.0
456,0.0,0.030005859375,0.0,0.0,0.0,0.0,0.0,0.0,0.414,0.0,0.0,0.0,0.0,0.0,0.0,0.46386643477946626,0.0,0.0,0.0,0.0,0.0,0.0,-44.484,0.0,0.0,0.0,0.0,0.0
457,0.0,0.03401953125,0.0,0.0,0.0,0.0,0.0,0.0,0.408,0.0,0.0,0.0,0.0,0.0,0.0,0.4694721010856907,0.0,0.0,0.0,0.0,0.0,0.0,-44.376,0.0,0.0,0.0,0.0,0.0
458,0.0,0.0379296875,0.0,0.0,0.0,0.0,0.0,0.0,0.402,0.0,0.0,0.0,0.0,0.0,0.0,0.47503328343535883,0.0,0.0,0.0,0.0,0.0,0.0,-44.268,0.0,0.0,0.0,0.0,0.0
459,0.0,0.0419501953125,0.0,0.0,0.0,0.0,0.0,0.0,0.398,0.0,0.0,0.0,0.0,0.0,0.0,0.4804640695301658,0.0,0.0,0.0,0.0,0.0,0.0,-44.108,0.0,0.0,0.0,0.0,0.0
460,0.0,0.045962890625,0.0,0.0,0.0,0.0,0.0,0.0,0.4,0.0,0.0,0.0,0.0,0.0,0.0,0.48583489458040546,0.0,0.0,0.0,0.0,0.0,0.0,-44.324,0.0,0.0,0.0,0.0,0.0
461,0.0,0.0500859375,0.0,0.0,0.0,0.0,0.0,0.0,0.408,0.0,0.0,0.0,0.0,0.0,0.0,0.49109239260694304,0.0,0.0,0.0,0.0,0.0,0.0,-44.592,0.0,0.0,0.0,0.0,0.0
462,0.0,0.0536875,0.0,0.0,0.0,0.0,0.0,0.0,0.407,0.0,0.0,0.0,0.0,0.0,0.0,0.49612972720719933,0.0,0.0,0.0,0.0,0.0,0.0,-45.132,0.0,0.0,0.0,0.0,0.0
463,0.0,0.058119140625,0.0,0.0,0.0,0.0,0.0,0.0,0.404,0.0,0.0,0.0,0.0,0.0,0.0,0.5012379560903144,0.0,0.0,0.0,0.0,0.0,0.0,-44.7,0.0,0.0,0.0,0.0,0.0
464,0.0,0.0620302734375,0.0,0.0,0.0,0.0,0.0,0.0,0.4,0.0,0.0,0.0,0.0,0.0,0.0,0.5060407210706144,0.0,0.0,0.0,0.0,0.0,0.0,-44.376,0.0,0.0,0.0,0.0,0.0
465,0.0,0.065947265625,0.0,0.0,0.0,0.0,0.0,0.0,0.395,0.0,0.0,0.0,0.0,0.0,0.0,0.5107913607561874,0.0,0.0,0.0,0.0,0.0,0.0,-44.16,0.0,0.0,0.0,0.0,0.0
466,0.0,0.0699599609375,0.0,0.0,0.0,0.0,0.0,0.0,0.399,0.0,0.0,0.0,0.0,0.0,0.0,0.5155172641143365,0.0,0.0,0.0,0.0,0.0,0.0,-44.16,0.0,0.0,0.0,0.0,0.0
467,0.0,0.0739736328125,0.0,0.0,0.0,0.0,0.0,0.0,0.402,0.0,0.0,0.0,0.0,0.0,0.0,0.5200782590620998,0.0,0.0,0.0,0.0,0.0,0.0,-44.16,0.0,0.0,0.0,0.0,0.0
468,0.0,0.0779931640625,0.0,0.0,0.0,0.0,0.0,0.0,0.403,0.0,0.0,0.0,0.0,0.0,0.0,0.5244726173714608,0.0,0.0,0.0,0.0,0.0,0.0,-44.54,0.0,0.0,0.0,0.0,0.0
469,0.0,0.081904296875,0.0,0.0,0.0,0.0,0.0,0.0,0.401,0.0,0.0,0.0,0.0,0.0,0.0,0.5287958726841717,0.0,0.0,0.0,0.0,0.0,0.0,-44.268,0.0,0.0,0.0,0.0,0.0
470,0.0,0.085923828125,0.0,0.0,0.0,0.0,0.0,0.0,0.397,0.0,0.0,0.0,0.0,0.0,0.0,0.5329961820190602,0.0,0.0,0.0,0.0,0.0,0.0,-44.052,0.0,0.0,0.0,0.0,0.0
471,0.0,0.0897314453125,0.0,0.0,0.0,0.0,0.0,0.0,0.393,0.0,0.0,0.0,0.0,0.0,0.0,0.5370758534586446,0.0,0.0,0.0,0.0,0.0,0.0,-44.052,0.0,0.0,0.0,0.0,0.0
472,0.0,0.0937509765625,0.0,0.0,0.0,0.0,0.0,0.0,0.393,0.0,0.0,0.0,0.0,0.0,0.0,0.5410248077977511,0.0,0.0,0.0,0.0,0.0,0.0,-44.268,0.0,0.0,0.0,0.0,0.0
473,0.0,0.0977646484375,0.0,0.0,0.0,0.0,0.0,0.0,0.401,0.0,0.0,0.0,0.0,0.0,0.0,0.5448876977050944,0.0,0.0,0.0,0.0,0.0,0.0,-44.268,0.0,0.0,0.0,0.0,0.0
474,0.0,0.10178515625,0.0,0.0,0.0,0.0,0.0,0.0,0.402,0.0,0.0,0.0,0.0,0.0,0.0,0.5485241560737207,0.0,0.0,0.0,0.0,0.0,0.0,-44.592,0.0,0.0,0.0,0.0,0.0
475,0.0,0.1056884765625,0.0,0.0,0.0,0.0,0.0,0.0,0.398,0.0,0.0,0.0,0.0,0.0,0.0,0.5521328039447152,0.0,0.0,0.0,0.0,0.0,0.0,-44.16,0.0,0.0,0.0,0.0,0.0
476,0.0,0.1135166015625,0.0,0.0,0.0,0.0,0.0,0.0,0.394,0.0,0.0,0.0,0.0,0.0,0.0,0.5561787828597151,0.0,0.0,0.0,0.0,0.0,0.0,-43.568,0.0,0.0,0.0,0.0,0.0
477,0.0,0.1135166015625,0.0,0.0,0.0,0.0,0.0,0.0,0.394,0.0,0.0,0.0,0.0,0.0,0.0,0.558966381929407,0.0,0.0,0.0,0.0,0.0,0.0,-43.568,0.0,0.0,0.0,0.0,0.0
478,0.0,0.117529296875,0.0,0.0,0.0,0.0,0.0,0.0,0.397,0.0,0.0,0.0,0.0,0.0,0.0,0.5621496714218722,0.0,0.0,0.0,0.0,0.0,0.0,-43.62,0.0,0.0,0.0,0.0,0.0
479,0.0,0.1215498046875,0.0,0.0,0.0,0.0,0.0,0.0,0.402,0.0,0.0,0.0,0.0,0.0,0.0,0.5653007926947679,0.0,0.0,0.0,0.0,0.0,0.0,-43.676,0.0,0.0,0.0,0.0,0.0
480,0.0,0.1254599609375,0.0,0.0,0.0,0.0,0.0,0.0,0.402,0.0,0.0,0.0,0.0,0.0,0.0,0.568166099166548,0.0,0.0,0.0,0.0,0.0,0.0,-44.052,0.0,0.0,0.0,0.0,0.0
481,0.0,0.12948046875,0.0,0.0,0.0,0.0,0.0,0.0,0.399,0.0,0.0,0.0,0.0,0.0,0.0,0.571014572601989,0.0,0.0,0.0,0.0,0.0,0.0,-43.676,0.0,0.0,0.0,0.0,0.0
482,0.0,0.1334931640625,0.0,0.0,0.0,0.0,0.0,0.0,0.4,0.0,0.0,0.0,0.0,0.0,0.0,0.5737250521649648,0.0,0.0,0.0,0.0,0.0,0.0,-43.62,0.0,0.0,0.0,0.0,0.0
483,0.0,0.137404296875,0.0,0.0,0.0,0.0,0.0,0.0,0.396,0.0,0.0,0.0,0.0,0.0,0.0,0.5762652567529536,0.0,0.0,0.0,0.0,0.0,0.0,-43.676,0.0,0.0,0.0,0.0,0.0
484,0.0,0.141423828125,0.0,0.0,0.0,0.0,0.0,0.0,0.398,0.0,0.0,0.0,0.0,0.0,0.0,0.5787140146447826,0.0,0.0,0.0,0.0,0.0,0.0,-43.892,0.0,0.0,0.0,0.0,0.0
485,0.0,0.145443359375,0.0,0.0,0.0,0.0,0.0,0.0,0.406,0.0,0.0,0.0,0.0,0.0,0.0,0.5810151591451076,0.0,0.0,0.0,0.0,0.0,0.0,-44.108,0.0,0.0,0.0,0.0,0.0
486,0.0,0.1494638671875,0.0,0.0,0.0,0.0,0.0,0.0,0.402,0.0,0.0,0.0,0.0,0.0,0.0,0.5832232477263111,0.0,0.0,0.0,0.0,0.0,0.0,-44.484,0.0,0.0,0.0,0.0,0.0
487,0.0,0.1534765625,0.0,0.0,0.0,0.0,0.0,0.0,0.402,0.0,0.0,0.0,0.0,0.0,0.0,0.5852523164463763,0.0,0.0,0.0,0.0,0.0,0.0,-44.108,0.0,0.0,0.0,0.0,0.0
488,0.0,0.1573935546875,0.0,0.0,0.0,0.0,0.0,0.0,0.403,0.0,0.0,0.0,0.0,0.0,0.0,0.5871854931595564,0.0,0.0,0.0,0.0,0.0,0.0,-43.836,0.0,0.0,0.0,0.0,0.0
489,0.0,0.1614072265625,0.0,0.0,0.0,0.0,0.0,0.0,0.4,0.0,0.0,0.0,0.0,0.0,0.0,0.5889708433277264,0.0,0.0,0.0,0.0,0.0,0.0,-43.512,0.0,0.0,0.0,0.0,0.0
490,0.0,0.1654208984375,0.0,0.0,0.0,0.0,0.0,0.0,0.4,0.0,0.0,0.0,0.0,0.0,0.0,0.5906027507062646,0.0,0.0,0.0,0.0,0.0,0.0,-43.568,0.0,0.0,0.0,0.0,0.0
491,0.0,0.1694404296875,0.0,0.0,0.0,0.0,0.0,0.0,0.404,0.0,0.0,0.0,0.0,0.0,0.0,0.5921353472853546,0.0,0.0,0.0,0.0,0.0,0.0,-43.676,0.0,0.0,0.0,0.0,0.0
492,0.0,0.1733515625,0.0,0.0,0.0,0.0,0.0,0.0,0.401,0.0,0.0,0.0,0.0,0.0,0.0,0.5935270452919754,0.0,0.0,0.0,0.0,0.0,0.0,-43.944,0.0,0.0,0.0,0.0,0.0
493,0.0,0.17737109375,0.0,0.0,0.0,0.0,0.0,0.0,0.403,0.0,0.0,0.0,0.0,0.0,0.0,0.5947688246132287,0.0,0.0,0.0,0.0,0.0,0.0,-43.62,0.0,0.0,0.0,0.0,0.0
494,0.0,0.181384765625,0.0,0.0,0.0,0.0,0.0,0.0,0.401,0.0,0.0,0.0,0.0,0.0,0.0,0.595892992317728,0.0,0.0,0.0,0.0,0.0,0.0,-43.62,0.0,0.0,0.0,0.0,0.0
495,0.0,0.185404296875,0.0,0.0,0.0,0.0,0.0,0.0,0.401,0.0,0.0,0.0,0.0,0.0,0.0,0.5968675017099841,0.0,0.0,0.0,0.0,0.0,0.0,-43.62,0.0,0.0,0.0,0.0,0.0
496,0.0,0.1893154296875,0.0,0.0,0.0,0.0,0.0,0.0,0.399,0.0,0.0,0.0,0.0,0.0,0.0,0.5977260824119337,0.0,0.0,0.0,0.0,0.0,0.0,-43.728,0.0,0.0,0.0,0.0,0.0
497,0.0,0.193328125,0.0,0.0,0.0,0.0,0.0,0.0,0.398,0.0,0.0,0.0,0.0,0.0,0.0,0.5984429810987199,0.0,0.0,0.0,0.0,0.0,0.0,-43.892,0.0,0.0,0.0,0.0,0.0
498,0.0,0.1973486328125,0.0,0.0,0.0,0.0,0.0,0.0,0.404,0.0,0.0,0.0,0.0,0.0,0.0,0.5990231257411558,0.0,0.0,0.0,0.0,0.0,0.0,-44.108,0.0,0.0,0.0,0.0,0.0
499,0.0,0.201361328125,0.0,0.0,0.0,0.0,0.0,0.0,0.401,0.0,0.0,0.0,0.0,0.0,0.0,0.5994652466318838,0.0,0.0,0.0,0.0,0.0,0.0,-43.676,0.0,0.0,0.0,0.0,0.0
500,0.0,0.2052783203125,0.0,0.0,0.0,0.0,0.0,0.0,0.4,0.0,0.0,0.0,0.0,0.0,0.0,0.5997792554424282,0.0,0.0,0.0,0.0,0.0,0.0,-43.244,0.0,0.0,0.0,0.0,0.0
501,0.0,0.2092919921875,0.0,0.0,0.0,0.0,0.0,0.0,0.398,0.0,0.0,0.0,0.0,0.0,0.0,0.5999566447388812,0.0,0.0,0.0,0.0,0.0,0.0,-43.028,0.0,0.0,0.0,0.0,0.0
502,0.0,0.2132021484375,0.0,0.0,0.0,0.0,0.0,0.0,0.401,0.0,0.0,0.0,0.0,0.0,0.0,0.5999976535529274,0.0,0.0,0.0,0.0,0.0,0.0,-43.136,0.0,0.0,0.0,0.0,0.0
503,0.0,0.21722265625,0.0,0.0,0.0,0.0,0.0,0.0,0.398,0.0,0.0,0.0,0.0,0.0,0.0,0.5999044735943867,0.0,0.0,0.0,0.0,0.0,0.0,-43.244,0.0,0.0,0.0,0.0,0.0
504,0.0,0.221236328125,0.0,0.0,0.0,0.0,0.0,0.0,0.4,0.0,0.0,0.0,0.0,0.0,0.0,0.5996775747026188,0.0,0.0,0.0,0.0,0.0,0.0,-43.404,0.0,0.0,0.0,0.0,0.0
505,0.0,0.225255859375,0.0,0.0,0.0,0.0,0.0,0.0,0.401,0.0,0.0,0.0,0.0,0.0,0.0,0.5993171407197438,0.0,0.0,0.0,0.0,0.0,0.0,-43.136,0.0,0.0,0.0,0.0,0.0
506,0.0,0.229166015625,0.0,0.0,0.0,0.0,0.0,0.0,0.401,0.0,0.0,0.0,0.0,0.0,0.0,0.5988157739460471,0.0,0.0,0.0,0.0,0.0,0.0,-43.192,0.0,0.0,0.0,0.0,0.0
507,0.0,0.2331865234375,0.0,0.0,0.0,0.0,0.0,0.0,0.397,0.0,0.0,0.0,0.0,0.0,0.0,0.5981800311595075,0.0,0.0,0.0,0.0,0.0,0.0,-43.192,0.0,0.0,0.0,0.0,0.0
508,0.0,0.2370966796875,0.0,0.0,0.0,0.0,0.0,0.0,0.397,0.0,0.0,0.0,0.0,0.0,0.0,0.5974218096318039,0.0,0.0,0.0,0.0,0.0,0.0,-43.244,0.0,0.0,0.0,0.0,0.0
509,0.0,0.2411103515625,0.0,0.0,0.0,0.0,0.0,0.0,0.4,0.0,0.0,0.0,0.0,0.0,0.0,0.5965214046237679,0.0,0.0,0.0,0.0,0.0,0.0,-43.404,0.0,0.0,0.0,0.0,0.0
510,0.0,0.2451298828125,0.0,0.0,0.0,0.0,0.0,0.0,0.403,0.0,0.0,0.0,0.0,0.0,0.0,0.5954731461638608,0.0,0.0,0.0,0.0,0.0,0.0,-43.728,0.0,0.0,0.0,0.0,0.0
511,0.0,0.2491435546875,0.0,0.0,0.0,0.0,0.0,0.0,0.402,0.0,0.0,0.0,0.0,0.0,0.0,0.5943116376346984,0.0,0.0,0.0,0.0,0.0,0.0,-43.296,0.0,0.0,0.0,0.0,0.0
512,0.0,0.253060546875,0.0,0.0,0.0,0.0,0.0,0.0,0.399,0.0,0.0,0.0,0.0,0.0,0.0,0.5930168289113934,0.0,0.0,0.0,0.0,0.0,0.0,-42.812,0.0,0.0,0.0,0.0,0.0
513,0.0,0.25707421875,0.0,0.0,0.0,0.0,0.0,0.0,0.4,0.0,0.0,0.0,0.0,0.0,0.0,0.5915518682148619,0.0,0.0,0.0,0.0,0.0,0.0,-42.76,0.0,0.0,0.0,0.0,0.0
514,0.0,0.2610869140625,0.0,0.0,0.0,0.0,0.0,0.0,0.402,0.0,0.0,0.0,0.0,0.0,0.0,0.5899951627586498,0.0,0.0,0.0,0.0,0.0,0.0,-42.868,0.0,0.0,0.0,0.0,0.0
515,0.0,0.265107421875,0.0,0.0,0.0,0.0,0.0,0.0,0.402,0.0,0.0,0.0,0.0,0.0,0.0,0.5883085988280523,0.0,0.0,0.0,0.0,0.0,0.0,-42.976,0.0,0.0,0.0,0.0,0.0
516,0.0,0.269017578125,0.0,0.0,0.0,0.0,0.0,0.0,0.401,0.0,0.0,0.0,0.0,0.0,0.0,0.5864485744812116,0.0,0.0,0.0,0.0,0.0,0.0,-43.084,0.0,0.0,0.0,0.0,0.0
517,0.0,0.273037109375,0.0,0.0,0.0,0.0,0.0,0.0,0.4,0.0,0.0,0.0,0.0,0.0,0.0,0.5845006057358367,0.0,0.0,0.0,0.0,0.0,0.0,-42.868,0.0,0.0,0.0,0.0,0.0
518,0.0,0.27705078125,0.0,0.0,0.0,0.0,0.0,0.0,0.4,0.0,0.0,0.0,0.0,0.0,0.0,0.5824128632652209,0.0,0.0,0.0,0.0,0.0,0.0,-42.704,0.0,0.0,0.0,0.0,0.0
519,0.0,0.2809619140625,0.0,0.0,0.0,0.0,0.0,0.0,0.401,0.0,0.0,0.0,0.0,0.0,0.0,0.5801577540016523,0.0,0.0,0.0,0.0,0.0,0.0,-42.652,0.0,0.0,0.0,0.0,0.0
520,0.0,0.2849814453125,0.0,0.0,0.0,0.0,0.0,0.0,0.401,0.0,0.0,0.0,0.0,0.0,0.0,0.5778153404074737,0.0,0.0,0.0,0.0,0.0,0.0,-42.704,0.0,0.0,0.0,0.0,0.0
521,0.0,0.2889951171875,0.0,0.0,0.0,0.0,0.0,0.0,0.401,0.0,0.0,0.0,0.0,0.0,0.0,0.5753339617369683,0.0,0.0,0.0,0.0,0.0,0.0,-42.976,0.0,0.0,0.0,0.0,0.0
522,0.0,0.2930146484375,0.0,0.0,0.0,0.0,0.0,0.0,0.4,0.0,0.0,0.0,0.0,0.0,0.0,0.5726806486933265,0.0,0.0,0.0,0.0,0.0,0.0,-43.296,0.0,0.0,0.0,0.0,0.0
523,0.0,0.2970283203125,0.0,0.0,0.0,0.0,0.0,0.0,0.402,0.0,0.0,0.0,0.0,0.0,0.0,0.5699450474224736,0.0,0.0,0.0,0.0,0.0,0.0,-42.652,0.0,0.0,0.0,0.0,0.0
524,0.0,0.3009384765625,0.0,0.0,0.0,0.0,0.0,0.0,0.402,0.0,0.0,0.0,0.0,0.0,0.0,0.5670858779806491,0.0,0.0,0.0,0.0,0.0,0.0,-42.22,0.0,0.0,0.0,0.0,0.0
525,0.0,0.3049580078125,0.0,0.0,0.0,0.0,0.0,0.0,0.402,0.0,0.0,0.0,0.0,0.0,0.0,0.5640786303181613,0.0,0.0,0.0,0.0,0.0,0.0,-42.112,0.0,0.0,0.0,0.0,0.0
526,0.0,0.308869140625,0.0,0.0,0.0,0.0,0.0,0.0,0.399,0.0,0.0,0.0,0.0,0.0,0.0,0.5609217731014496,0.0,0.0,0.0,0.0,0.0,0.0,-42.272,0.0,0.0,0.0,0.0,0.0
527,0.0,0.312888671875,0.0,0.0,0.0,0.0,0.0,0.0,0.397,0.0,0.0,0.0,0.0,0.0,0.0,0.5576967230105889,0.0,0.0,0.0,0.0,0.0,0.0,-42.328,0.0,0.0,0.0,0.0,0.0
528,0.0,0.31690234375,0.0,0.0,0.0,0.0,0.0,0.0,0.401,0.0,0.0,0.0,0.0,0.0,0.0,0.5542911793178047,0.0,0.0,0.0,0.0,0.0,0.0,-42.328,0.0,0.0,0.0,0.0,0.0
529,0.0,0.320916015625,0.0,0.0,0.0,0.0,0.0,0.0,0.402,0.0,0.0,0.0,0.0,0.0,0.0,0.5507634785725714,0.0,0.0,0.0,0.0,0.0,0.0,-42.164,0.0,0.0,0.0,0.0,0.0
530,0.0,0.3248330078125,0.0,0.0,0.0,0.0,0.0,0.0,0.399,0.0,0.0,0.0,0.0,0.0,0.0,0.5471529166335675,0.0,0.0,0.0,0.0,0.0,0.0,-42.112,0.0,0.0,0.0,0.0,0.0
531,0.0,0.328845703125,0.0,0.0,0.0,0.0,0.0,0.0,0.398,0.0,0.0,0.0,0.0,0.0,0.0,0.5434329728010795,0.0,0.0,0.0,0.0,0.0,0.0,-42.056,0.0,0.0,0.0,0.0,0.0
532,0.0,0.3327568359375,0.0,0.0,0.0,0.0,0.0,0.0,0.401,0.0,0.0,0.0,0.0,0.0,0.0,0.5395323463332031,0.0,0.0,0.0,0.0,0.0,0.0,-42.22,0.0,0.0,0.0,0.0,0.0
533,0.0,0.3367763671875,0.0,0.0,0.0,0.0,0.0,0.0,0.402,0.0,0.0,0.0,0.0,0.0,0.0,0.5355737173168856,0.0,0.0,0.0,0.0,0.0,0.0,-42.544,0.0,0.0,0.0,0.0,0.0
534,0.0,0.3407900390625,0.0,0.0,0.0,0.0,0.0,0.0,0.4,0.0,0.0,0.0,0.0,0.0,0.0,0.5314212237756187,0.0,0.0,0.0,0.0,0.0,0.0,-42.596,0.0,0.0,0.0,0.0,0.0
535,0.0,0.3448095703125,0.0,0.0,0.0,0.0,0.0,0.0,0.403,0.0,0.0,0.0,0.0,0.0,0.0,0.5271799324865503,0.0,0.0,0.0,0.0,0.0,0.0,-42.056,0.0,0.0,0.0,0.0,0.0
536,0.0,0.3488232421875,0.0,0.0,0.0,0.0,0.0,0.0,0.401,0.0,0.0,0.0,0.0,0.0,0.0,0.5228475273512462,0.0,0.0,0.0,0.0,0.0,0.0,-41.624,0.0,0.0,0.0,0.0,0.0
537,0.0,0.352740234375,0.0,0.0,0.0,0.0,0.0,0.0,0.399,0.0,0.0,0.0,0.0,0.0,0.0,0.5183648432427206,0.0,0.0,0.0,0.0,0.0,0.0,-41.624,0.0,0.0,0.0,0.0,0.0
538,0.0,0.356759765625,0.0,0.0,0.0,0.0,0.0,0.0,0.397,0.0,0.0,0.0,0.0,0.0,0.0,0.5137743715969951,0.0,0.0,0.0,0.0,0.0,0.0,-41.624,0.0,0.0,0.0,0.0,0.0
539,0.0,0.3607734375,0.0,0.0,0.0,0.0,0.0,0.0,0.402,0.0,0.0,0.0,0.0,0.0,0.0,0.5090797734629873,0.0,0.0,0.0,0.0,0.0,0.0,-41.68,0.0,0.0,0.0,0.0,0.0
540,0.0,0.36468359375,0.0,0.0,0.0,0.0,0.0,0.0,0.4,0.0,0.0,0.0,0.0,0.0,0.0,0.5042174592516152,0.0,0.0,0.0,0.0,0.0,0.0,-41.788,0.0,0.0,0.0,0.0,0.0
541,0.0,0.3687041015625,0.0,0.0,0.0,0.0,0.0,0.0,0.401,0.0,0.0,0.0,0.0,0.0,0.0,0.49929269509149876,0.0,0.0,0.0,0.0,0.0,0.0,-41.624,0.0,0.0,0.0,0.0,0.0
542,0.0,0.3727177734375,0.0,0.0,0.0,0.0,0.0,0.0,0.4,0.0,0.0,0.0,0.0,0.0,0.0,0.494266747016898,0.0,0.0,0.0,0.0,0.0,0.0,-41.248,0.0,0.0,0.0,0.0,0.0
543,0.0,0.376634765625,0.0,0.0,0.0,0.0,0.0,0.0,0.402,0.0,0.0,0.0,0.0,0.0,0.0,0.48913360822600926,0.0,0.0,0.0,0.0,0.0,0.0,-41.248,0.0,0.0,0.0,0.0,0.0
544,0.0,0.3806474609375,0.0,0.0,0.0,0.0,0.0,0.0,0.4,0.0,0.0,0.0,0.0,0.0,0.0,0.48381531531663136,0.0,0.0,0.0,0.0,0.0,0.0,-41.572,0.0,0.0,0.0,0.0,0.0
545,0.0,0.38455859375,0.0,0.0,0.0,0.0,0.0,0.0,0.399,0.0,0.0,0.0,0.0,0.0,0.0,0.47844757567800517,0.0,0.0,0.0,0.0,0.0,0.0,-41.948,0.0,0.0,0.0,0.0,0.0
546,0.0,0.388578125,0.0,0.0,0.0,0.0,0.0,0.0,0.4,0.0,0.0,0.0,0.0,0.0,0.0,0.47295631660105564,0.0,0.0,0.0,0.0,0.0,0.0,-41.624,0.0,0.0,0.0,0.0,0.0
547,0.0,0.392591796875,0.0,0.0,0.0,0.0,0.0,0.0,0.403,0.0,0.0,0.0,0.0,0.0,0.0,0.4673669975399123,0.0,0.0,0.0,0.0,0.0,0.0,-41.084,0.0,0.0,0.0,0.0,0.0
548,0.0,0.39660546875,0.0,0.0,0.0,0.0,0.0,0.0,0.402,0.0,0.0,0.0,0.0,0.0,0.0,0.4616873893649308,0.0,0.0,0.0,0.0,0.0,0.0,-40.868,0.0,0.0,0.0,0.0,0.0
549,0.0,0.4005224609375,0.0,0.0,0.0,0.0,0.0,0.0,0.4,0.0,0.0,0.0,0.0,0.0,0.0,0.45589878266441924,0.0,0.0,0.0,0.0,0.0,0.0,-40.708,0.0,0.0,0.0,0.0,0.0
550,0.0,0.40453515625,0.0,0.0,0.0,0.0,0.0,0.0,0.398,0.0,0.0,0.0,0.0,0.0,0.0,0.4499496553558054,0.0,0.0,0.0,0.0,0.0,0.0,-40.708,0.0,0.0,0.0,0.0,0.0
551,0.0,0.408548828125,0.0,0.0,0.0,0.0,0.0,0.0,0.401,0.0,0.0,0.0,0.0,0.0,0.0,0.44399569878265355,0.0,0.0,0.0,0.0,0.0,0.0,-40.976,0.0,0.0,0.0,0.0,0.0
552,0.0,0.4124658203125,0.0,0.0,0.0,0.0,0.0,0.0,0.399,0.0,0.0,0.0,0.0,0.0,0.0,0.4378813014505984,0.0,0.0,0.0,0.0,0.0,0.0,-40.868,0.0,0.0,0.0,0.0,0.0
553,0.0,0.4164794921875,0.0,0.0,0.0,0.0,0.0,0.0,0.402,0.0,0.0,0.0,0.0,0.0,0.0,0.43159812260303304,0.0,0.0,0.0,0.0,0.0,0.0,-40.76,0.0,0.0,0.0,0.0,0.0
554,0.0,0.420396484375,0.0,0.0,0.0,0.0,0.0,0.0,0.4,0.0,0.0,0.0,0.0,0.0,0.0,0.4254005540458245,0.0,0.0,0.0,0.0,0.0,0.0,-40.544,0.0,0.0,0.0,0.0,0.0
555,0.0,0.4244091796875,0.0,0.0,0.0,0.0,0.0,0.0,0.397,0.0,0.0,0.0,0.0,0.0,0.0,0.4189739729135331,0.0,0.0,0.0,0.0,0.0,0.0,-40.6,0.0,0.0,0.0,0.0,0.0
556,0.0,0.4284228515625,0.0,0.0,0.0,0.0,0.0,0.0,0.4,0.0,0.0,0.0,0.0,0.0,0.0,0.41247290885120663,0.0,0.0,0.0,0.0,0.0,0.0,-40.816,0.0,0.0,0.0,0.0,0.0
557,0.0,0.4321337890625,0.0,0.0,0.0,0.0,0.0,0.0,0.397,0.0,0.0,0.0,0.0,0.0,0.0,0.40588075807418966,0.0,0.0,0.0,0.0,0.0,0.0,-43.352,0.0,0.0,0.0,0.0,0.0
558,0.0,0.4349130859375,0.0,0.0,0.0,0.0,0.0,0.0,0.34,0.0,0.0,0.0,0.0,0.0,0.0,0.3992682920542297,0.0,0.0,0.0,0.0,0.0,0.0,-51.128,0.0,0.0,0.0,0.0,0.0
559,0.0,0.4365595703125,0.0,0.0,0.0,0.0,0.0,0.0,0.23,0.0,0.0,0.0,0.0,0.0,0.0,0.3924708969926493,0.0,0.0,0.0,0.0,0.0,0.0,-60.36,0.0,0.0,0.0,0.0,0.0
560,0.0,0.4367646484375,0.0,0.0,0.0,0.0,0.0,0.0,0.107,0.0,0.0,0.0,0.0,0.0,0.0,0.38558840446706233,0.0,0.0,0.0,0.0,0.0,0.0,-68.08,0.0,0.0,0.0,0.0,0.0
561,0.0,0.436044921875,0.0,0.0,0.0,0.0,0.0,0.0,-0.02,0.0,0.0,0.0,0.0,0.0,0.0,0.37867363464988796,0.0,0.0,0.0,0.0,0.0,0.0,-71.752,0.0,0.0,0.0,0.0,0.0
562,0.0,0.4349130859375,0.0,0.0,0.0,0.0,0.0,0.0,-0.089,0.0,0.0,0.0,0.0,0.0,0.0,0.37164931396873363,0.0,0.0,0.0,0.0,0.0,0.0,-72.776,0.0,0.0,0.0,0.0,0.0
563,0.0,0.433060546875,0.0,0.0,0.0,0.0,0.0,0.0,-0.14,0.0,0.0,0.0,0.0,0.0,0.0,0.3645629983684557,0.0,0.0,0.0,0.0,0.0,0.0,-73.588,0.0,0.0,0.0,0.0,0.0
564,0.0,0.4300693359375,0.0,0.0,0.0,0.0,0.0,0.0,-0.232,0.0,0.0,0.0,0.0,0.0,0.0,0.35738927412419275,0.0,0.0,0.0,0.0,0.0,0.0,-73.856,0.0,0.0,0.0,0.0,0.0
565,0.0,0.425953125,0.0,0.0,0.0,0.0,0.0,0.0,-0.349,0.0,0.0,0.0,0.0,0.0,0.0,0.3496850608040316,0.0,0.0,0.0,0.0,0.0,0.0,-71.32,0.0,0.0,0.0,0.0,0.0
566,0.0,0.4208076171875,0.0,0.0,0.0,0.0,0.0,0.0,-0.464,0.0,0.0,0.0,0.0,0.0,0.0,0.34272573829100544,0.0,0.0,0.0,0.0,0.0,0.0,-65.216,0.0,0.0,0.0,0.0,0.0
567,0.0,0.4157587890625,0.0,0.0,0.0,0.0,0.0,0.0,-0.516,0.0,0.0,0.0,0.0,0.0,0.0,0.3353270972333758,0.0,0.0,0.0,0.0,0.0,0.0,-61.008,0.0,0.0,0.0,0.0,0.0
568,0.0,0.410921875,0.0,0.0,0.0,0.0,0.0,0.0,-0.501,0.0,0.0,0.0,0.0,0.0,0.0,0.3278075442356155,0.0,0.0,0.0,0.0,0.0,0.0,-57.496,0.0,0.0,0.0,0.0,0.0
569,0.0,0.4059765625,0.0,0.0,0.0,0.0,0.0,0.0,-0.489,0.0,0.0,0.0,0.0,0.0,0.0,0.32010951815743666,0.0,0.0,0.0,0.0,0.0,0.0,-54.636,0.0,0.0,0.0,0.0,0.0
570,0.0,0.4004189453125,0.0,0.0,0.0,0.0,0.0,0.0,-0.524,0.0,0.0,0.0,0.0,0.0,0.0,0.31256463162035497,0.0,0.0,0.0,0.0,0.0,0.0,-52.1,0.0,0.0,0.0,0.0,0.0
571,0.0,0.3943408203125,0.0,0.0,0.0,0.0,0.0,0.0,-0.579,0.0,0.0,0.0,0.0,0.0,0.0,0.3048520507632399,0.0,0.0,0.0,0.0,0.0,0.0,-49.292,0.0,0.0,0.0,0.0,0.0
572,0.0,0.3880634765625,0.0,0.0,0.0,0.0,0.0,0.0,-0.624,0.0,0.0,0.0,0.0,0.0,0.0,0.2970116747717193,0.0,0.0,0.0,0.0,0.0,0.0,-46.16,0.0,0.0,0.0,0.0,0.0
573,0.0,0.3819853515625,0.0,0.0,0.0,0.0,0.0,0.0,-0.622,0.0,0.0,0.0,0.0,0.0,0.0,0.289199611544696,0.0,0.0,0.0,0.0,0.0,0.0,-44.0,0.0,0.0,0.0,0.0,0.0
574,0.0,0.37622265625,0.0,0.0,0.0,0.0,0.0,0.0,-0.598,0.0,0.0,0.0,0.0,0.0,0.0,0.28127937236004136,0.0,0.0,0.0,0.0,0.0,0.0,-42.704,0.0,0.0,0.0,0.0,0.0
575,0.0,0.37014453125,0.0,0.0,0.0,0.0,0.0,0.0,-0.592,0.0,0.0,0.0,0.0,0.0,0.0,0.27302738327639525,0.0,0.0,0.0,0.0,0.0,0.0,-43.46,0.0,0.0,0.0,0.0,0.0
576,0.0,0.3637578125,0.0,0.0,0.0,0.0,0.0,0.0,-0.619,0.0,0.0,0.0,0.0,0.0,0.0,0.26527265532229294,0.0,0.0,0.0,0.0,0.0,0.0,-44.7,0.0,0.0,0.0,0.0,0.0
577,0.0,0.3569658203125,0.0,0.0,0.0,0.0,0.0,0.0,-0.662,0.0,0.0,0.0,0.0,0.0,0.0,0.2572234493157133,0.0,0.0,0.0,0.0,0.0,0.0,-44.648,0.0,0.0,0.0,0.0,0.0
578,0.0,0.3505791015625,0.0,0.0,0.0,0.0,0.0,0.0,-0.675,0.0,0.0,0.0,0.0,0.0,0.0,0.24900643244054443,0.0,0.0,0.0,0.0,0.0,0.0,-39.736,0.0,0.0,0.0,0.0,0.0
579,0.0,0.34470703125,0.0,0.0,0.0,0.0,0.0,0.0,-0.617,0.0,0.0,0.0,0.0,0.0,0.0,0.2408546526493042,0.0,0.0,0.0,0.0,0.0,0.0,-37.036,0.0,0.0,0.0,0.0,0.0
580,0.0,0.3385263671875,0.0,0.0,0.0,0.0,0.0,0.0,-0.605,0.0,0.0,0.0,0.0,0.0,0.0,0.232574954674457,0.0,0.0,0.0,0.0,0.0,0.0,-38.708,0.0,0.0,0.0,0.0,0.0
581,0.0,0.33255078125,0.0,0.0,0.0,0.0,0.0,0.0,-0.614,0.0,0.0,0.0,0.0,0.0,0.0,0.2241767249485931,0.0,0.0,0.0,0.0,0.0,0.0,-39.196,0.0,0.0,0.0,0.0,0.0
582,0.0,0.3267880859375,0.0,0.0,0.0,0.0,0.0,0.0,-0.593,0.0,0.0,0.0,0.0,0.0,0.0,0.21582624280304727,0.0,0.0,0.0,0.0,0.0,0.0,-33.256,0.0,0.0,0.0,0.0,0.0
583,0.0,0.32112109375,0.0,0.0,0.0,0.0,0.0,0.0,-0.582,0.0,0.0,0.0,0.0,0.0,0.0,0.20746813340901266,0.0,0.0,0.0,0.0,0.0,0.0,-30.232,0.0,0.0,0.0,0.0,0.0
584,0.0,0.3156669921875,0.0,0.0,0.0,0.0,0.0,0.0,-0.558,0.0,0.0,0.0,0.0,0.0,0.0,0.19891707740894113,0.0,0.0,0.0,0.0,0.0,0.0,-32.5,0.0,0.0,0.0,0.0,0.0
585,0.0,0.3106181640625,0.0,0.0,0.0,0.0,0.0,0.0,-0.527,0.0,0.0,0.0,0.0,0.0,0.0,0.19043210003383443,0.0,0.0,0.0,0.0,0.0,0.0,-35.576,0.0,0.0,0.0,0.0,0.0
586,0.0,0.305884765625,0.0,0.0,0.0,0.0,0.0,0.0,-0.506,0.0,0.0,0.0,0.0,0.0,0.0,0.18190558018472883,0.0,0.0,0.0,0.0,0.0,0.0,-32.34,0.0,0.0,0.0,0.0,0.0
587,0.0,0.3013505859375,0.0,0.0,0.0,0.0,0.0,0.0,-0.464,0.0,0.0,0.0,0.0,0.0,0.0,0.17332362020804576,0.0,0.0,0.0,0.0,0.0,0.0,-29.8,0.0,0.0,0.0,0.0,0.0
588,0.0,0.296822265625,0.0,0.0,0.0,0.0,0.0,0.0,-0.452,0.0,0.0,0.0,0.0,0.0,0.0,0.16464130669054422,0.0,0.0,0.0,0.0,0.0,0.0,-32.5,0.0,0.0,0.0,0.0,0.0
589,0.0,0.2923974609375,0.0,0.0,0.0,0.0,0.0,0.0,-0.46,0.0,0.0,0.0,0.0,0.0,0.0,0.1559783209343467,0.0,0.0,0.0,0.0,0.0,0.0,-36.604,0.0,0.0,0.0,0.0,0.0
590,0.0,0.288171875,0.0,0.0,0.0,0.0,0.0,0.0,-0.437,0.0,0.0,0.0,0.0,0.0,0.0,0.14726783864934748,0.0,0.0,0.0,0.0,0.0,0.0,-36.928,0.0,0.0,0.0,0.0,0.0
591,0.0,0.2843642578125,0.0,0.0,0.0,0.0,0.0,0.0,-0.409,0.0,0.0,0.0,0.0,0.0,0.0,0.13855927597536108,0.0,0.0,0.0,0.0,0.0,0.0,-32.768,0.0,0.0,0.0,0.0,0.0
592,0.0,0.2808583984375,0.0,0.0,0.0,0.0,0.0,0.0,-0.37,0.0,0.0,0.0,0.0,0.0,0.0,0.1297441397197512,0.0,0.0,0.0,0.0,0.0,0.0,-32.284,0.0,0.0,0.0,0.0,0.0
593,0.0,0.277462890625,0.0,0.0,0.0,0.0,0.0,0.0,-0.342,0.0,0.0,0.0,0.0,0.0,0.0,0.12087409284499523,0.0,0.0,0.0,0.0,0.0,0.0,-35.684,0.0,0.0,0.0,0.0,0.0
594,0.0,0.2739638671875,0.0,0.0,0.0,0.0,0.0,0.0,-0.346,0.0,0.0,0.0,0.0,0.0,0.0,0.11212145582801221,0.0,0.0,0.0,0.0,0.0,0.0,-40.276,0.0,0.0,0.0,0.0,0.0
595,0.0,0.27035546875,0.0,0.0,0.0,0.0,0.0,0.0,-0.359,0.0,0.0,0.0,0.0,0.0,0.0,0.10331992812651102,0.0,0.0,0.0,0.0,0.0,0.0,-41.032,0.0,0.0,0.0,0.0,0.0
596,0.0,0.2670625,0.0,0.0,0.0,0.0,0.0,0.0,-0.356,0.0,0.0,0.0,0.0,0.0,0.0,0.09434984954627774,0.0,0.0,0.0,0.0,0.0,0.0,-39.464,0.0,0.0,0.0,0.0,0.0
597,0.0,0.264078125,0.0,0.0,0.0,0.0,0.0,0.0,-0.318,0.0,0.0,0.0,0.0,0.0,0.0,0.0855059187071713,0.0,0.0,0.0,0.0,0.0,0.0,-39.896,0.0,0.0,0.0,0.0,0.0
598,0.0,0.2614990234375,0.0,0.0,0.0,0.0,0.0,0.0,-0.283,0.0,0.0,0.0,0.0,0.0,0.0,0.07662234007881465,0.0,0.0,0.0,0.0,0.0,0.0,-41.356,0.0,0.0,0.0,0.0,0.0
599,0.0,0.2586171875,0.0,0.0,0.0,0.0,0.0,0.0,-0.269,0.0,0.0,0.0,0.0,0.0,0.0,0.06760374824930838,0.0,0.0,0.0,0.0,0.0,0.0,-43.944,0.0,0.0,0.0,0.0,0.0
600,0.0,0.2551181640625,0.0,0.0,0.0,0.0,0.0,0.0,-0.317,0.0,0.0,0.0,0.0,0.0,0.0,0.058763987942269356,0.0,0.0,0.0,0.0,0.0,0.0,-45.62,0.0,0.0,0.0,0.0,0.0
601,0.0,0.2517158203125,0.0,0.0,0.0,0.0,0.0,0.0,-0.354,0.0,0.0,0.0,0.0,0.0,0.0,0.049745392980584675,0.0,0.0,0.0,0.0,0.0,0.0,-45.672,0.0,0.0,0.0,0.0,0.0
602,0.0,0.2484228515625,0.0,0.0,0.0,0.0,0.0,0.0,-0.342,0.0,0.0,0.0,0.0,0.0,0.0,0.04074864901078729,0.0,0.0,0.0,0.0,0.0,0.0,-45.08,0.0,0.0,0.0,0.0,0.0
603,0.0,0.2454384765625,0.0,0.0,0.0,0.0,0.0,0.0,-0.316,0.0,0.0,0.0,0.0,0.0,0.0,0.031765189805219224,0.0,0.0,0.0,0.0,0.0,0.0,-45.08,0.0,0.0,0.0,0.0,0.0
604,0.0,0.2425576171875,0.0,0.0,0.0,0.0,0.0,0.0,-0.289,0.0,0.0,0.0,0.0,0.0,0.0,0.022834836070732417,0.0,0.0,0.0,0.0,0.0,0.0,-46.268,0.0,0.0,0.0,0.0,0.0
605,0.0,0.2392578125,0.0,0.0,0.0,0.0,0.0,0.0,-0.31,0.0,0.0,0.0,0.0,0.0,0.0,0.013767054568573902,0.0,0.0,0.0,0.0,0.0,0.0,-46.052,0.0,0.0,0.0,0.0,0.0
606,0.0,0.235552734375,0.0,0.0,0.0,0.0,0.0,0.0,-0.354,0.0,0.0,0.0,0.0,0.0,0.0,0.004769079533199254,0.0,0.0,0.0,0.0,0.0,0.0,-45.944,0.0,0.0,0.0,0.0,0.0
607,0.0,0.2317392578125,0.0,0.0,0.0,0.0,0.0,0.0,-0.381,0.0,0.0,0.0,0.0,0.0,0.0,-0.0041587305875567665,0.0,0.0,0.0,0.0,0.0,0.0,-46.484,0.0,0.0,0.0,0.0,0.0
608,0.0,0.2281376953125,0.0,0.0,0.0,0.0,0.0,0.0,-0.377,0.0,0.0,0.0,0.0,0.0,0.0,-0.013387241388565986,0.0,0.0,0.0,0.0,0.0,0.0,-46.968,0.0,0.0,0.0,0.0,0.0
609,0.0,0.2211328125,0.0,0.0,0.0,0.0,0.0,0.0,-0.346,0.0,0.0,0.0,0.0,0.0,0.0,-0.02375649616210827,0.0,0.0,0.0,0.0,0.0,0.0,-47.456,0.0,0.0,0.0,0.0,0.0
610,0.0,0.2211328125,0.0,0.0,0.0,0.0,0.0,0.0,-0.346,0.0,0.0,0.0,0.0,0.0,0.0,-0.03114302063883715,0.0,0.0,0.0,0.0,0.0,0.0,-47.456,0.0,0.0,0.0,0.0,0.0
611,0.0,0.2173251953125,0.0,0.0,0.0,0.0,0.0,0.0,-0.365,0.0,0.0,0.0,0.0,0.0,0.0,-0.0401998321857014,0.0,0.0,0.0,0.0,0.0,0.0,-46.752,0.0,0.0,0.0,0.0,0.0
612,0.0,0.2133115234375,0.0,0.0,0.0,0.0,0.0,0.0,-0.392,0.0,0.0,0.0,0.0,0.0,0.0,-0.04919634075213882,0.0,0.0,0.0,0.0,0.0,0.0,-45.996,0.0,0.0,0.0,0.0,0.0
613,0.0,0.2090859375,0.0,0.0,0.0,0.0,0.0,0.0,-0.413,0.0,0.0,0.0,0.0,0.0,0.0,-0.058075797597858074,0.0,0.0,0.0,0.0,0.0,0.0,-46.104,0.0,0.0,0.0,0.0,0.0
614,0.0,0.2049697265625,0.0,0.0,0.0,0.0,0.0,0.0,-0.422,0.0,0.0,0.0,0.0,0.0,0.0,-0.06711984283657337,0.0,0.0,0.0,0.0,0.0,0.0,-46.376,0.0,0.0,0.0,0.0,0.0
615,0.0,0.201052734375,0.0,0.0,0.0,0.0,0.0,0.0,-0.406,0.0,0.0,0.0,0.0,0.0,0.0,-0.07604907201929417,0.0,0.0,0.0,0.0,0.0,0.0,-46.484,0.0,0.0,0.0,0.0,0.0
616,0.0,0.1970390625,0.0,0.0,0.0,0.0,0.0,0.0,-0.398,0.0,0.0,0.0,0.0,0.0,0.0,-0.08490534957325195,0.0,0.0,0.0,0.0,0.0,0.0,-45.836,0.0,0.0,0.0,0.0,0.0
617,0.0,0.19301953125,0.0,0.0,0.0,0.0,0.0,0.0,-0.403,0.0,0.0,0.0,0.0,0.0,0.0,-0.09383689066765545,0.0,0.0,0.0,0.0,0.0,0.0,-45.296,0.0,0.0,0.0,0.0,0.0
618,0.0,0.188697265625,0.0,0.0,0.0,0.0,0.0,0.0,-0.423,0.0,0.0,0.0,0.0,0.0,0.0,-0.10273194526494862,0.0,0.0,0.0,0.0,0.0,0.0,-44.16,0.0,0.0,0.0,0.0,0.0
619,0.0,0.1841630859375,0.0,0.0,0.0,0.0,0.0,0.0,-0.444,0.0,0.0,0.0,0.0,0.0,0.0,-0.11156078846582597,0.0,0.0,0.0,0.0,0.0,0.0,-44.268,0.0,0.0,0.0,0.0,0.0
620,0.0,0.179634765625,0.0,0.0,0.0,0.0,0.0,0.0,-0.456,0.0,0.0,0.0,0.0,0.0,0.0,-0.12041828464863642,0.0,0.0,0.0,0.0,0.0,0.0,-44.484,0.0,0.0,0.0,0.0,0.0
621,0.0,0.175416015625,0.0,0.0,0.0,0.0,0.0,0.0,-0.445,0.0,0.0,0.0,0.0,0.0,0.0,-0.12927932113243704,0.0,0.0,0.0,0.0,0.0,0.0,-43.676,0.0,0.0,0.0,0.0,0.0
622,0.0,0.1713955078125,0.0,0.0,0.0,0.0,0.0,0.0,-0.42,0.0,0.0,0.0,0.0,0.0,0.0,-0.13795489542135828,0.0,0.0,0.0,0.0,0.0,0.0,-43.296,0.0,0.0,0.0,0.0,0.0
623,0.0,0.167279296875,0.0,0.0,0.0,0.0,0.0,0.0,-0.407,0.0,0.0,0.0,0.0,0.0,0.0,-0.1467746890081588,0.0,0.0,0.0,0.0,0.0,0.0,-43.244,0.0,0.0,0.0,0.0,0.0
624,0.0,0.162951171875,0.0,0.0,0.0,0.0,0.0,0.0,-0.421,0.0,0.0,0.0,0.0,0.0,0.0,-0.15539487026474622,0.0,0.0,0.0,0.0,0.0,0.0,-43.296,0.0,0.0,0.0,0.0,0.0
625,0.0,0.1585263671875,0.0,0.0,0.0,0.0,0.0,0.0,-0.442,0.0,0.0,0.0,0.0,0.0,0.0,-0.16405779341656138,0.0,0.0,0.0,0.0,0.0,0.0,-43.676,0.0,0.0,0.0,0.0,0.0
626,0.0,0.1540947265625,0.0,0.0,0.0,0.0,0.0,0.0,-0.45,0.0,0.0,0.0,0.0,0.0,0.0,-0.17269007301945558,0.0,0.0,0.0,0.0,0.0,0.0,-43.244,0.0,0.0,0.0,0.0,0.0
627,0.0,0.149978515625,0.0,0.0,0.0,0.0,0.0,0.0,-0.435,0.0,0.0,0.0,0.0,0.0,0.0,-0.1813582104238927,0.0,0.0,0.0,0.0,0.0,0.0,-42.652,0.0,0.0,0.0,0.0,0.0
628,0.0,0.1460615234375,0.0,0.0,0.0,0.0,0.0,0.0,-0.402,0.0,0.0,0.0,0.0,0.0,0.0,-0.18987884128723026,0.0,0.0,0.0,0.0,0.0,0.0,-42.704,0.0,0.0,0.0,0.0,0.0
629,0.0,0.1422470703125,0.0,0.0,0.0,0.0,0.0,0.0,-0.389,0.0,0.0,0.0,0.0,0.0,0.0,-0.19834031777286862,0.0,0.0,0.0,0.0,0.0,0.0,-42.868,0.0,0.0,0.0,0.0,0.0
630,0.0,0.1380283203125,0.0,0.0,0.0,0.0,0.0,0.0,-0.399,0.0,0.0,0.0,0.0,0.0,0.0,-0.20687496723212043,0.0,0.0,0.0,0.0,0.0,0.0,-43.62,0.0,0.0,0.0,0.0,0.0
631,0.0,0.13369921875,0.0,0.0,0.0,0.0,0.0,0.0,-0.428,0.0,0.0,0.0,0.0,0.0,0.0,-0.21526603451772375,0.0,0.0,0.0,0.0,0.0,0.0,-43.728,0.0,0.0,0.0,0.0,0.0
632,0.0,0.12948046875,0.0,0.0,0.0,0.0,0.0,0.0,-0.434,0.0,0.0,0.0,0.0,0.0,0.0,-0.2236229910801909,0.0,0.0,0.0,0.0,0.0,0.0,-43.244,0.0,0.0,0.0,0.0,0.0
633,0.0,0.1255634765625,0.0,0.0,0.0,0.0,0.0,0.0,-0.414,0.0,0.0,0.0,0.0,0.0,0.0,-0.23199893032695756,0.0,0.0,0.0,0.0,0.0,0.0,-42.976,0.0,0.0,0.0,0.0,0.0
634,0.0,0.1219609375,0.0,0.0,0.0,0.0,0.0,0.0,-0.379,0.0,0.0,0.0,0.0,0.0,0.0,-0.24023375967075036,0.0,0.0,0.0,0.0,0.0,0.0,-43.728,0.0,0.0,0.0,0.0,0.0
635,0.0,0.1181474609375,0.0,0.0,0.0,0.0,0.0,0.0,-0.37,0.0,0.0,0.0,0.0,0.0,0.0,-0.24844277944945,0.0,0.0,0.0,0.0,0.0,0.0,-43.892,0.0,0.0,0.0,0.0,0.0
636,0.0,0.1141337890625,0.0,0.0,0.0,0.0,0.0,0.0,-0.393,0.0,0.0,0.0,0.0,0.0,0.0,-0.25667013926530957,0.0,0.0,0.0,0.0,0.0,0.0,-44.216,0.0,0.0,0.0,0.0,0.0
637,0.0,0.109908203125,0.0,0.0,0.0,0.0,0.0,0.0,-0.418,0.0,0.0,0.0,0.0,0.0,0.0,-0.2646903854810065,0.0,0.0,0.0,0.0,0.0,0.0,-44.052,0.0,0.0,0.0,0.0,0.0
638,0.0,0.1057919921875,0.0,0.0,0.0,0.0,0.0,0.0,-0.424,0.0,0.0,0.0,0.0,0.0,0.0,-0.27273241727412206,0.0,0.0,0.0,0.0,0.0,0.0,-43.62,0.0,0.0,0.0,0.0,0.0
639,0.0,0.101990234375,0.0,0.0,0.0,0.0,0.0,0.0,-0.396,0.0,0.0,0.0,0.0,0.0,0.0,-0.28077270511488756,0.0,0.0,0.0,0.0,0.0,0.0,-43.568,0.0,0.0,0.0,0.0,0.0
640,0.0,0.0984853515625,0.0,0.0,0.0,0.0,0.0,0.0,-0.369,0.0,0.0,0.0,0.0,0.0,0.0,-0.2886496277692751,0.0,0.0,0.0,0.0,0.0,0.0,-44.268,0.0,0.0,0.0,0.0,0.0
641,0.0,0.0947802734375,0.0,0.0,0.0,0.0,0.0,0.0,-0.362,0.0,0.0,0.0,0.0,0.0,0.0,-0.2964998401256235,0.0,0.0,0.0,0.0,0.0,0.0,-44.432,0.0,0.0,0.0,0.0,0.0
642,0.0,0.090658203125,0.0,0.0,0.0,0.0,0.0,0.0,-0.385,0.0,0.0,0.0,0.0,0.0,0.0,-0.3043417151268046,0.0,0.0,0.0,0.0,0.0,0.0,-44.808,0.0,0.0,0.0,0.0,0.0
643,0.0,0.0864384765625,0.0,0.0,0.0,0.0,0.0,0.0,-0.419,0.0,0.0,0.0,0.0,0.0,0.0,-0.31202202274617136,0.0,0.0,0.0,0.0,0.0,0.0,-44.432,0.0,0.0,0.0,0.0,0.0
644,0.0,0.0824189453125,0.0,0.0,0.0,0.0,0.0,0.0,-0.42,0.0,0.0,0.0,0.0,0.0,0.0,-0.3196791865680875,0.0,0.0,0.0,0.0,0.0,0.0,-44.16,0.0,0.0,0.0,0.0,0.0
645,0.0,0.0787138671875,0.0,0.0,0.0,0.0,0.0,0.0,-0.393,0.0,0.0,0.0,0.0,0.0,0.0,-0.32726288578416507,0.0,0.0,0.0,0.0,0.0,0.0,-44.54,0.0,0.0,0.0,0.0,0.0
646,0.0,0.0750087890625,0.0,0.0,0.0,0.0,0.0,0.0,-0.373,0.0,0.0,0.0,0.0,0.0,0.0,-0.33478943904673003,0.0,0.0,0.0,0.0,0.0,0.0,-45.188,0.0,0.0,0.0,0.0,0.0
647,0.0,0.0712978515625,0.0,0.0,0.0,0.0,0.0,0.0,-0.368,0.0,0.0,0.0,0.0,0.0,0.0,-0.3421794486851854,0.0,0.0,0.0,0.0,0.0,0.0,-44.972,0.0,0.0,0.0,0.0,0.0
648,0.0,0.0672841796875,0.0,0.0,0.0,0.0,0.0,0.0,-0.387,0.0,0.0,0.0,0.0,0.0,0.0,-0.3495819129066897,0.0,0.0,0.0,0.0,0.0,0.0,-45.024,0.0,0.0,0.0,0.0,0.0
649,0.0,0.0629560546875,0.0,0.0,0.0,0.0,0.0,0.0,-0.423,0.0,0.0,0.0,0.0,0.0,0.0,-0.35682584962014385,0.0,0.0,0.0,0.0,0.0,0.0,-44.916,0.0,0.0,0.0,0.0,0.0
650,0.0,0.05883984375,0.0,0.0,0.0,0.0,0.0,0.0,-0.426,0.0,0.0,0.0,0.0,0.0,0.0,-0.3640014480669356,0.0,0.0,0.0,0.0,0.0,0.0,-44.592,0.0,0.0,0.0,0.0,0.0
651,0.0,0.055025390625,0.0,0.0,0.0,0.0,0.0,0.0,-0.402,0.0,0.0,0.0,0.0,0.0,0.0,-0.3711579757897909,0.0,0.0,0.0,0.0,0.0,0.0,-44.592,0.0,0.0,0.0,0.0,0.0
652,0.0,0.0513212890625,0.0,0.0,0.0,0.0,0.0,0.0,-0.378,0.0,0.0,0.0,0.0,0.0,0.0,-0.378207651058725,0.0,0.0,0.0,0.0,0.0,0.0,-44.864,0.0,0.0,0.0,0.0,0.0
653,0.0,0.0476162109375,0.0,0.0,0.0,0.0,0.0,0.0,-0.37,0.0,0.0,0.0,0.0,0.0,0.0,-0.38512204669396083,0.0,0.0,0.0,0.0,0.0,0.0,-44.7,0.0,0.0,0.0,0.0,0.0
654,0.0,0.0434931640625,0.0,0.0,0.0,0.0,0.0,0.0,-0.396,0.0,0.0,0.0,0.0,0.0,0.0,-0.39197701489830117,0.0,0.0,0.0,0.0,0.0,0.0,-44.808,0.0,0.0,0.0,0.0,0.0
655,0.0,0.0391708984375,0.0,0.0,0.0,0.0,0.0,0.0,-0.424,0.0,0.0,0.0,0.0,0.0,0.0,-0.3988379704369438,0.0,0.0,0.0,0.0,0.0,0.0,-44.592,0.0,0.0,0.0,0.0,0.0
656,0.0,0.0349453125,0.0,0.0,0.0,0.0,0.0,0.0,-0.433,0.0,0.0,0.0,0.0,0.0,0.0,-0.4054251781173677,0.0,0.0,0.0,0.0,0.0,0.0,-44.376,0.0,0.0,0.0,0.0,0.0
657,0.0,0.0311376953125,0.0,0.0,0.0,0.0,0.0,0.0,-0.408,0.0,0.0,0.0,0.0,0.0,0.0,-0.41201055712198253,0.0,0.0,0.0,0.0,0.0,0.0,-44.376,0.0,0.0,0.0,0.0,0.0
658,0.0,0.0274267578125,0.0,0.0,0.0,0.0,0.0,0.0,-0.381,0.0,0.0,0.0,0.0,0.0,0.0,-0.4185516068627316,0.0,0.0,0.0,0.0,0.0,0.0,-44.808,0.0,0.0,0.0,0.0,0.0
659,0.0,0.023619140625,0.0,0.0,0.0,0.0,0.0,0.0,-0.373,0.0,0.0,0.0,0.0,0.0,0.0,-0.42491021370276033,0.0,0.0,0.0,0.0,0.0,0.0,-44.756,0.0,0.0,0.0,0.0,0.0
660,0.0,0.01949609375,0.0,0.0,0.0,0.0,0.0,0.0,-0.393,0.0,0.0,0.0,0.0,0.0,0.0,-0.4312140348014373,0.0,0.0,0.0,0.0,0.0,0.0,-44.972,0.0,0.0,0.0,0.0,0.0
661,0.0,0.015173828125,0.0,0.0,0.0,0.0,0.0,0.0,-0.425,0.0,0.0,0.0,0.0,0.0,0.0,-0.43746070921063623,0.0,0.0,0.0,0.0,0.0,0.0,-44.864,0.0,0.0,0.0,0.0,0.0
662,0.0,0.0109482421875,0.0,0.0,0.0,0.0,0.0,0.0,-0.435,0.0,0.0,0.0,0.0,0.0,0.0,-0.4435394112066456,0.0,0.0,0.0,0.0,0.0,0.0,-44.432,0.0,0.0,0.0,0.0,0.0
663,0.0,0.007140625,0.0,0.0,0.0,0.0,0.0,0.0,-0.414,0.0,0.0,0.0,0.0,0.0,0.0,-0.4495432295415549,0.0,0.0,0.0,0.0,0.0,0.0,-44.268,0.0,0.0,0.0,0.0,0.0
664,0.0,0.0034365234375,0.0,0.0,0.0,0.0,0.0,0.0,-0.379,0.0,0.0,0.0,0.0,0.0,0.0,-0.4554870703074758,0.0,0.0,0.0,0.0,0.0,0.0,-44.54,0.0,0.0,0.0,0.0,0.0
665,0.0,-0.0003779296875,0.0,0.0,0.0,0.0,0.0,0.0,-0.373,0.0,0.0,0.0,0.0,0.0,0.0,-0.46126864826314673,0.0,0.0,0.0,0.0,0.0,0.0,-44.376,0.0,0.0,0.0,0.0,0.0
666,0.0,-0.004494140625,0.0,0.0,0.0,0.0,0.0,0.0,-0.397,0.0,0.0,0.0,0.0,0.0,0.0,-0.4669659458027908,0.0,0.0,0.0,0.0,0.0,0.0,-44.592,0.0,0.0,0.0,0.0,0.0
667,0.0,-0.008822265625,0.0,0.0,0.0,0.0,0.0,0.0,-0.426,0.0,0.0,0.0,0.0,0.0,0.0,-0.47259992262611417,0.0,0.0,0.0,0.0,0.0,0.0,-44.484,0.0,0.0,0.0,0.0,0.0
668,0.0,-0.0130419921875,0.0,0.0,0.0,0.0,0.0,0.0,-0.435,0.0,0.0,0.0,0.0,0.0,0.0,-0.47806098949657677,0.0,0.0,0.0,0.0,0.0,0.0,-44.268,0.0,0.0,0.0,0.0,0.0
669,0.0,-0.016958984375,0.0,0.0,0.0,0.0,0.0,0.0,-0.415,0.0,0.0,0.0,0.0,0.0,0.0,-0.4834428949652796,0.0,0.0,0.0,0.0,0.0,0.0,-44.268,0.0,0.0,0.0,0.0,0.0
