EmanuelSamir/lab201_ws_projsamir/sawyer_dev/data/sawyer/vel_acel_ns/test_joint2/training_data_2.csv
,j1,j2,j3,j4,j5,j6,j7,v1,v2,v3,v4,v5,v6,v7,jd1,jd2,jd3,jd4,jd5,jd6,jd7,e1,e2,e3,e4,e5,e6,e7
0,0.0,0.0,0.0,0.0,0.0,0.0,0.0,0.0,0.0,0.0,0.0,0.0,0.0,0.0,0.0,0.0,0.0,0.0,0.0,0.0,0.0,0.0,0.0,0.0,0.0,0.0,0.0,0.0
1,0.0,0.0021953125,0.0,0.0,0.0,0.0,0.0,0.0,-0.001,0.0,0.0,0.0,0.0,0.0,0.0,0.00011043548521629245,0.0,0.0,0.0,0.0,0.0,0.0,-44.376,0.0,0.0,0.0,0.0,0.0
2,0.0,0.0021953125,0.0,0.0,0.0,0.0,0.0,0.0,-0.001,0.0,0.0,0.0,0.0,0.0,0.0,0.011637911488392999,0.0,0.0,0.0,0.0,0.0,0.0,-44.324,0.0,0.0,0.0,0.0,0.0
3,0.0,0.0021953125,0.0,0.0,0.0,0.0,0.0,0.0,-0.001,0.0,0.0,0.0,0.0,0.0,0.0,0.023607357667223487,0.0,0.0,0.0,0.0,0.0,0.0,-44.324,0.0,0.0,0.0,0.0,0.0
4,0.0,0.0021953125,0.0,0.0,0.0,0.0,0.0,0.0,-0.001,0.0,0.0,0.0,0.0,0.0,0.0,0.03564765386315893,0.0,0.0,0.0,0.0,0.0,0.0,-44.268,0.0,0.0,0.0,0.0,0.0
5,0.0,0.0027099609375,0.0,0.0,0.0,0.0,0.0,0.0,0.016,0.0,0.0,0.0,0.0,0.0,0.0,0.04789971838204097,0.0,0.0,0.0,0.0,0.0,0.0,-40.276,0.0,0.0,0.0,0.0,0.0
6,0.0,0.00415625,0.0,0.0,0.0,0.0,0.0,0.0,0.088,0.0,0.0,0.0,0.0,0.0,0.0,0.05943538866302214,0.0,0.0,0.0,0.0,0.0,0.0,-33.364,0.0,0.0,0.0,0.0,0.0
7,0.0,0.00590625,0.0,0.0,0.0,0.0,0.0,0.0,0.161,0.0,0.0,0.0,0.0,0.0,0.0,0.07148525440508631,0.0,0.0,0.0,0.0,0.0,0.0,-29.044,0.0,0.0,0.0,0.0,0.0
8,0.0,0.0083759765625,0.0,0.0,0.0,0.0,0.0,0.0,0.205,0.0,0.0,0.0,0.0,0.0,0.0,0.08364249753536318,0.0,0.0,0.0,0.0,0.0,0.0,-26.832,0.0,0.0,0.0,0.0,0.0
9,0.0,0.0110517578125,0.0,0.0,0.0,0.0,0.0,0.0,0.258,0.0,0.0,0.0,0.0,0.0,0.0,0.09522476274955068,0.0,0.0,0.0,0.0,0.0,0.0,-26.724,0.0,0.0,0.0,0.0,0.0
10,0.0,0.0138369140625,0.0,0.0,0.0,0.0,0.0,0.0,0.266,0.0,0.0,0.0,0.0,0.0,0.0,0.10703508894726117,0.0,0.0,0.0,0.0,0.0,0.0,-25.86,0.0,0.0,0.0,0.0,0.0
11,0.0,0.01764453125,0.0,0.0,0.0,0.0,0.0,0.0,0.321,0.0,0.0,0.0,0.0,0.0,0.0,0.11889218940787245,0.0,0.0,0.0,0.0,0.0,0.0,-24.672,0.0,0.0,0.0,0.0,0.0
12,0.0,0.02197265625,0.0,0.0,0.0,0.0,0.0,0.0,0.413,0.0,0.0,0.0,0.0,0.0,0.0,0.130656474954892,0.0,0.0,0.0,0.0,0.0,0.0,-25.912,0.0,0.0,0.0,0.0,0.0
13,0.0,0.0267060546875,0.0,0.0,0.0,0.0,0.0,0.0,0.448,0.0,0.0,0.0,0.0,0.0,0.0,0.14231712030287424,0.0,0.0,0.0,0.0,0.0,0.0,-29.316,0.0,0.0,0.0,0.0,0.0
14,0.0,0.03165234375,0.0,0.0,0.0,0.0,0.0,0.0,0.487,0.0,0.0,0.0,0.0,0.0,0.0,0.15401399080002678,0.0,0.0,0.0,0.0,0.0,0.0,-33.688,0.0,0.0,0.0,0.0,0.0
15,0.0,0.0360771484375,0.0,0.0,0.0,0.0,0.0,0.0,0.477,0.0,0.0,0.0,0.0,0.0,0.0,0.16553660614502147,0.0,0.0,0.0,0.0,0.0,0.0,-36.224,0.0,0.0,0.0,0.0,0.0
16,0.0,0.04071484375,0.0,0.0,0.0,0.0,0.0,0.0,0.451,0.0,0.0,0.0,0.0,0.0,0.0,0.17694047550174463,0.0,0.0,0.0,0.0,0.0,0.0,-37.952,0.0,0.0,0.0,0.0,0.0
17,0.0,0.0458603515625,0.0,0.0,0.0,0.0,0.0,0.0,0.491,0.0,0.0,0.0,0.0,0.0,0.0,0.1884505071757402,0.0,0.0,0.0,0.0,0.0,0.0,-39.68,0.0,0.0,0.0,0.0,0.0
18,0.0,0.0513212890625,0.0,0.0,0.0,0.0,0.0,0.0,0.527,0.0,0.0,0.0,0.0,0.0,0.0,0.19982745044748176,0.0,0.0,0.0,0.0,0.0,0.0,-40.436,0.0,0.0,0.0,0.0,0.0
19,0.0,0.05708984375,0.0,0.0,0.0,0.0,0.0,0.0,0.564,0.0,0.0,0.0,0.0,0.0,0.0,0.21114878298766265,0.0,0.0,0.0,0.0,0.0,0.0,-42.812,0.0,0.0,0.0,0.0,0.0
20,0.0,0.0622353515625,0.0,0.0,0.0,0.0,0.0,0.0,0.552,0.0,0.0,0.0,0.0,0.0,0.0,0.22234376076674664,0.0,0.0,0.0,0.0,0.0,0.0,-45.188,0.0,0.0,0.0,0.0,0.0
21,0.0,0.0670791015625,0.0,0.0,0.0,0.0,0.0,0.0,0.506,0.0,0.0,0.0,0.0,0.0,0.0,0.23339779310101613,0.0,0.0,0.0,0.0,0.0,0.0,-45.836,0.0,0.0,0.0,0.0,0.0
22,0.0,0.0720185546875,0.0,0.0,0.0,0.0,0.0,0.0,0.492,0.0,0.0,0.0,0.0,0.0,0.0,0.2442902662649372,0.0,0.0,0.0,0.0,0.0,0.0,-45.62,0.0,0.0,0.0,0.0,0.0
23,0.0,0.077169921875,0.0,0.0,0.0,0.0,0.0,0.0,0.5,0.0,0.0,0.0,0.0,0.0,0.0,0.2553019815280502,0.0,0.0,0.0,0.0,0.0,0.0,-44.864,0.0,0.0,0.0,0.0,0.0
24,0.0,0.0826240234375,0.0,0.0,0.0,0.0,0.0,0.0,0.535,0.0,0.0,0.0,0.0,0.0,0.0,0.26617300593610926,0.0,0.0,0.0,0.0,0.0,0.0,-45.728,0.0,0.0,0.0,0.0,0.0
25,0.0,0.0877763671875,0.0,0.0,0.0,0.0,0.0,0.0,0.541,0.0,0.0,0.0,0.0,0.0,0.0,0.2767299439768842,0.0,0.0,0.0,0.0,0.0,0.0,-47.616,0.0,0.0,0.0,0.0,0.0
26,0.0,0.0925166015625,0.0,0.0,0.0,0.0,0.0,0.0,0.496,0.0,0.0,0.0,0.0,0.0,0.0,0.287379348531841,0.0,0.0,0.0,0.0,0.0,0.0,-48.696,0.0,0.0,0.0,0.0,0.0
27,0.0,0.09725,0.0,0.0,0.0,0.0,0.0,0.0,0.474,0.0,0.0,0.0,0.0,0.0,0.0,0.2978904329380529,0.0,0.0,0.0,0.0,0.0,0.0,-48.264,0.0,0.0,0.0,0.0,0.0
28,0.0,0.101990234375,0.0,0.0,0.0,0.0,0.0,0.0,0.476,0.0,0.0,0.0,0.0,0.0,0.0,0.308195400124461,0.0,0.0,0.0,0.0,0.0,0.0,-47.672,0.0,0.0,0.0,0.0,0.0
29,0.0,0.106923828125,0.0,0.0,0.0,0.0,0.0,0.0,0.483,0.0,0.0,0.0,0.0,0.0,0.0,0.3183649812519857,0.0,0.0,0.0,0.0,0.0,0.0,-48.156,0.0,0.0,0.0,0.0,0.0
30,0.0,0.1117666015625,0.0,0.0,0.0,0.0,0.0,0.0,0.5,0.0,0.0,0.0,0.0,0.0,0.0,0.32859747471774786,0.0,0.0,0.0,0.0,0.0,0.0,-49.56,0.0,0.0,0.0,0.0,0.0
31,0.0,0.1161923828125,0.0,0.0,0.0,0.0,0.0,0.0,0.473,0.0,0.0,0.0,0.0,0.0,0.0,0.3384129633744635,0.0,0.0,0.0,0.0,0.0,0.0,-49.508,0.0,0.0,0.0,0.0,0.0
32,0.0,0.1205205078125,0.0,0.0,0.0,0.0,0.0,0.0,0.437,0.0,0.0,0.0,0.0,0.0,0.0,0.34833876498784566,0.0,0.0,0.0,0.0,0.0,0.0,-48.588,0.0,0.0,0.0,0.0,0.0
33,0.0,0.124740234375,0.0,0.0,0.0,0.0,0.0,0.0,0.43,0.0,0.0,0.0,0.0,0.0,0.0,0.3580957130273168,0.0,0.0,0.0,0.0,0.0,0.0,-47.616,0.0,0.0,0.0,0.0,0.0
34,0.0,0.1289658203125,0.0,0.0,0.0,0.0,0.0,0.0,0.424,0.0,0.0,0.0,0.0,0.0,0.0,0.36755511379412503,0.0,0.0,0.0,0.0,0.0,0.0,-47.564,0.0,0.0,0.0,0.0,0.0
35,0.0,0.1332880859375,0.0,0.0,0.0,0.0,0.0,0.0,0.432,0.0,0.0,0.0,0.0,0.0,0.0,0.3770852725439745,0.0,0.0,0.0,0.0,0.0,0.0,-48.588,0.0,0.0,0.0,0.0,0.0
36,0.0,0.1371982421875,0.0,0.0,0.0,0.0,0.0,0.0,0.416,0.0,0.0,0.0,0.0,0.0,0.0,0.3866563335886008,0.0,0.0,0.0,0.0,0.0,0.0,-48.696,0.0,0.0,0.0,0.0,0.0
37,0.0,0.1409091796875,0.0,0.0,0.0,0.0,0.0,0.0,0.382,0.0,0.0,0.0,0.0,0.0,0.0,0.3953761901357786,0.0,0.0,0.0,0.0,0.0,0.0,-47.832,0.0,0.0,0.0,0.0,0.0
38,0.0,0.1444150390625,0.0,0.0,0.0,0.0,0.0,0.0,0.367,0.0,0.0,0.0,0.0,0.0,0.0,0.4043023462984479,0.0,0.0,0.0,0.0,0.0,0.0,-46.7,0.0,0.0,0.0,0.0,0.0
39,0.0,0.1481259765625,0.0,0.0,0.0,0.0,0.0,0.0,0.364,0.0,0.0,0.0,0.0,0.0,0.0,0.4131517665140818,0.0,0.0,0.0,0.0,0.0,0.0,-45.996,0.0,0.0,0.0,0.0,0.0
40,0.0,0.15193359375,0.0,0.0,0.0,0.0,0.0,0.0,0.373,0.0,0.0,0.0,0.0,0.0,0.0,0.4217030443006099,0.0,0.0,0.0,0.0,0.0,0.0,-46.104,0.0,0.0,0.0,0.0,0.0
41,0.0,0.15553515625,0.0,0.0,0.0,0.0,0.0,0.0,0.375,0.0,0.0,0.0,0.0,0.0,0.0,0.4301902245911238,0.0,0.0,0.0,0.0,0.0,0.0,-46.052,0.0,0.0,0.0,0.0,0.0
42,0.0,0.1589375,0.0,0.0,0.0,0.0,0.0,0.0,0.358,0.0,0.0,0.0,0.0,0.0,0.0,0.4384917473653331,0.0,0.0,0.0,0.0,0.0,0.0,-44.864,0.0,0.0,0.0,0.0,0.0
43,0.0,0.162333984375,0.0,0.0,0.0,0.0,0.0,0.0,0.338,0.0,0.0,0.0,0.0,0.0,0.0,0.4465102682955889,0.0,0.0,0.0,0.0,0.0,0.0,-43.676,0.0,0.0,0.0,0.0,0.0
44,0.0,0.1657294921875,0.0,0.0,0.0,0.0,0.0,0.0,0.336,0.0,0.0,0.0,0.0,0.0,0.0,0.45453400229184315,0.0,0.0,0.0,0.0,0.0,0.0,-42.812,0.0,0.0,0.0,0.0,0.0
45,0.0,0.1692353515625,0.0,0.0,0.0,0.0,0.0,0.0,0.349,0.0,0.0,0.0,0.0,0.0,0.0,0.4622612105383817,0.0,0.0,0.0,0.0,0.0,0.0,-42.436,0.0,0.0,0.0,0.0,0.0
46,0.0,0.1728369140625,0.0,0.0,0.0,0.0,0.0,0.0,0.361,0.0,0.0,0.0,0.0,0.0,0.0,0.4697565285225521,0.0,0.0,0.0,0.0,0.0,0.0,-42.868,0.0,0.0,0.0,0.0,0.0
47,0.0,0.176341796875,0.0,0.0,0.0,0.0,0.0,0.0,0.357,0.0,0.0,0.0,0.0,0.0,0.0,0.4771354101094391,0.0,0.0,0.0,0.0,0.0,0.0,-42.596,0.0,0.0,0.0,0.0,0.0
48,0.0,0.1798408203125,0.0,0.0,0.0,0.0,0.0,0.0,0.351,0.0,0.0,0.0,0.0,0.0,0.0,0.4844116711625884,0.0,0.0,0.0,0.0,0.0,0.0,-42.004,0.0,0.0,0.0,0.0,0.0
49,0.0,0.1834423828125,0.0,0.0,0.0,0.0,0.0,0.0,0.356,0.0,0.0,0.0,0.0,0.0,0.0,0.4912511246310998,0.0,0.0,0.0,0.0,0.0,0.0,-41.516,0.0,0.0,0.0,0.0,0.0
50,0.0,0.187154296875,0.0,0.0,0.0,0.0,0.0,0.0,0.365,0.0,0.0,0.0,0.0,0.0,0.0,0.49811109609353527,0.0,0.0,0.0,0.0,0.0,0.0,-41.572,0.0,0.0,0.0,0.0,0.0
51,0.0,0.1908583984375,0.0,0.0,0.0,0.0,0.0,0.0,0.373,0.0,0.0,0.0,0.0,0.0,0.0,0.5047126362456464,0.0,0.0,0.0,0.0,0.0,0.0,-42.056,0.0,0.0,0.0,0.0,0.0
52,0.0,0.194775390625,0.0,0.0,0.0,0.0,0.0,0.0,0.383,0.0,0.0,0.0,0.0,0.0,0.0,0.5110448691913003,0.0,0.0,0.0,0.0,0.0,0.0,-42.38,0.0,0.0,0.0,0.0,0.0
53,0.0,0.19848046875,0.0,0.0,0.0,0.0,0.0,0.0,0.382,0.0,0.0,0.0,0.0,0.0,0.0,0.5172905325379502,0.0,0.0,0.0,0.0,0.0,0.0,-42.22,0.0,0.0,0.0,0.0,0.0
54,0.0,0.2022880859375,0.0,0.0,0.0,0.0,0.0,0.0,0.375,0.0,0.0,0.0,0.0,0.0,0.0,0.5233017604786019,0.0,0.0,0.0,0.0,0.0,0.0,-41.516,0.0,0.0,0.0,0.0,0.0
55,0.0,0.206205078125,0.0,0.0,0.0,0.0,0.0,0.0,0.385,0.0,0.0,0.0,0.0,0.0,0.0,0.5289618574350948,0.0,0.0,0.0,0.0,0.0,0.0,-41.032,0.0,0.0,0.0,0.0,0.0
56,0.0,0.2102177734375,0.0,0.0,0.0,0.0,0.0,0.0,0.4,0.0,0.0,0.0,0.0,0.0,0.0,0.5345081463433988,0.0,0.0,0.0,0.0,0.0,0.0,-41.516,0.0,0.0,0.0,0.0,0.0
57,0.0,0.21423828125,0.0,0.0,0.0,0.0,0.0,0.0,0.408,0.0,0.0,0.0,0.0,0.0,0.0,0.5398980869277898,0.0,0.0,0.0,0.0,0.0,0.0,-42.272,0.0,0.0,0.0,0.0,0.0
58,0.0,0.2183544921875,0.0,0.0,0.0,0.0,0.0,0.0,0.407,0.0,0.0,0.0,0.0,0.0,0.0,0.5450090885510406,0.0,0.0,0.0,0.0,0.0,0.0,-42.544,0.0,0.0,0.0,0.0,0.0
59,0.0,0.2223681640625,0.0,0.0,0.0,0.0,0.0,0.0,0.406,0.0,0.0,0.0,0.0,0.0,0.0,0.5498986365275308,0.0,0.0,0.0,0.0,0.0,0.0,-42.328,0.0,0.0,0.0,0.0,0.0
60,0.0,0.2263876953125,0.0,0.0,0.0,0.0,0.0,0.0,0.401,0.0,0.0,0.0,0.0,0.0,0.0,0.5546272402832021,0.0,0.0,0.0,0.0,0.0,0.0,-42.112,0.0,0.0,0.0,0.0,0.0
61,0.0,0.23050390625,0.0,0.0,0.0,0.0,0.0,0.0,0.412,0.0,0.0,0.0,0.0,0.0,0.0,0.5590562304437974,0.0,0.0,0.0,0.0,0.0,0.0,-42.328,0.0,0.0,0.0,0.0,0.0
62,0.0,0.234626953125,0.0,0.0,0.0,0.0,0.0,0.0,0.414,0.0,0.0,0.0,0.0,0.0,0.0,0.5633547893238896,0.0,0.0,0.0,0.0,0.0,0.0,-42.812,0.0,0.0,0.0,0.0,0.0
63,0.0,0.238845703125,0.0,0.0,0.0,0.0,0.0,0.0,0.421,0.0,0.0,0.0,0.0,0.0,0.0,0.567403694658715,0.0,0.0,0.0,0.0,0.0,0.0,-43.352,0.0,0.0,0.0,0.0,0.0
64,0.0,0.243072265625,0.0,0.0,0.0,0.0,0.0,0.0,0.421,0.0,0.0,0.0,0.0,0.0,0.0,0.5711458287890571,0.0,0.0,0.0,0.0,0.0,0.0,-43.784,0.0,0.0,0.0,0.0,0.0
65,0.0,0.2471884765625,0.0,0.0,0.0,0.0,0.0,0.0,0.422,0.0,0.0,0.0,0.0,0.0,0.0,0.5747165285960452,0.0,0.0,0.0,0.0,0.0,0.0,-43.62,0.0,0.0,0.0,0.0,0.0
66,0.0,0.2513046875,0.0,0.0,0.0,0.0,0.0,0.0,0.414,0.0,0.0,0.0,0.0,0.0,0.0,0.5780365664517341,0.0,0.0,0.0,0.0,0.0,0.0,-43.404,0.0,0.0,0.0,0.0,0.0
67,0.0,0.255427734375,0.0,0.0,0.0,0.0,0.0,0.0,0.414,0.0,0.0,0.0,0.0,0.0,0.0,0.5811634930927582,0.0,0.0,0.0,0.0,0.0,0.0,-43.028,0.0,0.0,0.0,0.0,0.0
68,0.0,0.259646484375,0.0,0.0,0.0,0.0,0.0,0.0,0.418,0.0,0.0,0.0,0.0,0.0,0.0,0.5845775374281389,0.0,0.0,0.0,0.0,0.0,0.0,-43.244,0.0,0.0,0.0,0.0,0.0
69,0.0,0.26376953125,0.0,0.0,0.0,0.0,0.0,0.0,0.421,0.0,0.0,0.0,0.0,0.0,0.0,0.5871866547089826,0.0,0.0,0.0,0.0,0.0,0.0,-43.404,0.0,0.0,0.0,0.0,0.0
70,0.0,0.26376953125,0.0,0.0,0.0,0.0,0.0,0.0,0.421,0.0,0.0,0.0,0.0,0.0,0.0,0.5911736919877632,0.0,0.0,0.0,0.0,0.0,0.0,-43.404,0.0,0.0,0.0,0.0,0.0
71,0.0,0.26376953125,0.0,0.0,0.0,0.0,0.0,0.0,0.421,0.0,0.0,0.0,0.0,0.0,0.0,0.5923324797025245,0.0,0.0,0.0,0.0,0.0,0.0,-43.404,0.0,0.0,0.0,0.0,0.0
72,0.0,0.26376953125,0.0,0.0,0.0,0.0,0.0,0.0,0.421,0.0,0.0,0.0,0.0,0.0,0.0,0.5933920033664073,0.0,0.0,0.0,0.0,0.0,0.0,-43.404,0.0,0.0,0.0,0.0,0.0
73,0.0,0.2718994140625,0.0,0.0,0.0,0.0,0.0,0.0,0.413,0.0,0.0,0.0,0.0,0.0,0.0,0.5964895285786832,0.0,0.0,0.0,0.0,0.0,0.0,-43.352,0.0,0.0,0.0,0.0,0.0
74,0.0,0.288068359375,0.0,0.0,0.0,0.0,0.0,0.0,0.406,0.0,0.0,0.0,0.0,0.0,0.0,0.5982599848135116,0.0,0.0,0.0,0.0,0.0,0.0,-43.46,0.0,0.0,0.0,0.0,0.0
75,0.0,0.288068359375,0.0,0.0,0.0,0.0,0.0,0.0,0.406,0.0,0.0,0.0,0.0,0.0,0.0,0.5990974519278839,0.0,0.0,0.0,0.0,0.0,0.0,-43.46,0.0,0.0,0.0,0.0,0.0
76,0.0,0.3040322265625,0.0,0.0,0.0,0.0,0.0,0.0,0.397,0.0,0.0,0.0,0.0,0.0,0.0,0.5999996259682688,0.0,0.0,0.0,0.0,0.0,0.0,-42.328,0.0,0.0,0.0,0.0,0.0
77,0.0,0.311853515625,0.0,0.0,0.0,0.0,0.0,0.0,0.394,0.0,0.0,0.0,0.0,0.0,0.0,0.5997179442129444,0.0,0.0,0.0,0.0,0.0,0.0,-42.272,0.0,0.0,0.0,0.0,0.0
78,0.0,0.311853515625,0.0,0.0,0.0,0.0,0.0,0.0,0.394,0.0,0.0,0.0,0.0,0.0,0.0,0.59937000848334,0.0,0.0,0.0,0.0,0.0,0.0,-42.272,0.0,0.0,0.0,0.0,0.0
79,0.0,0.3157705078125,0.0,0.0,0.0,0.0,0.0,0.0,0.399,0.0,0.0,0.0,0.0,0.0,0.0,0.598014607929875,0.0,0.0,0.0,0.0,0.0,0.0,-42.436,0.0,0.0,0.0,0.0,0.0
80,0.0,0.3197841796875,0.0,0.0,0.0,0.0,0.0,0.0,0.398,0.0,0.0,0.0,0.0,0.0,0.0,0.5960765973324671,0.0,0.0,0.0,0.0,0.0,0.0,-42.272,0.0,0.0,0.0,0.0,0.0
81,0.0,0.32359765625,0.0,0.0,0.0,0.0,0.0,0.0,0.394,0.0,0.0,0.0,0.0,0.0,0.0,0.5936323103138039,0.0,0.0,0.0,0.0,0.0,0.0,-42.164,0.0,0.0,0.0,0.0,0.0
82,0.0,0.3275087890625,0.0,0.0,0.0,0.0,0.0,0.0,0.39,0.0,0.0,0.0,0.0,0.0,0.0,0.5920885907470946,0.0,0.0,0.0,0.0,0.0,0.0,-41.896,0.0,0.0,0.0,0.0,0.0
83,0.0,0.3275087890625,0.0,0.0,0.0,0.0,0.0,0.0,0.39,0.0,0.0,0.0,0.0,0.0,0.0,0.5908691811231812,0.0,0.0,0.0,0.0,0.0,0.0,-41.896,0.0,0.0,0.0,0.0,0.0
84,0.0,0.3433623046875,0.0,0.0,0.0,0.0,0.0,0.0,0.397,0.0,0.0,0.0,0.0,0.0,0.0,0.5886593098331019,0.0,0.0,0.0,0.0,0.0,0.0,-42.112,0.0,0.0,0.0,0.0,0.0
85,0.0,0.347279296875,0.0,0.0,0.0,0.0,0.0,0.0,0.397,0.0,0.0,0.0,0.0,0.0,0.0,0.5861730970835365,0.0,0.0,0.0,0.0,0.0,0.0,-41.572,0.0,0.0,0.0,0.0,0.0
86,0.0,0.347279296875,0.0,0.0,0.0,0.0,0.0,0.0,0.397,0.0,0.0,0.0,0.0,0.0,0.0,0.583501701131609,0.0,0.0,0.0,0.0,0.0,0.0,-41.572,0.0,0.0,0.0,0.0,0.0
87,0.0,0.35511328125,0.0,0.0,0.0,0.0,0.0,0.0,0.393,0.0,0.0,0.0,0.0,0.0,0.0,0.5805953372992503,0.0,0.0,0.0,0.0,0.0,0.0,-41.3,0.0,0.0,0.0,0.0,0.0
88,0.0,0.359126953125,0.0,0.0,0.0,0.0,0.0,0.0,0.397,0.0,0.0,0.0,0.0,0.0,0.0,0.5774340176092708,0.0,0.0,0.0,0.0,0.0,0.0,-41.356,0.0,0.0,0.0,0.0,0.0
89,0.0,0.363140625,0.0,0.0,0.0,0.0,0.0,0.0,0.403,0.0,0.0,0.0,0.0,0.0,0.0,0.5740457965411515,0.0,0.0,0.0,0.0,0.0,0.0,-41.572,0.0,0.0,0.0,0.0,0.0
90,0.0,0.3709677734375,0.0,0.0,0.0,0.0,0.0,0.0,0.396,0.0,0.0,0.0,0.0,0.0,0.0,0.5675586049989028,0.0,0.0,0.0,0.0,0.0,0.0,-41.192,0.0,0.0,0.0,0.0,0.0
91,0.0,0.3788984375,0.0,0.0,0.0,0.0,0.0,0.0,0.401,0.0,0.0,0.0,0.0,0.0,0.0,0.5604447516694662,0.0,0.0,0.0,0.0,0.0,0.0,-41.248,0.0,0.0,0.0,0.0,0.0
92,0.0,0.382912109375,0.0,0.0,0.0,0.0,0.0,0.0,0.399,0.0,0.0,0.0,0.0,0.0,0.0,0.5561931175628025,0.0,0.0,0.0,0.0,0.0,0.0,-41.516,0.0,0.0,0.0,0.0,0.0
93,0.0,0.382912109375,0.0,0.0,0.0,0.0,0.0,0.0,0.399,0.0,0.0,0.0,0.0,0.0,0.0,0.5538718605064411,0.0,0.0,0.0,0.0,0.0,0.0,-41.516,0.0,0.0,0.0,0.0,0.0
94,0.0,0.386931640625,0.0,0.0,0.0,0.0,0.0,0.0,0.403,0.0,0.0,0.0,0.0,0.0,0.0,0.5507936091682825,0.0,0.0,0.0,0.0,0.0,0.0,-41.788,0.0,0.0,0.0,0.0,0.0
95,0.0,0.3909453125,0.0,0.0,0.0,0.0,0.0,0.0,0.403,0.0,0.0,0.0,0.0,0.0,0.0,0.5433723521663973,0.0,0.0,0.0,0.0,0.0,0.0,-41.408,0.0,0.0,0.0,0.0,0.0
96,0.0,0.3949580078125,0.0,0.0,0.0,0.0,0.0,0.0,0.402,0.0,0.0,0.0,0.0,0.0,0.0,0.540013896662816,0.0,0.0,0.0,0.0,0.0,0.0,-40.76,0.0,0.0,0.0,0.0,0.0
97,0.0,0.398978515625,0.0,0.0,0.0,0.0,0.0,0.0,0.403,0.0,0.0,0.0,0.0,0.0,0.0,0.5370153905197231,0.0,0.0,0.0,0.0,0.0,0.0,-40.544,0.0,0.0,0.0,0.0,0.0
98,0.0,0.398978515625,0.0,0.0,0.0,0.0,0.0,0.0,0.403,0.0,0.0,0.0,0.0,0.0,0.0,0.5336877045580839,0.0,0.0,0.0,0.0,0.0,0.0,-40.544,0.0,0.0,0.0,0.0,0.0
99,0.0,0.402888671875,0.0,0.0,0.0,0.0,0.0,0.0,0.399,0.0,0.0,0.0,0.0,0.0,0.0,0.5280405922672741,0.0,0.0,0.0,0.0,0.0,0.0,-40.816,0.0,0.0,0.0,0.0,0.0
100,0.0,0.40690234375,0.0,0.0,0.0,0.0,0.0,0.0,0.403,0.0,0.0,0.0,0.0,0.0,0.0,0.5222939516986038,0.0,0.0,0.0,0.0,0.0,0.0,-40.816,0.0,0.0,0.0,0.0,0.0
101,0.0,0.410921875,0.0,0.0,0.0,0.0,0.0,0.0,0.405,0.0,0.0,0.0,0.0,0.0,0.0,0.5162371550224252,0.0,0.0,0.0,0.0,0.0,0.0,-40.976,0.0,0.0,0.0,0.0,0.0
102,0.0,0.414935546875,0.0,0.0,0.0,0.0,0.0,0.0,0.405,0.0,0.0,0.0,0.0,0.0,0.0,0.5099410207223875,0.0,0.0,0.0,0.0,0.0,0.0,-40.868,0.0,0.0,0.0,0.0,0.0
103,0.0,0.41894921875,0.0,0.0,0.0,0.0,0.0,0.0,0.404,0.0,0.0,0.0,0.0,0.0,0.0,0.503638894782886,0.0,0.0,0.0,0.0,0.0,0.0,-40.6,0.0,0.0,0.0,0.0,0.0
104,0.0,0.42296875,0.0,0.0,0.0,0.0,0.0,0.0,0.4,0.0,0.0,0.0,0.0,0.0,0.0,0.49702041433553146,0.0,0.0,0.0,0.0,0.0,0.0,-40.6,0.0,0.0,0.0,0.0,0.0
105,0.0,0.426982421875,0.0,0.0,0.0,0.0,0.0,0.0,0.401,0.0,0.0,0.0,0.0,0.0,0.0,0.49018670658769187,0.0,0.0,0.0,0.0,0.0,0.0,-40.868,0.0,0.0,0.0,0.0,0.0
106,0.0,0.430892578125,0.0,0.0,0.0,0.0,0.0,0.0,0.401,0.0,0.0,0.0,0.0,0.0,0.0,0.4831933675891416,0.0,0.0,0.0,0.0,0.0,0.0,-41.084,0.0,0.0,0.0,0.0,0.0
107,0.0,0.43892578125,0.0,0.0,0.0,0.0,0.0,0.0,0.403,0.0,0.0,0.0,0.0,0.0,0.0,0.47341008138741747,0.0,0.0,0.0,0.0,0.0,0.0,-40.708,0.0,0.0,0.0,0.0,0.0
108,0.0,0.43892578125,0.0,0.0,0.0,0.0,0.0,0.0,0.403,0.0,0.0,0.0,0.0,0.0,0.0,0.46857650262235706,0.0,0.0,0.0,0.0,0.0,0.0,-40.708,0.0,0.0,0.0,0.0,0.0
109,0.0,0.4429521484375,0.0,0.0,0.0,0.0,0.0,0.0,0.401,0.0,0.0,0.0,0.0,0.0,0.0,0.46095537303213063,0.0,0.0,0.0,0.0,0.0,0.0,-40.112,0.0,0.0,0.0,0.0,0.0
110,0.0,0.4469658203125,0.0,0.0,0.0,0.0,0.0,0.0,0.405,0.0,0.0,0.0,0.0,0.0,0.0,0.4532125962396316,0.0,0.0,0.0,0.0,0.0,0.0,-39.844,0.0,0.0,0.0,0.0,0.0
111,0.0,0.4508759765625,0.0,0.0,0.0,0.0,0.0,0.0,0.398,0.0,0.0,0.0,0.0,0.0,0.0,0.4452329911548823,0.0,0.0,0.0,0.0,0.0,0.0,-40.004,0.0,0.0,0.0,0.0,0.0
112,0.0,0.454896484375,0.0,0.0,0.0,0.0,0.0,0.0,0.397,0.0,0.0,0.0,0.0,0.0,0.0,0.4371490266087988,0.0,0.0,0.0,0.0,0.0,0.0,-40.06,0.0,0.0,0.0,0.0,0.0
113,0.0,0.458806640625,0.0,0.0,0.0,0.0,0.0,0.0,0.401,0.0,0.0,0.0,0.0,0.0,0.0,0.42881823625642296,0.0,0.0,0.0,0.0,0.0,0.0,-40.492,0.0,0.0,0.0,0.0,0.0
114,0.0,0.46189453125,0.0,0.0,0.0,0.0,0.0,0.0,0.37,0.0,0.0,0.0,0.0,0.0,0.0,0.419334215691495,0.0,0.0,0.0,0.0,0.0,0.0,-48.372,0.0,0.0,0.0,0.0,0.0
115,0.0,0.4633349609375,0.0,0.0,0.0,0.0,0.0,0.0,0.24,0.0,0.0,0.0,0.0,0.0,0.0,0.41168622443561853,0.0,0.0,0.0,0.0,0.0,0.0,-61.168,0.0,0.0,0.0,0.0,0.0
116,0.0,0.463849609375,0.0,0.0,0.0,0.0,0.0,0.0,0.105,0.0,0.0,0.0,0.0,0.0,0.0,0.4028910009119285,0.0,0.0,0.0,0.0,0.0,0.0,-68.78,0.0,0.0,0.0,0.0,0.0
117,0.0,0.46312890625,0.0,0.0,0.0,0.0,0.0,0.0,0.005,0.0,0.0,0.0,0.0,0.0,0.0,0.39380744095176295,0.0,0.0,0.0,0.0,0.0,0.0,-72.724,0.0,0.0,0.0,0.0,0.0
118,0.0,0.462099609375,0.0,0.0,0.0,0.0,0.0,0.0,-0.092,0.0,0.0,0.0,0.0,0.0,0.0,0.3847585411679866,0.0,0.0,0.0,0.0,0.0,0.0,-72.884,0.0,0.0,0.0,0.0,0.0
119,0.0,0.460556640625,0.0,0.0,0.0,0.0,0.0,0.0,-0.122,0.0,0.0,0.0,0.0,0.0,0.0,0.37546232263001883,0.0,0.0,0.0,0.0,0.0,0.0,-74.828,0.0,0.0,0.0,0.0,0.0
120,0.0,0.45746875,0.0,0.0,0.0,0.0,0.0,0.0,-0.216,0.0,0.0,0.0,0.0,0.0,0.0,0.3660123636801307,0.0,0.0,0.0,0.0,0.0,0.0,-74.72,0.0,0.0,0.0,0.0,0.0
121,0.0,0.453140625,0.0,0.0,0.0,0.0,0.0,0.0,-0.364,0.0,0.0,0.0,0.0,0.0,0.0,0.3564429176059706,0.0,0.0,0.0,0.0,0.0,0.0,-71.644,0.0,0.0,0.0,0.0,0.0
122,0.0,0.4479951171875,0.0,0.0,0.0,0.0,0.0,0.0,-0.466,0.0,0.0,0.0,0.0,0.0,0.0,0.34674478835756567,0.0,0.0,0.0,0.0,0.0,0.0,-65.92,0.0,0.0,0.0,0.0,0.0
123,0.0,0.4426376953125,0.0,0.0,0.0,0.0,0.0,0.0,-0.529,0.0,0.0,0.0,0.0,0.0,0.0,0.3368608629024286,0.0,0.0,0.0,0.0,0.0,0.0,-60.52,0.0,0.0,0.0,0.0,0.0
124,0.0,0.4377939453125,0.0,0.0,0.0,0.0,0.0,0.0,-0.526,0.0,0.0,0.0,0.0,0.0,0.0,0.326905177886117,0.0,0.0,0.0,0.0,0.0,0.0,-56.58,0.0,0.0,0.0,0.0,0.0
125,0.0,0.4328544921875,0.0,0.0,0.0,0.0,0.0,0.0,-0.488,0.0,0.0,0.0,0.0,0.0,0.0,0.31677607074638625,0.0,0.0,0.0,0.0,0.0,0.0,-53.448,0.0,0.0,0.0,0.0,0.0
126,0.0,0.4271884765625,0.0,0.0,0.0,0.0,0.0,0.0,-0.523,0.0,0.0,0.0,0.0,0.0,0.0,0.3064830699666974,0.0,0.0,0.0,0.0,0.0,0.0,-49.616,0.0,0.0,0.0,0.0,0.0
127,0.0,0.4212197265625,0.0,0.0,0.0,0.0,0.0,0.0,-0.585,0.0,0.0,0.0,0.0,0.0,0.0,0.296130002481579,0.0,0.0,0.0,0.0,0.0,0.0,-46.212,0.0,0.0,0.0,0.0,0.0
128,0.0,0.4151416015625,0.0,0.0,0.0,0.0,0.0,0.0,-0.608,0.0,0.0,0.0,0.0,0.0,0.0,0.285660286722453,0.0,0.0,0.0,0.0,0.0,0.0,-43.784,0.0,0.0,0.0,0.0,0.0
129,0.0,0.4091728515625,0.0,0.0,0.0,0.0,0.0,0.0,-0.615,0.0,0.0,0.0,0.0,0.0,0.0,0.274989135951518,0.0,0.0,0.0,0.0,0.0,0.0,-42.056,0.0,0.0,0.0,0.0,0.0
130,0.0,0.4037119140625,0.0,0.0,0.0,0.0,0.0,0.0,-0.574,0.0,0.0,0.0,0.0,0.0,0.0,0.2643631332253814,0.0,0.0,0.0,0.0,0.0,0.0,-41.732,0.0,0.0,0.0,0.0,0.0
131,0.0,0.3978466796875,0.0,0.0,0.0,0.0,0.0,0.0,-0.563,0.0,0.0,0.0,0.0,0.0,0.0,0.25355828612714154,0.0,0.0,0.0,0.0,0.0,0.0,-42.436,0.0,0.0,0.0,0.0,0.0
132,0.0,0.3915625,0.0,0.0,0.0,0.0,0.0,0.0,-0.605,0.0,0.0,0.0,0.0,0.0,0.0,0.24226454364384126,0.0,0.0,0.0,0.0,0.0,0.0,-44.216,0.0,0.0,0.0,0.0,0.0
133,0.0,0.3849697265625,0.0,0.0,0.0,0.0,0.0,0.0,-0.64,0.0,0.0,0.0,0.0,0.0,0.0,0.231564268164125,0.0,0.0,0.0,0.0,0.0,0.0,-45.512,0.0,0.0,0.0,0.0,0.0
134,0.0,0.3783837890625,0.0,0.0,0.0,0.0,0.0,0.0,-0.676,0.0,0.0,0.0,0.0,0.0,0.0,0.22043272164829347,0.0,0.0,0.0,0.0,0.0,0.0,-41.084,0.0,0.0,0.0,0.0,0.0
135,0.0,0.3726142578125,0.0,0.0,0.0,0.0,0.0,0.0,-0.624,0.0,0.0,0.0,0.0,0.0,0.0,0.2091778975251328,0.0,0.0,0.0,0.0,0.0,0.0,-37.468,0.0,0.0,0.0,0.0,0.0
136,0.0,0.36654296875,0.0,0.0,0.0,0.0,0.0,0.0,-0.593,0.0,0.0,0.0,0.0,0.0,0.0,0.19794290549913032,0.0,0.0,0.0,0.0,0.0,0.0,-39.572,0.0,0.0,0.0,0.0,0.0
137,0.0,0.3602587890625,0.0,0.0,0.0,0.0,0.0,0.0,-0.625,0.0,0.0,0.0,0.0,0.0,0.0,0.1855605482611263,0.0,0.0,0.0,0.0,0.0,0.0,-40.708,0.0,0.0,0.0,0.0,0.0
138,0.0,0.3544892578125,0.0,0.0,0.0,0.0,0.0,0.0,-0.612,0.0,0.0,0.0,0.0,0.0,0.0,0.17506779834184907,0.0,0.0,0.0,0.0,0.0,0.0,-35.36,0.0,0.0,0.0,0.0,0.0
139,0.0,0.3485146484375,0.0,0.0,0.0,0.0,0.0,0.0,-0.586,0.0,0.0,0.0,0.0,0.0,0.0,0.16362482636342807,0.0,0.0,0.0,0.0,0.0,0.0,-30.664,0.0,0.0,0.0,0.0,0.0
140,0.0,0.3430537109375,0.0,0.0,0.0,0.0,0.0,0.0,-0.583,0.0,0.0,0.0,0.0,0.0,0.0,0.15209892182214937,0.0,0.0,0.0,0.0,0.0,0.0,-31.528,0.0,0.0,0.0,0.0,0.0
141,0.0,0.33801171875,0.0,0.0,0.0,0.0,0.0,0.0,-0.532,0.0,0.0,0.0,0.0,0.0,0.0,0.14031299814331905,0.0,0.0,0.0,0.0,0.0,0.0,-34.712,0.0,0.0,0.0,0.0,0.0
142,0.0,0.332962890625,0.0,0.0,0.0,0.0,0.0,0.0,-0.51,0.0,0.0,0.0,0.0,0.0,0.0,0.1286724012361957,0.0,0.0,0.0,0.0,0.0,0.0,-33.2,0.0,0.0,0.0,0.0,0.0
143,0.0,0.32833203125,0.0,0.0,0.0,0.0,0.0,0.0,-0.492,0.0,0.0,0.0,0.0,0.0,0.0,0.11690784974037495,0.0,0.0,0.0,0.0,0.0,0.0,-29.748,0.0,0.0,0.0,0.0,0.0
144,0.0,0.3238037109375,0.0,0.0,0.0,0.0,0.0,0.0,-0.455,0.0,0.0,0.0,0.0,0.0,0.0,0.10512596341945306,0.0,0.0,0.0,0.0,0.0,0.0,-31.26,0.0,0.0,0.0,0.0,0.0
145,0.0,0.3190634765625,0.0,0.0,0.0,0.0,0.0,0.0,-0.469,0.0,0.0,0.0,0.0,0.0,0.0,0.09330888727074806,0.0,0.0,0.0,0.0,0.0,0.0,-35.308,0.0,0.0,0.0,0.0,0.0
146,0.0,0.314947265625,0.0,0.0,0.0,0.0,0.0,0.0,-0.456,0.0,0.0,0.0,0.0,0.0,0.0,0.0814976838667326,0.0,0.0,0.0,0.0,0.0,0.0,-36.656,0.0,0.0,0.0,0.0,0.0
147,0.0,0.3110302734375,0.0,0.0,0.0,0.0,0.0,0.0,-0.406,0.0,0.0,0.0,0.0,0.0,0.0,0.06949450948226821,0.0,0.0,0.0,0.0,0.0,0.0,-32.824,0.0,0.0,0.0,0.0,0.0
148,0.0,0.3073251953125,0.0,0.0,0.0,0.0,0.0,0.0,-0.39,0.0,0.0,0.0,0.0,0.0,0.0,0.057494116840969375,0.0,0.0,0.0,0.0,0.0,0.0,-32.552,0.0,0.0,0.0,0.0,0.0
149,0.0,0.303826171875,0.0,0.0,0.0,0.0,0.0,0.0,-0.363,0.0,0.0,0.0,0.0,0.0,0.0,0.04546076503375261,0.0,0.0,0.0,0.0,0.0,0.0,-35.092,0.0,0.0,0.0,0.0,0.0
150,0.0,0.3002177734375,0.0,0.0,0.0,0.0,0.0,0.0,-0.354,0.0,0.0,0.0,0.0,0.0,0.0,0.0330102055519135,0.0,0.0,0.0,0.0,0.0,0.0,-39.14,0.0,0.0,0.0,0.0,0.0
151,0.0,0.296513671875,0.0,0.0,0.0,0.0,0.0,0.0,-0.374,0.0,0.0,0.0,0.0,0.0,0.0,0.02149264579760961,0.0,0.0,0.0,0.0,0.0,0.0,-40.004,0.0,0.0,0.0,0.0,0.0
152,0.0,0.293220703125,0.0,0.0,0.0,0.0,0.0,0.0,-0.356,0.0,0.0,0.0,0.0,0.0,0.0,0.006197242212624629,0.0,0.0,0.0,0.0,0.0,0.0,-38.332,0.0,0.0,0.0,0.0,0.0
153,0.0,0.2873486328125,0.0,0.0,0.0,0.0,0.0,0.0,-0.299,0.0,0.0,0.0,0.0,0.0,0.0,-0.009554749966976323,0.0,0.0,0.0,0.0,0.0,0.0,-40.652,0.0,0.0,0.0,0.0,0.0
154,0.0,0.2873486328125,0.0,0.0,0.0,0.0,0.0,0.0,-0.299,0.0,0.0,0.0,0.0,0.0,0.0,-0.019762283703706494,0.0,0.0,0.0,0.0,0.0,0.0,-40.652,0.0,0.0,0.0,0.0,0.0
155,0.0,0.284466796875,0.0,0.0,0.0,0.0,0.0,0.0,-0.276,0.0,0.0,0.0,0.0,0.0,0.0,-0.02642949581638806,0.0,0.0,0.0,0.0,0.0,0.0,-42.812,0.0,0.0,0.0,0.0,0.0
156,0.0,0.2809619140625,0.0,0.0,0.0,0.0,0.0,0.0,-0.314,0.0,0.0,0.0,0.0,0.0,0.0,-0.03826071297635491,0.0,0.0,0.0,0.0,0.0,0.0,-44.268,0.0,0.0,0.0,0.0,0.0
157,0.0,0.2809619140625,0.0,0.0,0.0,0.0,0.0,0.0,-0.314,0.0,0.0,0.0,0.0,0.0,0.0,-0.05336605133395838,0.0,0.0,0.0,0.0,0.0,0.0,-44.268,0.0,0.0,0.0,0.0,0.0
158,0.0,0.2742724609375,0.0,0.0,0.0,0.0,0.0,0.0,-0.336,0.0,0.0,0.0,0.0,0.0,0.0,-0.06312236633637243,0.0,0.0,0.0,0.0,0.0,0.0,-44.54,0.0,0.0,0.0,0.0,0.0
159,0.0,0.27128125,0.0,0.0,0.0,0.0,0.0,0.0,-0.324,0.0,0.0,0.0,0.0,0.0,0.0,-0.07429120148069343,0.0,0.0,0.0,0.0,0.0,0.0,-44.54,0.0,0.0,0.0,0.0,0.0
160,0.0,0.2685029296875,0.0,0.0,0.0,0.0,0.0,0.0,-0.288,0.0,0.0,0.0,0.0,0.0,0.0,-0.08599915472105117,0.0,0.0,0.0,0.0,0.0,0.0,-45.728,0.0,0.0,0.0,0.0,0.0
161,0.0,0.265107421875,0.0,0.0,0.0,0.0,0.0,0.0,-0.307,0.0,0.0,0.0,0.0,0.0,0.0,-0.09803959125580833,0.0,0.0,0.0,0.0,0.0,0.0,-46.536,0.0,0.0,0.0,0.0,0.0
162,0.0,0.2614990234375,0.0,0.0,0.0,0.0,0.0,0.0,-0.355,0.0,0.0,0.0,0.0,0.0,0.0,-0.10994621988908096,0.0,0.0,0.0,0.0,0.0,0.0,-45.836,0.0,0.0,0.0,0.0,0.0
163,0.0,0.2614990234375,0.0,0.0,0.0,0.0,0.0,0.0,-0.355,0.0,0.0,0.0,0.0,0.0,0.0,-0.12218694067574132,0.0,0.0,0.0,0.0,0.0,0.0,-45.836,0.0,0.0,0.0,0.0,0.0
164,0.0,0.253986328125,0.0,0.0,0.0,0.0,0.0,0.0,-0.381,0.0,0.0,0.0,0.0,0.0,0.0,-0.13389490877091714,0.0,0.0,0.0,0.0,0.0,0.0,-45.944,0.0,0.0,0.0,0.0,0.0
165,0.0,0.250583984375,0.0,0.0,0.0,0.0,0.0,0.0,-0.356,0.0,0.0,0.0,0.0,0.0,0.0,-0.14487323511734163,0.0,0.0,0.0,0.0,0.0,0.0,-46.644,0.0,0.0,0.0,0.0,0.0
166,0.0,0.243380859375,0.0,0.0,0.0,0.0,0.0,0.0,-0.362,0.0,0.0,0.0,0.0,0.0,0.0,-0.16250845052457494,0.0,0.0,0.0,0.0,0.0,0.0,-46.536,0.0,0.0,0.0,0.0,0.0
167,0.0,0.2393603515625,0.0,0.0,0.0,0.0,0.0,0.0,-0.389,0.0,0.0,0.0,0.0,0.0,0.0,-0.17294918718284635,0.0,0.0,0.0,0.0,0.0,0.0,-45.672,0.0,0.0,0.0,0.0,0.0
168,0.0,0.2393603515625,0.0,0.0,0.0,0.0,0.0,0.0,-0.389,0.0,0.0,0.0,0.0,0.0,0.0,-0.1796191967177798,0.0,0.0,0.0,0.0,0.0,0.0,-45.672,0.0,0.0,0.0,0.0,0.0
169,0.0,0.231224609375,0.0,0.0,0.0,0.0,0.0,0.0,-0.417,0.0,0.0,0.0,0.0,0.0,0.0,-0.1959788447944805,0.0,0.0,0.0,0.0,0.0,0.0,-45.888,0.0,0.0,0.0,0.0,0.0
170,0.0,0.231224609375,0.0,0.0,0.0,0.0,0.0,0.0,-0.417,0.0,0.0,0.0,0.0,0.0,0.0,-0.20533455147422813,0.0,0.0,0.0,0.0,0.0,0.0,-45.888,0.0,0.0,0.0,0.0,0.0
171,0.0,0.2272109375,0.0,0.0,0.0,0.0,0.0,0.0,-0.402,0.0,0.0,0.0,0.0,0.0,0.0,-0.21393469512993343,0.0,0.0,0.0,0.0,0.0,0.0,-46.16,0.0,0.0,0.0,0.0,0.0
172,0.0,0.2272109375,0.0,0.0,0.0,0.0,0.0,0.0,-0.402,0.0,0.0,0.0,0.0,0.0,0.0,-0.22470987249665894,0.0,0.0,0.0,0.0,0.0,0.0,-46.16,0.0,0.0,0.0,0.0,0.0
173,0.0,0.219177734375,0.0,0.0,0.0,0.0,0.0,0.0,-0.403,0.0,0.0,0.0,0.0,0.0,0.0,-0.23593866765683452,0.0,0.0,0.0,0.0,0.0,0.0,-45.24,0.0,0.0,0.0,0.0,0.0
174,0.0,0.2149580078125,0.0,0.0,0.0,0.0,0.0,0.0,-0.417,0.0,0.0,0.0,0.0,0.0,0.0,-0.2468551711850656,0.0,0.0,0.0,0.0,0.0,0.0,-44.7,0.0,0.0,0.0,0.0,0.0
175,0.0,0.21052734375,0.0,0.0,0.0,0.0,0.0,0.0,-0.437,0.0,0.0,0.0,0.0,0.0,0.0,-0.25766978275440205,0.0,0.0,0.0,0.0,0.0,0.0,-44.268,0.0,0.0,0.0,0.0,0.0
176,0.0,0.2017734375,0.0,0.0,0.0,0.0,0.0,0.0,-0.444,0.0,0.0,0.0,0.0,0.0,0.0,-0.27932324467630293,0.0,0.0,0.0,0.0,0.0,0.0,-43.46,0.0,0.0,0.0,0.0,0.0
177,0.0,0.2017734375,0.0,0.0,0.0,0.0,0.0,0.0,-0.444,0.0,0.0,0.0,0.0,0.0,0.0,-0.28526151820022844,0.0,0.0,0.0,0.0,0.0,0.0,-43.46,0.0,0.0,0.0,0.0,0.0
178,0.0,0.2017734375,0.0,0.0,0.0,0.0,0.0,0.0,-0.444,0.0,0.0,0.0,0.0,0.0,0.0,-0.29115414935867956,0.0,0.0,0.0,0.0,0.0,0.0,-43.46,0.0,0.0,0.0,0.0,0.0
179,0.0,0.2017734375,0.0,0.0,0.0,0.0,0.0,0.0,-0.444,0.0,0.0,0.0,0.0,0.0,0.0,-0.30018319968819096,0.0,0.0,0.0,0.0,0.0,0.0,-43.46,0.0,0.0,0.0,0.0,0.0
180,0.0,0.1893154296875,0.0,0.0,0.0,0.0,0.0,0.0,-0.421,0.0,0.0,0.0,0.0,0.0,0.0,-0.31260049787272587,0.0,0.0,0.0,0.0,0.0,0.0,-42.704,0.0,0.0,0.0,0.0,0.0
181,0.0,0.18035546875,0.0,0.0,0.0,0.0,0.0,0.0,-0.449,0.0,0.0,0.0,0.0,0.0,0.0,-0.32523923980600333,0.0,0.0,0.0,0.0,0.0,0.0,-42.76,0.0,0.0,0.0,0.0,0.0
182,0.0,0.18035546875,0.0,0.0,0.0,0.0,0.0,0.0,-0.449,0.0,0.0,0.0,0.0,0.0,0.0,-0.33097410696316093,0.0,0.0,0.0,0.0,0.0,0.0,-42.76,0.0,0.0,0.0,0.0,0.0
183,0.0,0.1762392578125,0.0,0.0,0.0,0.0,0.0,0.0,-0.439,0.0,0.0,0.0,0.0,0.0,0.0,-0.3406062250983484,0.0,0.0,0.0,0.0,0.0,0.0,-42.38,0.0,0.0,0.0,0.0,0.0
184,0.0,0.1722197265625,0.0,0.0,0.0,0.0,0.0,0.0,-0.411,0.0,0.0,0.0,0.0,0.0,0.0,-0.3504981975504465,0.0,0.0,0.0,0.0,0.0,0.0,-42.596,0.0,0.0,0.0,0.0,0.0
185,0.0,0.168412109375,0.0,0.0,0.0,0.0,0.0,0.0,-0.394,0.0,0.0,0.0,0.0,0.0,0.0,-0.36110112672280636,0.0,0.0,0.0,0.0,0.0,0.0,-43.136,0.0,0.0,0.0,0.0,0.0
186,0.0,0.1643916015625,0.0,0.0,0.0,0.0,0.0,0.0,-0.392,0.0,0.0,0.0,0.0,0.0,0.0,-0.3696454634403038,0.0,0.0,0.0,0.0,0.0,0.0,-43.352,0.0,0.0,0.0,0.0,0.0
187,0.0,0.1600693359375,0.0,0.0,0.0,0.0,0.0,0.0,-0.422,0.0,0.0,0.0,0.0,0.0,0.0,-0.38101596597391024,0.0,0.0,0.0,0.0,0.0,0.0,-43.46,0.0,0.0,0.0,0.0,0.0
188,0.0,0.1557412109375,0.0,0.0,0.0,0.0,0.0,0.0,-0.434,0.0,0.0,0.0,0.0,0.0,0.0,-0.3887046950487392,0.0,0.0,0.0,0.0,0.0,0.0,-43.084,0.0,0.0,0.0,0.0,0.0
189,0.0,0.1517275390625,0.0,0.0,0.0,0.0,0.0,0.0,-0.422,0.0,0.0,0.0,0.0,0.0,0.0,-0.39739566466632753,0.0,0.0,0.0,0.0,0.0,0.0,-42.812,0.0,0.0,0.0,0.0,0.0
190,0.0,0.1480224609375,0.0,0.0,0.0,0.0,0.0,0.0,-0.39,0.0,0.0,0.0,0.0,0.0,0.0,-0.4061914214581674,0.0,0.0,0.0,0.0,0.0,0.0,-43.136,0.0,0.0,0.0,0.0,0.0
191,0.0,0.1443115234375,0.0,0.0,0.0,0.0,0.0,0.0,-0.372,0.0,0.0,0.0,0.0,0.0,0.0,-0.41515992403868013,0.0,0.0,0.0,0.0,0.0,0.0,-43.46,0.0,0.0,0.0,0.0,0.0
192,0.0,0.14039453125,0.0,0.0,0.0,0.0,0.0,0.0,-0.382,0.0,0.0,0.0,0.0,0.0,0.0,-0.4235291386007006,0.0,0.0,0.0,0.0,0.0,0.0,-43.676,0.0,0.0,0.0,0.0,0.0
193,0.0,0.1361689453125,0.0,0.0,0.0,0.0,0.0,0.0,-0.413,0.0,0.0,0.0,0.0,0.0,0.0,-0.43193785825488845,0.0,0.0,0.0,0.0,0.0,0.0,-43.784,0.0,0.0,0.0,0.0,0.0
194,0.0,0.132052734375,0.0,0.0,0.0,0.0,0.0,0.0,-0.428,0.0,0.0,0.0,0.0,0.0,0.0,-0.44028194503178736,0.0,0.0,0.0,0.0,0.0,0.0,-43.404,0.0,0.0,0.0,0.0,0.0
195,0.0,0.1281357421875,0.0,0.0,0.0,0.0,0.0,0.0,-0.406,0.0,0.0,0.0,0.0,0.0,0.0,-0.4482466138041044,0.0,0.0,0.0,0.0,0.0,0.0,-43.404,0.0,0.0,0.0,0.0,0.0
196,0.0,0.1244306640625,0.0,0.0,0.0,0.0,0.0,0.0,-0.383,0.0,0.0,0.0,0.0,0.0,0.0,-0.4566070862301557,0.0,0.0,0.0,0.0,0.0,0.0,-44.108,0.0,0.0,0.0,0.0,0.0
197,0.0,0.117015625,0.0,0.0,0.0,0.0,0.0,0.0,-0.375,0.0,0.0,0.0,0.0,0.0,0.0,-0.47058668803390424,0.0,0.0,0.0,0.0,0.0,0.0,-44.592,0.0,0.0,0.0,0.0,0.0
198,0.0,0.1127958984375,0.0,0.0,0.0,0.0,0.0,0.0,-0.409,0.0,0.0,0.0,0.0,0.0,0.0,-0.4746666195895866,0.0,0.0,0.0,0.0,0.0,0.0,-44.484,0.0,0.0,0.0,0.0,0.0
199,0.0,0.1127958984375,0.0,0.0,0.0,0.0,0.0,0.0,-0.409,0.0,0.0,0.0,0.0,0.0,0.0,-0.4817010290014776,0.0,0.0,0.0,0.0,0.0,0.0,-44.484,0.0,0.0,0.0,0.0,0.0
200,0.0,0.1086728515625,0.0,0.0,0.0,0.0,0.0,0.0,-0.418,0.0,0.0,0.0,0.0,0.0,0.0,-0.486453133925506,0.0,0.0,0.0,0.0,0.0,0.0,-44.16,0.0,0.0,0.0,0.0,0.0
201,0.0,0.1047626953125,0.0,0.0,0.0,0.0,0.0,0.0,-0.409,0.0,0.0,0.0,0.0,0.0,0.0,-0.4929884447580558,0.0,0.0,0.0,0.0,0.0,0.0,-44.216,0.0,0.0,0.0,0.0,0.0
202,0.0,0.1011611328125,0.0,0.0,0.0,0.0,0.0,0.0,-0.381,0.0,0.0,0.0,0.0,0.0,0.0,-0.4997027377629475,0.0,0.0,0.0,0.0,0.0,0.0,-44.592,0.0,0.0,0.0,0.0,0.0
203,0.0,0.1011611328125,0.0,0.0,0.0,0.0,0.0,0.0,-0.381,0.0,0.0,0.0,0.0,0.0,0.0,-0.5062116895940155,0.0,0.0,0.0,0.0,0.0,0.0,-44.592,0.0,0.0,0.0,0.0,0.0
204,0.0,0.0935458984375,0.0,0.0,0.0,0.0,0.0,0.0,-0.379,0.0,0.0,0.0,0.0,0.0,0.0,-0.5134612976169625,0.0,0.0,0.0,0.0,0.0,0.0,-44.648,0.0,0.0,0.0,0.0,0.0
205,0.0,0.0893203125,0.0,0.0,0.0,0.0,0.0,0.0,-0.411,0.0,0.0,0.0,0.0,0.0,0.0,-0.5187194766731217,0.0,0.0,0.0,0.0,0.0,0.0,-44.592,0.0,0.0,0.0,0.0,0.0
206,0.0,0.08118359375,0.0,0.0,0.0,0.0,0.0,0.0,-0.415,0.0,0.0,0.0,0.0,0.0,0.0,-0.5275705461588913,0.0,0.0,0.0,0.0,0.0,0.0,-44.376,0.0,0.0,0.0,0.0,0.0
207,0.0,0.08118359375,0.0,0.0,0.0,0.0,0.0,0.0,-0.415,0.0,0.0,0.0,0.0,0.0,0.0,-0.5314678199137257,0.0,0.0,0.0,0.0,0.0,0.0,-44.376,0.0,0.0,0.0,0.0,0.0
208,0.0,0.0774794921875,0.0,0.0,0.0,0.0,0.0,0.0,-0.386,0.0,0.0,0.0,0.0,0.0,0.0,-0.5358549648075777,0.0,0.0,0.0,0.0,0.0,0.0,-44.808,0.0,0.0,0.0,0.0,0.0
209,0.0,0.069857421875,0.0,0.0,0.0,0.0,0.0,0.0,-0.381,0.0,0.0,0.0,0.0,0.0,0.0,-0.5465348041648659,0.0,0.0,0.0,0.0,0.0,0.0,-44.756,0.0,0.0,0.0,0.0,0.0
210,0.0,0.06553515625,0.0,0.0,0.0,0.0,0.0,0.0,-0.412,0.0,0.0,0.0,0.0,0.0,0.0,-0.5500054442593302,0.0,0.0,0.0,0.0,0.0,0.0,-44.808,0.0,0.0,0.0,0.0,0.0
211,0.0,0.0572958984375,0.0,0.0,0.0,0.0,0.0,0.0,-0.419,0.0,0.0,0.0,0.0,0.0,0.0,-0.5591084312423147,0.0,0.0,0.0,0.0,0.0,0.0,-44.376,0.0,0.0,0.0,0.0,0.0
212,0.0,0.053482421875,0.0,0.0,0.0,0.0,0.0,0.0,-0.398,0.0,0.0,0.0,0.0,0.0,0.0,-0.5625480035086906,0.0,0.0,0.0,0.0,0.0,0.0,-44.54,0.0,0.0,0.0,0.0,0.0
213,0.0,0.0458603515625,0.0,0.0,0.0,0.0,0.0,0.0,-0.38,0.0,0.0,0.0,0.0,0.0,0.0,-0.5723227223134251,0.0,0.0,0.0,0.0,0.0,0.0,-44.324,0.0,0.0,0.0,0.0,0.0
214,0.0,0.0415380859375,0.0,0.0,0.0,0.0,0.0,0.0,-0.414,0.0,0.0,0.0,0.0,0.0,0.0,-0.5755468654553214,0.0,0.0,0.0,0.0,0.0,0.0,-44.484,0.0,0.0,0.0,0.0,0.0
215,0.0,0.0293818359375,0.0,0.0,0.0,0.0,0.0,0.0,-0.396,0.0,0.0,0.0,0.0,0.0,0.0,-0.5827538197247562,0.0,0.0,0.0,0.0,0.0,0.0,-44.376,0.0,0.0,0.0,0.0,0.0
216,0.0,0.0293818359375,0.0,0.0,0.0,0.0,0.0,0.0,-0.396,0.0,0.0,0.0,0.0,0.0,0.0,-0.5848819037765545,0.0,0.0,0.0,0.0,0.0,0.0,-44.376,0.0,0.0,0.0,0.0,0.0
217,0.0,0.017541015625,0.0,0.0,0.0,0.0,0.0,0.0,-0.41,0.0,0.0,0.0,0.0,0.0,0.0,-0.5907032786002493,0.0,0.0,0.0,0.0,0.0,0.0,-44.808,0.0,0.0,0.0,0.0,0.0
218,0.0,0.01321875,0.0,0.0,0.0,0.0,0.0,0.0,-0.433,0.0,0.0,0.0,0.0,0.0,0.0,-0.5934001176144504,0.0,0.0,0.0,0.0,0.0,0.0,-44.592,0.0,0.0,0.0,0.0,0.0
219,0.0,0.0090966796875,0.0,0.0,0.0,0.0,0.0,0.0,-0.426,0.0,0.0,0.0,0.0,0.0,0.0,-0.5943018811615008,0.0,0.0,0.0,0.0,0.0,0.0,-44.216,0.0,0.0,0.0,0.0,0.0
220,0.0,0.0053916015625,0.0,0.0,0.0,0.0,0.0,0.0,-0.399,0.0,0.0,0.0,0.0,0.0,0.0,-0.5958084565158943,0.0,0.0,0.0,0.0,0.0,0.0,-44.324,0.0,0.0,0.0,0.0,0.0
221,0.0,0.0053916015625,0.0,0.0,0.0,0.0,0.0,0.0,-0.399,0.0,0.0,0.0,0.0,0.0,0.0,-0.5967856523575803,0.0,0.0,0.0,0.0,0.0,0.0,-44.324,0.0,0.0,0.0,0.0,0.0
222,0.0,0.001783203125,0.0,0.0,0.0,0.0,0.0,0.0,-0.371,0.0,0.0,0.0,0.0,0.0,0.0,-0.5979873146025042,0.0,0.0,0.0,0.0,0.0,0.0,-44.268,0.0,0.0,0.0,0.0,0.0
223,0.0,-0.002126953125,0.0,0.0,0.0,0.0,0.0,0.0,-0.374,0.0,0.0,0.0,0.0,0.0,0.0,-0.5987156215562627,0.0,0.0,0.0,0.0,0.0,0.0,-44.324,0.0,0.0,0.0,0.0,0.0
224,0.0,-0.0064560546875,0.0,0.0,0.0,0.0,0.0,0.0,-0.41,0.0,0.0,0.0,0.0,0.0,0.0,-0.5994003751344564,0.0,0.0,0.0,0.0,0.0,0.0,-44.592,0.0,0.0,0.0,0.0,0.0
225,0.0,-0.0107783203125,0.0,0.0,0.0,0.0,0.0,0.0,-0.435,0.0,0.0,0.0,0.0,0.0,0.0,-0.5998123726044068,0.0,0.0,0.0,0.0,0.0,0.0,-44.268,0.0,0.0,0.0,0.0,0.0
226,0.0,-0.0147978515625,0.0,0.0,0.0,0.0,0.0,0.0,-0.427,0.0,0.0,0.0,0.0,0.0,0.0,-0.5999909680258549,0.0,0.0,0.0,0.0,0.0,0.0,-44.108,0.0,0.0,0.0,0.0,0.0
227,0.0,-0.01860546875,0.0,0.0,0.0,0.0,0.0,0.0,-0.396,0.0,0.0,0.0,0.0,0.0,0.0,-0.5999333365774496,0.0,0.0,0.0,0.0,0.0,0.0,-44.324,0.0,0.0,0.0,0.0,0.0
228,0.0,-0.02220703125,0.0,0.0,0.0,0.0,0.0,0.0,-0.37,0.0,0.0,0.0,0.0,0.0,0.0,-0.5996094940638952,0.0,0.0,0.0,0.0,0.0,0.0,-44.376,0.0,0.0,0.0,0.0,0.0
229,0.0,-0.0261240234375,0.0,0.0,0.0,0.0,0.0,0.0,-0.374,0.0,0.0,0.0,0.0,0.0,0.0,-0.5991077385899027,0.0,0.0,0.0,0.0,0.0,0.0,-44.7,0.0,0.0,0.0,0.0,0.0
230,0.0,-0.03034375,0.0,0.0,0.0,0.0,0.0,0.0,-0.41,0.0,0.0,0.0,0.0,0.0,0.0,-0.5983380748886037,0.0,0.0,0.0,0.0,0.0,0.0,-44.808,0.0,0.0,0.0,0.0,0.0
231,0.0,-0.034671875,0.0,0.0,0.0,0.0,0.0,0.0,-0.432,0.0,0.0,0.0,0.0,0.0,0.0,-0.5973235616701525,0.0,0.0,0.0,0.0,0.0,0.0,-44.324,0.0,0.0,0.0,0.0,0.0
232,0.0,-0.038685546875,0.0,0.0,0.0,0.0,0.0,0.0,-0.425,0.0,0.0,0.0,0.0,0.0,0.0,-0.596068568026026,0.0,0.0,0.0,0.0,0.0,0.0,-44.108,0.0,0.0,0.0,0.0,0.0
233,0.0,-0.042396484375,0.0,0.0,0.0,0.0,0.0,0.0,-0.394,0.0,0.0,0.0,0.0,0.0,0.0,-0.5945839370178766,0.0,0.0,0.0,0.0,0.0,0.0,-44.376,0.0,0.0,0.0,0.0,0.0
234,0.0,-0.045998046875,0.0,0.0,0.0,0.0,0.0,0.0,-0.369,0.0,0.0,0.0,0.0,0.0,0.0,-0.5928527163076744,0.0,0.0,0.0,0.0,0.0,0.0,-44.324,0.0,0.0,0.0,0.0,0.0
235,0.0,-0.0499150390625,0.0,0.0,0.0,0.0,0.0,0.0,-0.377,0.0,0.0,0.0,0.0,0.0,0.0,-0.5908635773209734,0.0,0.0,0.0,0.0,0.0,0.0,-44.432,0.0,0.0,0.0,0.0,0.0
236,0.0,-0.0542373046875,0.0,0.0,0.0,0.0,0.0,0.0,-0.41,0.0,0.0,0.0,0.0,0.0,0.0,-0.5886888720261986,0.0,0.0,0.0,0.0,0.0,0.0,-44.592,0.0,0.0,0.0,0.0,0.0
237,0.0,-0.058462890625,0.0,0.0,0.0,0.0,0.0,0.0,-0.432,0.0,0.0,0.0,0.0,0.0,0.0,-0.5862473362040999,0.0,0.0,0.0,0.0,0.0,0.0,-44.324,0.0,0.0,0.0,0.0,0.0
238,0.0,-0.0625791015625,0.0,0.0,0.0,0.0,0.0,0.0,-0.423,0.0,0.0,0.0,0.0,0.0,0.0,-0.5834883934538309,0.0,0.0,0.0,0.0,0.0,0.0,-44.16,0.0,0.0,0.0,0.0,0.0
239,0.0,-0.066291015625,0.0,0.0,0.0,0.0,0.0,0.0,-0.394,0.0,0.0,0.0,0.0,0.0,0.0,-0.5806852569620905,0.0,0.0,0.0,0.0,0.0,0.0,-44.376,0.0,0.0,0.0,0.0,0.0
240,0.0,-0.069892578125,0.0,0.0,0.0,0.0,0.0,0.0,-0.368,0.0,0.0,0.0,0.0,0.0,0.0,-0.5775448232697544,0.0,0.0,0.0,0.0,0.0,0.0,-44.432,0.0,0.0,0.0,0.0,0.0
241,0.0,-0.073802734375,0.0,0.0,0.0,0.0,0.0,0.0,-0.376,0.0,0.0,0.0,0.0,0.0,0.0,-0.5735414476925201,0.0,0.0,0.0,0.0,0.0,0.0,-44.756,0.0,0.0,0.0,0.0,0.0
242,0.0,-0.0781318359375,0.0,0.0,0.0,0.0,0.0,0.0,-0.409,0.0,0.0,0.0,0.0,0.0,0.0,-0.570530797556488,0.0,0.0,0.0,0.0,0.0,0.0,-44.808,0.0,0.0,0.0,0.0,0.0
243,0.0,-0.0823505859375,0.0,0.0,0.0,0.0,0.0,0.0,-0.435,0.0,0.0,0.0,0.0,0.0,0.0,-0.5667422395959874,0.0,0.0,0.0,0.0,0.0,0.0,-44.324,0.0,0.0,0.0,0.0,0.0
244,0.0,-0.0864736328125,0.0,0.0,0.0,0.0,0.0,0.0,-0.422,0.0,0.0,0.0,0.0,0.0,0.0,-0.5626218900177867,0.0,0.0,0.0,0.0,0.0,0.0,-43.944,0.0,0.0,0.0,0.0,0.0
245,0.0,-0.0901787109375,0.0,0.0,0.0,0.0,0.0,0.0,-0.397,0.0,0.0,0.0,0.0,0.0,0.0,-0.5584181944855086,0.0,0.0,0.0,0.0,0.0,0.0,-44.268,0.0,0.0,0.0,0.0,0.0
246,0.0,-0.097697265625,0.0,0.0,0.0,0.0,0.0,0.0,-0.375,0.0,0.0,0.0,0.0,0.0,0.0,-0.5487323184081977,0.0,0.0,0.0,0.0,0.0,0.0,-44.16,0.0,0.0,0.0,0.0,0.0
247,0.0,-0.10201953125,0.0,0.0,0.0,0.0,0.0,0.0,-0.411,0.0,0.0,0.0,0.0,0.0,0.0,-0.5453382157286174,0.0,0.0,0.0,0.0,0.0,0.0,-44.484,0.0,0.0,0.0,0.0,0.0
248,0.0,-0.10623828125,0.0,0.0,0.0,0.0,0.0,0.0,-0.434,0.0,0.0,0.0,0.0,0.0,0.0,-0.5418272866296727,0.0,0.0,0.0,0.0,0.0,0.0,-44.052,0.0,0.0,0.0,0.0,0.0
249,0.0,-0.10623828125,0.0,0.0,0.0,0.0,0.0,0.0,-0.434,0.0,0.0,0.0,0.0,0.0,0.0,-0.5390039001332683,0.0,0.0,0.0,0.0,0.0,0.0,-44.052,0.0,0.0,0.0,0.0,0.0
250,0.0,-0.1102587890625,0.0,0.0,0.0,0.0,0.0,0.0,-0.422,0.0,0.0,0.0,0.0,0.0,0.0,-0.5337031726198931,0.0,0.0,0.0,0.0,0.0,0.0,-44.052,0.0,0.0,0.0,0.0,0.0
251,0.0,-0.11406640625,0.0,0.0,0.0,0.0,0.0,0.0,-0.398,0.0,0.0,0.0,0.0,0.0,0.0,-0.5274545303216552,0.0,0.0,0.0,0.0,0.0,0.0,-44.324,0.0,0.0,0.0,0.0,0.0
252,0.0,-0.117673828125,0.0,0.0,0.0,0.0,0.0,0.0,-0.374,0.0,0.0,0.0,0.0,0.0,0.0,-0.5222249824008289,0.0,0.0,0.0,0.0,0.0,0.0,-44.268,0.0,0.0,0.0,0.0,0.0
253,0.0,-0.117673828125,0.0,0.0,0.0,0.0,0.0,0.0,-0.374,0.0,0.0,0.0,0.0,0.0,0.0,-0.5158498200899112,0.0,0.0,0.0,0.0,0.0,0.0,-44.268,0.0,0.0,0.0,0.0,0.0
254,0.0,-0.1259130859375,0.0,0.0,0.0,0.0,0.0,0.0,-0.41,0.0,0.0,0.0,0.0,0.0,0.0,-0.5100947823904334,0.0,0.0,0.0,0.0,0.0,0.0,-44.54,0.0,0.0,0.0,0.0,0.0
255,0.0,-0.1301328125,0.0,0.0,0.0,0.0,0.0,0.0,-0.432,0.0,0.0,0.0,0.0,0.0,0.0,-0.5036905641861203,0.0,0.0,0.0,0.0,0.0,0.0,-44.052,0.0,0.0,0.0,0.0,0.0
256,0.0,-0.134255859375,0.0,0.0,0.0,0.0,0.0,0.0,-0.421,0.0,0.0,0.0,0.0,0.0,0.0,-0.4970810391680785,0.0,0.0,0.0,0.0,0.0,0.0,-43.836,0.0,0.0,0.0,0.0,0.0
257,0.0,-0.1379599609375,0.0,0.0,0.0,0.0,0.0,0.0,-0.397,0.0,0.0,0.0,0.0,0.0,0.0,-0.49023542494269334,0.0,0.0,0.0,0.0,0.0,0.0,-43.944,0.0,0.0,0.0,0.0,0.0
258,0.0,-0.1416650390625,0.0,0.0,0.0,0.0,0.0,0.0,-0.371,0.0,0.0,0.0,0.0,0.0,0.0,-0.4832256456085266,0.0,0.0,0.0,0.0,0.0,0.0,-43.784,0.0,0.0,0.0,0.0,0.0
259,0.0,-0.14558203125,0.0,0.0,0.0,0.0,0.0,0.0,-0.381,0.0,0.0,0.0,0.0,0.0,0.0,-0.47602136542805706,0.0,0.0,0.0,0.0,0.0,0.0,-43.944,0.0,0.0,0.0,0.0,0.0
260,0.0,-0.14980078125,0.0,0.0,0.0,0.0,0.0,0.0,-0.411,0.0,0.0,0.0,0.0,0.0,0.0,-0.46862390930672426,0.0,0.0,0.0,0.0,0.0,0.0,-44.16,0.0,0.0,0.0,0.0,0.0
261,0.0,-0.1540263671875,0.0,0.0,0.0,0.0,0.0,0.0,-0.43,0.0,0.0,0.0,0.0,0.0,0.0,-0.46105468036079766,0.0,0.0,0.0,0.0,0.0,0.0,-43.784,0.0,0.0,0.0,0.0,0.0
262,0.0,-0.1581435546875,0.0,0.0,0.0,0.0,0.0,0.0,-0.42,0.0,0.0,0.0,0.0,0.0,0.0,-0.4532718965299994,0.0,0.0,0.0,0.0,0.0,0.0,-43.62,0.0,0.0,0.0,0.0,0.0
263,0.0,-0.1618544921875,0.0,0.0,0.0,0.0,0.0,0.0,-0.396,0.0,0.0,0.0,0.0,0.0,0.0,-0.4453007458594941,0.0,0.0,0.0,0.0,0.0,0.0,-43.892,0.0,0.0,0.0,0.0,0.0
264,0.0,-0.16555859375,0.0,0.0,0.0,0.0,0.0,0.0,-0.37,0.0,0.0,0.0,0.0,0.0,0.0,-0.43721492839570786,0.0,0.0,0.0,0.0,0.0,0.0,-43.836,0.0,0.0,0.0,0.0,0.0
265,0.0,-0.1694755859375,0.0,0.0,0.0,0.0,0.0,0.0,-0.377,0.0,0.0,0.0,0.0,0.0,0.0,-0.42888553097206644,0.0,0.0,0.0,0.0,0.0,0.0,-44.052,0.0,0.0,0.0,0.0,0.0
266,0.0,-0.1737978515625,0.0,0.0,0.0,0.0,0.0,0.0,-0.413,0.0,0.0,0.0,0.0,0.0,0.0,-0.42027660432180275,0.0,0.0,0.0,0.0,0.0,0.0,-44.108,0.0,0.0,0.0,0.0,0.0
267,0.0,-0.1780234375,0.0,0.0,0.0,0.0,0.0,0.0,-0.431,0.0,0.0,0.0,0.0,0.0,0.0,-0.41175996237935353,0.0,0.0,0.0,0.0,0.0,0.0,-43.62,0.0,0.0,0.0,0.0,0.0
268,0.0,-0.1858515625,0.0,0.0,0.0,0.0,0.0,0.0,-0.395,0.0,0.0,0.0,0.0,0.0,0.0,-0.3982114660416262,0.0,0.0,0.0,0.0,0.0,0.0,-43.728,0.0,0.0,0.0,0.0,0.0
269,0.0,-0.189453125,0.0,0.0,0.0,0.0,0.0,0.0,-0.369,0.0,0.0,0.0,0.0,0.0,0.0,-0.391433793681845,0.0,0.0,0.0,0.0,0.0,0.0,-43.512,0.0,0.0,0.0,0.0,0.0
270,0.0,-0.189453125,0.0,0.0,0.0,0.0,0.0,0.0,-0.369,0.0,0.0,0.0,0.0,0.0,0.0,-0.3848602446337679,0.0,0.0,0.0,0.0,0.0,0.0,-43.512,0.0,0.0,0.0,0.0,0.0
271,0.0,-0.19347265625,0.0,0.0,0.0,0.0,0.0,0.0,-0.382,0.0,0.0,0.0,0.0,0.0,0.0,-0.37556369996560934,0.0,0.0,0.0,0.0,0.0,0.0,-43.62,0.0,0.0,0.0,0.0,0.0
272,0.0,-0.197685546875,0.0,0.0,0.0,0.0,0.0,0.0,-0.416,0.0,0.0,0.0,0.0,0.0,0.0,-0.366119203489744,0.0,0.0,0.0,0.0,0.0,0.0,-43.676,0.0,0.0,0.0,0.0,0.0
273,0.0,-0.2019111328125,0.0,0.0,0.0,0.0,0.0,0.0,-0.429,0.0,0.0,0.0,0.0,0.0,0.0,-0.35651548187174836,0.0,0.0,0.0,0.0,0.0,0.0,-43.404,0.0,0.0,0.0,0.0,0.0
274,0.0,-0.2059248046875,0.0,0.0,0.0,0.0,0.0,0.0,-0.417,0.0,0.0,0.0,0.0,0.0,0.0,-0.3443455976150809,0.0,0.0,0.0,0.0,0.0,0.0,-43.192,0.0,0.0,0.0,0.0,0.0
275,0.0,-0.2097392578125,0.0,0.0,0.0,0.0,0.0,0.0,-0.395,0.0,0.0,0.0,0.0,0.0,0.0,-0.3353353574470264,0.0,0.0,0.0,0.0,0.0,0.0,-43.676,0.0,0.0,0.0,0.0,0.0
276,0.0,-0.2133408203125,0.0,0.0,0.0,0.0,0.0,0.0,-0.375,0.0,0.0,0.0,0.0,0.0,0.0,-0.3269508350029678,0.0,0.0,0.0,0.0,0.0,0.0,-43.512,0.0,0.0,0.0,0.0,0.0
277,0.0,-0.2173603515625,0.0,0.0,0.0,0.0,0.0,0.0,-0.381,0.0,0.0,0.0,0.0,0.0,0.0,-0.3167865956683089,0.0,0.0,0.0,0.0,0.0,0.0,-43.62,0.0,0.0,0.0,0.0,0.0
278,0.0,-0.2216826171875,0.0,0.0,0.0,0.0,0.0,0.0,-0.414,0.0,0.0,0.0,0.0,0.0,0.0,-0.30651020315567795,0.0,0.0,0.0,0.0,0.0,0.0,-43.676,0.0,0.0,0.0,0.0,0.0
279,0.0,-0.225908203125,0.0,0.0,0.0,0.0,0.0,0.0,-0.431,0.0,0.0,0.0,0.0,0.0,0.0,-0.2962012433666833,0.0,0.0,0.0,0.0,0.0,0.0,-43.192,0.0,0.0,0.0,0.0,0.0
280,0.0,-0.2298193359375,0.0,0.0,0.0,0.0,0.0,0.0,-0.419,0.0,0.0,0.0,0.0,0.0,0.0,-0.2856973502636746,0.0,0.0,0.0,0.0,0.0,0.0,-42.976,0.0,0.0,0.0,0.0,0.0
281,0.0,-0.233626953125,0.0,0.0,0.0,0.0,0.0,0.0,-0.389,0.0,0.0,0.0,0.0,0.0,0.0,-0.2749627705208044,0.0,0.0,0.0,0.0,0.0,0.0,-43.296,0.0,0.0,0.0,0.0,0.0
282,0.0,-0.237234375,0.0,0.0,0.0,0.0,0.0,0.0,-0.371,0.0,0.0,0.0,0.0,0.0,0.0,-0.2643722037181466,0.0,0.0,0.0,0.0,0.0,0.0,-43.028,0.0,0.0,0.0,0.0,0.0
283,0.0,-0.241248046875,0.0,0.0,0.0,0.0,0.0,0.0,-0.381,0.0,0.0,0.0,0.0,0.0,0.0,-0.2535780748355277,0.0,0.0,0.0,0.0,0.0,0.0,-43.084,0.0,0.0,0.0,0.0,0.0
284,0.0,-0.2455771484375,0.0,0.0,0.0,0.0,0.0,0.0,-0.417,0.0,0.0,0.0,0.0,0.0,0.0,-0.24245385241997347,0.0,0.0,0.0,0.0,0.0,0.0,-43.296,0.0,0.0,0.0,0.0,0.0
285,0.0,-0.2497958984375,0.0,0.0,0.0,0.0,0.0,0.0,-0.429,0.0,0.0,0.0,0.0,0.0,0.0,-0.23161872146800333,0.0,0.0,0.0,0.0,0.0,0.0,-42.92,0.0,0.0,0.0,0.0,0.0
286,0.0,-0.253712890625,0.0,0.0,0.0,0.0,0.0,0.0,-0.416,0.0,0.0,0.0,0.0,0.0,0.0,-0.2204932080752298,0.0,0.0,0.0,0.0,0.0,0.0,-41.84,0.0,0.0,0.0,0.0,0.0
287,0.0,-0.256697265625,0.0,0.0,0.0,0.0,0.0,0.0,-0.362,0.0,0.0,0.0,0.0,0.0,0.0,-0.20912193755570876,0.0,0.0,0.0,0.0,0.0,0.0,-36.496,0.0,0.0,0.0,0.0,0.0
288,0.0,-0.258447265625,0.0,0.0,0.0,0.0,0.0,0.0,-0.252,0.0,0.0,0.0,0.0,0.0,0.0,-0.19801024069756065,0.0,0.0,0.0,0.0,0.0,0.0,-27.804,0.0,0.0,0.0,0.0,0.0
289,0.0,-0.259173828125,0.0,0.0,0.0,0.0,0.0,0.0,-0.137,0.0,0.0,0.0,0.0,0.0,0.0,-0.18663228626998635,0.0,0.0,0.0,0.0,0.0,0.0,-17.06,0.0,0.0,0.0,0.0,0.0
290,0.0,-0.2590703125,0.0,0.0,0.0,0.0,0.0,0.0,-0.041,0.0,0.0,0.0,0.0,0.0,0.0,-0.1751863728842961,0.0,0.0,0.0,0.0,0.0,0.0,-11.82,0.0,0.0,0.0,0.0,0.0
291,0.0,-0.2585498046875,0.0,0.0,0.0,0.0,0.0,0.0,0.031,0.0,0.0,0.0,0.0,0.0,0.0,-0.16371079224339982,0.0,0.0,0.0,0.0,0.0,0.0,-9.988,0.0,0.0,0.0,0.0,0.0
292,0.0,-0.2572119140625,0.0,0.0,0.0,0.0,0.0,0.0,0.083,0.0,0.0,0.0,0.0,0.0,0.0,-0.15210260729838743,0.0,0.0,0.0,0.0,0.0,0.0,-8.528,0.0,0.0,0.0,0.0,0.0
293,0.0,-0.2548447265625,0.0,0.0,0.0,0.0,0.0,0.0,0.178,0.0,0.0,0.0,0.0,0.0,0.0,-0.14049194235744059,0.0,0.0,0.0,0.0,0.0,0.0,-8.636,0.0,0.0,0.0,0.0,0.0
294,0.0,-0.2512431640625,0.0,0.0,0.0,0.0,0.0,0.0,0.287,0.0,0.0,0.0,0.0,0.0,0.0,-0.12877364720795492,0.0,0.0,0.0,0.0,0.0,0.0,-9.88,0.0,0.0,0.0,0.0,0.0
295,0.0,-0.2465029296875,0.0,0.0,0.0,0.0,0.0,0.0,0.405,0.0,0.0,0.0,0.0,0.0,0.0,-0.11702355128308488,0.0,0.0,0.0,0.0,0.0,0.0,-12.74,0.0,0.0,0.0,0.0,0.0
296,0.0,-0.2354853515625,0.0,0.0,0.0,0.0,0.0,0.0,0.55,0.0,0.0,0.0,0.0,0.0,0.0,-0.10090107088241171,0.0,0.0,0.0,0.0,0.0,0.0,-18.356,0.0,0.0,0.0,0.0,0.0
297,0.0,-0.2354853515625,0.0,0.0,0.0,0.0,0.0,0.0,0.55,0.0,0.0,0.0,0.0,0.0,0.0,-0.09322164572787275,0.0,0.0,0.0,0.0,0.0,0.0,-18.356,0.0,0.0,0.0,0.0,0.0
298,0.0,-0.22961328125,0.0,0.0,0.0,0.0,0.0,0.0,0.58,0.0,0.0,0.0,0.0,0.0,0.0,-0.08152186687215661,0.0,0.0,0.0,0.0,0.0,0.0,-23.104,0.0,0.0,0.0,0.0,0.0
299,0.0,-0.2240498046875,0.0,0.0,0.0,0.0,0.0,0.0,0.579,0.0,0.0,0.0,0.0,0.0,0.0,-0.06776281969386412,0.0,0.0,0.0,0.0,0.0,0.0,-29.584,0.0,0.0,0.0,0.0,0.0
300,0.0,-0.217875,0.0,0.0,0.0,0.0,0.0,0.0,0.578,0.0,0.0,0.0,0.0,0.0,0.0,-0.057513572421964726,0.0,0.0,0.0,0.0,0.0,0.0,-33.256,0.0,0.0,0.0,0.0,0.0
301,0.0,-0.2110771484375,0.0,0.0,0.0,0.0,0.0,0.0,0.647,0.0,0.0,0.0,0.0,0.0,0.0,-0.04568508216168245,0.0,0.0,0.0,0.0,0.0,0.0,-35.092,0.0,0.0,0.0,0.0,0.0
302,0.0,-0.1969658203125,0.0,0.0,0.0,0.0,0.0,0.0,0.714,0.0,0.0,0.0,0.0,0.0,0.0,-0.028913349004533767,0.0,0.0,0.0,0.0,0.0,0.0,-38.816,0.0,0.0,0.0,0.0,0.0
303,0.0,-0.1969658203125,0.0,0.0,0.0,0.0,0.0,0.0,0.714,0.0,0.0,0.0,0.0,0.0,0.0,-0.02057577036213297,0.0,0.0,0.0,0.0,0.0,0.0,-38.816,0.0,0.0,0.0,0.0,0.0
304,0.0,-0.1905849609375,0.0,0.0,0.0,0.0,0.0,0.0,0.681,0.0,0.0,0.0,0.0,0.0,0.0,-0.008068308833335676,0.0,0.0,0.0,0.0,0.0,0.0,-44.864,0.0,0.0,0.0,0.0,0.0
305,0.0,-0.1775087890625,0.0,0.0,0.0,0.0,0.0,0.0,0.659,0.0,0.0,0.0,0.0,0.0,0.0,0.011805068228760585,0.0,0.0,0.0,0.0,0.0,0.0,-43.676,0.0,0.0,0.0,0.0,0.0
306,0.0,-0.1712255859375,0.0,0.0,0.0,0.0,0.0,0.0,0.656,0.0,0.0,0.0,0.0,0.0,0.0,2.174377440930311e-05,0.0,0.0,0.0,0.0,0.0,0.0,-45.944,0.0,0.0,0.0,0.0,0.0
307,0.0,-0.1712255859375,0.0,0.0,0.0,0.0,0.0,0.0,0.656,0.0,0.0,0.0,0.0,0.0,0.0,0.008012056639824487,0.0,0.0,0.0,0.0,0.0,0.0,-45.944,0.0,0.0,0.0,0.0,0.0
308,0.0,-0.1645302734375,0.0,0.0,0.0,0.0,0.0,0.0,0.652,0.0,0.0,0.0,0.0,0.0,0.0,0.018460411729162834,0.0,0.0,0.0,0.0,0.0,0.0,-51.396,0.0,0.0,0.0,0.0,0.0
309,0.0,-0.1581435546875,0.0,0.0,0.0,0.0,0.0,0.0,0.665,0.0,0.0,0.0,0.0,0.0,0.0,0.03056394904005996,0.0,0.0,0.0,0.0,0.0,0.0,-52.1,0.0,0.0,0.0,0.0,0.0
310,0.0,-0.15227734375,0.0,0.0,0.0,0.0,0.0,0.0,0.617,0.0,0.0,0.0,0.0,0.0,0.0,0.04243842310879052,0.0,0.0,0.0,0.0,0.0,0.0,-51.396,0.0,0.0,0.0,0.0,0.0
311,0.0,-0.14681640625,0.0,0.0,0.0,0.0,0.0,0.0,0.574,0.0,0.0,0.0,0.0,0.0,0.0,0.054412463109762894,0.0,0.0,0.0,0.0,0.0,0.0,-54.96,0.0,0.0,0.0,0.0,0.0
312,0.0,-0.141458984375,0.0,0.0,0.0,0.0,0.0,0.0,0.545,0.0,0.0,0.0,0.0,0.0,0.0,0.0667721435422379,0.0,0.0,0.0,0.0,0.0,0.0,-57.28,0.0,0.0,0.0,0.0,0.0
313,0.0,-0.135798828125,0.0,0.0,0.0,0.0,0.0,0.0,0.544,0.0,0.0,0.0,0.0,0.0,0.0,0.07826705273600583,0.0,0.0,0.0,0.0,0.0,0.0,-55.444,0.0,0.0,0.0,0.0,0.0
314,0.0,-0.1305439453125,0.0,0.0,0.0,0.0,0.0,0.0,0.557,0.0,0.0,0.0,0.0,0.0,0.0,0.09013759617683546,0.0,0.0,0.0,0.0,0.0,0.0,-54.96,0.0,0.0,0.0,0.0,0.0
315,0.0,-0.1260166015625,0.0,0.0,0.0,0.0,0.0,0.0,0.504,0.0,0.0,0.0,0.0,0.0,0.0,0.10198962967077406,0.0,0.0,0.0,0.0,0.0,0.0,-57.768,0.0,0.0,0.0,0.0,0.0
316,0.0,-0.1216875,0.0,0.0,0.0,0.0,0.0,0.0,0.44,0.0,0.0,0.0,0.0,0.0,0.0,0.11378312278566369,0.0,0.0,0.0,0.0,0.0,0.0,-59.224,0.0,0.0,0.0,0.0,0.0
317,0.0,-0.11777734375,0.0,0.0,0.0,0.0,0.0,0.0,0.413,0.0,0.0,0.0,0.0,0.0,0.0,0.12549033987963704,0.0,0.0,0.0,0.0,0.0,0.0,-56.796,0.0,0.0,0.0,0.0,0.0
318,0.0,-0.113654296875,0.0,0.0,0.0,0.0,0.0,0.0,0.406,0.0,0.0,0.0,0.0,0.0,0.0,0.13730655779838918,0.0,0.0,0.0,0.0,0.0,0.0,-52.152,0.0,0.0,0.0,0.0,0.0
319,0.0,-0.10933203125,0.0,0.0,0.0,0.0,0.0,0.0,0.428,0.0,0.0,0.0,0.0,0.0,0.0,0.1491618937813578,0.0,0.0,0.0,0.0,0.0,0.0,-51.452,0.0,0.0,0.0,0.0,0.0
320,0.0,-0.1059296875,0.0,0.0,0.0,0.0,0.0,0.0,0.395,0.0,0.0,0.0,0.0,0.0,0.0,0.16270186534895334,0.0,0.0,0.0,0.0,0.0,0.0,-54.472,0.0,0.0,0.0,0.0,0.0
321,0.0,-0.1059296875,0.0,0.0,0.0,0.0,0.0,0.0,0.395,0.0,0.0,0.0,0.0,0.0,0.0,0.1745679555093541,0.0,0.0,0.0,0.0,0.0,0.0,-54.472,0.0,0.0,0.0,0.0,0.0
322,0.0,-0.100173828125,0.0,0.0,0.0,0.0,0.0,0.0,0.29,0.0,0.0,0.0,0.0,0.0,0.0,0.185565903619948,0.0,0.0,0.0,0.0,0.0,0.0,-51.668,0.0,0.0,0.0,0.0,0.0
323,0.0,-0.0941982421875,0.0,0.0,0.0,0.0,0.0,0.0,0.3,0.0,0.0,0.0,0.0,0.0,0.0,0.1999496510990777,0.0,0.0,0.0,0.0,0.0,0.0,-44.324,0.0,0.0,0.0,0.0,0.0
324,0.0,-0.0907958984375,0.0,0.0,0.0,0.0,0.0,0.0,0.342,0.0,0.0,0.0,0.0,0.0,0.0,0.2128103636123169,0.0,0.0,0.0,0.0,0.0,0.0,-45.188,0.0,0.0,0.0,0.0,0.0
325,0.0,-0.082865234375,0.0,0.0,0.0,0.0,0.0,0.0,0.247,0.0,0.0,0.0,0.0,0.0,0.0,0.2512671274219581,0.0,0.0,0.0,0.0,0.0,0.0,-43.296,0.0,0.0,0.0,0.0,0.0
326,0.0,-0.079880859375,0.0,0.0,0.0,0.0,0.0,0.0,0.259,0.0,0.0,0.0,0.0,0.0,0.0,0.26035251021785866,0.0,0.0,0.0,0.0,0.0,0.0,-41.192,0.0,0.0,0.0,0.0,0.0
327,0.0,-0.0764853515625,0.0,0.0,0.0,0.0,0.0,0.0,0.325,0.0,0.0,0.0,0.0,0.0,0.0,0.2710810048860743,0.0,0.0,0.0,0.0,0.0,0.0,-41.408,0.0,0.0,0.0,0.0,0.0
328,0.0,-0.0730830078125,0.0,0.0,0.0,0.0,0.0,0.0,0.339,0.0,0.0,0.0,0.0,0.0,0.0,0.28177821764781047,0.0,0.0,0.0,0.0,0.0,0.0,-41.408,0.0,0.0,0.0,0.0,0.0
329,0.0,-0.0697900390625,0.0,0.0,0.0,0.0,0.0,0.0,0.337,0.0,0.0,0.0,0.0,0.0,0.0,0.29232699838435366,0.0,0.0,0.0,0.0,0.0,0.0,-41.248,0.0,0.0,0.0,0.0,0.0
330,0.0,-0.066908203125,0.0,0.0,0.0,0.0,0.0,0.0,0.316,0.0,0.0,0.0,0.0,0.0,0.0,0.30265410540562815,0.0,0.0,0.0,0.0,0.0,0.0,-40.816,0.0,0.0,0.0,0.0,0.0
331,0.0,-0.063814453125,0.0,0.0,0.0,0.0,0.0,0.0,0.294,0.0,0.0,0.0,0.0,0.0,0.0,0.31283864065799166,0.0,0.0,0.0,0.0,0.0,0.0,-39.844,0.0,0.0,0.0,0.0,0.0
332,0.0,-0.0603154296875,0.0,0.0,0.0,0.0,0.0,0.0,0.331,0.0,0.0,0.0,0.0,0.0,0.0,0.3230382936057895,0.0,0.0,0.0,0.0,0.0,0.0,-40.276,0.0,0.0,0.0,0.0,0.0
333,0.0,-0.0532080078125,0.0,0.0,0.0,0.0,0.0,0.0,0.355,0.0,0.0,0.0,0.0,0.0,0.0,0.3378270587657245,0.0,0.0,0.0,0.0,0.0,0.0,-40.276,0.0,0.0,0.0,0.0,0.0
334,0.0,-0.0532080078125,0.0,0.0,0.0,0.0,0.0,0.0,0.355,0.0,0.0,0.0,0.0,0.0,0.0,0.3440715053466805,0.0,0.0,0.0,0.0,0.0,0.0,-40.276,0.0,0.0,0.0,0.0,0.0
335,0.0,-0.0496064453125,0.0,0.0,0.0,0.0,0.0,0.0,0.371,0.0,0.0,0.0,0.0,0.0,0.0,0.3527902362494794,0.0,0.0,0.0,0.0,0.0,0.0,-39.68,0.0,0.0,0.0,0.0,0.0
336,0.0,-0.045998046875,0.0,0.0,0.0,0.0,0.0,0.0,0.357,0.0,0.0,0.0,0.0,0.0,0.0,0.36268651465103297,0.0,0.0,0.0,0.0,0.0,0.0,-39.088,0.0,0.0,0.0,0.0,0.0
337,0.0,-0.042087890625,0.0,0.0,0.0,0.0,0.0,0.0,0.376,0.0,0.0,0.0,0.0,0.0,0.0,0.3726075498635438,0.0,0.0,0.0,0.0,0.0,0.0,-39.736,0.0,0.0,0.0,0.0,0.0
338,0.0,-0.0382734375,0.0,0.0,0.0,0.0,0.0,0.0,0.387,0.0,0.0,0.0,0.0,0.0,0.0,0.3812500382416232,0.0,0.0,0.0,0.0,0.0,0.0,-40.168,0.0,0.0,0.0,0.0,0.0
339,0.0,-0.0342607421875,0.0,0.0,0.0,0.0,0.0,0.0,0.391,0.0,0.0,0.0,0.0,0.0,0.0,0.391003719932031,0.0,0.0,0.0,0.0,0.0,0.0,-40.544,0.0,0.0,0.0,0.0,0.0
340,0.0,-0.0301376953125,0.0,0.0,0.0,0.0,0.0,0.0,0.409,0.0,0.0,0.0,0.0,0.0,0.0,0.4012793780569327,0.0,0.0,0.0,0.0,0.0,0.0,-40.76,0.0,0.0,0.0,0.0,0.0
341,0.0,-0.026021484375,0.0,0.0,0.0,0.0,0.0,0.0,0.414,0.0,0.0,0.0,0.0,0.0,0.0,0.40834622981076485,0.0,0.0,0.0,0.0,0.0,0.0,-40.652,0.0,0.0,0.0,0.0,0.0
342,0.0,-0.02158984375,0.0,0.0,0.0,0.0,0.0,0.0,0.429,0.0,0.0,0.0,0.0,0.0,0.0,0.4177887493696749,0.0,0.0,0.0,0.0,0.0,0.0,-41.14,0.0,0.0,0.0,0.0,0.0
343,0.0,-0.0171650390625,0.0,0.0,0.0,0.0,0.0,0.0,0.444,0.0,0.0,0.0,0.0,0.0,0.0,0.42558743111033287,0.0,0.0,0.0,0.0,0.0,0.0,-42.76,0.0,0.0,0.0,0.0,0.0
344,0.0,-0.0128359375,0.0,0.0,0.0,0.0,0.0,0.0,0.439,0.0,0.0,0.0,0.0,0.0,0.0,0.434093815322567,0.0,0.0,0.0,0.0,0.0,0.0,-43.62,0.0,0.0,0.0,0.0,0.0
345,0.0,-0.0084111328125,0.0,0.0,0.0,0.0,0.0,0.0,0.437,0.0,0.0,0.0,0.0,0.0,0.0,0.44445152520330994,0.0,0.0,0.0,0.0,0.0,0.0,-44.16,0.0,0.0,0.0,0.0,0.0
346,0.0,-0.0084111328125,0.0,0.0,0.0,0.0,0.0,0.0,0.437,0.0,0.0,0.0,0.0,0.0,0.0,0.45040774507195047,0.0,0.0,0.0,0.0,0.0,0.0,-44.16,0.0,0.0,0.0,0.0,0.0
347,0.0,0.0004453125,0.0,0.0,0.0,0.0,0.0,0.0,0.444,0.0,0.0,0.0,0.0,0.0,0.0,0.4580358129121099,0.0,0.0,0.0,0.0,0.0,0.0,-44.484,0.0,0.0,0.0,0.0,0.0
348,0.0,0.0049794921875,0.0,0.0,0.0,0.0,0.0,0.0,0.457,0.0,0.0,0.0,0.0,0.0,0.0,0.4656602577624339,0.0,0.0,0.0,0.0,0.0,0.0,-45.404,0.0,0.0,0.0,0.0,0.0
349,0.0,0.0093017578125,0.0,0.0,0.0,0.0,0.0,0.0,0.448,0.0,0.0,0.0,0.0,0.0,0.0,0.47315891191809967,0.0,0.0,0.0,0.0,0.0,0.0,-46.104,0.0,0.0,0.0,0.0,0.0
350,0.0,0.0137333984375,0.0,0.0,0.0,0.0,0.0,0.0,0.442,0.0,0.0,0.0,0.0,0.0,0.0,0.48234439115959354,0.0,0.0,0.0,0.0,0.0,0.0,-46.104,0.0,0.0,0.0,0.0,0.0
351,0.0,0.017953125,0.0,0.0,0.0,0.0,0.0,0.0,0.433,0.0,0.0,0.0,0.0,0.0,0.0,0.4900798848311591,0.0,0.0,0.0,0.0,0.0,0.0,-45.62,0.0,0.0,0.0,0.0,0.0
352,0.0,0.0221787109375,0.0,0.0,0.0,0.0,0.0,0.0,0.423,0.0,0.0,0.0,0.0,0.0,0.0,0.49487652270330545,0.0,0.0,0.0,0.0,0.0,0.0,-45.24,0.0,0.0,0.0,0.0,0.0
353,0.0,0.0265009765625,0.0,0.0,0.0,0.0,0.0,0.0,0.43,0.0,0.0,0.0,0.0,0.0,0.0,0.5011059786571793,0.0,0.0,0.0,0.0,0.0,0.0,-45.188,0.0,0.0,0.0,0.0,0.0
354,0.0,0.0307265625,0.0,0.0,0.0,0.0,0.0,0.0,0.433,0.0,0.0,0.0,0.0,0.0,0.0,0.5076243157315083,0.0,0.0,0.0,0.0,0.0,0.0,-45.836,0.0,0.0,0.0,0.0,0.0
355,0.0,0.0348427734375,0.0,0.0,0.0,0.0,0.0,0.0,0.419,0.0,0.0,0.0,0.0,0.0,0.0,0.5143113974895431,0.0,0.0,0.0,0.0,0.0,0.0,-45.888,0.0,0.0,0.0,0.0,0.0
356,0.0,0.0388623046875,0.0,0.0,0.0,0.0,0.0,0.0,0.41,0.0,0.0,0.0,0.0,0.0,0.0,0.5199834300329653,0.0,0.0,0.0,0.0,0.0,0.0,-45.672,0.0,0.0,0.0,0.0,0.0
357,0.0,0.0428759765625,0.0,0.0,0.0,0.0,0.0,0.0,0.401,0.0,0.0,0.0,0.0,0.0,0.0,0.5258535852740115,0.0,0.0,0.0,0.0,0.0,0.0,-45.24,0.0,0.0,0.0,0.0,0.0
358,0.0,0.0469921875,0.0,0.0,0.0,0.0,0.0,0.0,0.409,0.0,0.0,0.0,0.0,0.0,0.0,0.5323093804575613,0.0,0.0,0.0,0.0,0.0,0.0,-45.456,0.0,0.0,0.0,0.0,0.0
359,0.0,0.0510126953125,0.0,0.0,0.0,0.0,0.0,0.0,0.413,0.0,0.0,0.0,0.0,0.0,0.0,0.5369889330831805,0.0,0.0,0.0,0.0,0.0,0.0,-45.62,0.0,0.0,0.0,0.0,0.0
360,0.0,0.055025390625,0.0,0.0,0.0,0.0,0.0,0.0,0.404,0.0,0.0,0.0,0.0,0.0,0.0,0.5422631953718463,0.0,0.0,0.0,0.0,0.0,0.0,-45.996,0.0,0.0,0.0,0.0,0.0
361,0.0,0.0589423828125,0.0,0.0,0.0,0.0,0.0,0.0,0.401,0.0,0.0,0.0,0.0,0.0,0.0,0.5473290247622149,0.0,0.0,0.0,0.0,0.0,0.0,-45.62,0.0,0.0,0.0,0.0,0.0
362,0.0,0.06275,0.0,0.0,0.0,0.0,0.0,0.0,0.387,0.0,0.0,0.0,0.0,0.0,0.0,0.5521240131300742,0.0,0.0,0.0,0.0,0.0,0.0,-44.972,0.0,0.0,0.0,0.0,0.0
363,0.0,0.066564453125,0.0,0.0,0.0,0.0,0.0,0.0,0.382,0.0,0.0,0.0,0.0,0.0,0.0,0.5566862437178465,0.0,0.0,0.0,0.0,0.0,0.0,-44.54,0.0,0.0,0.0,0.0,0.0
364,0.0,0.070474609375,0.0,0.0,0.0,0.0,0.0,0.0,0.388,0.0,0.0,0.0,0.0,0.0,0.0,0.5610554913138365,0.0,0.0,0.0,0.0,0.0,0.0,-44.376,0.0,0.0,0.0,0.0,0.0
365,0.0,0.0743916015625,0.0,0.0,0.0,0.0,0.0,0.0,0.393,0.0,0.0,0.0,0.0,0.0,0.0,0.5651926731284715,0.0,0.0,0.0,0.0,0.0,0.0,-44.268,0.0,0.0,0.0,0.0,0.0
366,0.0,0.078302734375,0.0,0.0,0.0,0.0,0.0,0.0,0.393,0.0,0.0,0.0,0.0,0.0,0.0,0.5691067694866445,0.0,0.0,0.0,0.0,0.0,0.0,-44.592,0.0,0.0,0.0,0.0,0.0
367,0.0,0.0820068359375,0.0,0.0,0.0,0.0,0.0,0.0,0.386,0.0,0.0,0.0,0.0,0.0,0.0,0.5727954039413068,0.0,0.0,0.0,0.0,0.0,0.0,-44.108,0.0,0.0,0.0,0.0,0.0
368,0.0,0.0858212890625,0.0,0.0,0.0,0.0,0.0,0.0,0.376,0.0,0.0,0.0,0.0,0.0,0.0,0.5762499968365776,0.0,0.0,0.0,0.0,0.0,0.0,-43.728,0.0,0.0,0.0,0.0,0.0
369,0.0,0.089525390625,0.0,0.0,0.0,0.0,0.0,0.0,0.375,0.0,0.0,0.0,0.0,0.0,0.0,0.5794664275149607,0.0,0.0,0.0,0.0,0.0,0.0,-43.512,0.0,0.0,0.0,0.0,0.0
370,0.0,0.0934423828125,0.0,0.0,0.0,0.0,0.0,0.0,0.381,0.0,0.0,0.0,0.0,0.0,0.0,0.5824708986366947,0.0,0.0,0.0,0.0,0.0,0.0,-43.62,0.0,0.0,0.0,0.0,0.0
371,0.0,0.097353515625,0.0,0.0,0.0,0.0,0.0,0.0,0.394,0.0,0.0,0.0,0.0,0.0,0.0,0.5852460587655665,0.0,0.0,0.0,0.0,0.0,0.0,-43.676,0.0,0.0,0.0,0.0,0.0
372,0.0,0.1012705078125,0.0,0.0,0.0,0.0,0.0,0.0,0.395,0.0,0.0,0.0,0.0,0.0,0.0,0.5877560172510528,0.0,0.0,0.0,0.0,0.0,0.0,-44.16,0.0,0.0,0.0,0.0,0.0
373,0.0,0.1050712890625,0.0,0.0,0.0,0.0,0.0,0.0,0.39,0.0,0.0,0.0,0.0,0.0,0.0,0.5900686464108303,0.0,0.0,0.0,0.0,0.0,0.0,-43.836,0.0,0.0,0.0,0.0,0.0
374,0.0,0.10887890625,0.0,0.0,0.0,0.0,0.0,0.0,0.386,0.0,0.0,0.0,0.0,0.0,0.0,0.5921319533268712,0.0,0.0,0.0,0.0,0.0,0.0,-43.404,0.0,0.0,0.0,0.0,0.0
375,0.0,0.112693359375,0.0,0.0,0.0,0.0,0.0,0.0,0.383,0.0,0.0,0.0,0.0,0.0,0.0,0.5939434099418381,0.0,0.0,0.0,0.0,0.0,0.0,-43.028,0.0,0.0,0.0,0.0,0.0
376,0.0,0.1167060546875,0.0,0.0,0.0,0.0,0.0,0.0,0.388,0.0,0.0,0.0,0.0,0.0,0.0,0.5955150180746338,0.0,0.0,0.0,0.0,0.0,0.0,-42.976,0.0,0.0,0.0,0.0,0.0
377,0.0,0.1207265625,0.0,0.0,0.0,0.0,0.0,0.0,0.402,0.0,0.0,0.0,0.0,0.0,0.0,0.596878441050744,0.0,0.0,0.0,0.0,0.0,0.0,-43.084,0.0,0.0,0.0,0.0,0.0
378,0.0,0.124740234375,0.0,0.0,0.0,0.0,0.0,0.0,0.404,0.0,0.0,0.0,0.0,0.0,0.0,0.5979692526089165,0.0,0.0,0.0,0.0,0.0,0.0,-43.728,0.0,0.0,0.0,0.0,0.0
379,0.0,0.128759765625,0.0,0.0,0.0,0.0,0.0,0.0,0.401,0.0,0.0,0.0,0.0,0.0,0.0,0.5988339564533737,0.0,0.0,0.0,0.0,0.0,0.0,-43.568,0.0,0.0,0.0,0.0,0.0
380,0.0,0.132669921875,0.0,0.0,0.0,0.0,0.0,0.0,0.397,0.0,0.0,0.0,0.0,0.0,0.0,0.599468806274324,0.0,0.0,0.0,0.0,0.0,0.0,-43.244,0.0,0.0,0.0,0.0,0.0
381,0.0,0.1365810546875,0.0,0.0,0.0,0.0,0.0,0.0,0.394,0.0,0.0,0.0,0.0,0.0,0.0,0.5998501474986343,0.0,0.0,0.0,0.0,0.0,0.0,-43.352,0.0,0.0,0.0,0.0,0.0
382,0.0,0.1406005859375,0.0,0.0,0.0,0.0,0.0,0.0,0.396,0.0,0.0,0.0,0.0,0.0,0.0,0.5999981784176878,0.0,0.0,0.0,0.0,0.0,0.0,-43.512,0.0,0.0,0.0,0.0,0.0
383,0.0,0.1447236328125,0.0,0.0,0.0,0.0,0.0,0.0,0.411,0.0,0.0,0.0,0.0,0.0,0.0,0.5999045680155889,0.0,0.0,0.0,0.0,0.0,0.0,-43.728,0.0,0.0,0.0,0.0,0.0
384,0.0,0.148845703125,0.0,0.0,0.0,0.0,0.0,0.0,0.414,0.0,0.0,0.0,0.0,0.0,0.0,0.5995714098916833,0.0,0.0,0.0,0.0,0.0,0.0,-44.376,0.0,0.0,0.0,0.0,0.0
385,0.0,0.152859375,0.0,0.0,0.0,0.0,0.0,0.0,0.408,0.0,0.0,0.0,0.0,0.0,0.0,0.5989985895815827,0.0,0.0,0.0,0.0,0.0,0.0,-44.216,0.0,0.0,0.0,0.0,0.0
386,0.0,0.1568798828125,0.0,0.0,0.0,0.0,0.0,0.0,0.404,0.0,0.0,0.0,0.0,0.0,0.0,0.5981862883940648,0.0,0.0,0.0,0.0,0.0,0.0,-43.676,0.0,0.0,0.0,0.0,0.0
387,0.0,0.160892578125,0.0,0.0,0.0,0.0,0.0,0.0,0.402,0.0,0.0,0.0,0.0,0.0,0.0,0.5971473742220281,0.0,0.0,0.0,0.0,0.0,0.0,-43.404,0.0,0.0,0.0,0.0,0.0
388,0.0,0.16490625,0.0,0.0,0.0,0.0,0.0,0.0,0.401,0.0,0.0,0.0,0.0,0.0,0.0,0.5958562787826733,0.0,0.0,0.0,0.0,0.0,0.0,-43.62,0.0,0.0,0.0,0.0,0.0
389,0.0,0.169029296875,0.0,0.0,0.0,0.0,0.0,0.0,0.411,0.0,0.0,0.0,0.0,0.0,0.0,0.5943135436574373,0.0,0.0,0.0,0.0,0.0,0.0,-43.676,0.0,0.0,0.0,0.0,0.0
390,0.0,0.17304296875,0.0,0.0,0.0,0.0,0.0,0.0,0.408,0.0,0.0,0.0,0.0,0.0,0.0,0.5925729619387025,0.0,0.0,0.0,0.0,0.0,0.0,-44.052,0.0,0.0,0.0,0.0,0.0
391,0.0,0.1770625,0.0,0.0,0.0,0.0,0.0,0.0,0.406,0.0,0.0,0.0,0.0,0.0,0.0,0.5905447632954526,0.0,0.0,0.0,0.0,0.0,0.0,-43.784,0.0,0.0,0.0,0.0,0.0
392,0.0,0.181076171875,0.0,0.0,0.0,0.0,0.0,0.0,0.402,0.0,0.0,0.0,0.0,0.0,0.0,0.5882902129359301,0.0,0.0,0.0,0.0,0.0,0.0,-43.568,0.0,0.0,0.0,0.0,0.0
393,0.0,0.185095703125,0.0,0.0,0.0,0.0,0.0,0.0,0.403,0.0,0.0,0.0,0.0,0.0,0.0,0.585835522104104,0.0,0.0,0.0,0.0,0.0,0.0,-43.676,0.0,0.0,0.0,0.0,0.0
394,0.0,0.189005859375,0.0,0.0,0.0,0.0,0.0,0.0,0.398,0.0,0.0,0.0,0.0,0.0,0.0,0.5831347081335453,0.0,0.0,0.0,0.0,0.0,0.0,-43.892,0.0,0.0,0.0,0.0,0.0
395,0.0,0.193123046875,0.0,0.0,0.0,0.0,0.0,0.0,0.404,0.0,0.0,0.0,0.0,0.0,0.0,0.5801407305059971,0.0,0.0,0.0,0.0,0.0,0.0,-43.944,0.0,0.0,0.0,0.0,0.0
396,0.0,0.197142578125,0.0,0.0,0.0,0.0,0.0,0.0,0.407,0.0,0.0,0.0,0.0,0.0,0.0,0.5770328511623152,0.0,0.0,0.0,0.0,0.0,0.0,-44.324,0.0,0.0,0.0,0.0,0.0
397,0.0,0.20115625,0.0,0.0,0.0,0.0,0.0,0.0,0.404,0.0,0.0,0.0,0.0,0.0,0.0,0.5736004576240686,0.0,0.0,0.0,0.0,0.0,0.0,-44.052,0.0,0.0,0.0,0.0,0.0
398,0.0,0.2050732421875,0.0,0.0,0.0,0.0,0.0,0.0,0.399,0.0,0.0,0.0,0.0,0.0,0.0,0.5699221529115817,0.0,0.0,0.0,0.0,0.0,0.0,-43.512,0.0,0.0,0.0,0.0,0.0
399,0.0,0.2089833984375,0.0,0.0,0.0,0.0,0.0,0.0,0.396,0.0,0.0,0.0,0.0,0.0,0.0,0.5661103669009977,0.0,0.0,0.0,0.0,0.0,0.0,-43.136,0.0,0.0,0.0,0.0,0.0
400,0.0,0.2129970703125,0.0,0.0,0.0,0.0,0.0,0.0,0.396,0.0,0.0,0.0,0.0,0.0,0.0,0.5620492804707915,0.0,0.0,0.0,0.0,0.0,0.0,-43.296,0.0,0.0,0.0,0.0,0.0
401,0.0,0.2169140625,0.0,0.0,0.0,0.0,0.0,0.0,0.401,0.0,0.0,0.0,0.0,0.0,0.0,0.5576663266121472,0.0,0.0,0.0,0.0,0.0,0.0,-43.192,0.0,0.0,0.0,0.0,0.0
402,0.0,0.2209267578125,0.0,0.0,0.0,0.0,0.0,0.0,0.402,0.0,0.0,0.0,0.0,0.0,0.0,0.5531703163175018,0.0,0.0,0.0,0.0,0.0,0.0,-43.46,0.0,0.0,0.0,0.0,0.0
403,0.0,0.224947265625,0.0,0.0,0.0,0.0,0.0,0.0,0.401,0.0,0.0,0.0,0.0,0.0,0.0,0.5484195041124537,0.0,0.0,0.0,0.0,0.0,0.0,-43.192,0.0,0.0,0.0,0.0,0.0
404,0.0,0.228857421875,0.0,0.0,0.0,0.0,0.0,0.0,0.4,0.0,0.0,0.0,0.0,0.0,0.0,0.5432760964170088,0.0,0.0,0.0,0.0,0.0,0.0,-43.028,0.0,0.0,0.0,0.0,0.0
405,0.0,0.2327744140625,0.0,0.0,0.0,0.0,0.0,0.0,0.394,0.0,0.0,0.0,0.0,0.0,0.0,0.5382777555181323,0.0,0.0,0.0,0.0,0.0,0.0,-43.192,0.0,0.0,0.0,0.0,0.0
406,0.0,0.236685546875,0.0,0.0,0.0,0.0,0.0,0.0,0.394,0.0,0.0,0.0,0.0,0.0,0.0,0.5328229576574978,0.0,0.0,0.0,0.0,0.0,0.0,-43.192,0.0,0.0,0.0,0.0,0.0
407,0.0,0.2406982421875,0.0,0.0,0.0,0.0,0.0,0.0,0.399,0.0,0.0,0.0,0.0,0.0,0.0,0.5271049821869194,0.0,0.0,0.0,0.0,0.0,0.0,-43.244,0.0,0.0,0.0,0.0,0.0
408,0.0,0.24471875,0.0,0.0,0.0,0.0,0.0,0.0,0.405,0.0,0.0,0.0,0.0,0.0,0.0,0.521405590455149,0.0,0.0,0.0,0.0,0.0,0.0,-43.62,0.0,0.0,0.0,0.0,0.0
409,0.0,0.2487314453125,0.0,0.0,0.0,0.0,0.0,0.0,0.403,0.0,0.0,0.0,0.0,0.0,0.0,0.5153248980105475,0.0,0.0,0.0,0.0,0.0,0.0,-43.296,0.0,0.0,0.0,0.0,0.0
410,0.0,0.2526484375,0.0,0.0,0.0,0.0,0.0,0.0,0.397,0.0,0.0,0.0,0.0,0.0,0.0,0.5090575514085577,0.0,0.0,0.0,0.0,0.0,0.0,-42.704,0.0,0.0,0.0,0.0,0.0
411,0.0,0.256662109375,0.0,0.0,0.0,0.0,0.0,0.0,0.398,0.0,0.0,0.0,0.0,0.0,0.0,0.5025303870426433,0.0,0.0,0.0,0.0,0.0,0.0,-42.38,0.0,0.0,0.0,0.0,0.0
412,0.0,0.260572265625,0.0,0.0,0.0,0.0,0.0,0.0,0.4,0.0,0.0,0.0,0.0,0.0,0.0,0.4959571115306912,0.0,0.0,0.0,0.0,0.0,0.0,-42.704,0.0,0.0,0.0,0.0,0.0
413,0.0,0.2645927734375,0.0,0.0,0.0,0.0,0.0,0.0,0.4,0.0,0.0,0.0,0.0,0.0,0.0,0.4890608986357362,0.0,0.0,0.0,0.0,0.0,0.0,-42.76,0.0,0.0,0.0,0.0,0.0
414,0.0,0.2686064453125,0.0,0.0,0.0,0.0,0.0,0.0,0.401,0.0,0.0,0.0,0.0,0.0,0.0,0.482066085870141,0.0,0.0,0.0,0.0,0.0,0.0,-42.868,0.0,0.0,0.0,0.0,0.0
415,0.0,0.2726259765625,0.0,0.0,0.0,0.0,0.0,0.0,0.402,0.0,0.0,0.0,0.0,0.0,0.0,0.47485269534864266,0.0,0.0,0.0,0.0,0.0,0.0,-42.704,0.0,0.0,0.0,0.0,0.0
416,0.0,0.2765361328125,0.0,0.0,0.0,0.0,0.0,0.0,0.4,0.0,0.0,0.0,0.0,0.0,0.0,0.4672837386860322,0.0,0.0,0.0,0.0,0.0,0.0,-42.544,0.0,0.0,0.0,0.0,0.0
417,0.0,0.2805498046875,0.0,0.0,0.0,0.0,0.0,0.0,0.397,0.0,0.0,0.0,0.0,0.0,0.0,0.45970076127409726,0.0,0.0,0.0,0.0,0.0,0.0,-42.544,0.0,0.0,0.0,0.0,0.0
418,0.0,0.2845693359375,0.0,0.0,0.0,0.0,0.0,0.0,0.401,0.0,0.0,0.0,0.0,0.0,0.0,0.45200172415804524,0.0,0.0,0.0,0.0,0.0,0.0,-42.812,0.0,0.0,0.0,0.0,0.0
419,0.0,0.28848046875,0.0,0.0,0.0,0.0,0.0,0.0,0.402,0.0,0.0,0.0,0.0,0.0,0.0,0.4439621170545719,0.0,0.0,0.0,0.0,0.0,0.0,-43.028,0.0,0.0,0.0,0.0,0.0
420,0.0,0.2925,0.0,0.0,0.0,0.0,0.0,0.0,0.4,0.0,0.0,0.0,0.0,0.0,0.0,0.4358438383721281,0.0,0.0,0.0,0.0,0.0,0.0,-43.46,0.0,0.0,0.0,0.0,0.0
421,0.0,0.296513671875,0.0,0.0,0.0,0.0,0.0,0.0,0.403,0.0,0.0,0.0,0.0,0.0,0.0,0.4274839477128284,0.0,0.0,0.0,0.0,0.0,0.0,-42.812,0.0,0.0,0.0,0.0,0.0
422,0.0,0.30052734375,0.0,0.0,0.0,0.0,0.0,0.0,0.403,0.0,0.0,0.0,0.0,0.0,0.0,0.41899399129860065,0.0,0.0,0.0,0.0,0.0,0.0,-42.22,0.0,0.0,0.0,0.0,0.0
423,0.0,0.304546875,0.0,0.0,0.0,0.0,0.0,0.0,0.402,0.0,0.0,0.0,0.0,0.0,0.0,0.4103109494368393,0.0,0.0,0.0,0.0,0.0,0.0,-42.22,0.0,0.0,0.0,0.0,0.0
424,0.0,0.30845703125,0.0,0.0,0.0,0.0,0.0,0.0,0.398,0.0,0.0,0.0,0.0,0.0,0.0,0.4014757293839854,0.0,0.0,0.0,0.0,0.0,0.0,-42.38,0.0,0.0,0.0,0.0,0.0
425,0.0,0.312470703125,0.0,0.0,0.0,0.0,0.0,0.0,0.397,0.0,0.0,0.0,0.0,0.0,0.0,0.3925364637914267,0.0,0.0,0.0,0.0,0.0,0.0,-42.272,0.0,0.0,0.0,0.0,0.0
426,0.0,0.316490234375,0.0,0.0,0.0,0.0,0.0,0.0,0.402,0.0,0.0,0.0,0.0,0.0,0.0,0.3833081668479208,0.0,0.0,0.0,0.0,0.0,0.0,-42.328,0.0,0.0,0.0,0.0,0.0
427,0.0,0.32050390625,0.0,0.0,0.0,0.0,0.0,0.0,0.403,0.0,0.0,0.0,0.0,0.0,0.0,0.37391756765055356,0.0,0.0,0.0,0.0,0.0,0.0,-42.328,0.0,0.0,0.0,0.0,0.0
428,0.0,0.3244208984375,0.0,0.0,0.0,0.0,0.0,0.0,0.4,0.0,0.0,0.0,0.0,0.0,0.0,0.36463883300046285,0.0,0.0,0.0,0.0,0.0,0.0,-42.112,0.0,0.0,0.0,0.0,0.0
429,0.0,0.3284345703125,0.0,0.0,0.0,0.0,0.0,0.0,0.398,0.0,0.0,0.0,0.0,0.0,0.0,0.3549263555279733,0.0,0.0,0.0,0.0,0.0,0.0,-41.948,0.0,0.0,0.0,0.0,0.0
430,0.0,0.3323447265625,0.0,0.0,0.0,0.0,0.0,0.0,0.399,0.0,0.0,0.0,0.0,0.0,0.0,0.34519666655480147,0.0,0.0,0.0,0.0,0.0,0.0,-42.164,0.0,0.0,0.0,0.0,0.0
431,0.0,0.336365234375,0.0,0.0,0.0,0.0,0.0,0.0,0.401,0.0,0.0,0.0,0.0,0.0,0.0,0.335259359193771,0.0,0.0,0.0,0.0,0.0,0.0,-42.38,0.0,0.0,0.0,0.0,0.0
432,0.0,0.3403779296875,0.0,0.0,0.0,0.0,0.0,0.0,0.402,0.0,0.0,0.0,0.0,0.0,0.0,0.32529949528408736,0.0,0.0,0.0,0.0,0.0,0.0,-42.544,0.0,0.0,0.0,0.0,0.0
433,0.0,0.3443984375,0.0,0.0,0.0,0.0,0.0,0.0,0.405,0.0,0.0,0.0,0.0,0.0,0.0,0.31519592597946827,0.0,0.0,0.0,0.0,0.0,0.0,-42.056,0.0,0.0,0.0,0.0,0.0
434,0.0,0.3481025390625,0.0,0.0,0.0,0.0,0.0,0.0,0.397,0.0,0.0,0.0,0.0,0.0,0.0,0.3048865491071663,0.0,0.0,0.0,0.0,0.0,0.0,-45.456,0.0,0.0,0.0,0.0,0.0
435,0.0,0.350064453125,0.0,0.0,0.0,0.0,0.0,0.0,0.305,0.0,0.0,0.0,0.0,0.0,0.0,0.2945463453484472,0.0,0.0,0.0,0.0,0.0,0.0,-57.984,0.0,0.0,0.0,0.0,0.0
436,0.0,0.3509912109375,0.0,0.0,0.0,0.0,0.0,0.0,0.155,0.0,0.0,0.0,0.0,0.0,0.0,0.2839975867893723,0.0,0.0,0.0,0.0,0.0,0.0,-67.484,0.0,0.0,0.0,0.0,0.0
437,0.0,0.3509912109375,0.0,0.0,0.0,0.0,0.0,0.0,0.055,0.0,0.0,0.0,0.0,0.0,0.0,0.2733932890783746,0.0,0.0,0.0,0.0,0.0,0.0,-73.424,0.0,0.0,0.0,0.0,0.0
438,0.0,0.3498583984375,0.0,0.0,0.0,0.0,0.0,0.0,-0.056,0.0,0.0,0.0,0.0,0.0,0.0,0.2625658817552842,0.0,0.0,0.0,0.0,0.0,0.0,-74.288,0.0,0.0,0.0,0.0,0.0
439,0.0,0.3488232421875,0.0,0.0,0.0,0.0,0.0,0.0,-0.105,0.0,0.0,0.0,0.0,0.0,0.0,0.25175788152136663,0.0,0.0,0.0,0.0,0.0,0.0,-75.368,0.0,0.0,0.0,0.0,0.0
440,0.0,0.3465595703125,0.0,0.0,0.0,0.0,0.0,0.0,-0.146,0.0,0.0,0.0,0.0,0.0,0.0,0.2409113827760358,0.0,0.0,0.0,0.0,0.0,0.0,-76.34,0.0,0.0,0.0,0.0,0.0
441,0.0,0.3465595703125,0.0,0.0,0.0,0.0,0.0,0.0,-0.146,0.0,0.0,0.0,0.0,0.0,0.0,0.229694019870105,0.0,0.0,0.0,0.0,0.0,0.0,-76.34,0.0,0.0,0.0,0.0,0.0
442,0.0,0.3383203125,0.0,0.0,0.0,0.0,0.0,0.0,-0.407,0.0,0.0,0.0,0.0,0.0,0.0,0.218645569167288,0.0,0.0,0.0,0.0,0.0,0.0,-69.16,0.0,0.0,0.0,0.0,0.0
443,0.0,0.332962890625,0.0,0.0,0.0,0.0,0.0,0.0,-0.496,0.0,0.0,0.0,0.0,0.0,0.0,0.2075831617137745,0.0,0.0,0.0,0.0,0.0,0.0,-63.6,0.0,0.0,0.0,0.0,0.0
444,0.0,0.3280224609375,0.0,0.0,0.0,0.0,0.0,0.0,-0.53,0.0,0.0,0.0,0.0,0.0,0.0,0.196250755658117,0.0,0.0,0.0,0.0,0.0,0.0,-59.548,0.0,0.0,0.0,0.0,0.0
445,0.0,0.3233916015625,0.0,0.0,0.0,0.0,0.0,0.0,-0.48,0.0,0.0,0.0,0.0,0.0,0.0,0.18479911427309545,0.0,0.0,0.0,0.0,0.0,0.0,-57.28,0.0,0.0,0.0,0.0,0.0
446,0.0,0.318240234375,0.0,0.0,0.0,0.0,0.0,0.0,-0.486,0.0,0.0,0.0,0.0,0.0,0.0,0.17341393825326945,0.0,0.0,0.0,0.0,0.0,0.0,-54.472,0.0,0.0,0.0,0.0,0.0
447,0.0,0.3125732421875,0.0,0.0,0.0,0.0,0.0,0.0,-0.545,0.0,0.0,0.0,0.0,0.0,0.0,0.16182770258463608,0.0,0.0,0.0,0.0,0.0,0.0,-50.48,0.0,0.0,0.0,0.0,0.0
448,0.0,0.30660546875,0.0,0.0,0.0,0.0,0.0,0.0,-0.582,0.0,0.0,0.0,0.0,0.0,0.0,0.15032309376802439,0.0,0.0,0.0,0.0,0.0,0.0,-46.968,0.0,0.0,0.0,0.0,0.0
449,0.0,0.30052734375,0.0,0.0,0.0,0.0,0.0,0.0,-0.607,0.0,0.0,0.0,0.0,0.0,0.0,0.13872218598264657,0.0,0.0,0.0,0.0,0.0,0.0,-44.54,0.0,0.0,0.0,0.0,0.0
450,0.0,0.2949697265625,0.0,0.0,0.0,0.0,0.0,0.0,-0.593,0.0,0.0,0.0,0.0,0.0,0.0,0.12688782540787985,0.0,0.0,0.0,0.0,0.0,0.0,-44.052,0.0,0.0,0.0,0.0,0.0
451,0.0,0.2893037109375,0.0,0.0,0.0,0.0,0.0,0.0,-0.561,0.0,0.0,0.0,0.0,0.0,0.0,0.11525005375441988,0.0,0.0,0.0,0.0,0.0,0.0,-44.592,0.0,0.0,0.0,0.0,0.0
452,0.0,0.2833349609375,0.0,0.0,0.0,0.0,0.0,0.0,-0.583,0.0,0.0,0.0,0.0,0.0,0.0,0.10345013038863594,0.0,0.0,0.0,0.0,0.0,0.0,-43.892,0.0,0.0,0.0,0.0,0.0
453,0.0,0.27705078125,0.0,0.0,0.0,0.0,0.0,0.0,-0.611,0.0,0.0,0.0,0.0,0.0,0.0,0.0915327606035263,0.0,0.0,0.0,0.0,0.0,0.0,-45.996,0.0,0.0,0.0,0.0,0.0
454,0.0,0.2701494140625,0.0,0.0,0.0,0.0,0.0,0.0,-0.66,0.0,0.0,0.0,0.0,0.0,0.0,0.07966989456554803,0.0,0.0,0.0,0.0,0.0,0.0,-46.86,0.0,0.0,0.0,0.0,0.0
455,0.0,0.264078125,0.0,0.0,0.0,0.0,0.0,0.0,-0.664,0.0,0.0,0.0,0.0,0.0,0.0,0.06770871775088769,0.0,0.0,0.0,0.0,0.0,0.0,-42.488,0.0,0.0,0.0,0.0,0.0
456,0.0,0.2582060546875,0.0,0.0,0.0,0.0,0.0,0.0,-0.596,0.0,0.0,0.0,0.0,0.0,0.0,0.05579286066811542,0.0,0.0,0.0,0.0,0.0,0.0,-39.952,0.0,0.0,0.0,0.0,0.0
457,0.0,0.2518193359375,0.0,0.0,0.0,0.0,0.0,0.0,-0.617,0.0,0.0,0.0,0.0,0.0,0.0,0.043879872335458196,0.0,0.0,0.0,0.0,0.0,0.0,-41.356,0.0,0.0,0.0,0.0,0.0
458,0.0,0.2458505859375,0.0,0.0,0.0,0.0,0.0,0.0,-0.628,0.0,0.0,0.0,0.0,0.0,0.0,0.031953179537478,0.0,0.0,0.0,0.0,0.0,0.0,-41.356,0.0,0.0,0.0,0.0,0.0
459,0.0,0.239875,0.0,0.0,0.0,0.0,0.0,0.0,-0.6,0.0,0.0,0.0,0.0,0.0,0.0,0.019723575958638787,0.0,0.0,0.0,0.0,0.0,0.0,-35.468,0.0,0.0,0.0,0.0,0.0
460,0.0,0.234009765625,0.0,0.0,0.0,0.0,0.0,0.0,-0.601,0.0,0.0,0.0,0.0,0.0,0.0,0.00783363496323416,0.0,0.0,0.0,0.0,0.0,0.0,-32.176,0.0,0.0,0.0,0.0,0.0
461,0.0,0.2287548828125,0.0,0.0,0.0,0.0,0.0,0.0,-0.564,0.0,0.0,0.0,0.0,0.0,0.0,-0.004055664650782128,0.0,0.0,0.0,0.0,0.0,0.0,-33.796,0.0,0.0,0.0,0.0,0.0
462,0.0,0.223505859375,0.0,0.0,0.0,0.0,0.0,0.0,-0.527,0.0,0.0,0.0,0.0,0.0,0.0,-0.01613155982421294,0.0,0.0,0.0,0.0,0.0,0.0,-36.28,0.0,0.0,0.0,0.0,0.0
463,0.0,0.2186630859375,0.0,0.0,0.0,0.0,0.0,0.0,-0.515,0.0,0.0,0.0,0.0,0.0,0.0,-0.028288654675211515,0.0,0.0,0.0,0.0,0.0,0.0,-33.092,0.0,0.0,0.0,0.0,0.0
464,0.0,0.214134765625,0.0,0.0,0.0,0.0,0.0,0.0,-0.474,0.0,0.0,0.0,0.0,0.0,0.0,-0.040034192819802306,0.0,0.0,0.0,0.0,0.0,0.0,-32.444,0.0,0.0,0.0,0.0,0.0
465,0.0,0.209189453125,0.0,0.0,0.0,0.0,0.0,0.0,-0.474,0.0,0.0,0.0,0.0,0.0,0.0,-0.05203112744227652,0.0,0.0,0.0,0.0,0.0,0.0,-34.388,0.0,0.0,0.0,0.0,0.0
466,0.0,0.204763671875,0.0,0.0,0.0,0.0,0.0,0.0,-0.477,0.0,0.0,0.0,0.0,0.0,0.0,-0.06415363701416042,0.0,0.0,0.0,0.0,0.0,0.0,-37.304,0.0,0.0,0.0,0.0,0.0
467,0.0,0.2006416015625,0.0,0.0,0.0,0.0,0.0,0.0,-0.433,0.0,0.0,0.0,0.0,0.0,0.0,-0.07586630455372277,0.0,0.0,0.0,0.0,0.0,0.0,-35.684,0.0,0.0,0.0,0.0,0.0
468,0.0,0.19673046875,0.0,0.0,0.0,0.0,0.0,0.0,-0.408,0.0,0.0,0.0,0.0,0.0,0.0,-0.08776731431041068,0.0,0.0,0.0,0.0,0.0,0.0,-33.148,0.0,0.0,0.0,0.0,0.0
469,0.0,0.19301953125,0.0,0.0,0.0,0.0,0.0,0.0,-0.383,0.0,0.0,0.0,0.0,0.0,0.0,-0.09982554717162324,0.0,0.0,0.0,0.0,0.0,0.0,-35.308,0.0,0.0,0.0,0.0,0.0
470,0.0,0.1893154296875,0.0,0.0,0.0,0.0,0.0,0.0,-0.375,0.0,0.0,0.0,0.0,0.0,0.0,-0.11140898360033219,0.0,0.0,0.0,0.0,0.0,0.0,-37.844,0.0,0.0,0.0,0.0,0.0
471,0.0,0.185712890625,0.0,0.0,0.0,0.0,0.0,0.0,-0.366,0.0,0.0,0.0,0.0,0.0,0.0,-0.12320074536638737,0.0,0.0,0.0,0.0,0.0,0.0,-39.52,0.0,0.0,0.0,0.0,0.0
472,0.0,0.1821044921875,0.0,0.0,0.0,0.0,0.0,0.0,-0.364,0.0,0.0,0.0,0.0,0.0,0.0,-0.13503530303060304,0.0,0.0,0.0,0.0,0.0,0.0,-39.412,0.0,0.0,0.0,0.0,0.0
473,0.0,0.1789150390625,0.0,0.0,0.0,0.0,0.0,0.0,-0.35,0.0,0.0,0.0,0.0,0.0,0.0,-0.1465750839471942,0.0,0.0,0.0,0.0,0.0,0.0,-38.492,0.0,0.0,0.0,0.0,0.0
474,0.0,0.1759306640625,0.0,0.0,0.0,0.0,0.0,0.0,-0.313,0.0,0.0,0.0,0.0,0.0,0.0,-0.15817919645719838,0.0,0.0,0.0,0.0,0.0,0.0,-40.276,0.0,0.0,0.0,0.0,0.0
475,0.0,0.17304296875,0.0,0.0,0.0,0.0,0.0,0.0,-0.294,0.0,0.0,0.0,0.0,0.0,0.0,-0.1698912927493223,0.0,0.0,0.0,0.0,0.0,0.0,-43.136,0.0,0.0,0.0,0.0,0.0
476,0.0,0.17005859375,0.0,0.0,0.0,0.0,0.0,0.0,-0.293,0.0,0.0,0.0,0.0,0.0,0.0,-0.18127407444228813,0.0,0.0,0.0,0.0,0.0,0.0,-45.348,0.0,0.0,0.0,0.0,0.0
477,0.0,0.166662109375,0.0,0.0,0.0,0.0,0.0,0.0,-0.323,0.0,0.0,0.0,0.0,0.0,0.0,-0.1926694993263587,0.0,0.0,0.0,0.0,0.0,0.0,-45.24,0.0,0.0,0.0,0.0,0.0
478,0.0,0.163259765625,0.0,0.0,0.0,0.0,0.0,0.0,-0.344,0.0,0.0,0.0,0.0,0.0,0.0,-0.20407700726806066,0.0,0.0,0.0,0.0,0.0,0.0,-44.916,0.0,0.0,0.0,0.0,0.0
479,0.0,0.1601728515625,0.0,0.0,0.0,0.0,0.0,0.0,-0.327,0.0,0.0,0.0,0.0,0.0,0.0,-0.21517202827381518,0.0,0.0,0.0,0.0,0.0,0.0,-44.972,0.0,0.0,0.0,0.0,0.0
480,0.0,0.1571884765625,0.0,0.0,0.0,0.0,0.0,0.0,-0.307,0.0,0.0,0.0,0.0,0.0,0.0,-0.22633454574987502,0.0,0.0,0.0,0.0,0.0,0.0,-45.672,0.0,0.0,0.0,0.0,0.0
481,0.0,0.1540947265625,0.0,0.0,0.0,0.0,0.0,0.0,-0.305,0.0,0.0,0.0,0.0,0.0,0.0,-0.23758827159562174,0.0,0.0,0.0,0.0,0.0,0.0,-46.968,0.0,0.0,0.0,0.0,0.0
482,0.0,0.150595703125,0.0,0.0,0.0,0.0,0.0,0.0,-0.326,0.0,0.0,0.0,0.0,0.0,0.0,-0.24841068188244095,0.0,0.0,0.0,0.0,0.0,0.0,-47.456,0.0,0.0,0.0,0.0,0.0
483,0.0,0.1469873046875,0.0,0.0,0.0,0.0,0.0,0.0,-0.358,0.0,0.0,0.0,0.0,0.0,0.0,-0.25923033717433824,0.0,0.0,0.0,0.0,0.0,0.0,-47.132,0.0,0.0,0.0,0.0,0.0
484,0.0,0.14337890625,0.0,0.0,0.0,0.0,0.0,0.0,-0.367,0.0,0.0,0.0,0.0,0.0,0.0,-0.27017265606166174,0.0,0.0,0.0,0.0,0.0,0.0,-46.536,0.0,0.0,0.0,0.0,0.0
485,0.0,0.1398798828125,0.0,0.0,0.0,0.0,0.0,0.0,-0.359,0.0,0.0,0.0,0.0,0.0,0.0,-0.28070734290267546,0.0,0.0,0.0,0.0,0.0,0.0,-46.752,0.0,0.0,0.0,0.0,0.0
486,0.0,0.1362724609375,0.0,0.0,0.0,0.0,0.0,0.0,-0.358,0.0,0.0,0.0,0.0,0.0,0.0,-0.29125921060417354,0.0,0.0,0.0,0.0,0.0,0.0,-47.24,0.0,0.0,0.0,0.0,0.0
487,0.0,0.132669921875,0.0,0.0,0.0,0.0,0.0,0.0,-0.362,0.0,0.0,0.0,0.0,0.0,0.0,-0.30179960988910143,0.0,0.0,0.0,0.0,0.0,0.0,-47.4,0.0,0.0,0.0,0.0,0.0
488,0.0,0.128759765625,0.0,0.0,0.0,0.0,0.0,0.0,-0.377,0.0,0.0,0.0,0.0,0.0,0.0,-0.31208335801723736,0.0,0.0,0.0,0.0,0.0,0.0,-47.4,0.0,0.0,0.0,0.0,0.0
489,0.0,0.1248427734375,0.0,0.0,0.0,0.0,0.0,0.0,-0.391,0.0,0.0,0.0,0.0,0.0,0.0,-0.3221932080007329,0.0,0.0,0.0,0.0,0.0,0.0,-47.292,0.0,0.0,0.0,0.0,0.0
490,0.0,0.1209326171875,0.0,0.0,0.0,0.0,0.0,0.0,-0.395,0.0,0.0,0.0,0.0,0.0,0.0,-0.3322592603503833,0.0,0.0,0.0,0.0,0.0,0.0,-46.808,0.0,0.0,0.0,0.0,0.0
491,0.0,0.116912109375,0.0,0.0,0.0,0.0,0.0,0.0,-0.4,0.0,0.0,0.0,0.0,0.0,0.0,-0.3422885460359792,0.0,0.0,0.0,0.0,0.0,0.0,-46.592,0.0,0.0,0.0,0.0,0.0
492,0.0,0.1127958984375,0.0,0.0,0.0,0.0,0.0,0.0,-0.408,0.0,0.0,0.0,0.0,0.0,0.0,-0.353648411197573,0.0,0.0,0.0,0.0,0.0,0.0,-46.428,0.0,0.0,0.0,0.0,0.0
493,0.0,0.1086728515625,0.0,0.0,0.0,0.0,0.0,0.0,-0.415,0.0,0.0,0.0,0.0,0.0,0.0,-0.3616531400967267,0.0,0.0,0.0,0.0,0.0,0.0,-45.944,0.0,0.0,0.0,0.0,0.0
494,0.0,0.1045634765625,0.0,0.0,0.0,0.0,0.0,0.0,-0.415,0.0,0.0,0.0,0.0,0.0,0.0,-0.37116359559021334,0.0,0.0,0.0,0.0,0.0,0.0,-45.62,0.0,0.0,0.0,0.0,0.0
495,0.0,0.100337890625,0.0,0.0,0.0,0.0,0.0,0.0,-0.422,0.0,0.0,0.0,0.0,0.0,0.0,-0.38046626446367504,0.0,0.0,0.0,0.0,0.0,0.0,-45.404,0.0,0.0,0.0,0.0,0.0
496,0.0,0.0961181640625,0.0,0.0,0.0,0.0,0.0,0.0,-0.422,0.0,0.0,0.0,0.0,0.0,0.0,-0.38971501088424304,0.0,0.0,0.0,0.0,0.0,0.0,-44.808,0.0,0.0,0.0,0.0,0.0
497,0.0,0.0916865234375,0.0,0.0,0.0,0.0,0.0,0.0,-0.433,0.0,0.0,0.0,0.0,0.0,0.0,-0.3987397996918446,0.0,0.0,0.0,0.0,0.0,0.0,-44.376,0.0,0.0,0.0,0.0,0.0
498,0.0,0.0873642578125,0.0,0.0,0.0,0.0,0.0,0.0,-0.442,0.0,0.0,0.0,0.0,0.0,0.0,-0.4076482425865937,0.0,0.0,0.0,0.0,0.0,0.0,-44.052,0.0,0.0,0.0,0.0,0.0
499,0.0,0.0831455078125,0.0,0.0,0.0,0.0,0.0,0.0,-0.435,0.0,0.0,0.0,0.0,0.0,0.0,-0.4164041438562956,0.0,0.0,0.0,0.0,0.0,0.0,-43.62,0.0,0.0,0.0,0.0,0.0
500,0.0,0.078919921875,0.0,0.0,0.0,0.0,0.0,0.0,-0.428,0.0,0.0,0.0,0.0,0.0,0.0,-0.4249166775347966,0.0,0.0,0.0,0.0,0.0,0.0,-43.784,0.0,0.0,0.0,0.0,0.0
501,0.0,0.0747001953125,0.0,0.0,0.0,0.0,0.0,0.0,-0.424,0.0,0.0,0.0,0.0,0.0,0.0,-0.4332609803844396,0.0,0.0,0.0,0.0,0.0,0.0,-44.0,0.0,0.0,0.0,0.0,0.0
502,0.0,0.070474609375,0.0,0.0,0.0,0.0,0.0,0.0,-0.427,0.0,0.0,0.0,0.0,0.0,0.0,-0.44154921912797074,0.0,0.0,0.0,0.0,0.0,0.0,-43.512,0.0,0.0,0.0,0.0,0.0
503,0.0,0.06615234375,0.0,0.0,0.0,0.0,0.0,0.0,-0.426,0.0,0.0,0.0,0.0,0.0,0.0,-0.4495397714130238,0.0,0.0,0.0,0.0,0.0,0.0,-43.404,0.0,0.0,0.0,0.0,0.0
504,0.0,0.06182421875,0.0,0.0,0.0,0.0,0.0,0.0,-0.436,0.0,0.0,0.0,0.0,0.0,0.0,-0.4574157088676798,0.0,0.0,0.0,0.0,0.0,0.0,-43.136,0.0,0.0,0.0,0.0,0.0
505,0.0,0.0577080078125,0.0,0.0,0.0,0.0,0.0,0.0,-0.427,0.0,0.0,0.0,0.0,0.0,0.0,-0.4651061776228621,0.0,0.0,0.0,0.0,0.0,0.0,-43.028,0.0,0.0,0.0,0.0,0.0
506,0.0,0.0536875,0.0,0.0,0.0,0.0,0.0,0.0,-0.408,0.0,0.0,0.0,0.0,0.0,0.0,-0.4725544418701751,0.0,0.0,0.0,0.0,0.0,0.0,-43.404,0.0,0.0,0.0,0.0,0.0
507,0.0,0.04977734375,0.0,0.0,0.0,0.0,0.0,0.0,-0.402,0.0,0.0,0.0,0.0,0.0,0.0,-0.47982719543060925,0.0,0.0,0.0,0.0,0.0,0.0,-43.62,0.0,0.0,0.0,0.0,0.0
508,0.0,0.045654296875,0.0,0.0,0.0,0.0,0.0,0.0,-0.404,0.0,0.0,0.0,0.0,0.0,0.0,-0.4869276624953266,0.0,0.0,0.0,0.0,0.0,0.0,-43.244,0.0,0.0,0.0,0.0,0.0
509,0.0,0.0415380859375,0.0,0.0,0.0,0.0,0.0,0.0,-0.415,0.0,0.0,0.0,0.0,0.0,0.0,-0.4939441002584368,0.0,0.0,0.0,0.0,0.0,0.0,-43.296,0.0,0.0,0.0,0.0,0.0
510,0.0,0.0374150390625,0.0,0.0,0.0,0.0,0.0,0.0,-0.415,0.0,0.0,0.0,0.0,0.0,0.0,-0.5005718541554297,0.0,0.0,0.0,0.0,0.0,0.0,-43.296,0.0,0.0,0.0,0.0,0.0
511,0.0,0.0335048828125,0.0,0.0,0.0,0.0,0.0,0.0,-0.406,0.0,0.0,0.0,0.0,0.0,0.0,-0.5070962939170522,0.0,0.0,0.0,0.0,0.0,0.0,-43.676,0.0,0.0,0.0,0.0,0.0
512,0.0,0.029697265625,0.0,0.0,0.0,0.0,0.0,0.0,-0.389,0.0,0.0,0.0,0.0,0.0,0.0,-0.5134439787792134,0.0,0.0,0.0,0.0,0.0,0.0,-44.268,0.0,0.0,0.0,0.0,0.0
513,0.0,0.0258828125,0.0,0.0,0.0,0.0,0.0,0.0,-0.383,0.0,0.0,0.0,0.0,0.0,0.0,-0.519507812534548,0.0,0.0,0.0,0.0,0.0,0.0,-44.324,0.0,0.0,0.0,0.0,0.0
514,0.0,0.02197265625,0.0,0.0,0.0,0.0,0.0,0.0,-0.386,0.0,0.0,0.0,0.0,0.0,0.0,-0.525406537819303,0.0,0.0,0.0,0.0,0.0,0.0,-44.16,0.0,0.0,0.0,0.0,0.0
515,0.0,0.017953125,0.0,0.0,0.0,0.0,0.0,0.0,-0.4,0.0,0.0,0.0,0.0,0.0,0.0,-0.5311517232486214,0.0,0.0,0.0,0.0,0.0,0.0,-44.324,0.0,0.0,0.0,0.0,0.0
516,0.0,0.013939453125,0.0,0.0,0.0,0.0,0.0,0.0,-0.407,0.0,0.0,0.0,0.0,0.0,0.0,-0.5365571861794478,0.0,0.0,0.0,0.0,0.0,0.0,-44.268,0.0,0.0,0.0,0.0,0.0
517,0.0,0.0100224609375,0.0,0.0,0.0,0.0,0.0,0.0,-0.399,0.0,0.0,0.0,0.0,0.0,0.0,-0.5418179524925544,0.0,0.0,0.0,0.0,0.0,0.0,-44.592,0.0,0.0,0.0,0.0,0.0
518,0.0,0.0063173828125,0.0,0.0,0.0,0.0,0.0,0.0,-0.384,0.0,0.0,0.0,0.0,0.0,0.0,-0.5468898342219014,0.0,0.0,0.0,0.0,0.0,0.0,-44.864,0.0,0.0,0.0,0.0,0.0
519,0.0,0.0026064453125,0.0,0.0,0.0,0.0,0.0,0.0,-0.373,0.0,0.0,0.0,0.0,0.0,0.0,-0.551714828406684,0.0,0.0,0.0,0.0,0.0,0.0,-44.808,0.0,0.0,0.0,0.0,0.0
520,0.0,-0.0013037109375,0.0,0.0,0.0,0.0,0.0,0.0,-0.382,0.0,0.0,0.0,0.0,0.0,0.0,-0.5563074817470814,0.0,0.0,0.0,0.0,0.0,0.0,-44.376,0.0,0.0,0.0,0.0,0.0
521,0.0,-0.0054267578125,0.0,0.0,0.0,0.0,0.0,0.0,-0.405,0.0,0.0,0.0,0.0,0.0,0.0,-0.5607156786105765,0.0,0.0,0.0,0.0,0.0,0.0,-44.592,0.0,0.0,0.0,0.0,0.0
522,0.0,-0.0094404296875,0.0,0.0,0.0,0.0,0.0,0.0,-0.41,0.0,0.0,0.0,0.0,0.0,0.0,-0.5648914411243742,0.0,0.0,0.0,0.0,0.0,0.0,-44.324,0.0,0.0,0.0,0.0,0.0
523,0.0,-0.0133505859375,0.0,0.0,0.0,0.0,0.0,0.0,-0.4,0.0,0.0,0.0,0.0,0.0,0.0,-0.5687803953888018,0.0,0.0,0.0,0.0,0.0,0.0,-44.7,0.0,0.0,0.0,0.0,0.0
524,0.0,-0.0171650390625,0.0,0.0,0.0,0.0,0.0,0.0,-0.391,0.0,0.0,0.0,0.0,0.0,0.0,-0.572571861956339,0.0,0.0,0.0,0.0,0.0,0.0,-45.132,0.0,0.0,0.0,0.0,0.0
525,0.0,-0.020869140625,0.0,0.0,0.0,0.0,0.0,0.0,-0.375,0.0,0.0,0.0,0.0,0.0,0.0,-0.5759736699285121,0.0,0.0,0.0,0.0,0.0,0.0,-45.08,0.0,0.0,0.0,0.0,0.0
526,0.0,-0.0247861328125,0.0,0.0,0.0,0.0,0.0,0.0,-0.381,0.0,0.0,0.0,0.0,0.0,0.0,-0.579213114518976,0.0,0.0,0.0,0.0,0.0,0.0,-44.864,0.0,0.0,0.0,0.0,0.0
527,0.0,-0.02890234375,0.0,0.0,0.0,0.0,0.0,0.0,-0.407,0.0,0.0,0.0,0.0,0.0,0.0,-0.5822509999516803,0.0,0.0,0.0,0.0,0.0,0.0,-44.808,0.0,0.0,0.0,0.0,0.0
528,0.0,-0.03312890625,0.0,0.0,0.0,0.0,0.0,0.0,-0.422,0.0,0.0,0.0,0.0,0.0,0.0,-0.585022430409402,0.0,0.0,0.0,0.0,0.0,0.0,-44.756,0.0,0.0,0.0,0.0,0.0
529,0.0,-0.0371416015625,0.0,0.0,0.0,0.0,0.0,0.0,-0.413,0.0,0.0,0.0,0.0,0.0,0.0,-0.5875612211508598,0.0,0.0,0.0,0.0,0.0,0.0,-44.54,0.0,0.0,0.0,0.0,0.0
530,0.0,-0.0408525390625,0.0,0.0,0.0,0.0,0.0,0.0,-0.391,0.0,0.0,0.0,0.0,0.0,0.0,-0.5898952084205626,0.0,0.0,0.0,0.0,0.0,0.0,-44.808,0.0,0.0,0.0,0.0,0.0
531,0.0,-0.04466015625,0.0,0.0,0.0,0.0,0.0,0.0,-0.378,0.0,0.0,0.0,0.0,0.0,0.0,-0.5919629002661041,0.0,0.0,0.0,0.0,0.0,0.0,-44.808,0.0,0.0,0.0,0.0,0.0
532,0.0,-0.0485712890625,0.0,0.0,0.0,0.0,0.0,0.0,-0.388,0.0,0.0,0.0,0.0,0.0,0.0,-0.5937950285123766,0.0,0.0,0.0,0.0,0.0,0.0,-44.268,0.0,0.0,0.0,0.0,0.0
533,0.0,-0.052796875,0.0,0.0,0.0,0.0,0.0,0.0,-0.409,0.0,0.0,0.0,0.0,0.0,0.0,-0.5954205922373886,0.0,0.0,0.0,0.0,0.0,0.0,-44.54,0.0,0.0,0.0,0.0,0.0
534,0.0,-0.057119140625,0.0,0.0,0.0,0.0,0.0,0.0,-0.431,0.0,0.0,0.0,0.0,0.0,0.0,-0.5967676456795353,0.0,0.0,0.0,0.0,0.0,0.0,-44.268,0.0,0.0,0.0,0.0,0.0
535,0.0,-0.061138671875,0.0,0.0,0.0,0.0,0.0,0.0,-0.42,0.0,0.0,0.0,0.0,0.0,0.0,-0.5978826867358614,0.0,0.0,0.0,0.0,0.0,0.0,-44.324,0.0,0.0,0.0,0.0,0.0
536,0.0,-0.0649462890625,0.0,0.0,0.0,0.0,0.0,0.0,-0.394,0.0,0.0,0.0,0.0,0.0,0.0,-0.5987886458792712,0.0,0.0,0.0,0.0,0.0,0.0,-44.592,0.0,0.0,0.0,0.0,0.0
537,0.0,-0.0686572265625,0.0,0.0,0.0,0.0,0.0,0.0,-0.38,0.0,0.0,0.0,0.0,0.0,0.0,-0.5994204347079519,0.0,0.0,0.0,0.0,0.0,0.0,-44.648,0.0,0.0,0.0,0.0,0.0
538,0.0,-0.0726708984375,0.0,0.0,0.0,0.0,0.0,0.0,-0.385,0.0,0.0,0.0,0.0,0.0,0.0,-0.5998263880484809,0.0,0.0,0.0,0.0,0.0,0.0,-44.592,0.0,0.0,0.0,0.0,0.0
539,0.0,-0.076896484375,0.0,0.0,0.0,0.0,0.0,0.0,-0.413,0.0,0.0,0.0,0.0,0.0,0.0,-0.5999956888568694,0.0,0.0,0.0,0.0,0.0,0.0,-44.54,0.0,0.0,0.0,0.0,0.0
540,0.0,-0.0811162109375,0.0,0.0,0.0,0.0,0.0,0.0,-0.429,0.0,0.0,0.0,0.0,0.0,0.0,-0.5999217640977603,0.0,0.0,0.0,0.0,0.0,0.0,-44.216,0.0,0.0,0.0,0.0,0.0
541,0.0,-0.0811162109375,0.0,0.0,0.0,0.0,0.0,0.0,-0.429,0.0,0.0,0.0,0.0,0.0,0.0,-0.5996080995440303,0.0,0.0,0.0,0.0,0.0,0.0,-44.216,0.0,0.0,0.0,0.0,0.0
542,0.0,-0.0890458984375,0.0,0.0,0.0,0.0,0.0,0.0,-0.398,0.0,0.0,0.0,0.0,0.0,0.0,-0.5990546274645446,0.0,0.0,0.0,0.0,0.0,0.0,-44.216,0.0,0.0,0.0,0.0,0.0
543,0.0,-0.0927578125,0.0,0.0,0.0,0.0,0.0,0.0,-0.376,0.0,0.0,0.0,0.0,0.0,0.0,-0.5982590404545197,0.0,0.0,0.0,0.0,0.0,0.0,-44.268,0.0,0.0,0.0,0.0,0.0
544,0.0,-0.09666796875,0.0,0.0,0.0,0.0,0.0,0.0,-0.381,0.0,0.0,0.0,0.0,0.0,0.0,-0.5972320704337369,0.0,0.0,0.0,0.0,0.0,0.0,-43.892,0.0,0.0,0.0,0.0,0.0
545,0.0,-0.1008876953125,0.0,0.0,0.0,0.0,0.0,0.0,-0.412,0.0,0.0,0.0,0.0,0.0,0.0,-0.5959630743310748,0.0,0.0,0.0,0.0,0.0,0.0,-44.16,0.0,0.0,0.0,0.0,0.0
546,0.0,-0.105208984375,0.0,0.0,0.0,0.0,0.0,0.0,-0.433,0.0,0.0,0.0,0.0,0.0,0.0,-0.594455737486189,0.0,0.0,0.0,0.0,0.0,0.0,-43.944,0.0,0.0,0.0,0.0,0.0
547,0.0,-0.1092294921875,0.0,0.0,0.0,0.0,0.0,0.0,-0.42,0.0,0.0,0.0,0.0,0.0,0.0,-0.5927073553796316,0.0,0.0,0.0,0.0,0.0,0.0,-43.728,0.0,0.0,0.0,0.0,0.0
548,0.0,-0.113037109375,0.0,0.0,0.0,0.0,0.0,0.0,-0.393,0.0,0.0,0.0,0.0,0.0,0.0,-0.5907274921286041,0.0,0.0,0.0,0.0,0.0,0.0,-44.16,0.0,0.0,0.0,0.0,0.0
549,0.0,-0.116638671875,0.0,0.0,0.0,0.0,0.0,0.0,-0.376,0.0,0.0,0.0,0.0,0.0,0.0,-0.588498379670408,0.0,0.0,0.0,0.0,0.0,0.0,-44.324,0.0,0.0,0.0,0.0,0.0
550,0.0,-0.1205556640625,0.0,0.0,0.0,0.0,0.0,0.0,-0.377,0.0,0.0,0.0,0.0,0.0,0.0,-0.5860638382797315,0.0,0.0,0.0,0.0,0.0,0.0,-44.268,0.0,0.0,0.0,0.0,0.0
551,0.0,-0.1248779296875,0.0,0.0,0.0,0.0,0.0,0.0,-0.409,0.0,0.0,0.0,0.0,0.0,0.0,-0.5833766235033085,0.0,0.0,0.0,0.0,0.0,0.0,-44.376,0.0,0.0,0.0,0.0,0.0
552,0.0,-0.129103515625,0.0,0.0,0.0,0.0,0.0,0.0,-0.433,0.0,0.0,0.0,0.0,0.0,0.0,-0.5804319125750138,0.0,0.0,0.0,0.0,0.0,0.0,-44.108,0.0,0.0,0.0,0.0,0.0
553,0.0,-0.1331171875,0.0,0.0,0.0,0.0,0.0,0.0,-0.417,0.0,0.0,0.0,0.0,0.0,0.0,-0.5772920519530461,0.0,0.0,0.0,0.0,0.0,0.0,-43.836,0.0,0.0,0.0,0.0,0.0
554,0.0,-0.136828125,0.0,0.0,0.0,0.0,0.0,0.0,-0.392,0.0,0.0,0.0,0.0,0.0,0.0,-0.5739052998759365,0.0,0.0,0.0,0.0,0.0,0.0,-44.216,0.0,0.0,0.0,0.0,0.0
555,0.0,-0.140533203125,0.0,0.0,0.0,0.0,0.0,0.0,-0.372,0.0,0.0,0.0,0.0,0.0,0.0,-0.5702724450389706,0.0,0.0,0.0,0.0,0.0,0.0,-44.108,0.0,0.0,0.0,0.0,0.0
556,0.0,-0.1444501953125,0.0,0.0,0.0,0.0,0.0,0.0,-0.378,0.0,0.0,0.0,0.0,0.0,0.0,-0.5664290216283714,0.0,0.0,0.0,0.0,0.0,0.0,-43.892,0.0,0.0,0.0,0.0,0.0
557,0.0,-0.1486689453125,0.0,0.0,0.0,0.0,0.0,0.0,-0.41,0.0,0.0,0.0,0.0,0.0,0.0,-0.5623775707542166,0.0,0.0,0.0,0.0,0.0,0.0,-44.052,0.0,0.0,0.0,0.0,0.0
558,0.0,-0.152998046875,0.0,0.0,0.0,0.0,0.0,0.0,-0.434,0.0,0.0,0.0,0.0,0.0,0.0,-0.5580455587672005,0.0,0.0,0.0,0.0,0.0,0.0,-43.784,0.0,0.0,0.0,0.0,0.0
559,0.0,-0.156908203125,0.0,0.0,0.0,0.0,0.0,0.0,-0.417,0.0,0.0,0.0,0.0,0.0,0.0,-0.5535026557408584,0.0,0.0,0.0,0.0,0.0,0.0,-43.568,0.0,0.0,0.0,0.0,0.0
560,0.0,-0.16072265625,0.0,0.0,0.0,0.0,0.0,0.0,-0.393,0.0,0.0,0.0,0.0,0.0,0.0,-0.5488258935319004,0.0,0.0,0.0,0.0,0.0,0.0,-44.052,0.0,0.0,0.0,0.0,0.0
561,0.0,-0.16432421875,0.0,0.0,0.0,0.0,0.0,0.0,-0.371,0.0,0.0,0.0,0.0,0.0,0.0,-0.5438220472252708,0.0,0.0,0.0,0.0,0.0,0.0,-44.108,0.0,0.0,0.0,0.0,0.0
562,0.0,-0.1682412109375,0.0,0.0,0.0,0.0,0.0,0.0,-0.377,0.0,0.0,0.0,0.0,0.0,0.0,-0.5386496111581379,0.0,0.0,0.0,0.0,0.0,0.0,-44.108,0.0,0.0,0.0,0.0,0.0
563,0.0,-0.1725634765625,0.0,0.0,0.0,0.0,0.0,0.0,-0.413,0.0,0.0,0.0,0.0,0.0,0.0,-0.533285273170724,0.0,0.0,0.0,0.0,0.0,0.0,-44.108,0.0,0.0,0.0,0.0,0.0
564,0.0,-0.1767890625,0.0,0.0,0.0,0.0,0.0,0.0,-0.431,0.0,0.0,0.0,0.0,0.0,0.0,-0.5276356625967542,0.0,0.0,0.0,0.0,0.0,0.0,-43.728,0.0,0.0,0.0,0.0,0.0
565,0.0,-0.180802734375,0.0,0.0,0.0,0.0,0.0,0.0,-0.418,0.0,0.0,0.0,0.0,0.0,0.0,-0.5218487086921997,0.0,0.0,0.0,0.0,0.0,0.0,-43.62,0.0,0.0,0.0,0.0,0.0
566,0.0,-0.1846162109375,0.0,0.0,0.0,0.0,0.0,0.0,-0.396,0.0,0.0,0.0,0.0,0.0,0.0,-0.5156891667776106,0.0,0.0,0.0,0.0,0.0,0.0,-43.836,0.0,0.0,0.0,0.0,0.0
567,0.0,-0.1882177734375,0.0,0.0,0.0,0.0,0.0,0.0,-0.371,0.0,0.0,0.0,0.0,0.0,0.0,-0.5096051915740598,0.0,0.0,0.0,0.0,0.0,0.0,-43.676,0.0,0.0,0.0,0.0,0.0
568,0.0,-0.1922314453125,0.0,0.0,0.0,0.0,0.0,0.0,-0.379,0.0,0.0,0.0,0.0,0.0,0.0,-0.5032002864529123,0.0,0.0,0.0,0.0,0.0,0.0,-43.512,0.0,0.0,0.0,0.0,0.0
569,0.0,-0.196451171875,0.0,0.0,0.0,0.0,0.0,0.0,-0.414,0.0,0.0,0.0,0.0,0.0,0.0,-0.4965561698858353,0.0,0.0,0.0,0.0,0.0,0.0,-43.728,0.0,0.0,0.0,0.0,0.0
570,0.0,-0.200669921875,0.0,0.0,0.0,0.0,0.0,0.0,-0.429,0.0,0.0,0.0,0.0,0.0,0.0,-0.48966798723713884,0.0,0.0,0.0,0.0,0.0,0.0,-43.568,0.0,0.0,0.0,0.0,0.0
571,0.0,-0.20479296875,0.0,0.0,0.0,0.0,0.0,0.0,-0.42,0.0,0.0,0.0,0.0,0.0,0.0,-0.48270074461244,0.0,0.0,0.0,0.0,0.0,0.0,-43.404,0.0,0.0,0.0,0.0,0.0
572,0.0,-0.2084970703125,0.0,0.0,0.0,0.0,0.0,0.0,-0.397,0.0,0.0,0.0,0.0,0.0,0.0,-0.4754603511962755,0.0,0.0,0.0,0.0,0.0,0.0,-43.836,0.0,0.0,0.0,0.0,0.0
573,0.0,-0.212208984375,0.0,0.0,0.0,0.0,0.0,0.0,-0.374,0.0,0.0,0.0,0.0,0.0,0.0,-0.46801028108934084,0.0,0.0,0.0,0.0,0.0,0.0,-43.676,0.0,0.0,0.0,0.0,0.0
574,0.0,-0.216119140625,0.0,0.0,0.0,0.0,0.0,0.0,-0.38,0.0,0.0,0.0,0.0,0.0,0.0,-0.46044808358812755,0.0,0.0,0.0,0.0,0.0,0.0,-43.512,0.0,0.0,0.0,0.0,0.0
575,0.0,-0.2204482421875,0.0,0.0,0.0,0.0,0.0,0.0,-0.409,0.0,0.0,0.0,0.0,0.0,0.0,-0.4526705742126708,0.0,0.0,0.0,0.0,0.0,0.0,-43.62,0.0,0.0,0.0,0.0,0.0
576,0.0,-0.2246669921875,0.0,0.0,0.0,0.0,0.0,0.0,-0.436,0.0,0.0,0.0,0.0,0.0,0.0,-0.44467049393071695,0.0,0.0,0.0,0.0,0.0,0.0,-43.296,0.0,0.0,0.0,0.0,0.0
577,0.0,-0.2286865234375,0.0,0.0,0.0,0.0,0.0,0.0,-0.42,0.0,0.0,0.0,0.0,0.0,0.0,-0.43648771881974846,0.0,0.0,0.0,0.0,0.0,0.0,-43.084,0.0,0.0,0.0,0.0,0.0
578,0.0,-0.232494140625,0.0,0.0,0.0,0.0,0.0,0.0,-0.394,0.0,0.0,0.0,0.0,0.0,0.0,-0.4282127223511463,0.0,0.0,0.0,0.0,0.0,0.0,-43.296,0.0,0.0,0.0,0.0,0.0
579,0.0,-0.2361025390625,0.0,0.0,0.0,0.0,0.0,0.0,-0.372,0.0,0.0,0.0,0.0,0.0,0.0,-0.4196517491818312,0.0,0.0,0.0,0.0,0.0,0.0,-43.084,0.0,0.0,0.0,0.0,0.0
580,0.0,-0.240013671875,0.0,0.0,0.0,0.0,0.0,0.0,-0.375,0.0,0.0,0.0,0.0,0.0,0.0,-0.4110068736195111,0.0,0.0,0.0,0.0,0.0,0.0,-43.136,0.0,0.0,0.0,0.0,0.0
581,0.0,-0.244341796875,0.0,0.0,0.0,0.0,0.0,0.0,-0.414,0.0,0.0,0.0,0.0,0.0,0.0,-0.4022353171418933,0.0,0.0,0.0,0.0,0.0,0.0,-43.296,0.0,0.0,0.0,0.0,0.0
582,0.0,-0.2485615234375,0.0,0.0,0.0,0.0,0.0,0.0,-0.434,0.0,0.0,0.0,0.0,0.0,0.0,-0.3931898043321678,0.0,0.0,0.0,0.0,0.0,0.0,-42.976,0.0,0.0,0.0,0.0,0.0
583,0.0,-0.2525810546875,0.0,0.0,0.0,0.0,0.0,0.0,-0.42,0.0,0.0,0.0,0.0,0.0,0.0,-0.38394794234625274,0.0,0.0,0.0,0.0,0.0,0.0,-42.76,0.0,0.0,0.0,0.0,0.0
584,0.0,-0.256388671875,0.0,0.0,0.0,0.0,0.0,0.0,-0.395,0.0,0.0,0.0,0.0,0.0,0.0,-0.37483407810804875,0.0,0.0,0.0,0.0,0.0,0.0,-43.244,0.0,0.0,0.0,0.0,0.0
585,0.0,-0.2599970703125,0.0,0.0,0.0,0.0,0.0,0.0,-0.371,0.0,0.0,0.0,0.0,0.0,0.0,-0.3653267313743106,0.0,0.0,0.0,0.0,0.0,0.0,-43.084,0.0,0.0,0.0,0.0,0.0
586,0.0,-0.2639072265625,0.0,0.0,0.0,0.0,0.0,0.0,-0.375,0.0,0.0,0.0,0.0,0.0,0.0,-0.35555449168073483,0.0,0.0,0.0,0.0,0.0,0.0,-43.084,0.0,0.0,0.0,0.0,0.0
587,0.0,-0.268126953125,0.0,0.0,0.0,0.0,0.0,0.0,-0.41,0.0,0.0,0.0,0.0,0.0,0.0,-0.3459199229070416,0.0,0.0,0.0,0.0,0.0,0.0,-43.192,0.0,0.0,0.0,0.0,0.0
588,0.0,-0.272345703125,0.0,0.0,0.0,0.0,0.0,0.0,-0.429,0.0,0.0,0.0,0.0,0.0,0.0,-0.33620151356496925,0.0,0.0,0.0,0.0,0.0,0.0,-42.92,0.0,0.0,0.0,0.0,0.0
589,0.0,-0.27646875,0.0,0.0,0.0,0.0,0.0,0.0,-0.419,0.0,0.0,0.0,0.0,0.0,0.0,-0.32585230390936665,0.0,0.0,0.0,0.0,0.0,0.0,-42.704,0.0,0.0,0.0,0.0,0.0
590,0.0,-0.28378125,0.0,0.0,0.0,0.0,0.0,0.0,-0.37,0.0,0.0,0.0,0.0,0.0,0.0,-0.3125728901094427,0.0,0.0,0.0,0.0,0.0,0.0,-42.76,0.0,0.0,0.0,0.0,0.0
591,0.0,-0.28378125,0.0,0.0,0.0,0.0,0.0,0.0,-0.37,0.0,0.0,0.0,0.0,0.0,0.0,-0.30574519729787725,0.0,0.0,0.0,0.0,0.0,0.0,-42.76,0.0,0.0,0.0,0.0,0.0
592,0.0,-0.2876923828125,0.0,0.0,0.0,0.0,0.0,0.0,-0.376,0.0,0.0,0.0,0.0,0.0,0.0,-0.29512351947298804,0.0,0.0,0.0,0.0,0.0,0.0,-42.652,0.0,0.0,0.0,0.0,0.0
593,0.0,-0.2920205078125,0.0,0.0,0.0,0.0,0.0,0.0,-0.41,0.0,0.0,0.0,0.0,0.0,0.0,-0.2848169047804412,0.0,0.0,0.0,0.0,0.0,0.0,-42.812,0.0,0.0,0.0,0.0,0.0
594,0.0,-0.2963427734375,0.0,0.0,0.0,0.0,0.0,0.0,-0.433,0.0,0.0,0.0,0.0,0.0,0.0,-0.2741700957352691,0.0,0.0,0.0,0.0,0.0,0.0,-42.596,0.0,0.0,0.0,0.0,0.0
595,0.0,-0.300150390625,0.0,0.0,0.0,0.0,0.0,0.0,-0.418,0.0,0.0,0.0,0.0,0.0,0.0,-0.26342151366187255,0.0,0.0,0.0,0.0,0.0,0.0,-39.952,0.0,0.0,0.0,0.0,0.0
596,0.0,-0.3025234375,0.0,0.0,0.0,0.0,0.0,0.0,-0.334,0.0,0.0,0.0,0.0,0.0,0.0,-0.2526847207842405,0.0,0.0,0.0,0.0,0.0,0.0,-30.396,0.0,0.0,0.0,0.0,0.0
597,0.0,-0.3034501953125,0.0,0.0,0.0,0.0,0.0,0.0,-0.178,0.0,0.0,0.0,0.0,0.0,0.0,-0.24161690556205553,0.0,0.0,0.0,0.0,0.0,0.0,-19.868,0.0,0.0,0.0,0.0,0.0
598,0.0,-0.30365625,0.0,0.0,0.0,0.0,0.0,0.0,-0.062,0.0,0.0,0.0,0.0,0.0,0.0,-0.22864201141330975,0.0,0.0,0.0,0.0,0.0,0.0,-13.496,0.0,0.0,0.0,0.0,0.0
599,0.0,-0.3031416015625,0.0,0.0,0.0,0.0,0.0,0.0,0.009,0.0,0.0,0.0,0.0,0.0,0.0,-0.21712779952721364,0.0,0.0,0.0,0.0,0.0,0.0,-10.744,0.0,0.0,0.0,0.0,0.0
600,0.0,-0.3024208984375,0.0,0.0,0.0,0.0,0.0,0.0,0.058,0.0,0.0,0.0,0.0,0.0,0.0,-0.20840067741291804,0.0,0.0,0.0,0.0,0.0,0.0,-8.476,0.0,0.0,0.0,0.0,0.0
601,0.0,-0.297474609375,0.0,0.0,0.0,0.0,0.0,0.0,0.236,0.0,0.0,0.0,0.0,0.0,0.0,-0.18306093323551015,0.0,0.0,0.0,0.0,0.0,0.0,-8.044,0.0,0.0,0.0,0.0,0.0
602,0.0,-0.293255859375,0.0,0.0,0.0,0.0,0.0,0.0,0.365,0.0,0.0,0.0,0.0,0.0,0.0,-0.17599506500696846,0.0,0.0,0.0,0.0,0.0,0.0,-10.636,0.0,0.0,0.0,0.0,0.0
603,0.0,-0.2878984375,0.0,0.0,0.0,0.0,0.0,0.0,0.473,0.0,0.0,0.0,0.0,0.0,0.0,-0.16820467830611294,0.0,0.0,0.0,0.0,0.0,0.0,-13.928,0.0,0.0,0.0,0.0,0.0
604,0.0,-0.2878984375,0.0,0.0,0.0,0.0,0.0,0.0,0.473,0.0,0.0,0.0,0.0,0.0,0.0,-0.16122463323801617,0.0,0.0,0.0,0.0,0.0,0.0,-13.928,0.0,0.0,0.0,0.0,0.0
605,0.0,-0.2824375,0.0,0.0,0.0,0.0,0.0,0.0,0.546,0.0,0.0,0.0,0.0,0.0,0.0,-0.15103683887465735,0.0,0.0,0.0,0.0,0.0,0.0,-16.628,0.0,0.0,0.0,0.0,0.0
606,0.0,-0.27677734375,0.0,0.0,0.0,0.0,0.0,0.0,0.554,0.0,0.0,0.0,0.0,0.0,0.0,-0.1394881749072062,0.0,0.0,0.0,0.0,0.0,0.0,-19.544,0.0,0.0,0.0,0.0,0.0
607,0.0,-0.265142578125,0.0,0.0,0.0,0.0,0.0,0.0,0.579,0.0,0.0,0.0,0.0,0.0,0.0,-0.12245357590294594,0.0,0.0,0.0,0.0,0.0,0.0,-31.152,0.0,0.0,0.0,0.0,0.0
608,0.0,-0.265142578125,0.0,0.0,0.0,0.0,0.0,0.0,0.579,0.0,0.0,0.0,0.0,0.0,0.0,-0.11359311825125032,0.0,0.0,0.0,0.0,0.0,0.0,-31.152,0.0,0.0,0.0,0.0,0.0
609,0.0,-0.2585498046875,0.0,0.0,0.0,0.0,0.0,0.0,0.617,0.0,0.0,0.0,0.0,0.0,0.0,-0.10383797840557416,0.0,0.0,0.0,0.0,0.0,0.0,-34.712,0.0,0.0,0.0,0.0,0.0
610,0.0,-0.2516552734375,0.0,0.0,0.0,0.0,0.0,0.0,0.68,0.0,0.0,0.0,0.0,0.0,0.0,-0.09239062809038352,0.0,0.0,0.0,0.0,0.0,0.0,-34.768,0.0,0.0,0.0,0.0,0.0
611,0.0,-0.2444443359375,0.0,0.0,0.0,0.0,0.0,0.0,0.709,0.0,0.0,0.0,0.0,0.0,0.0,-0.07884131901265047,0.0,0.0,0.0,0.0,0.0,0.0,-35.036,0.0,0.0,0.0,0.0,0.0
612,0.0,-0.2378525390625,0.0,0.0,0.0,0.0,0.0,0.0,0.701,0.0,0.0,0.0,0.0,0.0,0.0,-0.06865450425617062,0.0,0.0,0.0,0.0,0.0,0.0,-41.948,0.0,0.0,0.0,0.0,0.0
613,0.0,-0.2316708984375,0.0,0.0,0.0,0.0,0.0,0.0,0.643,0.0,0.0,0.0,0.0,0.0,0.0,-0.05624615128598582,0.0,0.0,0.0,0.0,0.0,0.0,-45.348,0.0,0.0,0.0,0.0,0.0
614,0.0,-0.2249755859375,0.0,0.0,0.0,0.0,0.0,0.0,0.641,0.0,0.0,0.0,0.0,0.0,0.0,-0.04476103287538198,0.0,0.0,0.0,0.0,0.0,0.0,-43.784,0.0,0.0,0.0,0.0,0.0
615,0.0,-0.2183896484375,0.0,0.0,0.0,0.0,0.0,0.0,0.67,0.0,0.0,0.0,0.0,0.0,0.0,-0.03280089864728645,0.0,0.0,0.0,0.0,0.0,0.0,-42.92,0.0,0.0,0.0,0.0,0.0
616,0.0,-0.2120029296875,0.0,0.0,0.0,0.0,0.0,0.0,0.655,0.0,0.0,0.0,0.0,0.0,0.0,-0.020827390477673104,0.0,0.0,0.0,0.0,0.0,0.0,-48.644,0.0,0.0,0.0,0.0,0.0
617,0.0,-0.20541015625,0.0,0.0,0.0,0.0,0.0,0.0,0.654,0.0,0.0,0.0,0.0,0.0,0.0,-0.008788071142716838,0.0,0.0,0.0,0.0,0.0,0.0,-52.424,0.0,0.0,0.0,0.0,0.0
618,0.0,-0.19933203125,0.0,0.0,0.0,0.0,0.0,0.0,0.643,0.0,0.0,0.0,0.0,0.0,0.0,0.003175539453347563,0.0,0.0,0.0,0.0,0.0,0.0,-51.396,0.0,0.0,0.0,0.0,0.0
619,0.0,-0.19378125,0.0,0.0,0.0,0.0,0.0,0.0,0.588,0.0,0.0,0.0,0.0,0.0,0.0,3.004074095424588e-05,0.0,0.0,0.0,0.0,0.0,0.0,-51.936,0.0,0.0,0.0,0.0,0.0
620,0.0,-0.1882177734375,0.0,0.0,0.0,0.0,0.0,0.0,0.56,0.0,0.0,0.0,0.0,0.0,0.0,0.012019497767746265,0.0,0.0,0.0,0.0,0.0,0.0,-55.824,0.0,0.0,0.0,0.0,0.0
621,0.0,-0.1827578125,0.0,0.0,0.0,0.0,0.0,0.0,0.551,0.0,0.0,0.0,0.0,0.0,0.0,0.023987574298577344,0.0,0.0,0.0,0.0,0.0,0.0,-56.632,0.0,0.0,0.0,0.0,0.0
622,0.0,-0.1773037109375,0.0,0.0,0.0,0.0,0.0,0.0,0.55,0.0,0.0,0.0,0.0,0.0,0.0,0.03598065431663908,0.0,0.0,0.0,0.0,0.0,0.0,-55.552,0.0,0.0,0.0,0.0,0.0
623,0.0,-0.172357421875,0.0,0.0,0.0,0.0,0.0,0.0,0.531,0.0,0.0,0.0,0.0,0.0,0.0,0.048415322467524544,0.0,0.0,0.0,0.0,0.0,0.0,-55.336,0.0,0.0,0.0,0.0,0.0
624,0.0,-0.1681376953125,0.0,0.0,0.0,0.0,0.0,0.0,0.466,0.0,0.0,0.0,0.0,0.0,0.0,0.05989031416438236,0.0,0.0,0.0,0.0,0.0,0.0,-57.768,0.0,0.0,0.0,0.0,0.0
625,0.0,-0.163912109375,0.0,0.0,0.0,0.0,0.0,0.0,0.425,0.0,0.0,0.0,0.0,0.0,0.0,0.07182725620259216,0.0,0.0,0.0,0.0,0.0,0.0,-57.552,0.0,0.0,0.0,0.0,0.0
626,0.0,-0.159693359375,0.0,0.0,0.0,0.0,0.0,0.0,0.421,0.0,0.0,0.0,0.0,0.0,0.0,0.08383514302952859,0.0,0.0,0.0,0.0,0.0,0.0,-54.148,0.0,0.0,0.0,0.0,0.0
627,0.0,-0.1555703125,0.0,0.0,0.0,0.0,0.0,0.0,0.421,0.0,0.0,0.0,0.0,0.0,0.0,0.09805407571760481,0.0,0.0,0.0,0.0,0.0,0.0,-51.56,0.0,0.0,0.0,0.0,0.0
628,0.0,-0.1517626953125,0.0,0.0,0.0,0.0,0.0,0.0,0.409,0.0,0.0,0.0,0.0,0.0,0.0,0.10756400899161275,0.0,0.0,0.0,0.0,0.0,0.0,-52.964,0.0,0.0,0.0,0.0,0.0
629,0.0,-0.1486689453125,0.0,0.0,0.0,0.0,0.0,0.0,0.354,0.0,0.0,0.0,0.0,0.0,0.0,0.11943785329708236,0.0,0.0,0.0,0.0,0.0,0.0,-55.552,0.0,0.0,0.0,0.0,0.0
630,0.0,-0.1457880859375,0.0,0.0,0.0,0.0,0.0,0.0,0.296,0.0,0.0,0.0,0.0,0.0,0.0,0.1311168954407534,0.0,0.0,0.0,0.0,0.0,0.0,-53.072,0.0,0.0,0.0,0.0,0.0
631,0.0,-0.1431123046875,0.0,0.0,0.0,0.0,0.0,0.0,0.284,0.0,0.0,0.0,0.0,0.0,0.0,0.14263200271738574,0.0,0.0,0.0,0.0,0.0,0.0,-48.588,0.0,0.0,0.0,0.0,0.0
632,0.0,-0.1399150390625,0.0,0.0,0.0,0.0,0.0,0.0,0.286,0.0,0.0,0.0,0.0,0.0,0.0,0.1551399496669631,0.0,0.0,0.0,0.0,0.0,0.0,-45.024,0.0,0.0,0.0,0.0,0.0
633,0.0,-0.13651953125,0.0,0.0,0.0,0.0,0.0,0.0,0.33,0.0,0.0,0.0,0.0,0.0,0.0,0.16821054622206177,0.0,0.0,0.0,0.0,0.0,0.0,-44.808,0.0,0.0,0.0,0.0,0.0
634,0.0,-0.1335283203125,0.0,0.0,0.0,0.0,0.0,0.0,0.332,0.0,0.0,0.0,0.0,0.0,0.0,0.17902272181104714,0.0,0.0,0.0,0.0,0.0,0.0,-45.888,0.0,0.0,0.0,0.0,0.0
635,0.0,-0.1283828125,0.0,0.0,0.0,0.0,0.0,0.0,0.26,0.0,0.0,0.0,0.0,0.0,0.0,0.19673103861941624,0.0,0.0,0.0,0.0,0.0,0.0,-44.108,0.0,0.0,0.0,0.0,0.0
636,0.0,-0.1283828125,0.0,0.0,0.0,0.0,0.0,0.0,0.26,0.0,0.0,0.0,0.0,0.0,0.0,0.20250238970807644,0.0,0.0,0.0,0.0,0.0,0.0,-44.108,0.0,0.0,0.0,0.0,0.0
637,0.0,-0.1223046875,0.0,0.0,0.0,0.0,0.0,0.0,0.302,0.0,0.0,0.0,0.0,0.0,0.0,0.22176301407616925,0.0,0.0,0.0,0.0,0.0,0.0,-41.032,0.0,0.0,0.0,0.0,0.0
638,0.0,-0.1189091796875,0.0,0.0,0.0,0.0,0.0,0.0,0.341,0.0,0.0,0.0,0.0,0.0,0.0,0.23384762747134147,0.0,0.0,0.0,0.0,0.0,0.0,-41.192,0.0,0.0,0.0,0.0,0.0
639,0.0,-0.115609375,0.0,0.0,0.0,0.0,0.0,0.0,0.335,0.0,0.0,0.0,0.0,0.0,0.0,0.24309600209599241,0.0,0.0,0.0,0.0,0.0,0.0,-41.192,0.0,0.0,0.0,0.0,0.0
640,0.0,-0.109640625,0.0,0.0,0.0,0.0,0.0,0.0,0.301,0.0,0.0,0.0,0.0,0.0,0.0,0.2604798384823192,0.0,0.0,0.0,0.0,0.0,0.0,-39.844,0.0,0.0,0.0,0.0,0.0
641,0.0,-0.10623828125,0.0,0.0,0.0,0.0,0.0,0.0,0.313,0.0,0.0,0.0,0.0,0.0,0.0,0.2706431826257464,0.0,0.0,0.0,0.0,0.0,0.0,-39.896,0.0,0.0,0.0,0.0,0.0
642,0.0,-0.10623828125,0.0,0.0,0.0,0.0,0.0,0.0,0.313,0.0,0.0,0.0,0.0,0.0,0.0,0.27628280778224,0.0,0.0,0.0,0.0,0.0,0.0,-39.896,0.0,0.0,0.0,0.0,0.0
643,0.0,-0.1027392578125,0.0,0.0,0.0,0.0,0.0,0.0,0.346,0.0,0.0,0.0,0.0,0.0,0.0,0.28111570878282516,0.0,0.0,0.0,0.0,0.0,0.0,-40.436,0.0,0.0,0.0,0.0,0.0
644,0.0,-0.1027392578125,0.0,0.0,0.0,0.0,0.0,0.0,0.346,0.0,0.0,0.0,0.0,0.0,0.0,0.2879417610106811,0.0,0.0,0.0,0.0,0.0,0.0,-40.436,0.0,0.0,0.0,0.0,0.0
645,0.0,-0.0991376953125,0.0,0.0,0.0,0.0,0.0,0.0,0.351,0.0,0.0,0.0,0.0,0.0,0.0,0.29808834629735614,0.0,0.0,0.0,0.0,0.0,0.0,-40.112,0.0,0.0,0.0,0.0,0.0
646,0.0,-0.09543359375,0.0,0.0,0.0,0.0,0.0,0.0,0.367,0.0,0.0,0.0,0.0,0.0,0.0,0.3084506553578233,0.0,0.0,0.0,0.0,0.0,0.0,-39.788,0.0,0.0,0.0,0.0,0.0
647,0.0,-0.08822265625,0.0,0.0,0.0,0.0,0.0,0.0,0.362,0.0,0.0,0.0,0.0,0.0,0.0,0.3234972069874984,0.0,0.0,0.0,0.0,0.0,0.0,-39.412,0.0,0.0,0.0,0.0,0.0
648,0.0,-0.0843125,0.0,0.0,0.0,0.0,0.0,0.0,0.383,0.0,0.0,0.0,0.0,0.0,0.0,0.33444546814476905,0.0,0.0,0.0,0.0,0.0,0.0,-39.788,0.0,0.0,0.0,0.0,0.0
649,0.0,-0.0803955078125,0.0,0.0,0.0,0.0,0.0,0.0,0.388,0.0,0.0,0.0,0.0,0.0,0.0,0.3427222588269063,0.0,0.0,0.0,0.0,0.0,0.0,-40.112,0.0,0.0,0.0,0.0,0.0
650,0.0,-0.07215625,0.0,0.0,0.0,0.0,0.0,0.0,0.418,0.0,0.0,0.0,0.0,0.0,0.0,0.3630087046159666,0.0,0.0,0.0,0.0,0.0,0.0,-40.544,0.0,0.0,0.0,0.0,0.0
651,0.0,-0.07215625,0.0,0.0,0.0,0.0,0.0,0.0,0.418,0.0,0.0,0.0,0.0,0.0,0.0,0.37014089594550703,0.0,0.0,0.0,0.0,0.0,0.0,-40.544,0.0,0.0,0.0,0.0,0.0
652,0.0,-0.067833984375,0.0,0.0,0.0,0.0,0.0,0.0,0.419,0.0,0.0,0.0,0.0,0.0,0.0,0.37510798659230793,0.0,0.0,0.0,0.0,0.0,0.0,-40.868,0.0,0.0,0.0,0.0,0.0
653,0.0,-0.063505859375,0.0,0.0,0.0,0.0,0.0,0.0,0.438,0.0,0.0,0.0,0.0,0.0,0.0,0.3804915537676436,0.0,0.0,0.0,0.0,0.0,0.0,-42.164,0.0,0.0,0.0,0.0,0.0
654,0.0,-0.063505859375,0.0,0.0,0.0,0.0,0.0,0.0,0.438,0.0,0.0,0.0,0.0,0.0,0.0,0.38721938141714396,0.0,0.0,0.0,0.0,0.0,0.0,-42.164,0.0,0.0,0.0,0.0,0.0
655,0.0,-0.05918359375,0.0,0.0,0.0,0.0,0.0,0.0,0.439,0.0,0.0,0.0,0.0,0.0,0.0,0.3955801591127536,0.0,0.0,0.0,0.0,0.0,0.0,-43.084,0.0,0.0,0.0,0.0,0.0
656,0.0,-0.0504296875,0.0,0.0,0.0,0.0,0.0,0.0,0.435,0.0,0.0,0.0,0.0,0.0,0.0,0.4094412737203966,0.0,0.0,0.0,0.0,0.0,0.0,-43.944,0.0,0.0,0.0,0.0,0.0
657,0.0,-0.0504296875,0.0,0.0,0.0,0.0,0.0,0.0,0.435,0.0,0.0,0.0,0.0,0.0,0.0,0.413595533591553,0.0,0.0,0.0,0.0,0.0,0.0,-43.944,0.0,0.0,0.0,0.0,0.0
658,0.0,-0.045998046875,0.0,0.0,0.0,0.0,0.0,0.0,0.446,0.0,0.0,0.0,0.0,0.0,0.0,0.42249014648928646,0.0,0.0,0.0,0.0,0.0,0.0,-44.16,0.0,0.0,0.0,0.0,0.0
659,0.0,-0.0413671875,0.0,0.0,0.0,0.0,0.0,0.0,0.458,0.0,0.0,0.0,0.0,0.0,0.0,0.4310176508115175,0.0,0.0,0.0,0.0,0.0,0.0,-45.188,0.0,0.0,0.0,0.0,0.0
660,0.0,-0.0369365234375,0.0,0.0,0.0,0.0,0.0,0.0,0.457,0.0,0.0,0.0,0.0,0.0,0.0,0.43871684473315375,0.0,0.0,0.0,0.0,0.0,0.0,-45.728,0.0,0.0,0.0,0.0,0.0
661,0.0,-0.0326142578125,0.0,0.0,0.0,0.0,0.0,0.0,0.443,0.0,0.0,0.0,0.0,0.0,0.0,0.44674181801647084,0.0,0.0,0.0,0.0,0.0,0.0,-45.836,0.0,0.0,0.0,0.0,0.0
662,0.0,-0.028388671875,0.0,0.0,0.0,0.0,0.0,0.0,0.429,0.0,0.0,0.0,0.0,0.0,0.0,0.45754331263299824,0.0,0.0,0.0,0.0,0.0,0.0,-45.62,0.0,0.0,0.0,0.0,0.0
663,0.0,-0.02406640625,0.0,0.0,0.0,0.0,0.0,0.0,0.428,0.0,0.0,0.0,0.0,0.0,0.0,0.4641185258543133,0.0,0.0,0.0,0.0,0.0,0.0,-45.348,0.0,0.0,0.0,0.0,0.0
664,0.0,-0.0197373046875,0.0,0.0,0.0,0.0,0.0,0.0,0.434,0.0,0.0,0.0,0.0,0.0,0.0,0.4719092423974881,0.0,0.0,0.0,0.0,0.0,0.0,-45.188,0.0,0.0,0.0,0.0,0.0
665,0.0,-0.01129296875,0.0,0.0,0.0,0.0,0.0,0.0,0.426,0.0,0.0,0.0,0.0,0.0,0.0,0.48359955846323904,0.0,0.0,0.0,0.0,0.0,0.0,-45.944,0.0,0.0,0.0,0.0,0.0
666,0.0,-0.0073818359375,0.0,0.0,0.0,0.0,0.0,0.0,0.414,0.0,0.0,0.0,0.0,0.0,0.0,0.49041670187292413,0.0,0.0,0.0,0.0,0.0,0.0,-45.728,0.0,0.0,0.0,0.0,0.0
667,0.0,-0.0033623046875,0.0,0.0,0.0,0.0,0.0,0.0,0.394,0.0,0.0,0.0,0.0,0.0,0.0,0.4973163501338128,0.0,0.0,0.0,0.0,0.0,0.0,-45.24,0.0,0.0,0.0,0.0,0.0
668,0.0,0.00075390625,0.0,0.0,0.0,0.0,0.0,0.0,0.408,0.0,0.0,0.0,0.0,0.0,0.0,0.5039180968043592,0.0,0.0,0.0,0.0,0.0,0.0,-45.24,0.0,0.0,0.0,0.0,0.0
