EmanuelSamir/lab201_ws_projsamir/sawyer_dev/data/sawyer/vel_acel_ns/test_joint2/validation_data_1.csv
,j1,j2,j3,j4,j5,j6,j7,v1,v2,v3,v4,v5,v6,v7,jd1,jd2,jd3,jd4,jd5,jd6,jd7,e1,e2,e3,e4,e5,e6,e7
0,0.0,0.0,0.0,0.0,0.0,0.0,0.0,0.0,0.0,0.0,0.0,0.0,0.0,0.0,0.0,0.0,0.0,0.0,0.0,0.0,0.0,0.0,0.0,0.0,0.0,0.0,0.0,0.0
1,0.0,0.001783203125,0.0,0.0,0.0,0.0,0.0,0.0,-0.001,0.0,0.0,0.0,0.0,0.0,0.0,5.2213668757340144e-05,0.0,0.0,0.0,0.0,0.0,0.0,-44.216,0.0,0.0,0.0,0.0,0.0
2,0.0,0.001783203125,0.0,0.0,0.0,0.0,0.0,0.0,-0.001,0.0,0.0,0.0,0.0,0.0,0.0,0.00681409492334431,0.0,0.0,0.0,0.0,0.0,0.0,-44.268,0.0,0.0,0.0,0.0,0.0
3,0.0,0.001783203125,0.0,0.0,0.0,0.0,0.0,0.0,-0.001,0.0,0.0,0.0,0.0,0.0,0.0,0.012874473424282624,0.0,0.0,0.0,0.0,0.0,0.0,-44.268,0.0,0.0,0.0,0.0,0.0
4,0.0,0.001783203125,0.0,0.0,0.0,0.0,0.0,0.0,-0.001,0.0,0.0,0.0,0.0,0.0,0.0,0.01890351227837972,0.0,0.0,0.0,0.0,0.0,0.0,-44.216,0.0,0.0,0.0,0.0,0.0
5,0.0,0.0021953125,0.0,0.0,0.0,0.0,0.0,0.0,0.01,0.0,0.0,0.0,0.0,0.0,0.0,0.024877329004105348,0.0,0.0,0.0,0.0,0.0,0.0,-40.652,0.0,0.0,0.0,0.0,0.0
6,0.0,0.0034365234375,0.0,0.0,0.0,0.0,0.0,0.0,0.073,0.0,0.0,0.0,0.0,0.0,0.0,0.030845676273583315,0.0,0.0,0.0,0.0,0.0,0.0,-34.064,0.0,0.0,0.0,0.0,0.0
7,0.0,0.005185546875,0.0,0.0,0.0,0.0,0.0,0.0,0.151,0.0,0.0,0.0,0.0,0.0,0.0,0.0368713612980697,0.0,0.0,0.0,0.0,0.0,0.0,-29.476,0.0,0.0,0.0,0.0,0.0
8,0.0,0.007552734375,0.0,0.0,0.0,0.0,0.0,0.0,0.198,0.0,0.0,0.0,0.0,0.0,0.0,0.04291800016257838,0.0,0.0,0.0,0.0,0.0,0.0,-26.832,0.0,0.0,0.0,0.0,0.0
9,0.0,0.010228515625,0.0,0.0,0.0,0.0,0.0,0.0,0.25,0.0,0.0,0.0,0.0,0.0,0.0,0.04885432757343141,0.0,0.0,0.0,0.0,0.0,0.0,-26.344,0.0,0.0,0.0,0.0,0.0
10,0.0,0.013013671875,0.0,0.0,0.0,0.0,0.0,0.0,0.273,0.0,0.0,0.0,0.0,0.0,0.0,0.05474766689008135,0.0,0.0,0.0,0.0,0.0,0.0,-25.696,0.0,0.0,0.0,0.0,0.0
11,0.0,0.016615234375,0.0,0.0,0.0,0.0,0.0,0.0,0.309,0.0,0.0,0.0,0.0,0.0,0.0,0.060802052988810806,0.0,0.0,0.0,0.0,0.0,0.0,-24.24,0.0,0.0,0.0,0.0,0.0
12,0.0,0.021046875,0.0,0.0,0.0,0.0,0.0,0.0,0.4,0.0,0.0,0.0,0.0,0.0,0.0,0.06669708118195997,0.0,0.0,0.0,0.0,0.0,0.0,-25.156,0.0,0.0,0.0,0.0,0.0
13,0.0,0.02557421875,0.0,0.0,0.0,0.0,0.0,0.0,0.446,0.0,0.0,0.0,0.0,0.0,0.0,0.07264225535917126,0.0,0.0,0.0,0.0,0.0,0.0,-28.828,0.0,0.0,0.0,0.0,0.0
14,0.0,0.0305205078125,0.0,0.0,0.0,0.0,0.0,0.0,0.477,0.0,0.0,0.0,0.0,0.0,0.0,0.0786550797958126,0.0,0.0,0.0,0.0,0.0,0.0,-33.256,0.0,0.0,0.0,0.0,0.0
15,0.0,0.035048828125,0.0,0.0,0.0,0.0,0.0,0.0,0.483,0.0,0.0,0.0,0.0,0.0,0.0,0.08454870430235437,0.0,0.0,0.0,0.0,0.0,0.0,-36.172,0.0,0.0,0.0,0.0,0.0
16,0.0,0.039685546875,0.0,0.0,0.0,0.0,0.0,0.0,0.453,0.0,0.0,0.0,0.0,0.0,0.0,0.09047446236922724,0.0,0.0,0.0,0.0,0.0,0.0,-37.684,0.0,0.0,0.0,0.0,0.0
17,0.0,0.0448310546875,0.0,0.0,0.0,0.0,0.0,0.0,0.482,0.0,0.0,0.0,0.0,0.0,0.0,0.09644203283736824,0.0,0.0,0.0,0.0,0.0,0.0,-39.088,0.0,0.0,0.0,0.0,0.0
18,0.0,0.0501884765625,0.0,0.0,0.0,0.0,0.0,0.0,0.531,0.0,0.0,0.0,0.0,0.0,0.0,0.1023561303109549,0.0,0.0,0.0,0.0,0.0,0.0,-40.328,0.0,0.0,0.0,0.0,0.0
19,0.0,0.0558486328125,0.0,0.0,0.0,0.0,0.0,0.0,0.553,0.0,0.0,0.0,0.0,0.0,0.0,0.10823650498956007,0.0,0.0,0.0,0.0,0.0,0.0,-42.652,0.0,0.0,0.0,0.0,0.0
20,0.0,0.06120703125,0.0,0.0,0.0,0.0,0.0,0.0,0.56,0.0,0.0,0.0,0.0,0.0,0.0,0.11420797055252932,0.0,0.0,0.0,0.0,0.0,0.0,-45.24,0.0,0.0,0.0,0.0,0.0
21,0.0,0.0660498046875,0.0,0.0,0.0,0.0,0.0,0.0,0.516,0.0,0.0,0.0,0.0,0.0,0.0,0.12006484716127369,0.0,0.0,0.0,0.0,0.0,0.0,-45.888,0.0,0.0,0.0,0.0,0.0
22,0.0,0.071091796875,0.0,0.0,0.0,0.0,0.0,0.0,0.494,0.0,0.0,0.0,0.0,0.0,0.0,0.12593374689447584,0.0,0.0,0.0,0.0,0.0,0.0,-45.348,0.0,0.0,0.0,0.0,0.0
23,0.0,0.0761416015625,0.0,0.0,0.0,0.0,0.0,0.0,0.504,0.0,0.0,0.0,0.0,0.0,0.0,0.1318539856097127,0.0,0.0,0.0,0.0,0.0,0.0,-44.864,0.0,0.0,0.0,0.0,0.0
24,0.0,0.081595703125,0.0,0.0,0.0,0.0,0.0,0.0,0.526,0.0,0.0,0.0,0.0,0.0,0.0,0.13764172196941188,0.0,0.0,0.0,0.0,0.0,0.0,-45.62,0.0,0.0,0.0,0.0,0.0
25,0.0,0.0868505859375,0.0,0.0,0.0,0.0,0.0,0.0,0.542,0.0,0.0,0.0,0.0,0.0,0.0,0.1434922278754064,0.0,0.0,0.0,0.0,0.0,0.0,-47.616,0.0,0.0,0.0,0.0,0.0
26,0.0,0.091583984375,0.0,0.0,0.0,0.0,0.0,0.0,0.509,0.0,0.0,0.0,0.0,0.0,0.0,0.14934977350232229,0.0,0.0,0.0,0.0,0.0,0.0,-48.536,0.0,0.0,0.0,0.0,0.0
27,0.0,0.0964267578125,0.0,0.0,0.0,0.0,0.0,0.0,0.478,0.0,0.0,0.0,0.0,0.0,0.0,0.15507334276429577,0.0,0.0,0.0,0.0,0.0,0.0,-47.996,0.0,0.0,0.0,0.0,0.0
28,0.0,0.1011611328125,0.0,0.0,0.0,0.0,0.0,0.0,0.484,0.0,0.0,0.0,0.0,0.0,0.0,0.160846604130051,0.0,0.0,0.0,0.0,0.0,0.0,-47.78,0.0,0.0,0.0,0.0,0.0
29,0.0,0.105998046875,0.0,0.0,0.0,0.0,0.0,0.0,0.481,0.0,0.0,0.0,0.0,0.0,0.0,0.16665567332498943,0.0,0.0,0.0,0.0,0.0,0.0,-48.156,0.0,0.0,0.0,0.0,0.0
30,0.0,0.110943359375,0.0,0.0,0.0,0.0,0.0,0.0,0.494,0.0,0.0,0.0,0.0,0.0,0.0,0.1723836021963798,0.0,0.0,0.0,0.0,0.0,0.0,-49.724,0.0,0.0,0.0,0.0,0.0
31,0.0,0.1154716796875,0.0,0.0,0.0,0.0,0.0,0.0,0.478,0.0,0.0,0.0,0.0,0.0,0.0,0.17811795346797996,0.0,0.0,0.0,0.0,0.0,0.0,-49.4,0.0,0.0,0.0,0.0,0.0
32,0.0,0.1197998046875,0.0,0.0,0.0,0.0,0.0,0.0,0.441,0.0,0.0,0.0,0.0,0.0,0.0,0.1838556241612795,0.0,0.0,0.0,0.0,0.0,0.0,-48.212,0.0,0.0,0.0,0.0,0.0
33,0.0,0.12401953125,0.0,0.0,0.0,0.0,0.0,0.0,0.436,0.0,0.0,0.0,0.0,0.0,0.0,0.1895325884506447,0.0,0.0,0.0,0.0,0.0,0.0,-47.996,0.0,0.0,0.0,0.0,0.0
34,0.0,0.128341796875,0.0,0.0,0.0,0.0,0.0,0.0,0.426,0.0,0.0,0.0,0.0,0.0,0.0,0.19523283488203083,0.0,0.0,0.0,0.0,0.0,0.0,-48.212,0.0,0.0,0.0,0.0,0.0
35,0.0,0.132669921875,0.0,0.0,0.0,0.0,0.0,0.0,0.436,0.0,0.0,0.0,0.0,0.0,0.0,0.20092139350757038,0.0,0.0,0.0,0.0,0.0,0.0,-48.696,0.0,0.0,0.0,0.0,0.0
36,0.0,0.1365810546875,0.0,0.0,0.0,0.0,0.0,0.0,0.418,0.0,0.0,0.0,0.0,0.0,0.0,0.20656537333317404,0.0,0.0,0.0,0.0,0.0,0.0,-48.968,0.0,0.0,0.0,0.0,0.0
37,0.0,0.1402919921875,0.0,0.0,0.0,0.0,0.0,0.0,0.38,0.0,0.0,0.0,0.0,0.0,0.0,0.21217919256630938,0.0,0.0,0.0,0.0,0.0,0.0,-47.94,0.0,0.0,0.0,0.0,0.0
38,0.0,0.143900390625,0.0,0.0,0.0,0.0,0.0,0.0,0.369,0.0,0.0,0.0,0.0,0.0,0.0,0.21777905980170867,0.0,0.0,0.0,0.0,0.0,0.0,-46.86,0.0,0.0,0.0,0.0,0.0
39,0.0,0.1475087890625,0.0,0.0,0.0,0.0,0.0,0.0,0.362,0.0,0.0,0.0,0.0,0.0,0.0,0.22336234086166326,0.0,0.0,0.0,0.0,0.0,0.0,-46.16,0.0,0.0,0.0,0.0,0.0
40,0.0,0.151212890625,0.0,0.0,0.0,0.0,0.0,0.0,0.368,0.0,0.0,0.0,0.0,0.0,0.0,0.22892801847823738,0.0,0.0,0.0,0.0,0.0,0.0,-46.104,0.0,0.0,0.0,0.0,0.0
41,0.0,0.154814453125,0.0,0.0,0.0,0.0,0.0,0.0,0.371,0.0,0.0,0.0,0.0,0.0,0.0,0.2344791630371914,0.0,0.0,0.0,0.0,0.0,0.0,-45.728,0.0,0.0,0.0,0.0,0.0
42,0.0,0.158216796875,0.0,0.0,0.0,0.0,0.0,0.0,0.353,0.0,0.0,0.0,0.0,0.0,0.0,0.24006610928531924,0.0,0.0,0.0,0.0,0.0,0.0,-44.7,0.0,0.0,0.0,0.0,0.0
43,0.0,0.1615107421875,0.0,0.0,0.0,0.0,0.0,0.0,0.338,0.0,0.0,0.0,0.0,0.0,0.0,0.24545595974862783,0.0,0.0,0.0,0.0,0.0,0.0,-43.512,0.0,0.0,0.0,0.0,0.0
44,0.0,0.16490625,0.0,0.0,0.0,0.0,0.0,0.0,0.332,0.0,0.0,0.0,0.0,0.0,0.0,0.2509049021330911,0.0,0.0,0.0,0.0,0.0,0.0,-42.652,0.0,0.0,0.0,0.0,0.0
45,0.0,0.168412109375,0.0,0.0,0.0,0.0,0.0,0.0,0.342,0.0,0.0,0.0,0.0,0.0,0.0,0.2563663876531854,0.0,0.0,0.0,0.0,0.0,0.0,-42.272,0.0,0.0,0.0,0.0,0.0
46,0.0,0.17191015625,0.0,0.0,0.0,0.0,0.0,0.0,0.355,0.0,0.0,0.0,0.0,0.0,0.0,0.2617435719789858,0.0,0.0,0.0,0.0,0.0,0.0,-42.704,0.0,0.0,0.0,0.0,0.0
47,0.0,0.175416015625,0.0,0.0,0.0,0.0,0.0,0.0,0.357,0.0,0.0,0.0,0.0,0.0,0.0,0.2671406459697262,0.0,0.0,0.0,0.0,0.0,0.0,-42.272,0.0,0.0,0.0,0.0,0.0
48,0.0,0.1789150390625,0.0,0.0,0.0,0.0,0.0,0.0,0.352,0.0,0.0,0.0,0.0,0.0,0.0,0.27259806294428396,0.0,0.0,0.0,0.0,0.0,0.0,-41.732,0.0,0.0,0.0,0.0,0.0
49,0.0,0.1825166015625,0.0,0.0,0.0,0.0,0.0,0.0,0.352,0.0,0.0,0.0,0.0,0.0,0.0,0.2778314617563189,0.0,0.0,0.0,0.0,0.0,0.0,-41.408,0.0,0.0,0.0,0.0,0.0
50,0.0,0.186125,0.0,0.0,0.0,0.0,0.0,0.0,0.36,0.0,0.0,0.0,0.0,0.0,0.0,0.2831334439907564,0.0,0.0,0.0,0.0,0.0,0.0,-41.3,0.0,0.0,0.0,0.0,0.0
51,0.0,0.1898291015625,0.0,0.0,0.0,0.0,0.0,0.0,0.367,0.0,0.0,0.0,0.0,0.0,0.0,0.28843435510111537,0.0,0.0,0.0,0.0,0.0,0.0,-41.516,0.0,0.0,0.0,0.0,0.0
52,0.0,0.19363671875,0.0,0.0,0.0,0.0,0.0,0.0,0.378,0.0,0.0,0.0,0.0,0.0,0.0,0.293672216000571,0.0,0.0,0.0,0.0,0.0,0.0,-42.056,0.0,0.0,0.0,0.0,0.0
53,0.0,0.197451171875,0.0,0.0,0.0,0.0,0.0,0.0,0.382,0.0,0.0,0.0,0.0,0.0,0.0,0.29890053139936995,0.0,0.0,0.0,0.0,0.0,0.0,-42.056,0.0,0.0,0.0,0.0,0.0
54,0.0,0.2012587890625,0.0,0.0,0.0,0.0,0.0,0.0,0.384,0.0,0.0,0.0,0.0,0.0,0.0,0.3040905692500162,0.0,0.0,0.0,0.0,0.0,0.0,-41.624,0.0,0.0,0.0,0.0,0.0
55,0.0,0.20517578125,0.0,0.0,0.0,0.0,0.0,0.0,0.386,0.0,0.0,0.0,0.0,0.0,0.0,0.3092152301213231,0.0,0.0,0.0,0.0,0.0,0.0,-41.14,0.0,0.0,0.0,0.0,0.0
56,0.0,0.209189453125,0.0,0.0,0.0,0.0,0.0,0.0,0.396,0.0,0.0,0.0,0.0,0.0,0.0,0.31437369347523814,0.0,0.0,0.0,0.0,0.0,0.0,-41.248,0.0,0.0,0.0,0.0,0.0
57,0.0,0.2132021484375,0.0,0.0,0.0,0.0,0.0,0.0,0.404,0.0,0.0,0.0,0.0,0.0,0.0,0.3195618304796461,0.0,0.0,0.0,0.0,0.0,0.0,-41.732,0.0,0.0,0.0,0.0,0.0
58,0.0,0.2173251953125,0.0,0.0,0.0,0.0,0.0,0.0,0.408,0.0,0.0,0.0,0.0,0.0,0.0,0.324495216530151,0.0,0.0,0.0,0.0,0.0,0.0,-42.164,0.0,0.0,0.0,0.0,0.0
59,0.0,0.2213388671875,0.0,0.0,0.0,0.0,0.0,0.0,0.409,0.0,0.0,0.0,0.0,0.0,0.0,0.32952021332193226,0.0,0.0,0.0,0.0,0.0,0.0,-42.436,0.0,0.0,0.0,0.0,0.0
60,0.0,0.225564453125,0.0,0.0,0.0,0.0,0.0,0.0,0.41,0.0,0.0,0.0,0.0,0.0,0.0,0.33461694713799145,0.0,0.0,0.0,0.0,0.0,0.0,-42.164,0.0,0.0,0.0,0.0,0.0
61,0.0,0.2296806640625,0.0,0.0,0.0,0.0,0.0,0.0,0.422,0.0,0.0,0.0,0.0,0.0,0.0,0.33949973251603066,0.0,0.0,0.0,0.0,0.0,0.0,-42.488,0.0,0.0,0.0,0.0,0.0
62,0.0,0.2338037109375,0.0,0.0,0.0,0.0,0.0,0.0,0.414,0.0,0.0,0.0,0.0,0.0,0.0,0.34446914587106703,0.0,0.0,0.0,0.0,0.0,0.0,-42.812,0.0,0.0,0.0,0.0,0.0
63,0.0,0.2380224609375,0.0,0.0,0.0,0.0,0.0,0.0,0.418,0.0,0.0,0.0,0.0,0.0,0.0,0.34932982491308884,0.0,0.0,0.0,0.0,0.0,0.0,-43.244,0.0,0.0,0.0,0.0,0.0
64,0.0,0.2422421875,0.0,0.0,0.0,0.0,0.0,0.0,0.421,0.0,0.0,0.0,0.0,0.0,0.0,0.3542107977744339,0.0,0.0,0.0,0.0,0.0,0.0,-43.728,0.0,0.0,0.0,0.0,0.0
65,0.0,0.246365234375,0.0,0.0,0.0,0.0,0.0,0.0,0.422,0.0,0.0,0.0,0.0,0.0,0.0,0.35902625291036977,0.0,0.0,0.0,0.0,0.0,0.0,-43.728,0.0,0.0,0.0,0.0,0.0
66,0.0,0.250583984375,0.0,0.0,0.0,0.0,0.0,0.0,0.422,0.0,0.0,0.0,0.0,0.0,0.0,0.3639648445899573,0.0,0.0,0.0,0.0,0.0,0.0,-43.46,0.0,0.0,0.0,0.0,0.0
67,0.0,0.25470703125,0.0,0.0,0.0,0.0,0.0,0.0,0.418,0.0,0.0,0.0,0.0,0.0,0.0,0.3685603609266174,0.0,0.0,0.0,0.0,0.0,0.0,-43.028,0.0,0.0,0.0,0.0,0.0
68,0.0,0.25892578125,0.0,0.0,0.0,0.0,0.0,0.0,0.416,0.0,0.0,0.0,0.0,0.0,0.0,0.3732558301236966,0.0,0.0,0.0,0.0,0.0,0.0,-43.192,0.0,0.0,0.0,0.0,0.0
69,0.0,0.263048828125,0.0,0.0,0.0,0.0,0.0,0.0,0.421,0.0,0.0,0.0,0.0,0.0,0.0,0.37804561718238877,0.0,0.0,0.0,0.0,0.0,0.0,-43.244,0.0,0.0,0.0,0.0,0.0
70,0.0,0.2671650390625,0.0,0.0,0.0,0.0,0.0,0.0,0.414,0.0,0.0,0.0,0.0,0.0,0.0,0.3826359212232376,0.0,0.0,0.0,0.0,0.0,0.0,-43.676,0.0,0.0,0.0,0.0,0.0
71,0.0,0.2711787109375,0.0,0.0,0.0,0.0,0.0,0.0,0.406,0.0,0.0,0.0,0.0,0.0,0.0,0.3872016788982862,0.0,0.0,0.0,0.0,0.0,0.0,-43.46,0.0,0.0,0.0,0.0,0.0
72,0.0,0.2753017578125,0.0,0.0,0.0,0.0,0.0,0.0,0.412,0.0,0.0,0.0,0.0,0.0,0.0,0.39183377713777323,0.0,0.0,0.0,0.0,0.0,0.0,-43.244,0.0,0.0,0.0,0.0,0.0
73,0.0,0.2793154296875,0.0,0.0,0.0,0.0,0.0,0.0,0.408,0.0,0.0,0.0,0.0,0.0,0.0,0.39626870928022084,0.0,0.0,0.0,0.0,0.0,0.0,-43.244,0.0,0.0,0.0,0.0,0.0
74,0.0,0.2833349609375,0.0,0.0,0.0,0.0,0.0,0.0,0.402,0.0,0.0,0.0,0.0,0.0,0.0,0.40075681620881526,0.0,0.0,0.0,0.0,0.0,0.0,-43.404,0.0,0.0,0.0,0.0,0.0
75,0.0,0.2873486328125,0.0,0.0,0.0,0.0,0.0,0.0,0.403,0.0,0.0,0.0,0.0,0.0,0.0,0.4052418275923327,0.0,0.0,0.0,0.0,0.0,0.0,-43.46,0.0,0.0,0.0,0.0,0.0
76,0.0,0.2912587890625,0.0,0.0,0.0,0.0,0.0,0.0,0.402,0.0,0.0,0.0,0.0,0.0,0.0,0.4096579912924443,0.0,0.0,0.0,0.0,0.0,0.0,-43.784,0.0,0.0,0.0,0.0,0.0
77,0.0,0.2952783203125,0.0,0.0,0.0,0.0,0.0,0.0,0.401,0.0,0.0,0.0,0.0,0.0,0.0,0.4139865828719111,0.0,0.0,0.0,0.0,0.0,0.0,-43.296,0.0,0.0,0.0,0.0,0.0
78,0.0,0.2992919921875,0.0,0.0,0.0,0.0,0.0,0.0,0.402,0.0,0.0,0.0,0.0,0.0,0.0,0.41829976661016355,0.0,0.0,0.0,0.0,0.0,0.0,-42.868,0.0,0.0,0.0,0.0,0.0
79,0.0,0.303208984375,0.0,0.0,0.0,0.0,0.0,0.0,0.396,0.0,0.0,0.0,0.0,0.0,0.0,0.42262704589553524,0.0,0.0,0.0,0.0,0.0,0.0,-42.436,0.0,0.0,0.0,0.0,0.0
80,0.0,0.307119140625,0.0,0.0,0.0,0.0,0.0,0.0,0.394,0.0,0.0,0.0,0.0,0.0,0.0,0.4268332205475964,0.0,0.0,0.0,0.0,0.0,0.0,-42.328,0.0,0.0,0.0,0.0,0.0
81,0.0,0.3110302734375,0.0,0.0,0.0,0.0,0.0,0.0,0.391,0.0,0.0,0.0,0.0,0.0,0.0,0.4310406384017679,0.0,0.0,0.0,0.0,0.0,0.0,-42.164,0.0,0.0,0.0,0.0,0.0
82,0.0,0.314947265625,0.0,0.0,0.0,0.0,0.0,0.0,0.394,0.0,0.0,0.0,0.0,0.0,0.0,0.43523621428690956,0.0,0.0,0.0,0.0,0.0,0.0,-42.436,0.0,0.0,0.0,0.0,0.0
83,0.0,0.318857421875,0.0,0.0,0.0,0.0,0.0,0.0,0.395,0.0,0.0,0.0,0.0,0.0,0.0,0.4392892390109597,0.0,0.0,0.0,0.0,0.0,0.0,-42.112,0.0,0.0,0.0,0.0,0.0
84,0.0,0.3227685546875,0.0,0.0,0.0,0.0,0.0,0.0,0.394,0.0,0.0,0.0,0.0,0.0,0.0,0.443371035151642,0.0,0.0,0.0,0.0,0.0,0.0,-41.84,0.0,0.0,0.0,0.0,0.0
85,0.0,0.326685546875,0.0,0.0,0.0,0.0,0.0,0.0,0.391,0.0,0.0,0.0,0.0,0.0,0.0,0.44745653879638037,0.0,0.0,0.0,0.0,0.0,0.0,-41.732,0.0,0.0,0.0,0.0,0.0
86,0.0,0.330595703125,0.0,0.0,0.0,0.0,0.0,0.0,0.39,0.0,0.0,0.0,0.0,0.0,0.0,0.45131705675456274,0.0,0.0,0.0,0.0,0.0,0.0,-41.732,0.0,0.0,0.0,0.0,0.0
87,0.0,0.3345126953125,0.0,0.0,0.0,0.0,0.0,0.0,0.396,0.0,0.0,0.0,0.0,0.0,0.0,0.45525318921546276,0.0,0.0,0.0,0.0,0.0,0.0,-41.896,0.0,0.0,0.0,0.0,0.0
88,0.0,0.3384228515625,0.0,0.0,0.0,0.0,0.0,0.0,0.397,0.0,0.0,0.0,0.0,0.0,0.0,0.45914671626102205,0.0,0.0,0.0,0.0,0.0,0.0,-42.38,0.0,0.0,0.0,0.0,0.0
89,0.0,0.3424365234375,0.0,0.0,0.0,0.0,0.0,0.0,0.397,0.0,0.0,0.0,0.0,0.0,0.0,0.4629842185982587,0.0,0.0,0.0,0.0,0.0,0.0,-41.948,0.0,0.0,0.0,0.0,0.0
90,0.0,0.346353515625,0.0,0.0,0.0,0.0,0.0,0.0,0.398,0.0,0.0,0.0,0.0,0.0,0.0,0.46678265974512967,0.0,0.0,0.0,0.0,0.0,0.0,-41.408,0.0,0.0,0.0,0.0,0.0
91,0.0,0.3502705078125,0.0,0.0,0.0,0.0,0.0,0.0,0.394,0.0,0.0,0.0,0.0,0.0,0.0,0.4705241728674644,0.0,0.0,0.0,0.0,0.0,0.0,-41.084,0.0,0.0,0.0,0.0,0.0
92,0.0,0.3542841796875,0.0,0.0,0.0,0.0,0.0,0.0,0.395,0.0,0.0,0.0,0.0,0.0,0.0,0.4742276963469363,0.0,0.0,0.0,0.0,0.0,0.0,-41.248,0.0,0.0,0.0,0.0,0.0
93,0.0,0.358201171875,0.0,0.0,0.0,0.0,0.0,0.0,0.399,0.0,0.0,0.0,0.0,0.0,0.0,0.47788464269521413,0.0,0.0,0.0,0.0,0.0,0.0,-41.248,0.0,0.0,0.0,0.0,0.0
94,0.0,0.3622138671875,0.0,0.0,0.0,0.0,0.0,0.0,0.402,0.0,0.0,0.0,0.0,0.0,0.0,0.48155358043672347,0.0,0.0,0.0,0.0,0.0,0.0,-41.68,0.0,0.0,0.0,0.0,0.0
95,0.0,0.366234375,0.0,0.0,0.0,0.0,0.0,0.0,0.401,0.0,0.0,0.0,0.0,0.0,0.0,0.48503765646032854,0.0,0.0,0.0,0.0,0.0,0.0,-41.3,0.0,0.0,0.0,0.0,0.0
96,0.0,0.37014453125,0.0,0.0,0.0,0.0,0.0,0.0,0.399,0.0,0.0,0.0,0.0,0.0,0.0,0.48854235245520117,0.0,0.0,0.0,0.0,0.0,0.0,-41.192,0.0,0.0,0.0,0.0,0.0
97,0.0,0.374158203125,0.0,0.0,0.0,0.0,0.0,0.0,0.396,0.0,0.0,0.0,0.0,0.0,0.0,0.4920151401296619,0.0,0.0,0.0,0.0,0.0,0.0,-41.084,0.0,0.0,0.0,0.0,0.0
98,0.0,0.378177734375,0.0,0.0,0.0,0.0,0.0,0.0,0.403,0.0,0.0,0.0,0.0,0.0,0.0,0.49541935948809573,0.0,0.0,0.0,0.0,0.0,0.0,-41.248,0.0,0.0,0.0,0.0,0.0
99,0.0,0.3820888671875,0.0,0.0,0.0,0.0,0.0,0.0,0.4,0.0,0.0,0.0,0.0,0.0,0.0,0.49877720761735894,0.0,0.0,0.0,0.0,0.0,0.0,-41.516,0.0,0.0,0.0,0.0,0.0
100,0.0,0.3861015625,0.0,0.0,0.0,0.0,0.0,0.0,0.401,0.0,0.0,0.0,0.0,0.0,0.0,0.5021033290975949,0.0,0.0,0.0,0.0,0.0,0.0,-41.948,0.0,0.0,0.0,0.0,0.0
101,0.0,0.3901220703125,0.0,0.0,0.0,0.0,0.0,0.0,0.403,0.0,0.0,0.0,0.0,0.0,0.0,0.5053518344917547,0.0,0.0,0.0,0.0,0.0,0.0,-41.3,0.0,0.0,0.0,0.0,0.0
102,0.0,0.394134765625,0.0,0.0,0.0,0.0,0.0,0.0,0.403,0.0,0.0,0.0,0.0,0.0,0.0,0.5085737563850214,0.0,0.0,0.0,0.0,0.0,0.0,-40.816,0.0,0.0,0.0,0.0,0.0
103,0.0,0.3981552734375,0.0,0.0,0.0,0.0,0.0,0.0,0.402,0.0,0.0,0.0,0.0,0.0,0.0,0.5117406044032363,0.0,0.0,0.0,0.0,0.0,0.0,-40.652,0.0,0.0,0.0,0.0,0.0
104,0.0,0.4020654296875,0.0,0.0,0.0,0.0,0.0,0.0,0.401,0.0,0.0,0.0,0.0,0.0,0.0,0.5148209512113303,0.0,0.0,0.0,0.0,0.0,0.0,-40.6,0.0,0.0,0.0,0.0,0.0
105,0.0,0.406181640625,0.0,0.0,0.0,0.0,0.0,0.0,0.402,0.0,0.0,0.0,0.0,0.0,0.0,0.5178575599475641,0.0,0.0,0.0,0.0,0.0,0.0,-40.6,0.0,0.0,0.0,0.0,0.0
106,0.0,0.4100986328125,0.0,0.0,0.0,0.0,0.0,0.0,0.405,0.0,0.0,0.0,0.0,0.0,0.0,0.5209482491575379,0.0,0.0,0.0,0.0,0.0,0.0,-40.868,0.0,0.0,0.0,0.0,0.0
107,0.0,0.4141123046875,0.0,0.0,0.0,0.0,0.0,0.0,0.401,0.0,0.0,0.0,0.0,0.0,0.0,0.5238158762091254,0.0,0.0,0.0,0.0,0.0,0.0,-40.652,0.0,0.0,0.0,0.0,0.0
108,0.0,0.4181259765625,0.0,0.0,0.0,0.0,0.0,0.0,0.403,0.0,0.0,0.0,0.0,0.0,0.0,0.5267236866140798,0.0,0.0,0.0,0.0,0.0,0.0,-40.328,0.0,0.0,0.0,0.0,0.0
109,0.0,0.4221455078125,0.0,0.0,0.0,0.0,0.0,0.0,0.401,0.0,0.0,0.0,0.0,0.0,0.0,0.5295782619516659,0.0,0.0,0.0,0.0,0.0,0.0,-40.436,0.0,0.0,0.0,0.0,0.0
110,0.0,0.426056640625,0.0,0.0,0.0,0.0,0.0,0.0,0.4,0.0,0.0,0.0,0.0,0.0,0.0,0.5323704895295952,0.0,0.0,0.0,0.0,0.0,0.0,-40.76,0.0,0.0,0.0,0.0,0.0
111,0.0,0.4300693359375,0.0,0.0,0.0,0.0,0.0,0.0,0.4,0.0,0.0,0.0,0.0,0.0,0.0,0.5351179556639939,0.0,0.0,0.0,0.0,0.0,0.0,-40.924,0.0,0.0,0.0,0.0,0.0
112,0.0,0.43408984375,0.0,0.0,0.0,0.0,0.0,0.0,0.402,0.0,0.0,0.0,0.0,0.0,0.0,0.5378214721118515,0.0,0.0,0.0,0.0,0.0,0.0,-41.084,0.0,0.0,0.0,0.0,0.0
113,0.0,0.4381025390625,0.0,0.0,0.0,0.0,0.0,0.0,0.401,0.0,0.0,0.0,0.0,0.0,0.0,0.5404359311968195,0.0,0.0,0.0,0.0,0.0,0.0,-40.544,0.0,0.0,0.0,0.0,0.0
114,0.0,0.4421162109375,0.0,0.0,0.0,0.0,0.0,0.0,0.403,0.0,0.0,0.0,0.0,0.0,0.0,0.5430182254356865,0.0,0.0,0.0,0.0,0.0,0.0,-40.004,0.0,0.0,0.0,0.0,0.0
115,0.0,0.4460400390625,0.0,0.0,0.0,0.0,0.0,0.0,0.404,0.0,0.0,0.0,0.0,0.0,0.0,0.5455613319196168,0.0,0.0,0.0,0.0,0.0,0.0,-39.788,0.0,0.0,0.0,0.0,0.0
116,0.0,0.450052734375,0.0,0.0,0.0,0.0,0.0,0.0,0.397,0.0,0.0,0.0,0.0,0.0,0.0,0.5480332452756326,0.0,0.0,0.0,0.0,0.0,0.0,-39.952,0.0,0.0,0.0,0.0,0.0
117,0.0,0.4539638671875,0.0,0.0,0.0,0.0,0.0,0.0,0.398,0.0,0.0,0.0,0.0,0.0,0.0,0.5504155945243117,0.0,0.0,0.0,0.0,0.0,0.0,-39.896,0.0,0.0,0.0,0.0,0.0
118,0.0,0.4579833984375,0.0,0.0,0.0,0.0,0.0,0.0,0.4,0.0,0.0,0.0,0.0,0.0,0.0,0.5528214409908371,0.0,0.0,0.0,0.0,0.0,0.0,-40.112,0.0,0.0,0.0,0.0,0.0
119,0.0,0.4619970703125,0.0,0.0,0.0,0.0,0.0,0.0,0.401,0.0,0.0,0.0,0.0,0.0,0.0,0.5551133524545208,0.0,0.0,0.0,0.0,0.0,0.0,-39.844,0.0,0.0,0.0,0.0,0.0
120,0.0,0.4659072265625,0.0,0.0,0.0,0.0,0.0,0.0,0.4,0.0,0.0,0.0,0.0,0.0,0.0,0.5573328280965483,0.0,0.0,0.0,0.0,0.0,0.0,-39.52,0.0,0.0,0.0,0.0,0.0
121,0.0,0.469927734375,0.0,0.0,0.0,0.0,0.0,0.0,0.399,0.0,0.0,0.0,0.0,0.0,0.0,0.5595466074556887,0.0,0.0,0.0,0.0,0.0,0.0,-39.628,0.0,0.0,0.0,0.0,0.0
122,0.0,0.473837890625,0.0,0.0,0.0,0.0,0.0,0.0,0.399,0.0,0.0,0.0,0.0,0.0,0.0,0.5616850119596916,0.0,0.0,0.0,0.0,0.0,0.0,-39.736,0.0,0.0,0.0,0.0,0.0
123,0.0,0.4778515625,0.0,0.0,0.0,0.0,0.0,0.0,0.398,0.0,0.0,0.0,0.0,0.0,0.0,0.5637446433330553,0.0,0.0,0.0,0.0,0.0,0.0,-39.952,0.0,0.0,0.0,0.0,0.0
124,0.0,0.4817685546875,0.0,0.0,0.0,0.0,0.0,0.0,0.4,0.0,0.0,0.0,0.0,0.0,0.0,0.5657804895883956,0.0,0.0,0.0,0.0,0.0,0.0,-40.112,0.0,0.0,0.0,0.0,0.0
125,0.0,0.485884765625,0.0,0.0,0.0,0.0,0.0,0.0,0.402,0.0,0.0,0.0,0.0,0.0,0.0,0.5677731599183905,0.0,0.0,0.0,0.0,0.0,0.0,-39.52,0.0,0.0,0.0,0.0,0.0
126,0.0,0.489794921875,0.0,0.0,0.0,0.0,0.0,0.0,0.406,0.0,0.0,0.0,0.0,0.0,0.0,0.5696699938603111,0.0,0.0,0.0,0.0,0.0,0.0,-39.032,0.0,0.0,0.0,0.0,0.0
127,0.0,0.4938154296875,0.0,0.0,0.0,0.0,0.0,0.0,0.398,0.0,0.0,0.0,0.0,0.0,0.0,0.571521329460139,0.0,0.0,0.0,0.0,0.0,0.0,-38.872,0.0,0.0,0.0,0.0,0.0
128,0.0,0.4977255859375,0.0,0.0,0.0,0.0,0.0,0.0,0.399,0.0,0.0,0.0,0.0,0.0,0.0,0.5733375061742578,0.0,0.0,0.0,0.0,0.0,0.0,-38.764,0.0,0.0,0.0,0.0,0.0
129,0.0,0.5017392578125,0.0,0.0,0.0,0.0,0.0,0.0,0.398,0.0,0.0,0.0,0.0,0.0,0.0,0.5750663998841872,0.0,0.0,0.0,0.0,0.0,0.0,-38.924,0.0,0.0,0.0,0.0,0.0
130,0.0,0.50565625,0.0,0.0,0.0,0.0,0.0,0.0,0.4,0.0,0.0,0.0,0.0,0.0,0.0,0.5767450023336886,0.0,0.0,0.0,0.0,0.0,0.0,-39.088,0.0,0.0,0.0,0.0,0.0
131,0.0,0.5096689453125,0.0,0.0,0.0,0.0,0.0,0.0,0.401,0.0,0.0,0.0,0.0,0.0,0.0,0.5783726250014823,0.0,0.0,0.0,0.0,0.0,0.0,-38.708,0.0,0.0,0.0,0.0,0.0
132,0.0,0.5136826171875,0.0,0.0,0.0,0.0,0.0,0.0,0.403,0.0,0.0,0.0,0.0,0.0,0.0,0.5799256294275364,0.0,0.0,0.0,0.0,0.0,0.0,-38.224,0.0,0.0,0.0,0.0,0.0
133,0.0,0.5176064453125,0.0,0.0,0.0,0.0,0.0,0.0,0.4,0.0,0.0,0.0,0.0,0.0,0.0,0.5814452786969696,0.0,0.0,0.0,0.0,0.0,0.0,-38.6,0.0,0.0,0.0,0.0,0.0
134,0.0,0.5216201171875,0.0,0.0,0.0,0.0,0.0,0.0,0.396,0.0,0.0,0.0,0.0,0.0,0.0,0.5829107029624456,0.0,0.0,0.0,0.0,0.0,0.0,-38.816,0.0,0.0,0.0,0.0,0.0
135,0.0,0.5255302734375,0.0,0.0,0.0,0.0,0.0,0.0,0.398,0.0,0.0,0.0,0.0,0.0,0.0,0.5842804056598374,0.0,0.0,0.0,0.0,0.0,0.0,-38.924,0.0,0.0,0.0,0.0,0.0
136,0.0,0.5295498046875,0.0,0.0,0.0,0.0,0.0,0.0,0.401,0.0,0.0,0.0,0.0,0.0,0.0,0.5856247399109717,0.0,0.0,0.0,0.0,0.0,0.0,-39.032,0.0,0.0,0.0,0.0,0.0
137,0.0,0.5335634765625,0.0,0.0,0.0,0.0,0.0,0.0,0.402,0.0,0.0,0.0,0.0,0.0,0.0,0.5869141458063163,0.0,0.0,0.0,0.0,0.0,0.0,-38.492,0.0,0.0,0.0,0.0,0.0
138,0.0,0.5375771484375,0.0,0.0,0.0,0.0,0.0,0.0,0.402,0.0,0.0,0.0,0.0,0.0,0.0,0.5881203680848901,0.0,0.0,0.0,0.0,0.0,0.0,-37.792,0.0,0.0,0.0,0.0,0.0
139,0.0,0.541494140625,0.0,0.0,0.0,0.0,0.0,0.0,0.4,0.0,0.0,0.0,0.0,0.0,0.0,0.5892783101622201,0.0,0.0,0.0,0.0,0.0,0.0,-37.628,0.0,0.0,0.0,0.0,0.0
140,0.0,0.5455078125,0.0,0.0,0.0,0.0,0.0,0.0,0.397,0.0,0.0,0.0,0.0,0.0,0.0,0.5903767573030421,0.0,0.0,0.0,0.0,0.0,0.0,-37.684,0.0,0.0,0.0,0.0,0.0
141,0.0,0.54941796875,0.0,0.0,0.0,0.0,0.0,0.0,0.398,0.0,0.0,0.0,0.0,0.0,0.0,0.5914124499087414,0.0,0.0,0.0,0.0,0.0,0.0,-37.9,0.0,0.0,0.0,0.0,0.0
142,0.0,0.5534375,0.0,0.0,0.0,0.0,0.0,0.0,0.402,0.0,0.0,0.0,0.0,0.0,0.0,0.5923944521696343,0.0,0.0,0.0,0.0,0.0,0.0,-37.792,0.0,0.0,0.0,0.0,0.0
143,0.0,0.557451171875,0.0,0.0,0.0,0.0,0.0,0.0,0.404,0.0,0.0,0.0,0.0,0.0,0.0,0.5933194396672297,0.0,0.0,0.0,0.0,0.0,0.0,-37.628,0.0,0.0,0.0,0.0,0.0
144,0.0,0.56146484375,0.0,0.0,0.0,0.0,0.0,0.0,0.4,0.0,0.0,0.0,0.0,0.0,0.0,0.5941937838861322,0.0,0.0,0.0,0.0,0.0,0.0,-37.468,0.0,0.0,0.0,0.0,0.0
145,0.0,0.5653818359375,0.0,0.0,0.0,0.0,0.0,0.0,0.397,0.0,0.0,0.0,0.0,0.0,0.0,0.5949863112992402,0.0,0.0,0.0,0.0,0.0,0.0,-37.52,0.0,0.0,0.0,0.0,0.0
146,0.0,0.56939453125,0.0,0.0,0.0,0.0,0.0,0.0,0.399,0.0,0.0,0.0,0.0,0.0,0.0,0.5957367302588966,0.0,0.0,0.0,0.0,0.0,0.0,-37.684,0.0,0.0,0.0,0.0,0.0
147,0.0,0.5733056640625,0.0,0.0,0.0,0.0,0.0,0.0,0.4,0.0,0.0,0.0,0.0,0.0,0.0,0.5964165933834749,0.0,0.0,0.0,0.0,0.0,0.0,-37.952,0.0,0.0,0.0,0.0,0.0
148,0.0,0.5773251953125,0.0,0.0,0.0,0.0,0.0,0.0,0.404,0.0,0.0,0.0,0.0,0.0,0.0,0.5970406381300003,0.0,0.0,0.0,0.0,0.0,0.0,-37.9,0.0,0.0,0.0,0.0,0.0
149,0.0,0.581345703125,0.0,0.0,0.0,0.0,0.0,0.0,0.404,0.0,0.0,0.0,0.0,0.0,0.0,0.5976098678557988,0.0,0.0,0.0,0.0,0.0,0.0,-37.252,0.0,0.0,0.0,0.0,0.0
150,0.0,0.5853583984375,0.0,0.0,0.0,0.0,0.0,0.0,0.4,0.0,0.0,0.0,0.0,0.0,0.0,0.5981142373304587,0.0,0.0,0.0,0.0,0.0,0.0,-36.604,0.0,0.0,0.0,0.0,0.0
151,0.0,0.58926953125,0.0,0.0,0.0,0.0,0.0,0.0,0.4,0.0,0.0,0.0,0.0,0.0,0.0,0.5985592346234837,0.0,0.0,0.0,0.0,0.0,0.0,-36.496,0.0,0.0,0.0,0.0,0.0
152,0.0,0.5932890625,0.0,0.0,0.0,0.0,0.0,0.0,0.397,0.0,0.0,0.0,0.0,0.0,0.0,0.5989477677169898,0.0,0.0,0.0,0.0,0.0,0.0,-36.604,0.0,0.0,0.0,0.0,0.0
153,0.0,0.59719921875,0.0,0.0,0.0,0.0,0.0,0.0,0.401,0.0,0.0,0.0,0.0,0.0,0.0,0.5992712605681868,0.0,0.0,0.0,0.0,0.0,0.0,-36.82,0.0,0.0,0.0,0.0,0.0
154,0.0,0.6011103515625,0.0,0.0,0.0,0.0,0.0,0.0,0.4,0.0,0.0,0.0,0.0,0.0,0.0,0.5995368465621499,0.0,0.0,0.0,0.0,0.0,0.0,-38.332,0.0,0.0,0.0,0.0,0.0
155,0.0,0.60430078125,0.0,0.0,0.0,0.0,0.0,0.0,0.365,0.0,0.0,0.0,0.0,0.0,0.0,0.5997436091849314,0.0,0.0,0.0,0.0,0.0,0.0,-44.54,0.0,0.0,0.0,0.0,0.0
156,0.0,0.6067763671875,0.0,0.0,0.0,0.0,0.0,0.0,0.288,0.0,0.0,0.0,0.0,0.0,0.0,0.599888335826649,0.0,0.0,0.0,0.0,0.0,0.0,-49.344,0.0,0.0,0.0,0.0,0.0
157,0.0,0.6089375,0.0,0.0,0.0,0.0,0.0,0.0,0.237,0.0,0.0,0.0,0.0,0.0,0.0,0.5999736374086706,0.0,0.0,0.0,0.0,0.0,0.0,-51.776,0.0,0.0,0.0,0.0,0.0
158,0.0,0.6104814453125,0.0,0.0,0.0,0.0,0.0,0.0,0.188,0.0,0.0,0.0,0.0,0.0,0.0,0.5999996662898104,0.0,0.0,0.0,0.0,0.0,0.0,-52.26,0.0,0.0,0.0,0.0,0.0
159,0.0,0.6118193359375,0.0,0.0,0.0,0.0,0.0,0.0,0.146,0.0,0.0,0.0,0.0,0.0,0.0,0.5999660446106764,0.0,0.0,0.0,0.0,0.0,0.0,-53.664,0.0,0.0,0.0,0.0,0.0
160,0.0,0.6127451171875,0.0,0.0,0.0,0.0,0.0,0.0,0.122,0.0,0.0,0.0,0.0,0.0,0.0,0.599872749474375,0.0,0.0,0.0,0.0,0.0,0.0,-54.472,0.0,0.0,0.0,0.0,0.0
161,0.0,0.612951171875,0.0,0.0,0.0,0.0,0.0,0.0,0.062,0.0,0.0,0.0,0.0,0.0,0.0,0.5997163411311818,0.0,0.0,0.0,0.0,0.0,0.0,-53.288,0.0,0.0,0.0,0.0,0.0
162,0.0,0.6125390625,0.0,0.0,0.0,0.0,0.0,0.0,-0.004,0.0,0.0,0.0,0.0,0.0,0.0,0.5995036888779146,0.0,0.0,0.0,0.0,0.0,0.0,-51.288,0.0,0.0,0.0,0.0,0.0
163,0.0,0.6118193359375,0.0,0.0,0.0,0.0,0.0,0.0,-0.051,0.0,0.0,0.0,0.0,0.0,0.0,0.5992293554537951,0.0,0.0,0.0,0.0,0.0,0.0,-49.292,0.0,0.0,0.0,0.0,0.0
164,0.0,0.61099609375,0.0,0.0,0.0,0.0,0.0,0.0,-0.078,0.0,0.0,0.0,0.0,0.0,0.0,0.598895838878377,0.0,0.0,0.0,0.0,0.0,0.0,-47.292,0.0,0.0,0.0,0.0,0.0
165,0.0,0.6101728515625,0.0,0.0,0.0,0.0,0.0,0.0,-0.086,0.0,0.0,0.0,0.0,0.0,0.0,0.5984985866373129,0.0,0.0,0.0,0.0,0.0,0.0,-45.888,0.0,0.0,0.0,0.0,0.0
166,0.0,0.6089375,0.0,0.0,0.0,0.0,0.0,0.0,-0.1,0.0,0.0,0.0,0.0,0.0,0.0,0.5980477587516554,0.0,0.0,0.0,0.0,0.0,0.0,-44.756,0.0,0.0,0.0,0.0,0.0
167,0.0,0.607599609375,0.0,0.0,0.0,0.0,0.0,0.0,-0.129,0.0,0.0,0.0,0.0,0.0,0.0,0.5975334294139277,0.0,0.0,0.0,0.0,0.0,0.0,-43.192,0.0,0.0,0.0,0.0,0.0
168,0.0,0.606056640625,0.0,0.0,0.0,0.0,0.0,0.0,-0.146,0.0,0.0,0.0,0.0,0.0,0.0,0.5969586930236018,0.0,0.0,0.0,0.0,0.0,0.0,-41.192,0.0,0.0,0.0,0.0,0.0
169,0.0,0.6044033203125,0.0,0.0,0.0,0.0,0.0,0.0,-0.158,0.0,0.0,0.0,0.0,0.0,0.0,0.5963274811533924,0.0,0.0,0.0,0.0,0.0,0.0,-39.412,0.0,0.0,0.0,0.0,0.0
170,0.0,0.602859375,0.0,0.0,0.0,0.0,0.0,0.0,-0.161,0.0,0.0,0.0,0.0,0.0,0.0,0.5956299979443205,0.0,0.0,0.0,0.0,0.0,0.0,-38.06,0.0,0.0,0.0,0.0,0.0
171,0.0,0.6014189453125,0.0,0.0,0.0,0.0,0.0,0.0,-0.152,0.0,0.0,0.0,0.0,0.0,0.0,0.5948882633202135,0.0,0.0,0.0,0.0,0.0,0.0,-36.82,0.0,0.0,0.0,0.0,0.0
172,0.0,0.599978515625,0.0,0.0,0.0,0.0,0.0,0.0,-0.147,0.0,0.0,0.0,0.0,0.0,0.0,0.5940816297529852,0.0,0.0,0.0,0.0,0.0,0.0,-36.064,0.0,0.0,0.0,0.0,0.0
173,0.0,0.5984345703125,0.0,0.0,0.0,0.0,0.0,0.0,-0.153,0.0,0.0,0.0,0.0,0.0,0.0,0.5932039016554603,0.0,0.0,0.0,0.0,0.0,0.0,-36.764,0.0,0.0,0.0,0.0,0.0
174,0.0,0.5967880859375,0.0,0.0,0.0,0.0,0.0,0.0,-0.157,0.0,0.0,0.0,0.0,0.0,0.0,0.5922756725439401,0.0,0.0,0.0,0.0,0.0,0.0,-35.9,0.0,0.0,0.0,0.0,0.0
175,0.0,0.59534765625,0.0,0.0,0.0,0.0,0.0,0.0,-0.157,0.0,0.0,0.0,0.0,0.0,0.0,0.5912885506146949,0.0,0.0,0.0,0.0,0.0,0.0,-35.956,0.0,0.0,0.0,0.0,0.0
176,0.0,0.5938037109375,0.0,0.0,0.0,0.0,0.0,0.0,-0.153,0.0,0.0,0.0,0.0,0.0,0.0,0.5902398502661664,0.0,0.0,0.0,0.0,0.0,0.0,-36.388,0.0,0.0,0.0,0.0,0.0
177,0.0,0.59236328125,0.0,0.0,0.0,0.0,0.0,0.0,-0.149,0.0,0.0,0.0,0.0,0.0,0.0,0.5891338945539073,0.0,0.0,0.0,0.0,0.0,0.0,-35.9,0.0,0.0,0.0,0.0,0.0
178,0.0,0.590916015625,0.0,0.0,0.0,0.0,0.0,0.0,-0.14,0.0,0.0,0.0,0.0,0.0,0.0,0.5879705060337584,0.0,0.0,0.0,0.0,0.0,0.0,-35.416,0.0,0.0,0.0,0.0,0.0
179,0.0,0.589474609375,0.0,0.0,0.0,0.0,0.0,0.0,-0.149,0.0,0.0,0.0,0.0,0.0,0.0,0.586731365590308,0.0,0.0,0.0,0.0,0.0,0.0,-35.252,0.0,0.0,0.0,0.0,0.0
180,0.0,0.587931640625,0.0,0.0,0.0,0.0,0.0,0.0,-0.154,0.0,0.0,0.0,0.0,0.0,0.0,0.5854507783385491,0.0,0.0,0.0,0.0,0.0,0.0,-34.984,0.0,0.0,0.0,0.0,0.0
181,0.0,0.586490234375,0.0,0.0,0.0,0.0,0.0,0.0,-0.149,0.0,0.0,0.0,0.0,0.0,0.0,0.584109871435323,0.0,0.0,0.0,0.0,0.0,0.0,-34.336,0.0,0.0,0.0,0.0,0.0
182,0.0,0.5850498046875,0.0,0.0,0.0,0.0,0.0,0.0,-0.141,0.0,0.0,0.0,0.0,0.0,0.0,0.5827125683978484,0.0,0.0,0.0,0.0,0.0,0.0,-34.876,0.0,0.0,0.0,0.0,0.0
183,0.0,0.5838154296875,0.0,0.0,0.0,0.0,0.0,0.0,-0.138,0.0,0.0,0.0,0.0,0.0,0.0,0.5812395441994879,0.0,0.0,0.0,0.0,0.0,0.0,-34.496,0.0,0.0,0.0,0.0,0.0
184,0.0,0.5824775390625,0.0,0.0,0.0,0.0,0.0,0.0,-0.131,0.0,0.0,0.0,0.0,0.0,0.0,0.5797289817881035,0.0,0.0,0.0,0.0,0.0,0.0,-35.468,0.0,0.0,0.0,0.0,0.0
185,0.0,0.5810361328125,0.0,0.0,0.0,0.0,0.0,0.0,-0.142,0.0,0.0,0.0,0.0,0.0,0.0,0.5781451054252265,0.0,0.0,0.0,0.0,0.0,0.0,-35.36,0.0,0.0,0.0,0.0,0.0
186,0.0,0.5798017578125,0.0,0.0,0.0,0.0,0.0,0.0,-0.132,0.0,0.0,0.0,0.0,0.0,0.0,0.5765280461925157,0.0,0.0,0.0,0.0,0.0,0.0,-34.876,0.0,0.0,0.0,0.0,0.0
187,0.0,0.578669921875,0.0,0.0,0.0,0.0,0.0,0.0,-0.12,0.0,0.0,0.0,0.0,0.0,0.0,0.5748331564027163,0.0,0.0,0.0,0.0,0.0,0.0,-35.092,0.0,0.0,0.0,0.0,0.0
188,0.0,0.5776337890625,0.0,0.0,0.0,0.0,0.0,0.0,-0.112,0.0,0.0,0.0,0.0,0.0,0.0,0.5730796059895864,0.0,0.0,0.0,0.0,0.0,0.0,-35.848,0.0,0.0,0.0,0.0,0.0
189,0.0,0.576501953125,0.0,0.0,0.0,0.0,0.0,0.0,-0.11,0.0,0.0,0.0,0.0,0.0,0.0,0.5712763192273985,0.0,0.0,0.0,0.0,0.0,0.0,-37.412,0.0,0.0,0.0,0.0,0.0
190,0.0,0.5752607421875,0.0,0.0,0.0,0.0,0.0,0.0,-0.122,0.0,0.0,0.0,0.0,0.0,0.0,0.5694158296948171,0.0,0.0,0.0,0.0,0.0,0.0,-38.116,0.0,0.0,0.0,0.0,0.0
191,0.0,0.5740263671875,0.0,0.0,0.0,0.0,0.0,0.0,-0.124,0.0,0.0,0.0,0.0,0.0,0.0,0.5674950515268987,0.0,0.0,0.0,0.0,0.0,0.0,-38.008,0.0,0.0,0.0,0.0,0.0
192,0.0,0.572791015625,0.0,0.0,0.0,0.0,0.0,0.0,-0.124,0.0,0.0,0.0,0.0,0.0,0.0,0.5655120555178386,0.0,0.0,0.0,0.0,0.0,0.0,-39.248,0.0,0.0,0.0,0.0,0.0
193,0.0,0.5716591796875,0.0,0.0,0.0,0.0,0.0,0.0,-0.123,0.0,0.0,0.0,0.0,0.0,0.0,0.5634997046852407,0.0,0.0,0.0,0.0,0.0,0.0,-39.788,0.0,0.0,0.0,0.0,0.0
194,0.0,0.570423828125,0.0,0.0,0.0,0.0,0.0,0.0,-0.116,0.0,0.0,0.0,0.0,0.0,0.0,0.5614107877377981,0.0,0.0,0.0,0.0,0.0,0.0,-41.14,0.0,0.0,0.0,0.0,0.0
195,0.0,0.56877734375,0.0,0.0,0.0,0.0,0.0,0.0,-0.144,0.0,0.0,0.0,0.0,0.0,0.0,0.5592218360185723,0.0,0.0,0.0,0.0,0.0,0.0,-42.328,0.0,0.0,0.0,0.0,0.0
196,0.0,0.567234375,0.0,0.0,0.0,0.0,0.0,0.0,-0.161,0.0,0.0,0.0,0.0,0.0,0.0,0.5570678820714787,0.0,0.0,0.0,0.0,0.0,0.0,-41.896,0.0,0.0,0.0,0.0,0.0
197,0.0,0.5653818359375,0.0,0.0,0.0,0.0,0.0,0.0,-0.171,0.0,0.0,0.0,0.0,0.0,0.0,0.5548084932060929,0.0,0.0,0.0,0.0,0.0,0.0,-42.544,0.0,0.0,0.0,0.0,0.0
198,0.0,0.5635224609375,0.0,0.0,0.0,0.0,0.0,0.0,-0.188,0.0,0.0,0.0,0.0,0.0,0.0,0.552477142009661,0.0,0.0,0.0,0.0,0.0,0.0,-41.516,0.0,0.0,0.0,0.0,0.0
199,0.0,0.5616708984375,0.0,0.0,0.0,0.0,0.0,0.0,-0.182,0.0,0.0,0.0,0.0,0.0,0.0,0.550132751715961,0.0,0.0,0.0,0.0,0.0,0.0,-41.896,0.0,0.0,0.0,0.0,0.0
200,0.0,0.559509765625,0.0,0.0,0.0,0.0,0.0,0.0,-0.203,0.0,0.0,0.0,0.0,0.0,0.0,0.5477038187975158,0.0,0.0,0.0,0.0,0.0,0.0,-42.328,0.0,0.0,0.0,0.0,0.0
201,0.0,0.5572451171875,0.0,0.0,0.0,0.0,0.0,0.0,-0.221,0.0,0.0,0.0,0.0,0.0,0.0,0.5452215523217558,0.0,0.0,0.0,0.0,0.0,0.0,-42.112,0.0,0.0,0.0,0.0,0.0
202,0.0,0.5549814453125,0.0,0.0,0.0,0.0,0.0,0.0,-0.227,0.0,0.0,0.0,0.0,0.0,0.0,0.5426947957937898,0.0,0.0,0.0,0.0,0.0,0.0,-40.924,0.0,0.0,0.0,0.0,0.0
203,0.0,0.55251171875,0.0,0.0,0.0,0.0,0.0,0.0,-0.239,0.0,0.0,0.0,0.0,0.0,0.0,0.540103770141862,0.0,0.0,0.0,0.0,0.0,0.0,-40.708,0.0,0.0,0.0,0.0,0.0
204,0.0,0.550138671875,0.0,0.0,0.0,0.0,0.0,0.0,-0.245,0.0,0.0,0.0,0.0,0.0,0.0,0.5374628525202045,0.0,0.0,0.0,0.0,0.0,0.0,-40.384,0.0,0.0,0.0,0.0,0.0
205,0.0,0.5475654296875,0.0,0.0,0.0,0.0,0.0,0.0,-0.247,0.0,0.0,0.0,0.0,0.0,0.0,0.5347669907959175,0.0,0.0,0.0,0.0,0.0,0.0,-40.652,0.0,0.0,0.0,0.0,0.0
206,0.0,0.544787109375,0.0,0.0,0.0,0.0,0.0,0.0,-0.263,0.0,0.0,0.0,0.0,0.0,0.0,0.5320195605852438,0.0,0.0,0.0,0.0,0.0,0.0,-40.976,0.0,0.0,0.0,0.0,0.0
207,0.0,0.541802734375,0.0,0.0,0.0,0.0,0.0,0.0,-0.294,0.0,0.0,0.0,0.0,0.0,0.0,0.5292022791785158,0.0,0.0,0.0,0.0,0.0,0.0,-41.624,0.0,0.0,0.0,0.0,0.0
208,0.0,0.538708984375,0.0,0.0,0.0,0.0,0.0,0.0,-0.304,0.0,0.0,0.0,0.0,0.0,0.0,0.5263412048719798,0.0,0.0,0.0,0.0,0.0,0.0,-41.248,0.0,0.0,0.0,0.0,0.0
209,0.0,0.5359306640625,0.0,0.0,0.0,0.0,0.0,0.0,-0.303,0.0,0.0,0.0,0.0,0.0,0.0,0.5234542230371352,0.0,0.0,0.0,0.0,0.0,0.0,-39.896,0.0,0.0,0.0,0.0,0.0
210,0.0,0.5332548828125,0.0,0.0,0.0,0.0,0.0,0.0,-0.276,0.0,0.0,0.0,0.0,0.0,0.0,0.5205075549185578,0.0,0.0,0.0,0.0,0.0,0.0,-39.088,0.0,0.0,0.0,0.0,0.0
211,0.0,0.530373046875,0.0,0.0,0.0,0.0,0.0,0.0,-0.274,0.0,0.0,0.0,0.0,0.0,0.0,0.517475516572626,0.0,0.0,0.0,0.0,0.0,0.0,-40.328,0.0,0.0,0.0,0.0,0.0
212,0.0,0.52718359375,0.0,0.0,0.0,0.0,0.0,0.0,-0.301,0.0,0.0,0.0,0.0,0.0,0.0,0.5144289880571076,0.0,0.0,0.0,0.0,0.0,0.0,-42.38,0.0,0.0,0.0,0.0,0.0
213,0.0,0.5235751953125,0.0,0.0,0.0,0.0,0.0,0.0,-0.339,0.0,0.0,0.0,0.0,0.0,0.0,0.5112756352985494,0.0,0.0,0.0,0.0,0.0,0.0,-42.056,0.0,0.0,0.0,0.0,0.0
214,0.0,0.520076171875,0.0,0.0,0.0,0.0,0.0,0.0,-0.361,0.0,0.0,0.0,0.0,0.0,0.0,0.508136581385488,0.0,0.0,0.0,0.0,0.0,0.0,-39.68,0.0,0.0,0.0,0.0,0.0
215,0.0,0.5168857421875,0.0,0.0,0.0,0.0,0.0,0.0,-0.343,0.0,0.0,0.0,0.0,0.0,0.0,0.5049232908497951,0.0,0.0,0.0,0.0,0.0,0.0,-38.276,0.0,0.0,0.0,0.0,0.0
216,0.0,0.513888671875,0.0,0.0,0.0,0.0,0.0,0.0,-0.311,0.0,0.0,0.0,0.0,0.0,0.0,0.5016417758303268,0.0,0.0,0.0,0.0,0.0,0.0,-38.656,0.0,0.0,0.0,0.0,0.0
217,0.0,0.5108017578125,0.0,0.0,0.0,0.0,0.0,0.0,-0.298,0.0,0.0,0.0,0.0,0.0,0.0,0.4983253305941513,0.0,0.0,0.0,0.0,0.0,0.0,-40.816,0.0,0.0,0.0,0.0,0.0
218,0.0,0.5074052734375,0.0,0.0,0.0,0.0,0.0,0.0,-0.328,0.0,0.0,0.0,0.0,0.0,0.0,0.4949922927441267,0.0,0.0,0.0,0.0,0.0,0.0,-40.76,0.0,0.0,0.0,0.0,0.0
219,0.0,0.50390625,0.0,0.0,0.0,0.0,0.0,0.0,-0.349,0.0,0.0,0.0,0.0,0.0,0.0,0.4915688200464803,0.0,0.0,0.0,0.0,0.0,0.0,-38.816,0.0,0.0,0.0,0.0,0.0
220,0.0,0.5001953125,0.0,0.0,0.0,0.0,0.0,0.0,-0.364,0.0,0.0,0.0,0.0,0.0,0.0,0.4880931370525924,0.0,0.0,0.0,0.0,0.0,0.0,-38.924,0.0,0.0,0.0,0.0,0.0
221,0.0,0.4967998046875,0.0,0.0,0.0,0.0,0.0,0.0,-0.363,0.0,0.0,0.0,0.0,0.0,0.0,0.4845938173565425,0.0,0.0,0.0,0.0,0.0,0.0,-39.412,0.0,0.0,0.0,0.0,0.0
222,0.0,0.493505859375,0.0,0.0,0.0,0.0,0.0,0.0,-0.336,0.0,0.0,0.0,0.0,0.0,0.0,0.48102668485534983,0.0,0.0,0.0,0.0,0.0,0.0,-40.06,0.0,0.0,0.0,0.0,0.0
223,0.0,0.49031640625,0.0,0.0,0.0,0.0,0.0,0.0,-0.327,0.0,0.0,0.0,0.0,0.0,0.0,0.47740585590977064,0.0,0.0,0.0,0.0,0.0,0.0,-38.44,0.0,0.0,0.0,0.0,0.0
224,0.0,0.486810546875,0.0,0.0,0.0,0.0,0.0,0.0,-0.33,0.0,0.0,0.0,0.0,0.0,0.0,0.47376316788445927,0.0,0.0,0.0,0.0,0.0,0.0,-40.22,0.0,0.0,0.0,0.0,0.0
225,0.0,0.4830029296875,0.0,0.0,0.0,0.0,0.0,0.0,-0.367,0.0,0.0,0.0,0.0,0.0,0.0,0.47006798900893376,0.0,0.0,0.0,0.0,0.0,0.0,-41.624,0.0,0.0,0.0,0.0,0.0
226,0.0,0.479298828125,0.0,0.0,0.0,0.0,0.0,0.0,-0.377,0.0,0.0,0.0,0.0,0.0,0.0,0.4662659239430651,0.0,0.0,0.0,0.0,0.0,0.0,-42.488,0.0,0.0,0.0,0.0,0.0
227,0.0,0.4755869140625,0.0,0.0,0.0,0.0,0.0,0.0,-0.375,0.0,0.0,0.0,0.0,0.0,0.0,0.4625119625504285,0.0,0.0,0.0,0.0,0.0,0.0,-40.976,0.0,0.0,0.0,0.0,0.0
228,0.0,0.4723974609375,0.0,0.0,0.0,0.0,0.0,0.0,-0.355,0.0,0.0,0.0,0.0,0.0,0.0,0.4586532709345848,0.0,0.0,0.0,0.0,0.0,0.0,-38.548,0.0,0.0,0.0,0.0,0.0
229,0.0,0.4690009765625,0.0,0.0,0.0,0.0,0.0,0.0,-0.326,0.0,0.0,0.0,0.0,0.0,0.0,0.4547621101797559,0.0,0.0,0.0,0.0,0.0,0.0,-39.628,0.0,0.0,0.0,0.0,0.0
230,0.0,0.465392578125,0.0,0.0,0.0,0.0,0.0,0.0,-0.355,0.0,0.0,0.0,0.0,0.0,0.0,0.4508460513576179,0.0,0.0,0.0,0.0,0.0,0.0,-41.14,0.0,0.0,0.0,0.0,0.0
231,0.0,0.4615849609375,0.0,0.0,0.0,0.0,0.0,0.0,-0.371,0.0,0.0,0.0,0.0,0.0,0.0,0.44687621204001265,0.0,0.0,0.0,0.0,0.0,0.0,-42.004,0.0,0.0,0.0,0.0,0.0
232,0.0,0.45746875,0.0,0.0,0.0,0.0,0.0,0.0,-0.397,0.0,0.0,0.0,0.0,0.0,0.0,0.44277603694637263,0.0,0.0,0.0,0.0,0.0,0.0,-42.112,0.0,0.0,0.0,0.0,0.0
233,0.0,0.45344921875,0.0,0.0,0.0,0.0,0.0,0.0,-0.414,0.0,0.0,0.0,0.0,0.0,0.0,0.4387744773520732,0.0,0.0,0.0,0.0,0.0,0.0,-41.788,0.0,0.0,0.0,0.0,0.0
234,0.0,0.449744140625,0.0,0.0,0.0,0.0,0.0,0.0,-0.389,0.0,0.0,0.0,0.0,0.0,0.0,0.4346486783710522,0.0,0.0,0.0,0.0,0.0,0.0,-41.464,0.0,0.0,0.0,0.0,0.0
235,0.0,0.446142578125,0.0,0.0,0.0,0.0,0.0,0.0,-0.366,0.0,0.0,0.0,0.0,0.0,0.0,0.43046113534421754,0.0,0.0,0.0,0.0,0.0,0.0,-41.896,0.0,0.0,0.0,0.0,0.0
236,0.0,0.442322265625,0.0,0.0,0.0,0.0,0.0,0.0,-0.371,0.0,0.0,0.0,0.0,0.0,0.0,0.4262940620435972,0.0,0.0,0.0,0.0,0.0,0.0,-42.436,0.0,0.0,0.0,0.0,0.0
237,0.0,0.4382060546875,0.0,0.0,0.0,0.0,0.0,0.0,-0.401,0.0,0.0,0.0,0.0,0.0,0.0,0.4220553576127111,0.0,0.0,0.0,0.0,0.0,0.0,-42.544,0.0,0.0,0.0,0.0,0.0
238,0.0,0.4338837890625,0.0,0.0,0.0,0.0,0.0,0.0,-0.424,0.0,0.0,0.0,0.0,0.0,0.0,0.4177295680937851,0.0,0.0,0.0,0.0,0.0,0.0,-41.948,0.0,0.0,0.0,0.0,0.0
239,0.0,0.429658203125,0.0,0.0,0.0,0.0,0.0,0.0,-0.433,0.0,0.0,0.0,0.0,0.0,0.0,0.4134370123215311,0.0,0.0,0.0,0.0,0.0,0.0,-41.192,0.0,0.0,0.0,0.0,0.0
240,0.0,0.4257470703125,0.0,0.0,0.0,0.0,0.0,0.0,-0.412,0.0,0.0,0.0,0.0,0.0,0.0,0.4090607709364455,0.0,0.0,0.0,0.0,0.0,0.0,-40.384,0.0,0.0,0.0,0.0,0.0
241,0.0,0.421734375,0.0,0.0,0.0,0.0,0.0,0.0,-0.397,0.0,0.0,0.0,0.0,0.0,0.0,0.40462478959182335,0.0,0.0,0.0,0.0,0.0,0.0,-40.708,0.0,0.0,0.0,0.0,0.0
242,0.0,0.4177138671875,0.0,0.0,0.0,0.0,0.0,0.0,-0.405,0.0,0.0,0.0,0.0,0.0,0.0,0.4001614033474149,0.0,0.0,0.0,0.0,0.0,0.0,-41.14,0.0,0.0,0.0,0.0,0.0
243,0.0,0.4133916015625,0.0,0.0,0.0,0.0,0.0,0.0,-0.418,0.0,0.0,0.0,0.0,0.0,0.0,0.3957144411622224,0.0,0.0,0.0,0.0,0.0,0.0,-41.248,0.0,0.0,0.0,0.0,0.0
244,0.0,0.4090703125,0.0,0.0,0.0,0.0,0.0,0.0,-0.439,0.0,0.0,0.0,0.0,0.0,0.0,0.3911532864740792,0.0,0.0,0.0,0.0,0.0,0.0,-41.084,0.0,0.0,0.0,0.0,0.0
245,0.0,0.40484375,0.0,0.0,0.0,0.0,0.0,0.0,-0.431,0.0,0.0,0.0,0.0,0.0,0.0,0.38658781334492903,0.0,0.0,0.0,0.0,0.0,0.0,-40.436,0.0,0.0,0.0,0.0,0.0
246,0.0,0.4008310546875,0.0,0.0,0.0,0.0,0.0,0.0,-0.415,0.0,0.0,0.0,0.0,0.0,0.0,0.3820173897080092,0.0,0.0,0.0,0.0,0.0,0.0,-39.952,0.0,0.0,0.0,0.0,0.0
247,0.0,0.396810546875,0.0,0.0,0.0,0.0,0.0,0.0,-0.402,0.0,0.0,0.0,0.0,0.0,0.0,0.37734420880678127,0.0,0.0,0.0,0.0,0.0,0.0,-40.6,0.0,0.0,0.0,0.0,0.0
248,0.0,0.3926943359375,0.0,0.0,0.0,0.0,0.0,0.0,-0.41,0.0,0.0,0.0,0.0,0.0,0.0,0.3726144603717115,0.0,0.0,0.0,0.0,0.0,0.0,-40.924,0.0,0.0,0.0,0.0,0.0
249,0.0,0.3884755859375,0.0,0.0,0.0,0.0,0.0,0.0,-0.419,0.0,0.0,0.0,0.0,0.0,0.0,0.3679737311605053,0.0,0.0,0.0,0.0,0.0,0.0,-41.032,0.0,0.0,0.0,0.0,0.0
250,0.0,0.38425,0.0,0.0,0.0,0.0,0.0,0.0,-0.425,0.0,0.0,0.0,0.0,0.0,0.0,0.3631799442042935,0.0,0.0,0.0,0.0,0.0,0.0,-41.14,0.0,0.0,0.0,0.0,0.0
251,0.0,0.380236328125,0.0,0.0,0.0,0.0,0.0,0.0,-0.418,0.0,0.0,0.0,0.0,0.0,0.0,0.35839357130338756,0.0,0.0,0.0,0.0,0.0,0.0,-40.168,0.0,0.0,0.0,0.0,0.0
252,0.0,0.3763251953125,0.0,0.0,0.0,0.0,0.0,0.0,-0.399,0.0,0.0,0.0,0.0,0.0,0.0,0.35357632793217003,0.0,0.0,0.0,0.0,0.0,0.0,-40.112,0.0,0.0,0.0,0.0,0.0
253,0.0,0.3723056640625,0.0,0.0,0.0,0.0,0.0,0.0,-0.398,0.0,0.0,0.0,0.0,0.0,0.0,0.34869119918097036,0.0,0.0,0.0,0.0,0.0,0.0,-40.652,0.0,0.0,0.0,0.0,0.0
254,0.0,0.368189453125,0.0,0.0,0.0,0.0,0.0,0.0,-0.41,0.0,0.0,0.0,0.0,0.0,0.0,0.3437251887754304,0.0,0.0,0.0,0.0,0.0,0.0,-41.084,0.0,0.0,0.0,0.0,0.0
255,0.0,0.364169921875,0.0,0.0,0.0,0.0,0.0,0.0,-0.408,0.0,0.0,0.0,0.0,0.0,0.0,0.338872402356765,0.0,0.0,0.0,0.0,0.0,0.0,-41.3,0.0,0.0,0.0,0.0,0.0
256,0.0,0.36015625,0.0,0.0,0.0,0.0,0.0,0.0,-0.409,0.0,0.0,0.0,0.0,0.0,0.0,0.33390460262998534,0.0,0.0,0.0,0.0,0.0,0.0,-41.732,0.0,0.0,0.0,0.0,0.0
257,0.0,0.3562451171875,0.0,0.0,0.0,0.0,0.0,0.0,-0.402,0.0,0.0,0.0,0.0,0.0,0.0,0.32884479182510845,0.0,0.0,0.0,0.0,0.0,0.0,-41.084,0.0,0.0,0.0,0.0,0.0
258,0.0,0.352328125,0.0,0.0,0.0,0.0,0.0,0.0,-0.392,0.0,0.0,0.0,0.0,0.0,0.0,0.3238426180007427,0.0,0.0,0.0,0.0,0.0,0.0,-41.248,0.0,0.0,0.0,0.0,0.0
259,0.0,0.348412109375,0.0,0.0,0.0,0.0,0.0,0.0,-0.397,0.0,0.0,0.0,0.0,0.0,0.0,0.31877806055534486,0.0,0.0,0.0,0.0,0.0,0.0,-41.68,0.0,0.0,0.0,0.0,0.0
260,0.0,0.3443984375,0.0,0.0,0.0,0.0,0.0,0.0,-0.398,0.0,0.0,0.0,0.0,0.0,0.0,0.31351799200174874,0.0,0.0,0.0,0.0,0.0,0.0,-41.788,0.0,0.0,0.0,0.0,0.0
261,0.0,0.3404814453125,0.0,0.0,0.0,0.0,0.0,0.0,-0.4,0.0,0.0,0.0,0.0,0.0,0.0,0.3085688856342651,0.0,0.0,0.0,0.0,0.0,0.0,-41.948,0.0,0.0,0.0,0.0,0.0
262,0.0,0.3365703125,0.0,0.0,0.0,0.0,0.0,0.0,-0.399,0.0,0.0,0.0,0.0,0.0,0.0,0.30341867957638174,0.0,0.0,0.0,0.0,0.0,0.0,-42.22,0.0,0.0,0.0,0.0,0.0
263,0.0,0.3326533203125,0.0,0.0,0.0,0.0,0.0,0.0,-0.389,0.0,0.0,0.0,0.0,0.0,0.0,0.29813150323893206,0.0,0.0,0.0,0.0,0.0,0.0,-41.624,0.0,0.0,0.0,0.0,0.0
264,0.0,0.3287431640625,0.0,0.0,0.0,0.0,0.0,0.0,-0.39,0.0,0.0,0.0,0.0,0.0,0.0,0.2929516157611292,0.0,0.0,0.0,0.0,0.0,0.0,-41.624,0.0,0.0,0.0,0.0,0.0
265,0.0,0.3248330078125,0.0,0.0,0.0,0.0,0.0,0.0,-0.398,0.0,0.0,0.0,0.0,0.0,0.0,0.2877646155687873,0.0,0.0,0.0,0.0,0.0,0.0,-42.056,0.0,0.0,0.0,0.0,0.0
266,0.0,0.3208125,0.0,0.0,0.0,0.0,0.0,0.0,-0.4,0.0,0.0,0.0,0.0,0.0,0.0,0.2823778898228801,0.0,0.0,0.0,0.0,0.0,0.0,-42.328,0.0,0.0,0.0,0.0,0.0
267,0.0,0.31690234375,0.0,0.0,0.0,0.0,0.0,0.0,-0.398,0.0,0.0,0.0,0.0,0.0,0.0,0.27715717316473143,0.0,0.0,0.0,0.0,0.0,0.0,-42.596,0.0,0.0,0.0,0.0,0.0
268,0.0,0.3130947265625,0.0,0.0,0.0,0.0,0.0,0.0,-0.394,0.0,0.0,0.0,0.0,0.0,0.0,0.2718342768291097,0.0,0.0,0.0,0.0,0.0,0.0,-43.028,0.0,0.0,0.0,0.0,0.0
269,0.0,0.309177734375,0.0,0.0,0.0,0.0,0.0,0.0,-0.387,0.0,0.0,0.0,0.0,0.0,0.0,0.2664266459319242,0.0,0.0,0.0,0.0,0.0,0.0,-42.652,0.0,0.0,0.0,0.0,0.0
270,0.0,0.305267578125,0.0,0.0,0.0,0.0,0.0,0.0,-0.388,0.0,0.0,0.0,0.0,0.0,0.0,0.26107087915236843,0.0,0.0,0.0,0.0,0.0,0.0,-42.596,0.0,0.0,0.0,0.0,0.0
271,0.0,0.3012470703125,0.0,0.0,0.0,0.0,0.0,0.0,-0.4,0.0,0.0,0.0,0.0,0.0,0.0,0.2556578807514317,0.0,0.0,0.0,0.0,0.0,0.0,-42.976,0.0,0.0,0.0,0.0,0.0
272,0.0,0.297234375,0.0,0.0,0.0,0.0,0.0,0.0,-0.41,0.0,0.0,0.0,0.0,0.0,0.0,0.250122210129727,0.0,0.0,0.0,0.0,0.0,0.0,-42.868,0.0,0.0,0.0,0.0,0.0
273,0.0,0.293220703125,0.0,0.0,0.0,0.0,0.0,0.0,-0.402,0.0,0.0,0.0,0.0,0.0,0.0,0.24474416878646257,0.0,0.0,0.0,0.0,0.0,0.0,-42.976,0.0,0.0,0.0,0.0,0.0
274,0.0,0.28940625,0.0,0.0,0.0,0.0,0.0,0.0,-0.394,0.0,0.0,0.0,0.0,0.0,0.0,0.23928314134333262,0.0,0.0,0.0,0.0,0.0,0.0,-43.084,0.0,0.0,0.0,0.0,0.0
275,0.0,0.2855986328125,0.0,0.0,0.0,0.0,0.0,0.0,-0.388,0.0,0.0,0.0,0.0,0.0,0.0,0.2336346715784673,0.0,0.0,0.0,0.0,0.0,0.0,-42.596,0.0,0.0,0.0,0.0,0.0
276,0.0,0.2815791015625,0.0,0.0,0.0,0.0,0.0,0.0,-0.394,0.0,0.0,0.0,0.0,0.0,0.0,0.2282144038952424,0.0,0.0,0.0,0.0,0.0,0.0,-42.488,0.0,0.0,0.0,0.0,0.0
277,0.0,0.277359375,0.0,0.0,0.0,0.0,0.0,0.0,-0.41,0.0,0.0,0.0,0.0,0.0,0.0,0.22266733706162933,0.0,0.0,0.0,0.0,0.0,0.0,-42.868,0.0,0.0,0.0,0.0,0.0
278,0.0,0.2733466796875,0.0,0.0,0.0,0.0,0.0,0.0,-0.419,0.0,0.0,0.0,0.0,0.0,0.0,0.21706637007908616,0.0,0.0,0.0,0.0,0.0,0.0,-42.92,0.0,0.0,0.0,0.0,0.0
279,0.0,0.269326171875,0.0,0.0,0.0,0.0,0.0,0.0,-0.403,0.0,0.0,0.0,0.0,0.0,0.0,0.21144797144823269,0.0,0.0,0.0,0.0,0.0,0.0,-42.976,0.0,0.0,0.0,0.0,0.0
280,0.0,0.2655185546875,0.0,0.0,0.0,0.0,0.0,0.0,-0.394,0.0,0.0,0.0,0.0,0.0,0.0,0.20579085374295467,0.0,0.0,0.0,0.0,0.0,0.0,-43.46,0.0,0.0,0.0,0.0,0.0
281,0.0,0.2616015625,0.0,0.0,0.0,0.0,0.0,0.0,-0.389,0.0,0.0,0.0,0.0,0.0,0.0,0.20010618288473866,0.0,0.0,0.0,0.0,0.0,0.0,-43.244,0.0,0.0,0.0,0.0,0.0
282,0.0,0.257587890625,0.0,0.0,0.0,0.0,0.0,0.0,-0.396,0.0,0.0,0.0,0.0,0.0,0.0,0.1944970427736011,0.0,0.0,0.0,0.0,0.0,0.0,-43.244,0.0,0.0,0.0,0.0,0.0
283,0.0,0.253369140625,0.0,0.0,0.0,0.0,0.0,0.0,-0.418,0.0,0.0,0.0,0.0,0.0,0.0,0.18882335690055718,0.0,0.0,0.0,0.0,0.0,0.0,-43.192,0.0,0.0,0.0,0.0,0.0
284,0.0,0.24924609375,0.0,0.0,0.0,0.0,0.0,0.0,-0.42,0.0,0.0,0.0,0.0,0.0,0.0,0.18310062580539008,0.0,0.0,0.0,0.0,0.0,0.0,-42.92,0.0,0.0,0.0,0.0,0.0
285,0.0,0.2453359375,0.0,0.0,0.0,0.0,0.0,0.0,-0.405,0.0,0.0,0.0,0.0,0.0,0.0,0.1773187429787508,0.0,0.0,0.0,0.0,0.0,0.0,-43.084,0.0,0.0,0.0,0.0,0.0
286,0.0,0.2414189453125,0.0,0.0,0.0,0.0,0.0,0.0,-0.394,0.0,0.0,0.0,0.0,0.0,0.0,0.17166077265022425,0.0,0.0,0.0,0.0,0.0,0.0,-43.46,0.0,0.0,0.0,0.0,0.0
287,0.0,0.237611328125,0.0,0.0,0.0,0.0,0.0,0.0,-0.39,0.0,0.0,0.0,0.0,0.0,0.0,0.16586968827368245,0.0,0.0,0.0,0.0,0.0,0.0,-42.76,0.0,0.0,0.0,0.0,0.0
288,0.0,0.2334951171875,0.0,0.0,0.0,0.0,0.0,0.0,-0.398,0.0,0.0,0.0,0.0,0.0,0.0,0.16004789973410333,0.0,0.0,0.0,0.0,0.0,0.0,-42.76,0.0,0.0,0.0,0.0,0.0
289,0.0,0.2293720703125,0.0,0.0,0.0,0.0,0.0,0.0,-0.415,0.0,0.0,0.0,0.0,0.0,0.0,0.15433799290400477,0.0,0.0,0.0,0.0,0.0,0.0,-43.136,0.0,0.0,0.0,0.0,0.0
290,0.0,0.225255859375,0.0,0.0,0.0,0.0,0.0,0.0,-0.419,0.0,0.0,0.0,0.0,0.0,0.0,0.14849790426996143,0.0,0.0,0.0,0.0,0.0,0.0,-43.192,0.0,0.0,0.0,0.0,0.0
291,0.0,0.2213388671875,0.0,0.0,0.0,0.0,0.0,0.0,-0.408,0.0,0.0,0.0,0.0,0.0,0.0,0.1426044394279711,0.0,0.0,0.0,0.0,0.0,0.0,-43.244,0.0,0.0,0.0,0.0,0.0
292,0.0,0.2174287109375,0.0,0.0,0.0,0.0,0.0,0.0,-0.392,0.0,0.0,0.0,0.0,0.0,0.0,0.13689260641563622,0.0,0.0,0.0,0.0,0.0,0.0,-43.676,0.0,0.0,0.0,0.0,0.0
293,0.0,0.21362109375,0.0,0.0,0.0,0.0,0.0,0.0,-0.385,0.0,0.0,0.0,0.0,0.0,0.0,0.13104174176801872,0.0,0.0,0.0,0.0,0.0,0.0,-43.352,0.0,0.0,0.0,0.0,0.0
294,0.0,0.209498046875,0.0,0.0,0.0,0.0,0.0,0.0,-0.398,0.0,0.0,0.0,0.0,0.0,0.0,0.1250111326192474,0.0,0.0,0.0,0.0,0.0,0.0,-43.62,0.0,0.0,0.0,0.0,0.0
295,0.0,0.2052783203125,0.0,0.0,0.0,0.0,0.0,0.0,-0.415,0.0,0.0,0.0,0.0,0.0,0.0,0.11924713963713084,0.0,0.0,0.0,0.0,0.0,0.0,-43.46,0.0,0.0,0.0,0.0,0.0
296,0.0,0.2012587890625,0.0,0.0,0.0,0.0,0.0,0.0,-0.417,0.0,0.0,0.0,0.0,0.0,0.0,0.11343106991392293,0.0,0.0,0.0,0.0,0.0,0.0,-43.244,0.0,0.0,0.0,0.0,0.0
297,0.0,0.1973486328125,0.0,0.0,0.0,0.0,0.0,0.0,-0.402,0.0,0.0,0.0,0.0,0.0,0.0,0.10746825711206463,0.0,0.0,0.0,0.0,0.0,0.0,-43.244,0.0,0.0,0.0,0.0,0.0
298,0.0,0.19363671875,0.0,0.0,0.0,0.0,0.0,0.0,-0.386,0.0,0.0,0.0,0.0,0.0,0.0,0.10159244439789149,0.0,0.0,0.0,0.0,0.0,0.0,-43.676,0.0,0.0,0.0,0.0,0.0
299,0.0,0.1897265625,0.0,0.0,0.0,0.0,0.0,0.0,-0.383,0.0,0.0,0.0,0.0,0.0,0.0,0.09569782803278706,0.0,0.0,0.0,0.0,0.0,0.0,-43.244,0.0,0.0,0.0,0.0,0.0
300,0.0,0.1856103515625,0.0,0.0,0.0,0.0,0.0,0.0,-0.395,0.0,0.0,0.0,0.0,0.0,0.0,0.0897088535002659,0.0,0.0,0.0,0.0,0.0,0.0,-43.46,0.0,0.0,0.0,0.0,0.0
301,0.0,0.1814873046875,0.0,0.0,0.0,0.0,0.0,0.0,-0.419,0.0,0.0,0.0,0.0,0.0,0.0,0.08383905722869218,0.0,0.0,0.0,0.0,0.0,0.0,-43.512,0.0,0.0,0.0,0.0,0.0
302,0.0,0.17737109375,0.0,0.0,0.0,0.0,0.0,0.0,-0.418,0.0,0.0,0.0,0.0,0.0,0.0,0.07786234493584332,0.0,0.0,0.0,0.0,0.0,0.0,-43.512,0.0,0.0,0.0,0.0,0.0
303,0.0,0.173556640625,0.0,0.0,0.0,0.0,0.0,0.0,-0.396,0.0,0.0,0.0,0.0,0.0,0.0,0.07169128680360431,0.0,0.0,0.0,0.0,0.0,0.0,-43.784,0.0,0.0,0.0,0.0,0.0
304,0.0,0.1698525390625,0.0,0.0,0.0,0.0,0.0,0.0,-0.381,0.0,0.0,0.0,0.0,0.0,0.0,0.06594663187620728,0.0,0.0,0.0,0.0,0.0,0.0,-44.376,0.0,0.0,0.0,0.0,0.0
305,0.0,0.166044921875,0.0,0.0,0.0,0.0,0.0,0.0,-0.378,0.0,0.0,0.0,0.0,0.0,0.0,0.059992885863652305,0.0,0.0,0.0,0.0,0.0,0.0,-44.052,0.0,0.0,0.0,0.0,0.0
306,0.0,0.1618193359375,0.0,0.0,0.0,0.0,0.0,0.0,-0.401,0.0,0.0,0.0,0.0,0.0,0.0,0.05389397235839505,0.0,0.0,0.0,0.0,0.0,0.0,-44.052,0.0,0.0,0.0,0.0,0.0
307,0.0,0.157703125,0.0,0.0,0.0,0.0,0.0,0.0,-0.422,0.0,0.0,0.0,0.0,0.0,0.0,0.04799691495674939,0.0,0.0,0.0,0.0,0.0,0.0,-44.052,0.0,0.0,0.0,0.0,0.0
308,0.0,0.153580078125,0.0,0.0,0.0,0.0,0.0,0.0,-0.418,0.0,0.0,0.0,0.0,0.0,0.0,0.042068930886714505,0.0,0.0,0.0,0.0,0.0,0.0,-43.892,0.0,0.0,0.0,0.0,0.0
309,0.0,0.1496689453125,0.0,0.0,0.0,0.0,0.0,0.0,-0.402,0.0,0.0,0.0,0.0,0.0,0.0,0.03595232876446235,0.0,0.0,0.0,0.0,0.0,0.0,-43.892,0.0,0.0,0.0,0.0,0.0
310,0.0,0.1459580078125,0.0,0.0,0.0,0.0,0.0,0.0,-0.384,0.0,0.0,0.0,0.0,0.0,0.0,0.03006214261691855,0.0,0.0,0.0,0.0,0.0,0.0,-44.108,0.0,0.0,0.0,0.0,0.0
311,0.0,0.142041015625,0.0,0.0,0.0,0.0,0.0,0.0,-0.383,0.0,0.0,0.0,0.0,0.0,0.0,0.02409343766577753,0.0,0.0,0.0,0.0,0.0,0.0,-43.62,0.0,0.0,0.0,0.0,0.0
312,0.0,0.1378154296875,0.0,0.0,0.0,0.0,0.0,0.0,-0.405,0.0,0.0,0.0,0.0,0.0,0.0,0.018033549142056883,0.0,0.0,0.0,0.0,0.0,0.0,-43.728,0.0,0.0,0.0,0.0,0.0
313,0.0,0.13369921875,0.0,0.0,0.0,0.0,0.0,0.0,-0.423,0.0,0.0,0.0,0.0,0.0,0.0,0.012096105254924097,0.0,0.0,0.0,0.0,0.0,0.0,-43.944,0.0,0.0,0.0,0.0,0.0
314,0.0,0.1295830078125,0.0,0.0,0.0,0.0,0.0,0.0,-0.416,0.0,0.0,0.0,0.0,0.0,0.0,0.006066786379914361,0.0,0.0,0.0,0.0,0.0,0.0,-43.836,0.0,0.0,0.0,0.0,0.0
315,0.0,0.1257685546875,0.0,0.0,0.0,0.0,0.0,0.0,-0.401,0.0,0.0,0.0,0.0,0.0,0.0,5.9170721284915236e-05,0.0,0.0,0.0,0.0,0.0,0.0,-44.052,0.0,0.0,0.0,0.0,0.0
316,0.0,0.122064453125,0.0,0.0,0.0,0.0,0.0,0.0,-0.383,0.0,0.0,0.0,0.0,0.0,0.0,-0.005896382788640076,0.0,0.0,0.0,0.0,0.0,0.0,-44.376,0.0,0.0,0.0,0.0,0.0
317,0.0,0.1180439453125,0.0,0.0,0.0,0.0,0.0,0.0,-0.384,0.0,0.0,0.0,0.0,0.0,0.0,-0.011878243706968616,0.0,0.0,0.0,0.0,0.0,0.0,-43.944,0.0,0.0,0.0,0.0,0.0
318,0.0,0.113927734375,0.0,0.0,0.0,0.0,0.0,0.0,-0.406,0.0,0.0,0.0,0.0,0.0,0.0,-0.01795501126177777,0.0,0.0,0.0,0.0,0.0,0.0,-44.108,0.0,0.0,0.0,0.0,0.0
319,0.0,0.1098056640625,0.0,0.0,0.0,0.0,0.0,0.0,-0.417,0.0,0.0,0.0,0.0,0.0,0.0,-0.023911155338721683,0.0,0.0,0.0,0.0,0.0,0.0,-44.324,0.0,0.0,0.0,0.0,0.0
320,0.0,0.1056884765625,0.0,0.0,0.0,0.0,0.0,0.0,-0.415,0.0,0.0,0.0,0.0,0.0,0.0,-0.02989422935506582,0.0,0.0,0.0,0.0,0.0,0.0,-44.16,0.0,0.0,0.0,0.0,0.0
321,0.0,0.1018876953125,0.0,0.0,0.0,0.0,0.0,0.0,-0.402,0.0,0.0,0.0,0.0,0.0,0.0,-0.03591702048256416,0.0,0.0,0.0,0.0,0.0,0.0,-44.108,0.0,0.0,0.0,0.0,0.0
322,0.0,0.0980732421875,0.0,0.0,0.0,0.0,0.0,0.0,-0.382,0.0,0.0,0.0,0.0,0.0,0.0,-0.04190136246144172,0.0,0.0,0.0,0.0,0.0,0.0,-44.16,0.0,0.0,0.0,0.0,0.0
323,0.0,0.0941630859375,0.0,0.0,0.0,0.0,0.0,0.0,-0.385,0.0,0.0,0.0,0.0,0.0,0.0,-0.047853427290957394,0.0,0.0,0.0,0.0,0.0,0.0,-43.728,0.0,0.0,0.0,0.0,0.0
324,0.0,0.0900400390625,0.0,0.0,0.0,0.0,0.0,0.0,-0.407,0.0,0.0,0.0,0.0,0.0,0.0,-0.053880826849442676,0.0,0.0,0.0,0.0,0.0,0.0,-44.0,0.0,0.0,0.0,0.0,0.0
325,0.0,0.0858212890625,0.0,0.0,0.0,0.0,0.0,0.0,-0.422,0.0,0.0,0.0,0.0,0.0,0.0,-0.05984069063381382,0.0,0.0,0.0,0.0,0.0,0.0,-44.052,0.0,0.0,0.0,0.0,0.0
326,0.0,0.0816982421875,0.0,0.0,0.0,0.0,0.0,0.0,-0.419,0.0,0.0,0.0,0.0,0.0,0.0,-0.06577127767407295,0.0,0.0,0.0,0.0,0.0,0.0,-44.0,0.0,0.0,0.0,0.0,0.0
327,0.0,0.077890625,0.0,0.0,0.0,0.0,0.0,0.0,-0.401,0.0,0.0,0.0,0.0,0.0,0.0,-0.07174010574690945,0.0,0.0,0.0,0.0,0.0,0.0,-44.268,0.0,0.0,0.0,0.0,0.0
328,0.0,0.074076171875,0.0,0.0,0.0,0.0,0.0,0.0,-0.384,0.0,0.0,0.0,0.0,0.0,0.0,-0.07779450636496053,0.0,0.0,0.0,0.0,0.0,0.0,-44.324,0.0,0.0,0.0,0.0,0.0
329,0.0,0.0702685546875,0.0,0.0,0.0,0.0,0.0,0.0,-0.382,0.0,0.0,0.0,0.0,0.0,0.0,-0.0836191764472785,0.0,0.0,0.0,0.0,0.0,0.0,-44.052,0.0,0.0,0.0,0.0,0.0
330,0.0,0.06615234375,0.0,0.0,0.0,0.0,0.0,0.0,-0.4,0.0,0.0,0.0,0.0,0.0,0.0,-0.08957953458826179,0.0,0.0,0.0,0.0,0.0,0.0,-44.324,0.0,0.0,0.0,0.0,0.0
331,0.0,0.0619267578125,0.0,0.0,0.0,0.0,0.0,0.0,-0.422,0.0,0.0,0.0,0.0,0.0,0.0,-0.0955846715077468,0.0,0.0,0.0,0.0,0.0,0.0,-44.54,0.0,0.0,0.0,0.0,0.0
332,0.0,0.0579130859375,0.0,0.0,0.0,0.0,0.0,0.0,-0.416,0.0,0.0,0.0,0.0,0.0,0.0,-0.10142392485160522,0.0,0.0,0.0,0.0,0.0,0.0,-44.268,0.0,0.0,0.0,0.0,0.0
333,0.0,0.05399609375,0.0,0.0,0.0,0.0,0.0,0.0,-0.399,0.0,0.0,0.0,0.0,0.0,0.0,-0.10735661260642743,0.0,0.0,0.0,0.0,0.0,0.0,-44.376,0.0,0.0,0.0,0.0,0.0
334,0.0,0.0502919921875,0.0,0.0,0.0,0.0,0.0,0.0,-0.383,0.0,0.0,0.0,0.0,0.0,0.0,-0.11328971484255708,0.0,0.0,0.0,0.0,0.0,0.0,-44.376,0.0,0.0,0.0,0.0,0.0
335,0.0,0.0464775390625,0.0,0.0,0.0,0.0,0.0,0.0,-0.378,0.0,0.0,0.0,0.0,0.0,0.0,-0.11908194495843744,0.0,0.0,0.0,0.0,0.0,0.0,-43.892,0.0,0.0,0.0,0.0,0.0
336,0.0,0.0422587890625,0.0,0.0,0.0,0.0,0.0,0.0,-0.402,0.0,0.0,0.0,0.0,0.0,0.0,-0.12498940890765231,0.0,0.0,0.0,0.0,0.0,0.0,-44.268,0.0,0.0,0.0,0.0,0.0
337,0.0,0.038033203125,0.0,0.0,0.0,0.0,0.0,0.0,-0.425,0.0,0.0,0.0,0.0,0.0,0.0,-0.13090294074616268,0.0,0.0,0.0,0.0,0.0,0.0,-44.324,0.0,0.0,0.0,0.0,0.0
338,0.0,0.0341220703125,0.0,0.0,0.0,0.0,0.0,0.0,-0.417,0.0,0.0,0.0,0.0,0.0,0.0,-0.13670843673752878,0.0,0.0,0.0,0.0,0.0,0.0,-43.784,0.0,0.0,0.0,0.0,0.0
339,0.0,0.030314453125,0.0,0.0,0.0,0.0,0.0,0.0,-0.392,0.0,0.0,0.0,0.0,0.0,0.0,-0.14257758448754568,0.0,0.0,0.0,0.0,0.0,0.0,-44.16,0.0,0.0,0.0,0.0,0.0
340,0.0,0.0265009765625,0.0,0.0,0.0,0.0,0.0,0.0,-0.384,0.0,0.0,0.0,0.0,0.0,0.0,-0.1484456142661961,0.0,0.0,0.0,0.0,0.0,0.0,-44.864,0.0,0.0,0.0,0.0,0.0
341,0.0,0.02258984375,0.0,0.0,0.0,0.0,0.0,0.0,-0.384,0.0,0.0,0.0,0.0,0.0,0.0,-0.15413141941858355,0.0,0.0,0.0,0.0,0.0,0.0,-44.268,0.0,0.0,0.0,0.0,0.0
342,0.0,0.0184677734375,0.0,0.0,0.0,0.0,0.0,0.0,-0.402,0.0,0.0,0.0,0.0,0.0,0.0,-0.15995176680968815,0.0,0.0,0.0,0.0,0.0,0.0,-44.592,0.0,0.0,0.0,0.0,0.0
343,0.0,0.0141455078125,0.0,0.0,0.0,0.0,0.0,0.0,-0.423,0.0,0.0,0.0,0.0,0.0,0.0,-0.16572887101982972,0.0,0.0,0.0,0.0,0.0,0.0,-44.808,0.0,0.0,0.0,0.0,0.0
344,0.0,0.010125,0.0,0.0,0.0,0.0,0.0,0.0,-0.42,0.0,0.0,0.0,0.0,0.0,0.0,-0.17146814098287017,0.0,0.0,0.0,0.0,0.0,0.0,-44.324,0.0,0.0,0.0,0.0,0.0
345,0.0,0.0063173828125,0.0,0.0,0.0,0.0,0.0,0.0,-0.397,0.0,0.0,0.0,0.0,0.0,0.0,-0.17721374753821292,0.0,0.0,0.0,0.0,0.0,0.0,-44.54,0.0,0.0,0.0,0.0,0.0
346,0.0,0.0026064453125,0.0,0.0,0.0,0.0,0.0,0.0,-0.382,0.0,0.0,0.0,0.0,0.0,0.0,-0.18296340319972845,0.0,0.0,0.0,0.0,0.0,0.0,-44.54,0.0,0.0,0.0,0.0,0.0
347,0.0,-0.0013037109375,0.0,0.0,0.0,0.0,0.0,0.0,-0.38,0.0,0.0,0.0,0.0,0.0,0.0,-0.18863932538645686,0.0,0.0,0.0,0.0,0.0,0.0,-44.052,0.0,0.0,0.0,0.0,0.0
348,0.0,-0.005529296875,0.0,0.0,0.0,0.0,0.0,0.0,-0.405,0.0,0.0,0.0,0.0,0.0,0.0,-0.1943205313696986,0.0,0.0,0.0,0.0,0.0,0.0,-44.324,0.0,0.0,0.0,0.0,0.0
349,0.0,-0.0097490234375,0.0,0.0,0.0,0.0,0.0,0.0,-0.429,0.0,0.0,0.0,0.0,0.0,0.0,-0.20003763608701644,0.0,0.0,0.0,0.0,0.0,0.0,-44.432,0.0,0.0,0.0,0.0,0.0
350,0.0,-0.013865234375,0.0,0.0,0.0,0.0,0.0,0.0,-0.422,0.0,0.0,0.0,0.0,0.0,0.0,-0.20563520520356937,0.0,0.0,0.0,0.0,0.0,0.0,-44.16,0.0,0.0,0.0,0.0,0.0
351,0.0,-0.0176796875,0.0,0.0,0.0,0.0,0.0,0.0,-0.4,0.0,0.0,0.0,0.0,0.0,0.0,-0.21127107820365712,0.0,0.0,0.0,0.0,0.0,0.0,-44.108,0.0,0.0,0.0,0.0,0.0
352,0.0,-0.02128125,0.0,0.0,0.0,0.0,0.0,0.0,-0.375,0.0,0.0,0.0,0.0,0.0,0.0,-0.21695163905194778,0.0,0.0,0.0,0.0,0.0,0.0,-44.324,0.0,0.0,0.0,0.0,0.0
353,0.0,-0.0251982421875,0.0,0.0,0.0,0.0,0.0,0.0,-0.376,0.0,0.0,0.0,0.0,0.0,0.0,-0.22249686317093428,0.0,0.0,0.0,0.0,0.0,0.0,-44.324,0.0,0.0,0.0,0.0,0.0
354,0.0,-0.0294169921875,0.0,0.0,0.0,0.0,0.0,0.0,-0.408,0.0,0.0,0.0,0.0,0.0,0.0,-0.2280350910660649,0.0,0.0,0.0,0.0,0.0,0.0,-44.54,0.0,0.0,0.0,0.0,0.0
355,0.0,-0.03374609375,0.0,0.0,0.0,0.0,0.0,0.0,-0.43,0.0,0.0,0.0,0.0,0.0,0.0,-0.23365400509261425,0.0,0.0,0.0,0.0,0.0,0.0,-44.484,0.0,0.0,0.0,0.0,0.0
356,0.0,-0.037759765625,0.0,0.0,0.0,0.0,0.0,0.0,-0.425,0.0,0.0,0.0,0.0,0.0,0.0,-0.23907280253562943,0.0,0.0,0.0,0.0,0.0,0.0,-43.836,0.0,0.0,0.0,0.0,0.0
357,0.0,-0.0415732421875,0.0,0.0,0.0,0.0,0.0,0.0,-0.394,0.0,0.0,0.0,0.0,0.0,0.0,-0.24453213713181035,0.0,0.0,0.0,0.0,0.0,0.0,-44.216,0.0,0.0,0.0,0.0,0.0
358,0.0,-0.0452783203125,0.0,0.0,0.0,0.0,0.0,0.0,-0.376,0.0,0.0,0.0,0.0,0.0,0.0,-0.2502012302353065,0.0,0.0,0.0,0.0,0.0,0.0,-44.54,0.0,0.0,0.0,0.0,0.0
359,0.0,-0.049091796875,0.0,0.0,0.0,0.0,0.0,0.0,-0.378,0.0,0.0,0.0,0.0,0.0,0.0,-0.2554520577240653,0.0,0.0,0.0,0.0,0.0,0.0,-44.108,0.0,0.0,0.0,0.0,0.0
360,0.0,-0.0533115234375,0.0,0.0,0.0,0.0,0.0,0.0,-0.405,0.0,0.0,0.0,0.0,0.0,0.0,-0.2608601090570602,0.0,0.0,0.0,0.0,0.0,0.0,-44.376,0.0,0.0,0.0,0.0,0.0
361,0.0,-0.0576396484375,0.0,0.0,0.0,0.0,0.0,0.0,-0.433,0.0,0.0,0.0,0.0,0.0,0.0,-0.2663293229357813,0.0,0.0,0.0,0.0,0.0,0.0,-44.268,0.0,0.0,0.0,0.0,0.0
362,0.0,-0.0616533203125,0.0,0.0,0.0,0.0,0.0,0.0,-0.423,0.0,0.0,0.0,0.0,0.0,0.0,-0.2716346434417514,0.0,0.0,0.0,0.0,0.0,0.0,-43.836,0.0,0.0,0.0,0.0,0.0
363,0.0,-0.0654609375,0.0,0.0,0.0,0.0,0.0,0.0,-0.392,0.0,0.0,0.0,0.0,0.0,0.0,-0.276957546238232,0.0,0.0,0.0,0.0,0.0,0.0,-44.324,0.0,0.0,0.0,0.0,0.0
364,0.0,-0.0690693359375,0.0,0.0,0.0,0.0,0.0,0.0,-0.376,0.0,0.0,0.0,0.0,0.0,0.0,-0.2823095696467147,0.0,0.0,0.0,0.0,0.0,0.0,-44.54,0.0,0.0,0.0,0.0,0.0
365,0.0,-0.0729794921875,0.0,0.0,0.0,0.0,0.0,0.0,-0.376,0.0,0.0,0.0,0.0,0.0,0.0,-0.2876007581018878,0.0,0.0,0.0,0.0,0.0,0.0,-44.216,0.0,0.0,0.0,0.0,0.0
366,0.0,-0.077205078125,0.0,0.0,0.0,0.0,0.0,0.0,-0.406,0.0,0.0,0.0,0.0,0.0,0.0,-0.29283584764693893,0.0,0.0,0.0,0.0,0.0,0.0,-44.324,0.0,0.0,0.0,0.0,0.0
367,0.0,-0.08152734375,0.0,0.0,0.0,0.0,0.0,0.0,-0.433,0.0,0.0,0.0,0.0,0.0,0.0,-0.29807572864089127,0.0,0.0,0.0,0.0,0.0,0.0,-44.216,0.0,0.0,0.0,0.0,0.0
368,0.0,-0.0855478515625,0.0,0.0,0.0,0.0,0.0,0.0,-0.42,0.0,0.0,0.0,0.0,0.0,0.0,-0.30325548125537977,0.0,0.0,0.0,0.0,0.0,0.0,-44.052,0.0,0.0,0.0,0.0,0.0
369,0.0,-0.089251953125,0.0,0.0,0.0,0.0,0.0,0.0,-0.395,0.0,0.0,0.0,0.0,0.0,0.0,-0.308384071324789,0.0,0.0,0.0,0.0,0.0,0.0,-44.216,0.0,0.0,0.0,0.0,0.0
370,0.0,-0.092962890625,0.0,0.0,0.0,0.0,0.0,0.0,-0.374,0.0,0.0,0.0,0.0,0.0,0.0,-0.3135741850199596,0.0,0.0,0.0,0.0,0.0,0.0,-44.16,0.0,0.0,0.0,0.0,0.0
371,0.0,-0.0967705078125,0.0,0.0,0.0,0.0,0.0,0.0,-0.376,0.0,0.0,0.0,0.0,0.0,0.0,-0.3187606977560971,0.0,0.0,0.0,0.0,0.0,0.0,-43.728,0.0,0.0,0.0,0.0,0.0
372,0.0,-0.1010927734375,0.0,0.0,0.0,0.0,0.0,0.0,-0.405,0.0,0.0,0.0,0.0,0.0,0.0,-0.3236925217820822,0.0,0.0,0.0,0.0,0.0,0.0,-43.944,0.0,0.0,0.0,0.0,0.0
373,0.0,-0.105208984375,0.0,0.0,0.0,0.0,0.0,0.0,-0.425,0.0,0.0,0.0,0.0,0.0,0.0,-0.3287654264083239,0.0,0.0,0.0,0.0,0.0,0.0,-43.784,0.0,0.0,0.0,0.0,0.0
374,0.0,-0.10933203125,0.0,0.0,0.0,0.0,0.0,0.0,-0.416,0.0,0.0,0.0,0.0,0.0,0.0,-0.3337709682077686,0.0,0.0,0.0,0.0,0.0,0.0,-43.784,0.0,0.0,0.0,0.0,0.0
375,0.0,-0.113037109375,0.0,0.0,0.0,0.0,0.0,0.0,-0.398,0.0,0.0,0.0,0.0,0.0,0.0,-0.3386747264673087,0.0,0.0,0.0,0.0,0.0,0.0,-44.108,0.0,0.0,0.0,0.0,0.0
376,0.0,-0.1167412109375,0.0,0.0,0.0,0.0,0.0,0.0,-0.374,0.0,0.0,0.0,0.0,0.0,0.0,-0.34367989724320874,0.0,0.0,0.0,0.0,0.0,0.0,-44.324,0.0,0.0,0.0,0.0,0.0
377,0.0,-0.120658203125,0.0,0.0,0.0,0.0,0.0,0.0,-0.378,0.0,0.0,0.0,0.0,0.0,0.0,-0.34862865079304006,0.0,0.0,0.0,0.0,0.0,0.0,-44.216,0.0,0.0,0.0,0.0,0.0
378,0.0,-0.124775390625,0.0,0.0,0.0,0.0,0.0,0.0,-0.405,0.0,0.0,0.0,0.0,0.0,0.0,-0.35338719163180293,0.0,0.0,0.0,0.0,0.0,0.0,-44.54,0.0,0.0,0.0,0.0,0.0
379,0.0,-0.129103515625,0.0,0.0,0.0,0.0,0.0,0.0,-0.424,0.0,0.0,0.0,0.0,0.0,0.0,-0.35824621422643466,0.0,0.0,0.0,0.0,0.0,0.0,-44.592,0.0,0.0,0.0,0.0,0.0
380,0.0,-0.1331171875,0.0,0.0,0.0,0.0,0.0,0.0,-0.424,0.0,0.0,0.0,0.0,0.0,0.0,-0.36304371251839024,0.0,0.0,0.0,0.0,0.0,0.0,-44.0,0.0,0.0,0.0,0.0,0.0
381,0.0,-0.136828125,0.0,0.0,0.0,0.0,0.0,0.0,-0.39,0.0,0.0,0.0,0.0,0.0,0.0,-0.3677859955891662,0.0,0.0,0.0,0.0,0.0,0.0,-43.836,0.0,0.0,0.0,0.0,0.0
382,0.0,-0.140533203125,0.0,0.0,0.0,0.0,0.0,0.0,-0.372,0.0,0.0,0.0,0.0,0.0,0.0,-0.3725222588100471,0.0,0.0,0.0,0.0,0.0,0.0,-44.052,0.0,0.0,0.0,0.0,0.0
383,0.0,-0.1444501953125,0.0,0.0,0.0,0.0,0.0,0.0,-0.382,0.0,0.0,0.0,0.0,0.0,0.0,-0.3772787783845671,0.0,0.0,0.0,0.0,0.0,0.0,-43.676,0.0,0.0,0.0,0.0,0.0
384,0.0,-0.1486689453125,0.0,0.0,0.0,0.0,0.0,0.0,-0.402,0.0,0.0,0.0,0.0,0.0,0.0,-0.3818313485972138,0.0,0.0,0.0,0.0,0.0,0.0,-43.944,0.0,0.0,0.0,0.0,0.0
385,0.0,-0.152998046875,0.0,0.0,0.0,0.0,0.0,0.0,-0.435,0.0,0.0,0.0,0.0,0.0,0.0,-0.38643908918891706,0.0,0.0,0.0,0.0,0.0,0.0,-44.052,0.0,0.0,0.0,0.0,0.0
386,0.0,-0.1570107421875,0.0,0.0,0.0,0.0,0.0,0.0,-0.427,0.0,0.0,0.0,0.0,0.0,0.0,-0.39105811758715886,0.0,0.0,0.0,0.0,0.0,0.0,-43.728,0.0,0.0,0.0,0.0,0.0
387,0.0,-0.1608251953125,0.0,0.0,0.0,0.0,0.0,0.0,-0.395,0.0,0.0,0.0,0.0,0.0,0.0,-0.3955723468122258,0.0,0.0,0.0,0.0,0.0,0.0,-44.052,0.0,0.0,0.0,0.0,0.0
388,0.0,-0.1645302734375,0.0,0.0,0.0,0.0,0.0,0.0,-0.376,0.0,0.0,0.0,0.0,0.0,0.0,-0.40004283322339534,0.0,0.0,0.0,0.0,0.0,0.0,-44.108,0.0,0.0,0.0,0.0,0.0
389,0.0,-0.16834375,0.0,0.0,0.0,0.0,0.0,0.0,-0.375,0.0,0.0,0.0,0.0,0.0,0.0,-0.40463183841435985,0.0,0.0,0.0,0.0,0.0,0.0,-43.892,0.0,0.0,0.0,0.0,0.0
390,0.0,-0.172666015625,0.0,0.0,0.0,0.0,0.0,0.0,-0.407,0.0,0.0,0.0,0.0,0.0,0.0,-0.40891316099713265,0.0,0.0,0.0,0.0,0.0,0.0,-43.836,0.0,0.0,0.0,0.0,0.0
391,0.0,-0.1768916015625,0.0,0.0,0.0,0.0,0.0,0.0,-0.434,0.0,0.0,0.0,0.0,0.0,0.0,-0.4132948316304165,0.0,0.0,0.0,0.0,0.0,0.0,-43.62,0.0,0.0,0.0,0.0,0.0
392,0.0,-0.1809052734375,0.0,0.0,0.0,0.0,0.0,0.0,-0.423,0.0,0.0,0.0,0.0,0.0,0.0,-0.41762961526115083,0.0,0.0,0.0,0.0,0.0,0.0,-43.352,0.0,0.0,0.0,0.0,0.0
393,0.0,-0.18471875,0.0,0.0,0.0,0.0,0.0,0.0,-0.398,0.0,0.0,0.0,0.0,0.0,0.0,-0.4218880405099898,0.0,0.0,0.0,0.0,0.0,0.0,-43.352,0.0,0.0,0.0,0.0,0.0
394,0.0,-0.188423828125,0.0,0.0,0.0,0.0,0.0,0.0,-0.377,0.0,0.0,0.0,0.0,0.0,0.0,-0.4261483459488208,0.0,0.0,0.0,0.0,0.0,0.0,-43.352,0.0,0.0,0.0,0.0,0.0
395,0.0,-0.192333984375,0.0,0.0,0.0,0.0,0.0,0.0,-0.374,0.0,0.0,0.0,0.0,0.0,0.0,-0.4303607457520201,0.0,0.0,0.0,0.0,0.0,0.0,-43.192,0.0,0.0,0.0,0.0,0.0
396,0.0,-0.1965537109375,0.0,0.0,0.0,0.0,0.0,0.0,-0.41,0.0,0.0,0.0,0.0,0.0,0.0,-0.43449350103459633,0.0,0.0,0.0,0.0,0.0,0.0,-43.46,0.0,0.0,0.0,0.0,0.0
397,0.0,-0.200779296875,0.0,0.0,0.0,0.0,0.0,0.0,-0.429,0.0,0.0,0.0,0.0,0.0,0.0,-0.4386209423946305,0.0,0.0,0.0,0.0,0.0,0.0,-43.46,0.0,0.0,0.0,0.0,0.0
398,0.0,-0.20479296875,0.0,0.0,0.0,0.0,0.0,0.0,-0.42,0.0,0.0,0.0,0.0,0.0,0.0,-0.4426938488747441,0.0,0.0,0.0,0.0,0.0,0.0,-43.192,0.0,0.0,0.0,0.0,0.0
399,0.0,-0.2086005859375,0.0,0.0,0.0,0.0,0.0,0.0,-0.396,0.0,0.0,0.0,0.0,0.0,0.0,-0.44672600083872677,0.0,0.0,0.0,0.0,0.0,0.0,-43.568,0.0,0.0,0.0,0.0,0.0
400,0.0,-0.2123115234375,0.0,0.0,0.0,0.0,0.0,0.0,-0.375,0.0,0.0,0.0,0.0,0.0,0.0,-0.45071574326876895,0.0,0.0,0.0,0.0,0.0,0.0,-43.676,0.0,0.0,0.0,0.0,0.0
401,0.0,-0.216119140625,0.0,0.0,0.0,0.0,0.0,0.0,-0.378,0.0,0.0,0.0,0.0,0.0,0.0,-0.45466418231255656,0.0,0.0,0.0,0.0,0.0,0.0,-43.568,0.0,0.0,0.0,0.0,0.0
402,0.0,-0.2204482421875,0.0,0.0,0.0,0.0,0.0,0.0,-0.406,0.0,0.0,0.0,0.0,0.0,0.0,-0.45854606052459934,0.0,0.0,0.0,0.0,0.0,0.0,-43.62,0.0,0.0,0.0,0.0,0.0
403,0.0,-0.2246669921875,0.0,0.0,0.0,0.0,0.0,0.0,-0.432,0.0,0.0,0.0,0.0,0.0,0.0,-0.462396461256421,0.0,0.0,0.0,0.0,0.0,0.0,-43.404,0.0,0.0,0.0,0.0,0.0
404,0.0,-0.2286865234375,0.0,0.0,0.0,0.0,0.0,0.0,-0.421,0.0,0.0,0.0,0.0,0.0,0.0,-0.4662454621292392,0.0,0.0,0.0,0.0,0.0,0.0,-43.136,0.0,0.0,0.0,0.0,0.0
405,0.0,-0.232494140625,0.0,0.0,0.0,0.0,0.0,0.0,-0.394,0.0,0.0,0.0,0.0,0.0,0.0,-0.46996090981220495,0.0,0.0,0.0,0.0,0.0,0.0,-43.244,0.0,0.0,0.0,0.0,0.0
406,0.0,-0.2361025390625,0.0,0.0,0.0,0.0,0.0,0.0,-0.375,0.0,0.0,0.0,0.0,0.0,0.0,-0.4736681525383574,0.0,0.0,0.0,0.0,0.0,0.0,-43.084,0.0,0.0,0.0,0.0,0.0
407,0.0,-0.240013671875,0.0,0.0,0.0,0.0,0.0,0.0,-0.378,0.0,0.0,0.0,0.0,0.0,0.0,-0.47733494466412046,0.0,0.0,0.0,0.0,0.0,0.0,-42.868,0.0,0.0,0.0,0.0,0.0
408,0.0,-0.244341796875,0.0,0.0,0.0,0.0,0.0,0.0,-0.409,0.0,0.0,0.0,0.0,0.0,0.0,-0.4809075293655013,0.0,0.0,0.0,0.0,0.0,0.0,-43.084,0.0,0.0,0.0,0.0,0.0
409,0.0,-0.2485615234375,0.0,0.0,0.0,0.0,0.0,0.0,-0.432,0.0,0.0,0.0,0.0,0.0,0.0,-0.48449542332847806,0.0,0.0,0.0,0.0,0.0,0.0,-42.976,0.0,0.0,0.0,0.0,0.0
410,0.0,-0.2525810546875,0.0,0.0,0.0,0.0,0.0,0.0,-0.423,0.0,0.0,0.0,0.0,0.0,0.0,-0.48803794993954874,0.0,0.0,0.0,0.0,0.0,0.0,-42.812,0.0,0.0,0.0,0.0,0.0
411,0.0,-0.256697265625,0.0,0.0,0.0,0.0,0.0,0.0,-0.393,0.0,0.0,0.0,0.0,0.0,0.0,-0.4914641944208934,0.0,0.0,0.0,0.0,0.0,0.0,-43.192,0.0,0.0,0.0,0.0,0.0
412,0.0,-0.2599970703125,0.0,0.0,0.0,0.0,0.0,0.0,-0.374,0.0,0.0,0.0,0.0,0.0,0.0,-0.4948755817303004,0.0,0.0,0.0,0.0,0.0,0.0,-43.084,0.0,0.0,0.0,0.0,0.0
413,0.0,-0.2640107421875,0.0,0.0,0.0,0.0,0.0,0.0,-0.381,0.0,0.0,0.0,0.0,0.0,0.0,-0.49825582358865206,0.0,0.0,0.0,0.0,0.0,0.0,-42.976,0.0,0.0,0.0,0.0,0.0
414,0.0,-0.2682294921875,0.0,0.0,0.0,0.0,0.0,0.0,-0.408,0.0,0.0,0.0,0.0,0.0,0.0,-0.5015795103408955,0.0,0.0,0.0,0.0,0.0,0.0,-43.028,0.0,0.0,0.0,0.0,0.0
415,0.0,-0.27244921875,0.0,0.0,0.0,0.0,0.0,0.0,-0.425,0.0,0.0,0.0,0.0,0.0,0.0,-0.5048451297859274,0.0,0.0,0.0,0.0,0.0,0.0,-42.812,0.0,0.0,0.0,0.0,0.0
416,0.0,-0.27646875,0.0,0.0,0.0,0.0,0.0,0.0,-0.42,0.0,0.0,0.0,0.0,0.0,0.0,-0.5080759248826646,0.0,0.0,0.0,0.0,0.0,0.0,-42.652,0.0,0.0,0.0,0.0,0.0
417,0.0,-0.2802763671875,0.0,0.0,0.0,0.0,0.0,0.0,-0.395,0.0,0.0,0.0,0.0,0.0,0.0,-0.5112511332852562,0.0,0.0,0.0,0.0,0.0,0.0,-42.76,0.0,0.0,0.0,0.0,0.0
418,0.0,-0.283884765625,0.0,0.0,0.0,0.0,0.0,0.0,-0.374,0.0,0.0,0.0,0.0,0.0,0.0,-0.5143405964837097,0.0,0.0,0.0,0.0,0.0,0.0,-42.652,0.0,0.0,0.0,0.0,0.0
419,0.0,-0.287794921875,0.0,0.0,0.0,0.0,0.0,0.0,-0.38,0.0,0.0,0.0,0.0,0.0,0.0,-0.5174086576925708,0.0,0.0,0.0,0.0,0.0,0.0,-42.436,0.0,0.0,0.0,0.0,0.0
420,0.0,-0.2921240234375,0.0,0.0,0.0,0.0,0.0,0.0,-0.407,0.0,0.0,0.0,0.0,0.0,0.0,-0.520425402421789,0.0,0.0,0.0,0.0,0.0,0.0,-42.544,0.0,0.0,0.0,0.0,0.0
421,0.0,-0.2967548828125,0.0,0.0,0.0,0.0,0.0,0.0,-0.432,0.0,0.0,0.0,0.0,0.0,0.0,-0.523378817332152,0.0,0.0,0.0,0.0,0.0,0.0,-42.488,0.0,0.0,0.0,0.0,0.0
422,0.0,-0.3007744140625,0.0,0.0,0.0,0.0,0.0,0.0,-0.418,0.0,0.0,0.0,0.0,0.0,0.0,-0.5262910471353816,0.0,0.0,0.0,0.0,0.0,0.0,-42.328,0.0,0.0,0.0,0.0,0.0
423,0.0,-0.3040673828125,0.0,0.0,0.0,0.0,0.0,0.0,-0.394,0.0,0.0,0.0,0.0,0.0,0.0,-0.5291739456116688,0.0,0.0,0.0,0.0,0.0,0.0,-42.652,0.0,0.0,0.0,0.0,0.0
424,0.0,-0.30818359375,0.0,0.0,0.0,0.0,0.0,0.0,-0.373,0.0,0.0,0.0,0.0,0.0,0.0,-0.5319368452938958,0.0,0.0,0.0,0.0,0.0,0.0,-42.596,0.0,0.0,0.0,0.0,0.0
425,0.0,-0.311689453125,0.0,0.0,0.0,0.0,0.0,0.0,-0.38,0.0,0.0,0.0,0.0,0.0,0.0,-0.5346940432210073,0.0,0.0,0.0,0.0,0.0,0.0,-42.38,0.0,0.0,0.0,0.0,0.0
426,0.0,-0.3164228515625,0.0,0.0,0.0,0.0,0.0,0.0,-0.411,0.0,0.0,0.0,0.0,0.0,0.0,-0.537395351092704,0.0,0.0,0.0,0.0,0.0,0.0,-42.488,0.0,0.0,0.0,0.0,0.0
427,0.0,-0.3206484375,0.0,0.0,0.0,0.0,0.0,0.0,-0.433,0.0,0.0,0.0,0.0,0.0,0.0,-0.5400049640008505,0.0,0.0,0.0,0.0,0.0,0.0,-42.328,0.0,0.0,0.0,0.0,0.0
428,0.0,-0.324662109375,0.0,0.0,0.0,0.0,0.0,0.0,-0.42,0.0,0.0,0.0,0.0,0.0,0.0,-0.5426197747172998,0.0,0.0,0.0,0.0,0.0,0.0,-41.948,0.0,0.0,0.0,0.0,0.0
429,0.0,-0.3283603515625,0.0,0.0,0.0,0.0,0.0,0.0,-0.392,0.0,0.0,0.0,0.0,0.0,0.0,-0.5451900020988891,0.0,0.0,0.0,0.0,0.0,0.0,-42.056,0.0,0.0,0.0,0.0,0.0
430,0.0,-0.3316533203125,0.0,0.0,0.0,0.0,0.0,0.0,-0.374,0.0,0.0,0.0,0.0,0.0,0.0,-0.5476160941669633,0.0,0.0,0.0,0.0,0.0,0.0,-42.056,0.0,0.0,0.0,0.0,0.0
431,0.0,-0.3356728515625,0.0,0.0,0.0,0.0,0.0,0.0,-0.381,0.0,0.0,0.0,0.0,0.0,0.0,-0.5500445968600487,0.0,0.0,0.0,0.0,0.0,0.0,-41.732,0.0,0.0,0.0,0.0,0.0
432,0.0,-0.339892578125,0.0,0.0,0.0,0.0,0.0,0.0,-0.412,0.0,0.0,0.0,0.0,0.0,0.0,-0.5524490574782541,0.0,0.0,0.0,0.0,0.0,0.0,-41.896,0.0,0.0,0.0,0.0,0.0
433,0.0,-0.3446328125,0.0,0.0,0.0,0.0,0.0,0.0,-0.429,0.0,0.0,0.0,0.0,0.0,0.0,-0.5547239098455364,0.0,0.0,0.0,0.0,0.0,0.0,-41.732,0.0,0.0,0.0,0.0,0.0
434,0.0,-0.34854296875,0.0,0.0,0.0,0.0,0.0,0.0,-0.419,0.0,0.0,0.0,0.0,0.0,0.0,-0.5569824331624506,0.0,0.0,0.0,0.0,0.0,0.0,-41.732,0.0,0.0,0.0,0.0,0.0
435,0.0,-0.3519453125,0.0,0.0,0.0,0.0,0.0,0.0,-0.396,0.0,0.0,0.0,0.0,0.0,0.0,-0.5592137871275236,0.0,0.0,0.0,0.0,0.0,0.0,-41.896,0.0,0.0,0.0,0.0,0.0
436,0.0,-0.3560625,0.0,0.0,0.0,0.0,0.0,0.0,-0.376,0.0,0.0,0.0,0.0,0.0,0.0,-0.5613357854919475,0.0,0.0,0.0,0.0,0.0,0.0,-41.84,0.0,0.0,0.0,0.0,0.0
437,0.0,-0.36008203125,0.0,0.0,0.0,0.0,0.0,0.0,-0.384,0.0,0.0,0.0,0.0,0.0,0.0,-0.5634252678184347,0.0,0.0,0.0,0.0,0.0,0.0,-41.68,0.0,0.0,0.0,0.0,0.0
438,0.0,-0.36430078125,0.0,0.0,0.0,0.0,0.0,0.0,-0.415,0.0,0.0,0.0,0.0,0.0,0.0,-0.5654923940618106,0.0,0.0,0.0,0.0,0.0,0.0,-41.68,0.0,0.0,0.0,0.0,0.0
439,0.0,-0.368115234375,0.0,0.0,0.0,0.0,0.0,0.0,-0.429,0.0,0.0,0.0,0.0,0.0,0.0,-0.5674385377220302,0.0,0.0,0.0,0.0,0.0,0.0,-41.516,0.0,0.0,0.0,0.0,0.0
440,0.0,-0.3725400390625,0.0,0.0,0.0,0.0,0.0,0.0,-0.417,0.0,0.0,0.0,0.0,0.0,0.0,-0.5693638082522208,0.0,0.0,0.0,0.0,0.0,0.0,-41.248,0.0,0.0,0.0,0.0,0.0
441,0.0,-0.3762509765625,0.0,0.0,0.0,0.0,0.0,0.0,-0.393,0.0,0.0,0.0,0.0,0.0,0.0,-0.5712552254283672,0.0,0.0,0.0,0.0,0.0,0.0,-41.356,0.0,0.0,0.0,0.0,0.0
442,0.0,-0.38005859375,0.0,0.0,0.0,0.0,0.0,0.0,-0.376,0.0,0.0,0.0,0.0,0.0,0.0,-0.5730282199623448,0.0,0.0,0.0,0.0,0.0,0.0,-41.248,0.0,0.0,0.0,0.0,0.0
443,0.0,-0.3839697265625,0.0,0.0,0.0,0.0,0.0,0.0,-0.384,0.0,0.0,0.0,0.0,0.0,0.0,-0.5747779351075468,0.0,0.0,0.0,0.0,0.0,0.0,-41.032,0.0,0.0,0.0,0.0,0.0
444,0.0,-0.3882919921875,0.0,0.0,0.0,0.0,0.0,0.0,-0.414,0.0,0.0,0.0,0.0,0.0,0.0,-0.576496804786857,0.0,0.0,0.0,0.0,0.0,0.0,-41.032,0.0,0.0,0.0,0.0,0.0
445,0.0,-0.3924140625,0.0,0.0,0.0,0.0,0.0,0.0,-0.427,0.0,0.0,0.0,0.0,0.0,0.0,-0.5781271106787775,0.0,0.0,0.0,0.0,0.0,0.0,-40.868,0.0,0.0,0.0,0.0,0.0
446,0.0,-0.39653125,0.0,0.0,0.0,0.0,0.0,0.0,-0.415,0.0,0.0,0.0,0.0,0.0,0.0,-0.5796865869680863,0.0,0.0,0.0,0.0,0.0,0.0,-40.924,0.0,0.0,0.0,0.0,0.0
447,0.0,-0.4002421875,0.0,0.0,0.0,0.0,0.0,0.0,-0.397,0.0,0.0,0.0,0.0,0.0,0.0,-0.5812266134466847,0.0,0.0,0.0,0.0,0.0,0.0,-41.3,0.0,0.0,0.0,0.0,0.0
448,0.0,-0.4039462890625,0.0,0.0,0.0,0.0,0.0,0.0,-0.374,0.0,0.0,0.0,0.0,0.0,0.0,-0.58266606193939,0.0,0.0,0.0,0.0,0.0,0.0,-41.032,0.0,0.0,0.0,0.0,0.0
449,0.0,-0.407966796875,0.0,0.0,0.0,0.0,0.0,0.0,-0.386,0.0,0.0,0.0,0.0,0.0,0.0,-0.5840658131515098,0.0,0.0,0.0,0.0,0.0,0.0,-40.816,0.0,0.0,0.0,0.0,0.0
450,0.0,-0.412185546875,0.0,0.0,0.0,0.0,0.0,0.0,-0.414,0.0,0.0,0.0,0.0,0.0,0.0,-0.5854315698764025,0.0,0.0,0.0,0.0,0.0,0.0,-40.868,0.0,0.0,0.0,0.0,0.0
451,0.0,-0.4159931640625,0.0,0.0,0.0,0.0,0.0,0.0,-0.428,0.0,0.0,0.0,0.0,0.0,0.0,-0.5866973494805735,0.0,0.0,0.0,0.0,0.0,0.0,-40.652,0.0,0.0,0.0,0.0,0.0
452,0.0,-0.420322265625,0.0,0.0,0.0,0.0,0.0,0.0,-0.415,0.0,0.0,0.0,0.0,0.0,0.0,-0.5879251389046676,0.0,0.0,0.0,0.0,0.0,0.0,-40.384,0.0,0.0,0.0,0.0,0.0
453,0.0,-0.4241298828125,0.0,0.0,0.0,0.0,0.0,0.0,-0.389,0.0,0.0,0.0,0.0,0.0,0.0,-0.5891076102976048,0.0,0.0,0.0,0.0,0.0,0.0,-40.6,0.0,0.0,0.0,0.0,0.0
454,0.0,-0.4278408203125,0.0,0.0,0.0,0.0,0.0,0.0,-0.376,0.0,0.0,0.0,0.0,0.0,0.0,-0.5902046839999701,0.0,0.0,0.0,0.0,0.0,0.0,-40.436,0.0,0.0,0.0,0.0,0.0
455,0.0,-0.43184765625,0.0,0.0,0.0,0.0,0.0,0.0,-0.386,0.0,0.0,0.0,0.0,0.0,0.0,-0.5912484473277385,0.0,0.0,0.0,0.0,0.0,0.0,-40.112,0.0,0.0,0.0,0.0,0.0
456,0.0,-0.43555859375,0.0,0.0,0.0,0.0,0.0,0.0,-0.409,0.0,0.0,0.0,0.0,0.0,0.0,-0.5922515549759266,0.0,0.0,0.0,0.0,0.0,0.0,-40.112,0.0,0.0,0.0,0.0,0.0
457,0.0,-0.44029296875,0.0,0.0,0.0,0.0,0.0,0.0,-0.422,0.0,0.0,0.0,0.0,0.0,0.0,-0.5931830758907995,0.0,0.0,0.0,0.0,0.0,0.0,-40.276,0.0,0.0,0.0,0.0,0.0
458,0.0,-0.4443125,0.0,0.0,0.0,0.0,0.0,0.0,-0.422,0.0,0.0,0.0,0.0,0.0,0.0,-0.5940451710037172,0.0,0.0,0.0,0.0,0.0,0.0,-40.276,0.0,0.0,0.0,0.0,0.0
459,0.0,-0.448017578125,0.0,0.0,0.0,0.0,0.0,0.0,-0.39,0.0,0.0,0.0,0.0,0.0,0.0,-0.5948676106446599,0.0,0.0,0.0,0.0,0.0,0.0,-40.328,0.0,0.0,0.0,0.0,0.0
460,0.0,-0.451728515625,0.0,0.0,0.0,0.0,0.0,0.0,-0.373,0.0,0.0,0.0,0.0,0.0,0.0,-0.5956225452139041,0.0,0.0,0.0,0.0,0.0,0.0,-40.276,0.0,0.0,0.0,0.0,0.0
461,0.0,-0.455638671875,0.0,0.0,0.0,0.0,0.0,0.0,-0.385,0.0,0.0,0.0,0.0,0.0,0.0,-0.5963131452504656,0.0,0.0,0.0,0.0,0.0,0.0,-40.112,0.0,0.0,0.0,0.0,0.0
462,0.0,-0.4599677734375,0.0,0.0,0.0,0.0,0.0,0.0,-0.414,0.0,0.0,0.0,0.0,0.0,0.0,-0.5969466658775789,0.0,0.0,0.0,0.0,0.0,0.0,-40.06,0.0,0.0,0.0,0.0,0.0
463,0.0,-0.4641865234375,0.0,0.0,0.0,0.0,0.0,0.0,-0.432,0.0,0.0,0.0,0.0,0.0,0.0,-0.5975307040735913,0.0,0.0,0.0,0.0,0.0,0.0,-39.68,0.0,0.0,0.0,0.0,0.0
464,0.0,-0.468103515625,0.0,0.0,0.0,0.0,0.0,0.0,-0.412,0.0,0.0,0.0,0.0,0.0,0.0,-0.5980387053986369,0.0,0.0,0.0,0.0,0.0,0.0,-39.52,0.0,0.0,0.0,0.0,0.0
465,0.0,-0.4715,0.0,0.0,0.0,0.0,0.0,0.0,-0.391,0.0,0.0,0.0,0.0,0.0,0.0,-0.5984933202252121,0.0,0.0,0.0,0.0,0.0,0.0,-39.736,0.0,0.0,0.0,0.0,0.0
466,0.0,-0.4756220703125,0.0,0.0,0.0,0.0,0.0,0.0,-0.379,0.0,0.0,0.0,0.0,0.0,0.0,-0.5988891644628221,0.0,0.0,0.0,0.0,0.0,0.0,-39.464,0.0,0.0,0.0,0.0,0.0
467,0.0,-0.4792177734375,0.0,0.0,0.0,0.0,0.0,0.0,-0.385,0.0,0.0,0.0,0.0,0.0,0.0,-0.5992196908341634,0.0,0.0,0.0,0.0,0.0,0.0,-39.14,0.0,0.0,0.0,0.0,0.0
468,0.0,-0.48385546875,0.0,0.0,0.0,0.0,0.0,0.0,-0.412,0.0,0.0,0.0,0.0,0.0,0.0,-0.5994963891269517,0.0,0.0,0.0,0.0,0.0,0.0,-39.196,0.0,0.0,0.0,0.0,0.0
469,0.0,-0.48807421875,0.0,0.0,0.0,0.0,0.0,0.0,-0.429,0.0,0.0,0.0,0.0,0.0,0.0,-0.5997131732383734,0.0,0.0,0.0,0.0,0.0,0.0,-39.248,0.0,0.0,0.0,0.0,0.0
470,0.0,-0.4920947265625,0.0,0.0,0.0,0.0,0.0,0.0,-0.417,0.0,0.0,0.0,0.0,0.0,0.0,-0.5998686865978009,0.0,0.0,0.0,0.0,0.0,0.0,-39.248,0.0,0.0,0.0,0.0,0.0
471,0.0,-0.495798828125,0.0,0.0,0.0,0.0,0.0,0.0,-0.393,0.0,0.0,0.0,0.0,0.0,0.0,-0.5999641026889658,0.0,0.0,0.0,0.0,0.0,0.0,-39.304,0.0,0.0,0.0,0.0,0.0
472,0.0,-0.4996064453125,0.0,0.0,0.0,0.0,0.0,0.0,-0.378,0.0,0.0,0.0,0.0,0.0,0.0,-0.599999738364021,0.0,0.0,0.0,0.0,0.0,0.0,-39.304,0.0,0.0,0.0,0.0,0.0
473,0.0,-0.503626953125,0.0,0.0,0.0,0.0,0.0,0.0,-0.388,0.0,0.0,0.0,0.0,0.0,0.0,-0.599975537269861,0.0,0.0,0.0,0.0,0.0,0.0,-39.032,0.0,0.0,0.0,0.0,0.0
474,0.0,-0.507845703125,0.0,0.0,0.0,0.0,0.0,0.0,-0.416,0.0,0.0,0.0,0.0,0.0,0.0,-0.5998911419192995,0.0,0.0,0.0,0.0,0.0,0.0,-38.872,0.0,0.0,0.0,0.0,0.0
475,0.0,-0.5120712890625,0.0,0.0,0.0,0.0,0.0,0.0,-0.429,0.0,0.0,0.0,0.0,0.0,0.0,-0.5997449758356127,0.0,0.0,0.0,0.0,0.0,0.0,-38.656,0.0,0.0,0.0,0.0,0.0
476,0.0,-0.515982421875,0.0,0.0,0.0,0.0,0.0,0.0,-0.414,0.0,0.0,0.0,0.0,0.0,0.0,-0.5995428192353619,0.0,0.0,0.0,0.0,0.0,0.0,-38.548,0.0,0.0,0.0,0.0,0.0
477,0.0,-0.5197900390625,0.0,0.0,0.0,0.0,0.0,0.0,-0.39,0.0,0.0,0.0,0.0,0.0,0.0,-0.5992769252917164,0.0,0.0,0.0,0.0,0.0,0.0,-38.656,0.0,0.0,0.0,0.0,0.0
478,0.0,-0.52359765625,0.0,0.0,0.0,0.0,0.0,0.0,-0.382,0.0,0.0,0.0,0.0,0.0,0.0,-0.5989506810513189,0.0,0.0,0.0,0.0,0.0,0.0,-38.384,0.0,0.0,0.0,0.0,0.0
479,0.0,-0.5276171875,0.0,0.0,0.0,0.0,0.0,0.0,-0.388,0.0,0.0,0.0,0.0,0.0,0.0,-0.5985698583461305,0.0,0.0,0.0,0.0,0.0,0.0,-37.844,0.0,0.0,0.0,0.0,0.0
480,0.0,-0.5318359375,0.0,0.0,0.0,0.0,0.0,0.0,-0.414,0.0,0.0,0.0,0.0,0.0,0.0,-0.5981259627565406,0.0,0.0,0.0,0.0,0.0,0.0,-37.952,0.0,0.0,0.0,0.0,0.0
481,0.0,-0.5360625,0.0,0.0,0.0,0.0,0.0,0.0,-0.428,0.0,0.0,0.0,0.0,0.0,0.0,-0.5976123962438018,0.0,0.0,0.0,0.0,0.0,0.0,-37.952,0.0,0.0,0.0,0.0,0.0
482,0.0,-0.53997265625,0.0,0.0,0.0,0.0,0.0,0.0,-0.414,0.0,0.0,0.0,0.0,0.0,0.0,-0.597061380225693,0.0,0.0,0.0,0.0,0.0,0.0,-38.008,0.0,0.0,0.0,0.0,0.0
483,0.0,-0.543787109375,0.0,0.0,0.0,0.0,0.0,0.0,-0.39,0.0,0.0,0.0,0.0,0.0,0.0,-0.5964396023661738,0.0,0.0,0.0,0.0,0.0,0.0,-38.168,0.0,0.0,0.0,0.0,0.0
484,0.0,-0.5474912109375,0.0,0.0,0.0,0.0,0.0,0.0,-0.38,0.0,0.0,0.0,0.0,0.0,0.0,-0.595732239618718,0.0,0.0,0.0,0.0,0.0,0.0,-38.168,0.0,0.0,0.0,0.0,0.0
485,0.0,-0.5515107421875,0.0,0.0,0.0,0.0,0.0,0.0,-0.386,0.0,0.0,0.0,0.0,0.0,0.0,-0.5950121376479525,0.0,0.0,0.0,0.0,0.0,0.0,-37.792,0.0,0.0,0.0,0.0,0.0
486,0.0,-0.55573046875,0.0,0.0,0.0,0.0,0.0,0.0,-0.413,0.0,0.0,0.0,0.0,0.0,0.0,-0.5942120197294879,0.0,0.0,0.0,0.0,0.0,0.0,-37.952,0.0,0.0,0.0,0.0,0.0
487,0.0,-0.5599560546875,0.0,0.0,0.0,0.0,0.0,0.0,-0.428,0.0,0.0,0.0,0.0,0.0,0.0,-0.5933324882458527,0.0,0.0,0.0,0.0,0.0,0.0,-37.576,0.0,0.0,0.0,0.0,0.0
488,0.0,-0.5638603515625,0.0,0.0,0.0,0.0,0.0,0.0,-0.413,0.0,0.0,0.0,0.0,0.0,0.0,-0.5924317391906793,0.0,0.0,0.0,0.0,0.0,0.0,-37.576,0.0,0.0,0.0,0.0,0.0
489,0.0,-0.567673828125,0.0,0.0,0.0,0.0,0.0,0.0,-0.39,0.0,0.0,0.0,0.0,0.0,0.0,-0.5914537658740769,0.0,0.0,0.0,0.0,0.0,0.0,-37.52,0.0,0.0,0.0,0.0,0.0
490,0.0,-0.5714814453125,0.0,0.0,0.0,0.0,0.0,0.0,-0.381,0.0,0.0,0.0,0.0,0.0,0.0,-0.5904043547002371,0.0,0.0,0.0,0.0,0.0,0.0,-37.36,0.0,0.0,0.0,0.0,0.0
491,0.0,-0.5754951171875,0.0,0.0,0.0,0.0,0.0,0.0,-0.388,0.0,0.0,0.0,0.0,0.0,0.0,-0.589313395634333,0.0,0.0,0.0,0.0,0.0,0.0,-36.82,0.0,0.0,0.0,0.0,0.0
492,0.0,-0.579720703125,0.0,0.0,0.0,0.0,0.0,0.0,-0.415,0.0,0.0,0.0,0.0,0.0,0.0,-0.5881586123574865,0.0,0.0,0.0,0.0,0.0,0.0,-36.872,0.0,0.0,0.0,0.0,0.0
493,0.0,-0.5839404296875,0.0,0.0,0.0,0.0,0.0,0.0,-0.429,0.0,0.0,0.0,0.0,0.0,0.0,-0.586914777700815,0.0,0.0,0.0,0.0,0.0,0.0,-36.764,0.0,0.0,0.0,0.0,0.0
494,0.0,-0.587857421875,0.0,0.0,0.0,0.0,0.0,0.0,-0.412,0.0,0.0,0.0,0.0,0.0,0.0,-0.5856619198520491,0.0,0.0,0.0,0.0,0.0,0.0,-36.28,0.0,0.0,0.0,0.0,0.0
495,0.0,-0.5910478515625,0.0,0.0,0.0,0.0,0.0,0.0,-0.372,0.0,0.0,0.0,0.0,0.0,0.0,-0.5843293672838776,0.0,0.0,0.0,0.0,0.0,0.0,-31.528,0.0,0.0,0.0,0.0,0.0
496,0.0,-0.5934208984375,0.0,0.0,0.0,0.0,0.0,0.0,-0.285,0.0,0.0,0.0,0.0,0.0,0.0,-0.5829278941863612,0.0,0.0,0.0,0.0,0.0,0.0,-26.56,0.0,0.0,0.0,0.0,0.0
497,0.0,-0.5957880859375,0.0,0.0,0.0,0.0,0.0,0.0,-0.238,0.0,0.0,0.0,0.0,0.0,0.0,-0.5814699899722667,0.0,0.0,0.0,0.0,0.0,0.0,-23.052,0.0,0.0,0.0,0.0,0.0
498,0.0,-0.5976396484375,0.0,0.0,0.0,0.0,0.0,0.0,-0.22,0.0,0.0,0.0,0.0,0.0,0.0,-0.5799877872144807,0.0,0.0,0.0,0.0,0.0,0.0,-19.22,0.0,0.0,0.0,0.0,0.0
499,0.0,-0.598765625,0.0,0.0,0.0,0.0,0.0,0.0,-0.149,0.0,0.0,0.0,0.0,0.0,0.0,-0.5783977103852571,0.0,0.0,0.0,0.0,0.0,0.0,-16.032,0.0,0.0,0.0,0.0,0.0
500,0.0,-0.5993828125,0.0,0.0,0.0,0.0,0.0,0.0,-0.101,0.0,0.0,0.0,0.0,0.0,0.0,-0.5767860523551877,0.0,0.0,0.0,0.0,0.0,0.0,-13.712,0.0,0.0,0.0,0.0,0.0
501,0.0,-0.5988681640625,0.0,0.0,0.0,0.0,0.0,0.0,-0.022,0.0,0.0,0.0,0.0,0.0,0.0,-0.5751160519968667,0.0,0.0,0.0,0.0,0.0,0.0,-12.092,0.0,0.0,0.0,0.0,0.0
502,0.0,-0.5977431640625,0.0,0.0,0.0,0.0,0.0,0.0,0.086,0.0,0.0,0.0,0.0,0.0,0.0,-0.5733569542478543,0.0,0.0,0.0,0.0,0.0,0.0,-14.468,0.0,0.0,0.0,0.0,0.0
503,0.0,-0.596611328125,0.0,0.0,0.0,0.0,0.0,0.0,0.106,0.0,0.0,0.0,0.0,0.0,0.0,-0.5715540369669186,0.0,0.0,0.0,0.0,0.0,0.0,-16.628,0.0,0.0,0.0,0.0,0.0
504,0.0,-0.5947587890625,0.0,0.0,0.0,0.0,0.0,0.0,0.143,0.0,0.0,0.0,0.0,0.0,0.0,-0.5697328878756897,0.0,0.0,0.0,0.0,0.0,0.0,-17.976,0.0,0.0,0.0,0.0,0.0
505,0.0,-0.5925908203125,0.0,0.0,0.0,0.0,0.0,0.0,0.201,0.0,0.0,0.0,0.0,0.0,0.0,-0.5678183448021651,0.0,0.0,0.0,0.0,0.0,0.0,-18.356,0.0,0.0,0.0,0.0,0.0
506,0.0,-0.5899150390625,0.0,0.0,0.0,0.0,0.0,0.0,0.235,0.0,0.0,0.0,0.0,0.0,0.0,-0.5658396209633662,0.0,0.0,0.0,0.0,0.0,0.0,-20.784,0.0,0.0,0.0,0.0,0.0
507,0.0,-0.586828125,0.0,0.0,0.0,0.0,0.0,0.0,0.285,0.0,0.0,0.0,0.0,0.0,0.0,-0.5638241459631751,0.0,0.0,0.0,0.0,0.0,0.0,-23.376,0.0,0.0,0.0,0.0,0.0
508,0.0,-0.58342578125,0.0,0.0,0.0,0.0,0.0,0.0,0.329,0.0,0.0,0.0,0.0,0.0,0.0,-0.5617348067912732,0.0,0.0,0.0,0.0,0.0,0.0,-24.996,0.0,0.0,0.0,0.0,0.0
509,0.0,-0.5799267578125,0.0,0.0,0.0,0.0,0.0,0.0,0.346,0.0,0.0,0.0,0.0,0.0,0.0,-0.5595948879827531,0.0,0.0,0.0,0.0,0.0,0.0,-26.184,0.0,0.0,0.0,0.0,0.0
510,0.0,-0.5759130859375,0.0,0.0,0.0,0.0,0.0,0.0,0.369,0.0,0.0,0.0,0.0,0.0,0.0,-0.5574110598711335,0.0,0.0,0.0,0.0,0.0,0.0,-26.452,0.0,0.0,0.0,0.0,0.0
511,0.0,-0.5714814453125,0.0,0.0,0.0,0.0,0.0,0.0,0.423,0.0,0.0,0.0,0.0,0.0,0.0,-0.5551575476278262,0.0,0.0,0.0,0.0,0.0,0.0,-28.612,0.0,0.0,0.0,0.0,0.0
512,0.0,-0.5675712890625,0.0,0.0,0.0,0.0,0.0,0.0,0.42,0.0,0.0,0.0,0.0,0.0,0.0,-0.5528489751455278,0.0,0.0,0.0,0.0,0.0,0.0,-32.284,0.0,0.0,0.0,0.0,0.0
513,0.0,-0.5635517578125,0.0,0.0,0.0,0.0,0.0,0.0,0.401,0.0,0.0,0.0,0.0,0.0,0.0,-0.5505003630753914,0.0,0.0,0.0,0.0,0.0,0.0,-37.252,0.0,0.0,0.0,0.0,0.0
514,0.0,-0.5599560546875,0.0,0.0,0.0,0.0,0.0,0.0,0.387,0.0,0.0,0.0,0.0,0.0,0.0,-0.5480782085245041,0.0,0.0,0.0,0.0,0.0,0.0,-40.816,0.0,0.0,0.0,0.0,0.0
515,0.0,-0.5561416015625,0.0,0.0,0.0,0.0,0.0,0.0,0.364,0.0,0.0,0.0,0.0,0.0,0.0,-0.545579089098335,0.0,0.0,0.0,0.0,0.0,0.0,-40.328,0.0,0.0,0.0,0.0,0.0
516,0.0,-0.5519228515625,0.0,0.0,0.0,0.0,0.0,0.0,0.403,0.0,0.0,0.0,0.0,0.0,0.0,-0.5431026666722177,0.0,0.0,0.0,0.0,0.0,0.0,-40.22,0.0,0.0,0.0,0.0,0.0
517,0.0,-0.5475947265625,0.0,0.0,0.0,0.0,0.0,0.0,0.429,0.0,0.0,0.0,0.0,0.0,0.0,-0.5405167031389826,0.0,0.0,0.0,0.0,0.0,0.0,-39.196,0.0,0.0,0.0,0.0,0.0
518,0.0,-0.54306640625,0.0,0.0,0.0,0.0,0.0,0.0,0.443,0.0,0.0,0.0,0.0,0.0,0.0,-0.5378377224585308,0.0,0.0,0.0,0.0,0.0,0.0,-39.14,0.0,0.0,0.0,0.0,0.0
519,0.0,-0.5397666015625,0.0,0.0,0.0,0.0,0.0,0.0,0.412,0.0,0.0,0.0,0.0,0.0,0.0,-0.5351961116546236,0.0,0.0,0.0,0.0,0.0,0.0,-44.808,0.0,0.0,0.0,0.0,0.0
520,0.0,-0.53698828125,0.0,0.0,0.0,0.0,0.0,0.0,0.299,0.0,0.0,0.0,0.0,0.0,0.0,-0.5324670672140032,0.0,0.0,0.0,0.0,0.0,0.0,-47.348,0.0,0.0,0.0,0.0,0.0
521,0.0,-0.53338671875,0.0,0.0,0.0,0.0,0.0,0.0,0.315,0.0,0.0,0.0,0.0,0.0,0.0,-0.5296282336385498,0.0,0.0,0.0,0.0,0.0,0.0,-46.644,0.0,0.0,0.0,0.0,0.0
522,0.0,-0.5303955078125,0.0,0.0,0.0,0.0,0.0,0.0,0.336,0.0,0.0,0.0,0.0,0.0,0.0,-0.5268032889960941,0.0,0.0,0.0,0.0,0.0,0.0,-45.08,0.0,0.0,0.0,0.0,0.0
523,0.0,-0.526279296875,0.0,0.0,0.0,0.0,0.0,0.0,0.339,0.0,0.0,0.0,0.0,0.0,0.0,-0.5239112318496819,0.0,0.0,0.0,0.0,0.0,0.0,-41.572,0.0,0.0,0.0,0.0,0.0
524,0.0,-0.522259765625,0.0,0.0,0.0,0.0,0.0,0.0,0.425,0.0,0.0,0.0,0.0,0.0,0.0,-0.5209226451700356,0.0,0.0,0.0,0.0,0.0,0.0,-41.516,0.0,0.0,0.0,0.0,0.0
525,0.0,-0.5194873046875,0.0,0.0,0.0,0.0,0.0,0.0,0.349,0.0,0.0,0.0,0.0,0.0,0.0,-0.5179703202010026,0.0,0.0,0.0,0.0,0.0,0.0,-42.38,0.0,0.0,0.0,0.0,0.0
526,0.0,-0.5168115234375,0.0,0.0,0.0,0.0,0.0,0.0,0.271,0.0,0.0,0.0,0.0,0.0,0.0,-0.5149077916903784,0.0,0.0,0.0,0.0,0.0,0.0,-45.996,0.0,0.0,0.0,0.0,0.0
527,0.0,-0.514849609375,0.0,0.0,0.0,0.0,0.0,0.0,0.242,0.0,0.0,0.0,0.0,0.0,0.0,-0.511789162178101,0.0,0.0,0.0,0.0,0.0,0.0,-46.7,0.0,0.0,0.0,0.0,0.0
528,0.0,-0.51227734375,0.0,0.0,0.0,0.0,0.0,0.0,0.215,0.0,0.0,0.0,0.0,0.0,0.0,-0.5086358554406657,0.0,0.0,0.0,0.0,0.0,0.0,-45.296,0.0,0.0,0.0,0.0,0.0
529,0.0,-0.5090869140625,0.0,0.0,0.0,0.0,0.0,0.0,0.288,0.0,0.0,0.0,0.0,0.0,0.0,-0.5054547026932351,0.0,0.0,0.0,0.0,0.0,0.0,-44.108,0.0,0.0,0.0,0.0,0.0
530,0.0,-0.5059931640625,0.0,0.0,0.0,0.0,0.0,0.0,0.318,0.0,0.0,0.0,0.0,0.0,0.0,-0.5021535429001804,0.0,0.0,0.0,0.0,0.0,0.0,-40.384,0.0,0.0,0.0,0.0,0.0
531,0.0,-0.5028037109375,0.0,0.0,0.0,0.0,0.0,0.0,0.321,0.0,0.0,0.0,0.0,0.0,0.0,-0.49887723279073837,0.0,0.0,0.0,0.0,0.0,0.0,-38.116,0.0,0.0,0.0,0.0,0.0
532,0.0,-0.5004365234375,0.0,0.0,0.0,0.0,0.0,0.0,0.289,0.0,0.0,0.0,0.0,0.0,0.0,-0.49553781345115383,0.0,0.0,0.0,0.0,0.0,0.0,-39.196,0.0,0.0,0.0,0.0,0.0
533,0.0,-0.4985771484375,0.0,0.0,0.0,0.0,0.0,0.0,0.209,0.0,0.0,0.0,0.0,0.0,0.0,-0.4921047951191423,0.0,0.0,0.0,0.0,0.0,0.0,-40.708,0.0,0.0,0.0,0.0,0.0
534,0.0,-0.4963134765625,0.0,0.0,0.0,0.0,0.0,0.0,0.201,0.0,0.0,0.0,0.0,0.0,0.0,-0.48862424425504225,0.0,0.0,0.0,0.0,0.0,0.0,-39.952,0.0,0.0,0.0,0.0,0.0
535,0.0,-0.4937412109375,0.0,0.0,0.0,0.0,0.0,0.0,0.238,0.0,0.0,0.0,0.0,0.0,0.0,-0.4851690058835439,0.0,0.0,0.0,0.0,0.0,0.0,-37.952,0.0,0.0,0.0,0.0,0.0
536,0.0,-0.4909560546875,0.0,0.0,0.0,0.0,0.0,0.0,0.269,0.0,0.0,0.0,0.0,0.0,0.0,-0.4815829566660067,0.0,0.0,0.0,0.0,0.0,0.0,-39.952,0.0,0.0,0.0,0.0,0.0
537,0.0,-0.488177734375,0.0,0.0,0.0,0.0,0.0,0.0,0.278,0.0,0.0,0.0,0.0,0.0,0.0,-0.47794131681083596,0.0,0.0,0.0,0.0,0.0,0.0,-38.492,0.0,0.0,0.0,0.0,0.0
538,0.0,-0.4852958984375,0.0,0.0,0.0,0.0,0.0,0.0,0.29,0.0,0.0,0.0,0.0,0.0,0.0,-0.4743588800529024,0.0,0.0,0.0,0.0,0.0,0.0,-34.336,0.0,0.0,0.0,0.0,0.0
539,0.0,-0.4826142578125,0.0,0.0,0.0,0.0,0.0,0.0,0.281,0.0,0.0,0.0,0.0,0.0,0.0,-0.4706500357731879,0.0,0.0,0.0,0.0,0.0,0.0,-33.796,0.0,0.0,0.0,0.0,0.0
540,0.0,-0.4796298828125,0.0,0.0,0.0,0.0,0.0,0.0,0.271,0.0,0.0,0.0,0.0,0.0,0.0,-0.4668878240228564,0.0,0.0,0.0,0.0,0.0,0.0,-33.2,0.0,0.0,0.0,0.0,0.0
541,0.0,-0.4764462890625,0.0,0.0,0.0,0.0,0.0,0.0,0.316,0.0,0.0,0.0,0.0,0.0,0.0,-0.4631235161318245,0.0,0.0,0.0,0.0,0.0,0.0,-33.74,0.0,0.0,0.0,0.0,0.0
542,0.0,-0.4733525390625,0.0,0.0,0.0,0.0,0.0,0.0,0.316,0.0,0.0,0.0,0.0,0.0,0.0,-0.4592861316736412,0.0,0.0,0.0,0.0,0.0,0.0,-35.9,0.0,0.0,0.0,0.0,0.0
543,0.0,-0.469853515625,0.0,0.0,0.0,0.0,0.0,0.0,0.328,0.0,0.0,0.0,0.0,0.0,0.0,-0.4554040386302292,0.0,0.0,0.0,0.0,0.0,0.0,-36.496,0.0,0.0,0.0,0.0,0.0
544,0.0,-0.4663544921875,0.0,0.0,0.0,0.0,0.0,0.0,0.354,0.0,0.0,0.0,0.0,0.0,0.0,-0.451481153464906,0.0,0.0,0.0,0.0,0.0,0.0,-35.092,0.0,0.0,0.0,0.0,0.0
545,0.0,-0.4626435546875,0.0,0.0,0.0,0.0,0.0,0.0,0.354,0.0,0.0,0.0,0.0,0.0,0.0,-0.4474861068002763,0.0,0.0,0.0,0.0,0.0,0.0,-32.932,0.0,0.0,0.0,0.0,0.0
546,0.0,-0.458423828125,0.0,0.0,0.0,0.0,0.0,0.0,0.394,0.0,0.0,0.0,0.0,0.0,0.0,-0.4434543254071565,0.0,0.0,0.0,0.0,0.0,0.0,-33.092,0.0,0.0,0.0,0.0,0.0
547,0.0,-0.4545068359375,0.0,0.0,0.0,0.0,0.0,0.0,0.414,0.0,0.0,0.0,0.0,0.0,0.0,-0.43939633486481167,0.0,0.0,0.0,0.0,0.0,0.0,-33.74,0.0,0.0,0.0,0.0,0.0
548,0.0,-0.4505966796875,0.0,0.0,0.0,0.0,0.0,0.0,0.39,0.0,0.0,0.0,0.0,0.0,0.0,-0.43529118127287125,0.0,0.0,0.0,0.0,0.0,0.0,-35.576,0.0,0.0,0.0,0.0,0.0
549,0.0,-0.4467822265625,0.0,0.0,0.0,0.0,0.0,0.0,0.392,0.0,0.0,0.0,0.0,0.0,0.0,-0.4310528050394039,0.0,0.0,0.0,0.0,0.0,0.0,-37.628,0.0,0.0,0.0,0.0,0.0
550,0.0,-0.4428720703125,0.0,0.0,0.0,0.0,0.0,0.0,0.385,0.0,0.0,0.0,0.0,0.0,0.0,-0.4269479433237872,0.0,0.0,0.0,0.0,0.0,0.0,-37.952,0.0,0.0,0.0,0.0,0.0
551,0.0,-0.43854296875,0.0,0.0,0.0,0.0,0.0,0.0,0.407,0.0,0.0,0.0,0.0,0.0,0.0,-0.4227025114707483,0.0,0.0,0.0,0.0,0.0,0.0,-38.44,0.0,0.0,0.0,0.0,0.0
552,0.0,-0.434220703125,0.0,0.0,0.0,0.0,0.0,0.0,0.435,0.0,0.0,0.0,0.0,0.0,0.0,-0.41840469498654353,0.0,0.0,0.0,0.0,0.0,0.0,-38.656,0.0,0.0,0.0,0.0,0.0
553,0.0,-0.4297958984375,0.0,0.0,0.0,0.0,0.0,0.0,0.441,0.0,0.0,0.0,0.0,0.0,0.0,-0.41409211041785016,0.0,0.0,0.0,0.0,0.0,0.0,-39.14,0.0,0.0,0.0,0.0,0.0
554,0.0,-0.4254736328125,0.0,0.0,0.0,0.0,0.0,0.0,0.44,0.0,0.0,0.0,0.0,0.0,0.0,-0.40975625657275605,0.0,0.0,0.0,0.0,0.0,0.0,-40.436,0.0,0.0,0.0,0.0,0.0
555,0.0,-0.4213515625,0.0,0.0,0.0,0.0,0.0,0.0,0.426,0.0,0.0,0.0,0.0,0.0,0.0,-0.4053091554969294,0.0,0.0,0.0,0.0,0.0,0.0,-41.032,0.0,0.0,0.0,0.0,0.0
556,0.0,-0.4171318359375,0.0,0.0,0.0,0.0,0.0,0.0,0.418,0.0,0.0,0.0,0.0,0.0,0.0,-0.400868830391445,0.0,0.0,0.0,0.0,0.0,0.0,-40.22,0.0,0.0,0.0,0.0,0.0
557,0.0,-0.4127001953125,0.0,0.0,0.0,0.0,0.0,0.0,0.431,0.0,0.0,0.0,0.0,0.0,0.0,-0.3964255370128357,0.0,0.0,0.0,0.0,0.0,0.0,-39.736,0.0,0.0,0.0,0.0,0.0
558,0.0,-0.408275390625,0.0,0.0,0.0,0.0,0.0,0.0,0.444,0.0,0.0,0.0,0.0,0.0,0.0,-0.3918678217922715,0.0,0.0,0.0,0.0,0.0,0.0,-39.736,0.0,0.0,0.0,0.0,0.0
559,0.0,-0.4037412109375,0.0,0.0,0.0,0.0,0.0,0.0,0.454,0.0,0.0,0.0,0.0,0.0,0.0,-0.3873043090452094,0.0,0.0,0.0,0.0,0.0,0.0,-40.652,0.0,0.0,0.0,0.0,0.0
560,0.0,-0.399515625,0.0,0.0,0.0,0.0,0.0,0.0,0.443,0.0,0.0,0.0,0.0,0.0,0.0,-0.3827292711730413,0.0,0.0,0.0,0.0,0.0,0.0,-41.948,0.0,0.0,0.0,0.0,0.0
561,0.0,-0.3953984375,0.0,0.0,0.0,0.0,0.0,0.0,0.419,0.0,0.0,0.0,0.0,0.0,0.0,-0.37805864348269264,0.0,0.0,0.0,0.0,0.0,0.0,-41.948,0.0,0.0,0.0,0.0,0.0
562,0.0,-0.3911728515625,0.0,0.0,0.0,0.0,0.0,0.0,0.417,0.0,0.0,0.0,0.0,0.0,0.0,-0.3734028989234536,0.0,0.0,0.0,0.0,0.0,0.0,-41.464,0.0,0.0,0.0,0.0,0.0
563,0.0,-0.387056640625,0.0,0.0,0.0,0.0,0.0,0.0,0.421,0.0,0.0,0.0,0.0,0.0,0.0,-0.36868398357020765,0.0,0.0,0.0,0.0,0.0,0.0,-41.408,0.0,0.0,0.0,0.0,0.0
564,0.0,-0.382625,0.0,0.0,0.0,0.0,0.0,0.0,0.426,0.0,0.0,0.0,0.0,0.0,0.0,-0.3639019813811001,0.0,0.0,0.0,0.0,0.0,0.0,-41.84,0.0,0.0,0.0,0.0,0.0
565,0.0,-0.378412109375,0.0,0.0,0.0,0.0,0.0,0.0,0.433,0.0,0.0,0.0,0.0,0.0,0.0,-0.3591609416129058,0.0,0.0,0.0,0.0,0.0,0.0,-42.76,0.0,0.0,0.0,0.0,0.0
566,0.0,-0.374392578125,0.0,0.0,0.0,0.0,0.0,0.0,0.419,0.0,0.0,0.0,0.0,0.0,0.0,-0.35434936991892424,0.0,0.0,0.0,0.0,0.0,0.0,-43.296,0.0,0.0,0.0,0.0,0.0
567,0.0,-0.370482421875,0.0,0.0,0.0,0.0,0.0,0.0,0.4,0.0,0.0,0.0,0.0,0.0,0.0,-0.34941033452420134,0.0,0.0,0.0,0.0,0.0,0.0,-42.76,0.0,0.0,0.0,0.0,0.0
568,0.0,-0.36646875,0.0,0.0,0.0,0.0,0.0,0.0,0.396,0.0,0.0,0.0,0.0,0.0,0.0,-0.34456252080446753,0.0,0.0,0.0,0.0,0.0,0.0,-42.22,0.0,0.0,0.0,0.0,0.0
569,0.0,-0.36244921875,0.0,0.0,0.0,0.0,0.0,0.0,0.4,0.0,0.0,0.0,0.0,0.0,0.0,-0.33966994358455477,0.0,0.0,0.0,0.0,0.0,0.0,-42.056,0.0,0.0,0.0,0.0,0.0
570,0.0,-0.3582294921875,0.0,0.0,0.0,0.0,0.0,0.0,0.412,0.0,0.0,0.0,0.0,0.0,0.0,-0.33458503731197,0.0,0.0,0.0,0.0,0.0,0.0,-42.112,0.0,0.0,0.0,0.0,0.0
571,0.0,-0.3542099609375,0.0,0.0,0.0,0.0,0.0,0.0,0.416,0.0,0.0,0.0,0.0,0.0,0.0,-0.32968221352201627,0.0,0.0,0.0,0.0,0.0,0.0,-42.544,0.0,0.0,0.0,0.0,0.0
572,0.0,-0.35040234375,0.0,0.0,0.0,0.0,0.0,0.0,0.397,0.0,0.0,0.0,0.0,0.0,0.0,-0.3246446784185497,0.0,0.0,0.0,0.0,0.0,0.0,-42.868,0.0,0.0,0.0,0.0,0.0
573,0.0,-0.346587890625,0.0,0.0,0.0,0.0,0.0,0.0,0.386,0.0,0.0,0.0,0.0,0.0,0.0,-0.319547575963423,0.0,0.0,0.0,0.0,0.0,0.0,-42.22,0.0,0.0,0.0,0.0,0.0
574,0.0,-0.3427802734375,0.0,0.0,0.0,0.0,0.0,0.0,0.379,0.0,0.0,0.0,0.0,0.0,0.0,-0.3144692454843139,0.0,0.0,0.0,0.0,0.0,0.0,-41.788,0.0,0.0,0.0,0.0,0.0
575,0.0,-0.33886328125,0.0,0.0,0.0,0.0,0.0,0.0,0.383,0.0,0.0,0.0,0.0,0.0,0.0,-0.30939827186133223,0.0,0.0,0.0,0.0,0.0,0.0,-41.732,0.0,0.0,0.0,0.0,0.0
576,0.0,-0.334953125,0.0,0.0,0.0,0.0,0.0,0.0,0.394,0.0,0.0,0.0,0.0,0.0,0.0,-0.30417235797442677,0.0,0.0,0.0,0.0,0.0,0.0,-41.948,0.0,0.0,0.0,0.0,0.0
577,0.0,-0.3309326171875,0.0,0.0,0.0,0.0,0.0,0.0,0.401,0.0,0.0,0.0,0.0,0.0,0.0,-0.29906812281235295,0.0,0.0,0.0,0.0,0.0,0.0,-42.272,0.0,0.0,0.0,0.0,0.0
578,0.0,-0.3271318359375,0.0,0.0,0.0,0.0,0.0,0.0,0.392,0.0,0.0,0.0,0.0,0.0,0.0,-0.2938506172355996,0.0,0.0,0.0,0.0,0.0,0.0,-42.488,0.0,0.0,0.0,0.0,0.0
579,0.0,-0.3234267578125,0.0,0.0,0.0,0.0,0.0,0.0,0.377,0.0,0.0,0.0,0.0,0.0,0.0,-0.28858327135789896,0.0,0.0,0.0,0.0,0.0,0.0,-41.84,0.0,0.0,0.0,0.0,0.0
580,0.0,-0.31972265625,0.0,0.0,0.0,0.0,0.0,0.0,0.374,0.0,0.0,0.0,0.0,0.0,0.0,-0.2833058715917798,0.0,0.0,0.0,0.0,0.0,0.0,-41.408,0.0,0.0,0.0,0.0,0.0
581,0.0,-0.3158056640625,0.0,0.0,0.0,0.0,0.0,0.0,0.385,0.0,0.0,0.0,0.0,0.0,0.0,-0.27800911375723625,0.0,0.0,0.0,0.0,0.0,0.0,-41.248,0.0,0.0,0.0,0.0,0.0
582,0.0,-0.3117919921875,0.0,0.0,0.0,0.0,0.0,0.0,0.395,0.0,0.0,0.0,0.0,0.0,0.0,-0.27267022250278056,0.0,0.0,0.0,0.0,0.0,0.0,-41.248,0.0,0.0,0.0,0.0,0.0
583,0.0,-0.307875,0.0,0.0,0.0,0.0,0.0,0.0,0.402,0.0,0.0,0.0,0.0,0.0,0.0,-0.2672755504774425,0.0,0.0,0.0,0.0,0.0,0.0,-41.572,0.0,0.0,0.0,0.0,0.0
584,0.0,-0.30396484375,0.0,0.0,0.0,0.0,0.0,0.0,0.394,0.0,0.0,0.0,0.0,0.0,0.0,-0.2619277919746193,0.0,0.0,0.0,0.0,0.0,0.0,-42.004,0.0,0.0,0.0,0.0,0.0
585,0.0,-0.300150390625,0.0,0.0,0.0,0.0,0.0,0.0,0.384,0.0,0.0,0.0,0.0,0.0,0.0,-0.25648902563350245,0.0,0.0,0.0,0.0,0.0,0.0,-41.572,0.0,0.0,0.0,0.0,0.0
586,0.0,-0.2963427734375,0.0,0.0,0.0,0.0,0.0,0.0,0.384,0.0,0.0,0.0,0.0,0.0,0.0,-0.2510646258013196,0.0,0.0,0.0,0.0,0.0,0.0,-41.408,0.0,0.0,0.0,0.0,0.0
587,0.0,-0.2924326171875,0.0,0.0,0.0,0.0,0.0,0.0,0.389,0.0,0.0,0.0,0.0,0.0,0.0,-0.2456092308039995,0.0,0.0,0.0,0.0,0.0,0.0,-41.572,0.0,0.0,0.0,0.0,0.0
588,0.0,-0.2883095703125,0.0,0.0,0.0,0.0,0.0,0.0,0.401,0.0,0.0,0.0,0.0,0.0,0.0,-0.24010468754069209,0.0,0.0,0.0,0.0,0.0,0.0,-42.056,0.0,0.0,0.0,0.0,0.0
589,0.0,-0.2842958984375,0.0,0.0,0.0,0.0,0.0,0.0,0.407,0.0,0.0,0.0,0.0,0.0,0.0,-0.23455319749050235,0.0,0.0,0.0,0.0,0.0,0.0,-42.272,0.0,0.0,0.0,0.0,0.0
590,0.0,-0.28037890625,0.0,0.0,0.0,0.0,0.0,0.0,0.403,0.0,0.0,0.0,0.0,0.0,0.0,-0.229058425462366,0.0,0.0,0.0,0.0,0.0,0.0,-42.544,0.0,0.0,0.0,0.0,0.0
591,0.0,-0.2763662109375,0.0,0.0,0.0,0.0,0.0,0.0,0.398,0.0,0.0,0.0,0.0,0.0,0.0,-0.22348929785003235,0.0,0.0,0.0,0.0,0.0,0.0,-42.328,0.0,0.0,0.0,0.0,0.0
592,0.0,-0.272345703125,0.0,0.0,0.0,0.0,0.0,0.0,0.4,0.0,0.0,0.0,0.0,0.0,0.0,-0.217901588631587,0.0,0.0,0.0,0.0,0.0,0.0,-42.164,0.0,0.0,0.0,0.0,0.0
593,0.0,-0.268435546875,0.0,0.0,0.0,0.0,0.0,0.0,0.399,0.0,0.0,0.0,0.0,0.0,0.0,-0.21237056112444533,0.0,0.0,0.0,0.0,0.0,0.0,-42.164,0.0,0.0,0.0,0.0,0.0
594,0.0,-0.2643193359375,0.0,0.0,0.0,0.0,0.0,0.0,0.404,0.0,0.0,0.0,0.0,0.0,0.0,-0.20670279827410415,0.0,0.0,0.0,0.0,0.0,0.0,-42.328,0.0,0.0,0.0,0.0,0.0
595,0.0,-0.2603056640625,0.0,0.0,0.0,0.0,0.0,0.0,0.408,0.0,0.0,0.0,0.0,0.0,0.0,-0.20099718077351744,0.0,0.0,0.0,0.0,0.0,0.0,-42.38,0.0,0.0,0.0,0.0,0.0
596,0.0,-0.2562861328125,0.0,0.0,0.0,0.0,0.0,0.0,0.41,0.0,0.0,0.0,0.0,0.0,0.0,-0.19539856393940216,0.0,0.0,0.0,0.0,0.0,0.0,-42.76,0.0,0.0,0.0,0.0,0.0
597,0.0,-0.2522724609375,0.0,0.0,0.0,0.0,0.0,0.0,0.406,0.0,0.0,0.0,0.0,0.0,0.0,-0.1897182883268171,0.0,0.0,0.0,0.0,0.0,0.0,-42.596,0.0,0.0,0.0,0.0,0.0
598,0.0,-0.248251953125,0.0,0.0,0.0,0.0,0.0,0.0,0.404,0.0,0.0,0.0,0.0,0.0,0.0,-0.18396186957320934,0.0,0.0,0.0,0.0,0.0,0.0,-42.76,0.0,0.0,0.0,0.0,0.0
599,0.0,-0.2442392578125,0.0,0.0,0.0,0.0,0.0,0.0,0.401,0.0,0.0,0.0,0.0,0.0,0.0,-0.17832370161915592,0.0,0.0,0.0,0.0,0.0,0.0,-43.028,0.0,0.0,0.0,0.0,0.0
600,0.0,-0.24021875,0.0,0.0,0.0,0.0,0.0,0.0,0.402,0.0,0.0,0.0,0.0,0.0,0.0,-0.17259970699371607,0.0,0.0,0.0,0.0,0.0,0.0,-43.244,0.0,0.0,0.0,0.0,0.0
601,0.0,-0.2361025390625,0.0,0.0,0.0,0.0,0.0,0.0,0.408,0.0,0.0,0.0,0.0,0.0,0.0,-0.16679986061706914,0.0,0.0,0.0,0.0,0.0,0.0,-43.296,0.0,0.0,0.0,0.0,0.0
602,0.0,-0.2320830078125,0.0,0.0,0.0,0.0,0.0,0.0,0.412,0.0,0.0,0.0,0.0,0.0,0.0,-0.16106796011099037,0.0,0.0,0.0,0.0,0.0,0.0,-43.676,0.0,0.0,0.0,0.0,0.0
603,0.0,-0.2280693359375,0.0,0.0,0.0,0.0,0.0,0.0,0.403,0.0,0.0,0.0,0.0,0.0,0.0,-0.1552791358136738,0.0,0.0,0.0,0.0,0.0,0.0,-43.568,0.0,0.0,0.0,0.0,0.0
604,0.0,-0.2240498046875,0.0,0.0,0.0,0.0,0.0,0.0,0.401,0.0,0.0,0.0,0.0,0.0,0.0,-0.14945205700785358,0.0,0.0,0.0,0.0,0.0,0.0,-43.46,0.0,0.0,0.0,0.0,0.0
605,0.0,-0.220138671875,0.0,0.0,0.0,0.0,0.0,0.0,0.397,0.0,0.0,0.0,0.0,0.0,0.0,-0.14362504962892922,0.0,0.0,0.0,0.0,0.0,0.0,-43.192,0.0,0.0,0.0,0.0,0.0
606,0.0,-0.216119140625,0.0,0.0,0.0,0.0,0.0,0.0,0.405,0.0,0.0,0.0,0.0,0.0,0.0,-0.13783389759054981,0.0,0.0,0.0,0.0,0.0,0.0,-43.028,0.0,0.0,0.0,0.0,0.0
607,0.0,-0.2120029296875,0.0,0.0,0.0,0.0,0.0,0.0,0.407,0.0,0.0,0.0,0.0,0.0,0.0,-0.13188863203728154,0.0,0.0,0.0,0.0,0.0,0.0,-43.084,0.0,0.0,0.0,0.0,0.0
608,0.0,-0.2079833984375,0.0,0.0,0.0,0.0,0.0,0.0,0.405,0.0,0.0,0.0,0.0,0.0,0.0,-0.12609574270384957,0.0,0.0,0.0,0.0,0.0,0.0,-43.512,0.0,0.0,0.0,0.0,0.0
609,0.0,-0.204072265625,0.0,0.0,0.0,0.0,0.0,0.0,0.403,0.0,0.0,0.0,0.0,0.0,0.0,-0.1202141486851957,0.0,0.0,0.0,0.0,0.0,0.0,-43.296,0.0,0.0,0.0,0.0,0.0
610,0.0,-0.2001552734375,0.0,0.0,0.0,0.0,0.0,0.0,0.395,0.0,0.0,0.0,0.0,0.0,0.0,-0.1142810337027867,0.0,0.0,0.0,0.0,0.0,0.0,-43.352,0.0,0.0,0.0,0.0,0.0
611,0.0,-0.1962451171875,0.0,0.0,0.0,0.0,0.0,0.0,0.391,0.0,0.0,0.0,0.0,0.0,0.0,-0.10844773273520981,0.0,0.0,0.0,0.0,0.0,0.0,-43.352,0.0,0.0,0.0,0.0,0.0
612,0.0,-0.1922314453125,0.0,0.0,0.0,0.0,0.0,0.0,0.396,0.0,0.0,0.0,0.0,0.0,0.0,-0.1025306647691967,0.0,0.0,0.0,0.0,0.0,0.0,-43.46,0.0,0.0,0.0,0.0,0.0
613,0.0,-0.1882177734375,0.0,0.0,0.0,0.0,0.0,0.0,0.405,0.0,0.0,0.0,0.0,0.0,0.0,-0.09660020107411967,0.0,0.0,0.0,0.0,0.0,0.0,-43.46,0.0,0.0,0.0,0.0,0.0
614,0.0,-0.184205078125,0.0,0.0,0.0,0.0,0.0,0.0,0.403,0.0,0.0,0.0,0.0,0.0,0.0,-0.09062991255588025,0.0,0.0,0.0,0.0,0.0,0.0,-44.052,0.0,0.0,0.0,0.0,0.0
615,0.0,-0.1802880859375,0.0,0.0,0.0,0.0,0.0,0.0,0.401,0.0,0.0,0.0,0.0,0.0,0.0,-0.08478283955003675,0.0,0.0,0.0,0.0,0.0,0.0,-43.784,0.0,0.0,0.0,0.0,0.0
616,0.0,-0.176376953125,0.0,0.0,0.0,0.0,0.0,0.0,0.396,0.0,0.0,0.0,0.0,0.0,0.0,-0.07881394945041312,0.0,0.0,0.0,0.0,0.0,0.0,-43.46,0.0,0.0,0.0,0.0,0.0
617,0.0,-0.1724599609375,0.0,0.0,0.0,0.0,0.0,0.0,0.391,0.0,0.0,0.0,0.0,0.0,0.0,-0.0728513110527291,0.0,0.0,0.0,0.0,0.0,0.0,-43.244,0.0,0.0,0.0,0.0,0.0
618,0.0,-0.168447265625,0.0,0.0,0.0,0.0,0.0,0.0,0.396,0.0,0.0,0.0,0.0,0.0,0.0,-0.06690168996385182,0.0,0.0,0.0,0.0,0.0,0.0,-43.244,0.0,0.0,0.0,0.0,0.0
619,0.0,-0.1644267578125,0.0,0.0,0.0,0.0,0.0,0.0,0.404,0.0,0.0,0.0,0.0,0.0,0.0,-0.060888048411586654,0.0,0.0,0.0,0.0,0.0,0.0,-43.404,0.0,0.0,0.0,0.0,0.0
620,0.0,-0.1604130859375,0.0,0.0,0.0,0.0,0.0,0.0,0.401,0.0,0.0,0.0,0.0,0.0,0.0,-0.0549454285674373,0.0,0.0,0.0,0.0,0.0,0.0,-43.836,0.0,0.0,0.0,0.0,0.0
621,0.0,-0.15649609375,0.0,0.0,0.0,0.0,0.0,0.0,0.398,0.0,0.0,0.0,0.0,0.0,0.0,-0.04899423146055633,0.0,0.0,0.0,0.0,0.0,0.0,-43.568,0.0,0.0,0.0,0.0,0.0
622,0.0,-0.1525859375,0.0,0.0,0.0,0.0,0.0,0.0,0.395,0.0,0.0,0.0,0.0,0.0,0.0,-0.04297725215480096,0.0,0.0,0.0,0.0,0.0,0.0,-43.46,0.0,0.0,0.0,0.0,0.0
623,0.0,-0.1486689453125,0.0,0.0,0.0,0.0,0.0,0.0,0.391,0.0,0.0,0.0,0.0,0.0,0.0,-0.036957067462378396,0.0,0.0,0.0,0.0,0.0,0.0,-43.568,0.0,0.0,0.0,0.0,0.0
624,0.0,-0.1446552734375,0.0,0.0,0.0,0.0,0.0,0.0,0.397,0.0,0.0,0.0,0.0,0.0,0.0,-0.031044576547214795,0.0,0.0,0.0,0.0,0.0,0.0,-43.728,0.0,0.0,0.0,0.0,0.0
625,0.0,-0.1406357421875,0.0,0.0,0.0,0.0,0.0,0.0,0.403,0.0,0.0,0.0,0.0,0.0,0.0,-0.025023010147524883,0.0,0.0,0.0,0.0,0.0,0.0,-43.836,0.0,0.0,0.0,0.0,0.0
626,0.0,-0.1366220703125,0.0,0.0,0.0,0.0,0.0,0.0,0.405,0.0,0.0,0.0,0.0,0.0,0.0,-0.018984476985556328,0.0,0.0,0.0,0.0,0.0,0.0,-44.16,0.0,0.0,0.0,0.0,0.0
627,0.0,-0.132705078125,0.0,0.0,0.0,0.0,0.0,0.0,0.403,0.0,0.0,0.0,0.0,0.0,0.0,-0.013037122790748668,0.0,0.0,0.0,0.0,0.0,0.0,-44.0,0.0,0.0,0.0,0.0,0.0
628,0.0,-0.1286923828125,0.0,0.0,0.0,0.0,0.0,0.0,0.398,0.0,0.0,0.0,0.0,0.0,0.0,-0.007014534413378413,0.0,0.0,0.0,0.0,0.0,0.0,-43.62,0.0,0.0,0.0,0.0,0.0
629,0.0,-0.124775390625,0.0,0.0,0.0,0.0,0.0,0.0,0.396,0.0,0.0,0.0,0.0,0.0,0.0,-0.0010158438566121371,0.0,0.0,0.0,0.0,0.0,0.0,-43.46,0.0,0.0,0.0,0.0,0.0
630,0.0,-0.12076171875,0.0,0.0,0.0,0.0,0.0,0.0,0.397,0.0,0.0,0.0,0.0,0.0,0.0,0.00495820124547411,0.0,0.0,0.0,0.0,0.0,0.0,-43.62,0.0,0.0,0.0,0.0,0.0
631,0.0,-0.1167412109375,0.0,0.0,0.0,0.0,0.0,0.0,0.402,0.0,0.0,0.0,0.0,0.0,0.0,6.008148193258967e-06,0.0,0.0,0.0,0.0,0.0,0.0,-43.676,0.0,0.0,0.0,0.0,0.0
632,0.0,-0.112728515625,0.0,0.0,0.0,0.0,0.0,0.0,0.403,0.0,0.0,0.0,0.0,0.0,0.0,0.006038230057119951,0.0,0.0,0.0,0.0,0.0,0.0,-43.944,0.0,0.0,0.0,0.0,0.0
633,0.0,-0.10871484375,0.0,0.0,0.0,0.0,0.0,0.0,0.403,0.0,0.0,0.0,0.0,0.0,0.0,0.011998616484038375,0.0,0.0,0.0,0.0,0.0,0.0,-43.784,0.0,0.0,0.0,0.0,0.0
634,0.0,-0.1047978515625,0.0,0.0,0.0,0.0,0.0,0.0,0.399,0.0,0.0,0.0,0.0,0.0,0.0,0.017997282963083876,0.0,0.0,0.0,0.0,0.0,0.0,-43.836,0.0,0.0,0.0,0.0,0.0
635,0.0,-0.1008876953125,0.0,0.0,0.0,0.0,0.0,0.0,0.397,0.0,0.0,0.0,0.0,0.0,0.0,0.024043319538725107,0.0,0.0,0.0,0.0,0.0,0.0,-43.836,0.0,0.0,0.0,0.0,0.0
636,0.0,-0.0967705078125,0.0,0.0,0.0,0.0,0.0,0.0,0.401,0.0,0.0,0.0,0.0,0.0,0.0,0.02995575527955505,0.0,0.0,0.0,0.0,0.0,0.0,-44.108,0.0,0.0,0.0,0.0,0.0
637,0.0,-0.0928603515625,0.0,0.0,0.0,0.0,0.0,0.0,0.404,0.0,0.0,0.0,0.0,0.0,0.0,0.03593524581654229,0.0,0.0,0.0,0.0,0.0,0.0,-44.324,0.0,0.0,0.0,0.0,0.0
638,0.0,-0.0888408203125,0.0,0.0,0.0,0.0,0.0,0.0,0.402,0.0,0.0,0.0,0.0,0.0,0.0,0.04199492206341544,0.0,0.0,0.0,0.0,0.0,0.0,-44.7,0.0,0.0,0.0,0.0,0.0
639,0.0,-0.0848271484375,0.0,0.0,0.0,0.0,0.0,0.0,0.402,0.0,0.0,0.0,0.0,0.0,0.0,0.047920109377116896,0.0,0.0,0.0,0.0,0.0,0.0,-44.324,0.0,0.0,0.0,0.0,0.0
640,0.0,-0.0808076171875,0.0,0.0,0.0,0.0,0.0,0.0,0.402,0.0,0.0,0.0,0.0,0.0,0.0,0.05388405148999192,0.0,0.0,0.0,0.0,0.0,0.0,-43.944,0.0,0.0,0.0,0.0,0.0
641,0.0,-0.076896484375,0.0,0.0,0.0,0.0,0.0,0.0,0.399,0.0,0.0,0.0,0.0,0.0,0.0,0.060016423161554054,0.0,0.0,0.0,0.0,0.0,0.0,-43.892,0.0,0.0,0.0,0.0,0.0
642,0.0,-0.072876953125,0.0,0.0,0.0,0.0,0.0,0.0,0.4,0.0,0.0,0.0,0.0,0.0,0.0,0.06584132429841393,0.0,0.0,0.0,0.0,0.0,0.0,-44.0,0.0,0.0,0.0,0.0,0.0
643,0.0,-0.06886328125,0.0,0.0,0.0,0.0,0.0,0.0,0.402,0.0,0.0,0.0,0.0,0.0,0.0,0.07178791583660386,0.0,0.0,0.0,0.0,0.0,0.0,-43.892,0.0,0.0,0.0,0.0,0.0
644,0.0,-0.06484375,0.0,0.0,0.0,0.0,0.0,0.0,0.402,0.0,0.0,0.0,0.0,0.0,0.0,0.0778375746135802,0.0,0.0,0.0,0.0,0.0,0.0,-44.16,0.0,0.0,0.0,0.0,0.0
645,0.0,-0.0609326171875,0.0,0.0,0.0,0.0,0.0,0.0,0.401,0.0,0.0,0.0,0.0,0.0,0.0,0.08370794133022365,0.0,0.0,0.0,0.0,0.0,0.0,-43.944,0.0,0.0,0.0,0.0,0.0
646,0.0,-0.0569130859375,0.0,0.0,0.0,0.0,0.0,0.0,0.398,0.0,0.0,0.0,0.0,0.0,0.0,0.0896319595209688,0.0,0.0,0.0,0.0,0.0,0.0,-43.944,0.0,0.0,0.0,0.0,0.0
647,0.0,-0.0530029296875,0.0,0.0,0.0,0.0,0.0,0.0,0.398,0.0,0.0,0.0,0.0,0.0,0.0,0.09558730298351197,0.0,0.0,0.0,0.0,0.0,0.0,-44.0,0.0,0.0,0.0,0.0,0.0
648,0.0,-0.0489892578125,0.0,0.0,0.0,0.0,0.0,0.0,0.397,0.0,0.0,0.0,0.0,0.0,0.0,0.10152707814035312,0.0,0.0,0.0,0.0,0.0,0.0,-44.16,0.0,0.0,0.0,0.0,0.0
649,0.0,-0.0449697265625,0.0,0.0,0.0,0.0,0.0,0.0,0.402,0.0,0.0,0.0,0.0,0.0,0.0,0.1074106057164042,0.0,0.0,0.0,0.0,0.0,0.0,-44.376,0.0,0.0,0.0,0.0,0.0
650,0.0,-0.04105859375,0.0,0.0,0.0,0.0,0.0,0.0,0.402,0.0,0.0,0.0,0.0,0.0,0.0,0.1135138580287454,0.0,0.0,0.0,0.0,0.0,0.0,-44.7,0.0,0.0,0.0,0.0,0.0
651,0.0,-0.0370390625,0.0,0.0,0.0,0.0,0.0,0.0,0.401,0.0,0.0,0.0,0.0,0.0,0.0,0.12079707816105736,0.0,0.0,0.0,0.0,0.0,0.0,-44.268,0.0,0.0,0.0,0.0,0.0
652,0.0,-0.033025390625,0.0,0.0,0.0,0.0,0.0,0.0,0.401,0.0,0.0,0.0,0.0,0.0,0.0,0.12504182442118145,0.0,0.0,0.0,0.0,0.0,0.0,-43.944,0.0,0.0,0.0,0.0,0.0
653,0.0,-0.0291083984375,0.0,0.0,0.0,0.0,0.0,0.0,0.396,0.0,0.0,0.0,0.0,0.0,0.0,0.13094128067981153,0.0,0.0,0.0,0.0,0.0,0.0,-43.892,0.0,0.0,0.0,0.0,0.0
654,0.0,-0.0250947265625,0.0,0.0,0.0,0.0,0.0,0.0,0.399,0.0,0.0,0.0,0.0,0.0,0.0,0.136778864626887,0.0,0.0,0.0,0.0,0.0,0.0,-44.0,0.0,0.0,0.0,0.0,0.0
655,0.0,-0.021177734375,0.0,0.0,0.0,0.0,0.0,0.0,0.402,0.0,0.0,0.0,0.0,0.0,0.0,0.14258892770276663,0.0,0.0,0.0,0.0,0.0,0.0,-43.944,0.0,0.0,0.0,0.0,0.0
656,0.0,-0.0171650390625,0.0,0.0,0.0,0.0,0.0,0.0,0.401,0.0,0.0,0.0,0.0,0.0,0.0,0.14843419790003856,0.0,0.0,0.0,0.0,0.0,0.0,-44.216,0.0,0.0,0.0,0.0,0.0
657,0.0,-0.01314453125,0.0,0.0,0.0,0.0,0.0,0.0,0.401,0.0,0.0,0.0,0.0,0.0,0.0,0.15423781909737685,0.0,0.0,0.0,0.0,0.0,0.0,-44.108,0.0,0.0,0.0,0.0,0.0
658,0.0,-0.0091318359375,0.0,0.0,0.0,0.0,0.0,0.0,0.4,0.0,0.0,0.0,0.0,0.0,0.0,0.1600196871698019,0.0,0.0,0.0,0.0,0.0,0.0,-44.052,0.0,0.0,0.0,0.0,0.0
659,0.0,-0.00521484375,0.0,0.0,0.0,0.0,0.0,0.0,0.398,0.0,0.0,0.0,0.0,0.0,0.0,0.16580003702833515,0.0,0.0,0.0,0.0,0.0,0.0,-43.944,0.0,0.0,0.0,0.0,0.0
660,0.0,-0.0013037109375,0.0,0.0,0.0,0.0,0.0,0.0,0.397,0.0,0.0,0.0,0.0,0.0,0.0,0.17158227933023015,0.0,0.0,0.0,0.0,0.0,0.0,-44.16,0.0,0.0,0.0,0.0,0.0
661,0.0,0.0027099609375,0.0,0.0,0.0,0.0,0.0,0.0,0.4,0.0,0.0,0.0,0.0,0.0,0.0,0.1772937838681994,0.0,0.0,0.0,0.0,0.0,0.0,-44.432,0.0,0.0,0.0,0.0,0.0
662,0.0,0.0067294921875,0.0,0.0,0.0,0.0,0.0,0.0,0.402,0.0,0.0,0.0,0.0,0.0,0.0,0.18301689393361406,0.0,0.0,0.0,0.0,0.0,0.0,-44.756,0.0,0.0,0.0,0.0,0.0
663,0.0,0.0106396484375,0.0,0.0,0.0,0.0,0.0,0.0,0.401,0.0,0.0,0.0,0.0,0.0,0.0,0.18882299934111263,0.0,0.0,0.0,0.0,0.0,0.0,-44.484,0.0,0.0,0.0,0.0,0.0
664,0.0,0.01466015625,0.0,0.0,0.0,0.0,0.0,0.0,0.401,0.0,0.0,0.0,0.0,0.0,0.0,0.1944382242688283,0.0,0.0,0.0,0.0,0.0,0.0,-44.0,0.0,0.0,0.0,0.0,0.0
665,0.0,0.0186728515625,0.0,0.0,0.0,0.0,0.0,0.0,0.401,0.0,0.0,0.0,0.0,0.0,0.0,0.20008209204157212,0.0,0.0,0.0,0.0,0.0,0.0,-43.944,0.0,0.0,0.0,0.0,0.0
666,0.0,0.02258984375,0.0,0.0,0.0,0.0,0.0,0.0,0.398,0.0,0.0,0.0,0.0,0.0,0.0,0.20578942490233373,0.0,0.0,0.0,0.0,0.0,0.0,-43.944,0.0,0.0,0.0,0.0,0.0
667,0.0,0.026603515625,0.0,0.0,0.0,0.0,0.0,0.0,0.399,0.0,0.0,0.0,0.0,0.0,0.0,0.21138978437441142,0.0,0.0,0.0,0.0,0.0,0.0,-43.836,0.0,0.0,0.0,0.0,0.0
668,0.0,0.030623046875,0.0,0.0,0.0,0.0,0.0,0.0,0.403,0.0,0.0,0.0,0.0,0.0,0.0,0.21700440454398912,0.0,0.0,0.0,0.0,0.0,0.0,-44.052,0.0,0.0,0.0,0.0,0.0
