EmanuelSamir/lab201_ws_projsamir/sawyer_dev/data/sawyer/temptest2.csv
,j1,j2,j3,j4,j5,j6,j7,jd1,jd2,jd3,jd4,jd5,jd6,jd7,e1,e2,e3,e4,e5,e6,e7
0,0.0,0.0,0.0,0.0,0.0,0.0,0.0,0.0,0.0,0.0,0.0,0.0,0.0,0.0,0.0,0.0,0.0,0.0,0.0,0.0,0.0
1,0.0,0.0,0.0,0.0,0.0,-0.0052841796875,0.0,0.0,0.0,0.0,0.0,0.0,-0.8454077959091811,0.0,0.0,0.0,0.0,0.0,0.0,-0.676,0.0
2,0.0,0.0,0.0,0.0,0.0,-0.0052841796875,0.0,0.0,0.0,0.0,0.0,0.0,-0.8775690474341553,0.0,0.0,0.0,0.0,0.0,0.0,-0.668,0.0
3,0.0,0.0,0.0,0.0,0.0,-0.0052841796875,0.0,0.0,0.0,0.0,0.0,0.0,-1.0065012246114629,0.0,0.0,0.0,0.0,0.0,0.0,-0.68,0.0
4,0.0,0.0,0.0,0.0,0.0,-0.00631640625,0.0,0.0,0.0,0.0,0.0,0.0,-0.8114130520080046,0.0,0.0,0.0,0.0,0.0,0.0,-1.052,0.0
5,0.0,0.0,0.0,0.0,0.0,-0.010654296875,0.0,0.0,0.0,0.0,0.0,0.0,-1.0277796627021565,0.0,0.0,0.0,0.0,0.0,0.0,-1.268,0.0
6,0.0,0.0,0.0,0.0,0.0,-0.018685546875,0.0,0.0,0.0,0.0,0.0,0.0,-0.6537504360492298,0.0,0.0,0.0,0.0,0.0,0.0,-1.052,0.0
7,0.0,0.0,0.0,0.0,0.0,-0.030640625,0.0,0.0,0.0,0.0,0.0,0.0,-1.2224923453599665,0.0,0.0,0.0,0.0,0.0,0.0,-1.164,0.0
8,0.0,0.0,0.0,0.0,0.0,-0.044869140625,0.0,0.0,0.0,0.0,0.0,0.0,-1.087632179607314,0.0,0.0,0.0,0.0,0.0,0.0,-0.832,0.0
9,0.0,0.0,0.0,0.0,0.0,-0.05868359375,0.0,0.0,0.0,0.0,0.0,0.0,-0.928915750761186,0.0,0.0,0.0,0.0,0.0,0.0,-0.7,0.0
10,0.0,0.0,0.0,0.0,0.0,-0.07455078125,0.0,0.0,0.0,0.0,0.0,0.0,-0.8881210836733722,0.0,0.0,0.0,0.0,0.0,0.0,-1.124,0.0
11,0.0,0.0,0.0,0.0,0.0,-0.0916708984375,0.0,0.0,0.0,0.0,0.0,0.0,-1.1529483303717782,0.0,0.0,0.0,0.0,0.0,0.0,-0.752,0.0
12,0.0,0.0,0.0,0.0,0.0,-0.1046591796875,0.0,0.0,0.0,0.0,0.0,0.0,-0.797360059268395,0.0,0.0,0.0,0.0,0.0,0.0,-0.852,0.0
13,0.0,0.0,0.0,0.0,0.0,-0.1215859375,0.0,0.0,0.0,0.0,0.0,0.0,-0.6783440765175399,0.0,0.0,0.0,0.0,0.0,0.0,-0.936,0.0
14,0.0,0.0,0.0,0.0,0.0,-0.1376728515625,0.0,0.0,0.0,0.0,0.0,0.0,-0.5397176249312511,0.0,0.0,0.0,0.0,0.0,0.0,0.104,0.0
15,0.0,0.0,0.0,0.0,0.0,-0.148814453125,0.0,0.0,0.0,0.0,0.0,0.0,-0.6821944289826092,0.0,0.0,0.0,0.0,0.0,0.0,-0.676,0.0
16,0.0,0.0,0.0,0.0,0.0,-0.1642822265625,0.0,0.0,0.0,0.0,0.0,0.0,-0.9118311652635929,0.0,0.0,0.0,0.0,0.0,0.0,-0.616,0.0
17,0.0,0.0,0.0,0.0,0.0,-0.1735654296875,0.0,0.0,0.0,0.0,0.0,0.0,-1.029814317569137,0.0,0.0,0.0,0.0,0.0,0.0,-0.076,0.0
18,0.0,0.0,0.0,0.0,0.0,-0.1809892578125,0.0,0.0,0.0,0.0,0.0,0.0,-0.8000105078314654,0.0,0.0,0.0,0.0,0.0,0.0,-1.048,0.0
19,0.0,0.0,0.0,0.0,0.0,-0.1913046875,0.0,0.0,0.0,0.0,0.0,0.0,-0.7419699757844549,0.0,0.0,0.0,0.0,0.0,0.0,-0.224,0.0
20,0.0,0.0,0.0,0.0,0.0,-0.198328125,0.0,0.0,0.0,0.0,0.0,0.0,-0.9404254624338653,0.0,0.0,0.0,0.0,0.0,0.0,0.088,0.0
21,0.0,0.0,0.0,0.0,0.0,-0.205958984375,0.0,0.0,0.0,0.0,0.0,0.0,-1.0423848802647924,0.0,0.0,0.0,0.0,0.0,0.0,-0.708,0.0
22,0.0,0.0,0.0,0.0,0.0,-0.2135888671875,0.0,0.0,0.0,0.0,0.0,0.0,-1.0248745425493353,0.0,0.0,0.0,0.0,0.0,0.0,-0.292,0.0
23,0.0,0.0,0.0,0.0,0.0,-0.2197861328125,0.0,0.0,0.0,0.0,0.0,0.0,-0.573450694591204,0.0,0.0,0.0,0.0,0.0,0.0,-0.436,0.0
24,0.0,0.0,0.0,0.0,0.0,-0.2282431640625,0.0,0.0,0.0,0.0,0.0,0.0,-0.6858325225946234,0.0,0.0,0.0,0.0,0.0,0.0,-0.768,0.0
25,0.0,0.0,0.0,0.0,0.0,-0.2364931640625,0.0,0.0,0.0,0.0,0.0,0.0,-0.6470817152254504,0.0,0.0,0.0,0.0,0.0,0.0,-0.188,0.0
26,0.0,0.0,0.0,0.0,0.0,-0.2457890625,0.0,0.0,0.0,0.0,0.0,0.0,-1.22148502031462,0.0,0.0,0.0,0.0,0.0,0.0,-0.732,0.0
27,0.0,0.0,0.0,0.0,0.0,-0.2561044921875,0.0,0.0,0.0,0.0,0.0,0.0,-0.8880845565847042,0.0,0.0,0.0,0.0,0.0,0.0,-0.852,0.0
28,0.0,0.0,0.0,0.0,0.0,-0.2662138671875,0.0,0.0,0.0,0.0,0.0,0.0,-1.2520172008837567,0.0,0.0,0.0,0.0,0.0,0.0,-0.52,0.0
29,0.0,0.0,0.0,0.0,0.0,-0.2750966796875,0.0,0.0,0.0,0.0,0.0,0.0,-0.7455173543172762,0.0,0.0,0.0,0.0,0.0,0.0,-0.7,0.0
30,0.0,0.0,0.0,0.0,0.0,-0.287271484375,0.0,0.0,0.0,0.0,0.0,0.0,-1.2746631319755397,0.0,0.0,0.0,0.0,0.0,0.0,-0.624,0.0
31,0.0,0.0,0.0,0.0,0.0,-0.30069921875,0.0,0.0,0.0,0.0,0.0,0.0,-1.0190355326269935,0.0,0.0,0.0,0.0,0.0,0.0,-0.448,0.0
32,0.0,0.0,0.0,0.0,0.0,-0.3116474609375,0.0,0.0,0.0,0.0,0.0,0.0,-0.638075811881262,0.0,0.0,0.0,0.0,0.0,0.0,-0.708,0.0
33,0.0,0.0,0.0,0.0,0.0,-0.322376953125,0.0,0.0,0.0,0.0,0.0,0.0,-1.2604785583842926,0.0,0.0,0.0,0.0,0.0,0.0,-0.644,0.0
34,0.0,0.0,0.0,0.0,0.0,-0.336216796875,0.0,0.0,0.0,0.0,0.0,0.0,-0.9590085110937526,0.0,0.0,0.0,0.0,0.0,0.0,-0.616,0.0
35,0.0,0.0,0.0,0.0,0.0,-0.3479921875,0.0,0.0,0.0,0.0,0.0,0.0,-0.6680995590100205,0.0,0.0,0.0,0.0,0.0,0.0,-0.668,0.0
36,0.0,0.0,0.0,0.0,0.0,-0.358720703125,0.0,0.0,0.0,0.0,0.0,0.0,-0.5849164272831223,0.0,0.0,0.0,0.0,0.0,0.0,-0.676,0.0
37,0.0,0.0,0.0,0.0,0.0,-0.37008203125,0.0,0.0,0.0,0.0,0.0,0.0,-0.5614244753260019,0.0,0.0,0.0,0.0,0.0,0.0,-0.504,0.0
38,0.0,0.0,0.0,0.0,0.0,-0.381650390625,0.0,0.0,0.0,0.0,0.0,0.0,-0.9336010690343263,0.0,0.0,0.0,0.0,0.0,0.0,-0.44,0.0
39,0.0,0.0,0.0,0.0,0.0,-0.3919794921875,0.0,0.0,0.0,0.0,0.0,0.0,-0.8512820300547467,0.0,0.0,0.0,0.0,0.0,0.0,-0.616,0.0
40,0.0,0.0,0.0,0.0,0.0,-0.40230859375,0.0,0.0,0.0,0.0,0.0,0.0,-0.6710233354879226,0.0,0.0,0.0,0.0,0.0,0.0,-0.512,0.0
41,0.0,0.0,0.0,0.0,0.0,-0.412017578125,0.0,0.0,0.0,0.0,0.0,0.0,-0.9498404668943721,0.0,0.0,0.0,0.0,0.0,0.0,-0.452,0.0
42,0.0,0.0,0.0,0.0,0.0,-0.4225654296875,0.0,0.0,0.0,0.0,0.0,0.0,-0.6120972567370229,0.0,0.0,0.0,0.0,0.0,0.0,-0.604,0.0
43,0.0,0.0,0.0,0.0,0.0,-0.4326875,0.0,0.0,0.0,0.0,0.0,0.0,-0.7044205686466727,0.0,0.0,0.0,0.0,0.0,0.0,-0.584,0.0
44,0.0,0.0,0.0,0.0,0.0,-0.4413642578125,0.0,0.0,0.0,0.0,0.0,0.0,-0.9400847276251836,0.0,0.0,0.0,0.0,0.0,0.0,-0.628,0.0
45,0.0,0.0,0.0,0.0,0.0,-0.45066015625,0.0,0.0,0.0,0.0,0.0,0.0,-1.2303788105489621,0.0,0.0,0.0,0.0,0.0,0.0,-0.504,0.0
46,0.0,0.0,0.0,0.0,0.0,-0.46098828125,0.0,0.0,0.0,0.0,0.0,0.0,-1.0174086465574603,0.0,0.0,0.0,0.0,0.0,0.0,-0.364,0.0
47,0.0,0.0,0.0,0.0,0.0,-0.4711240234375,0.0,0.0,0.0,0.0,0.0,0.0,-0.6319104991169759,0.0,0.0,0.0,0.0,0.0,0.0,-0.452,0.0
48,0.0,0.0,0.0,0.0,0.0,-0.4810390625,0.0,0.0,0.0,0.0,0.0,0.0,-1.0177587531780077,0.0,0.0,0.0,0.0,0.0,0.0,-0.48,0.0
49,0.0,0.0,0.0,0.0,0.0,-0.4903349609375,0.0,0.0,0.0,0.0,0.0,0.0,-1.0353877070112154,0.0,0.0,0.0,0.0,0.0,0.0,-0.376,0.0
50,0.0,0.0,0.0,0.0,0.0,-0.500263671875,0.0,0.0,0.0,0.0,0.0,0.0,-1.0514977076795868,0.0,0.0,0.0,0.0,0.0,0.0,-0.596,0.0
51,0.0,0.0,0.0,0.0,0.0,-0.5112119140625,0.0,0.0,0.0,0.0,0.0,0.0,-1.2116912684966228,0.0,0.0,0.0,0.0,0.0,0.0,-0.608,0.0
52,0.0,0.0,0.0,0.0,0.0,-0.5215537109375,0.0,0.0,0.0,0.0,0.0,0.0,-0.6151526927882809,0.0,0.0,0.0,0.0,0.0,0.0,-0.608,0.0
53,0.0,0.0,0.0,0.0,0.0,-0.5314697265625,0.0,0.0,0.0,0.0,0.0,0.0,1.2997484080180342,0.0,0.0,0.0,0.0,0.0,0.0,-0.592,0.0
54,0.0,0.0,0.0,0.0,0.0,-0.54182421875,0.0,0.0,0.0,0.0,0.0,0.0,0.8322063814486721,0.0,0.0,0.0,0.0,0.0,0.0,-0.428,0.0
55,0.0,0.0,0.0,0.0,0.0,-0.552978515625,0.0,0.0,0.0,0.0,0.0,0.0,0.5664897659933624,0.0,0.0,0.0,0.0,0.0,0.0,-0.296,0.0
56,0.0,0.0,0.0,0.0,0.0,-0.560634765625,0.0,0.0,0.0,0.0,0.0,0.0,1.1169132024499606,0.0,0.0,0.0,0.0,0.0,0.0,0.408,0.0
57,0.0,0.0,0.0,0.0,0.0,-0.5614609375,0.0,0.0,0.0,0.0,0.0,0.0,0.5160065157376015,0.0,0.0,0.0,0.0,0.0,0.0,0.504,0.0
58,0.0,0.0,0.0,0.0,0.0,-0.5587763671875,0.0,0.0,0.0,0.0,0.0,0.0,0.5381484729543439,0.0,0.0,0.0,0.0,0.0,0.0,0.116,0.0
59,0.0,0.0,0.0,0.0,0.0,-0.5538056640625,0.0,0.0,0.0,0.0,0.0,0.0,1.2484709232718822,0.0,0.0,0.0,0.0,0.0,0.0,0.344,0.0
60,0.0,0.0,0.0,0.0,0.0,-0.5449228515625,0.0,0.0,0.0,0.0,0.0,0.0,0.5848005542028333,0.0,0.0,0.0,0.0,0.0,0.0,0.24,0.0
61,0.0,0.0,0.0,0.0,0.0,-0.5339482421875,0.0,0.0,0.0,0.0,0.0,0.0,1.2763698817972449,0.0,0.0,0.0,0.0,0.0,0.0,-0.136,0.0
62,0.0,0.0,0.0,0.0,0.0,-0.5223798828125,0.0,0.0,0.0,0.0,0.0,0.0,1.2843212672450957,0.0,0.0,0.0,0.0,0.0,0.0,-0.292,0.0
63,0.0,0.0,0.0,0.0,0.0,-0.5085263671875,0.0,0.0,0.0,0.0,0.0,0.0,0.9029792532364245,0.0,0.0,0.0,0.0,0.0,0.0,0.46,0.0
64,0.0,0.0,0.0,0.0,0.0,-0.48971484375,0.0,0.0,0.0,0.0,0.0,0.0,1.0667033542363433,0.0,0.0,0.0,0.0,0.0,0.0,0.584,0.0
65,0.0,0.0,0.0,0.0,0.0,-0.470296875,0.0,0.0,0.0,0.0,0.0,0.0,0.6064154007083529,0.0,0.0,0.0,0.0,0.0,0.0,-0.592,0.0
66,0.0,0.0,0.0,0.0,0.0,-0.4508662109375,0.0,0.0,0.0,0.0,0.0,0.0,1.2341371070971263,0.0,0.0,0.0,0.0,0.0,0.0,0.296,0.0
67,0.0,0.0,0.0,0.0,0.0,-0.43103515625,0.0,0.0,0.0,0.0,0.0,0.0,0.7182792771346483,0.0,0.0,0.0,0.0,0.0,0.0,-0.592,0.0
68,0.0,0.0,0.0,0.0,0.0,-0.409951171875,0.0,0.0,0.0,0.0,0.0,0.0,1.29355908317517,0.0,0.0,0.0,0.0,0.0,0.0,-0.408,0.0
69,0.0,0.0,0.0,0.0,0.0,-0.3921865234375,0.0,0.0,0.0,0.0,0.0,0.0,0.5165186546471741,0.0,0.0,0.0,0.0,0.0,0.0,0.024,0.0
70,0.0,0.0,0.0,0.0,0.0,-0.3709091796875,0.0,0.0,0.0,0.0,0.0,0.0,1.2463633507918224,0.0,0.0,0.0,0.0,0.0,0.0,-0.376,0.0
71,0.0,0.0,0.0,0.0,0.0,-0.35273046875,0.0,0.0,0.0,0.0,0.0,0.0,0.6359850206496216,0.0,0.0,0.0,0.0,0.0,0.0,-0.636,0.0
72,0.0,0.0,0.0,0.0,0.0,-0.33725,0.0,0.0,0.0,0.0,0.0,0.0,0.9560807396511075,0.0,0.0,0.0,0.0,0.0,0.0,-1.092,0.0
73,0.0,0.0,0.0,0.0,0.0,-0.324029296875,0.0,0.0,0.0,0.0,0.0,0.0,0.9428953389105603,0.0,0.0,0.0,0.0,0.0,0.0,-0.46,0.0
74,0.0,0.0,0.0,0.0,0.0,-0.308548828125,0.0,0.0,0.0,0.0,0.0,0.0,1.2864040500627203,0.0,0.0,0.0,0.0,0.0,0.0,-1.072,0.0
75,0.0,0.0,0.0,0.0,0.0,-0.3002861328125,0.0,0.0,0.0,0.0,0.0,0.0,1.1844346343713847,0.0,0.0,0.0,0.0,0.0,0.0,-0.936,0.0
76,0.0,0.0,0.0,0.0,0.0,-0.2889375,0.0,0.0,0.0,0.0,0.0,0.0,0.5362007292004711,0.0,0.0,0.0,0.0,0.0,0.0,-0.244,0.0
77,0.0,0.0,0.0,0.0,0.0,-0.27962890625,0.0,0.0,0.0,0.0,0.0,0.0,1.2522424196675024,0.0,0.0,0.0,0.0,0.0,0.0,-1.176,0.0
78,0.0,0.0,0.0,0.0,0.0,-0.273650390625,0.0,0.0,0.0,0.0,0.0,0.0,0.5219977950310211,0.0,0.0,0.0,0.0,0.0,0.0,-0.572,0.0
79,0.0,0.0,0.0,0.0,0.0,-0.267453125,0.0,0.0,0.0,0.0,0.0,0.0,1.106404605425548,0.0,0.0,0.0,0.0,0.0,0.0,-0.604,0.0
80,0.0,0.0,0.0,0.0,0.0,-0.26126953125,0.0,0.0,0.0,0.0,0.0,0.0,1.0625334628174528,0.0,0.0,0.0,0.0,0.0,0.0,-1.364,0.0
81,0.0,0.0,0.0,0.0,0.0,-0.2571376953125,0.0,0.0,0.0,0.0,0.0,0.0,0.7102466381073229,0.0,0.0,0.0,0.0,0.0,0.0,-0.628,0.0
82,0.0,0.0,0.0,0.0,0.0,-0.25052734375,0.0,0.0,0.0,0.0,0.0,0.0,1.020429749784498,0.0,0.0,0.0,0.0,0.0,0.0,-0.74,0.0
83,0.0,0.0,0.0,0.0,0.0,-0.2453759765625,0.0,0.0,0.0,0.0,0.0,0.0,0.6305918236747994,0.0,0.0,0.0,0.0,0.0,0.0,-1.092,0.0
84,0.0,0.0,0.0,0.0,0.0,-0.2408310546875,0.0,0.0,0.0,0.0,0.0,0.0,1.0648947413891838,0.0,0.0,0.0,0.0,0.0,0.0,-0.384,0.0
85,0.0,0.0,0.0,0.0,0.0,-0.2325810546875,0.0,0.0,0.0,0.0,0.0,0.0,0.9276096514342551,0.0,0.0,0.0,0.0,0.0,0.0,-0.576,0.0
86,0.0,0.0,0.0,0.0,0.0,-0.22658984375,0.0,0.0,0.0,0.0,0.0,0.0,1.2709125434428095,0.0,0.0,0.0,0.0,0.0,0.0,-0.748,0.0
87,0.0,0.0,0.0,0.0,0.0,-0.22019921875,0.0,0.0,0.0,0.0,0.0,0.0,0.5788496289600535,0.0,0.0,0.0,0.0,0.0,0.0,-0.244,0.0
88,0.0,0.0,0.0,0.0,0.0,-0.2109033203125,0.0,0.0,0.0,0.0,0.0,0.0,1.1658609945918879,0.0,0.0,0.0,0.0,0.0,0.0,-0.604,0.0
89,0.0,0.0,0.0,0.0,0.0,-0.202240234375,0.0,0.0,0.0,0.0,0.0,0.0,0.5011655609899408,0.0,0.0,0.0,0.0,0.0,0.0,-0.376,0.0
90,0.0,0.0,0.0,0.0,0.0,-0.192130859375,0.0,0.0,0.0,0.0,0.0,0.0,0.7612672499227267,0.0,0.0,0.0,0.0,0.0,0.0,-0.068,0.0
91,0.0,0.0,0.0,0.0,0.0,-0.1809892578125,0.0,0.0,0.0,0.0,0.0,0.0,0.6039710426913827,0.0,0.0,0.0,0.0,0.0,0.0,-0.656,0.0
92,0.0,0.0,0.0,0.0,0.0,-0.1723251953125,0.0,0.0,0.0,0.0,0.0,0.0,0.5267774560905737,0.0,0.0,0.0,0.0,0.0,0.0,-0.676,0.0
93,0.0,0.0,0.0,0.0,0.0,-0.15953125,0.0,0.0,0.0,0.0,0.0,0.0,1.1702363341551487,0.0,0.0,0.0,0.0,0.0,0.0,-0.18,0.0
94,0.0,0.0,0.0,0.0,0.0,-0.1477822265625,0.0,0.0,0.0,0.0,0.0,0.0,0.7037048340291492,0.0,0.0,0.0,0.0,0.0,0.0,-0.44,0.0
95,0.0,0.0,0.0,0.0,0.0,-0.13643359375,0.0,0.0,0.0,0.0,0.0,0.0,0.5663401771598128,0.0,0.0,0.0,0.0,0.0,0.0,-0.388,0.0
96,0.0,0.0,0.0,0.0,0.0,-0.122412109375,0.0,0.0,0.0,0.0,0.0,0.0,0.7370713146228479,0.0,0.0,0.0,0.0,0.0,0.0,-0.408,0.0
97,0.0,0.0,0.0,0.0,0.0,-0.11084375,0.0,0.0,0.0,0.0,0.0,0.0,0.9543973394960168,0.0,0.0,0.0,0.0,0.0,0.0,-0.48,0.0
98,0.0,0.0,0.0,0.0,0.0,-0.098681640625,0.0,0.0,0.0,0.0,0.0,0.0,0.5538063480952811,0.0,0.0,0.0,0.0,0.0,0.0,-0.264,0.0
99,0.0,0.0,0.0,0.0,0.0,-0.0863125,0.0,0.0,0.0,0.0,0.0,0.0,0.5331837760020326,0.0,0.0,0.0,0.0,0.0,0.0,-0.556,0.0
100,0.0,0.0,0.0,0.0,0.0,-0.0729111328125,0.0,0.0,0.0,0.0,0.0,0.0,0.560073598402785,0.0,0.0,0.0,0.0,0.0,0.0,-0.5,0.0
101,0.0,0.0,0.0,0.0,0.0,-0.0601298828125,0.0,0.0,0.0,0.0,0.0,0.0,0.9507795193762606,0.0,0.0,0.0,0.0,0.0,0.0,-0.324,0.0
102,0.0,0.0,0.0,0.0,0.0,-0.0481611328125,0.0,0.0,0.0,0.0,0.0,0.0,0.5855228425924638,0.0,0.0,0.0,0.0,0.0,0.0,-0.76,0.0
103,0.0,0.0,0.0,0.0,0.0,-0.0378583984375,0.0,0.0,0.0,0.0,0.0,0.0,1.1200245417813992,0.0,0.0,0.0,0.0,0.0,0.0,-0.544,0.0
104,0.0,0.0,0.0,0.0,0.0,-0.026109375,0.0,0.0,0.0,0.0,0.0,0.0,0.6620315807405521,0.0,0.0,0.0,0.0,0.0,0.0,-0.264,0.0
105,0.0,0.0,0.0,0.0,0.0,-0.0149794921875,0.0,0.0,0.0,0.0,0.0,0.0,1.1592148089985768,0.0,0.0,0.0,0.0,0.0,0.0,-0.572,0.0
106,0.0,0.0,0.0,0.0,0.0,-0.0048837890625,0.0,0.0,0.0,0.0,0.0,0.0,0.6841516797102875,0.0,0.0,0.0,0.0,0.0,0.0,-0.552,0.0
107,0.0,0.0,0.0,0.0,0.0,0.0056376953125,0.0,0.0,0.0,0.0,0.0,0.0,0.7902887307469678,0.0,0.0,0.0,0.0,0.0,0.0,-0.856,0.0
108,0.0,0.0,0.0,0.0,0.0,0.015734375,0.0,0.0,0.0,0.0,0.0,0.0,1.0524969330037153,0.0,0.0,0.0,0.0,0.0,0.0,-0.836,0.0
109,0.0,0.0,0.0,0.0,0.0,0.0254169921875,0.0,0.0,0.0,0.0,0.0,0.0,0.5909937322618998,0.0,0.0,0.0,0.0,0.0,0.0,-0.388,0.0
110,0.0,0.0,0.0,0.0,0.0,0.0353076171875,0.0,0.0,0.0,0.0,0.0,0.0,0.5091098734677652,0.0,0.0,0.0,0.0,0.0,0.0,-0.616,0.0
111,0.0,0.0,0.0,0.0,0.0,0.0441640625,0.0,0.0,0.0,0.0,0.0,0.0,1.042362873038556,0.0,0.0,0.0,0.0,0.0,0.0,-0.624,0.0
112,0.0,0.0,0.0,0.0,0.0,0.053640625,0.0,0.0,0.0,0.0,0.0,0.0,0.5650065064646992,0.0,0.0,0.0,0.0,0.0,0.0,-0.468,0.0
113,0.0,0.0,0.0,0.0,0.0,0.0635302734375,0.0,0.0,0.0,0.0,0.0,0.0,1.1184862368992647,0.0,0.0,0.0,0.0,0.0,0.0,-0.644,0.0
114,0.0,0.0,0.0,0.0,0.0,0.072400390625,0.0,0.0,0.0,0.0,0.0,0.0,0.9623484023119988,0.0,0.0,0.0,0.0,0.0,0.0,-0.428,0.0
115,0.0,0.0,0.0,0.0,0.0,0.082083984375,0.0,0.0,0.0,0.0,0.0,0.0,0.7122336186672148,0.0,0.0,0.0,0.0,0.0,0.0,-0.664,0.0
116,0.0,0.0,0.0,0.0,0.0,0.0907333984375,0.0,0.0,0.0,0.0,0.0,0.0,0.5791575261509567,0.0,0.0,0.0,0.0,0.0,0.0,-0.78,0.0
117,0.0,0.0,0.0,0.0,0.0,0.099177734375,0.0,0.0,0.0,0.0,0.0,0.0,0.6134156093598337,0.0,0.0,0.0,0.0,0.0,0.0,-0.472,0.0
118,0.0,0.0,0.0,0.0,0.0,0.110306640625,0.0,0.0,0.0,0.0,0.0,0.0,0.8476918225347363,0.0,0.0,0.0,0.0,0.0,0.0,-0.504,0.0
119,0.0,0.0,0.0,0.0,0.0,0.1197705078125,0.0,0.0,0.0,0.0,0.0,0.0,0.5300888223611138,0.0,0.0,0.0,0.0,0.0,0.0,-0.5,0.0
120,0.0,0.0,0.0,0.0,0.0,0.1292470703125,0.0,0.0,0.0,0.0,0.0,0.0,0.6479676314250701,0.0,0.0,0.0,0.0,0.0,0.0,-0.52,0.0
121,0.0,0.0,0.0,0.0,0.0,0.13913671875,0.0,0.0,0.0,0.0,0.0,0.0,0.7989988265794505,0.0,0.0,0.0,0.0,0.0,0.0,-0.5,0.0
122,0.0,0.0,0.0,0.0,0.0,0.1490263671875,0.0,0.0,0.0,0.0,0.0,0.0,1.0094389168600189,0.0,0.0,0.0,0.0,0.0,0.0,-0.232,0.0
123,0.0,0.0,0.0,0.0,0.0,0.15931640625,0.0,0.0,0.0,0.0,0.0,0.0,1.2178594718448994,0.0,0.0,0.0,0.0,0.0,0.0,-0.276,0.0
124,0.0,0.0,0.0,0.0,0.0,0.1696201171875,0.0,0.0,0.0,0.0,0.0,0.0,1.0770727861562053,0.0,0.0,0.0,0.0,0.0,0.0,-0.628,0.0
125,0.0,0.0,0.0,0.0,0.0,0.1794970703125,0.0,0.0,0.0,0.0,0.0,0.0,0.6205609711538388,0.0,0.0,0.0,0.0,0.0,0.0,-0.544,0.0
126,0.0,0.0,0.0,0.0,0.0,0.1891796875,0.0,0.0,0.0,0.0,0.0,0.0,0.728622525969499,0.0,0.0,0.0,0.0,0.0,0.0,-0.42,0.0
127,0.0,0.0,0.0,0.0,0.0,0.200916015625,0.0,0.0,0.0,0.0,0.0,0.0,0.6246900499855352,0.0,0.0,0.0,0.0,0.0,0.0,-0.304,0.0
128,0.0,0.0,0.0,0.0,0.0,0.211412109375,0.0,0.0,0.0,0.0,0.0,0.0,0.975206912309801,0.0,0.0,0.0,0.0,0.0,0.0,-0.316,0.0
129,0.0,0.0,0.0,0.0,0.0,0.222115234375,0.0,0.0,0.0,0.0,0.0,0.0,1.163949304313066,0.0,0.0,0.0,0.0,0.0,0.0,-0.472,0.0
130,0.0,0.0,0.0,0.0,0.0,0.232625,0.0,0.0,0.0,0.0,0.0,0.0,0.972386708974204,0.0,0.0,0.0,0.0,0.0,0.0,-0.348,0.0
131,0.0,0.0,0.0,0.0,0.0,0.2437412109375,0.0,0.0,0.0,0.0,0.0,0.0,0.7601317469193061,0.0,0.0,0.0,0.0,0.0,0.0,-0.296,0.0
132,0.0,0.0,0.0,0.0,0.0,0.2546513671875,0.0,0.0,0.0,0.0,0.0,0.0,0.6167913405795465,0.0,0.0,0.0,0.0,0.0,0.0,-0.584,0.0
133,0.0,0.0,0.0,0.0,0.0,0.264734375,0.0,0.0,0.0,0.0,0.0,0.0,0.8297469686268173,0.0,0.0,0.0,0.0,0.0,0.0,-0.572,0.0
134,0.0,0.0,0.0,0.0,0.0,0.2758505859375,0.0,0.0,0.0,0.0,0.0,0.0,0.9860573384718914,0.0,0.0,0.0,0.0,0.0,0.0,-0.472,0.0
135,0.0,0.0,0.0,0.0,0.0,0.286966796875,0.0,0.0,0.0,0.0,0.0,0.0,1.068453900717547,0.0,0.0,0.0,0.0,0.0,0.0,-0.396,0.0
136,0.0,0.0,0.0,0.0,0.0,0.2978642578125,0.0,0.0,0.0,0.0,0.0,0.0,0.9318923541314232,0.0,0.0,0.0,0.0,0.0,0.0,-0.472,0.0
137,0.0,0.0,0.0,0.0,0.0,0.3083603515625,0.0,0.0,0.0,0.0,0.0,0.0,0.7923664668323476,0.0,0.0,0.0,0.0,0.0,0.0,-0.492,0.0
138,0.0,0.0,0.0,0.0,0.0,0.3190634765625,0.0,0.0,0.0,0.0,0.0,0.0,1.0094694391645906,0.0,0.0,0.0,0.0,0.0,0.0,-0.4,0.0
139,0.0,0.0,0.0,0.0,0.0,0.3299736328125,0.0,0.0,0.0,0.0,0.0,0.0,0.6747823311688681,0.0,0.0,0.0,0.0,0.0,0.0,-0.336,0.0
140,0.0,0.0,0.0,0.0,0.0,0.3406767578125,0.0,0.0,0.0,0.0,0.0,0.0,0.7687863140765909,0.0,0.0,0.0,0.0,0.0,0.0,-0.54,0.0
141,0.0,0.0,0.0,0.0,0.0,0.350759765625,0.0,0.0,0.0,0.0,0.0,0.0,1.2904927447515373,0.0,0.0,0.0,0.0,0.0,0.0,-0.628,0.0
142,0.0,0.0,0.0,0.0,0.0,0.361037109375,0.0,0.0,0.0,0.0,0.0,0.0,1.0059243120023944,0.0,0.0,0.0,0.0,0.0,0.0,-0.552,0.0
143,0.0,0.0,0.0,0.0,0.0,0.371740234375,0.0,0.0,0.0,0.0,0.0,0.0,0.8495561746071694,0.0,0.0,0.0,0.0,0.0,0.0,-0.324,0.0
144,0.0,0.0,0.0,0.0,0.0,0.382443359375,0.0,0.0,0.0,0.0,0.0,0.0,1.0670869739561721,0.0,0.0,0.0,0.0,0.0,0.0,-0.376,0.0
145,0.0,0.0,0.0,0.0,0.0,0.3925146484375,0.0,0.0,0.0,0.0,0.0,0.0,0.9076852716795738,0.0,0.0,0.0,0.0,0.0,0.0,-0.46,0.0
146,0.0,0.0,0.0,0.0,0.0,0.402390625,0.0,0.0,0.0,0.0,0.0,0.0,1.2409162748018983,0.0,0.0,0.0,0.0,0.0,0.0,-0.348,0.0
147,0.0,0.0,0.0,0.0,0.0,0.4128876953125,0.0,0.0,0.0,0.0,0.0,0.0,0.6015455101115629,0.0,0.0,0.0,0.0,0.0,0.0,-0.312,0.0
148,0.0,0.0,0.0,0.0,0.0,0.42337109375,0.0,0.0,0.0,0.0,0.0,0.0,1.225850914105393,0.0,0.0,0.0,0.0,0.0,0.0,-0.408,0.0
149,0.0,0.0,0.0,0.0,0.0,0.433248046875,0.0,0.0,0.0,0.0,0.0,0.0,0.6897312182069462,0.0,0.0,0.0,0.0,0.0,0.0,-0.524,0.0
150,0.0,0.0,0.0,0.0,0.0,0.443125,0.0,0.0,0.0,0.0,0.0,0.0,0.5797543676010131,0.0,0.0,0.0,0.0,0.0,0.0,-0.504,0.0
151,0.0,0.0,0.0,0.0,0.0,0.45340234375,0.0,0.0,0.0,0.0,0.0,0.0,0.9104946455785681,0.0,0.0,0.0,0.0,0.0,0.0,-0.296,0.0
152,0.0,0.0,0.0,0.0,0.0,0.4638984375,0.0,0.0,0.0,0.0,0.0,0.0,0.5646955691931306,0.0,0.0,0.0,0.0,0.0,0.0,-0.244,0.0
153,0.0,0.0,0.0,0.0,0.0,0.47417578125,0.0,0.0,0.0,0.0,0.0,0.0,0.5350659819005207,0.0,0.0,0.0,0.0,0.0,0.0,-0.364,0.0
154,0.0,0.0,0.0,0.0,0.0,0.4838466796875,0.0,0.0,0.0,0.0,0.0,0.0,-0.8405618552685237,0.0,0.0,0.0,0.0,0.0,0.0,-0.296,0.0
155,0.0,0.0,0.0,0.0,0.0,0.4939169921875,0.0,0.0,0.0,0.0,0.0,0.0,-1.294760894812192,0.0,0.0,0.0,0.0,0.0,0.0,-0.232,0.0
156,0.0,0.0,0.0,0.0,0.0,0.50420703125,0.0,0.0,0.0,0.0,0.0,0.0,-0.5345052827320255,0.0,0.0,0.0,0.0,0.0,0.0,-0.276,0.0
157,0.0,0.0,0.0,0.0,0.0,0.5116044921875,0.0,0.0,0.0,0.0,0.0,0.0,-0.8427467190426898,0.0,0.0,0.0,0.0,0.0,0.0,-0.956,0.0
158,0.0,0.0,0.0,0.0,0.0,0.515103515625,0.0,0.0,0.0,0.0,0.0,0.0,-0.9899755399499026,0.0,0.0,0.0,0.0,0.0,0.0,-1.04,0.0
159,0.0,0.0,0.0,0.0,0.0,0.5159296875,0.0,0.0,0.0,0.0,0.0,0.0,-0.5327074746895707,0.0,0.0,0.0,0.0,0.0,0.0,-0.72,0.0
160,0.0,0.0,0.0,0.0,0.0,0.5148974609375,0.0,0.0,0.0,0.0,0.0,0.0,-1.081955072423848,0.0,0.0,0.0,0.0,0.0,0.0,-1.144,0.0
161,0.0,0.0,0.0,0.0,0.0,0.510572265625,0.0,0.0,0.0,0.0,0.0,0.0,-0.9439517752113222,0.0,0.0,0.0,0.0,0.0,0.0,-0.96,0.0
162,0.0,0.0,0.0,0.0,0.0,0.5025537109375,0.0,0.0,0.0,0.0,0.0,0.0,-0.9331138801173451,0.0,0.0,0.0,0.0,0.0,0.0,-0.728,0.0
163,0.0,0.0,0.0,0.0,0.0,0.493103515625,0.0,0.0,0.0,0.0,0.0,0.0,-0.5397549727587097,0.0,0.0,0.0,0.0,0.0,0.0,-0.98,0.0
164,0.0,0.0,0.0,0.0,0.0,0.4807607421875,0.0,0.0,0.0,0.0,0.0,0.0,-1.1886031161098392,0.0,0.0,0.0,0.0,0.0,0.0,-0.908,0.0
165,0.0,0.0,0.0,0.0,0.0,0.4667783203125,0.0,0.0,0.0,0.0,0.0,0.0,-1.1727173393062982,0.0,0.0,0.0,0.0,0.0,0.0,-0.804,0.0
166,0.0,0.0,0.0,0.0,0.0,0.4507294921875,0.0,0.0,0.0,0.0,0.0,0.0,-1.247319561494212,0.0,0.0,0.0,0.0,0.0,0.0,-0.804,0.0
167,0.0,0.0,0.0,0.0,0.0,0.4330419921875,0.0,0.0,0.0,0.0,0.0,0.0,-1.1527999782022267,0.0,0.0,0.0,0.0,0.0,0.0,-0.716,0.0
168,0.0,0.0,0.0,0.0,0.0,0.4159736328125,0.0,0.0,0.0,0.0,0.0,0.0,-0.5219198581139286,0.0,0.0,0.0,0.0,0.0,0.0,-0.748,0.0
169,0.0,0.0,0.0,0.0,0.0,0.39642578125,0.0,0.0,0.0,0.0,0.0,0.0,-0.9498373082088039,0.0,0.0,0.0,0.0,0.0,0.0,-0.976,0.0
170,0.0,0.0,0.0,0.0,0.0,0.37853125,0.0,0.0,0.0,0.0,0.0,0.0,-1.2231452747155669,0.0,0.0,0.0,0.0,0.0,0.0,-0.384,0.0
171,0.0,0.0,0.0,0.0,0.0,0.359810546875,0.0,0.0,0.0,0.0,0.0,0.0,-0.9854068273167014,0.0,0.0,0.0,0.0,0.0,0.0,-0.644,0.0
172,0.0,0.0,0.0,0.0,0.0,0.3377978515625,0.0,0.0,0.0,0.0,0.0,0.0,-0.7235383720884208,0.0,0.0,0.0,0.0,0.0,0.0,-0.54,0.0
173,0.0,0.0,0.0,0.0,0.0,0.31968359375,0.0,0.0,0.0,0.0,0.0,0.0,-0.659659746154132,0.0,0.0,0.0,0.0,0.0,0.0,-0.24,0.0
174,0.0,0.0,0.0,0.0,0.0,0.3015693359375,0.0,0.0,0.0,0.0,0.0,0.0,-0.5142371856233925,0.0,0.0,0.0,0.0,0.0,0.0,-0.688,0.0
175,0.0,0.0,0.0,0.0,0.0,0.2857275390625,0.0,0.0,0.0,0.0,0.0,0.0,-1.1956071337350855,0.0,0.0,0.0,0.0,0.0,0.0,-0.26,0.0
176,0.0,0.0,0.0,0.0,0.0,0.26802734375,0.0,0.0,0.0,0.0,0.0,0.0,-1.0877401324090563,0.0,0.0,0.0,0.0,0.0,0.0,-0.552,0.0
177,0.0,0.0,0.0,0.0,0.0,0.2536181640625,0.0,0.0,0.0,0.0,0.0,0.0,-0.5944766290472133,0.0,0.0,0.0,0.0,0.0,0.0,-0.344,0.0
178,0.0,0.0,0.0,0.0,0.0,0.2400361328125,0.0,0.0,0.0,0.0,0.0,0.0,-0.923814298849035,0.0,0.0,0.0,0.0,0.0,0.0,-0.052,0.0
179,0.0,0.0,0.0,0.0,0.0,0.2258212890625,0.0,0.0,0.0,0.0,0.0,0.0,-1.1704726611253728,0.0,0.0,0.0,0.0,0.0,0.0,-0.4,0.0
180,0.0,0.0,0.0,0.0,0.0,0.2136845703125,0.0,0.0,0.0,0.0,0.0,0.0,-0.9347110703163426,0.0,0.0,0.0,0.0,0.0,0.0,0.004,0.0
181,0.0,0.0,0.0,0.0,0.0,0.2042080078125,0.0,0.0,0.0,0.0,0.0,0.0,-0.5749631514700881,0.0,0.0,0.0,0.0,0.0,0.0,-0.436,0.0
182,0.0,0.0,0.0,0.0,0.0,0.1935048828125,0.0,0.0,0.0,0.0,0.0,0.0,-1.2296513895241272,0.0,0.0,0.0,0.0,0.0,0.0,-0.304,0.0
183,0.0,0.0,0.0,0.0,0.0,0.18444140625,0.0,0.0,0.0,0.0,0.0,0.0,-1.1511811180852942,0.0,0.0,0.0,0.0,0.0,0.0,0.052,0.0
184,0.0,0.0,0.0,0.0,0.0,0.1778564453125,0.0,0.0,0.0,0.0,0.0,0.0,-1.057875834805318,0.0,0.0,0.0,0.0,0.0,0.0,-0.576,0.0
185,0.0,0.0,0.0,0.0,0.0,0.1708466796875,0.0,0.0,0.0,0.0,0.0,0.0,-0.7729013852917119,0.0,0.0,0.0,0.0,0.0,0.0,-0.48,0.0
186,0.0,0.0,0.0,0.0,0.0,0.16426171875,0.0,0.0,0.0,0.0,0.0,0.0,-1.0799323332823203,0.0,0.0,0.0,0.0,0.0,0.0,-0.284,0.0
187,0.0,0.0,0.0,0.0,0.0,0.158697265625,0.0,0.0,0.0,0.0,0.0,0.0,-1.298280326261636,0.0,0.0,0.0,0.0,0.0,0.0,-0.624,0.0
188,0.0,0.0,0.0,0.0,0.0,0.15169921875,0.0,0.0,0.0,0.0,0.0,0.0,-0.6291356732128389,0.0,0.0,0.0,0.0,0.0,0.0,-0.232,0.0
189,0.0,0.0,0.0,0.0,0.0,0.145927734375,0.0,0.0,0.0,0.0,0.0,0.0,-0.9895762751805477,0.0,0.0,0.0,0.0,0.0,0.0,-0.252,0.0
190,0.0,0.0,0.0,0.0,0.0,0.1405830078125,0.0,0.0,0.0,0.0,0.0,0.0,-0.7490303887012055,0.0,0.0,0.0,0.0,0.0,0.0,-0.552,0.0
191,0.0,0.0,0.0,0.0,0.0,0.133572265625,0.0,0.0,0.0,0.0,0.0,0.0,-1.0335703451434775,0.0,0.0,0.0,0.0,0.0,0.0,-0.344,0.0
192,0.0,0.0,0.0,0.0,0.0,0.127607421875,0.0,0.0,0.0,0.0,0.0,0.0,-0.7056899758795088,0.0,0.0,0.0,0.0,0.0,0.0,-0.544,0.0
193,0.0,0.0,0.0,0.0,0.0,0.119564453125,0.0,0.0,0.0,0.0,0.0,0.0,-1.049987293777809,0.0,0.0,0.0,0.0,0.0,0.0,-0.668,0.0
194,0.0,0.0,0.0,0.0,0.0,0.1121533203125,0.0,0.0,0.0,0.0,0.0,0.0,-0.9749648661586447,0.0,0.0,0.0,0.0,0.0,0.0,-0.448,0.0
195,0.0,0.0,0.0,0.0,0.0,0.1041220703125,0.0,0.0,0.0,0.0,0.0,0.0,-1.056234218604018,0.0,0.0,0.0,0.0,0.0,0.0,-0.844,0.0
196,0.0,0.0,0.0,0.0,0.0,0.094439453125,0.0,0.0,0.0,0.0,0.0,0.0,-1.1578260588110987,0.0,0.0,0.0,0.0,0.0,0.0,-0.74,0.0
197,0.0,0.0,0.0,0.0,0.0,0.0857890625,0.0,0.0,0.0,0.0,0.0,0.0,-0.768692573069486,0.0,0.0,0.0,0.0,0.0,0.0,-0.832,0.0
198,0.0,0.0,0.0,0.0,0.0,0.07610546875,0.0,0.0,0.0,0.0,0.0,0.0,-0.825906299204057,0.0,0.0,0.0,0.0,0.0,0.0,-0.884,0.0
199,0.0,0.0,0.0,0.0,0.0,0.065802734375,0.0,0.0,0.0,0.0,0.0,0.0,-0.9863584797953864,0.0,0.0,0.0,0.0,0.0,0.0,-0.564,0.0
200,0.0,0.0,0.0,0.0,0.0,0.0548798828125,0.0,0.0,0.0,0.0,0.0,0.0,-1.2443308081542064,0.0,0.0,0.0,0.0,0.0,0.0,-0.752,0.0
201,0.0,0.0,0.0,0.0,0.0,0.0433505859375,0.0,0.0,0.0,0.0,0.0,0.0,-0.8682548618560386,0.0,0.0,0.0,0.0,0.0,0.0,-0.716,0.0
202,0.0,0.0,0.0,0.0,0.0,0.0322216796875,0.0,0.0,0.0,0.0,0.0,0.0,-0.6846108527747188,0.0,0.0,0.0,0.0,0.0,0.0,-0.696,0.0
203,0.0,0.0,0.0,0.0,0.0,0.02047265625,0.0,0.0,0.0,0.0,0.0,0.0,-0.8826371946855557,0.0,0.0,0.0,0.0,0.0,0.0,-0.748,0.0
204,0.0,0.0,0.0,0.0,0.0,0.0076904296875,0.0,0.0,0.0,0.0,0.0,0.0,-0.7153912589780789,0.0,0.0,0.0,0.0,0.0,0.0,-0.656,0.0
205,0.0,0.0,0.0,0.0,0.0,-0.00364453125,0.0,0.0,0.0,0.0,0.0,0.0,-1.243972049566921,0.0,0.0,0.0,0.0,0.0,0.0,-0.772,0.0
206,0.0,0.0,0.0,0.0,0.0,-0.015599609375,0.0,0.0,0.0,0.0,0.0,0.0,-0.7772049281173632,0.0,0.0,0.0,0.0,0.0,0.0,-0.836,0.0
207,0.0,0.0,0.0,0.0,0.0,-0.0283818359375,0.0,0.0,0.0,0.0,0.0,0.0,-0.8859519451419332,0.0,0.0,0.0,0.0,0.0,0.0,-0.552,0.0
208,0.0,0.0,0.0,0.0,0.0,-0.0405439453125,0.0,0.0,0.0,0.0,0.0,0.0,-0.8106463620768982,0.0,0.0,0.0,0.0,0.0,0.0,-0.624,0.0
209,0.0,0.0,0.0,0.0,0.0,-0.0524990234375,0.0,0.0,0.0,0.0,0.0,0.0,-1.1277832621183843,0.0,0.0,0.0,0.0,0.0,0.0,-0.628,0.0
210,0.0,0.0,0.0,0.0,0.0,-0.0640419921875,0.0,0.0,0.0,0.0,0.0,0.0,-1.2864180945458945,0.0,0.0,0.0,0.0,0.0,0.0,-0.52,0.0
211,0.0,0.0,0.0,0.0,0.0,-0.07641015625,0.0,0.0,0.0,0.0,0.0,0.0,-1.1847090181168003,0.0,0.0,0.0,0.0,0.0,0.0,-0.656,0.0
212,0.0,0.0,0.0,0.0,0.0,-0.0879521484375,0.0,0.0,0.0,0.0,0.0,0.0,-1.1095108087431935,0.0,0.0,0.0,0.0,0.0,0.0,-0.624,0.0
213,0.0,0.0,0.0,0.0,0.0,-0.098474609375,0.0,0.0,0.0,0.0,0.0,0.0,-0.5246165834101219,0.0,0.0,0.0,0.0,0.0,0.0,-0.648,0.0
214,0.0,0.0,0.0,0.0,0.0,-0.110017578125,0.0,0.0,0.0,0.0,0.0,0.0,-1.0171466925415915,0.0,0.0,0.0,0.0,0.0,0.0,-0.468,0.0
215,0.0,0.0,0.0,0.0,0.0,-0.12137890625,0.0,0.0,0.0,0.0,0.0,0.0,-1.2265797310857989,0.0,0.0,0.0,0.0,0.0,0.0,-0.316,0.0
216,0.0,0.0,0.0,0.0,0.0,-0.1316953125,0.0,0.0,0.0,0.0,0.0,0.0,-0.7175147952595602,0.0,0.0,0.0,0.0,0.0,0.0,-0.556,0.0
217,0.0,0.0,0.0,0.0,0.0,-0.141791015625,0.0,0.0,0.0,0.0,0.0,0.0,-1.0149667951303716,0.0,0.0,0.0,0.0,0.0,0.0,-0.504,0.0
218,0.0,0.0,0.0,0.0,0.0,-0.151900390625,0.0,0.0,0.0,0.0,0.0,0.0,-1.1605136705650976,0.0,0.0,0.0,0.0,0.0,0.0,-0.452,0.0
219,0.0,0.0,0.0,0.0,0.0,-0.1624228515625,0.0,0.0,0.0,0.0,0.0,0.0,-1.0825285469390993,0.0,0.0,0.0,0.0,0.0,0.0,-0.608,0.0
220,0.0,0.0,0.0,0.0,0.0,-0.1723251953125,0.0,0.0,0.0,0.0,0.0,0.0,-1.0532657880552347,0.0,0.0,0.0,0.0,0.0,0.0,-0.628,0.0
221,0.0,0.0,0.0,0.0,0.0,-0.1816083984375,0.0,0.0,0.0,0.0,0.0,0.0,-0.6923598804876161,0.0,0.0,0.0,0.0,0.0,0.0,-0.636,0.0
222,0.0,0.0,0.0,0.0,0.0,-0.1908916015625,0.0,0.0,0.0,0.0,0.0,0.0,-0.5051865840619095,0.0,0.0,0.0,0.0,0.0,0.0,-0.428,0.0
223,0.0,0.0,0.0,0.0,0.0,-0.2010009765625,0.0,0.0,0.0,0.0,0.0,0.0,-0.5260262999052829,0.0,0.0,0.0,0.0,0.0,0.0,-0.48,0.0
224,0.0,0.0,0.0,0.0,0.0,-0.210697265625,0.0,0.0,0.0,0.0,0.0,0.0,-0.9030891000440088,0.0,0.0,0.0,0.0,0.0,0.0,-0.54,0.0
225,0.0,0.0,0.0,0.0,0.0,-0.22019921875,0.0,0.0,0.0,0.0,0.0,0.0,-0.650072901608555,0.0,0.0,0.0,0.0,0.0,0.0,-0.616,0.0
226,0.0,0.0,0.0,0.0,0.0,-0.2296884765625,0.0,0.0,0.0,0.0,0.0,0.0,-0.8315532846114714,0.0,0.0,0.0,0.0,0.0,0.0,-0.504,0.0
227,0.0,0.0,0.0,0.0,0.0,-0.2391787109375,0.0,0.0,0.0,0.0,0.0,0.0,-0.5566375554316071,0.0,0.0,0.0,0.0,0.0,0.0,-0.544,0.0
228,0.0,0.0,0.0,0.0,0.0,-0.249494140625,0.0,0.0,0.0,0.0,0.0,0.0,-0.7866058838079932,0.0,0.0,0.0,0.0,0.0,0.0,-0.664,0.0
229,0.0,0.0,0.0,0.0,0.0,-0.2589970703125,0.0,0.0,0.0,0.0,0.0,0.0,-0.6326059666594668,0.0,0.0,0.0,0.0,0.0,0.0,-0.792,0.0
230,0.0,0.0,0.0,0.0,0.0,-0.268486328125,0.0,0.0,0.0,0.0,0.0,0.0,-0.7761894815709325,0.0,0.0,0.0,0.0,0.0,0.0,-0.844,0.0
231,0.0,0.0,0.0,0.0,0.0,-0.277369140625,0.0,0.0,0.0,0.0,0.0,0.0,-1.2792339667452968,0.0,0.0,0.0,0.0,0.0,0.0,-0.52,0.0
232,0.0,0.0,0.0,0.0,0.0,-0.2889375,0.0,0.0,0.0,0.0,0.0,0.0,-0.7664681152867102,0.0,0.0,0.0,0.0,0.0,0.0,-0.544,0.0
233,0.0,0.0,0.0,0.0,0.0,-0.2994599609375,0.0,0.0,0.0,0.0,0.0,0.0,-0.7543163560801929,0.0,0.0,0.0,0.0,0.0,0.0,-0.624,0.0
234,0.0,0.0,0.0,0.0,0.0,-0.30958203125,0.0,0.0,0.0,0.0,0.0,0.0,-1.0134194725245673,0.0,0.0,0.0,0.0,0.0,0.0,-0.592,0.0
235,0.0,0.0,0.0,0.0,0.0,-0.319484375,0.0,0.0,0.0,0.0,0.0,0.0,-1.0695694101409985,0.0,0.0,0.0,0.0,0.0,0.0,-0.576,0.0
236,0.0,0.0,0.0,0.0,0.0,-0.3304326171875,0.0,0.0,0.0,0.0,0.0,0.0,-0.8249359797446116,0.0,0.0,0.0,0.0,0.0,0.0,-0.716,0.0
237,0.0,0.0,0.0,0.0,0.0,-0.3403486328125,0.0,0.0,0.0,0.0,0.0,0.0,-1.047838986363542,0.0,0.0,0.0,0.0,0.0,0.0,-0.644,0.0
238,0.0,0.0,0.0,0.0,0.0,-0.3506640625,0.0,0.0,0.0,0.0,0.0,0.0,-1.2180020093745632,0.0,0.0,0.0,0.0,0.0,0.0,-0.7,0.0
239,0.0,0.0,0.0,0.0,0.0,-0.3620263671875,0.0,0.0,0.0,0.0,0.0,0.0,-0.5915041477934786,0.0,0.0,0.0,0.0,0.0,0.0,-0.54,0.0
240,0.0,0.0,0.0,0.0,0.0,-0.372974609375,0.0,0.0,0.0,0.0,0.0,0.0,-0.7260773319275129,0.0,0.0,0.0,0.0,0.0,0.0,-0.488,0.0
241,0.0,0.0,0.0,0.0,0.0,-0.3843359375,0.0,0.0,0.0,0.0,0.0,0.0,-1.1113698058435175,0.0,0.0,0.0,0.0,0.0,0.0,-0.468,0.0
242,0.0,0.0,0.0,0.0,0.0,-0.39487109375,0.0,0.0,0.0,0.0,0.0,0.0,-1.2251503903791732,0.0,0.0,0.0,0.0,0.0,0.0,-0.564,0.0
243,0.0,0.0,0.0,0.0,0.0,-0.4052001953125,0.0,0.0,0.0,0.0,0.0,0.0,-0.9545607146437607,0.0,0.0,0.0,0.0,0.0,0.0,-0.524,0.0
244,0.0,0.0,0.0,0.0,0.0,-0.4161484375,0.0,0.0,0.0,0.0,0.0,0.0,-0.9071879420373545,0.0,0.0,0.0,0.0,0.0,0.0,-0.54,0.0
245,0.0,0.0,0.0,0.0,0.0,-0.4275234375,0.0,0.0,0.0,0.0,0.0,0.0,-0.8923492046836482,0.0,0.0,0.0,0.0,0.0,0.0,-0.564,0.0
246,0.0,0.0,0.0,0.0,0.0,-0.43805859375,0.0,0.0,0.0,0.0,0.0,0.0,-0.9520780935514062,0.0,0.0,0.0,0.0,0.0,0.0,-0.576,0.0
247,0.0,0.0,0.0,0.0,0.0,-0.447974609375,0.0,0.0,0.0,0.0,0.0,0.0,-0.7049666466199858,0.0,0.0,0.0,0.0,0.0,0.0,-0.556,0.0
248,0.0,0.0,0.0,0.0,0.0,-0.4587158203125,0.0,0.0,0.0,0.0,0.0,0.0,-0.596201940769984,0.0,0.0,0.0,0.0,0.0,0.0,-0.532,0.0
249,0.0,0.0,0.0,0.0,0.0,-0.4700908203125,0.0,0.0,0.0,0.0,0.0,0.0,-0.9042932421841444,0.0,0.0,0.0,0.0,0.0,0.0,-0.416,0.0
250,0.0,0.0,0.0,0.0,0.0,-0.4804189453125,0.0,0.0,0.0,0.0,0.0,0.0,-1.2491877476034314,0.0,0.0,0.0,0.0,0.0,0.0,-0.46,0.0
251,0.0,0.0,0.0,0.0,0.0,-0.4903349609375,0.0,0.0,0.0,0.0,0.0,0.0,-0.6294650195951559,0.0,0.0,0.0,0.0,0.0,0.0,-0.492,0.0
252,0.0,0.0,0.0,0.0,0.0,-0.5008828125,0.0,0.0,0.0,0.0,0.0,0.0,-0.6149554180457686,0.0,0.0,0.0,0.0,0.0,0.0,-0.544,0.0
253,0.0,0.0,0.0,0.0,0.0,-0.510798828125,0.0,0.0,0.0,0.0,0.0,0.0,-0.9815149175176439,0.0,0.0,0.0,0.0,0.0,0.0,-0.532,0.0
254,0.0,0.0,0.0,0.0,0.0,-0.521966796875,0.0,0.0,0.0,0.0,0.0,0.0,-1.0928450585648486,0.0,0.0,0.0,0.0,0.0,0.0,-0.636,0.0
255,0.0,0.0,0.0,0.0,0.0,-0.530642578125,0.0,0.0,0.0,0.0,0.0,0.0,-0.7584430919652686,0.0,0.0,0.0,0.0,0.0,0.0,-0.608,0.0
256,0.0,0.0,0.0,0.0,0.0,-0.540791015625,0.0,0.0,0.0,0.0,0.0,0.0,-0.999193425087427,0.0,0.0,0.0,0.0,0.0,0.0,-0.436,0.0
257,0.0,0.0,0.0,0.0,0.0,-0.552978515625,0.0,0.0,0.0,0.0,0.0,0.0,-0.5552427862974327,0.0,0.0,0.0,0.0,0.0,0.0,-0.416,0.0
258,0.0,0.0,0.0,0.0,0.0,-0.5633203125,0.0,0.0,0.0,0.0,0.0,0.0,0.761961415920632,0.0,0.0,0.0,0.0,0.0,0.0,-0.472,0.0
259,0.0,0.0,0.0,0.0,0.0,-0.5728359375,0.0,0.0,0.0,0.0,0.0,0.0,0.5757473751368337,0.0,0.0,0.0,0.0,0.0,0.0,-0.396,0.0
260,0.0,0.0,0.0,0.0,0.0,-0.58006640625,0.0,0.0,0.0,0.0,0.0,0.0,1.2256612033719683,0.0,0.0,0.0,0.0,0.0,0.0,-0.004,0.0
261,0.0,0.0,0.0,0.0,0.0,-0.5852431640625,0.0,0.0,0.0,0.0,0.0,0.0,1.080756319763561,0.0,0.0,0.0,0.0,0.0,0.0,0.272,0.0
262,0.0,0.0,0.0,0.0,0.0,-0.586482421875,0.0,0.0,0.0,0.0,0.0,0.0,0.6827717022827862,0.0,0.0,0.0,0.0,0.0,0.0,0.128,0.0
263,0.0,0.0,0.0,0.0,0.0,-0.5852431640625,0.0,0.0,0.0,0.0,0.0,0.0,1.0412998830366438,0.0,0.0,0.0,0.0,0.0,0.0,0.18,0.0
264,0.0,0.0,0.0,0.0,0.0,-0.5810986328125,0.0,0.0,0.0,0.0,0.0,0.0,0.5424559755362515,0.0,0.0,0.0,0.0,0.0,0.0,0.244,0.0
265,0.0,0.0,0.0,0.0,0.0,-0.57448828125,0.0,0.0,0.0,0.0,0.0,0.0,1.2963028580698845,0.0,0.0,0.0,0.0,0.0,0.0,0.12,0.0
266,0.0,0.0,0.0,0.0,0.0,-0.5657998046875,0.0,0.0,0.0,0.0,0.0,0.0,0.8333351358431839,0.0,0.0,0.0,0.0,0.0,0.0,0.116,0.0
267,0.0,0.0,0.0,0.0,0.0,-0.5544248046875,0.0,0.0,0.0,0.0,0.0,0.0,1.0405952034627952,0.0,0.0,0.0,0.0,0.0,0.0,0.316,0.0
268,0.0,0.0,0.0,0.0,0.0,-0.5395517578125,0.0,0.0,0.0,0.0,0.0,0.0,0.6795549457163149,0.0,0.0,0.0,0.0,0.0,0.0,0.348,0.0
269,0.0,0.0,0.0,0.0,0.0,-0.5252724609375,0.0,0.0,0.0,0.0,0.0,0.0,1.2127744267513574,0.0,0.0,0.0,0.0,0.0,0.0,-0.312,0.0
270,0.0,0.0,0.0,0.0,0.0,-0.5093525390625,0.0,0.0,0.0,0.0,0.0,0.0,1.1634725189029118,0.0,0.0,0.0,0.0,0.0,0.0,-0.336,0.0
271,0.0,0.0,0.0,0.0,0.0,-0.4886826171875,0.0,0.0,0.0,0.0,0.0,0.0,0.7644987307364653,0.0,0.0,0.0,0.0,0.0,0.0,0.272,0.0
272,0.0,0.0,0.0,0.0,0.0,-0.469470703125,0.0,0.0,0.0,0.0,0.0,0.0,0.8714511683533852,0.0,0.0,0.0,0.0,0.0,0.0,-0.648,0.0
273,0.0,0.0,0.0,0.0,0.0,-0.4510732421875,0.0,0.0,0.0,0.0,0.0,0.0,1.0265572609733646,0.0,0.0,0.0,0.0,0.0,0.0,0.332,0.0
274,0.0,0.0,0.0,0.0,0.0,-0.4322744140625,0.0,0.0,0.0,0.0,0.0,0.0,0.5007194812712553,0.0,0.0,0.0,0.0,0.0,0.0,-0.416,0.0
275,0.0,0.0,0.0,0.0,0.0,-0.410984375,0.0,0.0,0.0,0.0,0.0,0.0,0.9107271341159642,0.0,0.0,0.0,0.0,0.0,0.0,-0.488,0.0
276,0.0,0.0,0.0,0.0,0.0,-0.3917724609375,0.0,0.0,0.0,0.0,0.0,0.0,1.0435944022695143,0.0,0.0,0.0,0.0,0.0,0.0,-0.46,0.0
277,0.0,0.0,0.0,0.0,0.0,-0.3735947265625,0.0,0.0,0.0,0.0,0.0,0.0,0.9435158606139991,0.0,0.0,0.0,0.0,0.0,0.0,-0.368,0.0
278,0.0,0.0,0.0,0.0,0.0,-0.355208984375,0.0,0.0,0.0,0.0,0.0,0.0,1.2423022762376927,0.0,0.0,0.0,0.0,0.0,0.0,-0.376,0.0
279,0.0,0.0,0.0,0.0,0.0,-0.3386962890625,0.0,0.0,0.0,0.0,0.0,0.0,1.0433821974006496,0.0,0.0,0.0,0.0,0.0,0.0,-1.176,0.0
280,0.0,0.0,0.0,0.0,0.0,-0.3234091796875,0.0,0.0,0.0,0.0,0.0,0.0,0.5787198977232179,0.0,0.0,0.0,0.0,0.0,0.0,-0.296,0.0
281,0.0,0.0,0.0,0.0,0.0,-0.3071025390625,0.0,0.0,0.0,0.0,0.0,0.0,0.9992270982049181,0.0,0.0,0.0,0.0,0.0,0.0,-0.996,0.0
282,0.0,0.0,0.0,0.0,0.0,-0.2955478515625,0.0,0.0,0.0,0.0,0.0,0.0,1.2500766527582854,0.0,0.0,0.0,0.0,0.0,0.0,-1.208,0.0
283,0.0,0.0,0.0,0.0,0.0,-0.283759765625,0.0,0.0,0.0,0.0,0.0,0.0,0.9802574284344555,0.0,0.0,0.0,0.0,0.0,0.0,0.036,0.0
284,0.0,0.0,0.0,0.0,0.0,-0.270345703125,0.0,0.0,0.0,0.0,0.0,0.0,1.2576010096086203,0.0,0.0,0.0,0.0,0.0,0.0,-1.092,0.0
285,0.0,0.0,0.0,0.0,0.0,-0.263322265625,0.0,0.0,0.0,0.0,0.0,0.0,0.7300417838563068,0.0,0.0,0.0,0.0,0.0,0.0,-1.156,0.0
286,0.0,0.0,0.0,0.0,0.0,-0.2542451171875,0.0,0.0,0.0,0.0,0.0,0.0,1.148829400961541,0.0,0.0,0.0,0.0,0.0,0.0,-0.472,0.0
287,0.0,0.0,0.0,0.0,0.0,-0.2445498046875,0.0,0.0,0.0,0.0,0.0,0.0,1.2000517175251586,0.0,0.0,0.0,0.0,0.0,0.0,-1.484,0.0
288,0.0,0.0,0.0,0.0,0.0,-0.2397978515625,0.0,0.0,0.0,0.0,0.0,0.0,0.5103053072790729,0.0,0.0,0.0,0.0,0.0,0.0,-0.564,0.0
289,0.0,0.0,0.0,0.0,0.0,-0.2319609375,0.0,0.0,0.0,0.0,0.0,0.0,0.5876343172077065,0.0,0.0,0.0,0.0,0.0,0.0,-0.12,0.0
290,0.0,0.0,0.0,0.0,0.0,-0.2247314453125,0.0,0.0,0.0,0.0,0.0,0.0,1.1693778122164749,0.0,0.0,0.0,0.0,0.0,0.0,-1.396,0.0
291,0.0,0.0,0.0,0.0,0.0,-0.2216328125,0.0,0.0,0.0,0.0,0.0,0.0,0.5013242053876426,0.0,0.0,0.0,0.0,0.0,0.0,-0.544,0.0
292,0.0,0.0,0.0,0.0,0.0,-0.2144150390625,0.0,0.0,0.0,0.0,0.0,0.0,0.6122548815198322,0.0,0.0,0.0,0.0,0.0,0.0,-0.628,0.0
293,0.0,0.0,0.0,0.0,0.0,-0.2090576171875,0.0,0.0,0.0,0.0,0.0,0.0,1.12443944633341,0.0,0.0,0.0,0.0,0.0,0.0,-1.136,0.0
294,0.0,0.0,0.0,0.0,0.0,-0.2045126953125,0.0,0.0,0.0,0.0,0.0,0.0,0.8648117993890316,0.0,0.0,0.0,0.0,0.0,0.0,0.036,0.0
295,0.0,0.0,0.0,0.0,0.0,-0.1970888671875,0.0,0.0,0.0,0.0,0.0,0.0,0.9087787866632506,0.0,0.0,0.0,0.0,0.0,0.0,-0.388,0.0
296,0.0,0.0,0.0,0.0,0.0,-0.190478515625,0.0,0.0,0.0,0.0,0.0,0.0,0.7072448639496813,0.0,0.0,0.0,0.0,0.0,0.0,-0.648,0.0
297,0.0,0.0,0.0,0.0,0.0,-0.184087890625,0.0,0.0,0.0,0.0,0.0,0.0,1.2555613116984348,0.0,0.0,0.0,0.0,0.0,0.0,-0.128,0.0
298,0.0,0.0,0.0,0.0,0.0,-0.175630859375,0.0,0.0,0.0,0.0,0.0,0.0,0.8798078009409633,0.0,0.0,0.0,0.0,0.0,0.0,-0.968,0.0
299,0.0,0.0,0.0,0.0,0.0,-0.16943359375,0.0,0.0,0.0,0.0,0.0,0.0,0.8982315597227075,0.0,0.0,0.0,0.0,0.0,0.0,-0.5,0.0
300,0.0,0.0,0.0,0.0,0.0,-0.1597373046875,0.0,0.0,0.0,0.0,0.0,0.0,0.8060428626362857,0.0,0.0,0.0,0.0,0.0,0.0,-0.052,0.0
301,0.0,0.0,0.0,0.0,0.0,-0.1492275390625,0.0,0.0,0.0,0.0,0.0,0.0,0.9150704267275797,0.0,0.0,0.0,0.0,0.0,0.0,-0.584,0.0
302,0.0,0.0,0.0,0.0,0.0,-0.1403583984375,0.0,0.0,0.0,0.0,0.0,0.0,0.5268068443365794,0.0,0.0,0.0,0.0,0.0,0.0,-0.2,0.0
303,0.0,0.0,0.0,0.0,0.0,-0.1292158203125,0.0,0.0,0.0,0.0,0.0,0.0,0.9904611701989372,0.0,0.0,0.0,0.0,0.0,0.0,-0.512,0.0
304,0.0,0.0,0.0,0.0,0.0,-0.118900390625,0.0,0.0,0.0,0.0,0.0,0.0,0.8691465177220263,0.0,0.0,0.0,0.0,0.0,0.0,-0.472,0.0
305,0.0,0.0,0.0,0.0,0.0,-0.1077578125,0.0,0.0,0.0,0.0,0.0,0.0,0.6243340279365138,0.0,0.0,0.0,0.0,0.0,0.0,0.188,0.0
306,0.0,0.0,0.0,0.0,0.0,-0.0947568359375,0.0,0.0,0.0,0.0,0.0,0.0,0.9815411522677906,0.0,0.0,0.0,0.0,0.0,0.0,-0.524,0.0
307,0.0,0.0,0.0,0.0,0.0,-0.084041015625,0.0,0.0,0.0,0.0,0.0,0.0,0.8726390897685802,0.0,0.0,0.0,0.0,0.0,0.0,-0.676,0.0
308,0.0,0.0,0.0,0.0,0.0,-0.0710517578125,0.0,0.0,0.0,0.0,0.0,0.0,0.5705931710437566,0.0,0.0,0.0,0.0,0.0,0.0,-0.244,0.0
309,0.0,0.0,0.0,0.0,0.0,-0.057650390625,0.0,0.0,0.0,0.0,0.0,0.0,1.2805545730277696,0.0,0.0,0.0,0.0,0.0,0.0,-0.7,0.0
310,0.0,0.0,0.0,0.0,0.0,-0.0469345703125,0.0,0.0,0.0,0.0,0.0,0.0,0.5991933725159999,0.0,0.0,0.0,0.0,0.0,0.0,-0.336,0.0
311,0.0,0.0,0.0,0.0,0.0,-0.0339462890625,0.0,0.0,0.0,0.0,0.0,0.0,0.7584965793928404,0.0,0.0,0.0,0.0,0.0,0.0,-0.208,0.0
312,0.0,0.0,0.0,0.0,0.0,-0.0207509765625,0.0,0.0,0.0,0.0,0.0,0.0,0.8737409687445374,0.0,0.0,0.0,0.0,0.0,0.0,-0.576,0.0
313,0.0,0.0,0.0,0.0,0.0,-0.0102412109375,0.0,0.0,0.0,0.0,0.0,0.0,1.0903477294428163,0.0,0.0,0.0,0.0,0.0,0.0,-0.324,0.0
314,0.0,0.0,0.0,0.0,0.0,0.0025390625,0.0,0.0,0.0,0.0,0.0,0.0,1.0052414278192572,0.0,0.0,0.0,0.0,0.0,0.0,-0.844,0.0
315,0.0,0.0,0.0,0.0,0.0,0.0142880859375,0.0,0.0,0.0,0.0,0.0,0.0,0.8487472241633107,0.0,0.0,0.0,0.0,0.0,0.0,-0.8,0.0
316,0.0,0.0,0.0,0.0,0.0,0.026037109375,0.0,0.0,0.0,0.0,0.0,0.0,1.022282369587104,0.0,0.0,0.0,0.0,0.0,0.0,-0.208,0.0
317,0.0,0.0,0.0,0.0,0.0,0.038392578125,0.0,0.0,0.0,0.0,0.0,0.0,0.7504321966772705,0.0,0.0,0.0,0.0,0.0,0.0,-0.74,0.0
318,0.0,0.0,0.0,0.0,0.0,0.048501953125,0.0,0.0,0.0,0.0,0.0,0.0,0.7232860373263886,0.0,0.0,0.0,0.0,0.0,0.0,-0.592,0.0
319,0.0,0.0,0.0,0.0,0.0,0.0604443359375,0.0,0.0,0.0,0.0,0.0,0.0,0.513209144924023,0.0,0.0,0.0,0.0,0.0,0.0,-0.276,0.0
320,0.0,0.0,0.0,0.0,0.0,0.0717802734375,0.0,0.0,0.0,0.0,0.0,0.0,0.7974787197075943,0.0,0.0,0.0,0.0,0.0,0.0,-0.812,0.0
321,0.0,0.0,0.0,0.0,0.0,0.082083984375,0.0,0.0,0.0,0.0,0.0,0.0,0.76634475755522,0.0,0.0,0.0,0.0,0.0,0.0,-0.552,0.0
322,0.0,0.0,0.0,0.0,0.0,0.0929931640625,0.0,0.0,0.0,0.0,0.0,0.0,1.185730760457418,0.0,0.0,0.0,0.0,0.0,0.0,-0.748,0.0
323,0.0,0.0,0.0,0.0,0.0,0.102056640625,0.0,0.0,0.0,0.0,0.0,0.0,1.1862351750292919,0.0,0.0,0.0,0.0,0.0,0.0,-0.792,0.0
324,0.0,0.0,0.0,0.0,0.0,0.1127724609375,0.0,0.0,0.0,0.0,0.0,0.0,0.9296005538832568,0.0,0.0,0.0,0.0,0.0,0.0,-0.212,0.0
325,0.0,0.0,0.0,0.0,0.0,0.1224560546875,0.0,0.0,0.0,0.0,0.0,0.0,0.5640892308266843,0.0,0.0,0.0,0.0,0.0,0.0,-0.716,0.0
326,0.0,0.0,0.0,0.0,0.0,0.1317265625,0.0,0.0,0.0,0.0,0.0,0.0,1.225061630862987,0.0,0.0,0.0,0.0,0.0,0.0,-0.716,0.0
327,0.0,0.0,0.0,0.0,0.0,0.141396484375,0.0,0.0,0.0,0.0,0.0,0.0,1.0584923632327863,0.0,0.0,0.0,0.0,0.0,0.0,-0.272,0.0
328,0.0,0.0,0.0,0.0,0.0,0.1514931640625,0.0,0.0,0.0,0.0,0.0,0.0,1.106889216122528,0.0,0.0,0.0,0.0,0.0,0.0,-0.572,0.0
329,0.0,0.0,0.0,0.0,0.0,0.1599365234375,0.0,0.0,0.0,0.0,0.0,0.0,0.9666588510073506,0.0,0.0,0.0,0.0,0.0,0.0,-0.252,0.0
330,0.0,0.0,0.0,0.0,0.0,0.170033203125,0.0,0.0,0.0,0.0,0.0,0.0,1.249737502854677,0.0,0.0,0.0,0.0,0.0,0.0,-0.596,0.0
331,0.0,0.0,0.0,0.0,0.0,0.1792900390625,0.0,0.0,0.0,0.0,0.0,0.0,1.2236212301674367,0.0,0.0,0.0,0.0,0.0,0.0,-0.928,0.0
332,0.0,0.0,0.0,0.0,0.0,0.1879404296875,0.0,0.0,0.0,0.0,0.0,0.0,0.9843966935854305,0.0,0.0,0.0,0.0,0.0,0.0,-0.332,0.0
333,0.0,0.0,0.0,0.0,0.0,0.1982431640625,0.0,0.0,0.0,0.0,0.0,0.0,0.7361663456368455,0.0,0.0,0.0,0.0,0.0,0.0,-0.312,0.0
334,0.0,0.0,0.0,0.0,0.0,0.206880859375,0.0,0.0,0.0,0.0,0.0,0.0,0.6178311801110717,0.0,0.0,0.0,0.0,0.0,0.0,-0.488,0.0
335,0.0,0.0,0.0,0.0,0.0,0.2169775390625,0.0,0.0,0.0,0.0,0.0,0.0,0.5039366276385844,0.0,0.0,0.0,0.0,0.0,0.0,-0.276,0.0
336,0.0,0.0,0.0,0.0,0.0,0.2272666015625,0.0,0.0,0.0,0.0,0.0,0.0,0.9690781631572133,0.0,0.0,0.0,0.0,0.0,0.0,-0.492,0.0
337,0.0,0.0,0.0,0.0,0.0,0.2369375,0.0,0.0,0.0,0.0,0.0,0.0,0.5628394071320985,0.0,0.0,0.0,0.0,0.0,0.0,-0.348,0.0
338,0.0,0.0,0.0,0.0,0.0,0.2460009765625,0.0,0.0,0.0,0.0,0.0,0.0,0.572296596031827,0.0,0.0,0.0,0.0,0.0,0.0,-0.172,0.0
339,0.0,0.0,0.0,0.0,0.0,0.2575302734375,0.0,0.0,0.0,0.0,0.0,0.0,1.1597281914072672,0.0,0.0,0.0,0.0,0.0,0.0,-0.624,0.0
340,0.0,0.0,0.0,0.0,0.0,0.266994140625,0.0,0.0,0.0,0.0,0.0,0.0,0.667602845557332,0.0,0.0,0.0,0.0,0.0,0.0,-0.492,0.0
341,0.0,0.0,0.0,0.0,0.0,0.2779033203125,0.0,0.0,0.0,0.0,0.0,0.0,1.2233120676882019,0.0,0.0,0.0,0.0,0.0,0.0,-0.296,0.0
342,0.0,0.0,0.0,0.0,0.0,0.2890205078125,0.0,0.0,0.0,0.0,0.0,0.0,0.8247095815906564,0.0,0.0,0.0,0.0,0.0,0.0,-0.436,0.0
343,0.0,0.0,0.0,0.0,0.0,0.299310546875,0.0,0.0,0.0,0.0,0.0,0.0,0.6807749261514625,0.0,0.0,0.0,0.0,0.0,0.0,-0.42,0.0
344,0.0,0.0,0.0,0.0,0.0,0.310013671875,0.0,0.0,0.0,0.0,0.0,0.0,1.1829056101282194,0.0,0.0,0.0,0.0,0.0,0.0,-0.304,0.0
345,0.0,0.0,0.0,0.0,0.0,0.3209228515625,0.0,0.0,0.0,0.0,0.0,0.0,1.0321107445208468,0.0,0.0,0.0,0.0,0.0,0.0,-0.332,0.0
346,0.0,0.0,0.0,0.0,0.0,0.3318203125,0.0,0.0,0.0,0.0,0.0,0.0,0.5770350206969784,0.0,0.0,0.0,0.0,0.0,0.0,-0.26,0.0
347,0.0,0.0,0.0,0.0,0.0,0.343142578125,0.0,0.0,0.0,0.0,0.0,0.0,1.1031135586285452,0.0,0.0,0.0,0.0,0.0,0.0,-0.556,0.0
348,0.0,0.0,0.0,0.0,0.0,0.353845703125,0.0,0.0,0.0,0.0,0.0,0.0,0.9567994539075757,0.0,0.0,0.0,0.0,0.0,0.0,-0.628,0.0
349,0.0,0.0,0.0,0.0,0.0,0.3645361328125,0.0,0.0,0.0,0.0,0.0,0.0,1.172841002008425,0.0,0.0,0.0,0.0,0.0,0.0,-0.4,0.0
350,0.0,0.0,0.0,0.0,0.0,0.3760654296875,0.0,0.0,0.0,0.0,0.0,0.0,0.752457973307874,0.0,0.0,0.0,0.0,0.0,0.0,-0.252,0.0
351,0.0,0.0,0.0,0.0,0.0,0.3861357421875,0.0,0.0,0.0,0.0,0.0,0.0,1.122508103708927,0.0,0.0,0.0,0.0,0.0,0.0,-0.448,0.0
352,0.0,0.0,0.0,0.0,0.0,0.397666015625,0.0,0.0,0.0,0.0,0.0,0.0,0.77698577887879,0.0,0.0,0.0,0.0,0.0,0.0,-0.348,0.0
353,0.0,0.0,0.0,0.0,0.0,0.4085625,0.0,0.0,0.0,0.0,0.0,0.0,1.0421581143859513,0.0,0.0,0.0,0.0,0.0,0.0,-0.292,0.0
354,0.0,0.0,0.0,0.0,0.0,0.4188525390625,0.0,0.0,0.0,0.0,0.0,0.0,1.1942365479377712,0.0,0.0,0.0,0.0,0.0,0.0,-0.312,0.0
355,0.0,0.0,0.0,0.0,0.0,0.42954296875,0.0,0.0,0.0,0.0,0.0,0.0,0.6500491444993088,0.0,0.0,0.0,0.0,0.0,0.0,-0.54,0.0
356,0.0,0.0,0.0,0.0,0.0,0.4398330078125,0.0,0.0,0.0,0.0,0.0,0.0,0.750662403198628,0.0,0.0,0.0,0.0,0.0,0.0,-0.488,0.0
357,0.0,0.0,0.0,0.0,0.0,0.4515556640625,0.0,0.0,0.0,0.0,0.0,0.0,0.7703169118829554,0.0,0.0,0.0,0.0,0.0,0.0,-0.376,0.0
358,0.0,0.0,0.0,0.0,0.0,0.4614326171875,0.0,0.0,0.0,0.0,0.0,0.0,0.9622714567481432,0.0,0.0,0.0,0.0,0.0,0.0,-0.208,0.0
359,0.0,0.0,0.0,0.0,0.0,0.472330078125,0.0,0.0,0.0,0.0,0.0,0.0,0.8536322759526187,0.0,0.0,0.0,0.0,0.0,0.0,-0.384,0.0
360,0.0,0.0,0.0,0.0,0.0,0.482193359375,0.0,0.0,0.0,0.0,0.0,0.0,0.8764675496007375,0.0,0.0,0.0,0.0,0.0,0.0,-0.324,0.0
361,0.0,0.0,0.0,0.0,0.0,0.49227734375,0.0,0.0,0.0,0.0,0.0,0.0,0.5478898462390946,0.0,0.0,0.0,0.0,0.0,0.0,-0.252,0.0
362,0.0,0.0,0.0,0.0,0.0,0.5027607421875,0.0,0.0,0.0,0.0,0.0,0.0,-1.2250701599790592,0.0,0.0,0.0,0.0,0.0,0.0,-0.192,0.0
363,0.0,0.0,0.0,0.0,0.0,0.513244140625,0.0,0.0,0.0,0.0,0.0,0.0,-1.201258020258745,0.0,0.0,0.0,0.0,0.0,0.0,-0.384,0.0
364,0.0,0.0,0.0,0.0,0.0,0.523328125,0.0,0.0,0.0,0.0,0.0,0.0,-0.628284318036236,0.0,0.0,0.0,0.0,0.0,0.0,-0.488,0.0
365,0.0,0.0,0.0,0.0,0.0,0.5325849609375,0.0,0.0,0.0,0.0,0.0,0.0,-0.7878085338253034,0.0,0.0,0.0,0.0,0.0,0.0,-0.876,0.0
366,0.0,0.0,0.0,0.0,0.0,0.537103515625,0.0,0.0,0.0,0.0,0.0,0.0,-1.0152690609297457,0.0,0.0,0.0,0.0,0.0,0.0,-1.136,0.0
367,0.0,0.0,0.0,0.0,0.0,0.538330078125,0.0,0.0,0.0,0.0,0.0,0.0,-0.8985769129904142,0.0,0.0,0.0,0.0,0.0,0.0,-0.748,0.0
368,0.0,0.0,0.0,0.0,0.0,0.5375166015625,0.0,0.0,0.0,0.0,0.0,0.0,-1.0244322684536473,0.0,0.0,0.0,0.0,0.0,0.0,-0.876,0.0
369,0.0,0.0,0.0,0.0,0.0,0.53319140625,0.0,0.0,0.0,0.0,0.0,0.0,-0.9479741702601598,0.0,0.0,0.0,0.0,0.0,0.0,-1.032,0.0
370,0.0,0.0,0.0,0.0,0.0,0.5264140625,0.0,0.0,0.0,0.0,0.0,0.0,-0.7572154402036806,0.0,0.0,0.0,0.0,0.0,0.0,-0.78,0.0
371,0.0,0.0,0.0,0.0,0.0,0.5190029296875,0.0,0.0,0.0,0.0,0.0,0.0,-0.6314995004655721,0.0,0.0,0.0,0.0,0.0,0.0,-0.956,0.0
372,0.0,0.0,0.0,0.0,0.0,0.5064658203125,0.0,0.0,0.0,0.0,0.0,0.0,-1.0934680707865558,0.0,0.0,0.0,0.0,0.0,0.0,-1.104,0.0
373,0.0,0.0,0.0,0.0,0.0,0.4920703125,0.0,0.0,0.0,0.0,0.0,0.0,-1.2598477020299157,0.0,0.0,0.0,0.0,0.0,0.0,-0.864,0.0
374,0.0,0.0,0.0,0.0,0.0,0.476228515625,0.0,0.0,0.0,0.0,0.0,0.0,-0.7027826455284466,0.0,0.0,0.0,0.0,0.0,0.0,-0.556,0.0
375,0.0,0.0,0.0,0.0,0.0,0.4597802734375,0.0,0.0,0.0,0.0,0.0,0.0,-0.645320719064424,0.0,0.0,0.0,0.0,0.0,0.0,-0.656,0.0
376,0.0,0.0,0.0,0.0,0.0,0.441265625,0.0,0.0,0.0,0.0,0.0,0.0,-0.7366175668217966,0.0,0.0,0.0,0.0,0.0,0.0,-0.896,0.0
377,0.0,0.0,0.0,0.0,0.0,0.4223515625,0.0,0.0,0.0,0.0,0.0,0.0,-0.8466527189220896,0.0,0.0,0.0,0.0,0.0,0.0,-0.624,0.0
378,0.0,0.0,0.0,0.0,0.0,0.403630859375,0.0,0.0,0.0,0.0,0.0,0.0,-0.5720851706049073,0.0,0.0,0.0,0.0,0.0,0.0,-0.824,0.0
379,0.0,0.0,0.0,0.0,0.0,0.3851162109375,0.0,0.0,0.0,0.0,0.0,0.0,-0.5771759894522417,0.0,0.0,0.0,0.0,0.0,0.0,-0.608,0.0
380,0.0,0.0,0.0,0.0,0.0,0.3635166015625,0.0,0.0,0.0,0.0,0.0,0.0,-1.28982826351556,0.0,0.0,0.0,0.0,0.0,0.0,-0.232,0.0
381,0.0,0.0,0.0,0.0,0.0,0.3468486328125,0.0,0.0,0.0,0.0,0.0,0.0,-0.6976371474873135,0.0,0.0,0.0,0.0,0.0,0.0,-0.708,0.0
382,0.0,0.0,0.0,0.0,0.0,0.326474609375,0.0,0.0,0.0,0.0,0.0,0.0,-0.9909920862172208,0.0,0.0,0.0,0.0,0.0,0.0,-0.388,0.0
383,0.0,0.0,0.0,0.0,0.0,0.30898046875,0.0,0.0,0.0,0.0,0.0,0.0,-0.7735005598726665,0.0,0.0,0.0,0.0,0.0,0.0,-0.492,0.0
384,0.0,0.0,0.0,0.0,0.0,0.2923125,0.0,0.0,0.0,0.0,0.0,0.0,-0.5379810430892626,0.0,0.0,0.0,0.0,0.0,0.0,-0.296,0.0
385,0.0,0.0,0.0,0.0,0.0,0.27687109375,0.0,0.0,0.0,0.0,0.0,0.0,-1.2309369406636743,0.0,0.0,0.0,0.0,0.0,0.0,-0.296,0.0
386,0.0,0.0,0.0,0.0,0.0,0.2616484375,0.0,0.0,0.0,0.0,0.0,0.0,-1.1731538735050737,0.0,0.0,0.0,0.0,0.0,0.0,-0.276,0.0
387,0.0,0.0,0.0,0.0,0.0,0.24929296875,0.0,0.0,0.0,0.0,0.0,0.0,-0.9414724435533455,0.0,0.0,0.0,0.0,0.0,0.0,-0.096,0.0
388,0.0,0.0,0.0,0.0,0.0,0.237970703125,0.0,0.0,0.0,0.0,0.0,0.0,-0.8815795624379503,0.0,0.0,0.0,0.0,0.0,0.0,-0.492,0.0
389,0.0,0.0,0.0,0.0,0.0,0.22602734375,0.0,0.0,0.0,0.0,0.0,0.0,-0.5083990620987234,0.0,0.0,0.0,0.0,0.0,0.0,-0.244,0.0
390,0.0,0.0,0.0,0.0,0.0,0.2169775390625,0.0,0.0,0.0,0.0,0.0,0.0,-0.5119904207647125,0.0,0.0,0.0,0.0,0.0,0.0,-0.068,0.0
391,0.0,0.0,0.0,0.0,0.0,0.209359375,0.0,0.0,0.0,0.0,0.0,0.0,-0.6856121797240917,0.0,0.0,0.0,0.0,0.0,0.0,-0.448,0.0
392,0.0,0.0,0.0,0.0,0.0,0.1998828125,0.0,0.0,0.0,0.0,0.0,0.0,-1.1485062668454877,0.0,0.0,0.0,0.0,0.0,0.0,0.024,0.0
393,0.0,0.0,0.0,0.0,0.0,0.1937119140625,0.0,0.0,0.0,0.0,0.0,0.0,-0.5318383638419395,0.0,0.0,0.0,0.0,0.0,0.0,-0.16,0.0
394,0.0,0.0,0.0,0.0,0.0,0.1869072265625,0.0,0.0,0.0,0.0,0.0,0.0,-0.757186320096549,0.0,0.0,0.0,0.0,0.0,0.0,-0.644,0.0
395,0.0,0.0,0.0,0.0,0.0,0.17991015625,0.0,0.0,0.0,0.0,0.0,0.0,-1.1832035470516091,0.0,0.0,0.0,0.0,0.0,0.0,-0.296,0.0
396,0.0,0.0,0.0,0.0,0.0,0.1753779296875,0.0,0.0,0.0,0.0,0.0,0.0,-1.1781963312588755,0.0,0.0,0.0,0.0,0.0,0.0,-0.5,0.0
397,0.0,0.0,0.0,0.0,0.0,0.1685869140625,0.0,0.0,0.0,0.0,0.0,0.0,-0.6842929451179582,0.0,0.0,0.0,0.0,0.0,0.0,-0.608,0.0
398,0.0,0.0,0.0,0.0,0.0,0.163228515625,0.0,0.0,0.0,0.0,0.0,0.0,-1.24249830573414,0.0,0.0,0.0,0.0,0.0,0.0,-0.22,0.0
399,0.0,0.0,0.0,0.0,0.0,0.1582841796875,0.0,0.0,0.0,0.0,0.0,0.0,-1.131970596026871,0.0,0.0,0.0,0.0,0.0,0.0,-0.728,0.0
400,0.0,0.0,0.0,0.0,0.0,0.14983984375,0.0,0.0,0.0,0.0,0.0,0.0,-0.6764319233852973,0.0,0.0,0.0,0.0,0.0,0.0,-0.52,0.0
401,0.0,0.0,0.0,0.0,0.0,0.1428427734375,0.0,0.0,0.0,0.0,0.0,0.0,-0.5299633330986524,0.0,0.0,0.0,0.0,0.0,0.0,-0.292,0.0
402,0.0,0.0,0.0,0.0,0.0,0.13646484375,0.0,0.0,0.0,0.0,0.0,0.0,-1.1915066426794976,0.0,0.0,0.0,0.0,0.0,0.0,-0.784,0.0
403,0.0,0.0,0.0,0.0,0.0,0.12678125,0.0,0.0,0.0,0.0,0.0,0.0,-0.5854431206631366,0.0,0.0,0.0,0.0,0.0,0.0,-0.376,0.0
404,0.0,0.0,0.0,0.0,0.0,0.1193701171875,0.0,0.0,0.0,0.0,0.0,0.0,-0.8933848052505732,0.0,0.0,0.0,0.0,0.0,0.0,-0.636,0.0
405,0.0,0.0,0.0,0.0,0.0,0.110306640625,0.0,0.0,0.0,0.0,0.0,0.0,-0.7113729459316241,0.0,0.0,0.0,0.0,0.0,0.0,-1.02,0.0
406,0.0,0.0,0.0,0.0,0.0,0.0993837890625,0.0,0.0,0.0,0.0,0.0,0.0,-0.8987876842947256,0.0,0.0,0.0,0.0,0.0,0.0,-0.616,0.0
407,0.0,0.0,0.0,0.0,0.0,0.089701171875,0.0,0.0,0.0,0.0,0.0,0.0,-0.7712254675092243,0.0,0.0,0.0,0.0,0.0,0.0,-0.948,0.0
408,0.0,0.0,0.0,0.0,0.0,0.0785712890625,0.0,0.0,0.0,0.0,0.0,0.0,-0.9153631937882842,0.0,0.0,0.0,0.0,0.0,0.0,-0.856,0.0
409,0.0,0.0,0.0,0.0,0.0,0.068681640625,0.0,0.0,0.0,0.0,0.0,0.0,-1.0171934770674604,0.0,0.0,0.0,0.0,0.0,0.0,-0.356,0.0
410,0.0,0.0,0.0,0.0,0.0,0.057978515625,0.0,0.0,0.0,0.0,0.0,0.0,-1.2627250192729234,0.0,0.0,0.0,0.0,0.0,0.0,-0.976,0.0
411,0.0,0.0,0.0,0.0,0.0,0.0437509765625,0.0,0.0,0.0,0.0,0.0,0.0,-1.2212970557740466,0.0,0.0,0.0,0.0,0.0,0.0,-0.664,0.0
412,0.0,0.0,0.0,0.0,0.0,0.0328408203125,0.0,0.0,0.0,0.0,0.0,0.0,-1.0678395592480476,0.0,0.0,0.0,0.0,0.0,0.0,-0.7,0.0
413,0.0,0.0,0.0,0.0,0.0,0.020265625,0.0,0.0,0.0,0.0,0.0,0.0,-0.5301868072809854,0.0,0.0,0.0,0.0,0.0,0.0,-0.852,0.0
414,0.0,0.0,0.0,0.0,0.0,0.006658203125,0.0,0.0,0.0,0.0,0.0,0.0,-0.6295209226167234,0.0,0.0,0.0,0.0,0.0,0.0,-0.344,0.0
415,0.0,0.0,0.0,0.0,0.0,-0.0038505859375,0.0,0.0,0.0,0.0,0.0,0.0,-0.7804143414454294,0.0,0.0,0.0,0.0,0.0,0.0,-0.864,0.0
416,0.0,0.0,0.0,0.0,0.0,-0.0162197265625,0.0,0.0,0.0,0.0,0.0,0.0,-1.1144273516589949,0.0,0.0,0.0,0.0,0.0,0.0,-0.832,0.0
417,0.0,0.0,0.0,0.0,0.0,-0.0287822265625,0.0,0.0,0.0,0.0,0.0,0.0,-1.0392280835657721,0.0,0.0,0.0,0.0,0.0,0.0,-0.448,0.0
418,0.0,0.0,0.0,0.0,0.0,-0.0405439453125,0.0,0.0,0.0,0.0,0.0,0.0,-1.1647719407007195,0.0,0.0,0.0,0.0,0.0,0.0,-0.78,0.0
419,0.0,0.0,0.0,0.0,0.0,-0.053119140625,0.0,0.0,0.0,0.0,0.0,0.0,-1.044615190127813,0.0,0.0,0.0,0.0,0.0,0.0,-0.368,0.0
420,0.0,0.0,0.0,0.0,0.0,-0.0638349609375,0.0,0.0,0.0,0.0,0.0,0.0,-0.6317666620974653,0.0,0.0,0.0,0.0,0.0,0.0,-0.356,0.0
421,0.0,0.0,0.0,0.0,0.0,-0.075583984375,0.0,0.0,0.0,0.0,0.0,0.0,-0.5599870922026058,0.0,0.0,0.0,0.0,0.0,0.0,-0.72,0.0
422,0.0,0.0,0.0,0.0,0.0,-0.0871396484375,0.0,0.0,0.0,0.0,0.0,0.0,-1.0643116036186397,0.0,0.0,0.0,0.0,0.0,0.0,-0.492,0.0
423,0.0,0.0,0.0,0.0,0.0,-0.0966162109375,0.0,0.0,0.0,0.0,0.0,0.0,-0.8834027701836662,0.0,0.0,0.0,0.0,0.0,0.0,-0.792,0.0
424,0.0,0.0,0.0,0.0,0.0,-0.10796484375,0.0,0.0,0.0,0.0,0.0,0.0,-1.1325819755212927,0.0,0.0,0.0,0.0,0.0,0.0,-0.524,0.0
425,0.0,0.0,0.0,0.0,0.0,-0.118900390625,0.0,0.0,0.0,0.0,0.0,0.0,-1.0141472167597168,0.0,0.0,0.0,0.0,0.0,0.0,-0.168,0.0
426,0.0,0.0,0.0,0.0,0.0,-0.1285966796875,0.0,0.0,0.0,0.0,0.0,0.0,-1.1794616852037454,0.0,0.0,0.0,0.0,0.0,0.0,-0.616,0.0
427,0.0,0.0,0.0,0.0,0.0,-0.138912109375,0.0,0.0,0.0,0.0,0.0,0.0,-0.6725464805456478,0.0,0.0,0.0,0.0,0.0,0.0,-0.488,0.0
428,0.0,0.0,0.0,0.0,0.0,-0.14798828125,0.0,0.0,0.0,0.0,0.0,0.0,-0.6859845118099799,0.0,0.0,0.0,0.0,0.0,0.0,-0.364,0.0
429,0.0,0.0,0.0,0.0,0.0,-0.15809765625,0.0,0.0,0.0,0.0,0.0,0.0,-0.6144107410048899,0.0,0.0,0.0,0.0,0.0,0.0,-0.812,0.0
430,0.0,0.0,0.0,0.0,0.0,-0.1688134765625,0.0,0.0,0.0,0.0,0.0,0.0,-0.8262404572515104,0.0,0.0,0.0,0.0,0.0,0.0,-0.468,0.0
431,0.0,0.0,0.0,0.0,0.0,-0.177283203125,0.0,0.0,0.0,0.0,0.0,0.0,-1.1948659957407395,0.0,0.0,0.0,0.0,0.0,0.0,-0.696,0.0
432,0.0,0.0,0.0,0.0,0.0,-0.1869794921875,0.0,0.0,0.0,0.0,0.0,0.0,-1.184142888722522,0.0,0.0,0.0,0.0,0.0,0.0,-0.656,0.0
433,0.0,0.0,0.0,0.0,0.0,-0.19646875,0.0,0.0,0.0,0.0,0.0,0.0,-1.0826017296078825,0.0,0.0,0.0,0.0,0.0,0.0,-0.296,0.0
434,0.0,0.0,0.0,0.0,0.0,-0.205958984375,0.0,0.0,0.0,0.0,0.0,0.0,-1.175542598768788,0.0,0.0,0.0,0.0,0.0,0.0,-0.688,0.0
435,0.0,0.0,0.0,0.0,0.0,-0.2162744140625,0.0,0.0,0.0,0.0,0.0,0.0,-1.1264450085879214,0.0,0.0,0.0,0.0,0.0,0.0,-0.676,0.0
436,0.0,0.0,0.0,0.0,0.0,-0.2255576171875,0.0,0.0,0.0,0.0,0.0,0.0,-0.7880182820380264,0.0,0.0,0.0,0.0,0.0,0.0,-0.492,0.0
437,0.0,0.0,0.0,0.0,0.0,-0.2346337890625,0.0,0.0,0.0,0.0,0.0,0.0,-0.8893180412762598,0.0,0.0,0.0,0.0,0.0,0.0,-0.624,0.0
438,0.0,0.0,0.0,0.0,0.0,-0.24558203125,0.0,0.0,0.0,0.0,0.0,0.0,-1.0341152001998515,0.0,0.0,0.0,0.0,0.0,0.0,-0.572,0.0
439,0.0,0.0,0.0,0.0,0.0,-0.2552783203125,0.0,0.0,0.0,0.0,0.0,0.0,-0.9056120252338755,0.0,0.0,0.0,0.0,0.0,0.0,-0.72,0.0
440,0.0,0.0,0.0,0.0,0.0,-0.264767578125,0.0,0.0,0.0,0.0,0.0,0.0,-1.0166770722112688,0.0,0.0,0.0,0.0,0.0,0.0,-0.98,0.0
441,0.0,0.0,0.0,0.0,0.0,-0.2740634765625,0.0,0.0,0.0,0.0,0.0,0.0,-0.9398452537577886,0.0,0.0,0.0,0.0,0.0,0.0,-0.592,0.0
442,0.0,0.0,0.0,0.0,0.0,-0.285412109375,0.0,0.0,0.0,0.0,0.0,0.0,-0.8123985602407924,0.0,0.0,0.0,0.0,0.0,0.0,-0.556,0.0
443,0.0,0.0,0.0,0.0,0.0,-0.2965673828125,0.0,0.0,0.0,0.0,0.0,0.0,-0.9732137083032819,0.0,0.0,0.0,0.0,0.0,0.0,-0.576,0.0
444,0.0,0.0,0.0,0.0,0.0,-0.306896484375,0.0,0.0,0.0,0.0,0.0,0.0,-1.0974224667810788,0.0,0.0,0.0,0.0,0.0,0.0,-0.532,0.0
445,0.0,0.0,0.0,0.0,0.0,-0.3168115234375,0.0,0.0,0.0,0.0,0.0,0.0,-0.9557658794131132,0.0,0.0,0.0,0.0,0.0,0.0,-0.668,0.0
446,0.0,0.0,0.0,0.0,0.0,-0.3277470703125,0.0,0.0,0.0,0.0,0.0,0.0,-0.78776260988317,0.0,0.0,0.0,0.0,0.0,0.0,-0.68,0.0
447,0.0,0.0,0.0,0.0,0.0,-0.3393154296875,0.0,0.0,0.0,0.0,0.0,0.0,-0.7547737607090752,0.0,0.0,0.0,0.0,0.0,0.0,-0.572,0.0
448,0.0,0.0,0.0,0.0,0.0,-0.3496318359375,0.0,0.0,0.0,0.0,0.0,0.0,-0.6419132675800063,0.0,0.0,0.0,0.0,0.0,0.0,-0.656,0.0
449,0.0,0.0,0.0,0.0,0.0,-0.3599599609375,0.0,0.0,0.0,0.0,0.0,0.0,-1.1337902056329934,0.0,0.0,0.0,0.0,0.0,0.0,-0.608,0.0
450,0.0,0.0,0.0,0.0,0.0,-0.3707021484375,0.0,0.0,0.0,0.0,0.0,0.0,-0.6377088697653367,0.0,0.0,0.0,0.0,0.0,0.0,-0.5,0.0
451,0.0,0.0,0.0,0.0,0.0,-0.3822705078125,0.0,0.0,0.0,0.0,0.0,0.0,-0.7663652098798641,0.0,0.0,0.0,0.0,0.0,0.0,-0.472,0.0
452,0.0,0.0,0.0,0.0,0.0,-0.3928056640625,0.0,0.0,0.0,0.0,0.0,0.0,-1.0424853365866489,0.0,0.0,0.0,0.0,0.0,0.0,-0.564,0.0
453,0.0,0.0,0.0,0.0,0.0,-0.403134765625,0.0,0.0,0.0,0.0,0.0,0.0,-0.6077536278849236,0.0,0.0,0.0,0.0,0.0,0.0,-0.544,0.0
454,0.0,0.0,0.0,0.0,0.0,-0.4140830078125,0.0,0.0,0.0,0.0,0.0,0.0,-1.2804794995661757,0.0,0.0,0.0,0.0,0.0,0.0,-0.472,0.0
455,0.0,0.0,0.0,0.0,0.0,-0.4242177734375,0.0,0.0,0.0,0.0,0.0,0.0,-0.9040286400949269,0.0,0.0,0.0,0.0,0.0,0.0,-0.576,0.0
456,0.0,0.0,0.0,0.0,0.0,-0.4357861328125,0.0,0.0,0.0,0.0,0.0,0.0,-0.7891147287707632,0.0,0.0,0.0,0.0,0.0,0.0,-0.636,0.0
457,0.0,0.0,0.0,0.0,0.0,-0.4457021484375,0.0,0.0,0.0,0.0,0.0,0.0,-1.0014839406229732,0.0,0.0,0.0,0.0,0.0,0.0,-0.564,0.0
458,0.0,0.0,0.0,0.0,0.0,-0.4560302734375,0.0,0.0,0.0,0.0,0.0,0.0,-1.1469275600900386,0.0,0.0,0.0,0.0,0.0,0.0,-0.564,0.0
459,0.0,0.0,0.0,0.0,0.0,-0.4675986328125,0.0,0.0,0.0,0.0,0.0,0.0,-1.1178523370482596,0.0,0.0,0.0,0.0,0.0,0.0,-0.384,0.0
460,0.0,0.0,0.0,0.0,0.0,-0.4779404296875,0.0,0.0,0.0,0.0,0.0,0.0,-1.2950872132631956,0.0,0.0,0.0,0.0,0.0,0.0,-0.44,0.0
461,0.0,0.0,0.0,0.0,0.0,-0.4876494140625,0.0,0.0,0.0,0.0,0.0,0.0,-0.5031404122101244,0.0,0.0,0.0,0.0,0.0,0.0,-0.556,0.0
462,0.0,0.0,0.0,0.0,0.0,-0.497771484375,0.0,0.0,0.0,0.0,0.0,0.0,0.6633949291556953,0.0,0.0,0.0,0.0,0.0,0.0,-0.436,0.0
463,0.0,0.0,0.0,0.0,0.0,-0.5087333984375,0.0,0.0,0.0,0.0,0.0,0.0,1.2864005559705158,0.0,0.0,0.0,0.0,0.0,0.0,-0.54,0.0
464,0.0,0.0,0.0,0.0,0.0,-0.517203125,0.0,0.0,0.0,0.0,0.0,0.0,0.699285067480691,0.0,0.0,0.0,0.0,0.0,0.0,-0.428,0.0
465,0.0,0.0,0.0,0.0,0.0,-0.523826171875,0.0,0.0,0.0,0.0,0.0,0.0,1.179644544143303,0.0,0.0,0.0,0.0,0.0,0.0,-0.12,0.0
466,0.0,0.0,0.0,0.0,0.0,-0.5269248046875,0.0,0.0,0.0,0.0,0.0,0.0,0.8974021812504756,0.0,0.0,0.0,0.0,0.0,0.0,-0.032,0.0
467,0.0,0.0,0.0,0.0,0.0,-0.5275439453125,0.0,0.0,0.0,0.0,0.0,0.0,0.8584943238060548,0.0,0.0,0.0,0.0,0.0,0.0,-0.056,0.0
468,0.0,0.0,0.0,0.0,0.0,-0.525478515625,0.0,0.0,0.0,0.0,0.0,0.0,0.9258876768010937,0.0,0.0,0.0,0.0,0.0,0.0,0.036,0.0
469,0.0,0.0,0.0,0.0,0.0,-0.519681640625,0.0,0.0,0.0,0.0,0.0,0.0,0.9064115104093575,0.0,0.0,0.0,0.0,0.0,0.0,-0.232,0.0
470,0.0,0.0,0.0,0.0,0.0,-0.5120380859375,0.0,0.0,0.0,0.0,0.0,0.0,0.9896491787593178,0.0,0.0,0.0,0.0,0.0,0.0,-0.084,0.0
471,0.0,0.0,0.0,0.0,0.0,-0.501296875,0.0,0.0,0.0,0.0,0.0,0.0,0.911323010653486,0.0,0.0,0.0,0.0,0.0,0.0,0.316,0.0
472,0.0,0.0,0.0,0.0,0.0,-0.4895087890625,0.0,0.0,0.0,0.0,0.0,0.0,0.5540693401429033,0.0,0.0,0.0,0.0,0.0,0.0,0.26,0.0
473,0.0,0.0,0.0,0.0,0.0,-0.47566796875,0.0,0.0,0.0,0.0,0.0,0.0,0.6400194039967324,0.0,0.0,0.0,0.0,0.0,0.0,-0.128,0.0
474,0.0,0.0,0.0,0.0,0.0,-0.4593359375,0.0,0.0,0.0,0.0,0.0,0.0,1.2561374194968344,0.0,0.0,0.0,0.0,0.0,0.0,0.172,0.0
475,0.0,0.0,0.0,0.0,0.0,-0.439091796875,0.0,0.0,0.0,0.0,0.0,0.0,1.0072182466386228,0.0,0.0,0.0,0.0,0.0,0.0,-0.356,0.0
476,0.0,0.0,0.0,0.0,0.0,-0.42215234375,0.0,0.0,0.0,0.0,0.0,0.0,1.003077294140577,0.0,0.0,0.0,0.0,0.0,0.0,-0.348,0.0
477,0.0,0.0,0.0,0.0,0.0,-0.404580078125,0.0,0.0,0.0,0.0,0.0,0.0,1.1961628396451625,0.0,0.0,0.0,0.0,0.0,0.0,0.5,0.0
478,0.0,0.0,0.0,0.0,0.0,-0.3820634765625,0.0,0.0,0.0,0.0,0.0,0.0,0.6870872796831213,0.0,0.0,0.0,0.0,0.0,0.0,-0.832,0.0
479,0.0,0.0,0.0,0.0,0.0,-0.3634716796875,0.0,0.0,0.0,0.0,0.0,0.0,1.0177113933563815,0.0,0.0,0.0,0.0,0.0,0.0,0.088,0.0
480,0.0,0.0,0.0,0.0,0.0,-0.343240234375,0.0,0.0,0.0,0.0,0.0,0.0,1.2998905022331653,0.0,0.0,0.0,0.0,0.0,0.0,-0.768,0.0
481,0.0,0.0,0.0,0.0,0.0,-0.3250625,0.0,0.0,0.0,0.0,0.0,0.0,0.9387561873169413,0.0,0.0,0.0,0.0,0.0,0.0,-0.488,0.0
482,0.0,0.0,0.0,0.0,0.0,-0.3064833984375,0.0,0.0,0.0,0.0,0.0,0.0,1.0569202370836435,0.0,0.0,0.0,0.0,0.0,0.0,-0.428,0.0
483,0.0,0.0,0.0,0.0,0.0,-0.289556640625,0.0,0.0,0.0,0.0,0.0,0.0,1.1374322669915986,0.0,0.0,0.0,0.0,0.0,0.0,-0.644,0.0
484,0.0,0.0,0.0,0.0,0.0,-0.27282421875,0.0,0.0,0.0,0.0,0.0,0.0,1.1759867924517236,0.0,0.0,0.0,0.0,0.0,0.0,-0.192,0.0
485,0.0,0.0,0.0,0.0,0.0,-0.2581708984375,0.0,0.0,0.0,0.0,0.0,0.0,0.9295867972049666,0.0,0.0,0.0,0.0,0.0,0.0,-1.372,0.0
486,0.0,0.0,0.0,0.0,0.0,-0.2445498046875,0.0,0.0,0.0,0.0,0.0,0.0,0.6068598183785106,0.0,0.0,0.0,0.0,0.0,0.0,-0.664,0.0
487,0.0,0.0,0.0,0.0,0.0,-0.2301025390625,0.0,0.0,0.0,0.0,0.0,0.0,1.2688368962236432,0.0,0.0,0.0,0.0,0.0,0.0,-0.54,0.0
488,0.0,0.0,0.0,0.0,0.0,-0.2189599609375,0.0,0.0,0.0,0.0,0.0,0.0,1.0340185790784562,0.0,0.0,0.0,0.0,0.0,0.0,-1.328,0.0
489,0.0,0.0,0.0,0.0,0.0,-0.210490234375,0.0,0.0,0.0,0.0,0.0,0.0,0.8888301555636042,0.0,0.0,0.0,0.0,0.0,0.0,-0.304,0.0
490,0.0,0.0,0.0,0.0,0.0,-0.19853515625,0.0,0.0,0.0,0.0,0.0,0.0,1.0002783246556837,0.0,0.0,0.0,0.0,0.0,0.0,-0.844,0.0
491,0.0,0.0,0.0,0.0,0.0,-0.19109765625,0.0,0.0,0.0,0.0,0.0,0.0,1.0540886671743,0.0,0.0,0.0,0.0,0.0,0.0,-1.02,0.0
492,0.0,0.0,0.0,0.0,0.0,-0.1845009765625,0.0,0.0,0.0,0.0,0.0,0.0,0.886213402475106,0.0,0.0,0.0,0.0,0.0,0.0,-0.208,0.0
493,0.0,0.0,0.0,0.0,0.0,-0.1766640625,0.0,0.0,0.0,0.0,0.0,0.0,0.6054652679067726,0.0,0.0,0.0,0.0,0.0,0.0,-1.268,0.0
494,0.0,0.0,0.0,0.0,0.0,-0.172119140625,0.0,0.0,0.0,0.0,0.0,0.0,1.189577848610079,0.0,0.0,0.0,0.0,0.0,0.0,-0.896,0.0
495,0.0,0.0,0.0,0.0,0.0,-0.1653154296875,0.0,0.0,0.0,0.0,0.0,0.0,1.173858175790906,0.0,0.0,0.0,0.0,0.0,0.0,-0.552,0.0
496,0.0,0.0,0.0,0.0,0.0,-0.1585107421875,0.0,0.0,0.0,0.0,0.0,0.0,0.7367184756077756,0.0,0.0,0.0,0.0,0.0,0.0,-1.28,0.0
497,0.0,0.0,0.0,0.0,0.0,-0.1545859375,0.0,0.0,0.0,0.0,0.0,0.0,1.1283676804688536,0.0,0.0,0.0,0.0,0.0,0.0,-0.344,0.0
498,0.0,0.0,0.0,0.0,0.0,-0.1475751953125,0.0,0.0,0.0,0.0,0.0,0.0,1.0749433514961404,0.0,0.0,0.0,0.0,0.0,0.0,-0.24,0.0
499,0.0,0.0,0.0,0.0,0.0,-0.1411845703125,0.0,0.0,0.0,0.0,0.0,0.0,0.6903477421883684,0.0,0.0,0.0,0.0,0.0,0.0,-1.008,0.0
500,0.0,0.0,0.0,0.0,0.0,-0.13643359375,0.0,0.0,0.0,0.0,0.0,0.0,0.9099276186486258,0.0,0.0,0.0,0.0,0.0,0.0,-0.18,0.0
501,0.0,0.0,0.0,0.0,0.0,-0.1281826171875,0.0,0.0,0.0,0.0,0.0,0.0,0.5006833678496758,0.0,0.0,0.0,0.0,0.0,0.0,-0.644,0.0
502,0.0,0.0,0.0,0.0,0.0,-0.122205078125,0.0,0.0,0.0,0.0,0.0,0.0,1.0833779076137364,0.0,0.0,0.0,0.0,0.0,0.0,-0.644,0.0
503,0.0,0.0,0.0,0.0,0.0,-0.11435546875,0.0,0.0,0.0,0.0,0.0,0.0,1.1996374945737316,0.0,0.0,0.0,0.0,0.0,0.0,0.188,0.0
504,0.0,0.0,0.0,0.0,0.0,-0.105279296875,0.0,0.0,0.0,0.0,0.0,0.0,1.0177036084565816,0.0,0.0,0.0,0.0,0.0,0.0,-0.512,0.0
505,0.0,0.0,0.0,0.0,0.0,-0.096822265625,0.0,0.0,0.0,0.0,0.0,0.0,0.6938393876960777,0.0,0.0,0.0,0.0,0.0,0.0,-0.356,0.0
506,0.0,0.0,0.0,0.0,0.0,-0.0867255859375,0.0,0.0,0.0,0.0,0.0,0.0,0.6855801533536728,0.0,0.0,0.0,0.0,0.0,0.0,-0.416,0.0
507,0.0,0.0,0.0,0.0,0.0,-0.0766171875,0.0,0.0,0.0,0.0,0.0,0.0,1.2825116197627864,0.0,0.0,0.0,0.0,0.0,0.0,-0.856,0.0
508,0.0,0.0,0.0,0.0,0.0,-0.0667265625,0.0,0.0,0.0,0.0,0.0,0.0,1.1248236109358238,0.0,0.0,0.0,0.0,0.0,0.0,0.068,0.0
509,0.0,0.0,0.0,0.0,0.0,-0.054138671875,0.0,0.0,0.0,0.0,0.0,0.0,1.1299330577358018,0.0,0.0,0.0,0.0,0.0,0.0,-0.24,0.0
510,0.0,0.0,0.0,0.0,0.0,-0.0444560546875,0.0,0.0,0.0,0.0,0.0,0.0,1.1761781077111162,0.0,0.0,0.0,0.0,0.0,0.0,-0.748,0.0
511,0.0,0.0,0.0,0.0,0.0,-0.031880859375,0.0,0.0,0.0,0.0,0.0,0.0,0.6706386710368835,0.0,0.0,0.0,0.0,0.0,0.0,-0.004,0.0
512,0.0,0.0,0.0,0.0,0.0,-0.0182724609375,0.0,0.0,0.0,0.0,0.0,0.0,0.6388532360615284,0.0,0.0,0.0,0.0,0.0,0.0,-0.576,0.0
513,0.0,0.0,0.0,0.0,0.0,-0.007349609375,0.0,0.0,0.0,0.0,0.0,0.0,1.259933561548054,0.0,0.0,0.0,0.0,0.0,0.0,-0.44,0.0
514,0.0,0.0,0.0,0.0,0.0,0.0050185546875,0.0,0.0,0.0,0.0,0.0,0.0,1.1777450663281215,0.0,0.0,0.0,0.0,0.0,0.0,-0.284,0.0
515,0.0,0.0,0.0,0.0,0.0,0.0171669921875,0.0,0.0,0.0,0.0,0.0,0.0,0.5991587229895097,0.0,0.0,0.0,0.0,0.0,0.0,-0.716,0.0
516,0.0,0.0,0.0,0.0,0.0,0.0303623046875,0.0,0.0,0.0,0.0,0.0,0.0,1.0194345849461546,0.0,0.0,0.0,0.0,0.0,0.0,-0.232,0.0
517,0.0,0.0,0.0,0.0,0.0,0.0433505859375,0.0,0.0,0.0,0.0,0.0,0.0,1.012848338710725,0.0,0.0,0.0,0.0,0.0,0.0,-0.648,0.0
518,0.0,0.0,0.0,0.0,0.0,0.0550869140625,0.0,0.0,0.0,0.0,0.0,0.0,1.2599831175381206,0.0,0.0,0.0,0.0,0.0,0.0,-0.616,0.0
519,0.0,0.0,0.0,0.0,0.0,0.0672490234375,0.0,0.0,0.0,0.0,0.0,0.0,0.6864035202783603,0.0,0.0,0.0,0.0,0.0,0.0,-0.084,0.0
520,0.0,0.0,0.0,0.0,0.0,0.080224609375,0.0,0.0,0.0,0.0,0.0,0.0,0.7061661171939322,0.0,0.0,0.0,0.0,0.0,0.0,-0.82,0.0
521,0.0,0.0,0.0,0.0,0.0,0.09052734375,0.0,0.0,0.0,0.0,0.0,0.0,0.7480705448575551,0.0,0.0,0.0,0.0,0.0,0.0,-0.716,0.0
522,0.0,0.0,0.0,0.0,0.0,0.1026767578125,0.0,0.0,0.0,0.0,0.0,0.0,0.5801529655531562,0.0,0.0,0.0,0.0,0.0,0.0,-0.452,0.0
523,0.0,0.0,0.0,0.0,0.0,0.1146318359375,0.0,0.0,0.0,0.0,0.0,0.0,1.2980230469070069,0.0,0.0,0.0,0.0,0.0,0.0,-0.812,0.0
524,0.0,0.0,0.0,0.0,0.0,0.1245087890625,0.0,0.0,0.0,0.0,0.0,0.0,0.7560465451199768,0.0,0.0,0.0,0.0,0.0,0.0,-0.436,0.0
525,0.0,0.0,0.0,0.0,0.0,0.135431640625,0.0,0.0,0.0,0.0,0.0,0.0,0.9903290622101576,0.0,0.0,0.0,0.0,0.0,0.0,-0.46,0.0
526,0.0,0.0,0.0,0.0,0.0,0.146134765625,0.0,0.0,0.0,0.0,0.0,0.0,0.7360102160182389,0.0,0.0,0.0,0.0,0.0,0.0,-0.648,0.0
527,0.0,0.0,0.0,0.0,0.0,0.1560244140625,0.0,0.0,0.0,0.0,0.0,0.0,0.8254516971231977,0.0,0.0,0.0,0.0,0.0,0.0,-0.292,0.0
528,0.0,0.0,0.0,0.0,0.0,0.1667275390625,0.0,0.0,0.0,0.0,0.0,0.0,0.818403950177961,0.0,0.0,0.0,0.0,0.0,0.0,-0.8,0.0
529,0.0,0.0,0.0,0.0,0.0,0.1755849609375,0.0,0.0,0.0,0.0,0.0,0.0,1.2320289221579515,0.0,0.0,0.0,0.0,0.0,0.0,-0.852,0.0
530,0.0,0.0,0.0,0.0,0.0,0.1840283203125,0.0,0.0,0.0,0.0,0.0,0.0,1.1378175536434614,0.0,0.0,0.0,0.0,0.0,0.0,-0.416,0.0
531,0.0,0.0,0.0,0.0,0.0,0.1953515625,0.0,0.0,0.0,0.0,0.0,0.0,1.1701805927195172,0.0,0.0,0.0,0.0,0.0,0.0,-0.564,0.0
532,0.0,0.0,0.0,0.0,0.0,0.2044150390625,0.0,0.0,0.0,0.0,0.0,0.0,0.8227417110760943,0.0,0.0,0.0,0.0,0.0,0.0,-0.416,0.0
533,0.0,0.0,0.0,0.0,0.0,0.21409765625,0.0,0.0,0.0,0.0,0.0,0.0,1.0354967300111413,0.0,0.0,0.0,0.0,0.0,0.0,-0.436,0.0
534,0.0,0.0,0.0,0.0,0.0,0.2235615234375,0.0,0.0,0.0,0.0,0.0,0.0,0.6396533049358917,0.0,0.0,0.0,0.0,0.0,0.0,-0.72,0.0
535,0.0,0.0,0.0,0.0,0.0,0.2322119140625,0.0,0.0,0.0,0.0,0.0,0.0,0.7443230879815388,0.0,0.0,0.0,0.0,0.0,0.0,-0.296,0.0
536,0.0,0.0,0.0,0.0,0.0,0.2420888671875,0.0,0.0,0.0,0.0,0.0,0.0,0.5794953429816538,0.0,0.0,0.0,0.0,0.0,0.0,-0.2,0.0
537,0.0,0.0,0.0,0.0,0.0,0.2517587890625,0.0,0.0,0.0,0.0,0.0,0.0,0.504654957656361,0.0,0.0,0.0,0.0,0.0,0.0,-0.544,0.0
538,0.0,0.0,0.0,0.0,0.0,0.2606162109375,0.0,0.0,0.0,0.0,0.0,0.0,0.7000224992328824,0.0,0.0,0.0,0.0,0.0,0.0,-0.492,0.0
539,0.0,0.0,0.0,0.0,0.0,0.27069921875,0.0,0.0,0.0,0.0,0.0,0.0,0.7992932563915487,0.0,0.0,0.0,0.0,0.0,0.0,-0.584,0.0
540,0.0,0.0,0.0,0.0,0.0,0.2803701171875,0.0,0.0,0.0,0.0,0.0,0.0,0.9416913347378257,0.0,0.0,0.0,0.0,0.0,0.0,-0.492,0.0
541,0.0,0.0,0.0,0.0,0.0,0.2898466796875,0.0,0.0,0.0,0.0,0.0,0.0,0.664319565891318,0.0,0.0,0.0,0.0,0.0,0.0,-0.128,0.0
542,0.0,0.0,0.0,0.0,0.0,0.3003427734375,0.0,0.0,0.0,0.0,0.0,0.0,0.6660703551838413,0.0,0.0,0.0,0.0,0.0,0.0,-0.344,0.0
543,0.0,0.0,0.0,0.0,0.0,0.310013671875,0.0,0.0,0.0,0.0,0.0,0.0,0.6350182136246298,0.0,0.0,0.0,0.0,0.0,0.0,-0.388,0.0
544,0.0,0.0,0.0,0.0,0.0,0.3203037109375,0.0,0.0,0.0,0.0,0.0,0.0,0.6984180286044217,0.0,0.0,0.0,0.0,0.0,0.0,-0.128,0.0
545,0.0,0.0,0.0,0.0,0.0,0.3314072265625,0.0,0.0,0.0,0.0,0.0,0.0,0.6996917572450129,0.0,0.0,0.0,0.0,0.0,0.0,-0.364,0.0
546,0.0,0.0,0.0,0.0,0.0,0.341490234375,0.0,0.0,0.0,0.0,0.0,0.0,0.9502874758650859,0.0,0.0,0.0,0.0,0.0,0.0,-0.54,0.0
547,0.0,0.0,0.0,0.0,0.0,0.3517802734375,0.0,0.0,0.0,0.0,0.0,0.0,0.7499075695245673,0.0,0.0,0.0,0.0,0.0,0.0,-0.42,0.0
548,0.0,0.0,0.0,0.0,0.0,0.3626904296875,0.0,0.0,0.0,0.0,0.0,0.0,1.1834808950213012,0.0,0.0,0.0,0.0,0.0,0.0,-0.472,0.0
549,0.0,0.0,0.0,0.0,0.0,0.3735869140625,0.0,0.0,0.0,0.0,0.0,0.0,0.6038403020638524,0.0,0.0,0.0,0.0,0.0,0.0,-0.212,0.0
550,0.0,0.0,0.0,0.0,0.0,0.38491015625,0.0,0.0,0.0,0.0,0.0,0.0,0.9278842810987233,0.0,0.0,0.0,0.0,0.0,0.0,-0.304,0.0
551,0.0,0.0,0.0,0.0,0.0,0.395806640625,0.0,0.0,0.0,0.0,0.0,0.0,0.7153327427641791,0.0,0.0,0.0,0.0,0.0,0.0,-0.452,0.0
552,0.0,0.0,0.0,0.0,0.0,0.406302734375,0.0,0.0,0.0,0.0,0.0,0.0,0.7744498525570497,0.0,0.0,0.0,0.0,0.0,0.0,-0.292,0.0
553,0.0,0.0,0.0,0.0,0.0,0.4178193359375,0.0,0.0,0.0,0.0,0.0,0.0,1.1411967245275574,0.0,0.0,0.0,0.0,0.0,0.0,-0.192,0.0
554,0.0,0.0,0.0,0.0,0.0,0.4291298828125,0.0,0.0,0.0,0.0,0.0,0.0,0.5946107061949444,0.0,0.0,0.0,0.0,0.0,0.0,-0.532,0.0
555,0.0,0.0,0.0,0.0,0.0,0.439419921875,0.0,0.0,0.0,0.0,0.0,0.0,0.8603390872435561,0.0,0.0,0.0,0.0,0.0,0.0,-0.524,0.0
556,0.0,0.0,0.0,0.0,0.0,0.4505234375,0.0,0.0,0.0,0.0,0.0,0.0,0.8967913637321545,0.0,0.0,0.0,0.0,0.0,0.0,-0.348,0.0
557,0.0,0.0,0.0,0.0,0.0,0.4608134765625,0.0,0.0,0.0,0.0,0.0,0.0,1.261427489301431,0.0,0.0,0.0,0.0,0.0,0.0,-0.26,0.0
558,0.0,0.0,0.0,0.0,0.0,0.47294921875,0.0,0.0,0.0,0.0,0.0,0.0,1.1166456002795488,0.0,0.0,0.0,0.0,0.0,0.0,-0.428,0.0
559,0.0,0.0,0.0,0.0,0.0,0.4832265625,0.0,0.0,0.0,0.0,0.0,0.0,0.7648265345549161,0.0,0.0,0.0,0.0,0.0,0.0,-0.272,0.0
560,0.0,0.0,0.0,0.0,0.0,0.4939169921875,0.0,0.0,0.0,0.0,0.0,0.0,1.0166735666152191,0.0,0.0,0.0,0.0,0.0,0.0,-0.208,0.0
561,0.0,0.0,0.0,0.0,0.0,0.5050205078125,0.0,0.0,0.0,0.0,0.0,0.0,0.6576397882942031,0.0,0.0,0.0,0.0,0.0,0.0,-0.244,0.0
562,0.0,0.0,0.0,0.0,0.0,0.5146904296875,0.0,0.0,0.0,0.0,0.0,0.0,0.6591097493736734,0.0,0.0,0.0,0.0,0.0,0.0,-0.472,0.0
563,0.0,0.0,0.0,0.0,0.0,0.5257939453125,0.0,0.0,0.0,0.0,0.0,0.0,0.5724708990390799,0.0,0.0,0.0,0.0,0.0,0.0,-0.452,0.0
564,0.0,0.0,0.0,0.0,0.0,0.5360712890625,0.0,0.0,0.0,0.0,0.0,0.0,-0.6402717575625463,0.0,0.0,0.0,0.0,0.0,0.0,-0.316,0.0
565,0.0,0.0,0.0,0.0,0.0,0.54676171875,0.0,0.0,0.0,0.0,0.0,0.0,-0.7761545209386008,0.0,0.0,0.0,0.0,0.0,0.0,-0.116,0.0
566,0.0,0.0,0.0,0.0,0.0,0.557451171875,0.0,0.0,0.0,0.0,0.0,0.0,-0.5737581946292335,0.0,0.0,0.0,0.0,0.0,0.0,-0.304,0.0
567,0.0,0.0,0.0,0.0,0.0,0.56567578125,0.0,0.0,0.0,0.0,0.0,0.0,-0.679310482617763,0.0,0.0,0.0,0.0,0.0,0.0,-0.688,0.0
568,0.0,0.0,0.0,0.0,0.0,0.5700009765625,0.0,0.0,0.0,0.0,0.0,0.0,-1.1950216947722598,0.0,0.0,0.0,0.0,0.0,0.0,-0.988,0.0
569,0.0,0.0,0.0,0.0,0.0,0.5710205078125,0.0,0.0,0.0,0.0,0.0,0.0,-1.0461373836891608,0.0,0.0,0.0,0.0,0.0,0.0,-0.772,0.0
570,0.0,0.0,0.0,0.0,0.0,0.5702080078125,0.0,0.0,0.0,0.0,0.0,0.0,-0.9756273428355244,0.0,0.0,0.0,0.0,0.0,0.0,-0.836,0.0
571,0.0,0.0,0.0,0.0,0.0,0.5658828125,0.0,0.0,0.0,0.0,0.0,0.0,-1.1711173323651964,0.0,0.0,0.0,0.0,0.0,0.0,-0.896,0.0
572,0.0,0.0,0.0,0.0,0.0,0.5588974609375,0.0,0.0,0.0,0.0,0.0,0.0,-0.663256340707308,0.0,0.0,0.0,0.0,0.0,0.0,-0.616,0.0
573,0.0,0.0,0.0,0.0,0.0,0.5498466796875,0.0,0.0,0.0,0.0,0.0,0.0,-1.1800362205261128,0.0,0.0,0.0,0.0,0.0,0.0,-0.76,0.0
574,0.0,0.0,0.0,0.0,0.0,0.5379296875,0.0,0.0,0.0,0.0,0.0,0.0,-1.1288890334783748,0.0,0.0,0.0,0.0,0.0,0.0,-1.136,0.0
575,0.0,0.0,0.0,0.0,0.0,0.523328125,0.0,0.0,0.0,0.0,0.0,0.0,-0.7413621919841575,0.0,0.0,0.0,0.0,0.0,0.0,-0.916,0.0
576,0.0,0.0,0.0,0.0,0.0,0.5078994140625,0.0,0.0,0.0,0.0,0.0,0.0,-1.014597006442485,0.0,0.0,0.0,0.0,0.0,0.0,-0.644,0.0
577,0.0,0.0,0.0,0.0,0.0,0.4908310546875,0.0,0.0,0.0,0.0,0.0,0.0,-1.0055184186281791,0.0,0.0,0.0,0.0,0.0,0.0,-0.812,0.0
578,0.0,0.0,0.0,0.0,0.0,0.472123046875,0.0,0.0,0.0,0.0,0.0,0.0,-1.1135364333565492,0.0,0.0,0.0,0.0,0.0,0.0,-0.44,0.0
579,0.0,0.0,0.0,0.0,0.0,0.454228515625,0.0,0.0,0.0,0.0,0.0,0.0,-1.270317308409593,0.0,0.0,0.0,0.0,0.0,0.0,-0.748,0.0
580,0.0,0.0,0.0,0.0,0.0,0.43428125,0.0,0.0,0.0,0.0,0.0,0.0,-1.04189250069121,0.0,0.0,0.0,0.0,0.0,0.0,-1.04,0.0
581,0.0,0.0,0.0,0.0,0.0,0.4141142578125,0.0,0.0,0.0,0.0,0.0,0.0,-0.690314198763769,0.0,0.0,0.0,0.0,0.0,0.0,-0.324,0.0
582,0.0,0.0,0.0,0.0,0.0,0.3949931640625,0.0,0.0,0.0,0.0,0.0,0.0,-1.1301356357789145,0.0,0.0,0.0,0.0,0.0,0.0,-0.48,0.0
583,0.0,0.0,0.0,0.0,0.0,0.37565234375,0.0,0.0,0.0,0.0,0.0,0.0,-1.0575083068167537,0.0,0.0,0.0,0.0,0.0,0.0,-0.24,0.0
584,0.0,0.0,0.0,0.0,0.0,0.3577451171875,0.0,0.0,0.0,0.0,0.0,0.0,-1.1634173426139807,0.0,0.0,0.0,0.0,0.0,0.0,-0.5,0.0
585,0.0,0.0,0.0,0.0,0.0,0.3419033203125,0.0,0.0,0.0,0.0,0.0,0.0,-1.1841106989252683,0.0,0.0,0.0,0.0,0.0,0.0,-0.616,0.0
586,0.0,0.0,0.0,0.0,0.0,0.3238017578125,0.0,0.0,0.0,0.0,0.0,0.0,-0.8634831863803685,0.0,0.0,0.0,0.0,0.0,0.0,-0.304,0.0
587,0.0,0.0,0.0,0.0,0.0,0.30775390625,0.0,0.0,0.0,0.0,0.0,0.0,-1.1007995285431047,0.0,0.0,0.0,0.0,0.0,0.0,-0.316,0.0
588,0.0,0.0,0.0,0.0,0.0,0.293138671875,0.0,0.0,0.0,0.0,0.0,0.0,-0.7233771023559761,0.0,0.0,0.0,0.0,0.0,0.0,0.148,0.0
589,0.0,0.0,0.0,0.0,0.0,0.2811962890625,0.0,0.0,0.0,0.0,0.0,0.0,-0.8422335150242983,0.0,0.0,0.0,0.0,0.0,0.0,-0.24,0.0
590,0.0,0.0,0.0,0.0,0.0,0.268646484375,0.0,0.0,0.0,0.0,0.0,0.0,-0.9482417851101681,0.0,0.0,0.0,0.0,0.0,0.0,-0.452,0.0
591,0.0,0.0,0.0,0.0,0.0,0.257943359375,0.0,0.0,0.0,0.0,0.0,0.0,-0.6116989267491536,0.0,0.0,0.0,0.0,0.0,0.0,-0.156,0.0
592,0.0,0.0,0.0,0.0,0.0,0.24929296875,0.0,0.0,0.0,0.0,0.0,0.0,-0.8187703347884312,0.0,0.0,0.0,0.0,0.0,0.0,-0.556,0.0
593,0.0,0.0,0.0,0.0,0.0,0.24044921875,0.0,0.0,0.0,0.0,0.0,0.0,-0.5376783763714872,0.0,0.0,0.0,0.0,0.0,0.0,-0.172,0.0
594,0.0,0.0,0.0,0.0,0.0,0.232005859375,0.0,0.0,0.0,0.0,0.0,0.0,-1.022730842135425,0.0,0.0,0.0,0.0,0.0,0.0,0.044,0.0
595,0.0,0.0,0.0,0.0,0.0,0.2254208984375,0.0,0.0,0.0,0.0,0.0,0.0,-1.03936710725407,0.0,0.0,0.0,0.0,0.0,0.0,-0.436,0.0
596,0.0,0.0,0.0,0.0,0.0,0.2190302734375,0.0,0.0,0.0,0.0,0.0,0.0,-0.7100795260715771,0.0,0.0,0.0,0.0,0.0,0.0,-0.284,0.0
597,0.0,0.0,0.0,0.0,0.0,0.21265234375,0.0,0.0,0.0,0.0,0.0,0.0,-1.1935861596910766,0.0,0.0,0.0,0.0,0.0,0.0,-0.336,0.0
598,0.0,0.0,0.0,0.0,0.0,0.2064677734375,0.0,0.0,0.0,0.0,0.0,0.0,-0.5654145766713674,0.0,0.0,0.0,0.0,0.0,0.0,-0.348,0.0
599,0.0,0.0,0.0,0.0,0.0,0.2011220703125,0.0,0.0,0.0,0.0,0.0,0.0,-0.5939702667598195,0.0,0.0,0.0,0.0,0.0,0.0,-0.24,0.0
600,0.0,0.0,0.0,0.0,0.0,0.1955576171875,0.0,0.0,0.0,0.0,0.0,0.0,-0.5555489301303393,0.0,0.0,0.0,0.0,0.0,0.0,-0.472,0.0
601,0.0,0.0,0.0,0.0,0.0,0.188146484375,0.0,0.0,0.0,0.0,0.0,0.0,-0.6682681256466022,0.0,0.0,0.0,0.0,0.0,0.0,-0.524,0.0
602,0.0,0.0,0.0,0.0,0.0,0.1815625,0.0,0.0,0.0,0.0,0.0,0.0,-0.5154296940398251,0.0,0.0,0.0,0.0,0.0,0.0,-0.576,0.0
603,0.0,0.0,0.0,0.0,0.0,0.1747578125,0.0,0.0,0.0,0.0,0.0,0.0,-1.224920666000409,0.0,0.0,0.0,0.0,0.0,0.0,-0.76,0.0
604,0.0,0.0,0.0,0.0,0.0,0.167140625,0.0,0.0,0.0,0.0,0.0,0.0,-1.0686347738284239,0.0,0.0,0.0,0.0,0.0,0.0,-0.608,0.0
605,0.0,0.0,0.0,0.0,0.0,0.160556640625,0.0,0.0,0.0,0.0,0.0,0.0,-1.0413371071599822,0.0,0.0,0.0,0.0,0.0,0.0,-0.584,0.0
606,0.0,0.0,0.0,0.0,0.0,0.1512861328125,0.0,0.0,0.0,0.0,0.0,0.0,-0.8588963720207063,0.0,0.0,0.0,0.0,0.0,0.0,-0.872,0.0
607,0.0,0.0,0.0,0.0,0.0,0.141203125,0.0,0.0,0.0,0.0,0.0,0.0,-0.7559144503398685,0.0,0.0,0.0,0.0,0.0,0.0,-0.608,0.0
608,0.0,0.0,0.0,0.0,0.0,0.1317265625,0.0,0.0,0.0,0.0,0.0,0.0,-0.9825290703481337,0.0,0.0,0.0,0.0,0.0,0.0,-0.732,0.0
609,0.0,0.0,0.0,0.0,0.0,0.1214228515625,0.0,0.0,0.0,0.0,0.0,0.0,-1.1763099702462427,0.0,0.0,0.0,0.0,0.0,0.0,-0.76,0.0
610,0.0,0.0,0.0,0.0,0.0,0.11070703125,0.0,0.0,0.0,0.0,0.0,0.0,-1.1016768079723482,0.0,0.0,0.0,0.0,0.0,0.0,-0.436,0.0
611,0.0,0.0,0.0,0.0,0.0,0.099796875,0.0,0.0,0.0,0.0,0.0,0.0,-0.9282322352894654,0.0,0.0,0.0,0.0,0.0,0.0,-0.908,0.0
612,0.0,0.0,0.0,0.0,0.0,0.087841796875,0.0,0.0,0.0,0.0,0.0,0.0,-1.1852762162467207,0.0,0.0,0.0,0.0,0.0,0.0,-0.916,0.0
613,0.0,0.0,0.0,0.0,0.0,0.0767255859375,0.0,0.0,0.0,0.0,0.0,0.0,-1.0670882898240421,0.0,0.0,0.0,0.0,0.0,0.0,-0.804,0.0
614,0.0,0.0,0.0,0.0,0.0,0.0645634765625,0.0,0.0,0.0,0.0,0.0,0.0,-0.5353773203616454,0.0,0.0,0.0,0.0,0.0,0.0,-0.8,0.0
615,0.0,0.0,0.0,0.0,0.0,0.0511748046875,0.0,0.0,0.0,0.0,0.0,0.0,-0.7675919555689354,0.0,0.0,0.0,0.0,0.0,0.0,-0.384,0.0
616,0.0,0.0,0.0,0.0,0.0,0.0400458984375,0.0,0.0,0.0,0.0,0.0,0.0,-0.5363887784212318,0.0,0.0,0.0,0.0,0.0,0.0,-0.572,0.0
617,0.0,0.0,0.0,0.0,0.0,0.02808984375,0.0,0.0,0.0,0.0,0.0,0.0,-1.1750294305977338,0.0,0.0,0.0,0.0,0.0,0.0,-0.82,0.0
618,0.0,0.0,0.0,0.0,0.0,0.0151142578125,0.0,0.0,0.0,0.0,0.0,0.0,-0.9959595992012737,0.0,0.0,0.0,0.0,0.0,0.0,-0.576,0.0
619,0.0,0.0,0.0,0.0,0.0,0.0031591796875,0.0,0.0,0.0,0.0,0.0,0.0,-1.0247824037081328,0.0,0.0,0.0,0.0,0.0,0.0,-0.82,0.0
620,0.0,0.0,0.0,0.0,0.0,-0.007556640625,0.0,0.0,0.0,0.0,0.0,0.0,-0.6177928488330146,0.0,0.0,0.0,0.0,0.0,0.0,-0.76,0.0
621,0.0,0.0,0.0,0.0,0.0,-0.020337890625,0.0,0.0,0.0,0.0,0.0,0.0,-0.6852272058548394,0.0,0.0,0.0,0.0,0.0,0.0,-0.376,0.0
622,0.0,0.0,0.0,0.0,0.0,-0.0322939453125,0.0,0.0,0.0,0.0,0.0,0.0,-0.9795636373682906,0.0,0.0,0.0,0.0,0.0,0.0,-0.572,0.0
623,0.0,0.0,0.0,0.0,0.0,-0.0440419921875,0.0,0.0,0.0,0.0,0.0,0.0,-1.0639287438813354,0.0,0.0,0.0,0.0,0.0,0.0,-0.436,0.0
624,0.0,0.0,0.0,0.0,0.0,-0.054345703125,0.0,0.0,0.0,0.0,0.0,0.0,-0.5511533192225102,0.0,0.0,0.0,0.0,0.0,0.0,-0.572,0.0
625,0.0,0.0,0.0,0.0,0.0,-0.0654873046875,0.0,0.0,0.0,0.0,0.0,0.0,-0.5049567388630305,0.0,0.0,0.0,0.0,0.0,0.0,-0.556,0.0
626,0.0,0.0,0.0,0.0,0.0,-0.0770302734375,0.0,0.0,0.0,0.0,0.0,0.0,-0.9656005620286652,0.0,0.0,0.0,0.0,0.0,0.0,-0.356,0.0
627,0.0,0.0,0.0,0.0,0.0,-0.0867255859375,0.0,0.0,0.0,0.0,0.0,0.0,-1.022151168867603,0.0,0.0,0.0,0.0,0.0,0.0,-0.728,0.0
628,0.0,0.0,0.0,0.0,0.0,-0.096822265625,0.0,0.0,0.0,0.0,0.0,0.0,-1.2609131221222905,0.0,0.0,0.0,0.0,0.0,0.0,-0.648,0.0
629,0.0,0.0,0.0,0.0,0.0,-0.1067255859375,0.0,0.0,0.0,0.0,0.0,0.0,-0.7263919078678678,0.0,0.0,0.0,0.0,0.0,0.0,-0.376,0.0
630,0.0,0.0,0.0,0.0,0.0,-0.116640625,0.0,0.0,0.0,0.0,0.0,0.0,-0.982223807266708,0.0,0.0,0.0,0.0,0.0,0.0,-0.624,0.0
631,0.0,0.0,0.0,0.0,0.0,-0.127150390625,0.0,0.0,0.0,0.0,0.0,0.0,-0.6382379196398643,0.0,0.0,0.0,0.0,0.0,0.0,-0.428,0.0
632,0.0,0.0,0.0,0.0,0.0,-0.1362265625,0.0,0.0,0.0,0.0,0.0,0.0,-0.6408725832597892,0.0,0.0,0.0,0.0,0.0,0.0,-0.48,0.0
633,0.0,0.0,0.0,0.0,0.0,-0.1457158203125,0.0,0.0,0.0,0.0,0.0,0.0,-0.9698049181772812,0.0,0.0,0.0,0.0,0.0,0.0,-0.504,0.0
634,0.0,0.0,0.0,0.0,0.0,-0.1545859375,0.0,0.0,0.0,0.0,0.0,0.0,-0.6044388652185423,0.0,0.0,0.0,0.0,0.0,0.0,-0.416,0.0
635,0.0,0.0,0.0,0.0,0.0,-0.1651083984375,0.0,0.0,0.0,0.0,0.0,0.0,-1.002412462207005,0.0,0.0,0.0,0.0,0.0,0.0,-0.688,0.0
636,0.0,0.0,0.0,0.0,0.0,-0.17459765625,0.0,0.0,0.0,0.0,0.0,0.0,-1.2226077822605053,0.0,0.0,0.0,0.0,0.0,0.0,-0.904,0.0
637,0.0,0.0,0.0,0.0,0.0,-0.184087890625,0.0,0.0,0.0,0.0,0.0,0.0,-0.7302632772520933,0.0,0.0,0.0,0.0,0.0,0.0,-0.596,0.0
638,0.0,0.0,0.0,0.0,0.0,-0.1931640625,0.0,0.0,0.0,0.0,0.0,0.0,-1.1307450551718563,0.0,0.0,0.0,0.0,0.0,0.0,-0.572,0.0
639,0.0,0.0,0.0,0.0,0.0,-0.2028603515625,0.0,0.0,0.0,0.0,0.0,0.0,-1.1922724130262972,0.0,0.0,0.0,0.0,0.0,0.0,-0.604,0.0
640,0.0,0.0,0.0,0.0,0.0,-0.2135888671875,0.0,0.0,0.0,0.0,0.0,0.0,-1.144761583498774,0.0,0.0,0.0,0.0,0.0,0.0,-0.556,0.0
641,0.0,0.0,0.0,0.0,0.0,-0.223078125,0.0,0.0,0.0,0.0,0.0,0.0,-1.102216478011151,0.0,0.0,0.0,0.0,0.0,0.0,-0.8,0.0
642,0.0,0.0,0.0,0.0,0.0,-0.233201171875,0.0,0.0,0.0,0.0,0.0,0.0,-1.1715057241807934,0.0,0.0,0.0,0.0,0.0,0.0,-0.512,0.0
643,0.0,0.0,0.0,0.0,0.0,-0.2435166015625,0.0,0.0,0.0,0.0,0.0,0.0,-1.06672112857741,0.0,0.0,0.0,0.0,0.0,0.0,-0.608,0.0
644,0.0,0.0,0.0,0.0,0.0,-0.2542451171875,0.0,0.0,0.0,0.0,0.0,0.0,-0.8508421629409717,0.0,0.0,0.0,0.0,0.0,0.0,-0.752,0.0
645,0.0,0.0,0.0,0.0,0.0,-0.2643544921875,0.0,0.0,0.0,0.0,0.0,0.0,-0.9238887058709421,0.0,0.0,0.0,0.0,0.0,0.0,-0.72,0.0
646,0.0,0.0,0.0,0.0,0.0,-0.2740634765625,0.0,0.0,0.0,0.0,0.0,0.0,-0.7631506817446008,0.0,0.0,0.0,0.0,0.0,0.0,-0.716,0.0
647,0.0,0.0,0.0,0.0,0.0,-0.2849990234375,0.0,0.0,0.0,0.0,0.0,0.0,-0.8932194993930804,0.0,0.0,0.0,0.0,0.0,0.0,-0.628,0.0
648,0.0,0.0,0.0,0.0,0.0,-0.2963740234375,0.0,0.0,0.0,0.0,0.0,0.0,-0.8203686339409516,0.0,0.0,0.0,0.0,0.0,0.0,-0.488,0.0
649,0.0,0.0,0.0,0.0,0.0,-0.306896484375,0.0,0.0,0.0,0.0,0.0,0.0,-0.8322279461332794,0.0,0.0,0.0,0.0,0.0,0.0,-0.608,0.0
650,0.0,0.0,0.0,0.0,0.0,-0.317431640625,0.0,0.0,0.0,0.0,0.0,0.0,-0.5367972359835961,0.0,0.0,0.0,0.0,0.0,0.0,-0.552,0.0
651,0.0,0.0,0.0,0.0,0.0,-0.3281611328125,0.0,0.0,0.0,0.0,0.0,0.0,-0.5173733682954161,0.0,0.0,0.0,0.0,0.0,0.0,-0.552,0.0
652,0.0,0.0,0.0,0.0,0.0,-0.3395224609375,0.0,0.0,0.0,0.0,0.0,0.0,-1.0590674048216049,0.0,0.0,0.0,0.0,0.0,0.0,-0.656,0.0
653,0.0,0.0,0.0,0.0,0.0,-0.3502509765625,0.0,0.0,0.0,0.0,0.0,0.0,-0.8657103953545936,0.0,0.0,0.0,0.0,0.0,0.0,-0.696,0.0
654,0.0,0.0,0.0,0.0,0.0,-0.360373046875,0.0,0.0,0.0,0.0,0.0,0.0,-0.7149364326808035,0.0,0.0,0.0,0.0,0.0,0.0,-0.592,0.0
655,0.0,0.0,0.0,0.0,0.0,-0.371322265625,0.0,0.0,0.0,0.0,0.0,0.0,-0.6811044448114844,0.0,0.0,0.0,0.0,0.0,0.0,-0.512,0.0
656,0.0,0.0,0.0,0.0,0.0,-0.382890625,0.0,0.0,0.0,0.0,0.0,0.0,-1.033946737206429,0.0,0.0,0.0,0.0,0.0,0.0,-0.396,0.0
657,0.0,0.0,0.0,0.0,0.0,-0.39342578125,0.0,0.0,0.0,0.0,0.0,0.0,-1.1581639712334781,0.0,0.0,0.0,0.0,0.0,0.0,-0.488,0.0
658,0.0,0.0,0.0,0.0,0.0,-0.4033408203125,0.0,0.0,0.0,0.0,0.0,0.0,-0.8871785534908623,0.0,0.0,0.0,0.0,0.0,0.0,-0.552,0.0
659,0.0,0.0,0.0,0.0,0.0,-0.4142900390625,0.0,0.0,0.0,0.0,0.0,0.0,-0.8077004006835584,0.0,0.0,0.0,0.0,0.0,0.0,-0.556,0.0
660,0.0,0.0,0.0,0.0,0.0,-0.4254580078125,0.0,0.0,0.0,0.0,0.0,0.0,-0.8127712628690087,0.0,0.0,0.0,0.0,0.0,0.0,-0.552,0.0
661,0.0,0.0,0.0,0.0,0.0,-0.4357861328125,0.0,0.0,0.0,0.0,0.0,0.0,-0.9666778586699434,0.0,0.0,0.0,0.0,0.0,0.0,-0.636,0.0
662,0.0,0.0,0.0,0.0,0.0,-0.4454951171875,0.0,0.0,0.0,0.0,0.0,0.0,-0.7116948603109963,0.0,0.0,0.0,0.0,0.0,0.0,-0.564,0.0
663,0.0,0.0,0.0,0.0,0.0,-0.45582421875,0.0,0.0,0.0,0.0,0.0,0.0,-0.8555469285790466,0.0,0.0,0.0,0.0,0.0,0.0,-0.46,0.0
664,0.0,0.0,0.0,0.0,0.0,-0.4669794921875,0.0,0.0,0.0,0.0,0.0,0.0,-0.8417430986909423,0.0,0.0,0.0,0.0,0.0,0.0,-0.46,0.0
665,0.0,0.0,0.0,0.0,0.0,-0.4762880859375,0.0,0.0,0.0,0.0,0.0,0.0,-0.7377752488694419,0.0,0.0,0.0,0.0,0.0,0.0,-0.524,0.0
666,0.0,0.0,0.0,0.0,0.0,-0.487236328125,0.0,0.0,0.0,0.0,0.0,0.0,-0.5792766197781078,0.0,0.0,0.0,0.0,0.0,0.0,-0.512,0.0
667,0.0,0.0,0.0,0.0,0.0,-0.496119140625,0.0,0.0,0.0,0.0,0.0,0.0,1.1015262867650581,0.0,0.0,0.0,0.0,0.0,0.0,-0.452,0.0
668,0.0,0.0,0.0,0.0,0.0,-0.50811328125,0.0,0.0,0.0,0.0,0.0,0.0,0.7298985544777096,0.0,0.0,0.0,0.0,0.0,0.0,-0.576,0.0
669,0.0,0.0,0.0,0.0,0.0,-0.5182353515625,0.0,0.0,0.0,0.0,0.0,0.0,1.0334626378359588,0.0,0.0,0.0,0.0,0.0,0.0,-0.532,0.0
670,0.0,0.0,0.0,0.0,0.0,-0.5252724609375,0.0,0.0,0.0,0.0,0.0,0.0,0.7525395054157134,0.0,0.0,0.0,0.0,0.0,0.0,-0.064,0.0
671,0.0,0.0,0.0,0.0,0.0,-0.5281640625,0.0,0.0,0.0,0.0,0.0,0.0,0.9220606637670785,0.0,0.0,0.0,0.0,0.0,0.0,-0.044,0.0
672,0.0,0.0,0.0,0.0,0.0,-0.529197265625,0.0,0.0,0.0,0.0,0.0,0.0,0.860611983110136,0.0,0.0,0.0,0.0,0.0,0.0,-0.12,0.0
673,0.0,0.0,0.0,0.0,0.0,-0.5277509765625,0.0,0.0,0.0,0.0,0.0,0.0,0.5989009812062558,0.0,0.0,0.0,0.0,0.0,0.0,0.168,0.0
674,0.0,0.0,0.0,0.0,0.0,-0.5225869140625,0.0,0.0,0.0,0.0,0.0,0.0,1.0152040046925048,0.0,0.0,0.0,0.0,0.0,0.0,-0.172,0.0
675,0.0,0.0,0.0,0.0,0.0,-0.5157568359375,0.0,0.0,0.0,0.0,0.0,0.0,0.5753112796495372,0.0,0.0,0.0,0.0,0.0,0.0,-0.304,0.0
676,0.0,0.0,0.0,0.0,0.0,-0.5060478515625,0.0,0.0,0.0,0.0,0.0,0.0,0.7694049984948849,0.0,0.0,0.0,0.0,0.0,0.0,0.304,0.0
677,0.0,0.0,0.0,0.0,0.0,-0.4930205078125,0.0,0.0,0.0,0.0,0.0,0.0,0.715531699299142,0.0,0.0,0.0,0.0,0.0,0.0,0.344,0.0
678,0.0,0.0,0.0,0.0,0.0,-0.480212890625,0.0,0.0,0.0,0.0,0.0,0.0,1.2710774553475988,0.0,0.0,0.0,0.0,0.0,0.0,-0.084,0.0
679,0.0,0.0,0.0,0.0,0.0,-0.4634677734375,0.0,0.0,0.0,0.0,0.0,0.0,1.0382512509285378,0.0,0.0,0.0,0.0,0.0,0.0,0.044,0.0
680,0.0,0.0,0.0,0.0,0.0,-0.44508203125,0.0,0.0,0.0,0.0,0.0,0.0,1.0084447118368018,0.0,0.0,0.0,0.0,0.0,0.0,0.064,0.0
681,0.0,0.0,0.0,0.0,0.0,-0.42731640625,0.0,0.0,0.0,0.0,0.0,0.0,1.1119647645757764,0.0,0.0,0.0,0.0,0.0,0.0,-0.728,0.0
682,0.0,0.0,0.0,0.0,0.0,-0.41119140625,0.0,0.0,0.0,0.0,0.0,0.0,0.737262633370815,0.0,0.0,0.0,0.0,0.0,0.0,0.272,0.0
683,0.0,0.0,0.0,0.0,0.0,-0.3882607421875,0.0,0.0,0.0,0.0,0.0,0.0,0.7488883935863508,0.0,0.0,0.0,0.0,0.0,0.0,-0.332,0.0
684,0.0,0.0,0.0,0.0,0.0,-0.369255859375,0.0,0.0,0.0,0.0,0.0,0.0,0.5082876285682498,0.0,0.0,0.0,0.0,0.0,0.0,-0.356,0.0
685,0.0,0.0,0.0,0.0,0.0,-0.351697265625,0.0,0.0,0.0,0.0,0.0,0.0,1.0889059145149198,0.0,0.0,0.0,0.0,0.0,0.0,-0.272,0.0
686,0.0,0.0,0.0,0.0,0.0,-0.332705078125,0.0,0.0,0.0,0.0,0.0,0.0,1.1313646450603891,0.0,0.0,0.0,0.0,0.0,0.0,-0.784,0.0
687,0.0,0.0,0.0,0.0,0.0,-0.312267578125,0.0,0.0,0.0,0.0,0.0,0.0,0.8874233396417135,0.0,0.0,0.0,0.0,0.0,0.0,-0.264,0.0
688,0.0,0.0,0.0,0.0,0.0,-0.295134765625,0.0,0.0,0.0,0.0,0.0,0.0,0.7758750260181766,0.0,0.0,0.0,0.0,0.0,0.0,-0.852,0.0
689,0.0,0.0,0.0,0.0,0.0,-0.2788017578125,0.0,0.0,0.0,0.0,0.0,0.0,0.5178129995976148,0.0,0.0,0.0,0.0,0.0,0.0,-0.128,0.0
690,0.0,0.0,0.0,0.0,0.0,-0.2618759765625,0.0,0.0,0.0,0.0,0.0,0.0,0.9840470954058765,0.0,0.0,0.0,0.0,0.0,0.0,-1.22,0.0
691,0.0,0.0,0.0,0.0,0.0,-0.249494140625,0.0,0.0,0.0,0.0,0.0,0.0,0.7345966397478769,0.0,0.0,0.0,0.0,0.0,0.0,-1.032,0.0
692,0.0,0.0,0.0,0.0,0.0,-0.235873046875,0.0,0.0,0.0,0.0,0.0,0.0,0.6482454337801122,0.0,0.0,0.0,0.0,0.0,0.0,-0.296,0.0
693,0.0,0.0,0.0,0.0,0.0,-0.2228720703125,0.0,0.0,0.0,0.0,0.0,0.0,0.9161935938263326,0.0,0.0,0.0,0.0,0.0,0.0,-1.308,0.0
694,0.0,0.0,0.0,0.0,0.0,-0.214828125,0.0,0.0,0.0,0.0,0.0,0.0,1.1227540810727645,0.0,0.0,0.0,0.0,0.0,0.0,-0.608,0.0
695,0.0,0.0,0.0,0.0,0.0,-0.2034794921875,0.0,0.0,0.0,0.0,0.0,0.0,0.9620747791769284,0.0,0.0,0.0,0.0,0.0,0.0,-0.48,0.0
696,0.0,0.0,0.0,0.0,0.0,-0.1941962890625,0.0,0.0,0.0,0.0,0.0,0.0,1.0312478696808385,0.0,0.0,0.0,0.0,0.0,0.0,-1.332,0.0
697,0.0,0.0,0.0,0.0,0.0,-0.1884130859375,0.0,0.0,0.0,0.0,0.0,0.0,1.004197269866991,0.0,0.0,0.0,0.0,0.0,0.0,-0.22,0.0
698,0.0,0.0,0.0,0.0,0.0,-0.17954296875,0.0,0.0,0.0,0.0,0.0,0.0,0.6860791640953217,0.0,0.0,0.0,0.0,0.0,0.0,-1.02,0.0
699,0.0,0.0,0.0,0.0,0.0,-0.17459765625,0.0,0.0,0.0,0.0,0.0,0.0,1.278110934409932,0.0,0.0,0.0,0.0,0.0,0.0,-1.292,0.0
700,0.0,0.0,0.0,0.0,0.0,-0.1700537109375,0.0,0.0,0.0,0.0,0.0,0.0,0.7949110847060215,0.0,0.0,0.0,0.0,0.0,0.0,-0.408,0.0
701,0.0,0.0,0.0,0.0,0.0,-0.1613896484375,0.0,0.0,0.0,0.0,0.0,0.0,0.5876910235776707,0.0,0.0,0.0,0.0,0.0,0.0,-1.26,0.0
702,0.0,0.0,0.0,0.0,0.0,-0.157271484375,0.0,0.0,0.0,0.0,0.0,0.0,0.9475177115874451,0.0,0.0,0.0,0.0,0.0,0.0,-0.624,0.0
703,0.0,0.0,0.0,0.0,0.0,-0.1508671875,0.0,0.0,0.0,0.0,0.0,0.0,1.267370558860395,0.0,0.0,0.0,0.0,0.0,0.0,-0.108,0.0
704,0.0,0.0,0.0,0.0,0.0,-0.143443359375,0.0,0.0,0.0,0.0,0.0,0.0,0.5306133085605614,0.0,0.0,0.0,0.0,0.0,0.0,-1.0,0.0
705,0.0,0.0,0.0,0.0,0.0,-0.1393251953125,0.0,0.0,0.0,0.0,0.0,0.0,1.1875049604507,0.0,0.0,0.0,0.0,0.0,0.0,-0.524,0.0
706,0.0,0.0,0.0,0.0,0.0,-0.1321083984375,0.0,0.0,0.0,0.0,0.0,0.0,0.6934463151967696,0.0,0.0,0.0,0.0,0.0,0.0,-0.304,0.0
707,0.0,0.0,0.0,0.0,0.0,-0.124890625,0.0,0.0,0.0,0.0,0.0,0.0,0.9670114373815848,0.0,0.0,0.0,0.0,0.0,0.0,-0.956,0.0
708,0.0,0.0,0.0,0.0,0.0,-0.1184873046875,0.0,0.0,0.0,0.0,0.0,0.0,1.2001991451679925,0.0,0.0,0.0,0.0,0.0,0.0,0.084,0.0
709,0.0,0.0,0.0,0.0,0.0,-0.1081708984375,0.0,0.0,0.0,0.0,0.0,0.0,0.7799744825924466,0.0,0.0,0.0,0.0,0.0,0.0,-0.26,0.0
710,0.0,0.0,0.0,0.0,0.0,-0.0999208984375,0.0,0.0,0.0,0.0,0.0,0.0,0.691699876703709,0.0,0.0,0.0,0.0,0.0,0.0,-0.544,0.0
711,0.0,0.0,0.0,0.0,0.0,-0.09105078125,0.0,0.0,0.0,0.0,0.0,0.0,0.5675922735522521,0.0,0.0,0.0,0.0,0.0,0.0,-0.208,0.0
712,0.0,0.0,0.0,0.0,0.0,-0.0803349609375,0.0,0.0,0.0,0.0,0.0,0.0,1.018116444420453,0.0,0.0,0.0,0.0,0.0,0.0,-0.888,0.0
713,0.0,0.0,0.0,0.0,0.0,-0.070845703125,0.0,0.0,0.0,0.0,0.0,0.0,0.9214513983440613,0.0,0.0,0.0,0.0,0.0,0.0,-0.252,0.0
714,0.0,0.0,0.0,0.0,0.0,-0.0588896484375,0.0,0.0,0.0,0.0,0.0,0.0,0.7006373497233362,0.0,0.0,0.0,0.0,0.0,0.0,0.076,0.0
715,0.0,0.0,0.0,0.0,0.0,-0.0469345703125,0.0,0.0,0.0,0.0,0.0,0.0,0.8714552025208047,0.0,0.0,0.0,0.0,0.0,0.0,-0.78,0.0
716,0.0,0.0,0.0,0.0,0.0,-0.036619140625,0.0,0.0,0.0,0.0,0.0,0.0,0.6120912904351139,0.0,0.0,0.0,0.0,0.0,0.0,-0.264,0.0
717,0.0,0.0,0.0,0.0,0.0,-0.02445703125,0.0,0.0,0.0,0.0,0.0,0.0,1.0174371392016708,0.0,0.0,0.0,0.0,0.0,0.0,-0.128,0.0
718,0.0,0.0,0.0,0.0,0.0,-0.012294921875,0.0,0.0,0.0,0.0,0.0,0.0,1.2715212656604562,0.0,0.0,0.0,0.0,0.0,0.0,-0.596,0.0
719,0.0,0.0,0.0,0.0,0.0,0.00028125,0.0,0.0,0.0,0.0,0.0,0.0,1.1436801880164764,0.0,0.0,0.0,0.0,0.0,0.0,-0.244,0.0
720,0.0,0.0,0.0,0.0,0.0,0.0126357421875,0.0,0.0,0.0,0.0,0.0,0.0,0.8851979870459803,0.0,0.0,0.0,0.0,0.0,0.0,-0.708,0.0
721,0.0,0.0,0.0,0.0,0.0,0.026037109375,0.0,0.0,0.0,0.0,0.0,0.0,1.1790384572306958,0.0,0.0,0.0,0.0,0.0,0.0,-0.448,0.0
722,0.0,0.0,0.0,0.0,0.0,0.037166015625,0.0,0.0,0.0,0.0,0.0,0.0,0.6524537338500643,0.0,0.0,0.0,0.0,0.0,0.0,-0.296,0.0
723,0.0,0.0,0.0,0.0,0.0,0.0495224609375,0.0,0.0,0.0,0.0,0.0,0.0,0.6715013671117362,0.0,0.0,0.0,0.0,0.0,0.0,-0.732,0.0
724,0.0,0.0,0.0,0.0,0.0,0.0623037109375,0.0,0.0,0.0,0.0,0.0,0.0,0.6091094328535072,0.0,0.0,0.0,0.0,0.0,0.0,-0.148,0.0
725,0.0,0.0,0.0,0.0,0.0,0.0742470703125,0.0,0.0,0.0,0.0,0.0,0.0,1.0384407531148108,0.0,0.0,0.0,0.0,0.0,0.0,-0.4,0.0
726,0.0,0.0,0.0,0.0,0.0,0.086615234375,0.0,0.0,0.0,0.0,0.0,0.0,0.9599899697630618,0.0,0.0,0.0,0.0,0.0,0.0,-0.98,0.0
727,0.0,0.0,0.0,0.0,0.0,0.097525390625,0.0,0.0,0.0,0.0,0.0,0.0,1.1023313837738902,0.0,0.0,0.0,0.0,0.0,0.0,-0.452,0.0
728,0.0,0.0,0.0,0.0,0.0,0.1090673828125,0.0,0.0,0.0,0.0,0.0,0.0,0.7860059067542042,0.0,0.0,0.0,0.0,0.0,0.0,-0.676,0.0
729,0.0,0.0,0.0,0.0,0.0,0.1193701171875,0.0,0.0,0.0,0.0,0.0,0.0,0.5195814784821112,0.0,0.0,0.0,0.0,0.0,0.0,-0.576,0.0
730,0.0,0.0,0.0,0.0,0.0,0.1298671875,0.0,0.0,0.0,0.0,0.0,0.0,0.5911742669929722,0.0,0.0,0.0,0.0,0.0,0.0,-0.332,0.0
731,0.0,0.0,0.0,0.0,0.0,0.1420166015625,0.0,0.0,0.0,0.0,0.0,0.0,1.1049495090385455,0.0,0.0,0.0,0.0,0.0,0.0,-0.732,0.0
732,0.0,0.0,0.0,0.0,0.0,0.150666015625,0.0,0.0,0.0,0.0,0.0,0.0,0.5770172422392483,0.0,0.0,0.0,0.0,0.0,0.0,-0.396,0.0
733,0.0,0.0,0.0,0.0,0.0,0.16240234375,0.0,0.0,0.0,0.0,0.0,0.0,1.1399426695928216,0.0,0.0,0.0,0.0,0.0,0.0,-0.52,0.0
734,0.0,0.0,0.0,0.0,0.0,0.1720859375,0.0,0.0,0.0,0.0,0.0,0.0,0.6385093739558965,0.0,0.0,0.0,0.0,0.0,0.0,-0.94,0.0
735,0.0,0.0,0.0,0.0,0.0,0.1809423828125,0.0,0.0,0.0,0.0,0.0,0.0,0.7954883277420031,0.0,0.0,0.0,0.0,0.0,0.0,-0.504,0.0
736,0.0,0.0,0.0,0.0,0.0,0.1904189453125,0.0,0.0,0.0,0.0,0.0,0.0,1.0319227546099454,0.0,0.0,0.0,0.0,0.0,0.0,-0.564,0.0
737,0.0,0.0,0.0,0.0,0.0,0.200708984375,0.0,0.0,0.0,0.0,0.0,0.0,0.7415255239719298,0.0,0.0,0.0,0.0,0.0,0.0,-0.492,0.0
738,0.0,0.0,0.0,0.0,0.0,0.2099794921875,0.0,0.0,0.0,0.0,0.0,0.0,0.5371903711538313,0.0,0.0,0.0,0.0,0.0,0.0,-0.324,0.0
739,0.0,0.0,0.0,0.0,0.0,0.2188232421875,0.0,0.0,0.0,0.0,0.0,0.0,0.6584009497088513,0.0,0.0,0.0,0.0,0.0,0.0,-0.648,0.0
740,0.0,0.0,0.0,0.0,0.0,0.2274736328125,0.0,0.0,0.0,0.0,0.0,0.0,1.0148358601065595,0.0,0.0,0.0,0.0,0.0,0.0,-0.504,0.0
741,0.0,0.0,0.0,0.0,0.0,0.237970703125,0.0,0.0,0.0,0.0,0.0,0.0,0.9752728527514407,0.0,0.0,0.0,0.0,0.0,0.0,-0.188,0.0
742,0.0,0.0,0.0,0.0,0.0,0.2470341796875,0.0,0.0,0.0,0.0,0.0,0.0,0.8199339548622613,0.0,0.0,0.0,0.0,0.0,0.0,-0.48,0.0
743,0.0,0.0,0.0,0.0,0.0,0.256083984375,0.0,0.0,0.0,0.0,0.0,0.0,0.636203583001542,0.0,0.0,0.0,0.0,0.0,0.0,-0.544,0.0
744,0.0,0.0,0.0,0.0,0.0,0.2665810546875,0.0,0.0,0.0,0.0,0.0,0.0,0.9399924513466922,0.0,0.0,0.0,0.0,0.0,0.0,-0.492,0.0
745,0.0,0.0,0.0,0.0,0.0,0.276470703125,0.0,0.0,0.0,0.0,0.0,0.0,1.268937228372491,0.0,0.0,0.0,0.0,0.0,0.0,-0.576,0.0
746,0.0,0.0,0.0,0.0,0.0,0.2859345703125,0.0,0.0,0.0,0.0,0.0,0.0,0.515374299532901,0.0,0.0,0.0,0.0,0.0,0.0,-0.156,0.0
747,0.0,0.0,0.0,0.0,0.0,0.2964306640625,0.0,0.0,0.0,0.0,0.0,0.0,1.1141013631867676,0.0,0.0,0.0,0.0,0.0,0.0,-0.276,0.0
748,0.0,0.0,0.0,0.0,0.0,0.3063076171875,0.0,0.0,0.0,0.0,0.0,0.0,0.8149043856709988,0.0,0.0,0.0,0.0,0.0,0.0,-0.5,0.0
749,0.0,0.0,0.0,0.0,0.0,0.315978515625,0.0,0.0,0.0,0.0,0.0,0.0,0.579392717643067,0.0,0.0,0.0,0.0,0.0,0.0,-0.172,0.0
750,0.0,0.0,0.0,0.0,0.0,0.3270947265625,0.0,0.0,0.0,0.0,0.0,0.0,0.8179424330950351,0.0,0.0,0.0,0.0,0.0,0.0,-0.272,0.0
751,0.0,0.0,0.0,0.0,0.0,0.337384765625,0.0,0.0,0.0,0.0,0.0,0.0,0.8315487781833772,0.0,0.0,0.0,0.0,0.0,0.0,-0.48,0.0
752,0.0,0.0,0.0,0.0,0.0,0.3474677734375,0.0,0.0,0.0,0.0,0.0,0.0,0.6105322141375629,0.0,0.0,0.0,0.0,0.0,0.0,-0.44,0.0
753,0.0,0.0,0.0,0.0,0.0,0.358365234375,0.0,0.0,0.0,0.0,0.0,0.0,0.8286480729410743,0.0,0.0,0.0,0.0,0.0,0.0,-0.524,0.0
754,0.0,0.0,0.0,0.0,0.0,0.3692744140625,0.0,0.0,0.0,0.0,0.0,0.0,0.5228776279297375,0.0,0.0,0.0,0.0,0.0,0.0,-0.376,0.0
755,0.0,0.0,0.0,0.0,0.0,0.3793583984375,0.0,0.0,0.0,0.0,0.0,0.0,0.5049564916039342,0.0,0.0,0.0,0.0,0.0,0.0,-0.264,0.0
756,0.0,0.0,0.0,0.0,0.0,0.391701171875,0.0,0.0,0.0,0.0,0.0,0.0,0.5816996673227014,0.0,0.0,0.0,0.0,0.0,0.0,-0.504,0.0
757,0.0,0.0,0.0,0.0,0.0,0.4009580078125,0.0,0.0,0.0,0.0,0.0,0.0,0.6377110879781768,0.0,0.0,0.0,0.0,0.0,0.0,-0.42,0.0
758,0.0,0.0,0.0,0.0,0.0,0.4130947265625,0.0,0.0,0.0,0.0,0.0,0.0,0.680706596238613,0.0,0.0,0.0,0.0,0.0,0.0,-0.14,0.0
759,0.0,0.0,0.0,0.0,0.0,0.4237841796875,0.0,0.0,0.0,0.0,0.0,0.0,1.2371012560639625,0.0,0.0,0.0,0.0,0.0,0.0,-0.448,0.0
760,0.0,0.0,0.0,0.0,0.0,0.43530078125,0.0,0.0,0.0,0.0,0.0,0.0,1.2765517751844402,0.0,0.0,0.0,0.0,0.0,0.0,-0.576,0.0
761,0.0,0.0,0.0,0.0,0.0,0.44600390625,0.0,0.0,0.0,0.0,0.0,0.0,0.5446487388236436,0.0,0.0,0.0,0.0,0.0,0.0,-0.42,0.0
762,0.0,0.0,0.0,0.0,0.0,0.45628125,0.0,0.0,0.0,0.0,0.0,0.0,-1.073498788823279,0.0,0.0,0.0,0.0,0.0,0.0,-0.292,0.0
763,0.0,0.0,0.0,0.0,0.0,0.4673974609375,0.0,0.0,0.0,0.0,0.0,0.0,-0.989373857423903,0.0,0.0,0.0,0.0,0.0,0.0,-0.344,0.0
764,0.0,0.0,0.0,0.0,0.0,0.4791083984375,0.0,0.0,0.0,0.0,0.0,0.0,-1.1629728537812263,0.0,0.0,0.0,0.0,0.0,0.0,-0.376,0.0
765,0.0,0.0,0.0,0.0,0.0,0.4879521484375,0.0,0.0,0.0,0.0,0.0,0.0,-1.2566395098690881,0.0,0.0,0.0,0.0,0.0,0.0,-0.768,0.0
766,0.0,0.0,0.0,0.0,0.0,0.492896484375,0.0,0.0,0.0,0.0,0.0,0.0,-0.5265070425946814,0.0,0.0,0.0,0.0,0.0,0.0,-1.032,0.0
767,0.0,0.0,0.0,0.0,0.0,0.4945361328125,0.0,0.0,0.0,0.0,0.0,0.0,-0.9410640461039841,0.0,0.0,0.0,0.0,0.0,0.0,-0.748,0.0
768,0.0,0.0,0.0,0.0,0.0,0.4939169921875,0.0,0.0,0.0,0.0,0.0,0.0,-0.6033562077426563,0.0,0.0,0.0,0.0,0.0,0.0,-0.948,0.0
769,0.0,0.0,0.0,0.0,0.0,0.4896044921875,0.0,0.0,0.0,0.0,0.0,0.0,-0.9407436259376094,0.0,0.0,0.0,0.0,0.0,0.0,-0.896,0.0
770,0.0,0.0,0.0,0.0,0.0,0.4828134765625,0.0,0.0,0.0,0.0,0.0,0.0,-0.9150938623866083,0.0,0.0,0.0,0.0,0.0,0.0,-0.636,0.0
771,0.0,0.0,0.0,0.0,0.0,0.4743828125,0.0,0.0,0.0,0.0,0.0,0.0,-1.05185112209423,0.0,0.0,0.0,0.0,0.0,0.0,-0.908,0.0
772,0.0,0.0,0.0,0.0,0.0,0.4626591796875,0.0,0.0,0.0,0.0,0.0,0.0,-0.7199776223783385,0.0,0.0,0.0,0.0,0.0,0.0,-1.06,0.0
773,0.0,0.0,0.0,0.0,0.0,0.448056640625,0.0,0.0,0.0,0.0,0.0,0.0,-0.8100275480809755,0.0,0.0,0.0,0.0,0.0,0.0,-0.96,0.0
774,0.0,0.0,0.0,0.0,0.0,0.432021484375,0.0,0.0,0.0,0.0,0.0,0.0,-1.163051922671587,0.0,0.0,0.0,0.0,0.0,0.0,-0.792,0.0
775,0.0,0.0,0.0,0.0,0.0,0.415353515625,0.0,0.0,0.0,0.0,0.0,0.0,-0.7260505932517064,0.0,0.0,0.0,0.0,0.0,0.0,-0.772,0.0
776,0.0,0.0,0.0,0.0,0.0,0.3966328125,0.0,0.0,0.0,0.0,0.0,0.0,-0.6321801456365235,0.0,0.0,0.0,0.0,0.0,0.0,-0.844,0.0
777,0.0,0.0,0.0,0.0,0.0,0.3774990234375,0.0,0.0,0.0,0.0,0.0,0.0,-0.6339574360405972,0.0,0.0,0.0,0.0,0.0,0.0,-0.488,0.0
778,0.0,0.0,0.0,0.0,0.0,0.3585712890625,0.0,0.0,0.0,0.0,0.0,0.0,-1.1785344858994478,0.0,0.0,0.0,0.0,0.0,0.0,-0.956,0.0
779,0.0,0.0,0.0,0.0,0.0,0.3375908203125,0.0,0.0,0.0,0.0,0.0,0.0,-0.9273461314300865,0.0,0.0,0.0,0.0,0.0,0.0,-0.732,0.0
780,0.0,0.0,0.0,0.0,0.0,0.3184443359375,0.0,0.0,0.0,0.0,0.0,0.0,-0.8047701504559701,0.0,0.0,0.0,0.0,0.0,0.0,-0.24,0.0
781,0.0,0.0,0.0,0.0,0.0,0.299310546875,0.0,0.0,0.0,0.0,0.0,0.0,-0.923014188655508,0.0,0.0,0.0,0.0,0.0,0.0,-0.584,0.0
782,0.0,0.0,0.0,0.0,0.0,0.280576171875,0.0,0.0,0.0,0.0,0.0,0.0,-1.2231063116426766,0.0,0.0,0.0,0.0,0.0,0.0,-0.304,0.0
783,0.0,0.0,0.0,0.0,0.0,0.26308203125,0.0,0.0,0.0,0.0,0.0,0.0,-0.7481206204198566,0.0,0.0,0.0,0.0,0.0,0.0,-0.668,0.0
784,0.0,0.0,0.0,0.0,0.0,0.2464140625,0.0,0.0,0.0,0.0,0.0,0.0,-1.281214860310777,0.0,0.0,0.0,0.0,0.0,0.0,-0.448,0.0
785,0.0,0.0,0.0,0.0,0.0,0.2305595703125,0.0,0.0,0.0,0.0,0.0,0.0,-1.1745295619048866,0.0,0.0,0.0,0.0,0.0,0.0,-0.26,0.0
786,0.0,0.0,0.0,0.0,0.0,0.21553125,0.0,0.0,0.0,0.0,0.0,0.0,-0.8848681545954487,0.0,0.0,0.0,0.0,0.0,0.0,-0.084,0.0
787,0.0,0.0,0.0,0.0,0.0,0.2042080078125,0.0,0.0,0.0,0.0,0.0,0.0,-0.8588503442415383,0.0,0.0,0.0,0.0,0.0,0.0,-0.044,0.0
788,0.0,0.0,0.0,0.0,0.0,0.191232421875,0.0,0.0,0.0,0.0,0.0,0.0,-0.7088658767069359,0.0,0.0,0.0,0.0,0.0,0.0,-0.44,0.0
789,0.0,0.0,0.0,0.0,0.0,0.179703125,0.0,0.0,0.0,0.0,0.0,0.0,-0.8014347025101684,0.0,0.0,0.0,0.0,0.0,0.0,-0.292,0.0
790,0.0,0.0,0.0,0.0,0.0,0.1716728515625,0.0,0.0,0.0,0.0,0.0,0.0,-0.8751224341913788,0.0,0.0,0.0,0.0,0.0,0.0,-0.312,0.0
791,0.0,0.0,0.0,0.0,0.0,0.162208984375,0.0,0.0,0.0,0.0,0.0,0.0,-0.8721038797006055,0.0,0.0,0.0,0.0,0.0,0.0,-0.428,0.0
792,0.0,0.0,0.0,0.0,0.0,0.1541650390625,0.0,0.0,0.0,0.0,0.0,0.0,-0.9409242424587938,0.0,0.0,0.0,0.0,0.0,0.0,0.012,0.0
793,0.0,0.0,0.0,0.0,0.0,0.147787109375,0.0,0.0,0.0,0.0,0.0,0.0,-0.7800664916929174,0.0,0.0,0.0,0.0,0.0,0.0,-0.296,0.0
794,0.0,0.0,0.0,0.0,0.0,0.1407900390625,0.0,0.0,0.0,0.0,0.0,0.0,-0.8147964509823786,0.0,0.0,0.0,0.0,0.0,0.0,-0.388,0.0
795,0.0,0.0,0.0,0.0,0.0,0.1343984375,0.0,0.0,0.0,0.0,0.0,0.0,-0.9734124796296034,0.0,0.0,0.0,0.0,0.0,0.0,-0.224,0.0
796,0.0,0.0,0.0,0.0,0.0,0.1292470703125,0.0,0.0,0.0,0.0,0.0,0.0,-1.1626202715201321,0.0,0.0,0.0,0.0,0.0,0.0,-0.44,0.0
797,0.0,0.0,0.0,0.0,0.0,0.123076171875,0.0,0.0,0.0,0.0,0.0,0.0,-0.8575318784653981,0.0,0.0,0.0,0.0,0.0,0.0,-0.324,0.0
798,0.0,0.0,0.0,0.0,0.0,0.1177177734375,0.0,0.0,0.0,0.0,0.0,0.0,-0.8075148192192385,0.0,0.0,0.0,0.0,0.0,0.0,-0.368,0.0
799,0.0,0.0,0.0,0.0,0.0,0.111740234375,0.0,0.0,0.0,0.0,0.0,0.0,-1.086183271219082,0.0,0.0,0.0,0.0,0.0,0.0,-0.696,0.0
800,0.0,0.0,0.0,0.0,0.0,0.10494921875,0.0,0.0,0.0,0.0,0.0,0.0,-1.1106319547803463,0.0,0.0,0.0,0.0,0.0,0.0,-0.416,0.0
801,0.0,0.0,0.0,0.0,0.0,0.0977314453125,0.0,0.0,0.0,0.0,0.0,0.0,-0.7401125860951818,0.0,0.0,0.0,0.0,0.0,0.0,-0.608,0.0
802,0.0,0.0,0.0,0.0,0.0,0.0901142578125,0.0,0.0,0.0,0.0,0.0,0.0,-1.276043831470976,0.0,0.0,0.0,0.0,0.0,0.0,-0.896,0.0
803,0.0,0.0,0.0,0.0,0.0,0.082083984375,0.0,0.0,0.0,0.0,0.0,0.0,-1.015643097509813,0.0,0.0,0.0,0.0,0.0,0.0,-0.572,0.0
804,0.0,0.0,0.0,0.0,0.0,0.074453125,0.0,0.0,0.0,0.0,0.0,0.0,-0.6936690525235294,0.0,0.0,0.0,0.0,0.0,0.0,-0.864,0.0
805,0.0,0.0,0.0,0.0,0.0,0.0649765625,0.0,0.0,0.0,0.0,0.0,0.0,-1.1788291420560786,0.0,0.0,0.0,0.0,0.0,0.0,-0.888,0.0
806,0.0,0.0,0.0,0.0,0.0,0.054673828125,0.0,0.0,0.0,0.0,0.0,0.0,-0.6935850679876925,0.0,0.0,0.0,0.0,0.0,0.0,-0.552,0.0
807,0.0,0.0,0.0,0.0,0.0,0.0447841796875,0.0,0.0,0.0,0.0,0.0,0.0,-1.080686127315784,0.0,0.0,0.0,0.0,0.0,0.0,-0.832,0.0
808,0.0,0.0,0.0,0.0,0.0,0.0334482421875,0.0,0.0,0.0,0.0,0.0,0.0,-0.9270771979677552,0.0,0.0,0.0,0.0,0.0,0.0,-0.584,0.0
809,0.0,0.0,0.0,0.0,0.0,0.0239716796875,0.0,0.0,0.0,0.0,0.0,0.0,-0.591730220471655,0.0,0.0,0.0,0.0,0.0,0.0,-0.472,0.0
810,0.0,0.0,0.0,0.0,0.0,0.0112021484375,0.0,0.0,0.0,0.0,0.0,0.0,-1.1762485850057312,0.0,0.0,0.0,0.0,0.0,0.0,-1.052,0.0
811,0.0,0.0,0.0,0.0,0.0,-0.0011650390625,0.0,0.0,0.0,0.0,0.0,0.0,-0.9314184378806749,0.0,0.0,0.0,0.0,0.0,0.0,-0.768,0.0
812,0.0,0.0,0.0,0.0,0.0,-0.012087890625,0.0,0.0,0.0,0.0,0.0,0.0,-0.5549651327546077,0.0,0.0,0.0,0.0,0.0,0.0,-0.872,0.0
813,0.0,0.0,0.0,0.0,0.0,-0.0238369140625,0.0,0.0,0.0,0.0,0.0,0.0,-1.2826156011353773,0.0,0.0,0.0,0.0,0.0,0.0,-0.732,0.0
814,0.0,0.0,0.0,0.0,0.0,-0.038064453125,0.0,0.0,0.0,0.0,0.0,0.0,-1.203402518082593,0.0,0.0,0.0,0.0,0.0,0.0,-0.316,0.0
815,0.0,0.0,0.0,0.0,0.0,-0.0491943359375,0.0,0.0,0.0,0.0,0.0,0.0,-1.192375992943537,0.0,0.0,0.0,0.0,0.0,0.0,-0.824,0.0
816,0.0,0.0,0.0,0.0,0.0,-0.060529296875,0.0,0.0,0.0,0.0,0.0,0.0,-0.5428974888526781,0.0,0.0,0.0,0.0,0.0,0.0,-0.752,0.0
817,0.0,0.0,0.0,0.0,0.0,-0.0743447265625,0.0,0.0,0.0,0.0,0.0,0.0,-1.1903220135959613,0.0,0.0,0.0,0.0,0.0,0.0,-0.644,0.0
818,0.0,0.0,0.0,0.0,0.0,-0.0850732421875,0.0,0.0,0.0,0.0,0.0,0.0,-0.565308086604641,0.0,0.0,0.0,0.0,0.0,0.0,-0.844,0.0
819,0.0,0.0,0.0,0.0,0.0,-0.0980615234375,0.0,0.0,0.0,0.0,0.0,0.0,-0.9331403487235319,0.0,0.0,0.0,0.0,0.0,0.0,-0.504,0.0
820,0.0,0.0,0.0,0.0,0.0,-0.1092041015625,0.0,0.0,0.0,0.0,0.0,0.0,-0.9631303204524726,0.0,0.0,0.0,0.0,0.0,0.0,-0.452,0.0
821,0.0,0.0,0.0,0.0,0.0,-0.12137890625,0.0,0.0,0.0,0.0,0.0,0.0,-0.5488916306457158,0.0,0.0,0.0,0.0,0.0,0.0,-0.524,0.0
822,0.0,0.0,0.0,0.0,0.0,-0.132314453125,0.0,0.0,0.0,0.0,0.0,0.0,-1.2983881158130983,0.0,0.0,0.0,0.0,0.0,0.0,-0.436,0.0
823,0.0,0.0,0.0,0.0,0.0,-0.1426171875,0.0,0.0,0.0,0.0,0.0,0.0,-0.7342259994080068,0.0,0.0,0.0,0.0,0.0,0.0,-0.644,0.0
824,0.0,0.0,0.0,0.0,0.0,-0.153759765625,0.0,0.0,0.0,0.0,0.0,0.0,-1.248492516148987,0.0,0.0,0.0,0.0,0.0,0.0,-0.408,0.0
825,0.0,0.0,0.0,0.0,0.0,-0.1646953125,0.0,0.0,0.0,0.0,0.0,0.0,-0.9364073481427636,0.0,0.0,0.0,0.0,0.0,0.0,-0.396,0.0
826,0.0,0.0,0.0,0.0,0.0,-0.1741845703125,0.0,0.0,0.0,0.0,0.0,0.0,-1.168568110003457,0.0,0.0,0.0,0.0,0.0,0.0,-0.76,0.0
827,0.0,0.0,0.0,0.0,0.0,-0.1832607421875,0.0,0.0,0.0,0.0,0.0,0.0,-1.2757721466764806,0.0,0.0,0.0,0.0,0.0,0.0,-0.628,0.0
828,0.0,0.0,0.0,0.0,0.0,-0.1933701171875,0.0,0.0,0.0,0.0,0.0,0.0,-0.9083585808282648,0.0,0.0,0.0,0.0,0.0,0.0,-0.46,0.0
829,0.0,0.0,0.0,0.0,0.0,-0.203892578125,0.0,0.0,0.0,0.0,0.0,0.0,-1.1789105339038706,0.0,0.0,0.0,0.0,0.0,0.0,-0.52,0.0
830,0.0,0.0,0.0,0.0,0.0,-0.214001953125,0.0,0.0,0.0,0.0,0.0,0.0,-1.2310797991622253,0.0,0.0,0.0,0.0,0.0,0.0,-0.396,0.0
831,0.0,0.0,0.0,0.0,0.0,-0.2228720703125,0.0,0.0,0.0,0.0,0.0,0.0,-1.1704630979315387,0.0,0.0,0.0,0.0,0.0,0.0,-0.544,0.0
832,0.0,0.0,0.0,0.0,0.0,-0.23216796875,0.0,0.0,0.0,0.0,0.0,0.0,-0.8621208067937132,0.0,0.0,0.0,0.0,0.0,0.0,-0.512,0.0
833,0.0,0.0,0.0,0.0,0.0,-0.2420703125,0.0,0.0,0.0,0.0,0.0,0.0,-0.590939881075262,0.0,0.0,0.0,0.0,0.0,0.0,-0.584,0.0
834,0.0,0.0,0.0,0.0,0.0,-0.2517666015625,0.0,0.0,0.0,0.0,0.0,0.0,-0.5145579440423966,0.0,0.0,0.0,0.0,0.0,0.0,-0.728,0.0
835,0.0,0.0,0.0,0.0,0.0,-0.2614755859375,0.0,0.0,0.0,0.0,0.0,0.0,-0.7907857192145308,0.0,0.0,0.0,0.0,0.0,0.0,-0.792,0.0
836,0.0,0.0,0.0,0.0,0.0,-0.2699326171875,0.0,0.0,0.0,0.0,0.0,0.0,-0.7097506620014953,0.0,0.0,0.0,0.0,0.0,0.0,-0.608,0.0
837,0.0,0.0,0.0,0.0,0.0,-0.27921484375,0.0,0.0,0.0,0.0,0.0,0.0,-1.1774530792054207,0.0,0.0,0.0,0.0,0.0,0.0,-0.52,0.0
838,0.0,0.0,0.0,0.0,0.0,-0.289763671875,0.0,0.0,0.0,0.0,0.0,0.0,-0.7618340626052007,0.0,0.0,0.0,0.0,0.0,0.0,-0.556,0.0
839,0.0,0.0,0.0,0.0,0.0,-0.30069921875,0.0,0.0,0.0,0.0,0.0,0.0,-1.1962849390589478,0.0,0.0,0.0,0.0,0.0,0.0,-0.68,0.0
840,0.0,0.0,0.0,0.0,0.0,-0.30958203125,0.0,0.0,0.0,0.0,0.0,0.0,-0.5475422330658613,0.0,0.0,0.0,0.0,0.0,0.0,-0.728,0.0
841,0.0,0.0,0.0,0.0,0.0,-0.3207236328125,0.0,0.0,0.0,0.0,0.0,0.0,-0.985139862451682,0.0,0.0,0.0,0.0,0.0,0.0,-0.468,0.0
842,0.0,0.0,0.0,0.0,0.0,-0.3314658203125,0.0,0.0,0.0,0.0,0.0,0.0,-0.8171268121783513,0.0,0.0,0.0,0.0,0.0,0.0,-0.604,0.0
843,0.0,0.0,0.0,0.0,0.0,-0.34096875,0.0,0.0,0.0,0.0,0.0,0.0,-1.0960010766498187,0.0,0.0,0.0,0.0,0.0,0.0,-0.656,0.0
844,0.0,0.0,0.0,0.0,0.0,-0.3521103515625,0.0,0.0,0.0,0.0,0.0,0.0,-0.7200077399008901,0.0,0.0,0.0,0.0,0.0,0.0,-0.748,0.0
845,0.0,0.0,0.0,0.0,0.0,-0.3620263671875,0.0,0.0,0.0,0.0,0.0,0.0,-1.2746976700078467,0.0,0.0,0.0,0.0,0.0,0.0,-0.668,0.0
846,0.0,0.0,0.0,0.0,0.0,-0.3721484375,0.0,0.0,0.0,0.0,0.0,0.0,-0.7945135328954384,0.0,0.0,0.0,0.0,0.0,0.0,-0.584,0.0
847,0.0,0.0,0.0,0.0,0.0,-0.38454296875,0.0,0.0,0.0,0.0,0.0,0.0,-1.1489013468468743,0.0,0.0,0.0,0.0,0.0,0.0,-0.46,0.0
848,0.0,0.0,0.0,0.0,0.0,-0.395078125,0.0,0.0,0.0,0.0,0.0,0.0,-0.9460603468378929,0.0,0.0,0.0,0.0,0.0,0.0,-0.488,0.0
849,0.0,0.0,0.0,0.0,0.0,-0.4052001953125,0.0,0.0,0.0,0.0,0.0,0.0,-0.9104507914493534,0.0,0.0,0.0,0.0,0.0,0.0,-0.512,0.0
