EmanuelSamir/lab201_ws_projsamir/sawyer_dev/data/sawyer/temptest1.csv
,j1,j2,j3,j4,j5,j6,j7,jd1,jd2,jd3,jd4,jd5,jd6,jd7,e1,e2,e3,e4,e5,e6,e7
0,0.0,0.0,0.0,0.0,0.0,0.0,0.0,0.0,0.0,0.0,0.0,0.0,0.0,0.0,0.0,0.0,0.0,0.0,0.0,0.0,0.0
1,0.0,0.0,0.0,0.0,0.0,0.0,0.0022255859375,0.0,0.0,0.0,0.0,0.0,0.0,-0.5159922822006455,0.0,0.0,0.0,0.0,0.0,0.0,-0.004
2,0.0,0.0,0.0,0.0,0.0,0.0,0.0022255859375,0.0,0.0,0.0,0.0,0.0,0.0,-0.9207772877571633,0.0,0.0,0.0,0.0,0.0,0.0,0.012
3,0.0,0.0,0.0,0.0,0.0,0.0,-0.00043359375,0.0,0.0,0.0,0.0,0.0,0.0,-0.7838213189867048,0.0,0.0,0.0,0.0,0.0,0.0,-0.296
4,0.0,0.0,0.0,0.0,0.0,0.0,-0.0084384765625,0.0,0.0,0.0,0.0,0.0,0.0,-0.5241616780529709,0.0,0.0,0.0,0.0,0.0,0.0,-0.252
5,0.0,0.0,0.0,0.0,0.0,0.0,-0.0211689453125,0.0,0.0,0.0,0.0,0.0,0.0,-0.5546178345143761,0.0,0.0,0.0,0.0,0.0,0.0,-0.244
6,0.0,0.0,0.0,0.0,0.0,0.0,-0.0359521484375,0.0,0.0,0.0,0.0,0.0,0.0,-1.0641158549790004,0.0,0.0,0.0,0.0,0.0,0.0,-0.264
7,0.0,0.0,0.0,0.0,0.0,0.0,-0.05339453125,0.0,0.0,0.0,0.0,0.0,0.0,-0.8685372802850733,0.0,0.0,0.0,0.0,0.0,0.0,-0.276
8,0.0,0.0,0.0,0.0,0.0,0.0,-0.0741162109375,0.0,0.0,0.0,0.0,0.0,0.0,-0.5061616489211158,0.0,0.0,0.0,0.0,0.0,0.0,0.076
9,0.0,0.0,0.0,0.0,0.0,0.0,-0.09505859375,0.0,0.0,0.0,0.0,0.0,0.0,-1.2620683658491814,0.0,0.0,0.0,0.0,0.0,0.0,-0.26
10,0.0,0.0,0.0,0.0,0.0,0.0,-0.1176396484375,0.0,0.0,0.0,0.0,0.0,0.0,-0.6962876699958888,0.0,0.0,0.0,0.0,0.0,0.0,-0.12
11,0.0,0.0,0.0,0.0,0.0,0.0,-0.1367470703125,0.0,0.0,0.0,0.0,0.0,0.0,-0.5397676238945311,0.0,0.0,0.0,0.0,0.0,0.0,-0.116
12,0.0,0.0,0.0,0.0,0.0,0.0,-0.154603515625,0.0,0.0,0.0,0.0,0.0,0.0,-1.2710618919479206,0.0,0.0,0.0,0.0,0.0,0.0,-0.208
13,0.0,0.0,0.0,0.0,0.0,0.0,-0.1712197265625,0.0,0.0,0.0,0.0,0.0,0.0,-0.809595812376212,0.0,0.0,0.0,0.0,0.0,0.0,-0.064
14,0.0,0.0,0.0,0.0,0.0,0.0,-0.1845693359375,0.0,0.0,0.0,0.0,0.0,0.0,-1.14770234284385,0.0,0.0,0.0,0.0,0.0,0.0,-0.272
15,0.0,0.0,0.0,0.0,0.0,0.0,-0.197080078125,0.0,0.0,0.0,0.0,0.0,0.0,-0.7572625528717731,0.0,0.0,0.0,0.0,0.0,0.0,-0.2
16,0.0,0.0,0.0,0.0,0.0,0.0,-0.20653125,0.0,0.0,0.0,0.0,0.0,0.0,-1.0291029949078776,0.0,0.0,0.0,0.0,0.0,0.0,-0.148
17,0.0,0.0,0.0,0.0,0.0,0.0,-0.2149365234375,0.0,0.0,0.0,0.0,0.0,0.0,-1.093310017306298,0.0,0.0,0.0,0.0,0.0,0.0,-0.2
18,0.0,0.0,0.0,0.0,0.0,0.0,-0.223767578125,0.0,0.0,0.0,0.0,0.0,0.0,-0.7492497906646775,0.0,0.0,0.0,0.0,0.0,0.0,-0.188
19,0.0,0.0,0.0,0.0,0.0,0.0,-0.23403125,0.0,0.0,0.0,0.0,0.0,0.0,-0.8253691843409765,0.0,0.0,0.0,0.0,0.0,0.0,-0.2
20,0.0,0.0,0.0,0.0,0.0,0.0,-0.245109375,0.0,0.0,0.0,0.0,0.0,0.0,-1.2580454180859209,0.0,0.0,0.0,0.0,0.0,0.0,-0.088
21,0.0,0.0,0.0,0.0,0.0,0.0,-0.2559931640625,0.0,0.0,0.0,0.0,0.0,0.0,-1.090004657773923,0.0,0.0,0.0,0.0,0.0,0.0,-0.14
22,0.0,0.0,0.0,0.0,0.0,0.0,-0.2685166015625,0.0,0.0,0.0,0.0,0.0,0.0,-1.0482439541498942,0.0,0.0,0.0,0.0,0.0,0.0,-0.276
23,0.0,0.0,0.0,0.0,0.0,0.0,-0.2834931640625,0.0,0.0,0.0,0.0,0.0,0.0,-1.001796920462052,0.0,0.0,0.0,0.0,0.0,0.0,-0.24
24,0.0,0.0,0.0,0.0,0.0,0.0,-0.2978759765625,0.0,0.0,0.0,0.0,0.0,0.0,-0.6715763741962778,0.0,0.0,0.0,0.0,0.0,0.0,-0.192
25,0.0,0.0,0.0,0.0,0.0,0.0,-0.312865234375,0.0,0.0,0.0,0.0,0.0,0.0,-1.203184588747352,0.0,0.0,0.0,0.0,0.0,0.0,-0.244
26,0.0,0.0,0.0,0.0,0.0,0.0,-0.329482421875,0.0,0.0,0.0,0.0,0.0,0.0,-1.181338724792012,0.0,0.0,0.0,0.0,0.0,0.0,-0.128
27,0.0,0.0,0.0,0.0,0.0,0.0,-0.3444716796875,0.0,0.0,0.0,0.0,0.0,0.0,-0.5602405298817006,0.0,0.0,0.0,0.0,0.0,0.0,-0.116
28,0.0,0.0,0.0,0.0,0.0,0.0,-0.35966796875,0.0,0.0,0.0,0.0,0.0,0.0,-1.2349701729368787,0.0,0.0,0.0,0.0,0.0,0.0,-0.324
29,0.0,0.0,0.0,0.0,0.0,0.0,-0.375677734375,0.0,0.0,0.0,0.0,0.0,0.0,-0.7631324771525612,0.0,0.0,0.0,0.0,0.0,0.0,-0.168
30,0.0,0.0,0.0,0.0,0.0,0.0,-0.389427734375,0.0,0.0,0.0,0.0,0.0,0.0,-0.9826555150957654,0.0,0.0,0.0,0.0,0.0,0.0,-0.244
31,0.0,0.0,0.0,0.0,0.0,0.0,-0.403177734375,0.0,0.0,0.0,0.0,0.0,0.0,-0.9587427327378261,0.0,0.0,0.0,0.0,0.0,0.0,-0.276
32,0.0,0.0,0.0,0.0,0.0,0.0,-0.417560546875,0.0,0.0,0.0,0.0,0.0,0.0,-1.1142075395441733,0.0,0.0,0.0,0.0,0.0,0.0,-0.052
33,0.0,0.0,0.0,0.0,0.0,0.0,-0.4298779296875,0.0,0.0,0.0,0.0,0.0,0.0,-1.1537375063987758,0.0,0.0,0.0,0.0,0.0,0.0,-0.148
34,0.0,0.0,0.0,0.0,0.0,0.0,-0.44198828125,0.0,0.0,0.0,0.0,0.0,0.0,-0.9029220990368124,0.0,0.0,0.0,0.0,0.0,0.0,-0.292
35,0.0,0.0,0.0,0.0,0.0,0.0,-0.45553125,0.0,0.0,0.0,0.0,0.0,0.0,-0.5410722462026318,0.0,0.0,0.0,0.0,0.0,0.0,-0.188
36,0.0,0.0,0.0,0.0,0.0,0.0,-0.468068359375,0.0,0.0,0.0,0.0,0.0,0.0,-0.8311270520787183,0.0,0.0,0.0,0.0,0.0,0.0,-0.188
37,0.0,0.0,0.0,0.0,0.0,0.0,-0.4787451171875,0.0,0.0,0.0,0.0,0.0,0.0,-1.2923656083837138,0.0,0.0,0.0,0.0,0.0,0.0,-0.192
38,0.0,0.0,0.0,0.0,0.0,0.0,-0.493322265625,0.0,0.0,0.0,0.0,0.0,0.0,-1.1932511720563237,0.0,0.0,0.0,0.0,0.0,0.0,-0.22
39,0.0,0.0,0.0,0.0,0.0,0.0,-0.506865234375,0.0,0.0,0.0,0.0,0.0,0.0,-0.5995174903858749,0.0,0.0,0.0,0.0,0.0,0.0,-0.064
40,0.0,0.0,0.0,0.0,0.0,0.0,-0.5189892578125,0.0,0.0,0.0,0.0,0.0,0.0,-0.9827935173089137,0.0,0.0,0.0,0.0,0.0,0.0,-0.252
41,0.0,0.0,0.0,0.0,0.0,0.0,-0.5321318359375,0.0,0.0,0.0,0.0,0.0,0.0,-0.8130847210348402,0.0,0.0,0.0,0.0,0.0,0.0,-0.292
42,0.0,0.0,0.0,0.0,0.0,0.0,-0.5469150390625,0.0,0.0,0.0,0.0,0.0,0.0,-0.9455546719050566,0.0,0.0,0.0,0.0,0.0,0.0,-0.18
43,0.0,0.0,0.0,0.0,0.0,0.0,-0.56005859375,0.0,0.0,0.0,0.0,0.0,0.0,-0.5368354438708037,0.0,0.0,0.0,0.0,0.0,0.0,-0.2
44,0.0,0.0,0.0,0.0,0.0,0.0,-0.573408203125,0.0,0.0,0.0,0.0,0.0,0.0,1.2208979218776617,0.0,0.0,0.0,0.0,0.0,0.0,-0.272
45,0.0,0.0,0.0,0.0,0.0,0.0,-0.5886044921875,0.0,0.0,0.0,0.0,0.0,0.0,1.2451053117648185,0.0,0.0,0.0,0.0,0.0,0.0,-0.104
46,0.0,0.0,0.0,0.0,0.0,0.0,-0.5986748046875,0.0,0.0,0.0,0.0,0.0,0.0,1.1714086246436888,0.0,0.0,0.0,0.0,0.0,0.0,-0.052
47,0.0,0.0,0.0,0.0,0.0,0.0,-0.600728515625,0.0,0.0,0.0,0.0,0.0,0.0,0.8474871527464032,0.0,0.0,0.0,0.0,0.0,0.0,-0.128
48,0.0,0.0,0.0,0.0,0.0,0.0,-0.599294921875,0.0,0.0,0.0,0.0,0.0,0.0,1.1320163779618397,0.0,0.0,0.0,0.0,0.0,0.0,-0.012
49,0.0,0.0,0.0,0.0,0.0,0.0,-0.5947763671875,0.0,0.0,0.0,0.0,0.0,0.0,1.0775358654573277,0.0,0.0,0.0,0.0,0.0,0.0,0.052
50,0.0,0.0,0.0,0.0,0.0,0.0,-0.586138671875,0.0,0.0,0.0,0.0,0.0,0.0,1.0464142138937644,0.0,0.0,0.0,0.0,0.0,0.0,0.148
51,0.0,0.0,0.0,0.0,0.0,0.0,-0.57444140625,0.0,0.0,0.0,0.0,0.0,0.0,1.0584693675894448,0.0,0.0,0.0,0.0,0.0,0.0,0.052
52,0.0,0.0,0.0,0.0,0.0,0.0,-0.558005859375,0.0,0.0,0.0,0.0,0.0,0.0,0.7994260875836696,0.0,0.0,0.0,0.0,0.0,0.0,-0.024
53,0.0,0.0,0.0,0.0,0.0,0.0,-0.5415703125,0.0,0.0,0.0,0.0,0.0,0.0,1.0249613236507116,0.0,0.0,0.0,0.0,0.0,0.0,0.14
54,0.0,0.0,0.0,0.0,0.0,0.0,-0.519802734375,0.0,0.0,0.0,0.0,0.0,0.0,0.9022542886535136,0.0,0.0,0.0,0.0,0.0,0.0,-0.096
55,0.0,0.0,0.0,0.0,0.0,0.0,-0.4947548828125,0.0,0.0,0.0,0.0,0.0,0.0,0.5892049577445572,0.0,0.0,0.0,0.0,0.0,0.0,0.232
56,0.0,0.0,0.0,0.0,0.0,0.0,-0.4688818359375,0.0,0.0,0.0,0.0,0.0,0.0,1.2292612329578563,0.0,0.0,0.0,0.0,0.0,0.0,-0.024
57,0.0,0.0,0.0,0.0,0.0,0.0,-0.4401416015625,0.0,0.0,0.0,0.0,0.0,0.0,1.1396233976097634,0.0,0.0,0.0,0.0,0.0,0.0,0.012
58,0.0,0.0,0.0,0.0,0.0,0.0,-0.413455078125,0.0,0.0,0.0,0.0,0.0,0.0,1.2920774017013499,0.0,0.0,0.0,0.0,0.0,0.0,0.12
59,0.0,0.0,0.0,0.0,0.0,0.0,-0.3861484375,0.0,0.0,0.0,0.0,0.0,0.0,0.7179640382946634,0.0,0.0,0.0,0.0,0.0,0.0,-0.232
60,0.0,0.0,0.0,0.0,0.0,0.0,-0.3606875,0.0,0.0,0.0,0.0,0.0,0.0,0.540254868794724,0.0,0.0,0.0,0.0,0.0,0.0,0.172
61,0.0,0.0,0.0,0.0,0.0,0.0,-0.3387265625,0.0,0.0,0.0,0.0,0.0,0.0,0.7039499119979946,0.0,0.0,0.0,0.0,0.0,0.0,0.016
62,0.0,0.0,0.0,0.0,0.0,0.0,-0.319630859375,0.0,0.0,0.0,0.0,0.0,0.0,0.8176369536916355,0.0,0.0,0.0,0.0,0.0,0.0,0.084
63,0.0,0.0,0.0,0.0,0.0,0.0,-0.3026015625,0.0,0.0,0.0,0.0,0.0,0.0,1.117843573581084,0.0,0.0,0.0,0.0,0.0,0.0,0.004
64,0.0,0.0,0.0,0.0,0.0,0.0,-0.28987109375,0.0,0.0,0.0,0.0,0.0,0.0,0.813556040190764,0.0,0.0,0.0,0.0,0.0,0.0,0.032
65,0.0,0.0,0.0,0.0,0.0,0.0,-0.278974609375,0.0,0.0,0.0,0.0,0.0,0.0,1.0173007378532701,0.0,0.0,0.0,0.0,0.0,0.0,-0.016
66,0.0,0.0,0.0,0.0,0.0,0.0,-0.269330078125,0.0,0.0,0.0,0.0,0.0,0.0,0.8229309419203674,0.0,0.0,0.0,0.0,0.0,0.0,-0.084
67,0.0,0.0,0.0,0.0,0.0,0.0,-0.2619453125,0.0,0.0,0.0,0.0,0.0,0.0,1.037959722436138,0.0,0.0,0.0,0.0,0.0,0.0,-0.024
68,0.0,0.0,0.0,0.0,0.0,0.0,-0.2557861328125,0.0,0.0,0.0,0.0,0.0,0.0,1.2133037288147173,0.0,0.0,0.0,0.0,0.0,0.0,-0.012
69,0.0,0.0,0.0,0.0,0.0,0.0,-0.2498349609375,0.0,0.0,0.0,0.0,0.0,0.0,0.7886172312789299,0.0,0.0,0.0,0.0,0.0,0.0,0.104
70,0.0,0.0,0.0,0.0,0.0,0.0,-0.242849609375,0.0,0.0,0.0,0.0,0.0,0.0,1.2260118708197218,0.0,0.0,0.0,0.0,0.0,0.0,0.208
71,0.0,0.0,0.0,0.0,0.0,0.0,-0.234638671875,0.0,0.0,0.0,0.0,0.0,0.0,1.039393281311193,0.0,0.0,0.0,0.0,0.0,0.0,0.032
72,0.0,0.0,0.0,0.0,0.0,0.0,-0.224787109375,0.0,0.0,0.0,0.0,0.0,0.0,1.037411637343165,0.0,0.0,0.0,0.0,0.0,0.0,0.016
73,0.0,0.0,0.0,0.0,0.0,0.0,-0.2145361328125,0.0,0.0,0.0,0.0,0.0,0.0,1.1911359872037208,0.0,0.0,0.0,0.0,0.0,0.0,0.0
74,0.0,0.0,0.0,0.0,0.0,0.0,-0.2034453125,0.0,0.0,0.0,0.0,0.0,0.0,1.141487026864992,0.0,0.0,0.0,0.0,0.0,0.0,0.052
75,0.0,0.0,0.0,0.0,0.0,0.0,-0.1913349609375,0.0,0.0,0.0,0.0,0.0,0.0,0.9185340527530936,0.0,0.0,0.0,0.0,0.0,0.0,0.056
76,0.0,0.0,0.0,0.0,0.0,0.0,-0.175119140625,0.0,0.0,0.0,0.0,0.0,0.0,0.9380823166796894,0.0,0.0,0.0,0.0,0.0,0.0,-0.004
77,0.0,0.0,0.0,0.0,0.0,0.0,-0.16076171875,0.0,0.0,0.0,0.0,0.0,0.0,0.969167936085632,0.0,0.0,0.0,0.0,0.0,0.0,0.128
78,0.0,0.0,0.0,0.0,0.0,0.0,-0.1445458984375,0.0,0.0,0.0,0.0,0.0,0.0,1.0023387195175895,0.0,0.0,0.0,0.0,0.0,0.0,0.064
79,0.0,0.0,0.0,0.0,0.0,0.0,-0.129556640625,0.0,0.0,0.0,0.0,0.0,0.0,0.9091860829344812,0.0,0.0,0.0,0.0,0.0,0.0,0.032
80,0.0,0.0,0.0,0.0,0.0,0.0,-0.113947265625,0.0,0.0,0.0,0.0,0.0,0.0,1.18771563666616,0.0,0.0,0.0,0.0,0.0,0.0,0.128
81,0.0,0.0,0.0,0.0,0.0,0.0,-0.0948515625,0.0,0.0,0.0,0.0,0.0,0.0,1.0301565714713683,0.0,0.0,0.0,0.0,0.0,0.0,-0.024
82,0.0,0.0,0.0,0.0,0.0,0.0,-0.0792548828125,0.0,0.0,0.0,0.0,0.0,0.0,1.2019945782251433,0.0,0.0,0.0,0.0,0.0,0.0,0.016
83,0.0,0.0,0.0,0.0,0.0,0.0,-0.0657119140625,0.0,0.0,0.0,0.0,0.0,0.0,0.6172747274420236,0.0,0.0,0.0,0.0,0.0,0.0,0.24
84,0.0,0.0,0.0,0.0,0.0,0.0,-0.0494951171875,0.0,0.0,0.0,0.0,0.0,0.0,0.9896245806878226,0.0,0.0,0.0,0.0,0.0,0.0,0.016
85,0.0,0.0,0.0,0.0,0.0,0.0,-0.03533203125,0.0,0.0,0.0,0.0,0.0,0.0,0.5148775691994995,0.0,0.0,0.0,0.0,0.0,0.0,0.044
86,0.0,0.0,0.0,0.0,0.0,0.0,-0.0197353515625,0.0,0.0,0.0,0.0,0.0,0.0,0.9752454937116171,0.0,0.0,0.0,0.0,0.0,0.0,0.16
87,0.0,0.0,0.0,0.0,0.0,0.0,-0.0065927734375,0.0,0.0,0.0,0.0,0.0,0.0,0.7308095743671018,0.0,0.0,0.0,0.0,0.0,0.0,-0.088
88,0.0,0.0,0.0,0.0,0.0,0.0,0.0073642578125,0.0,0.0,0.0,0.0,0.0,0.0,0.9398673409782929,0.0,0.0,0.0,0.0,0.0,0.0,0.104
89,0.0,0.0,0.0,0.0,0.0,0.0,0.0196689453125,0.0,0.0,0.0,0.0,0.0,0.0,1.1060516542969143,0.0,0.0,0.0,0.0,0.0,0.0,0.172
90,0.0,0.0,0.0,0.0,0.0,0.0,0.0319853515625,0.0,0.0,0.0,0.0,0.0,0.0,0.7594340720538371,0.0,0.0,0.0,0.0,0.0,0.0,0.024
91,0.0,0.0,0.0,0.0,0.0,0.0,0.0455419921875,0.0,0.0,0.0,0.0,0.0,0.0,0.6717595966326513,0.0,0.0,0.0,0.0,0.0,0.0,-0.064
92,0.0,0.0,0.0,0.0,0.0,0.0,0.057033203125,0.0,0.0,0.0,0.0,0.0,0.0,0.5132799130070405,0.0,0.0,0.0,0.0,0.0,0.0,0.104
93,0.0,0.0,0.0,0.0,0.0,0.0,0.0695693359375,0.0,0.0,0.0,0.0,0.0,0.0,0.8566361303054866,0.0,0.0,0.0,0.0,0.0,0.0,-0.012
94,0.0,0.0,0.0,0.0,0.0,0.0,0.0822861328125,0.0,0.0,0.0,0.0,0.0,0.0,0.8241539512556955,0.0,0.0,0.0,0.0,0.0,0.0,-0.052
95,0.0,0.0,0.0,0.0,0.0,0.0,0.094603515625,0.0,0.0,0.0,0.0,0.0,0.0,1.2948869741428868,0.0,0.0,0.0,0.0,0.0,0.0,0.096
96,0.0,0.0,0.0,0.0,0.0,0.0,0.1067138671875,0.0,0.0,0.0,0.0,0.0,0.0,0.8697511800715805,0.0,0.0,0.0,0.0,0.0,0.0,0.156
97,0.0,0.0,0.0,0.0,0.0,0.0,0.1204638671875,0.0,0.0,0.0,0.0,0.0,0.0,1.0606339600408334,0.0,0.0,0.0,0.0,0.0,0.0,0.004
98,0.0,0.0,0.0,0.0,0.0,0.0,0.133814453125,0.0,0.0,0.0,0.0,0.0,0.0,0.9758035008620791,0.0,0.0,0.0,0.0,0.0,0.0,0.012
99,0.0,0.0,0.0,0.0,0.0,0.0,0.146337890625,0.0,0.0,0.0,0.0,0.0,0.0,1.216118574790308,0.0,0.0,0.0,0.0,0.0,0.0,0.036
100,0.0,0.0,0.0,0.0,0.0,0.0,0.1607080078125,0.0,0.0,0.0,0.0,0.0,0.0,0.630188529475844,0.0,0.0,0.0,0.0,0.0,0.0,-0.044
